PaulMeinheit/Bachelor_Muay_Thai/processed_Data/E1/teep/scaled/JointAngles/scaled8.csv
L_MTP_ANGLE,L_MTP_ANGLE,L_MTP_ANGLE,R_MTP_ANGLE,R_MTP_ANGLE,R_MTP_ANGLE,L_ANKLE_ANGLE,L_ANKLE_ANGLE,L_ANKLE_ANGLE,R_ANKLE_ANGLE,R_ANKLE_ANGLE,R_ANKLE_ANGLE,L_KNEE_ANGLE,L_KNEE_ANGLE,L_KNEE_ANGLE,R_KNEE_ANGLE,R_KNEE_ANGLE,R_KNEE_ANGLE,L_HIP_ANGLE,L_HIP_ANGLE,L_HIP_ANGLE,R_HIP_ANGLE,R_HIP_ANGLE,R_HIP_ANGLE,L_SHOULDER_ANGLE,L_SHOULDER_ANGLE,L_SHOULDER_ANGLE,R_SHOULDER_ANGLE,R_SHOULDER_ANGLE,R_SHOULDER_ANGLE,L_ELBOW_ANGLE,L_ELBOW_ANGLE,L_ELBOW_ANGLE,R_ELBOW_ANGLE,R_ELBOW_ANGLE,R_ELBOW_ANGLE,L_WRIST_ANGLE,L_WRIST_ANGLE,L_WRIST_ANGLE,R_WRIST_ANGLE,R_WRIST_ANGLE,R_WRIST_ANGLE,NECK_ANGLE,NECK_ANGLE,NECK_ANGLE,NECK_ANGLE_SHADOW,NECK_ANGLE_SHADOW,NECK_ANGLE_SHADOW,Trunk_Joint_Angle,Trunk_Joint_Angle,Trunk_Joint_Angle
X,Y,Z,X,Y,Z,X,Y,Z,X,Y,Z,X,Y,Z,X,Y,Z,X,Y,Z,X,Y,Z,X,Y,Z,X,Y,Z,X,Y,Z,X,Y,Z,X,Y,Z,X,Y,Z,X,Y,Z,X,Y,Z,X,Y,Z
-7.089570000000001,0.0,0.0,-5.98777,0.0,0.0,-17.276640000000004,-10.799000000000001,14.53736,9.814970000000004,3.15979,-8.961400000000003,-22.929920000000003,-4.971300000000002,-0.00013000000000000002,-2.4537200000000006,1.9185600000000003,-0.00013000000000000004,31.837519999999998,20.086680000000005,13.685520000000002,0.006230000000000001,4.092019999999999,-12.534280000000004,23.713360000000005,24.44983,13.211830000000004,42.131540000000015,-4.1781,41.76682000000001,121.74139000000002,0.0020400000000000006,-84.83486000000002,126.73387000000001,-0.00139,95.49279000000003,-10.34134,-19.146340000000002,0.00073,-23.797820000000005,14.372550000000004,0.005660000000000001,-5.494100000000001,-8.29361,8.680860000000001,-28.020350000000004,-10.965710000000001,4.863760000000001,3.2158600000000006,4.927580000000001,6.01335
-7.53567027236077,0.0,0.0,-6.852035148617325,0.0,0.0,-17.251339164330197,-10.95432539254919,13.08617791343727,10.14774959391343,4.182745435344138,-8.81656473090871,-24.30137209445098,-4.7816932105189425,-0.0007425979990722036,-2.1291882399788706,1.8711496286322185,6.119010803433785e-05,32.3332569106727,20.403550347869686,14.448307751404972,-0.2755977100534963,3.9145351409243143,-12.78767625652953,23.589920607357854,24.76799086584676,13.690600525621527,42.69565478799092,-4.600908173856424,41.63440530527845,121.56346197748965,0.002430356077926293,-84.70178462860581,126.48531340956964,0.004443299879157749,90.45501098518407,-11.797163315038318,-19.310736630720065,-0.0026564320354369804,-25.024790637252462,11.333094008016674,0.010243156342254528,-4.747002388653106,-8.252979042182345,9.345997863521578,-27.246934995056627,-11.180218493712385,5.499200375971034,3.0740221730437787,5.012719606096347,6.153347262473096
-6.270026589608042,0.0,0.0,-7.466655971837855,0.0,0.0,-17.66759356803044,-10.235778677513752,11.948835559236356,10.222925247042,4.6970750017580105,-8.665323767430431,-25.58841352025753,-5.003012513488049,0.00028984662079063934,-1.90300676615762,1.9706059698182905,-6.069768356407971e-05,32.87570119645572,20.572875712043764,14.593980630164552,-0.6041464196432206,3.5984342443366946,-13.07472424256489,24.090103171194013,24.871156205769974,13.391887431004836,42.97500987668567,-4.4820199578018265,41.359243648246455,120.912617501622,0.002481275538809599,-85.2784692281023,126.35824964272922,-0.00012089774496384921,94.91477530899893,-12.771951382946845,-19.176960565497048,0.0015732667281033602,-25.674333370767915,14.670902657534732,0.01895270938940186,-4.261441482168869,-8.682338005005446,8.742327687823408,-26.815076355748342,-11.348058240209706,4.76911451978001,3.139794006170873,4.934079174602891,6.305760947988319
-5.616697491298503,0.0,0.0,-6.925685134289381,0.0,0.0,-18.09703781383796,-8.869760790690512,10.61295951703715,9.872925471741846,4.420030239890708,-8.277361832226122,-27.415764596335244,-5.497799552598592,-0.0001191922911015636,-1.8683484185072525,2.1262161560412447,-2.4153347657529136e-05,33.5317589125925,21.128011385251572,14.689282042754837,-0.9635714378732296,3.315781321953658,-13.085509242660741,24.30246602350743,25.056481042338735,13.773236510045047,42.88930726094023,-4.5430354538369775,40.90155789988117,120.55173316607429,-0.004616381088565413,-89.25588942608687,126.3318790739107,-0.0004958407061180132,98.22589380915869,-12.344020388512622,-20.86779278524758,-0.00027525490918008284,-22.424477698743974,17.04531197615333,-0.006530792834767969,-4.582791336529498,-8.954721213370444,8.676890170376069,-27.159704508073286,-11.574773485697454,4.601540551177157,3.04896903398476,5.27075320593677,6.56968382239595
-5.066091939795788,0.0,0.0,-8.264033613563894,0.0,0.0,-18.794724085213673,-9.154211789702734,9.889157399849335,10.252616039847585,5.2741751552038565,-9.19425341571009,-29.036658349407777,-6.610491946912937,0.0002824952714405274,-1.836011513946563,1.861920412589332,-3.664524936327558e-06,34.26996244857085,21.854043204377216,13.932377453466259,-0.9863337973051403,3.1074220593330937,-12.171350050430052,24.186559558599498,25.173554031471504,14.209233137027429,42.663901224512394,-4.21485164385435,41.22463690852123,120.03638067676195,0.0030590132200709647,-93.50858488186324,125.96898225817802,0.0003219550337744648,100.4512378216823,-11.439074961294992,-20.911206002469367,-0.003209087746564132,-20.786240185694407,17.168180534730872,-0.0028542948715352618,-5.3964410384942285,-9.225476043052144,8.773793228096752,-27.99190632695003,-11.861512561531818,4.585561149970418,3.32520360693264,5.4362089911056195,6.666609547740364
-3.1535679201850013,0.0,0.0,-7.2455527777357815,0.0,0.0,-19.81127907297507,-9.420444493080804,8.936380832355097,10.174065037406283,4.773095094260378,-8.444304709756617,-30.87910950417139,-6.312006769792563,-0.000721199032360528,-1.815696281088412,1.8518042063534466,-2.307720809309727e-05,34.89497313719603,21.495011637501893,15.100034383909641,-1.4236473215225138,2.2693239406496097,-12.917619113584287,24.216983709212766,24.650662739867823,14.68427635593312,42.745700621882854,-4.476396008850016,40.45138254288697,119.84140411418493,-0.0015508632484931687,-93.41797225040662,125.96528243645524,-0.0008596533527172784,98.10324151632251,-10.632517024203773,-20.850121418995414,-0.001480400157688786,-18.996053705127363,17.685714052938557,0.0011723536349163028,-5.606989764404101,-9.58923613497586,8.404025873633472,-28.242977312833396,-12.05701781743411,4.098353353485,3.3444669572527284,5.242384063351879,6.54406017417833
-2.885548549029281,0.0,0.0,-5.459003927889379,0.0,0.0,-20.449619245672086,-9.533504761468622,8.651823046079882,9.776201569115214,4.222502251593354,-8.935663613255644,-32.68990189763208,-6.521770172374997,0.0008074429585945261,-1.4209511191228317,1.967636292131752,3.4316636016667665e-05,35.733881382046,21.504650100825,15.597079004331253,-1.7732287925463746,1.6812715933384021,-12.850835253610907,24.102980397028954,24.906188849921502,14.810441536450613,43.2078882670443,-4.2194681302640555,40.66276335738132,119.82553617000575,0.000733587508320544,-91.11981950360875,125.66428308113497,-0.0017463742795304717,96.0036467309593,-12.055004969838192,-20.68151647071775,-0.0018189756192662629,-21.44215081029597,16.600021910201608,0.0036115147020919533,-5.871384282141698,-9.447867752296032,8.959903014239575,-28.479176742986436,-12.137406600896284,4.671503575408638,3.5748889373148467,5.025486199189138,6.482799805065951
-1.4255924997109268,0.0,0.0,-6.561597380348733,0.0,0.0,-21.244650037582197,-9.564577076743703,7.711478138522027,10.269277991652276,5.515902969490512,-8.834645967670903,-34.67108448691135,-6.705199710976198,-0.0005838772636687106,-1.2981046221430446,1.6669737810154994,-6.077512235914182e-05,36.57402161523408,21.568665561013766,16.03624078735999,-2.080383059730544,1.1878107189129192,-13.304120958485278,25.045024632668476,25.260138474574347,14.505097460699298,43.83278700946182,-3.958842714863245,41.26241362536977,118.96543189083317,0.00015961132622430423,-90.41944291544867,125.24393407921016,0.003243093336164604,102.96022528288438,-12.853710361717077,-20.916867670616185,-0.000966649057951801,-21.955989248099396,16.292210412726174,-0.003377861281043167,-6.169667968146938,-9.798726787865505,8.536774462427982,-28.81934179775695,-12.300740396581327,4.139396900142307,3.6625435661382983,5.024363272809319,6.8262001454535755
-0.42878734874272306,0.0,0.0,-5.480893041045293,0.0,0.0,-21.2951137454536,-9.408175508231643,6.968936595078089,9.958482126459401,5.749926950754896,-7.792696067687161,-36.57385464932571,-7.107405650583923,0.0002571173983290227,-0.9244280889517815,1.7778930339284535,3.097213732106173e-06,37.757546048698124,21.508321324335228,15.97901135085079,-2.0512739410189114,0.3845854089999132,-14.472675494715567,25.176414809590803,25.245667641387975,14.959864657376604,44.12279079703134,-3.7702134056038608,41.57668949153911,118.84804387505942,0.00042422658376803455,-93.75378840690306,125.49523726140906,-8.99992918666942e-05,104.65591993305745,-12.266628442009452,-21.668816348647745,-0.0069826435795085524,-21.575646858774626,16.57177363029449,0.001057867864732846,-5.692727984041635,-9.873632977255118,9.541144437369688,-28.317480606579476,-12.750778215670142,5.045491646776302,4.492041297956748,4.962156473389694,7.106240294751029
-0.17437018706062332,0.0,0.0,-4.536168442869727,0.0,0.0,-21.300341020900333,-8.21657591590648,5.648560454030925,9.93220744446422,6.089370039073309,-8.06599670952089,-38.72502182981361,-7.522152575484603,0.0003896493719258659,-0.2876344001720797,2.014122234461329,0.00015877159069473332,38.286789131405634,22.07122333037749,15.902587342379888,-3.1074607202344264,0.17919968317390392,-14.414426849064418,25.469060850563157,25.54543977764899,14.497852393980256,44.73454502370031,-4.304293048477471,42.06247883746081,118.73360927262735,0.0002030163723373243,-101.47791376520472,125.768516282934,-0.0014755451132331787,106.79079341610432,-10.534003338873092,-22.704551336608326,0.002939578759421216,-22.393182448479717,16.34245630759278,6.729772076395369e-05,-5.07387917655526,-9.819966020907511,9.617033437218813,-27.691323590806505,-12.729998564758432,5.137426879108905,4.66094320851885,5.285346256175734,7.45042543501785
0.9610499922527931,0.0,0.0,-5.86810623116521,0.0,0.0,-20.366678612382255,-8.723364885926658,5.187312250460888,10.28744081462824,6.105919365214071,-8.266160639347255,-40.82557242399071,-8.413743070289177,-0.0004095244734321635,0.3259048404968396,1.9465979900228412,-6.552481159693952e-05,39.341146280015344,22.323752321689668,14.217284169180832,-3.8064921645588603,0.1861620644252572,-14.810701653534608,25.359392431734157,25.901573749673716,14.949138712054486,45.66034645715879,-4.145579059052804,43.06783556609739,118.89984501096214,-0.0018681494434401136,-101.79115046049331,125.69669572442068,0.0018313525009433244,112.42226224973275,-12.058506390154857,-23.004235774117124,0.0008816632087101961,-23.51142895949669,18.806115318705416,0.0277197821728228,-4.179135505895243,-10.250434196401672,9.63943058928134,-26.833843424994217,-13.135790700002502,4.988321909888072,5.125275677920475,6.2096143143665286,7.657089546004128
0.9496254324412634,0.0,0.0,-5.9201808710415085,0.0,0.0,-19.280416274386315,-8.058228561363606,4.287887529695096,10.590354221048953,7.036287233313255,-8.34191563268994,-43.39863501577097,-8.745580591840442,-0.0007905776312785563,0.2437803182945611,1.718032167762226,3.795435180572785e-05,40.586295058862575,22.329820962872606,13.383877716512924,-4.007549632041492,-0.08660270317657501,-15.469413595417546,26.35194077515506,26.22606650987021,14.8198519861516,46.65634035143733,-3.450883729563575,43.03616148594312,117.88281709552835,-0.002377846754951453,-97.66705981591416,125.26576869217809,0.0031574067331623405,103.50968231588548,-13.95695879730528,-21.986729303686012,0.00010503076516469315,-21.845917899847965,14.638422712980303,-0.007489522052464062,-3.220737462966638,-10.022208713774422,10.514350560267797,-25.822445875446245,-13.256513961295765,5.895040021261938,5.808969036213484,6.571969958941188,7.570142708088309
3.331439628347539,0.0,0.0,-4.903844241806115,0.0,0.0,-18.217039877538728,-7.239156023802233,3.2123687858484002,11.495533869849838,6.657652106049118,-10.077295216196177,-45.39033057837291,-8.885508565866283,-0.00042536316939167896,-0.5103319347354129,1.844082415617424,0.00021977876951195167,41.146773622617346,21.90991449499954,13.39822887619883,-4.207785908515126,-0.7709433646515076,-15.295484411843557,27.232571653604865,26.232720032958177,13.93670806419843,47.634078581867016,-2.896204275342368,43.65594842933607,117.70719437176685,0.001613455767965222,-99.32799961673567,124.52308488429289,0.0014658062790467595,107.67246273812859,-12.764303583463168,-21.682218863813937,-0.007373729435696059,-22.970039130578243,15.288283337182392,-0.003601573191449278,-2.8264595447979866,-10.084444231139466,11.484812845485248,-25.39197866396643,-13.680952786463092,6.777696290381084,6.462099154566577,6.7068243176317335,8.03077565212129
3.1293771248297357,0.0,0.0,-4.237065334544456,0.0,0.0,-15.780785993823484,-6.903131151974636,2.5360938468735212,12.411105207852836,6.341587825374407,-10.570292387707129,-47.72903543214055,-9.058901315911651,-0.000279113812563,-1.8151438786390224,1.36031290185907,-0.00040140903993208046,41.95821668307917,21.25504281625722,12.86585128845866,-4.214193016504154,-1.1544227319029352,-15.840711920928054,29.15425477666893,26.251259048971377,11.338898217373762,48.29248832347588,-2.7786518313830775,43.184157927298344,117.46531089880929,-0.0005143626707279171,-102.26211292680709,124.41929611485094,-0.0018573291990297727,100.0373435958495,-11.204281643062753,-22.095437418568487,0.0023226971085023762,-20.099742347715097,12.885375540509076,0.012833969202188666,-3.005404380014883,-9.950321963158922,11.818557987844544,-25.542574462028067,-13.683134005810654,7.143025419778999,7.237924708993199,7.281824700627754,8.527684475311966
9.129082730253678,0.0,0.0,-5.04413683569007,0.0,0.0,-14.785850296596214,-6.683440242233165,2.4689790846748934,13.823887910570122,6.783533289974156,-12.032758477205284,-49.81002599317458,-9.817766006027709,-0.0019956946667909117,-3.7813046150197245,0.8453782137714347,0.0005072622083628627,42.32197907671469,20.534929163138496,11.188581215188442,-4.426297068934766,-1.35680761431358,-16.235309688702824,30.775799379101308,27.128331931465244,8.288894467389152,48.16326592945439,-3.38952518487059,43.02018928578915,117.49379537433101,0.0016065835576842419,-104.1600430808482,123.94805711108314,0.009582019009738709,104.43483315098469,-8.930716421284053,-22.296988583333786,-4.41296915033918e-05,-16.38224033086175,12.744545644002573,-0.002218609662783525,-1.7232424823993115,-10.073676623142257,12.60150474774043,-24.23211582062136,-14.092420334440366,7.828013249992727,8.149597499037595,7.959283907395773,8.556315757723066
9.674130294142698,0.0,0.0,-3.2847106901266256,0.0,0.0,-12.512069808942913,-7.024076560497887,3.310998275871213,14.080515524455333,8.342096710418653,-13.876208214794875,-51.32932557839482,-10.359891269007116,-0.00022341312665378777,-5.864822494746279,0.06518322894265999,-0.001125530470053823,41.89043641226535,18.956702651082473,10.008195335911033,-5.009257894630623,-1.986160919055133,-16.142607482148986,33.22344001916543,27.808237950466207,3.28435691676518,47.61940741885394,-4.722105605098495,42.792503877638154,120.1139362785018,-0.027073480258551164,-108.30642535882733,123.19392263075525,-0.01030310922405586,113.58800645057771,-6.829106951986372,-23.147026345357915,0.0030706594124881876,-20.038731411194313,12.174448897368684,-0.00527255143012381,-2.0791753953850427,-9.007070151580644,11.211084537764162,-24.561195950704242,-12.582355753981687,6.945435621362202,8.893476506137306,7.732123637302081,8.985309723298666
13.423191739249098,0.0,0.0,-0.518442016381771,0.0,0.0,-11.550554198146283,-5.062033220983827,3.3935665024165558,12.58691568957165,7.76562450836493,-13.836305225148037,-51.1037882820833,-10.000171508254516,4.415675872639037e-05,-9.510986606912077,-1.0384696398753979,0.0008005715412589218,40.434043653531226,15.22879579149878,9.481569782441637,-5.068411631460183,-3.624595803194673,-16.7369450531237,34.94435326878555,30.19297365794554,-1.4414603701315598,44.90270844787795,-8.37272557394222,39.90004531286691,123.74509895076758,0.013802566888765,-103.32494171222676,126.0747411653738,0.018708023572182788,109.58372695221422,-5.69579957336383,-21.63440880669296,-0.008908744334467658,-15.551656674497274,12.204337129868428,0.014038425698248041,-2.3765523010031613,-8.404101077493545,9.369628714601662,-24.8871173379885,-11.328779368483334,5.462240478070287,10.002908498171408,6.867468310021403,8.921262856761032
12.770238360944367,0.0,0.0,3.692227794746868,0.0,0.0,-8.939026332103257,-5.48747974727011,4.002864930122263,8.508014276236128,9.038993876109117,-17.496683969928373,-49.00198255916197,-9.125441779206488,-0.0018283806225422134,-17.059592593341062,-2.6584360608768844,-0.011816181183239122,37.17281716494901,11.23180705215975,8.808996719049485,-3.5193227757397216,-4.7904565480749675,-14.716000777708015,40.82111257899756,32.76797969125044,-7.90018654106013,41.31348275331357,-13.006656329113204,36.17616817366271,125.20033482907351,-0.003455643134460003,-110.54850991803673,128.6787823140259,-0.003100841156512669,109.26947934869975,-1.2427541621105567,-24.273202166819946,0.005285076057792222,-13.14199763471673,13.284650033500416,-0.027234291407280974,-3.204715584446674,-7.594477733971207,7.4336002563358905,-25.718975534245104,-9.846769292000623,3.975836870512789,10.440935190483772,5.692075774245824,7.847224379172726
8.402350784324094,0.0,0.0,4.717169152257175,0.0,0.0,-6.141939083178602,-5.165144120300603,3.722669500108541,-4.502511044427029,9.819550384100268,-20.29897187103588,-44.41505080626473,-7.481149344913319,0.0024102707301812206,-32.304078117182016,-5.017946641647629,0.03958763427129423,32.89980780425084,6.717902478603162,8.740400606726542,3.1175745169910414,-5.826864353056836,-11.84400726835756,48.466721161040304,33.94312742043931,-17.177475895379047,35.039971973271506,-18.668668966875664,31.70833607999276,126.67445262544099,-0.0010452398724295597,-109.80326126829164,126.86535199975485,0.007902229546684176,110.8988122256935,-1.4821746122668287,-25.537008882561057,-0.002008031863307759,-19.899107698704302,5.626601832585118,0.013386369328037263,-3.0900019900233127,-6.243232955126151,4.337098029219484,-25.583952272249658,-7.42180053334883,1.626502680371405,10.358118303346364,4.1849184568792985,6.813240040361089
7.0568120483405155,0.0,0.0,-9.870282411280156,0.0,0.0,-4.40354510434506,-4.165789453360423,3.3894003578789977,-14.9175716271525,8.450128068644503,-18.587389275677687,-37.68507138901105,-6.036429215427991,0.0011907943427098213,-52.2353106495247,-3.4129617423396463,-0.003681116572677696,26.94433728981842,2.6757623664454036,8.145390892435222,12.534257915362113,-6.701182738813978,-8.272502489303978,56.36711933204813,33.519045322044846,-24.553236103877232,27.701471442848625,-23.396911725499024,24.96332107604317,126.72099396048506,0.0033227619083228046,-102.7020892753064,124.32733906704298,-0.0033650801612431433,101.84044181034552,-1.3931994025432597,-26.37752784164852,0.0032590090770121412,-22.469005740356685,1.927333307331,-0.005890043309644504,-2.42665528652081,-5.078591241486042,3.335318393758179,-24.87766606613167,-5.964560906008894,1.147200711077134,9.29408306902485,2.5746250325109723,3.5878884439999275
7.425893609468659,0.0,0.0,-7.123359228210269,0.0,0.0,-5.675460503751034,-3.789350517784053,-1.8952493995706556,-10.18608547222095,6.6795495773845435,-19.671781601956937,-31.468388381123233,-3.5423195100649583,-0.0013842467148033773,-71.65087232399328,-0.17391795280055913,-0.02942281227485912,21.55389086189676,2.2743983840623025,7.69691555074944,23.266037243108038,-4.058753979759631,-8.293981624424834,64.7861454940963,30.708523341259916,-32.747776934786465,17.536569830536866,-26.738626837564876,13.858396378819755,124.06077231452986,0.0016639140799988993,-104.68685565791073,120.83774164602315,0.034814208235982094,102.82289963420259,-1.0131310653462011,-24.321612274383,0.0019344496679264273,-23.199052749415948,0.8390379265572759,-0.002940263661365343,-1.0236192214847593,-4.281242967997988,-0.38543444029725926,-23.438212096726872,-3.812155395781017,-1.9876180553690987,6.921139800276909,3.929975866226165,-1.7867285021062822
5.431558871896246,0.0,0.0,-2.9605393311596493,0.0,0.0,-8.867476634656331,-2.35077270158963,-6.356551497551356,-4.748286356039218,3.455263354705841,-26.763738688752046,-26.81331164937805,-1.81259135973265,0.0006811996321276616,-88.09780144893361,2.233138150854328,0.019031174668010176,17.391085511801943,3.529644408261302,6.915059219833653,36.93742864254651,-1.4717996098045538,-9.099166587633842,70.31602025341431,26.89727507292072,-36.41921851966011,9.747941379997256,-27.738670201101478,6.388951754074952,122.02716071817831,0.0019053804674704507,-109.05332428850188,113.00910492991802,-0.07678457773426878,95.80176834470535,-1.3950473830511152,-26.29133335968835,-0.0042223266919463485,-28.414404165592625,-4.460659738834849,-0.0333937488274274,-1.1278915949117791,-3.209328412293028,0.6631924027845936,-23.52640425414587,-3.220032842005815,-0.6090485912534185,3.2130062573783253,6.617110983109086,-7.5339552634095925
2.061529470800751,0.0,0.0,1.5363342301701275,0.0,0.0,-12.709094812524995,-3.0322011237315216,-7.268189768478874,1.470448359709543,2.8742226118450684,-24.167653097016697,-23.010740149318817,-0.1408103592171906,-0.002022916124927633,-100.37280652411216,0.5860560823009009,-0.0021802109290091727,12.765022531109082,4.968900161778685,3.0361461126446656,50.75835970508306,-0.29877660277642676,-13.295105852524104,73.93947484995435,24.68759303127442,-36.76506587171185,9.053741685449516,-28.283697871675297,5.416083820042505,120.8894707739263,-0.003892584568928637,-109.37494795677814,99.85484109445262,0.13539747644140537,91.38964632262855,2.0428255600940544,-25.709259623207863,0.005791669687792466,-21.891118653398355,-6.364533045164736,0.017893733355310137,-0.5312763335165103,-2.4961135023472396,0.9841197173265607,-22.91648137051782,-2.6826927028118446,-0.040244798668469174,-3.0025119741886224,10.895556285516932,-12.124419410230002
1.6114067363980429,0.0,0.0,3.8705784852520453,0.0,0.0,-16.073518226043173,-4.137711778028461,-7.010026245632997,9.245792239811092,2.059902051017753,-21.129858348535013,-20.302060741823325,1.0419349401347084,0.003033380928429235,-106.69825035198647,1.7896116303983096,-0.0013774931131606352,8.22301068799723,6.986405729478175,-1.180360287637981,64.4741467599734,-1.6184156072831926,-13.604583258823512,78.38727231768807,21.704846222699622,-38.17285234686319,16.632127227107738,-29.56114105683934,10.858951351596021,120.33226956426766,0.001831008769797023,-108.76303318361418,80.354232886373,-0.004825270256617055,94.91137900717486,1.2885249310602112,-25.981304800836263,-0.0028482114257291106,-22.730592331342613,-3.582518960440414,-0.009001348544759128,1.1518350193583236,-2.573233868732074,-1.1647788444976166,-21.219581638570393,-1.9365885399496972,-2.0563497855522646,-10.259381730203138,15.605262462143806,-14.5499862385294
6.1053344795954505,0.0,0.0,0.7242790429419972,0.0,0.0,-18.72869532902899,-4.814942215775876,-7.493540203029972,17.003947483955727,2.7829739437124554,-23.772437690392366,-21.077862620671294,2.1642521352372754,0.001329497060454891,-107.53522370163626,1.3297459302212582,-0.007338273495828588,4.426002852637347,10.860924084188376,-0.92817771872395,77.92263186051022,-2.8011220528941063,-13.834587090878927,82.90237975137467,19.637740135857232,-39.75959951708631,29.073259256024173,-31.762080931178996,19.612669403038282,119.92573918379524,-0.0018892728828341612,-109.75399686423734,55.663659335939876,0.04545706207105405,96.74878494520458,-0.7560827449818793,-25.64708851122082,0.00604413580806074,-20.077327847059138,-8.210042927582993,0.003575021071086117,3.238602939759497,-2.589154593381753,-2.6319068385671125,-19.10632293162636,-1.3937690205844124,-3.4184267802982493,-17.963272284173623,21.324745825044605,-14.424867844843263
10.150170299215263,0.0,0.0,-0.3426944614326609,0.0,0.0,-19.607738980653263,-4.242923723379861,-8.61353937668641,18.523692575800986,0.47133708707621125,-25.032970921623633,-25.074246037810024,1.6191021597146342,-0.0050861223822709495,-101.55345889672668,3.7715819689490195,0.02968052658084467,2.6363228792093603,15.803906270132083,0.46808464901990643,91.15123945528785,-2.7641788006285166,-9.017379065605063,87.20588031932562,15.765209112220592,-43.03975966873162,36.635792194091536,-33.01821502032038,24.742655421340626,118.83037404232476,0.012716065625556926,-108.47431522749135,34.35173333251582,0.004294402644265759,103.48436559302395,-4.978074150337789,-26.68702081819226,-0.010197271706276526,-19.340560356863797,-10.874652383344694,0.00900442521918347,4.52809655146988,-0.5985845684177344,-6.9425423454979684,-17.677423915468268,2.0817366154617636,-6.65141988080691,-24.315005007629935,24.09810827632405,-9.762253758885713
16.371389219418425,0.0,0.0,5.663010946195939,0.0,0.0,-18.633209368295844,-3.0408032361322674,-11.464443280029244,18.840094028950453,3.1201466545124275,-22.813900545399086,-29.943631086056467,-0.7634666097371704,0.00487308445142674,-90.38216000687815,1.976052717349568,-0.060908552056568734,0.939412543636621,20.295428254674388,1.9732637112863707,101.4032099473296,-3.7122294982209225,-6.592215800510237,91.51530946939714,11.99950644670854,-45.81485350143373,36.13221492502263,-35.435377008582186,20.182994807720608,116.77332577595004,0.005713152354460997,-107.71836762747927,22.048399197001178,-0.01912596093553615,103.15196777966717,-4.2563994049277145,-25.442181314162582,-0.0035661987712637937,-20.10870227599516,-12.843091109343838,0.0038668322350981763,6.74505051325231,0.9428340639387651,-10.820837695524258,-15.286398826664618,4.970147980244037,-9.669631066953984,-28.442548729722304,24.023585121142606,-5.569027657900526
20.02860776259476,0.0,0.0,17.52754651816491,0.0,0.0,-17.351966510969984,-3.9196996822948016,-13.673499240622299,15.310522529975735,9.734314141247639,-21.542888519471347,-32.58957883259427,-2.000655602761637,-0.0013732447588053582,-71.97875930305577,-0.5753048256782333,0.025264922796992814,-1.2926387697066777,22.2404909915524,1.4287361419032971,104.35872637308708,-8.655950657228239,-3.0427036832605543,92.74430977468818,7.9983372137036275,-47.05975527918931,25.59253858793609,-39.41342199000887,14.241561178691413,115.57753048366753,-0.0061824762439877685,-104.1299554834956,19.700780398302932,0.00452705172413981,100.82266401599698,-3.4377256332182817,-22.551774682082712,0.010093295783359569,-26.815983385245726,-12.556453492536098,-0.021214068333090235,7.047336541607535,3.022632382534615,-15.754062232204385,-14.697839626900025,8.738327081615155,-13.496541609582794,-28.642657830855008,23.370334137637535,-5.7943196059454944
24.872459027131917,0.0,0.0,28.91865949159601,0.0,0.0,-16.753932377926233,-3.456842337835504,-17.08648919058609,11.266526292122782,6.995304779694005,-16.452008141379437,-31.281247097741854,-1.6742732876228483,-0.002882277065956137,-51.51928265010666,-2.473524683888424,0.01916818425539395,-8.01003783068362,24.904168577232593,2.026883324759339,96.76076889066977,-16.032764645382773,-6.013235534206183,92.21139583643372,8.274025413476787,-48.94024767686411,10.239515838635969,-39.71901251598937,6.826623438959795,115.58945898781491,0.001200643714406452,-106.14856492991872,21.38179103349938,-0.013008818551755614,98.92857352642348,-1.9150868785809716,-20.10851417035017,-0.0028966644572132596,-29.043006802230824,-13.019367649538458,0.004543733084461025,3.390125486959958,3.4587980229408934,-19.431279149051246,-18.01148787950595,10.494220076152779,-16.79663622120398,-28.836000306740114,23.923880632294974,-8.663181738334885
31.822605903266478,0.0,0.0,24.4269959579845,0.0,0.0,-18.19620442530819,-3.107082382291653,-21.015392679836836,8.562011855103892,7.977025912717321,-12.023490629394448,-26.471126959251404,-0.07902865172153722,0.0009713874589049211,-47.561807409507246,-3.5196988670258182,-0.0017139934833629727,-14.516120169898958,22.675817694589362,3.955284837441995,94.3985849600742,-18.96241805614477,-6.044858280244797,90.9040363623714,11.373689733723506,-51.47180690144235,-3.5334077651407876,-36.358877065629315,1.990233673496095,113.08409792286685,-0.0008893954107850155,-103.80019967706689,24.745280231133595,0.019132206519841027,92.54760908429247,-5.7736037947028445,-17.57033234390394,-0.0016400831756574795,-26.750595494517633,-17.46102630903275,0.00044533085622410146,-4.223189975014318,3.289965232523305,-16.464310266149305,-25.91881225171469,9.24911683386667,-14.063401088848117,-25.048149667669627,19.732442588847807,-13.896635782582813
33.688022396134386,0.0,0.0,17.600055851589506,0.0,0.0,-20.076430991128188,-1.6048922364154876,-22.766834774782772,6.797814685820598,7.143324117269259,-14.318680786029798,-22.699930393303877,0.5402583112533735,0.0009013524898992242,-45.3605567971008,-1.8667539985902952,-0.007946534860464299,-20.54772158274509,23.361547140835516,2.8061393105054413,88.40858292475929,-21.558992211744048,-5.742909678137888,89.65642730491682,13.34101417638753,-55.402919969108765,-14.39144800181589,-30.980837843476245,-1.0606078990364671,112.05320469477687,-0.0015198456758246472,-105.89739227253321,27.510567485582577,0.0005542735899904717,82.0637743259176,-8.232137904423828,-17.94271395084388,-0.004107931378095017,-30.30321856393978,-19.17020095337709,-0.005239161442599703,-8.704371599017605,3.402833835786189,-14.096286765478093,-30.610579364990887,8.475864173609203,-11.799559038199783,-24.230987201195905,17.90782098753122,-17.043423452142285
34.49115300905007,0.0,0.0,17.78962716949709,0.0,0.0,-23.320340433168656,-1.3478313931876025,-21.75738153831525,-0.2845906286010821,8.6351049232592,-15.095982840954987,-20.778658820257366,0.8698040403555664,0.0003060559613265836,-36.127076021197695,-0.04870174639817123,0.01458625773351709,-22.222593984681613,23.330193492319054,1.8866932359805297,80.93683255944366,-23.746046383408743,-4.255596191439847,89.47031276322906,15.36994232827539,-57.85315341088028,-19.229377646681915,-26.493938440512835,-5.826740180944394,112.73888810542809,0.00278240464914979,-102.0733715599706,29.485579526801214,-0.012120430751326391,81.51829308973556,-6.915851689577166,-17.849410500358616,-0.00942213355107522,-27.078174072799396,-18.838154510606934,0.000147927341803897,-10.138185319677804,3.178996370163399,-14.381405845523409,-32.00928740316683,8.374285002564426,-12.150937287569475,-24.32325670395945,17.26301662807793,-20.322496287919712
38.19483335409956,0.0,0.0,2.006654722072248,0.0,0.0,-26.16443783001729,-0.10138224694747144,-20.603877313469297,-4.756705973889658,11.559825617919797,-10.418297250425072,-17.89253631390476,0.8416657136684751,-0.0006576243918784281,-24.109812345255044,0.8945137341668948,-0.015060005328165524,-22.13966514060984,22.14694916072583,0.7107597246066579,73.34208403301335,-24.93531884526752,-4.10423608412421,86.88248000159786,16.462269100091245,-57.19368786863776,-15.964382616474351,-24.220664143833016,-8.04873496530565,113.47362337461281,0.00105403182125186,-102.31913957837834,25.871897923888348,0.0195988433702333,83.30037614922362,-6.085815050556533,-17.933431081700927,0.0008067878956245418,-23.312365022800147,-18.50961425630223,-0.0028293897667259825,-13.275628669430214,2.952514511870192,-13.900807728570433,-35.17288672935636,7.985240033682368,-11.786313513892312,-23.819014306376776,15.993126008342015,-23.67805568315834
30.074599332231546,0.0,0.0,0.4219102018066377,0.0,0.0,-23.458756317197746,-1.2686945544967412,-20.720094627725864,-2.3059505469915886,12.042268501686811,-10.452940108573705,-15.419012426047034,0.9608420945316404,0.00078396736290663,-18.23203131599672,2.6782274708206635,0.003559480771345722,-20.00027298421565,20.647479145570053,-0.759955003306848,69.3775037159587,-25.211512270912166,-6.362566211540936,83.42736656064218,16.29164348325996,-54.483854529880674,-12.206355238368875,-23.81908200859185,-10.945067956498658,113.69941709414049,0.0017053206688091302,-97.80587268574173,22.644457277869297,-0.010749119030713225,81.19210761748911,-6.954626548657839,-16.982771432669267,8.513771129437257e-05,-19.73185992580133,-22.58635062838287,-0.0003147327289286191,-14.496672976038521,2.7924370514464014,-11.657712694986525,-36.54686370570384,6.998431229638079,-9.751319856192556,-20.971512572214223,14.910897903248776,-25.23442081896976
20.448772728377477,0.0,0.0,-3.9521113041380262,0.0,0.0,-18.367724429746858,-3.9386288610471416,-20.533724375590708,2.2181067522231017,12.30471914447231,-15.871751731450233,-13.662066089513965,1.1400607894869685,-0.0012527433132209255,-26.200975296689784,4.705478313950716,0.015051589624125183,-17.269085231430584,19.89958216622498,-1.1315932836469933,69.39919800537555,-23.475475411912104,-11.256549638086415,81.43701806223746,17.144511511009295,-52.22781946148642,-8.574984532106285,-25.598550192632807,-9.682490263869964,113.98987558559368,-0.002886349454564491,-97.92580340581299,23.077951049049847,0.002119859298894405,80.34740001117059,-5.950847776783712,-17.326902184404222,-0.004896820084409205,-19.55770275561471,-21.088778383668206,0.007445540928548587,-16.05233699870223,3.229787930034072,-11.00616226427583,-38.163611235151514,7.159116593214528,-8.978089068326078,-17.618795220852007,14.29542888542795,-24.746791066355556
12.92490851572734,0.0,0.0,-4.799528050880541,0.0,0.0,-12.847751186809663,-5.440755162202905,-18.333848346231555,3.2909201497332985,7.865003862634229,-21.234279693722904,-12.358265193054986,0.716429275852806,0.00019190564612071872,-42.15642094892631,6.609957872183075,-0.007263518130907361,-13.91049568290731,17.88847641388457,-1.8728581914589537,72.44510636319274,-19.963099593515008,-12.519691722651752,81.98772577196627,17.04473108485028,-52.353549166311645,-3.587745060489341,-28.871279932291344,-7.737892232793315,114.23736650958247,0.00687476689971228,-99.16939578725864,23.792709245174265,-0.0031965900720154388,77.97827587544846,-7.1672928021443765,-20.27072112614781,-0.010720249616994899,-15.887253793951547,-23.67938603058072,-0.016555049501183597,-15.364377158128972,3.7923257672314854,-10.826390165680388,-37.513660498192074,7.612621459982234,-8.59679783302164,-14.08432153161452,12.155550511111976,-21.687913602308956
14.318891437993818,0.0,0.0,-2.8539510356010958,0.0,0.0,-11.271949105274746,-5.863205272228273,-18.276380117415442,5.801547752643257,3.552869435707628,-25.895538473709642,-11.295382317305158,0.2922817721300462,2.2890061502905846e-05,-58.90072799274402,8.337425517148436,0.0027191760356036925,-9.380264353234075,16.56878209916662,-0.03180856404138394,73.0338180539089,-16.2717165094372,-13.626176640168286,81.8800639059716,17.88125395519414,-52.02014103508836,0.5977994537104013,-32.4560345507929,-6.0024780015417365,114.95359096220896,0.0009451801509601384,-95.73540699699838,27.06402960480373,0.019202108411298466,83.64790906848046,-6.497005198559054,-20.519286803644526,0.001823283962174394,-15.86675338164398,-19.903398353887734,0.011061500739166244,-14.994518119051376,4.5361347632624405,-10.047393193372308,-37.22443954317721,8.0079096920244,-7.587120651465733,-9.291817539847692,10.478545923182802,-18.81342133573278
7.759895426361373,0.0,0.0,-2.710668963430895,0.0,0.0,-8.74786077939072,-8.37857564195485,-18.56102583732359,8.136503573371947,1.4444086793969362,-29.32672926214987,-11.287072171671028,0.7226798123409641,2.8695113993248023e-05,-71.62391351893329,9.865177798724782,-0.027423860666962507,-5.436471537720156,14.542218843330573,2.521066216382575,68.90862964346061,-12.963664901450096,-14.434463111856395,81.65569259579681,18.366694298874755,-51.48850769837959,4.497790244634592,-36.286979504643384,-3.5206419426315647,115.63478136556118,0.0012328714404107044,-93.18447900643706,32.34783195976967,-0.0067968103110915175,80.89573756683028,-6.3349065596315315,-20.957673830514356,-0.00018639474871353856,-15.241927932951143,-17.55188349759793,0.005835376565757795,-14.096840720481337,3.9582948890021923,-10.350005319746714,-36.281019440653985,7.586993971130912,-8.08955755837404,-5.450607471232034,8.725368676377018,-15.872325406186462
8.708451369304132,0.0,0.0,-0.7530988871315435,0.0,0.0,-6.568882347490198,-7.7730485440062065,-16.890415802112916,8.88906084830525,1.549509746336673,-27.206083873703857,-12.14776356135711,0.493045601788238,-0.0009347568099174696,-81.94484974150876,6.844638720629743,0.028190818095214638,-0.04419474803231898,10.933088433430548,2.98780142696855,63.446578348479434,-9.95256351749866,-16.60397955018114,81.17078777106802,20.639027870297024,-51.133310051263905,12.568900791129254,-40.141027982001454,2.694249318123856,115.83585984484345,0.002380627461900502,-95.62476098140061,34.81568970324285,-0.028000874324893923,80.60725914046166,-6.108550664598285,-20.226696786365913,-0.005134265960183165,-18.62300056160226,-16.65928301356753,-0.016008475466780775,-13.122260707766724,3.42019425233417,-9.93173115501336,-35.302870360251106,6.931121613232849,-7.904719598361322,-0.7928115318831068,6.300086928140772,-13.909165507481005
7.783859527107944,0.0,0.0,2.4579308734830967,0.0,0.0,-4.6201052062031795,-6.804992551760289,-14.93646283286972,6.126259236943852,2.5803925635755944,-25.350348682798515,-14.549509597514268,-0.25469512774282393,0.002045293813271864,-85.84744949428698,6.969946979489663,-0.00016787733364777898,5.854413661643042,8.633037345609546,3.1520924374570476,54.350983736760696,-7.084353518546632,-16.434122617002014,81.18114915536172,22.781571170756294,-51.50904466077334,20.128649554531165,-42.36831354216026,7.399315597189848,117.20228524573946,-0.00796222042285362,-89.72450978425071,39.001527056757844,0.03355786544716598,81.88653307611642,-6.986115570776211,-20.874477003301937,-0.011146959795332487,-21.31176100464276,-18.240294030605806,-0.01366613103131291,-12.096833557408862,3.493593611621714,-9.14715707930653,-34.32013524995872,6.703137978957098,-7.146537770003209,2.9131895828591676,3.8648470017743715,-11.58368784754598
4.745466389868181,0.0,0.0,1.2009011916908032,0.0,0.0,-2.2755862416321877,-6.7910892274602634,-12.023478818379349,1.4460009243071403,1.861239193688489,-27.670832537397292,-17.9761349646531,-0.20113684732426595,-0.0004227946450956214,-83.6630809918243,5.963283351740772,-0.014567423230030609,10.583342403924094,5.247472301636794,3.6075088423496577,42.28151615174966,-4.601168918511498,-15.019949643189994,80.21559335494382,25.92050969719643,-51.351602759687005,26.95461907862476,-43.69355811480074,12.222673392588197,118.32569108220821,0.0028372265538555235,-94.55018417508924,45.92656098948546,-0.03097367196794829,80.6501888235139,-4.6403832796177005,-19.63634737436946,-0.01673945312000604,-18.57543829549462,-15.702743841456012,-0.013790709099709971,-9.57549761039092,3.694162824647765,-10.12190676066229,-31.75890595828167,7.2564767691029495,-7.977599411168914,5.840369666159919,1.0346481729110841,-7.958687520898559
9.11386627853574,0.0,0.0,-2.04532023917294,0.0,0.0,-1.5647801355870417,-5.925793965006656,-9.512605591809514,1.4723800150138977,3.0900636318623778,-30.749334446042976,-20.4669455362311,-1.3243679905018497,0.00028908665792254053,-75.64517489621093,3.8457108873572072,0.020186141468081398,15.554761006972615,3.389858957240134,4.98948587417234,31.20580393196981,-2.3698558554183045,-13.084664403086025,79.53016728809034,29.186208686120718,-51.62659903734414,31.55960967520862,-44.16530695097402,15.29548516394084,118.69885549867965,-0.009347172161454578,-93.12838070968128,53.93329024920507,0.000738916881249646,82.82230524580153,-7.360095385278906,-20.495079575770816,-0.006331690737632661,-17.953313191528984,-14.419228202229323,-0.0062977969468618125,-9.333624494581004,3.535774481047519,-10.444847370923691,-31.491878474926953,7.231428670730113,-8.33871908510664,9.493969053503033,-1.516317423654039,-2.7430935966168524
2.828634513275223,0.0,0.0,1.6189939364290344,0.0,0.0,1.1067811523985271,-5.811039498852261,-6.614396746417954,1.547331091406512,2.056533188342715,-31.57164217984275,-21.88385135175016,-2.608951468122838,-0.0002565313469799074,-63.82347109862188,-0.9857914156417518,-0.010111785287016272,18.42200189433442,2.4677983924560936,7.1363874650930095,20.074858286163025,-0.9516517999102688,-13.673128948997109,76.1623038671323,33.8925460046732,-49.26822934227137,37.655516032605476,-43.27557358702202,20.29028165203437,120.59613478441588,-0.00993361956630581,-98.91721576089738,61.36965356351299,0.01960750845972445,82.21054772498073,-6.268947636316395,-22.57974005740826,0.004957669589036435,-19.495373293831328,-17.705793012467307,-0.006595096350430089,-8.77255240363657,3.3017233023704975,-8.996845684440705,-30.994608423632364,6.468782158565395,-7.079771251813977,11.879446457549337,-3.1487732050932316,2.46492683325946
1.3388296170637406,0.0,0.0,-1.5701209365177782,0.0,0.0,1.6934272934033283,-5.303546936581739,-1.531081253600806,2.6535918516545673,4.053056507690815,-28.484766437005156,-21.88856391684659,-4.609618932637124,-0.00040265721559706603,-48.3328155852115,-3.898300083993097,-0.003827960045739922,21.315068986917865,1.3290348569327235,7.688214215844686,10.796891155510178,-1.8381202261261835,-14.125617656882977,71.72913767254484,37.05541254434569,-45.43376283248014,44.2362417672143,-40.55877245391967,25.204180780022366,121.4045775544986,0.0017120601889852897,-93.58657550627936,69.66655230055473,0.028838753078189262,84.32611128045914,-6.731881479708358,-22.706602538243114,0.00021199015872573306,-20.00034188956839,-14.089395115571062,-0.01075373869026375,-9.068829333554433,2.5651188923369745,-7.126196214341482,-31.34180964285414,5.079673270678981,-5.6221285228555224,13.564323657730629,-5.254667718158853,7.506109278465978
0.8539792725184365,0.0,0.0,-0.6946043997358584,0.0,0.0,1.2069886174274003,-4.559476896488526,1.798601349227786,1.392020467370453,5.628875322695731,-24.974688665938693,-23.100338754225728,-5.879534716415434,0.0006511663917228637,-31.537735642987524,-3.216914721660829,0.005078843737107711,24.88128131584748,1.6791007733167835,9.599524762200172,3.47313504807436,-2.971323191628156,-13.928567771564309,65.99118784121627,41.62265560256859,-39.76287350211917,49.94391877513343,-36.18619300966301,28.277649534533687,122.97950605755882,-0.0026955507372505554,-97.66005591081812,76.49551446881136,-0.06811649190024034,84.53972657467564,-4.825074343140459,-23.3749493631816,-0.0032124009131964055,-17.715712830131107,-15.744534761015094,0.006293743050896516,-9.298190537871221,2.274817550165938,-5.0399323132460125,-31.62778343004037,4.020046717315268,-3.798069166996366,14.830105945378103,-6.533901926748466,11.179540687865671
1.6470200573758071,0.0,0.0,1.1148353466087961,0.0,0.0,0.8657599802992891,-5.07380962703869,3.6897269445073766,4.955627745834396,6.721831248825734,-22.05218328316872,-26.29221728051802,-6.465123522065895,-0.0001292266507328939,-19.618535191468265,-2.13195741619346,-0.0035578512226721276,29.86945988899269,2.990984219219251,10.971921565373844,-0.42036754612216054,-3.383364159110597,-15.77262436811812,57.51222849919232,43.82686196520358,-32.0313408163241,52.74971150427249,-30.80400527470283,28.99485459683486,123.88995734530391,-0.003457951776449986,-99.56622649892292,83.92342649379596,0.04656749316412136,83.92135245711408,-3.606791695124381,-20.783225874851762,0.0017964958199766195,-16.43100990950121,-14.672416160533867,0.003006705886060481,-7.577960844728693,1.4314983658964444,-1.1341600989872584,-29.94717857679124,1.755330892767699,-0.5041234246704173,15.795696384594452,-7.151001831965413,13.11869260282737
1.6079567857490575,0.0,0.0,0.8846426152884641,0.0,0.0,0.2459052565778071,-5.845433884897835,4.452721037444768,9.701291556274342,5.868478743661969,-19.246229603414683,-28.972884871629596,-7.417572618943571,-0.00017697178870967596,-13.9582446285753,-1.3977357657224414,0.000392558798389358,33.0601892388741,5.330185401689821,12.26360692146401,-1.4812399955922515,-3.9132740727857334,-18.51912666820012,48.34266264065312,44.80233197725569,-21.983661533122625,56.07298979054822,-24.52131722578059,31.95279531920826,125.84758470651941,0.002837448094848964,-96.4669785192315,90.37380265401707,-0.024144813852918865,84.83349611876463,-5.055760110059673,-20.145368870127033,-0.003694250831504895,-18.452734849957075,-12.254470919893652,-0.004506175982568568,-5.85242474891203,0.668904473901861,2.09194596710916,-28.1996476160945,-0.1771153749790815,2.189094277592181,14.987270332567416,-7.341598808285893,14.46923209714449
1.2959276196385499,0.0,0.0,-0.017841650647683237,0.0,0.0,-0.848290850303756,-6.864439854587369,4.051314191443355,12.62617016038357,4.884510641527481,-16.983507888314055,-31.852506739100882,-7.97943130731601,-0.000504719797461804,-9.754645174290008,-0.433666702044664,-8.206418958397336e-05,35.348191622850806,8.8976767970211,11.680032331615475,-2.4422606214614984,-2.467528654902272,-19.039231301942316,40.51095933933214,42.74599298862709,-13.836558820266458,57.340142213502574,-19.615547146583193,33.78926678508189,126.80611897504295,-0.01180335890344141,-103.59863581359171,96.31734174343609,0.007945486548670675,89.93563753798219,-6.522127473024074,-19.81132025654622,0.0006766060552671203,-19.51903079109291,-9.030123870596116,-0.004016609324196772,-5.327350587101193,-0.7856793516720435,3.3133743524688994,-27.6649131535858,-1.986784747468465,2.765999308805509,12.529935071299233,-5.987318575660003,14.684785715977208
0.27089889146581403,0.0,0.0,-0.25201064403949136,0.0,0.0,-2.717300614295922,-6.842780405731125,2.882326994077364,14.0743097574627,5.040465964606304,-14.984382387419734,-33.63130842377052,-7.262975149419838,-0.0004453952967136405,-7.361512196785901,-0.20641697673320095,-0.0014006429684486226,37.12452292038405,11.678809017048575,11.15874998135862,-3.191253498016587,0.1015821615565315,-20.103637698850473,33.70352384862718,37.7280984596229,-6.655573687329019,55.88071007222263,-15.946183940806584,34.040303095502566,128.63652250520664,0.007600416141287116,-97.55462880104486,102.07045075212721,-0.008445740735028828,92.66707812363435,-8.638735449913906,-21.786030421799136,-0.002013797913453466,-15.365164261117965,-5.981970558908812,0.010652475332133782,-4.724866445104543,-1.2605010065213287,4.017372477633433,-27.055756969187094,-2.6934664203198246,3.2370504209349615,9.926422131945621,-3.9390326260087916,13.2424194298331
0.6412851326527703,0.0,0.0,-1.0553775035758641,0.0,0.0,-4.925435438084404,-7.897183592433849,3.0534088256667156,14.642839181543023,3.56141038037235,-14.687776874077544,-33.53595763503367,-6.587796064933271,-1.746709956720677e-05,-5.328575778813373,0.04964899350816882,-9.115754435131053e-06,37.89363546647182,13.933459578372112,11.327314035608948,-3.6056230828382234,2.405041557600722,-19.65228721248932,30.487830561455258,32.162664169909135,-2.1804424738839137,52.589500651883974,-13.839617509440325,34.0087606852381,128.5856002072324,0.002643471723112723,-94.47420418000759,107.55706559732222,0.002145236954512708,100.9600595142465,-7.841795236369451,-20.064143335213966,-0.0010073343712562251,-16.210443342949297,-1.9481403003000415,-0.011910213438145462,-5.146561534320331,-1.3852590478638376,4.329539756516414,-27.472832817411014,-2.927439909153948,3.4786224333831157,8.013347459555542,-2.453865382028258,12.580050417204449
-0.8831086236727143,0.0,0.0,-1.9713493563904934,0.0,0.0,-7.655137293306815,-7.274698206462449,3.6255651734156813,13.95577489823133,3.509726430361664,-13.309836455955262,-31.42028471897517,-6.034010679891205,-0.00022358891730864418,-3.9851287069308374,0.2551351335672199,0.00026214301324358917,37.90478886878416,15.105267977174014,12.014592272085354,-3.25027845801645,3.5759225374485517,-18.398534733785407,28.02856053834442,27.534040427716576,1.069087160050607,48.657918538387726,-11.918537613220412,34.879252291292474,127.11932319285145,-0.006559135819208848,-98.11216718229123,112.10650931292314,0.008541007646056906,97.12306246211239,-8.599810312076901,-18.05723796776755,0.00422028888615378,-15.986813642948468,1.4134793389488625,0.0019533064546093724,-4.551821411896949,-1.6220913439148599,4.515109319626044,-26.878564922218825,-3.216985321835991,3.560376865796519,6.627501059637408,-1.8649957134999018,11.62940349829817
-2.5021721090186237,0.0,0.0,-2.5635132425000635,0.0,0.0,-9.772592006229935,-7.930438154303707,5.6219818242277455,13.16981301122257,2.942767354650898,-13.580345057852824,-28.64414466516592,-5.509239366969408,0.0007804621971634998,-3.4178136697055215,0.9652570401506981,-9.890887397869695e-05,37.153663305387894,15.654102584644434,11.83032953684147,-2.9377051730873807,4.203728909674699,-16.733030775023472,26.460142316270982,23.350520580786796,4.005923820425342,44.75617161189311,-10.871562598548108,35.80025192366491,125.71959058870114,-0.01080336731208031,-93.69061627069259,115.94863520878455,-0.01317541487438489,101.67228703333393,-10.720552125788403,-13.306603748401198,-0.0072351107126283724,-15.650059398402039,3.1057319838526967,0.010300676436079301,-4.583759439696205,-1.4706613252414609,5.219733115185373,-26.88888875662128,-3.3443618885753295,4.270651483797787,5.439606714135922,-1.1487048122722043,10.787652358249082
-3.8083905384032106,0.0,0.0,-4.054296110499228,0.0,0.0,-11.797861167474533,-8.098827126272447,7.06621414414824,12.989738830934524,2.9816217829975535,-12.231891643411073,-25.25729081401673,-5.074228931539893,-0.0006137617497887646,-3.8881175557591323,1.210244342392093,-0.0001738744292414785,36.188954331592775,15.966719423852707,10.669283280055872,-1.8821076747061494,4.671346997128443,-16.334124675607836,23.0091249106616,20.07005976826441,7.458656508367469,41.950005391826885,-10.737139020348339,37.12757835040706,127.91241151547254,0.010568958177315388,-91.9785861825961,118.83689156100827,0.013523119847661552,103.48764077571145,-10.36981405531805,-15.70401594899948,-0.01842609167731897,-15.031207779683395,6.216481356723328,0.000576413382133186,-3.8812830901040156,-1.3580970614435148,5.237357567480115,-26.183442632450152,-3.246904801523686,4.32976752504632,4.723538108500122,-0.7878434407679169,10.108809152271567
-4.209939818522839,0.0,0.0,-3.2724940593269163,0.0,0.0,-13.628233393395057,-8.691905862032126,7.131528324418154,12.70067021014014,3.248901431190824,-11.001851861000901,-22.11429506024196,-3.7288415446222056,0.0007069356818768293,-4.50843969485624,1.5511113641542031,-5.9429105598421706e-05,34.83456870676329,16.325014209932224,11.771839195919316,-0.9177843274488269,4.651770943108821,-15.782151760077426,20.5678221005235,17.80362631961097,10.539889027894098,41.5628090218973,-10.281579177790121,39.32292819609797,129.52570289608565,-0.0021032036931767297,-92.48498663648459,119.61837785456373,-7.233381032906554e-05,106.35875949314666,-10.414715140280654,-19.485972221103868,0.0011154559437740821,-16.36728633656592,9.03316224683773,0.0043997803959528676,-3.357027555805838,-1.9164476288640002,7.333656098236762,-25.601228082269333,-4.557862491624909,6.0612400081917785,4.1358884897145405,-0.32242015307856625,9.448368372580575
-3.6018835022506006,0.0,0.0,-3.625177656226132,0.0,0.0,-15.646957689034867,-7.7384862383532935,7.7213328726927015,12.207577923923461,2.6788121843017416,-8.858711574015201,-19.54910948055979,-3.695694141131017,-0.0009872317915178015,-4.5961511744954375,1.5957063118974202,-3.908242146691096e-05,33.70586839563017,17.054805312943152,11.766155445463736,-0.3467744306891855,5.055634299769584,-16.29120996140275,19.61730628252883,16.993345759497863,11.268703333329823,40.54961076657681,-10.121623612111643,40.20397782138703,128.93824656801056,0.0006073441551872331,-92.97647037017813,120.76986781671485,0.0008779625608669689,101.61552088355933,-9.736193213256264,-18.357922238123976,-0.002295383559059304,-14.460289854423946,8.146654056892206,-0.0019709477285099674,-3.7845069048228925,-1.980639375534992,7.907282783639176,-26.00661978726948,-4.834201043723958,6.569338926251203,4.137609625110908,0.2047319778650738,9.036249226413377
-6.251142900181757,0.0,0.0,-5.655340324605212,0.0,0.0,-16.55342515760558,-9.15541144117371,9.627643719069466,11.997155991319431,3.524002917029127,-8.700243743172804,-17.212370861561993,-3.4423957313337934,-0.0009057594942314525,-4.144122477965464,1.5866890397049689,6.716257648181573e-05,32.60035531661096,17.690035152053273,11.15881563484977,-0.22524828352724632,5.682130505900383,-15.2875674475903,20.07075056355165,16.96839409881682,10.089941754762986,40.449829695992605,-10.021146674689996,40.865415457320736,127.44154809416996,0.00038267426127422204,-89.81485931580656,121.65048951554922,0.0017137004459330985,99.26621218286215,-11.842400153974065,-14.511539841447197,0.004747671286970477,-15.112638652953292,4.618593876289093,0.003132467132208231,-3.9005368255817126,-2.6878677336783796,8.753210607046015,-26.109122479208853,-5.808504573243008,7.08665588806821,3.6141467587078933,0.8810656919637369,8.616362588150347
-6.190777416759133,0.0,0.0,-5.591589386191405,0.0,0.0,-18.224682362951654,-9.997299770565027,10.865890053865877,11.15415500331623,3.297670394889106,-8.18707658750673,-15.029517713082381,-3.281229275903323,0.0001546188950342171,-3.5727247426317557,1.2948964801120904,-8.947117658349266e-07,31.284769557686964,18.30507428206406,11.151210977510624,-0.3883765264980827,6.357338642331074,-14.706454016477048,19.232705317975157,17.206338217772835,8.97539678275573,40.05583580888757,-10.003883648700366,40.89334370981967,127.43634693991456,0.0005130871116290792,-87.97405622777701,123.47323839242434,-0.003776029777402364,104.28420729298253,-14.077937129496641,-11.773328734789398,-0.0014283007882007791,-14.09639621580434,5.191350771474268,-0.0007484181229261191,-4.632739362409684,-3.243372754804375,9.589176615582552,-26.823166037704134,-6.638265786763362,7.653067152298735,3.2856677725067387,1.398110904318646,8.257107994793412
-6.640961083401119,0.0,0.0,-5.603937168544491,0.0,0.0,-19.15795356090957,-10.330747006609977,11.099023417025492,11.030719894104806,3.615443704865267,-7.0764710621111515,-13.90192106932654,-2.5429525220491582,0.0002721221213985445,-4.086603004626834,1.5244750364852613,0.0001576164503911871,30.847567678908597,18.555928587942603,11.232791714517639,0.15304832358454543,6.450282830593087,-14.212537629260787,19.44267467644766,18.24126854808635,8.86916310010985,40.23822690795558,-9.453027349176539,40.688853590374286,126.65702906505956,0.005342239648342978,-88.82920715915199,124.7917375134752,0.0009854812150322705,105.59459729498121,-15.93884157080622,-12.699004517185832,-0.0002550558301104877,-12.938328316029345,5.848998421354066,-0.004579933134233389,-5.200456313058423,-3.3777557878617137,9.41665245320475,-27.405512985368926,-6.697619188529413,7.441400162605773,3.1332132462782587,1.8779012512814008,8.01308298922595
-7.685257440510321,0.0,0.0,-5.825608941942406,0.0,0.0,-19.531225238091473,-11.147955980528696,11.693671045490149,11.042929408005742,4.354173356314036,-6.496553410805911,-13.10763516859473,-2.3570455447788863,0.00010547676902421682,-4.727061414677828,1.2548948826696615,-0.0003308092238720968,30.138994945247056,18.949848821408597,10.543737977317406,0.6078409498187876,6.735341852945022,-13.826999083177924,18.336620112125104,18.315039239015796,8.794513928787252,40.07516734163398,-8.97751288081049,40.69561943938899,127.45900144244379,-0.0039618089393326054,-87.15598010608198,125.71812178992319,-0.0008330434460212542,104.82277487346181,-16.110190550461002,-12.16995404815842,0.001609448715767901,-12.97585245601113,6.591209674527224,-0.003600345594609488,-5.701835492389801,-3.70360367887571,10.136031326250244,-27.884941289503143,-7.27054172572456,7.9871702096256065,3.0855439172198222,2.5609351155528457,7.910385782757779
-7.859079914679646,0.0,0.0,-5.65569085735983,0.0,0.0,-20.514769280941852,-10.12771468116413,11.82729980331693,11.065850461191216,3.2941276004738955,-6.562389694262004,-12.500765382091638,-1.9445725252807582,-0.00012452244519365214,-5.145923258554409,1.383018935524275,1.9488558353340014e-05,29.65745169183986,18.638377020158877,10.060308877007643,0.6826734475171494,6.823987548016569,-13.615320053369823,18.05272004995679,18.382225536597804,8.850367372875207,40.25649386695352,-8.741376519496987,40.36081159944462,128.0133063134069,0.002287796023087696,-87.38419634293665,126.41264448078873,-0.001027628218892563,102.5129413693672,-16.68753050167417,-12.535372686022507,-0.0005714141212663905,-12.495858997393217,6.648204657073105,0.0014850696043447222,-5.350516341124011,-4.239358336765664,10.33083141748704,-27.550093106313927,-7.840013133545145,7.964559436459481,2.6488215319738035,3.001829261880845,7.510916878845865
-9.073903464676723,0.0,0.0,-6.167996191783928,0.0,0.0,-21.38167755501577,-10.904788741061438,12.303915297175065,10.961595091979532,3.2127421416990667,-6.665573906014308,-11.694819667653151,-1.6192497015965233,-2.2592554330991848e-05,-5.4138372335911376,1.1783538732074108,8.535555471860295e-05,28.949257945368263,18.65537070089668,10.394098118886578,0.627472796839132,6.985252514796219,-13.078367311917237,17.684758040926024,18.42231080999972,9.00936483665086,40.93789607590114,-8.066047686491471,41.24374570136906,128.76876380715382,-0.0037487809425793446,-92.53220557555844,126.90559427439949,0.004485157133466075,101.04780171851627,-15.644469819276662,-14.657352579978044,0.0027189589318560815,-17.722560045670672,8.659372018027849,-0.0022147575660962835,-5.275304018369346,-4.414269266583925,10.567278746359468,-27.471425282490255,-8.091033208578057,8.118260854116782,2.3116284163477583,3.420521541467219,7.255745258961014
-11.01859854678415,0.0,0.0,-6.483566331636024,0.0,0.0,-22.033677518421538,-11.189593162588608,13.074156498458004,11.213053618195916,4.255192876523643,-5.971052307399867,-10.83524490777366,-1.785032876704475,-5.7303150997961344e-05,-6.323612222149912,0.5881869786730831,0.00011426789793070204,28.39323067156812,19.006789558054486,9.868703182161934,1.2494145689127703,7.124872043985025,-13.07301185462664,17.348795370432274,18.46743113766715,9.681979411108928,40.86311118957844,-7.002128089656516,41.67962594935275,129.80230702374305,0.002567979160672283,-93.3799255029647,127.46224739105763,0.0018143770201932779,101.9369905100135,-14.837481394737912,-16.629491781184807,-0.005530844606274942,-18.681790979996194,8.73227678085252,0.003858322263297388,-5.249533846683812,-4.941637364400969,10.998351234958308,-27.451436030844842,-8.741641138991543,8.318953813694868,2.324591070887356,3.8752766560371943,7.127041428801086
-9.696153786396355,0.0,0.0,-5.944171368592684,0.0,0.0,-23.90886572585673,-11.15258734049716,12.380226504606616,11.186547866047231,3.946237937235526,-4.592316168634801,-10.176236652812985,-1.5285302405811105,0.00027643354984725657,-6.968831801127149,0.22572111580961074,0.0001885848670358171,28.005335016182805,19.10720564196908,9.773006366911773,1.510586654546803,7.231419359343615,-13.703274690011467,17.198954586587536,18.709059575644446,10.651189419474118,41.23171527481088,-6.529632699621647,42.28520602318373,129.86102460904175,0.0005332824795661001,-96.76408919669483,127.40426445665568,0.0062998505171040844,100.22601193570925,-11.978064827007215,-16.826917358728647,0.005252110471327571,-21.441577352031068,7.79371277176555,0.004201273986756298,-4.822595213138595,-5.220411483419605,12.140678713996314,-26.97399416278473,-9.429288690440147,9.279438577771081,2.4193222143786492,4.567847902847232,7.158029533372933
-10.883391177364718,0.0,0.0,-7.496326880780818,0.0,0.0,-24.14753549363464,-11.618306990167154,12.028853639137823,11.758557277751374,4.663011009866534,-4.996352394163081,-9.692509806846664,-1.4773914756369044,2.936544125310998e-06,-7.714476484247052,-0.15357053917490146,-0.0002830133149764214,27.424264594774566,19.151103935092557,9.426577777509385,1.7111074189292397,7.120801192583405,-13.45214320415805,17.225701426012236,19.12627662899035,11.326578178379082,41.355448223421725,-5.776872093021976,43.0026328466009,130.016175199688,-0.0002776734285972659,-93.41576790373038,127.8060246863603,0.00026588849434706864,103.39660955548877,-11.162595413230362,-16.986269710779826,-0.0017309164080081619,-21.762327911420503,10.308604109324362,-0.004652645879496786,-5.256138576947263,-5.6346030390295345,12.517693393895199,-27.410504237772997,-9.954437513940135,9.473646974026483,2.3985297093217044,4.753919120499086,6.978814776875723
-10.980670344158218,0.0,0.0,-6.4210926518876015,0.0,0.0,-24.65758133743912,-12.538803306874842,11.788021663489754,11.87997861224605,3.6907595225638845,-5.792079966739555,-9.149190816887199,-1.2985893221692717,0.0001377033708871195,-8.518711395375881,-0.29176617234390906,0.0005491307250854529,26.712666827972125,18.986473310491416,9.466596170276905,1.8167177083227313,7.026635949076987,-12.817859180691704,17.442666237381196,19.090353530896852,11.419226487943904,40.90893990426484,-5.287660075988819,43.25851038924583,130.0002064465823,-0.00029452536228000847,-93.12758063925234,128.3403857678675,-0.00044810289602139437,108.43023680135964,-10.0201729742178,-16.978426459629326,-0.000165327739963037,-20.114047263420094,12.155037638236074,-0.0017610734122374492,-5.7951280794034545,-5.8262510430982015,12.67684185820069,-27.95217209625806,-10.191650284190457,9.549192999471206,2.2493182398746834,4.983060971228436,7.019532328346666
-13.398317244657639,0.0,0.0,-6.857902313567843,0.0,0.0,-24.58065984078258,-12.222517333377672,11.873794332057116,12.262633589917273,4.219781429833548,-5.690078642889082,-8.65945475353231,-1.1969693122261051,-5.178423360456606e-05,-9.19417211626453,-0.6503554780678362,-0.00028561073423684385,26.216705760401318,18.59803348383607,8.784628529011892,1.9180692870746578,6.871153981971195,-13.086195498707816,17.56541963342106,19.318316050861945,11.272486491388358,41.06460877673213,-5.288075597576478,43.80461589298399,129.49521283696797,0.0016305254811955728,-91.6007915617399,128.46478908397137,0.002308727670394765,107.93046280511562,-11.654033827754732,-16.727904073350707,-0.0010881506241902945,-21.733117277063904,11.895409072326412,0.00021960800400414022,-6.27125280096526,-5.936858512853433,13.031836999212311,-28.412759275031874,-10.427231724728157,9.839249875353296,2.1155065143316913,5.32692237880296,6.804591746639573
-11.6332318661955,0.0,0.0,-5.024984248102769,0.0,0.0,-25.52175131805779,-10.279480687445227,10.588314644129118,12.128930695277612,3.2470000038024236,-5.453349732879939,-8.554737685778843,-1.2068115773451522,1.460120003914155e-05,-10.051498680432731,-0.6320586871204275,0.00023431814578677064,26.027440322802075,18.31057698036975,9.313036790637724,2.2797667066599097,6.531601606359512,-13.170545794997174,17.419756412648027,19.565686218926622,11.174979769439481,40.43883408702236,-4.848016329932752,44.184385767296284,129.61159051154033,-0.0001870619487960449,-91.1645025791477,129.12094145968027,-0.0024876874461139914,104.73588972122226,-11.633223523857913,-17.882100248142297,0.0007407244082045018,-21.42763121410727,12.339301871662883,0.0005883536079138251,-6.872805547232315,-5.834477040564607,12.77445118748383,-29.024113767169432,-10.235887721987233,9.637434772056851,2.421699625712275,5.5539902920709485,6.499571079076917
-11.655078221530221,0.0,0.0,-5.730392559169342,0.0,0.0,-25.239326565817706,-11.421692938200662,11.295144973907034,12.767068603220388,3.4019366232037065,-6.488288884221415,-8.418149895486216,-1.3008457272695237,-6.687317995993466e-05,-10.888787929837383,-1.0441754459207913,-8.643499913185771e-05,25.641646249547478,18.14617512221883,9.374854030790495,2.4752878586299825,6.550346008181882,-12.432906385344586,17.243655027259276,19.52930055584544,11.099778888391851,40.499313661025894,-5.188291619609233,44.345140209038796,129.65373562871642,-0.00032082716736231756,-85.94403354496433,129.40418631211529,0.0035201082506099947,101.37997560282047,-12.354945267531116,-16.775261233293257,0.003916669041407585,-24.52804674243201,13.031499067344159,0.015917634953797104,-7.170241157913619,-5.7254177082577815,12.211425064549775,-29.34975469147678,-9.92354647818342,9.152323611484828,2.369627451308115,5.750192714351217,6.418353526732078
-11.404201502246508,0.0,0.0,-4.471771981651177,0.0,0.0,-25.461148221519306,-11.400131055759937,10.489321155922783,12.763951652448826,3.495034432910037,-6.381706258198089,-8.137495229403141,-0.9674493903945428,0.0001516306125302682,-11.342358967823555,-1.3470524118521614,-0.0001547156917427294,25.473542453100674,18.011062504692998,10.161377956738706,2.5829358738523784,6.676198701680333,-12.69129630477006,16.78946120360429,19.301766885924344,11.280657731724418,40.52919501439983,-5.1544184923853305,44.33698226430839,130.26796949279472,-0.00044275470517203064,-85.648549960468,129.790189775274,-0.002016287957208698,103.8758609132297,-12.867033346137024,-18.11848340244964,-0.00342537041316031,-21.65530720453478,14.80553064678175,0.017155754825908278,-6.59167794684401,-5.930710634863037,12.491998153270458,-28.767534007252742,-10.2190151901949,9.336130354806691,2.568821392113579,6.220549013092848,6.20399781058352
-10.066928115138044,0.0,0.0,-5.118312639741557,0.0,0.0,-25.760743011603104,-11.534055363016169,10.537998651149028,13.328716792420405,3.57594755139166,-6.544524897204152,-7.8511547321498,-0.9754704521357523,1.3950773405263335e-05,-11.89767577767653,-1.4669479360858506,0.0002203255261253613,25.408302824013244,17.75554757405121,9.842397542020644,2.839755411844937,6.598731069969584,-12.654159875016063,16.57995794194856,19.202889915491436,11.818819534671437,40.57548122951787,-4.9971778186525615,44.456420609932,130.3980613851306,-0.000935005186842561,-85.48370789700303,130.0364127354008,-0.0003692092370319769,101.22488963366087,-10.923072328962952,-19.527709876169194,0.0020804788359189536,-21.782443369006206,15.892776863749303,-0.003660027433506919,-6.761086458699748,-5.450362889596018,12.62374844905318,-28.896548680177553,-9.823572450212595,9.643395758206807,2.807727331840639,6.530191828518942,5.6690218420557805
-12.245837357226522,0.0,0.0,-6.704377979123313,0.0,0.0,-25.13979598197174,-11.360619992465926,10.866046829786344,13.76223149238445,3.8732171071477266,-6.824018114548388,-7.563726718788698,-0.9013436705404514,3.1419699568381514e-05,-12.030137359081976,-1.7424297668814783,-5.499055073941921e-05,25.136285812178375,17.573371940724382,9.38246496978872,2.677599349178242,6.779470451718673,-12.960953302627885,16.499829602362105,19.406485926768823,12.014873767009039,40.33370828242481,-5.266752498851426,44.851190383388435,130.59794914328654,8.567202001648153e-05,-86.35812393430756,130.39042487396782,0.004187214522894784,105.7557898085938,-9.700091513842152,-19.74360269346931,-0.00044894399472804986,-24.33766456043789,16.817133547418244,0.011430024030872345,-6.383659443297743,-5.464854289276433,12.35051891734248,-28.537493016242465,-9.73447124482206,9.382216857269293,2.718835168942456,6.7327755073416835,5.3907599028710065
-9.712368502527596,0.0,0.0,-5.810718067984565,0.0,0.0,-25.924640898306375,-11.227187056362835,10.453998990349193,13.885177668678118,4.0606151488327065,-7.442569222266104,-6.984439195868243,-0.917877524864095,-4.85399251875781e-05,-12.109345890761533,-1.6654925438465678,-6.567376972630427e-05,24.850412391362003,17.58409305293298,9.52109926763898,2.582040111429134,6.921823632979465,-12.49025828270737,16.528001385040348,19.210919884876176,12.136662138919695,40.181050828327756,-5.339774258629739,44.86582930877234,130.63865451606782,5.42226781606778e-05,-89.28297191992914,130.94971697967708,0.001828502957543626,98.47880573474032,-9.360354794668778,-20.495802257759973,-0.00016283159404593823,-26.915865717652796,13.297069540106978,-0.003302950514302618,-6.70479891771304,-5.390057440434798,12.497602322276318,-28.844453850749225,-9.72039911700081,9.54841724076496,2.8044637251977753,7.068201310092208,5.176457569051964
-8.995447846617994,0.0,0.0,-4.122379844691196,0.0,0.0,-25.879897007729365,-11.402409383813444,10.320393830977736,13.717170340355539,4.1754649622750195,-7.434739106945586,-6.51640792793811,-0.6515495685394402,-0.0001822136031534783,-12.066156979795517,-1.6733839189404738,-7.917058185620481e-05,24.750090899387494,17.417176979584077,9.40465201691245,2.6103741986866753,6.990562424982692,-12.658451123628968,16.760443905467056,19.12780846901468,11.821382987985,39.91412096234385,-5.430855514784282,44.71489227558406,130.2518368895897,-0.0010343685365911113,-90.27541875218326,131.1790490867839,-0.004783645368682424,101.54727048783059,-8.614608224984615,-20.822326799226857,0.0003286567007327014,-23.340253331232127,14.260422615957971,0.043724866945503774,-6.141188741898666,-5.464051422812145,12.489591203468157,-28.286149066109108,-9.785923265149034,9.512624493821189,3.0203340229328877,7.428914811212016,5.217295653230995
-8.41904089214541,0.0,0.0,-4.2797461010143145,0.0,0.0,-26.25872169229685,-12.031440793050301,10.757678435792162,13.96449429945628,3.2104419290466044,-7.6268608417108625,-5.817233126319601,-0.48991606685635286,0.00010123996088946803,-12.016504858774155,-1.633648916090843,1.1022148557923122e-05,24.346086583276094,17.088030369188758,9.219344288540885,2.4589101013946744,6.966495228282729,-12.605700182153685,16.65894294252207,19.143372142224315,11.419891638551274,39.78711611594669,-5.323976258550083,44.88629493505802,130.2223543783874,0.00015359790686957604,-88.51183840308984,130.83010681011865,0.0007854877547095383,98.26503978578924,-10.721428901391436,-21.0288003419371,-0.0007447658539132093,-24.36334807622657,12.459824598072814,0.036148128643760484,-6.662662795408893,-5.265509493870989,12.366488073952185,-28.802710260390192,-9.555823564457883,9.473370851696156,3.1192502769744155,7.257007080112638,5.234372439928424
-9.98209176080104,0.0,0.0,-5.107565815027703,0.0,0.0,-25.72348681612682,-12.005963900075887,10.902381390161604,14.188822068449344,3.4734031108358,-8.240565316493212,-5.799949057829043,-0.37668316274650143,-1.4797855872261811e-05,-11.760290889054218,-1.948660308357703,1.290308084637092e-05,24.67396883749606,16.906951378656906,8.570054431503715,2.6348009647910526,7.237785572620477,-12.429146422866975,17.065140507029135,18.764063921997707,10.703908136436842,39.742463866455346,-5.217807864576595,44.97086579033372,129.88020723209834,0.0003765279695175572,-91.06123492755856,131.12633004542764,-0.0006306925741920747,106.44293139630224,-9.373178517187236,-21.048832843723464,0.0009141290623332506,-25.92496423634098,17.917071002867846,-0.0053059638344562015,-7.002378065798574,-5.689171828812943,10.901767736666947,-29.25469391885322,-9.397253651819288,7.942446925034396,3.3948501920347383,7.470146790286375,5.488142125979773
-8.165588821369598,0.0,0.0,-5.041474424975727,0.0,0.0,-26.089349546829325,-11.07840783694079,10.302534765073379,14.195090721426297,2.9985662033388167,-7.705314966102387,-5.7279150027507795,-0.39740373122780015,7.485916879879234e-05,-11.78828481104496,-2.0010240953886824,3.983764876821543e-06,24.81159664379197,16.85870286904654,9.046542789487297,2.773343449037644,7.262703272999833,-13.192397148562636,16.428931256089374,19.399524025462355,11.576750812033122,40.072909479596554,-5.166894605723727,45.40159486185194,129.78556862663635,-0.001833258870772053,-86.99903571136346,130.99760108481624,-0.0007465849226294805,109.39677397257596,-10.325208558447521,-19.834197872171625,-0.000689832193979682,-24.16792708757767,17.95402925388762,0.028006656339257228,-7.2549409046907885,-6.072359158925236,11.388296010108084,-29.505506109292305,-9.935169389121777,8.249642093224068,3.5595021260894097,7.498231854190426,4.825608340757642
-9.52310487911677,0.0,0.0,-4.58381267195138,0.0,0.0,-25.827431457480564,-11.402886849997511,10.07951879036055,13.845519269323084,3.2618000438627437,-8.753568382029059,-5.7259234963604735,-0.5896699994918924,6.928680819148421e-05,-11.551327924127715,-1.7732302774048523,2.1861040714471575e-05,24.926384178329894,16.9926009289261,8.359410264253533,2.5897593592993253,7.4456957404275546,-12.808366808473956,16.894280318725617,19.169219640990516,11.263466470178313,39.761001378790816,-5.342486268653105,44.967772444881746,129.81060927347556,0.000798628794456062,-89.97462771073467,130.91400926922606,-0.0005766046427147899,105.75968141450564,-10.481938243659924,-21.593529433621164,-0.0021601891238341407,-24.429687207624813,17.05460137851562,0.007274361547752671,-6.787635313336901,-5.354691188379948,11.560258636325171,-28.98235575030881,-9.335507844395394,8.685616442451451,3.6394057771652193,7.734782653460941,4.759479578039711
-9.225664169401137,0.0,0.0,-4.621990582562724,0.0,0.0,-25.758152347040383,-12.496342351381436,10.44626237840059,13.876677270655364,2.864494152528097,-9.043790902270212,-5.843006355760858,-0.6691424709689473,-6.85922572065842e-05,-11.53998252311481,-1.638947170102436,-0.00014200591650459252,24.93700531062913,17.201455106612524,8.546337782690534,2.5578982717773595,7.465461287463796,-12.42310636022048,17.682303790460104,19.550108422717827,11.306482652514177,40.08851025072301,-5.412459329880538,44.90641497335358,129.52660648793082,-0.0004917636380756411,-89.02434549829476,130.74909785910555,-0.002182182954757837,104.77509966235058,-8.58726857408006,-20.81084257766155,-0.000650534823377643,-25.006183784563667,17.67717127308256,0.02056563052613642,-7.013637655291897,-5.745592239742654,11.048185583849452,-29.26163253171034,-9.50463315202454,8.057494497382642,3.482901807459398,7.664068157454396,5.151660786392026
-8.036883878139006,0.0,0.0,-3.9935812635624863,0.0,0.0,-25.50676787544464,-12.087858077420941,9.31156806523991,13.65663898276727,2.843579294749808,-8.424370140853037,-6.573708847435432,-0.7411374196848906,0.00020627806169273724,-11.402275462803676,-1.9842956371700133,-6.574641959675303e-05,25.271017785587258,17.482960675454418,9.014928652756101,2.5625640557022638,7.65337783066246,-12.672318603599978,17.94282942714856,19.817597192105605,11.558977601359825,40.28769601824599,-4.954647806829212,44.59927719237946,129.32223086264952,0.0009230033283916921,-90.06206257341732,130.6355741403382,-0.0007906914452248252,102.6457587218954,-7.8790874358495415,-20.1470442899774,-0.00012177576002213592,-24.025754024709876,18.03636093412323,0.010671579308740069,-6.958684320609278,-5.683419780273764,11.144778877309454,-29.197482168392337,-9.483469128527842,8.171545483995658,3.5362557167545456,7.610521216849965,5.379288744036504
-9.74749457788764,0.0,0.0,-5.331782184977235,0.0,0.0,-24.658450365294684,-12.619849109267289,9.531869300056876,13.962292545200768,4.2579908138465115,-8.70872337375831,-7.0704485701426965,-0.8079315900084719,-2.7632172779534206e-05,-11.394895117759,-2.095856945651925,9.888747389772583e-06,25.639554751318556,17.48195319113364,8.588902627773056,2.7951771451401464,7.465225052854365,-12.693049977989288,18.26817776188273,19.698062916341282,12.00121628364283,40.31594270748669,-5.00835127485383,44.61432264667022,129.05562714938046,-0.0005088589458665303,-92.02420157300874,129.97282685418404,0.0007448645709861661,102.82367910393329,-7.557938510027335,-19.90451377181492,-0.0007367805695606049,-23.494944394305648,15.998239457239073,-0.0030742019107679154,-7.516708663760586,-6.043757512655188,11.05114513184941,-29.783736418279197,-9.781702101966145,7.945705423046396,3.702830070938952,7.690754395617407,5.616088208362241
-8.007153169009566,0.0,0.0,-5.022586273664244,0.0,0.0,-24.606719797913637,-12.343311304139565,9.06151847876069,13.881928385789436,3.7742277477622217,-9.109352957913268,-8.165902882267217,-0.8100957636976993,0.00022625077569932614,-11.257359857062408,-1.7956287990291704,5.7483865509411874e-05,26.177123427568922,17.723219278266953,9.262973905718242,2.8123519162751727,7.308499268065621,-11.708809691921546,18.6999443856934,19.61907664898306,11.681657356422807,40.87620018402269,-4.922886541749496,44.412953337185094,129.31466045747956,-0.0005294584711291086,-97.60780090249804,129.7526840042826,0.0013274254824339551,105.53668534122173,-8.105459271913713,-21.410950549348936,-0.0006299139663586836,-21.55502829383295,18.348040215293175,-0.001300863940349011,-7.334458621408098,-6.1349600353808045,11.606264198111655,-29.576998224898382,-10.075159050353413,8.42926345058951,3.5028782190233603,7.635597825052594,6.043534320078624
-8.389076685246664,0.0,0.0,-3.94215827486817,0.0,0.0,-24.10145168903277,-11.269313345339153,8.028166708620702,13.346106717418735,2.9461464844796748,-8.546314829263276,-9.251702029592137,-0.9798625987631201,-0.0003034914229397366,-11.073557796861252,-1.841535623361047,5.0029349530843496e-05,26.288596466893676,17.89330192597267,9.786536803852394,2.4163538040409143,7.281025461963891,-12.358905894909668,19.044982988504202,19.699495825389697,11.698816423115053,40.62687208343448,-5.171807650107577,44.330435385419726,128.8947680577063,-0.0008133351265336538,-99.74553973814984,129.6898053393974,0.0016044200289799654,103.27533720112994,-6.637075965275636,-21.325095541952898,6.849262863083132e-05,-23.6682381775967,17.013775679292166,0.020519951891329956,-7.779834111534572,-6.296887967298741,11.355832220039266,-30.047230652195008,-10.130735146295937,8.132929387350472,3.3408570174868175,7.597440431761694,6.336104037112169
-9.095216973927268,0.0,0.0,-6.959886450196366,0.0,0.0,-23.50086469303959,-11.797208305503238,8.382945531287332,14.3803092588709,3.5369246507511996,-8.476233465393538,-9.886663739942275,-1.291656964123352,9.514837617899527e-05,-11.1925926858542,-1.8411958264738926,5.792451677835556e-05,26.821628031651997,18.124800072935752,9.502664070911411,2.6163340837219233,7.210973184366419,-12.562153893033349,20.292038950212373,20.21329869160446,10.94002107105269,40.74879304243193,-5.180605428671459,43.50194735610595,127.97321534752913,0.0030957450885662112,-99.9761844817976,129.70498529873888,-0.0021028545430723114,103.52679233060144,-8.509387485637864,-21.24211224881383,-0.004655318154010444,-19.1424327880582,17.057222262278206,-0.000676644658762064,-8.809792917417042,-6.855495760839413,11.025070218281224,-31.133327103140978,-10.522929344164371,7.608495826806299,3.4299060262264085,7.490102630052366,6.434296525653629
-8.518223166569143,0.0,0.0,-7.049383929947405,0.0,0.0,-23.52000710481009,-10.641587497524595,8.374748771982706,14.325633093385242,3.3987461262196486,-8.448724396650224,-10.574628192121414,-1.5660912499707784,-0.00015633626720120748,-10.781688165454174,-1.6216821627705933,5.9562298092277475e-05,27.12157974942801,18.427049403233383,9.699917581260356,2.3224012751223193,7.250229486998818,-12.60183173327534,20.654477187311517,21.035734165169085,10.795933641390686,41.418129311014255,-5.268694046947321,43.10448020882852,128.08377679904612,-0.0019946622698702988,-101.3092307945867,129.02552337951974,0.0002759297544670734,105.00748314316321,-9.734393278151375,-22.00725086464898,-0.0029975316008879157,-19.65948218399268,17.480944908153663,0.005478985832287698,-8.524581014858832,-6.784198750401565,11.291726182161538,-30.829172036871764,-10.557492983078824,7.885180406898954,3.3943804493204643,7.3999434640885475,6.517783243862143
-7.265599980834328,0.0,0.0,-6.338792011331974,0.0,0.0,-23.821113985143363,-10.84894159026409,7.895261284731298,14.295437756444336,3.7068322516898387,-8.69840835268213,-11.114737949355579,-1.4395877457336548,0.00016262346695112518,-11.059694174080215,-1.3630128484617086,0.00015356934650228316,27.337753486896393,18.350874652826835,10.21538261920493,2.4257603841983575,6.863616360829863,-12.360988838801802,21.397729949784328,21.420372156042625,10.83246345319974,41.638626879945676,-4.731289543031574,43.293984855228516,127.59784388539944,0.001494477499962518,-101.87149430108364,128.6592176534162,0.0004875436264228386,110.19053626730819,-8.409236563500974,-22.385102300182574,0.0005466089343516726,-20.759889817614017,19.599819173569053,0.001992962979397689,-8.597732225413788,-6.8498687948310355,11.210750586176282,-30.911248299369664,-10.587723670672613,7.784143904470905,3.292532938230224,7.093801241267228,6.626076433241536
-7.543465397510758,0.0,0.0,-7.168146849565724,0.0,0.0,-23.50178980176141,-11.434172472045981,7.738371302986147,14.141743747483163,3.912939239909043,-9.12224227617525,-11.547462634659649,-1.4201583961795996,-0.00014580973794397296,-10.75409963285306,-1.2790844031162096,-6.484827390049046e-05,27.651854172713147,18.46832771335479,10.13363841417095,2.4067654063984754,6.874171036546079,-11.797844284130797,21.05607607386221,21.98953771527488,11.894991404646586,41.83702704544223,-4.458786662470848,43.28158671623766,127.82801549629951,-0.00031077969862746703,-101.86872579866076,128.2191509928837,0.0004040852052422294,102.98184816664829,-6.781983395052214,-22.126957157277413,0.0008537128059866565,-23.196693341303522,17.395851515145587,0.004602484263431804,-7.7147148640013254,-8.004684682693863,11.14696440174463,-30.11773348667199,-11.631670134733094,7.27686095630884,3.5468989986397235,7.041563426588001,6.456771854084574
-7.187247035380786,0.0,0.0,-6.078015885847418,0.0,0.0,-23.39115637877561,-11.16317722825692,6.7267817946595105,14.001827938303368,3.6188636920479222,-8.953946978762485,-11.992762201860682,-1.333508544139213,3.2457598688377585e-05,-10.725061011034652,-1.4261271800690658,-1.3791953357712006e-05,27.890335042896737,18.6283079006477,10.366571895813383,2.5680416841333926,6.8867836142721535,-11.746719191385655,20.463942912581302,22.643259136355514,12.561737401620118,42.1856995008838,-4.18333164564845,43.24111974868,128.07506203579217,0.0003469827396829746,-100.20343984901481,127.9800266828904,0.0001102131601294229,102.20640284090139,-8.328525816071988,-20.84903038423093,-0.0006044907311263146,-22.624015863282086,16.806216854481267,0.005746980511280154,-7.938862004099568,-8.379428533874757,10.93891802303241,-30.3816598012631,-11.899534046469025,6.93641323950275,3.456845960213479,6.979126655637938,6.490901716476763
-7.0303156837205485,0.0,0.0,-7.419397831097294,0.0,0.0,-22.953718964551882,-11.592114477432474,7.330103530852645,14.144739038298198,3.730352883431626,-8.78068475206251,-12.423150383691382,-1.6787597587052585,7.070200204066151e-06,-10.82472664224083,-1.586183073041775,9.067580174755363e-06,28.197462133277128,18.695739914328414,9.609070047331333,2.7100392429476825,6.782512676734723,-11.794277026211274,21.341414129821995,22.938051992984843,12.50175871144722,42.148168779146104,-4.181155959961934,42.836969737503345,127.86800915502508,-0.0004859944098361658,-100.38101555681067,128.03196685018617,-0.0008099380815566781,105.42794698424959,-8.334978769958536,-21.51294278136279,-0.00021846189150736943,-21.832491922186257,17.095220427224834,0.008316428467896216,-7.496667342244117,-8.473859471586419,10.620530970534862,-29.961646876552088,-11.866516584052176,6.602108762624388,3.4711341960090047,6.642611203438808,6.756522062877934
-7.437241301438191,0.0,0.0,-7.793758240435184,0.0,0.0,-22.61500447020003,-11.899230464886452,6.893112353105941,14.317298035573474,3.738379693888603,-9.127369866240768,-12.781868272993373,-1.5924462070916698,2.119759201019779e-05,-10.722730333509435,-1.5206048176983478,1.0812220981135997e-05,28.52714338559592,18.705970048784366,9.616108700857968,2.7992914341275315,6.74206522401194,-11.400083885823529,21.735753964221686,23.077303530116772,12.214355296960283,42.27012440177353,-3.8936645694202716,43.31052827503426,127.79253000330368,-0.003372926704075002,-100.22073458622839,128.0633688231011,4.036727458917255e-05,101.70523308650725,-8.73515116880224,-22.2242382956802,0.00041066962994586013,-25.116785097161056,16.720502559714006,-0.009105426746225597,-7.055476254208404,-8.132463582351333,11.131616434901515,-29.469315896753336,-11.744010081442683,7.212768417311493,3.56886105833884,6.628204348333009,6.559528172640206
-4.452197937827699,0.0,0.0,-4.36083814639025,0.0,0.0,-23.376430292964432,-10.468143811024834,5.56339516078939,13.324487050796014,3.554721424009701,-8.31443632499164,-12.877897249488413,-1.6416963811825873,5.494665135508629e-05,-10.588841897741977,-1.55550062461287,2.345979721054461e-05,27.91729520609354,18.865183499825356,10.777351299800387,2.153998986051111,6.7249182935291545,-12.105240791357998,21.7680498323047,23.22676111153699,11.978821702598243,42.00558765397327,-3.9368470025330704,42.830427120670244,127.88329053346312,0.0001480933015633468,-101.84017487508362,127.91252098025818,-0.0016986340630151216,102.42075290923538,-9.733004352670457,-22.62876256650288,-0.0025235910773961615,-25.058727349928965,13.413569066960628,0.008161751306993374,-7.40577121122544,-8.610258408441359,10.717030160591843,-29.877464573122626,-12.029029660675544,6.638965206992341,2.898383444862873,6.707866158994977,6.802848983759427
-5.7073364552303145,0.0,0.0,-6.176638937197998,0.0,0.0,-22.662795210530156,-11.538553881982768,6.479377489979216,13.714317853251687,3.701116027734145,-8.65079665398031,-13.324763799198434,-1.8751655866558679,-7.453973581551914e-05,-10.434139358766458,-1.541927759528583,-0.00031736970175334355,28.146083215258372,18.997433332234024,10.721785162850036,2.1604402647531855,6.6963681255153755,-11.65765128333405,21.86304471223013,23.372690932508455,12.192734878011958,42.24040164107184,-4.367572524576132,42.237464230310444,127.8787620959849,-0.0008263515153826115,-99.28235826151989,127.79253949008842,0.007375587649477752,108.56812161194325,-9.614673476030989,-21.935236821574705,-0.0007741262868625526,-23.77770054477924,14.990674071188497,-0.002050993210280547,-7.355984797374615,-8.711510202697225,10.458488696695241,-29.847299794232864,-12.02486462657525,6.357900330621181,2.9000718575547024,6.56670697806167,7.1121650031811505
-3.842875477001155,0.0,0.0,-4.668254956925217,0.0,0.0,-23.21035245756416,-10.92097217947593,5.958825167667071,13.439937114049233,3.9041055963692197,-8.376801040635264,-13.570973601609575,-2.028738116860012,3.496603581191992e-06,-10.103525209039844,-1.6330759265530077,-4.52302528838192e-05,28.47434123501884,18.850273493750727,10.77073770608971,2.037111762898321,6.680932622259104,-12.574286559118027,22.431315452736243,23.27229678536025,11.69082165748205,41.867680991560356,-4.008814578219266,42.40284684985022,127.7515450232759,0.0018609985674876536,-100.7063964162134,127.32347780784845,0.00018343141989247532,105.46533542416525,-9.087801767403048,-21.215735494050577,-0.020658440481338285,-23.94341319982408,12.951715548762548,-0.000775722180855567,-7.09650238626737,-8.803376484705558,9.748858402663721,-29.624139336571442,-11.84122076095649,5.659719794935937,3.0403212313537296,6.535961436305287,6.931756277148914
-7.837782738941634,0.0,0.0,-7.98428766620197,0.0,0.0,-21.680147458234604,-10.545608538290569,7.205314433677352,14.266074971988157,4.952720165401873,-9.503226261505576,-13.8369585044241,-2.639826983222244,0.00012089117679493212,-10.266827433464037,-1.584218270318148,-0.0001026549192469528,28.922188285447056,19.117232261664462,9.828406864566533,2.3676293461371323,6.8009719484216395,-11.519818937899458,22.35770286938378,23.341604364594122,11.817427565141745,42.0534483899435,-4.165560493641458,42.25260921017359,127.76051115342688,0.0003309248702457749,-98.75412444914471,127.0383729053254,-0.0006222878575946645,105.80081336699031,-10.156535457567319,-20.91471511260512,-0.007071326693013756,-24.665120117834366,13.247101744630768,0.00047254328210883214,-7.143738819532164,-8.567411541993538,9.558326383582912,-29.659907908150572,-11.55109815624287,5.574350775947626,3.237981431300162,6.673362891421065,6.782424879345516
-6.32343586747567,0.0,0.0,-5.58488064438135,0.0,0.0,-22.064684690654953,-10.477884352029369,6.649111478908276,13.812638674043523,4.795761893141322,-8.79954114339025,-13.916843011608508,-2.474257920725693,7.913065328861919e-05,-9.93681105957259,-1.5690495973433054,3.1335155822501734e-06,28.920611356535368,18.738580317440018,10.814362471172345,2.159447812840618,6.416844907216433,-12.348496531139567,22.26674280025914,23.29683953785245,11.445888730743569,41.23890684227566,-4.516701587133956,42.1241531295724,127.51773157209603,-9.653886335357733e-06,-100.9474139833843,127.27873298859826,-0.00015304091216887872,105.25104061594489,-9.375988484615878,-19.93784581248262,-0.0013391194264774902,-23.980539988056226,10.795616202028452,-0.0015672138624690224,-7.113309669811753,-8.880110732478016,9.123039884703118,-29.669760952840893,-11.675023768859873,5.046300278822897,3.254378536530647,6.303532155327218,6.812819302604581
-6.839283948543777,0.0,0.0,-5.2922333070709175,0.0,0.0,-21.724267842447144,-10.565299959024198,6.267976501025531,13.610041888430628,4.624115682127931,-8.685890313042659,-14.099640139513655,-2.550915002467331,7.094044092282171e-05,-9.943500064928294,-1.3384379648167561,-7.968882391612124e-05,28.91723239733383,18.710179211423615,10.777930251816946,1.9707520287309366,6.2852668535271015,-12.50941732241116,22.12839008488551,22.873522202719563,11.514664632574457,40.91533028496366,-4.831850780489005,41.837609054984426,127.76079983044767,-0.0007610230090758351,-100.83646966644771,127.28170293867369,0.0015310044674993204,106.07373247931949,-7.472490024786157,-20.95810606778071,0.001074673314763744,-23.955279477878754,10.981177069681321,0.001498088031937295,-8.08240658459851,-8.997425070695668,9.00967936935653,-30.652002411863947,-11.740389953233494,4.894708840080919,3.109684659633155,6.3995172112913,6.652901117898849
-8.798799750471948,0.0,0.0,-7.136687982126881,0.0,0.0,-20.97802350534114,-10.540031194555194,5.72153055922657,13.804895042999423,3.682968376270065,-9.52565642456618,-14.137248935836368,-2.0970598226624015,-1.733518281218439e-05,-9.546709002946269,-0.9589550617819536,8.097901458188843e-05,29.230415914191752,18.285379265719722,11.024406965424372,1.9642366143602126,6.074759976191234,-12.008286220049449,21.850653491919815,23.00191467338873,11.15935599548976,40.03131998990326,-5.663623677150284,41.68533940756208,127.85190717140549,0.0002229857134986679,-98.21586074101923,127.61763928432347,0.0059400159932502215,103.67980047581821,-9.425938172417606,-20.668765678318945,-0.004096106230539411,-22.968996798028268,10.580936583745267,0.00015250737603358076,-7.34342282818679,-9.423518259742329,8.294134622186805,-29.968931418754728,-11.862357994467391,4.061282918285754,3.428083416880071,6.184953691232604,6.465044451534556
-7.258892248521378,0.0,0.0,-5.185315803719589,0.0,0.0,-21.341474261783823,-10.801493546018028,5.37462904142427,13.617890902331888,3.967497795388799,-9.467399744437106,-14.041320772654409,-2.073523311547578,0.0001524045602316383,-9.648947714481183,-1.0625630866467557,5.9482092670190705e-05,28.788039632077986,18.168348338216557,11.286282264559507,1.661526238453006,5.892896124335662,-12.157644628408706,21.219186989863527,22.920767971006562,11.663379280028492,38.87912723217646,-6.235844425381714,41.2384958658617,127.56390487621718,0.001914434454744762,-101.13866048787645,128.2836892905542,0.006889178978453173,105.58862171298817,-8.747885378691246,-19.198935186628667,-0.0003814349989861724,-21.335184745181305,11.385711728878501,-0.008197624486718371,-5.990262897337778,-9.009526130715322,9.090763152101205,-28.558115671956557,-11.782291549854275,4.965509860076196,2.982359246037983,5.92762776354902,6.296845797869289
-7.780809502217116,0.0,0.0,-5.5973984017500245,0.0,0.0,-20.608281109173475,-10.18033256419534,5.833784715033386,13.754619248712382,4.299906696454179,-9.764882701211935,-14.391467848843766,-2.265617215914179,-2.459712843617268e-06,-9.415270014264365,-1.0726660855100842,4.636395565739826e-06,29.06146670904267,17.752670667067523,10.183413626282226,1.4028495730921076,5.808785607633956,-12.430065469664942,20.729664295692004,22.755995521284493,11.142733760175151,36.58247943462706,-7.76815538463971,40.211536161839845,127.8411166993495,-0.00482110406760068,-95.7100608832945,129.0088255392304,-0.00013844108483628055,104.69339446663791,-8.79212377384362,-17.681393369087537,0.0016097985222165879,-17.10495629316979,11.343332374829876,0.0027969212847883465,-5.4938579364861395,-8.494374735761465,8.76361872201915,-28.032446095554544,-11.182524408814043,4.862426451036152,3.096786532958023,5.701522241432261,6.185234565578658
-7.903384618467881,0.0,0.0,-6.378127179214084,0.0,0.0,-20.490542164934872,-9.964454463648584,6.612366819536007,13.779732804425448,4.153244183751071,-10.697411242772533,-14.656369974936391,-2.8027322921061986,4.800035597208749e-05,-9.18222704279795,-1.3031073080969269,0.00015577829555643862,29.10561938361314,17.99755724047453,8.841842026491282,1.1178300045395182,6.220321816042067,-12.022518428792939,20.157257297491434,23.431024726602004,11.220786686445253,35.746267386908855,-7.798400034127677,39.526262636687015,127.90101940880703,0.001599514570277088,-89.93471555569798,128.9795987202771,-0.0012556786379317765,107.10147043432318,-12.318211369708438,-17.416223633992985,-0.005058796486979542,-16.74259935290271,11.138524530334365,-0.005902595448457344,-4.8136229713291945,-8.305924055685617,9.687328550421547,-27.30454942637004,-11.35836790096415,5.79675491106541,2.501210236031106,5.675083301694971,5.835188595190204
-7.929106174306517,0.0,0.0,-5.892694451806284,0.0,0.0,-20.95787274882881,-9.809580685348672,6.543214487689617,13.861459556173548,3.33511641520125,-11.193723088706124,-14.444746747743558,-2.742835837156123,7.129470578062013e-05,-9.28334844127827,-1.004577547872896,-4.950281963097648e-05,28.890573534918076,17.77061775300636,8.94786586251667,0.8609641590432747,6.037716952542116,-11.733422864660785,19.82887285902216,23.768316000694778,11.200392656404897,34.76418633171207,-7.563704634009068,38.68664598528652,127.33519371281497,0.0001031199185158744,-91.40000855602824,128.29457824264682,0.0006365597812499597,107.28581607864473,-12.84177898931396,-17.561442074930323,0.0007225950318487258,-16.76700014510292,10.038599105988288,-0.0010283247667615897,-5.085169988366147,-8.025202464708645,9.579958153223833,-27.559033855798937,-11.058337145489455,5.806070026481444,2.129698753060959,5.5832230929840865,5.365324013309272
-6.5831121413069615,0.0,0.0,-6.0529001041055155,0.0,0.0,-21.217894214367107,-8.735546093392546,6.44613753080482,14.050717542848044,3.1154632857111264,-10.46436853296039,-14.748575294782356,-2.8732409553560756,7.667086092567568e-05,-9.106336709132057,-1.068442901946873,1.4407179404225795e-05,29.170936009793618,17.679372165138027,9.428285532345313,0.9676870942393423,5.970024321529367,-12.509784001036927,19.552711141426354,24.422370986360654,11.264484584773228,34.609952089068436,-7.889928692818169,37.60888219137499,127.04277697098283,-0.0003310928971703028,-90.67472842850556,127.77480497324204,0.00018778008155193965,106.9881193707717,-12.709954551609664,-17.95288745041946,-0.0004892084806797432,-16.858954505414083,10.885822329800035,-0.006302294111373071,-4.765717566116685,-8.300381989705356,10.234064294681682,-27.233839821398565,-11.560104814202097,6.3089760723949215,2.1996189217011572,5.416174728615208,5.56728762511618
-8.020445502962302,0.0,0.0,-6.958267561457205,0.0,0.0,-20.523307692960124,-9.449072212646678,7.0327095665237715,13.948043098524362,3.030788690602005,-10.969467342878772,-14.910787375741585,-3.165169925594922,-0.0001201859394873025,-9.060214773126726,-1.1339669027833164,4.0616006818962386e-05,29.391628506309978,18.155839229555692,9.298708584729948,1.1406280581223598,6.299091495277949,-11.450192852554665,19.60974125851724,25.0540423589411,11.67033183670219,35.05244163242786,-7.627161995612305,37.235707421895725,126.76599008075239,-0.00023503917943111126,-88.77968411044021,127.11062314473932,-0.0009477768557217617,104.69957935579984,-11.647364648152614,-16.442778762948993,-0.0007930752173346786,-17.839339520880106,9.235560697285838,-0.001105130744142909,-5.00851046174388,-8.86807478899072,9.76895881419723,-27.54058326779316,-11.90858721526271,5.653138627244316,1.9128768069346864,5.563695177746707,5.81803965002279
-5.836779102909603,0.0,0.0,-4.6318728346533415,0.0,0.0,-21.061901116809327,-10.401355728759107,6.833388990758186,13.174302494760651,3.8986081478820935,-10.060906726006966,-14.621259569695974,-3.135299221269254,9.444560748586701e-05,-8.778098206383763,-1.5476703110898384,2.0587508595835692e-05,29.264887009026456,18.162914371949448,9.38619460804614,1.077595561600361,6.3788401767286,-12.579409178850652,19.987632972075676,25.046237482113,11.436972156234447,35.40477367308661,-7.687473632831217,37.14699089344047,126.05993224745832,-0.00013653636227783125,-90.29557117746546,126.90357124258063,-0.0021169064829049296,105.00397942910541,-12.860478983732872,-15.837049047290984,0.002624251485838287,-17.867194318422865,7.8644536998260115,0.005541400271649672,-5.511762669456665,-8.873399435504176,9.566137347230432,-28.05188773322634,-11.836699222006612,5.461921367711708,1.7781745515383265,5.5150772979788805,5.880794734143268
-6.214112836082192,0.0,0.0,-4.557230205260028,0.0,0.0,-21.202941409189886,-9.990288246656752,5.79508871191691,12.909223356432454,3.723290137498014,-9.887445888063905,-14.589205037849093,-3.0261004537384477,-1.3027576012748369e-05,-8.452555693874077,-1.3287004988009523,-0.00027673685372408153,29.285413540355393,18.174702008486918,10.480680934379448,0.9446091327502132,6.311087714260037,-12.555301478105017,20.09547097623665,25.649850657481117,11.970942907400715,35.94600548961093,-7.898690850322979,36.96542837021703,126.1939048608315,0.00040883325421245436,-93.14588081237451,127.43527780626941,0.0006394223361827664,107.1066392747573,-10.209425655218368,-17.209721732468136,-0.0014595775026572646,-16.2894979797479,12.703534275370323,-0.0019312674877495885,-7.135944327716112,-8.932764831902691,9.369811787508226,-29.68797789505315,-11.817152516538389,5.255631466850325,2.0651659798027766,5.529373946595759,6.063914794530459
-7.415904537499544,0.0,0.0,-5.455144930271614,0.0,0.0,-21.21273748197897,-9.520953957443457,5.191106498153869,13.131287218446515,3.5074513678657495,-10.61847029824086,-14.738855319342516,-3.026137309631831,8.07493549424521e-05,-8.217822300526912,-1.1991847868130638,-2.435328323787591e-05,29.45875666085966,18.24024604038016,10.66428247115882,0.8473288122159973,6.3275840009722435,-11.744249155771438,21.175884806941898,26.04451437494873,11.50276591748072,36.894496322780576,-7.390510574848767,36.89267698926239,125.873995866622,-0.0005333117054634528,-92.45255004076012,127.02473796459172,-0.0006665174892751722,106.60936352456105,-11.876704351385305,-16.64861877693134,-0.0025684671710181936,-16.59311795930904,10.055103646862774,-0.002862357380702607,-6.895104336386365,-8.971197026820441,9.005002357784178,-29.462767062081397,-11.71439789730264,4.90064426995852,2.0641550623324063,5.387772091239941,6.250590227013149
-7.122138102956237,0.0,0.0,-4.8607554667189,0.0,0.0,-20.789272227700515,-9.408428247774625,5.072348297912774,13.156977439733783,3.9314599039624243,-10.244808266507814,-15.100485702090987,-2.984644212427656,-6.432473509231303e-05,-8.188704051811463,-1.4064669442738589,-4.3750467625422596e-05,29.49744682055231,18.378677006394835,11.301026778712933,0.7837018835733544,6.348013531677258,-12.028429317843392,22.26015912822591,26.39013917838011,11.520328399096343,37.57089177114409,-7.283956198873699,37.33591082523599,125.75385379591722,7.334397634831733e-05,-93.51535819656812,126.89937320272556,0.0044682215083268004,108.62051090296822,-10.496705326057747,-16.913327600683605,0.0007451442038838368,-17.673858214792126,11.453596965141923,-0.0010271708366139602,-7.376423816119343,-8.771949184945681,8.590471945216176,-29.941789174231808,-11.373222092653528,4.592667434005367,2.0708161787365227,5.230780482750369,6.134271003572972
-7.893124169000033,0.0,0.0,-6.346291603981191,0.0,0.0,-20.530295418252326,-9.647267977037165,5.99922933414239,13.396772823574711,3.482729818403055,-10.458366036054654,-15.099501019240371,-3.330142506822515,-2.2454184517875048e-05,-8.33753452397453,-1.3419030505555223,9.336190139721002e-06,29.574303115719655,18.219412288233034,10.31621134026832,0.9760080899406781,6.15746830784082,-11.887711647889699,22.91089788650403,26.510604246230407,11.522661138369472,38.383923379139226,-7.093545143108329,37.46296149062137,125.9925063968392,0.0008235037279494289,-93.239587941738,126.52196650458544,0.0019169903592857716,109.17266107068025,-9.828516317223416,-16.906509693295888,-0.001078187777662421,-18.026054803749226,11.22550123516343,-0.0006542373548702769,-7.022766238310523,-9.253584303148003,8.297834310274917,-29.634541524042803,-11.706897142881342,4.1314880493416455,2.3435325240259126,5.099718075041439,5.975275901608194
