PaulMeinheit/Bachelor_Muay_Thai/processed_Data/E1/teep/scaled/JointAngles/scaled2.csv
L_MTP_ANGLE,L_MTP_ANGLE,L_MTP_ANGLE,R_MTP_ANGLE,R_MTP_ANGLE,R_MTP_ANGLE,L_ANKLE_ANGLE,L_ANKLE_ANGLE,L_ANKLE_ANGLE,R_ANKLE_ANGLE,R_ANKLE_ANGLE,R_ANKLE_ANGLE,L_KNEE_ANGLE,L_KNEE_ANGLE,L_KNEE_ANGLE,R_KNEE_ANGLE,R_KNEE_ANGLE,R_KNEE_ANGLE,L_HIP_ANGLE,L_HIP_ANGLE,L_HIP_ANGLE,R_HIP_ANGLE,R_HIP_ANGLE,R_HIP_ANGLE,L_SHOULDER_ANGLE,L_SHOULDER_ANGLE,L_SHOULDER_ANGLE,R_SHOULDER_ANGLE,R_SHOULDER_ANGLE,R_SHOULDER_ANGLE,L_ELBOW_ANGLE,L_ELBOW_ANGLE,L_ELBOW_ANGLE,R_ELBOW_ANGLE,R_ELBOW_ANGLE,R_ELBOW_ANGLE,L_WRIST_ANGLE,L_WRIST_ANGLE,L_WRIST_ANGLE,R_WRIST_ANGLE,R_WRIST_ANGLE,R_WRIST_ANGLE,NECK_ANGLE,NECK_ANGLE,NECK_ANGLE,NECK_ANGLE_SHADOW,NECK_ANGLE_SHADOW,NECK_ANGLE_SHADOW,Trunk_Joint_Angle,Trunk_Joint_Angle,Trunk_Joint_Angle
X,Y,Z,X,Y,Z,X,Y,Z,X,Y,Z,X,Y,Z,X,Y,Z,X,Y,Z,X,Y,Z,X,Y,Z,X,Y,Z,X,Y,Z,X,Y,Z,X,Y,Z,X,Y,Z,X,Y,Z,X,Y,Z,X,Y,Z
-3.7138500000000003,0.0,0.0,-3.521790000000001,0.0,0.0,-12.868150000000002,-9.603870000000002,9.015210000000002,13.472050000000003,4.335820000000001,-14.311960000000001,-18.3616,-2.3053500000000002,-0.0008000000000000001,-5.849820000000001,-0.5536000000000002,-1.0000000000000004e-05,30.299690000000005,15.18256,12.072100000000004,-1.1114000000000002,-0.01744,-16.334140000000005,18.806400000000004,21.519380000000005,8.53478,42.39363000000001,-4.457610000000001,39.71153999999999,130.59770000000003,-0.00162,-104.32279000000001,121.89802000000003,0.00168,120.63480000000001,-13.457570000000002,-14.099750000000002,0.00164,-13.452660000000002,10.243420000000004,0.006340000000000002,-7.50915,-11.234670000000001,11.449700000000002,-30.188250000000004,-14.729410000000003,6.288450000000001,3.10811,0.40471,8.746390000000002
-3.9862124703050776,0.0,0.0,-5.4335849616002125,0.0,0.0,-14.245717387120779,-8.88235922350052,8.64399672027897,14.153239612094806,4.656730529538976,-14.579508664617402,-20.071253065358572,-2.941618551814677,-0.00011721213697858505,-6.20526117637039,-0.5967303260001401,-0.0002956336592921328,31.584996992614556,15.530816971428363,11.322626683211027,-0.7330928514881249,-0.2035579902374226,-16.402964987651536,19.86007858925322,21.938870104170437,8.411949277813717,44.399634648856825,-4.11991254014497,40.09856414767481,131.27335577160054,-0.0009680642486437828,-108.37775291247796,121.04103254322673,-0.005581656039117425,122.78762979381233,-10.501587020989996,-16.387550868808685,-0.0025404798208127715,-13.246506568255466,11.052617362151599,0.0036740714477874786,-8.266286588985317,-11.753540895732515,11.462778284098766,-30.998392223466237,-15.21302356316775,6.0933655498023045,3.3492861311083675,0.6065228570298117,8.486608632504165
-5.239483927695682,0.0,0.0,-5.747576474928301,0.0,0.0,-15.714655801097487,-8.329717176925245,7.183075302717377,14.375699240669265,4.521796999912946,-14.990750568877893,-22.382207654898533,-2.992455372030303,0.0008954174957067455,-6.682326928457344,-0.501265050406556,0.00014285003419790918,32.774858503030245,15.661607869717175,12.388422945224228,-0.7821667439428632,-0.5963142581091857,-16.01648567727635,22.328449871262148,22.22198630809514,7.596920702931324,45.927289805605255,-3.361403198566143,40.22076368220076,130.798477993323,-0.0014548573530612481,-109.32352691643668,120.78382978302727,-0.0008696426391087008,123.20315175821564,-9.770171281944874,-16.0613726146882,-0.0017766869248066486,-14.135310146392788,10.92936032539045,-0.001136240263649399,-8.266902128475785,-11.783681312280702,12.365322592942974,-30.961826273394397,-15.581989721715521,6.926698629158265,3.106941441561767,0.5451552336127404,8.579253610432703
-3.3811823741742546,0.0,0.0,-5.014483890365521,0.0,0.0,-17.975020518971245,-8.657953299111268,6.450404513311982,14.245443013414317,4.728816105040472,-14.785829376856226,-24.725080096040173,-3.8818521799017276,0.0008946985990289424,-6.7636247464497945,-0.7190776953440566,-5.415544570796956e-05,33.91122511442978,16.35784043409279,12.505606148978204,-1.0600772924824313,-0.7427172939332465,-16.475093668228393,23.54835838189724,22.33276188352653,7.189794951279668,47.31166744222243,-3.1722630697199414,40.36721755248828,130.62464339177714,0.00012917842422581604,-111.74796604319688,119.98498700187345,2.6688745997070157e-06,123.12886533098442,-8.866976111838936,-15.364049439339523,-0.0030980734876205162,-13.767876430946469,13.013591763633386,0.0044078149417401446,-7.579309464530112,-12.38540579442108,12.369358415509714,-30.340095417008015,-16.13852754916013,6.688802542198489,2.7848542909961997,0.6136059445666069,8.746608196197947
-3.1886229144696885,0.0,0.0,-6.146930783266265,0.0,0.0,-19.974669361263235,-9.146042321241767,5.0238716926544384,14.425184554234633,4.271136134428467,-15.086682398430051,-27.430720793625284,-3.793855772029478,-0.0014727025959970377,-6.646611252283794,-0.40643747576211126,-0.00010256070762839106,35.599698050241585,16.58184600683959,13.300993004653177,-1.1537112018629159,-1.3670341911266966,-16.27697223426179,24.99495565395243,22.88937128631914,6.778948929986675,49.13972497288958,-2.5059240345641243,40.32296946994396,130.14349382978367,0.0018235425244208653,-112.07334655320992,119.86099124133189,-0.003430801917074308,125.08669538099481,-9.831809758325344,-14.151959622521767,-0.003863265950782382,-12.015051046049422,14.94657581101838,0.0017931844036536261,-7.001341826528746,-12.58404710089085,12.663989220867972,-29.77077767051486,-16.433009285070717,6.885050227723302,2.871648117212009,0.40944208255377396,8.587775794559198
-1.3232455374946315,0.0,0.0,-3.706159181395201,0.0,0.0,-22.45535907635184,-8.629105508050174,3.1354047237479032,13.65875194696848,4.872639804783729,-15.385616491984932,-29.923327273735556,-3.661327503027337,0.0009881091999302334,-6.19974992251347,-0.4567164958361487,-4.578222814927049e-05,37.174264011142085,16.99438883715589,13.83332130458168,-1.7914080870057416,-1.5130603531216267,-16.335251007726303,26.713937714273662,22.861701839322116,6.066063574494658,49.65419731497112,-2.820386541890877,39.42796398856378,130.08475624468684,-0.0006229486039240372,-105.1234286820888,119.7519511339323,-0.0004315213279624853,125.19395936123468,-9.51449064575135,-13.220797215995509,-0.00242886830630884,-10.919850859663722,13.384939756452873,0.006228045437991941,-6.148654642452335,-12.457323236850574,12.277979307387264,-28.921666264189966,-16.170303462410292,6.574155154079131,3.0076290059621673,0.37456502725557145,8.935299056697945
-1.9397357727393985,0.0,0.0,-3.814939769502404,0.0,0.0,-23.37420087731641,-7.518770043673888,3.4275801418154757,13.17514724846019,3.506158737802792,-15.320062969319157,-31.64822707111705,-4.422633059264446,-0.0012155893537442715,-5.64138996954671,0.1462185878553051,0.00016752633369020392,38.18941557098807,17.43201898097112,14.315427272560326,-2.2227348653875496,-2.3196364037561232,-16.378073234702196,27.509427789029363,23.038820558169803,5.458717847832746,51.26306581526487,-2.75324291460054,40.260055290963756,130.54675655278646,0.0006866745458192607,-107.47708215199013,119.29730309378168,-0.0011896831526140453,130.55138776796153,-9.644382516568514,-15.630896199823297,0.0016161922181942476,-11.116312306322433,15.092598953659142,0.004541097121785023,-5.808557223008938,-12.364940821320378,12.844282949348957,-28.54437974120557,-16.29902391723931,7.14257468781298,3.293221786790014,0.24731201410866355,8.802806252571001
-1.7884758566502408,0.0,0.0,-2.696850479691372,0.0,0.0,-23.44107902966911,-7.568319603137814,4.559385292970166,12.808777448540264,3.987044812616122,-14.196384457663603,-32.981456724148806,-4.8263676711222905,0.001208812307849596,-5.205791749810693,0.08621106948560493,-0.00012211844498914368,39.303833480642204,17.841064150574283,14.851257372599314,-2.527952762459746,-2.742003200483589,-17.9445482083585,27.864774223264156,22.94332394205728,5.097970891000097,51.927703708199594,-2.669837169209169,40.36475420551005,130.79595894701865,-0.004729685886887911,-108.23881460981924,119.13535161021453,-0.0001708333777827583,127.28760633966947,-9.36571199567193,-15.687256562664661,-0.0006431615806403351,-9.843124721039139,16.049035884242922,-0.005784375976761667,-5.019906494837751,-11.801693019519165,13.014802634879516,-27.684484739396645,-15.843759201379886,7.52886035260572,4.219770352680144,0.28458426865351877,8.797710323804214
-1.9819670166426486,0.0,0.0,-4.304438370050563,0.0,0.0,-22.871455920558827,-6.421066084907433,5.309751947564816,12.912369219897936,4.182087145423359,-14.983583404504662,-33.649718322635046,-5.730097100606015,-0.00043661624123227826,-4.325381504868285,0.1976701832625472,6.990774794765508e-05,39.778958804571126,18.274920014332654,13.785698319303055,-3.5283188469309237,-2.9233323879755404,-17.700745042718395,28.004744409932687,23.35272106316095,4.703420390224249,52.12178760823786,-2.1661064331958295,40.78557160569655,130.9549099801248,0.0012602358610943527,-106.04958987581696,118.8532646795861,0.0011694852844343026,124.49865819092948,-10.428064914854668,-15.654004848169176,-0.0008343369801871402,-8.518998783588609,15.694621422021296,-0.00046396423194081153,-3.7893403901001554,-12.10097378772792,13.491793503771339,-26.461870425426103,-16.29976694520963,7.856936709892107,4.75549055207068,0.32529019509956225,8.581826571391671
-0.8928515869789704,0.0,0.0,-2.2377576965552675,0.0,0.0,-23.49044738793834,-5.969645099884292,3.7756188546543816,12.485306059582255,5.061301372147318,-14.361905112396496,-33.801851589052305,-5.4016026390123875,0.00013297830451491547,-3.407394999833799,0.17358840775712947,-7.518558063589141e-05,39.93625290737152,18.917830223150972,14.977744960852766,-4.317728508976533,-3.196984381611928,-18.17861600723093,28.859865589327633,22.92431235582295,4.303477344293899,52.636858041148784,-2.135356323574459,41.153233604159745,130.48386641283741,0.0007404081599445008,-104.65216632815495,118.20653015473864,1.0474488571644825e-05,123.82557124222001,-10.164110550276837,-15.483280208965773,-0.0007577091560554061,-11.054882703949566,16.192887093141803,-0.0001282416379231752,-4.599962889199992,-11.625725829838935,12.833768170864005,-27.254771531787025,-15.613086080177494,7.429338104018853,5.357378044816147,0.45764495708100944,9.22867178862087
-1.3028745112144418,0.0,0.0,-3.2097589978480947,0.0,0.0,-24.54382981157343,-5.948389367247827,3.4383239894262925,12.710517872240468,5.682476813357738,-14.814722201685136,-33.640028629741735,-5.250547241005367,-0.00019236368860880946,-2.711485215662258,0.35331184335854765,-4.711112643010154e-05,40.401036366130775,19.180204359139903,15.132634521613335,-4.897428048432875,-3.5026702678672432,-18.232276118497296,29.506575996687793,22.445530414819608,3.5771265386632893,52.969212953998976,-1.7675327556639533,41.4945106271925,130.45428806677342,-0.0037769297751548787,-108.44219452232512,118.31691952998972,-0.0007707694783748049,124.01338658092683,-9.503201099021021,-18.395396066351577,0.0002442133486779627,-9.18245023143027,17.307042795514047,0.0009351102248471385,-4.022430073693436,-12.08664954510707,13.382736804386592,-26.699223890698512,-16.245438954921624,7.760194945964581,6.173930906960281,0.972836878133929,9.265543328196788
-0.5441661404179742,0.0,0.0,-1.8925466642590074,0.0,0.0,-24.573285699090736,-6.204930965261629,3.866831106316465,13.226643016765147,5.862451593910273,-14.666959459158502,-33.97819368612237,-5.9908578797265015,0.0004009172845000311,-2.744948133661721,0.423800751955621,3.9734457783436277e-05,40.26195142506172,19.433463767482063,14.545166739852672,-5.69985995980574,-4.076862630623181,-18.592766436778643,29.91751314024763,21.658184241934663,3.352340420135576,52.716504522857676,-1.7342161741395148,41.738548462113606,130.36186913210497,0.00016899639156245098,-107.59808717080507,118.4437520827185,0.0012014654405677135,121.4699214148189,-10.058434924330042,-18.937338625978942,-0.009616793543707347,-9.566193030556134,15.84638409881374,0.0009140712526276686,-4.0650499055724865,-11.634106687366154,12.530160309468865,-26.735952401481402,-15.506232084415515,7.141145363656872,6.729295337988859,1.2338390769902103,9.713162404712968
-0.42043143817069556,0.0,0.0,-1.6085981082149214,0.0,0.0,-23.89761203846495,-5.439679319329032,2.521068637949303,13.526363993455192,5.85733783120152,-15.225540354126547,-35.14464197531694,-5.786573778561252,-0.0007562942869905252,-2.531717470554661,0.48380711183816644,-0.0001273799588039945,40.519487027246036,19.612630327609544,14.327625873325394,-6.663271642755432,-4.057011218272339,-18.67468619405637,30.818282022579442,21.257515919590187,2.6598500891088954,52.74665191125012,-1.4704280154087372,41.49924148054281,130.04947148218724,0.004707349393205509,-104.1395759070787,118.39649081223983,0.002205638447318627,124.84093321004032,-12.43790416975626,-17.851855894000455,-0.0009013720132899501,-11.142028755398137,15.468841884865512,0.001622889450662781,-2.832537173911554,-10.632545547853054,12.857127879277712,-25.382697461537123,-14.704986668651205,7.846748572583785,7.315416666034186,1.6193057266587776,9.831110257250092
-0.14438989259114837,0.0,0.0,-0.788925423562861,0.0,0.0,-22.56611300442406,-5.3420964405039335,0.9763067867762878,13.687817480631562,5.777627989560431,-15.722937953568476,-37.2815355193993,-5.477814778548952,0.00025291228388584343,-2.8069919430868824,0.17404757345748711,-5.660762628294418e-07,41.348115376930124,19.1931421043667,13.78967521537221,-7.246028784635918,-4.109554278603911,-19.135222974588114,32.50023973499316,21.06308061382636,1.8004952600875226,52.126327431732825,-0.3968917621268519,41.444512752750136,129.33354882727406,-0.0007170926659909537,-101.13432254418885,119.39780604842599,-0.0027135383068686188,123.53230294254563,-14.77157176189693,-18.311947352608605,0.0026807033783468417,-7.617213392088421,17.837354476039167,-0.002939617060659352,-2.583392982279204,-10.490638748545887,13.01171723549919,-25.110911143529883,-14.632168413060388,8.048051961908413,8.322953492918508,2.0966687296511193,9.459107176203636
1.1268606850481984,0.0,0.0,-1.2220842152605087,0.0,0.0,-19.393249252041624,-6.247227731333341,0.925450154814195,14.888713210345456,6.001465805813116,-17.304875954111466,-40.490239821801545,-5.59959768339528,0.00026443024958541886,-4.0273888697067965,0.1103282259917875,-0.000439163596257371,42.35031474291629,19.28717786172878,13.042431877824933,-7.3213877379498165,-4.374902140600934,-17.907082278327508,35.28596559889887,21.088172740113954,-0.022861429012520938,52.26571536693009,1.0250231684915359,40.733047406496986,129.26193427806072,0.0009507840273292137,-107.06214524969783,119.26643881492626,-0.00035174304919778247,124.23123877705414,-14.557100950241226,-22.90952965341517,-0.0033999994358827794,-5.23996523852389,18.94408588987318,-0.005926183853155397,-1.7223911351884682,-10.496310221135941,12.565969371543488,-24.27437649902769,-14.469402690503443,7.6275840009035525,8.86960126327518,3.056739790993965,10.232874484495081
2.108958295294478,0.0,0.0,-0.8184052725200542,0.0,0.0,-15.275410361079306,-5.38346299321648,1.5170183730302758,15.499278722213456,5.691458938599086,-17.92729582987767,-44.05084002791709,-6.429938765561932,-0.0010729537740283399,-5.434967897927817,0.26841785309604305,3.777479238519299e-06,43.02096107258239,19.28271159938413,12.469449431307003,-7.658756689418142,-4.80441713577552,-18.08200396645723,38.93523936889206,21.819815362773923,-1.9332346504731734,53.633078834280944,3.8130041078479566,39.844261064680204,130.00948834152342,-0.002368399303688074,-111.10790985108805,119.13218222001312,0.002217033788258068,127.2356287776555,-11.489447266207993,-28.52780384118507,-0.0071882116191435,-0.6828482109266296,23.67983904491075,-0.0005750525923682092,-1.095710918645005,-9.598370082174773,11.07661237797845,-23.635463801719734,-13.07779801361717,6.587526731251949,9.270798976975646,3.305330703531594,10.618676857226042
3.3465203837350055,0.0,0.0,-0.8909035955852639,0.0,0.0,-11.285443030990967,-5.696050555102717,2.836549967017653,16.068828619271414,6.674660194857568,-18.23263074086864,-46.98253206950342,-7.624957629377999,0.0017969138492981828,-6.898632904874662,-0.238506578106859,0.0004536797456616132,43.11590763980181,18.542830686635973,11.63867910069735,-8.201383075061539,-5.583672587147959,-18.571021361615497,41.652369942510624,22.827865799602304,-3.3793433111507367,54.34030378488378,5.557329578997398,39.470304233142116,130.23412399618485,0.0014148468131921124,-110.26294846639372,118.66513563531042,0.003401729769635346,130.90317221252658,-11.462749762495438,-28.021039966843027,-0.004115938617187245,1.0621036140214835,25.36157514976065,-0.0006112517455208604,-0.297006803068759,-9.088211010974916,11.65821612207256,-22.764360107151347,-12.826136089741153,7.331905500767337,10.004431742688757,3.8265150491322184,10.59865648377153
2.7794121987860336,0.0,0.0,0.40829411364629686,0.0,0.0,-6.68238753433984,-5.307642567441923,4.06199099762249,15.061652101503524,6.930728697362177,-19.504966257525833,-48.97023646689733,-7.944917930321217,-0.0006444775157338503,-8.084737137787556,-0.5846156441042665,-0.0011925012267492894,42.70648790301651,17.5421023331629,12.375861898787695,-8.66313737647274,-6.699376843058047,-17.35452234842786,44.9860387358014,24.359162240389164,-6.103523993235329,54.696544576622806,6.939306556050653,38.62549575862988,131.02149707545826,-0.0009405435481161645,-108.5107449436701,119.17579932321652,-0.0007305599357954468,132.51158066401482,-12.576144811207024,-29.34431182580929,0.0011635749579900357,1.811788035186959,26.452561093392156,0.008072582967133025,1.2692110770580107,-8.889943357492436,12.073936969499035,-21.159567830697142,-12.799690236915847,7.798738813478972,11.321865891883872,3.9449056937877813,10.612532964722908
8.558156367461306,0.0,0.0,0.30334359245515574,0.0,0.0,-3.017354546095032,-4.714285712689993,5.092013890911264,13.501248090380797,6.890046623153957,-20.5457842977454,-48.90620699111773,-8.809476218186322,-0.0014152722924293461,-11.005263419642095,-1.3136055924029233,0.0005452895965234686,41.67403398625578,15.845460386279283,11.692611978082827,-8.048039274320578,-7.824070730967081,-15.387921630722694,47.84108863049389,25.47625007482719,-8.883739435752142,54.396758607028,7.854018868379616,38.48484517601132,131.29202626547496,-0.004559198148558368,-102.38799814895991,120.20351058161687,-0.0010284572736265537,133.44366395406897,-16.718117153876616,-27.430099633537484,0.0019898441600058802,0.11549047189829045,27.1359492554433,-0.006716347392553458,2.1837008472124193,-8.06823836625462,12.067126825824523,-20.176497035780177,-12.03737069072697,8.112926836087908,12.892749398355035,4.6444701807807345,10.514256581670702
7.053796778847756,0.0,0.0,1.3582387629607588,0.0,0.0,2.9565596198969972,-4.912598318776104,3.584954480985889,9.372508270613626,9.490631296202567,-21.206966636232806,-47.00349263072875,-8.4409997619593,0.00244167585619734,-18.26580314495547,-2.8460254503360565,-0.004277507047796546,38.175402905290284,13.571136766143729,10.724707243768608,-5.771347800907284,-8.948529858456086,-14.117654778601477,51.68769346252555,27.51872563435922,-11.891947719487927,53.890481543382585,7.967000992442701,38.60379317047277,132.020567641618,0.006076840952899631,-102.93085956043765,121.21955097064084,0.004704062518658103,133.8040626647751,-14.044625946674685,-30.537330238202763,-0.015882445735601755,-2.560276520217213,29.490276873208927,0.01493552982966351,2.5656736614664855,-7.548599890384891,11.560604434304137,-19.780911563888612,-11.365935767548937,7.840771997672888,13.905779187272614,4.936411230926572,9.952841065272112
6.498656644790388,0.0,0.0,1.4580602129610405,0.0,0.0,7.033271528737549,-4.70272499763509,1.7346894923275002,0.33522325703033645,8.91322536919103,-24.742506152796707,-43.607313436391216,-7.421439838199853,-0.0036171776835108387,-30.33789067989086,-4.777293615847445,0.011937958064799163,34.15315072035526,10.360956247171332,10.173154101471194,-0.6586631406499579,-9.236399168861775,-11.810632239831671,55.13106422987819,28.30370214720778,-14.351428552018117,51.276922824893155,6.322772779207327,38.147106621251545,132.28630861506193,-0.006078242008082532,-93.91685693348478,123.24015386500508,-0.012623301882577952,131.53682893130048,-15.575171814249646,-31.537186847036004,-0.0018400390536633174,-4.7532922511777596,27.114688229242645,0.005318310070788592,2.3512595717793427,-7.271853698338303,10.895080771079614,-20.008703642092417,-10.85898847940081,7.326000209994256,14.892930510683165,4.403755459843562,7.791372617816285
11.049203957692775,0.0,0.0,-5.401711562431903,0.0,0.0,7.4440768054976045,-3.3762009293512754,2.785519008407902,-3.1556642492120033,7.184717510282305,-20.734608972874064,-39.73477435217192,-7.034913563461331,0.0008123571261639729,-47.98380806450379,-4.276322494556334,0.007017120577648314,30.5799867938733,6.75258852850567,9.489392929333563,7.132380277998934,-8.708284135287007,-6.925247820317386,59.068915933335504,28.341733524356272,-18.71838077393599,47.31799521092699,1.6929003552898925,36.80524314232905,132.23671729106564,0.001265462997148126,-92.94973913702539,125.9200834532494,0.02859593450547811,123.792383219856,-16.290780383996008,-29.613271781377694,0.0048389482911967005,-8.61804418478711,26.167241894728917,0.004160596186406068,1.596636106744523,-6.494676394732189,8.345910589212377,-20.818887366430545,-9.176402973295914,5.250325838252176,14.501503298807442,2.940335350419104,5.967168371142127
11.214134326453248,0.0,0.0,1.6644240405553197,0.0,0.0,6.8012844698904455,-3.577645496025273,1.1537073571547354,0.2432288983993718,6.148942408135848,-15.613285218544073,-37.10459737269072,-5.300025018815107,0.0005713625469433267,-68.51439602780472,-1.0052860020681262,-0.048157541612359175,27.381173760988414,3.282298056011305,9.956510854052636,16.740456659694306,-7.978285654851234,-3.6165599864172373,63.3134489261374,25.83126535054259,-23.940565490996033,40.59200969005332,-5.67556642068214,33.357776327080884,131.5418723880867,-0.003525274841898662,-100.31662251029027,127.12098218268284,-0.001044456210003276,119.185080800564,-13.353967036656517,-33.20312475092723,0.0066731637730926795,-15.261070625430245,20.478756114146794,-0.013712048257296272,1.4244537784160376,-5.965004512969821,4.109032012418784,-21.058365387549795,-7.0779987519166,1.522557402650107,12.773743495332942,0.4350686351557517,2.6047820830562736
10.077463907872835,0.0,0.0,5.5662440896450365,0.0,0.0,5.6541169113760965,-4.619355017598705,-2.351594664328342,4.675502953495297,5.022257200753639,-18.976726059593627,-35.36078764005438,-3.517528931856361,-0.0005764119572056218,-87.03045657986752,-1.0310306737553612,0.04595809046213375,24.309344666333235,2.0136298295296897,9.394226350838972,27.99922159598082,-4.652364073788485,-4.827181369969239,66.3235658032509,25.047157624410165,-28.195906534751927,32.345958364085526,-12.031866351464544,27.932899625813782,129.80490956249062,-0.004097647661583715,-102.50861103015693,123.0262619113995,0.01032745267274723,117.94076090889921,-10.885217164473861,-28.785449314070874,-0.006803058550270711,-16.49357289566092,14.271948441463977,0.025558594908977748,1.6359348760886345,-5.570920217342418,1.267444073824125,-20.835513197827925,-5.632807821530629,-0.9543856688035149,9.456945774667608,-0.3773034723594463,-2.6647239883101688
9.515616393211115,0.0,0.0,2.448118659932066,0.0,0.0,4.083672512581929,-4.371886518790729,-5.70177779919487,8.289668240998832,3.830809443116559,-20.960968929520917,-33.552573137360014,-2.0879573884078866,0.0015597943970148086,-102.06804578952314,0.044480752617265834,-0.043266707997301805,21.33202159647624,1.7210616829734975,8.816152126032303,41.00717735638226,-1.4231416115255018,-5.517331082295852,70.92659232735048,22.217548012670356,-31.964338884375394,24.420952674741486,-17.044784713882276,21.535878743676413,128.67955954341392,-0.0006225053795272475,-105.05613424051262,113.20343075723761,-0.08682699383027616,103.73958124654052,-10.434772476706314,-30.50227208050709,-0.0041628751413472056,-17.47736745510782,6.59188025497794,-0.0072470778142848,2.354422149077079,-4.9140353611744265,-1.9834915723285451,-20.04589777505399,-3.789923302430262,-3.7052526250994955,5.095139918884934,-0.24710211508677907,-6.868827859334333
8.825134250240703,0.0,0.0,5.57522544433269,0.0,0.0,2.773674445763678,-5.027450531641024,-6.063147490280342,11.267954653473282,2.826484599677355,-19.257192287692252,-32.98264950259407,-0.659294063667569,-0.003095400420479589,-111.26319330834859,2.5531678594393994,0.019224577529673628,17.84824585615651,2.1448882574598045,4.5470716809928335,53.44329887227444,-0.19803098624132603,-7.782164133023529,75.14284021313952,19.203312673485136,-34.69236522474234,18.86668016290523,-21.27591984722036,16.04734349363756,127.52064643051325,0.00506685909518365,-104.11211383196158,96.29720074400255,0.06571419280835213,106.33059621013777,-10.045933420248598,-29.31862709522645,-0.014533575655737388,-15.232763033302282,5.699989498832156,0.0054341188423963505,4.199189164193635,-5.045181944390202,-2.4167128744081814,-18.19310397773019,-3.7467367634701496,-4.155213549610082,-1.4871064993248244,2.446181025743075,-12.862184433452638
13.097380215228544,0.0,0.0,5.351965300795653,0.0,0.0,0.7126480121416761,-3.815844260993304,-4.259250595874637,14.94090447408572,3.0801646947353367,-16.54601991254013,-35.81696947637133,-0.48232080749153217,0.004911050677046603,-114.67788563739464,1.5651809451432044,-0.0024586435308303033,15.559477840274441,4.993150282649391,-0.42536779964653937,66.44569214348085,-0.10743470886768305,-12.613654517826166,79.70295963381966,15.736646445760071,-37.57105316735242,20.06980875669087,-27.03338169859369,15.68217549272967,126.09798782513984,-0.0042345617900294,-100.47077052459592,71.80100148759817,0.14125967183874047,111.51301270488149,-15.863135190090944,-28.171551856455547,0.013442074751216409,-14.842038779600342,5.589127563099153,-0.005118204955056709,7.3469785651204935,-5.040384163738511,-2.6111765170710335,-15.039708882643257,-3.668516446329712,-4.332868088155483,-8.707255156335421,7.8875658642934585,-15.745719255194611
14.431400975443447,0.0,0.0,3.744265466215681,0.0,0.0,-0.390401165761062,-3.406206437998218,-2.3507260562590484,19.469934843820823,2.706733854560122,-18.124821819089618,-40.189911928162125,0.06397554907289468,-0.010266777610907524,-112.55401731024207,1.8841651261569194,-0.00942081217606247,12.540320206617624,8.301808588797881,-4.420889546128606,77.06425882411358,-1.9549212638470175,-13.634674403645683,85.0905049592865,11.935314254198532,-37.95300494913582,23.735713567109073,-33.19227493977206,18.909106665514237,125.00722438310635,0.0004970874613410515,-104.88012514665424,46.15791925254815,-0.09476021336451422,111.18343261619223,-10.963555260618376,-28.381071210565917,-0.0022192617859387847,-17.402800435263792,5.038374928638497,-0.0008475606995867487,10.406585446949917,-3.722530840432716,-4.436905228860554,-11.896637060564075,-1.757563911299625,-5.516906203726281,-17.71494319440855,14.959790139569987,-15.515270611162242
16.272964946234485,0.0,0.0,0.5723436064453786,0.0,0.0,-0.07402527256319125,-4.248878314434272,0.34506968134081784,21.553198889528026,3.611605630963197,-18.242469682386982,-44.34509517136847,-0.05064855498116784,0.007694161520634607,-105.42386313438648,6.002496176371149,0.029928659680355855,9.6543671382352,11.744821913593277,-4.703324796756064,88.29196094506521,-3.038269317874598,-7.368083387324001,88.55999662503105,7.390461407296403,-38.56039448530565,23.087149011198534,-37.801878982956154,23.218544550405458,124.60228478936772,0.0115690978371519,-109.88916248574385,24.53962005844232,-0.016421865048956485,107.87075102771827,-6.55983454879285,-29.91116111070079,-0.053439067340158145,-12.847921650096945,5.804210569486516,-9.483694747329654e-05,11.964840605387643,-3.9850985832113106,-7.331051940295827,-10.208332062425864,-0.9075351529803791,-8.2897924992977,-23.659593441187035,19.510707409859226,-12.299833263257645
18.718140734907223,0.0,0.0,6.863455081576031,0.0,0.0,2.0609502195417995,-3.3875189399778423,2.7017581771092707,18.957026919323873,2.5644501970127016,-17.79981818216308,-46.15705744254493,-2.320795411960235,-0.0012587737491347665,-92.75803991305206,6.945389596611537,-0.018889757959363082,5.862483140762608,16.40106616985328,-2.868532191847694,97.92253711421772,-2.225866475437887,-3.091194716396486,88.87152528940143,4.507645979206442,-39.333087381453474,17.915690706470436,-42.26240132009466,26.120411056714108,124.15914478995694,0.006296775256896098,-106.15141076513781,9.39857096717268,-0.0008279958531872413,106.9999520171434,-9.660747387795023,-28.350517210396582,-0.005275459502574914,-13.958208568082387,7.152909806512753,0.0004698328923300557,12.487285624220764,-3.233886195883367,-8.298055432794126,-9.629056111306806,0.15204264127424158,-8.90054058512776,-26.927514935829368,22.724507617902983,-8.280623571186153
22.137739862269775,0.0,0.0,16.040416844254082,0.0,0.0,3.4166790058741072,-1.9219955882747566,1.4925576084658243,17.981690993112792,6.838693183038137,-19.607010424854888,-46.98617845493727,-3.427494655461688,-0.0007510249876313612,-75.29293271050929,0.7632262315766001,0.015789725412533193,0.15164550815208502,18.370211810850893,-2.196273402815932,100.21592340660314,-3.5886849764473574,-2.7346669807914634,87.20948319553172,2.1770008200297544,-39.97317193383853,1.1918225642741225,-43.45511618008942,7.585427649753421,123.74781465566711,0.0015090334616262124,-131.07267090202922,5.759241697995678,-0.0020955961404057156,109.02591032291306,6.492282995829146,-28.278212125320167,0.010278585572795977,-18.17101738147998,7.5081771180778265,0.022398104502700442,10.936429409144356,-3.565219629527863,-10.222141734371816,-11.05385962617712,0.5661810927647518,-10.805139948663088,-27.61740365741208,23.95707840584474,-8.642936017205637
24.290036400741517,0.0,0.0,23.49751388322237,0.0,0.0,2.471498215098788,-2.9149010772184565,0.14458199691456453,11.925454452568875,7.1621492880263125,-12.001081690181374,-46.457749856749025,-2.359653910690739,-0.0013076076533375036,-48.908130667551774,-5.978616953217867,-0.015557423038030063,-6.925770270023233,19.754475557376654,-3.386155613164353,91.99237607598673,-8.539421498896727,-5.334633270902254,85.2554380748353,3.3411225241028255,-41.08192431792141,-15.583495430209526,-40.466180130412674,-8.29879636224181,121.64906471833167,-0.008954304527460903,-131.18926953184956,8.104674644371393,-0.03555590372982806,107.7479105904917,6.670361325108867,-26.49780184616514,0.0015341232039599662,-21.93246804955596,9.180179124554028,-0.0012238544450383518,5.715779549980088,-3.8899789601442674,-11.902249694910354,-16.14395339490131,0.890966419964851,-12.48181871588894,-27.461029109873188,26.303666385785306,-14.29173470992846
29.69829540154604,0.0,0.0,26.123134982526878,0.0,0.0,-1.3893413567010786,-3.3109958847926197,0.7872794461739829,8.39410560799164,5.570162104131453,-9.646110371337409,-43.682235662273115,-1.1257590632927201,0.0009312349046319814,-31.900725694426818,-6.706960664368113,0.008097686548908354,-13.64271416518477,19.264851850375024,-3.5379661726601492,82.22921583560473,-13.437576621005904,-1.8175817483445107,81.3828800105373,6.649840018939362,-43.73364648066138,-28.879720646986073,-34.66930734228407,-17.112714878094554,119.65117065224126,0.012558268225097707,-127.58241707233884,12.79519980419593,0.005380695733897339,91.14156549619311,2.1951480268985084,-25.877992793430945,-0.003266405578648325,-23.25321840215669,3.126059544890623,0.007514351280044446,-2.5543495105550784,-3.8650547463588842,-10.587101564291082,-24.51713107596468,0.42442631497966476,-11.255074491687484,-23.837009663296467,25.39596542197363,-22.81631557870882
35.30934178025568,0.0,0.0,27.699239385707045,0.0,0.0,-7.7871908288128555,-4.108645231161616,1.709446968516281,5.162135299828432,7.884310835164437,-9.124392746681393,-41.14453829355477,0.3983360667796447,0.0016422924898938933,-25.87064613758404,-6.299040462384629,-0.007410974761606249,-18.192069112850675,18.415067930959392,-3.5660446399438794,74.04541076357124,-17.141656822219115,1.4607858894198495,78.2231273735497,9.105476118951598,-46.0081818597254,-39.514360733774254,-29.19585745917708,-22.585931581544422,118.838907795148,0.00019114756983629414,-132.94078547034565,17.213978208549786,-0.032326090099767425,73.42662423512478,7.7565745981835885,-25.861244802847413,0.015092789919055329,-21.617922616233233,1.3965410595721783,0.0010881517211445352,-10.53224514535471,-3.8561310321252416,-10.860339626315767,-32.474499561065585,0.5346223150217868,-11.50461571532556,-19.343490711588622,23.212656303006515,-29.34239000859285
38.72121103618204,0.0,0.0,17.175229537051365,0.0,0.0,-13.30622340609751,-2.9698632202913133,2.049908959068501,0.6750152309577006,9.041080488281521,-7.8979977426955355,-39.49431241357383,2.9773303299151612,0.00026508340443145506,-16.886103252059577,-4.80913106236603,0.004066168074815195,-20.514280878273325,16.078547593392646,-2.8398124824861557,65.69176857126094,-21.848013282833918,2.630380578015253,76.30301411590597,11.927666419685627,-48.93621843634846,-45.44394270530828,-22.9066567616289,-37.25769783194196,119.20266741407609,-0.011060934384703267,-133.59852535309128,20.340115465953573,-0.00284904179462041,72.205242275924,7.860777579176481,-24.879911566125465,-0.008553566784289838,-22.368933527467544,-2.8691400361578894,0.005573842324403388,-14.323381147724117,-5.455127806967364,-11.542058832047628,-36.212002389420064,-0.6952512680769374,-12.731787858954814,-16.491196912427913,20.936500075060703,-33.809219176100164
44.549525406580386,0.0,0.0,-1.7626529274094949,0.0,0.0,-17.08065170566508,-1.954998896608791,4.592794101134602,-5.233010942081045,7.7895368587965885,-3.845427470191114,-37.92297312268927,2.2605451893812423,-0.003285082353338461,-8.947931574493289,0.23427762087103565,0.0051003610472173215,-21.241353610446346,12.59417562825461,-2.0176782243952025,62.35504101277181,-25.640957972773364,1.0483232701534173,74.79145278720397,14.016005866968516,-50.172124442915546,-44.745355394915876,-18.437692307892707,-49.04042943408612,119.79383541045968,0.012430558348718953,-123.10027659973844,20.997387596944105,0.011680209425826357,76.09826073881939,1.2227176970720561,-24.568460693212977,0.007348751531576536,-27.27093289624969,-2.8766399623667955,-0.010914801360086112,-16.239570680266706,-4.561448906929855,-11.700071395388816,-38.11360340361145,0.192716169418217,-12.544790044200628,-15.401702094790236,18.094506791493696,-34.09233301583928
41.0188720176076,0.0,0.0,-9.011715807205043,0.0,0.0,-14.780500106179863,-3.3906147353150953,4.072803106529247,-6.1680985631410365,9.421847047939126,-7.253134313103357,-35.68145617267711,1.16663662894163,0.002092704962280333,-8.780926695660074,2.1883887803348805,-0.001354226299535402,-22.52186005353639,10.523897624202762,-0.907727495316925,62.46031163914041,-24.976537518101118,0.5332454923688433,73.61969039178031,15.0861478371976,-49.330864223154386,-39.7202391007111,-18.293667899883825,-52.762535440617754,119.90883175623524,0.00852853725696879,-121.79227920359558,16.66628723304455,-0.00968319047690035,64.5948122506236,0.8122064515838656,-24.39319270653054,-0.012941862250056406,-25.081671240460743,-7.159038797556065,-0.011400547944552848,-16.801488269896357,-4.425653631497921,-10.097406701584841,-38.79993729467093,-0.2782353529667525,-11.012005446481,-14.748768859649777,17.04095221202062,-31.747061204843316
36.554787798344876,0.0,0.0,-13.906693279955011,0.0,0.0,-10.266050644949775,-3.1863815373376942,0.9392233873947736,-6.718582406652888,11.483421400193736,-17.5356753553797,-33.082482037511824,1.1900485952563702,0.0007982605138930847,-17.682366197142883,-0.2013422562951425,0.0005125403612220155,-21.93965675231092,10.039112050822474,-2.9762155358398643,64.35315150276429,-22.62820375915815,2.0868355595294052,72.85281491292011,16.296522958016443,-47.48144783850828,-32.49586137140335,-19.353032671096734,-51.58605950130246,119.74249008401384,-0.004313513484283097,-117.21601394429541,14.374283000585152,-0.007158898045449626,59.7935981854261,-0.5287585213090009,-26.941603914191074,0.013533661463176869,-23.194365421842914,-4.64035912142827,-0.002256800423327844,-16.74624525961986,-5.643517090701581,-8.686657027654965,-38.85218464039895,-1.9346107415265275,-10.166587885298151,-12.364849328980902,18.248242411098875,-31.596648115858883
26.137427292628846,0.0,0.0,-14.433368746937548,0.0,0.0,-2.7035482497623358,-2.9895417125676795,0.29803866974979665,-7.95954570142936,11.71522120562851,-18.618949111692814,-30.973925610932383,1.1269541122401103,-0.0012771803075591944,-32.921004531519486,-0.25118650262180947,0.0033503439326367764,-19.471621780111484,9.286732049300804,-3.1017096343045885,69.26269629635377,-19.135714456908357,4.911856333349039,72.75218725244531,18.832458020803834,-44.675924373362754,-24.545896727761264,-20.222014876107266,-44.94683704501513,121.08568465854613,0.006156899157063022,-115.44139224200475,13.759042123323223,0.00250679644403872,54.41434728882816,-1.37921162753146,-28.676583980421622,-0.013227139958166705,-19.197560862426652,-7.0476280997339975,-0.005635598653244636,-16.35009215717406,-7.98751807833702,-5.4362980773978125,-38.70860677959928,-5.325347852156178,-8.061649006837689,-9.10819298206561,19.646731666355628,-29.830932041828447
20.619893606337612,0.0,0.0,-17.679159574276245,0.0,0.0,3.024867547308291,-3.476850448573756,1.7914933688934827,-10.680093687186814,11.246577782376631,-17.451946646584098,-28.49307097516503,2.0782432894781344,0.0022534474979560865,-47.75814911371204,-2.2102164372962734,0.007532446464924215,-17.383669647512217,8.634007130939338,-2.2520119672166357,70.52022052204771,-17.30689944922246,3.9288177329333345,72.82575463821166,19.839098782641603,-43.2517473159507,-17.728438070030133,-18.988655351264754,-36.971214859732626,121.41400431035551,0.0023734524048350937,-110.55009094861862,17.1956619613818,0.013807046325009911,52.96706639614906,-4.7528907478881,-29.88646952977736,-0.0007271012047932458,-17.181083599704323,-6.059385114937046,-0.001862736131040598,-14.699636772856959,-8.376774064629197,-4.612035839848959,-37.1153818181215,-5.996005903288998,-7.452546082299416,-6.764510117991087,21.338445120475328,-27.949917978110687
15.701488573539546,0.0,0.0,-16.414679140483273,0.0,0.0,7.0177214548819595,-2.863399090002024,2.032358666370313,-12.128824683749993,12.391162724005957,-22.35451539431271,-26.79380748539766,3.746356908757177,-0.0007546282328205862,-60.753880271692886,-2.42859840412994,0.0002626270132077031,-13.803009478432744,7.386913596943672,0.741868360752882,70.22102473675852,-15.678291077722225,5.530553091451766,73.40091984672225,20.195833434337622,-42.035421841248976,-10.216974307839216,-17.61323291043515,-30.968052211919122,120.86389227522533,-0.0035359444539625326,-108.36983116097598,20.542391314632034,-0.024406642127546157,50.35127632826436,-4.113508538618245,-28.005550631443985,0.006900501775694026,-14.811913071747284,-5.503972229438532,0.0021801769649447667,-13.55143944737089,-7.077435176799445,-4.267513591689398,-35.93600879537753,-4.9247859269870515,-6.638077384689363,-4.234159426542891,22.24858238744633,-26.02150284645804
9.840395752293475,0.0,0.0,-15.992258176281965,0.0,0.0,10.68467395693916,-1.7196248625609998,4.613844967718411,-14.801035280114775,11.229904365677015,-20.424626009731394,-26.228718025786986,3.588342450054302,-0.0005117573009185046,-71.02474610595942,-4.149627333008921,-0.0009119955410590574,-9.18353493872215,5.159519878185314,1.8892489052178798,68.83725935559258,-13.350816481183717,4.5321288130864446,74.21204605450205,20.601507764799756,-41.95413082460759,-3.068210807176395,-15.984993132300325,-22.908868082794285,120.73766775102676,0.001036220862725869,-115.00717935402483,23.847465436417888,0.005528921945223586,50.815590407310715,-2.367584828168105,-28.98423924409076,-0.0026542720769720586,-16.714930713578585,-6.617457345581413,0.004111217020205843,-12.466500887025711,-7.276162262825526,-4.111703966179341,-34.864586509875004,-5.167423185016379,-6.570585194310331,-1.7443452223082436,21.362122584494802,-23.269557031179627
10.995547556148555,0.0,0.0,-13.031816612957854,0.0,0.0,10.563715340648926,-2.6088178501487738,3.1847995008775576,-14.00592883687627,12.317993905852406,-18.29696948157736,-25.831687606498527,4.696602074232309,-0.00013987384155049581,-79.82765693659381,-4.882874897161651,-0.006701325493801993,-4.55754052364604,0.8383844254330834,3.3200730230197735,64.71172813304926,-12.905718275864576,6.98032652108413,74.62994273316802,21.117703828713154,-41.30879310304741,3.3915499500056017,-14.440917965132162,-16.086413475604843,120.70947207349771,0.0012693474534820563,-110.62456211614675,27.528211933578795,0.008812054077388085,46.76028325329867,-3.875175624796029,-27.892716390211298,-0.006130570066788481,-17.51079915347234,-6.795854736387083,-0.0007038566947991122,-12.121456341825896,-6.622902757114377,-3.758046120970908,-34.512855558087004,-4.697181207716014,-5.994991083931154,0.48397398208368814,17.784750574301263,-21.41019254042531
10.931637825335415,0.0,0.0,-10.263899158882783,0.0,0.0,11.08977248748764,-3.0804004575563146,3.237649682920422,-14.753814246555303,12.8640868528537,-17.858527925164555,-24.536720228377185,4.002416458483305,-0.0001283384509090607,-84.56920992842919,-2.7309596336527724,-0.0005545532980062227,-0.1616608192320663,-0.4556820369883419,3.7384875006741622,58.30266295895425,-12.733513436623804,7.8098345746767475,75.0058438081978,20.94143116838038,-40.93830611752606,8.30373401444896,-13.051216386343281,-9.188381152750095,120.19179404248763,-0.0011804466900745922,-111.4142503265381,32.27376957521237,0.0078108381861587035,48.20797705261906,-1.424633964538669,-26.714144895316707,0.003845238231329318,-15.594041274219446,-6.976334498449493,0.0028567619769238016,-11.79868135548701,-6.060406640309311,-2.6279968371746865,-34.21297562071903,-4.6051993556624025,-4.738108327288549,2.98364323329312,15.781634737376466,-18.665512257095536
8.377955328650057,0.0,0.0,-13.262729805865469,0.0,0.0,11.166116710271986,-1.5369235696787922,4.090223509075911,-14.863216865749694,11.021169554141752,-20.618581750967703,-23.097402923556064,3.084326534932622,0.0004909679352044413,-85.92419545175608,-1.3183226778768506,0.002092948264092738,3.1379559070875853,-1.726796632672198,5.843249831755898,50.304979269191925,-11.75423128409209,7.859218073913773,74.53428164619498,20.46702733014499,-39.8809073438902,11.363971253499862,-11.628101888958009,-4.530219710436972,120.40268244100845,-0.0014474351512585668,-112.5118730005023,38.96465617425275,0.007758608426094148,52.17291578682999,-0.5136315949494749,-25.966451978578803,0.004763642494971812,-11.457707228026674,-7.498199395110939,-0.0011786702780705496,-11.495707524075671,-6.2291967786956315,-1.996395198240731,-33.934252429515034,-5.000800460622086,-4.220196077792046,4.836400926865187,14.289000151637127,-15.221099885796558
11.011914868055499,0.0,0.0,-16.30230622778034,0.0,0.0,9.279693830932823,-1.2580606897096653,5.487601770539059,-12.326438558855816,9.763828076269895,-25.004133257711672,-23.47292105866863,2.426638563921447,-0.0005076406059065311,-82.55960938649623,-0.09608389978450758,-0.0066428641920456746,7.357327021291736,-2.5782825169739856,7.458469969448402,41.26707886615459,-11.924104778313415,6.249812881146606,73.17237386774565,20.550123068474164,-38.88284300714378,12.7890736573259,-10.842182161634184,0.11706673340782021,121.2609338724473,-0.004872429366779135,-105.58878336058321,48.47441698754658,-0.008539564794947533,58.605065477700165,-6.226101739086325,-26.78537677834384,0.004546463672282297,-9.223682207593031,-6.14970177617556,-0.0017844759189020957,-12.412316821941909,-6.414213062019832,-1.0356187347839971,-34.88178879349133,-5.536515531543925,-3.404890379490589,6.318480495088251,13.214911280972608,-12.42759424091489
10.62898710175223,0.0,0.0,-6.635726256546646,0.0,0.0,8.308806335607034,-0.5573860649058229,7.381597747216225,-10.720529217921936,8.993960886087988,-27.55982518066503,-24.711001876467865,1.3298164224545215,0.0008675530944460674,-76.32856496010264,-2.154741403095728,0.011602834468664811,12.338490048671044,-2.4683097101713343,8.744660796729475,33.755237425137494,-11.112506846783521,2.870462576580303,71.42218285602392,21.749839967825856,-37.490417867643885,14.769386445119915,-10.633813441811949,4.419135655764692,122.25942782401046,0.005080667053508883,-107.97596831940761,57.38024473313342,-0.04312255971348996,68.77272932190547,-3.323925190188472,-26.229791735457464,0.013066421530880144,-5.24119992990941,-5.885399798847152,-0.0010414220843336258,-10.851481152537948,-6.317858468636731,0.4239012490526315,-33.34364078593155,-6.002146981375075,-2.0207410617844515,7.520966860471312,12.34583567983218,-9.303841531312125
6.668460439053139,0.0,0.0,-6.0890382965292735,0.0,0.0,8.528915943946767,-1.1230882319200748,11.808576467231946,-7.699146792878305,7.868614084531855,-27.617422756055944,-25.792092138022067,0.6321079941307963,-0.00011148768755476773,-67.90106719416781,-4.1879185114098485,-0.020716954679714076,16.28911780877582,-1.6646028455654394,9.338689999775621,27.529167991547897,-10.661945921097574,-0.3027632166631947,69.8788507340784,23.725689730947234,-36.40414832487052,16.49127419667823,-11.232488766659502,9.884554543919785,123.76624013993076,-3.041809544189612e-05,-95.6941789256713,66.6498668386688,0.06603276728566794,73.20901158172954,-11.459857943053638,-24.512016264526295,-0.016973444385698224,-6.786317183556256,-7.725637278715569,0.020344748986986346,-10.319690763955299,-5.786584002417519,3.1187273140757528,-32.80164821703242,-6.536420608531242,0.6745800004362145,6.96555425142184,12.108289022032304,-4.95249051809553
4.900540178369279,0.0,0.0,-7.306504713207898,0.0,0.0,7.572379065385123,-0.7777238443020958,16.0254048214204,-5.538499031213558,6.815481575532785,-23.94257009478632,-25.116384849093713,0.24868035066735383,-4.063921007874424e-05,-57.183024534634015,-4.476995136410499,0.023857855922100372,18.691664523707978,-1.48261691068653,9.783366508507523,21.520052642121478,-11.352441119344352,-2.288742104477483,67.12509537487813,24.00636636695288,-33.65707900501258,17.360304729793498,-12.880419179452643,14.472596530790096,125.29545055724415,-0.0015635372440733963,-84.20098252653557,75.89713842735506,-0.031771485654334304,74.58136093920928,-14.591888229635945,-21.90874490053058,0.00014658336635604174,-11.438949906893013,-11.747391497680125,-0.006498314997802444,-9.399943084281134,-6.769374053219603,3.460912336564816,-31.926973599482793,-7.5745549875185185,0.6121736695351033,6.019830709981643,11.31839007613793,-1.3916781184812794
5.461938303907367,0.0,0.0,-5.632873676120896,0.0,0.0,6.35728149628573,-0.9179174011592273,20.805557216796892,-3.948425905561747,8.118294178211269,-20.685879196921032,-24.96594459067288,-0.2044561310865694,0.00013439598903878448,-45.696394664705615,-3.5658396928461844,-0.00757673529593593,21.23679414736431,-0.8484504093334743,9.806664654925779,16.601782712598368,-11.81862039216165,-3.2999497649403757,63.53338292622277,26.346106698861835,-30.084723282808316,17.592615219132153,-14.791907530634049,15.8329383778912,127.39918472393327,-0.005424374396774504,-74.52915590525153,84.34675340728462,0.022997275595761098,86.35531702212218,-16.641805701554095,-20.737850545801685,4.96746466967479e-05,-11.06288320089503,-14.213429252215377,-0.014646129625369878,-7.548839865818546,-6.21257453771599,5.612853164662226,-30.022222761140117,-7.878485089965521,2.820672265812707,4.901029589842035,10.071065686959708,0.27058383188203194
4.208712044443999,0.0,0.0,-2.8555274169705775,0.0,0.0,5.0098915208029196,-0.9970091876914058,25.422543730227257,1.760003470670923,9.38817525000677,-18.523004671337446,-24.766512001576288,-1.1165563351375785,-9.266325744529672e-05,-35.49420108429766,-4.0484108461950825,-0.0057534846387108166,23.331231546650976,1.3165399681154342,10.780878570298128,13.49983551751464,-11.152178229575906,-4.559887821407158,58.868963394600534,27.6934141235987,-26.284739886160395,18.05136713771293,-17.635386735591254,18.327508924234944,128.83900104625033,-0.004166790680943443,-84.88433014231276,91.9138560107141,-0.014475488123531758,94.05194607608993,-15.496669387553077,-21.749745753862957,-0.005840251541525226,-15.373553311497927,-14.729416088826277,-0.011305093856514296,-7.354980187223182,-6.563768989558499,8.1223898156069,-29.78248564859686,-9.155573321492362,5.015693536331405,3.6881926312817637,9.510601875647536,2.847807234980767
3.7701240289064657,0.0,0.0,-1.7169576252217005,0.0,0.0,3.4304568669639974,-1.5874986776036926,26.995925910446616,6.045541459393284,10.731347824408704,-15.700222690123178,-24.080011739954838,-0.9234353896401407,-0.00016685305754945748,-26.77946264363828,-4.658278419676594,0.004685540968447976,24.91390398519446,3.005881564779007,12.812204137480352,11.210581294974395,-10.615923648702875,-6.5759769175196965,54.39632100079515,29.06766642506976,-21.556575400997172,18.051574696297738,-19.687409133620466,19.301341243136026,130.5980388291278,-0.0025124500540103967,-86.28437193837189,98.29987543547095,0.007726310782306084,96.61629301163072,-16.251707327895115,-21.895811344165626,-0.006141773434081785,-17.195515349213363,-11.536836383375261,0.0022676086807845155,-6.022004156686709,-6.105182585171831,11.274273207447997,-28.2810351245245,-9.922608127865198,8.130497416363106,2.554223362933448,8.239177730073367,3.965459794813811
3.059152078079537,0.0,0.0,-2.958398593979002,0.0,0.0,1.7812205028850834,-2.341930590249552,28.37490814621594,8.794568379158624,9.247646659485829,-13.19848364020574,-24.120705696881377,-0.8725329206030548,-0.0004222945229013252,-21.25101951846753,-3.789254654009831,0.0006638515005287124,26.92021336066501,4.552577617676785,12.814401695479512,10.67373864563117,-9.850597596389973,-7.846264168906413,51.490818581670325,28.928978692567043,-17.966904775466567,17.553541203480926,-22.37922916479639,18.774077836579824,131.68367165428785,0.0024218727981644306,-95.99611398203352,102.77579569339514,-0.0007252214327388324,96.12040954331157,-12.714557083939756,-22.859917575035237,0.0009117714042346883,-16.57630300425626,-10.030224763408333,-0.009046240733604619,-5.318807669172194,-6.699348738494169,13.511376869142778,-27.48353243252882,-11.313157197459551,9.995986852267814,1.540869753937621,7.199167593247228,3.1910324034210817
1.1859104597499825,0.0,0.0,-2.8397150693540585,0.0,0.0,0.8688735681462957,-3.035452521450573,29.01337496367451,9.850650676505541,9.148668730418342,-11.163357058853105,-23.33072593291352,-0.6281043872680564,0.0005103899815811194,-17.50996303387933,-2.909210552503759,-0.00019520093487665713,27.953540338429924,6.459607639116255,13.795481956337358,10.683380725561172,-8.798140310937663,-9.758010675975173,48.48481080929381,27.20357155286497,-15.390396952398708,15.17818274289141,-24.9062749757659,16.86443351810757,132.6664424724603,-0.008871335476486154,-100.70355985208724,106.24652280835906,-0.0005274760386671575,94.03522764854121,-13.251234319654436,-23.627280875832984,-0.007298962785811629,-12.147862597319179,-11.600243142952097,0.0027169608939180308,-5.227762053231036,-7.090006652256633,16.066375369203843,-27.231952406206005,-12.62893373334091,12.248495835069678,0.6852472545242002,6.982350601918311,2.104739302674054
0.12285060332042444,0.0,0.0,-3.461068619182385,0.0,0.0,-0.512011333953593,-3.980834139514383,28.969891145378043,10.292559253217597,8.953305271542808,-9.587085666981833,-22.182120612452415,-0.6219085399681448,-0.0002387570953097008,-15.606617559491827,-2.390066113117768,-0.0004485041665076843,28.23705065016255,8.109892950844962,15.325228394030683,11.02740098849824,-7.928160585712308,-11.811629232965155,45.56054811180234,25.89451771067423,-12.870392156763028,13.57124578959736,-25.988506191802536,15.986651953732908,133.31542234508368,0.0035224932040145707,-105.05431956145418,107.72994626170532,-0.0024332113267114134,95.53878367089374,-11.045057455167898,-25.26546326998537,-0.024979095925847555,-13.509640674653085,-9.752388749453589,-0.0035872707785530116,-5.5632533508497355,-7.640813856821476,17.488960947891442,-27.49229504170668,-13.667510949083415,13.38055325527347,0.09292714340889396,6.411576694736365,1.2736925198426186
-0.6229045778242859,0.0,0.0,-3.9387970724888564,0.0,0.0,-1.9138783107868622,-4.923987251026236,28.98792421359013,10.587677535966765,8.529766292179573,-8.840883343726421,-21.19427932314517,-1.6026944485554682,0.0002188434366181196,-14.716580938942206,-2.1493294284153195,-0.0002492969337405562,28.317203923320253,10.522963735246607,16.42576060095293,11.537466787992075,-6.304066245757904,-12.22637378327113,43.58584670147861,24.364012406935835,-11.463009745288296,11.457443098298246,-26.845906805909568,14.907862578183334,133.11739281388844,0.003821544566509898,-106.8178885296953,109.70852309491909,-0.004360883721411862,98.89506751689856,-8.929559329993161,-24.83466908603556,-0.00017795820185473213,-15.41019008899145,-8.858307513465013,0.002674389163587216,-5.848931454124941,-7.249276430883832,18.806414175278263,-27.61685308296206,-13.790280650844023,14.77873433241806,-0.4117684074571225,6.267459759724105,0.9384296281241643
-0.8275707154659063,0.0,0.0,-3.5825053894110006,0.0,0.0,-3.813290065617178,-6.116821333279774,27.99893535012436,10.557149466024965,7.652283921942203,-8.876356939858642,-20.482003717552164,-2.0960499175523233,-0.000557647294961383,-13.609059512637161,-1.3816610997364298,0.0008609412038160468,28.4919627318932,12.526452946788579,17.669086249359214,11.088463739826912,-4.8270527408531585,-12.083716134802277,41.67327696373162,22.683327682857026,-9.892151534301911,9.595088679986027,-26.54237143425777,13.9607825576808,133.54275297868264,0.0001565778783180697,-98.45582560349868,112.13278932444234,0.011848862322654847,97.8645066543133,-10.090156428014035,-22.886032155610035,-0.0018762008014116408,-16.41252386372801,-8.032999549233617,0.0009077443102750497,-6.357771283748445,-6.665825040046196,18.368229435859124,-28.11744945813529,-13.087146533232199,14.585823937304703,-0.8231414765833683,6.289389598519951,0.5091010331000998
-0.8952185582840364,0.0,0.0,-4.617182187794638,0.0,0.0,-6.476230251780694,-6.459240249073466,26.905400879755465,10.328036148110423,6.880951585564437,-8.65693188578536,-19.250388067480777,-3.250161277156431,0.00033990274507477,-12.428974115172757,-1.0317608590948355,-0.0004695284818303293,27.8966718308995,14.318583982514658,18.923920610702353,10.337935733633188,-3.587822110168724,-12.21017042006523,39.90253682996944,20.94241718615355,-8.370518547391693,8.700322456506894,-26.121675665763917,14.896941915271627,133.84423338104577,0.0009554225943929725,-99.29891178314307,114.55450182168211,0.001073888705978503,95.59679314584842,-9.368713407795326,-23.87645088404048,-0.0012963204738466341,-15.8479006450096,-8.610174987690606,-0.0006830575521131988,-6.732143122344419,-6.7136647293462275,17.96682898768629,-28.534878536637233,-12.98363643570336,14.187602827143708,-1.223419749256878,6.233196285654282,0.3558930964254469
-2.9731079697894183,0.0,0.0,-6.364589952851497,0.0,0.0,-8.28210104870137,-6.4002109228653685,26.548386174640605,10.179614964939459,5.823375305480523,-9.189414891720643,-18.193927546630565,-4.112008241389231,-0.00043908155580706586,-10.883222142784021,-0.2872261031835855,0.00020497071253349495,27.424565939264163,15.934109619153757,19.23073003219001,9.048645010713052,-2.2375160766360223,-11.907222783145516,38.351838227450024,19.632952775435122,-6.877358289100911,8.96681735901707,-24.400959732532698,16.729529621073517,134.17183629571733,-0.002327798878062135,-97.14090339120368,116.07799945939641,-0.00943017872951419,96.95538094797304,-9.49285031661452,-22.97373435959824,-0.0037760179377405263,-17.065613357390966,-8.599879925071999,-0.016201628300582305,-6.752768307187432,-7.360735265285276,17.5561783554787,-28.65050849020288,-13.432547918213109,13.55166932114637,-1.6210294872387703,6.573992174134503,-0.007159506791988541
-3.9653296114852923,0.0,0.0,-6.088430047672027,0.0,0.0,-9.753289236772254,-7.417233504644392,25.4673133141068,9.546582164504365,6.891408952435858,-9.326339278690469,-17.43878431929216,-4.161363225954075,0.00036990198454514377,-8.988802520369592,-0.43330513882740945,-0.0004469279904652251,26.77991273362337,16.666255371340643,20.139695432722387,7.699360553011592,-1.3673966810748697,-12.08846812092744,36.43616627910493,18.9421475999912,-5.965088458808879,9.72212389281863,-22.757092249358074,18.848996690363464,135.10192081798434,0.0001932661278352812,-95.36938432833813,117.22917609238615,0.0049445353278601166,103.49730967843479,-10.681012212669437,-23.173672819885958,-0.0006003706642781077,-20.020434802167696,-6.8864548957361915,0.00432612102676498,-7.669788246919194,-7.238696160063488,17.811166831120797,-29.53304838512993,-13.413547073899723,13.83972449847533,-1.5667544586275537,6.128459041937639,0.3245773241467332
-4.653742518107181,0.0,0.0,-5.756527608070187,0.0,0.0,-11.054744430636193,-7.1245852714435145,24.52690964925874,8.37096395237168,5.976121754763085,-8.615811204106977,-17.138085116675114,-4.231265225002205,-0.0001793807667771453,-7.0735724398332795,-0.25365403967523636,0.0005255765019325988,26.711536458731526,17.509587160952307,19.68860225919668,6.710148836632554,-0.3087302763878921,-12.814962277010265,34.5139255221827,18.82009203036278,-3.6706367169159457,10.913964901943515,-21.378151335348488,21.005278129346554,135.3449432602999,0.0028073178914380654,-95.39103214442848,118.86887099110986,-0.0007093032256830628,102.82687973061039,-8.729352927039095,-22.249806040726522,-0.00995189126564179,-18.693978738996318,-7.124569227161972,0.000782611602466915,-8.391705132221034,-7.287092048365525,17.062712211389954,-30.327427101083536,-13.181531996861448,13.113331135778242,-0.9174481817985174,6.462455856434833,0.740480162822635
-8.394890192852545,0.0,0.0,-8.7265010228891,0.0,0.0,-11.632343606535464,-6.915588704496312,25.063007580385424,8.715254440615954,5.68376579408811,-9.115300447634059,-16.680913025435625,-4.644502539057552,7.440095594079411e-05,-5.334810377929167,0.30843269701267617,0.0004536136668517605,27.060423982851603,17.803927864898668,17.617542769365954,5.810040582800151,0.2737220017363982,-12.925433562411675,33.53098579013558,19.550698196508574,-2.5496252869310982,12.921051017762398,-20.02109983235489,23.663955065096598,135.32950093588525,-0.0004712837742840591,-107.07104053080687,120.22572723639524,-0.0008427420497334931,102.50149702732932,-4.3544395908516105,-24.265787794837472,0.0041584297622144165,-19.258050755747632,-5.097856375984449,0.0022042227578391344,-8.294189852831883,-7.828432872241997,16.366144973037994,-30.33761739087295,-13.424931963352716,12.24710559711343,-0.23406221294897778,6.500310055779146,0.723143599582786
-8.60897203006,0.0,0.0,-7.6367944828164935,0.0,0.0,-12.297037520962919,-8.144663934075743,24.332063265546523,8.256029866445434,5.528026598973759,-9.35804105778461,-16.522078563592263,-3.9811660821061334,0.00019541893165746222,-3.8218027341829672,0.9175648793228576,-0.0003335712613731581,27.193890680240674,17.732802266924704,17.171146490304416,4.414614117412075,0.7674963497985362,-13.211963623398987,32.60144348539716,19.719846446424484,-2.141874066237975,14.972621066368886,-18.904034213193082,25.60951764771094,135.6228098450149,0.00036786033194486837,-104.18069400225588,121.31909581520537,0.0019727201408289447,102.62686621676197,-4.964778486721,-23.36750359290657,-0.005658638585599969,-19.781207836438757,-4.319865836689406,0.002639576965262731,-8.739492671486223,-7.761597769897059,14.954033772225053,-30.887934992368375,-12.836721052324389,10.94180532579467,0.013955028689486575,6.599503538028513,1.1125487432857009
-7.150461998719861,0.0,0.0,-6.914908729520962,0.0,0.0,-13.911785159057796,-7.953184954209023,23.2633536802058,7.928304404258218,5.4684934691076155,-8.723008388737087,-15.897502207174172,-3.5154504387123464,-0.0001810534642574954,-3.0361024731049846,0.9188493959991113,-1.9463524024818482e-05,27.01623908126666,18.04294247290692,17.618560424946736,3.716756745162598,1.5920111107831796,-13.895094106608793,32.42506634435205,19.681109492004218,-2.9068565825491453,16.39430449648148,-16.511154709161183,26.958046501106544,135.78281382938363,-0.0005221179786164072,-102.77678099847031,121.7935079692835,0.0016152968125061425,103.65333662272229,-8.179415758896065,-24.439040615449386,0.002939217896043749,-20.48839714951677,-5.089699001094777,-0.00954603170457428,-8.786959210317828,-7.521805171515433,13.459698525602235,-31.01936214598872,-12.055281778482579,9.630184782608016,0.4415239558905808,6.538612385774606,2.4738730144692336
-9.009686533021068,0.0,0.0,-9.993367215038226,0.0,0.0,-14.136665318220803,-9.099023053520366,23.964249549075156,9.033699925664992,4.4860342473904975,-9.862570856978003,-15.213193928327032,-3.5457314550397223,6.34710590984675e-05,-2.9497950357208733,1.2478201776490216,0.00012858990672709935,26.927620760637165,17.867624686588762,16.118454786675763,3.313491884924081,1.9297909487661467,-13.501101490682453,32.40579906555023,19.91741612937681,-2.387577625702261,18.69914030502217,-14.579570230269935,28.739616637190267,135.32468605807924,0.004142968354069836,-100.54340423719225,122.06357161372446,0.000610798512464886,105.54052285729553,-9.319633907946203,-24.063637699556566,-0.0019419489487222572,-19.218265366756704,-2.975933620004347,0.0005128101184501228,-8.711529553141593,-7.419060021235418,12.565822762257717,-30.991522617137488,-11.624507379185033,8.831862554157203,0.882026088548205,6.386265872100209,3.343268005884437
-8.312177893435585,0.0,0.0,-7.120831964642915,0.0,0.0,-14.59495269714707,-10.289956849026952,22.678435267492496,8.790797968186737,4.532329909683,-10.266057451280597,-14.84391111409553,-2.7255413804622637,-0.00021836290557825054,-2.886186103204147,1.1707449930432292,-4.53083504368432e-05,26.952340212248664,17.455866269914118,16.38716006249565,2.9460545296150142,2.3582828348800624,-13.909871280161894,32.38575079358134,19.749975694100083,-2.6536408939965357,20.956897844733245,-13.000447189799466,30.156766785142334,134.66023583207252,-0.005807960838889243,-105.88042308960559,121.9937509867244,0.0006809934432736652,106.92759184670598,-8.153536077814769,-23.426033778184447,-0.00027911369929138076,-18.819206237550734,-3.257754302792324,0.0032024347008953323,-8.90317978093255,-7.0786389016744105,12.238174210906092,-31.176486822487572,-11.18628873544578,8.656679969023841,1.0809727193802654,6.318626478805648,4.126849315601234
-8.848106991576191,0.0,0.0,-6.867309420498522,0.0,0.0,-15.667421221968901,-8.982812695388871,21.503108941774318,8.803736476777544,3.869666766772438,-10.442537696177876,-14.552645578483608,-2.6219723332605938,3.918409041663546e-05,-3.169356311031228,0.8411395829436608,-2.739486696074014e-05,27.40175201365488,17.40113262327772,15.645459229128697,2.9203176321075737,3.308100798233479,-15.125887702487994,32.62076782244271,19.458888454910927,-2.8973441478449757,23.171136456264026,-11.706846142884947,31.305681302009038,134.7274903074547,0.0004456797064246184,-109.37490078816012,122.46184338325887,-0.004953053652955092,107.36254187643031,-7.645017118208983,-23.66047536929108,0.00195931118804473,-20.59948650727478,-1.6704257425411915,0.004972987666446471,-9.108071980160625,-7.525495173127477,10.132647380092324,-31.522094134508116,-10.805550216848385,6.51586586188923,1.340389071834871,6.482475815898689,4.525527148462561
-9.872253583221108,0.0,0.0,-8.107131946835137,0.0,0.0,-15.376104554774528,-10.076650625582747,22.757294064888107,9.480667483907254,3.355523781156344,-11.48917983514228,-13.588741537617299,-2.8823477044305754,4.499741648592099e-06,-3.588929485891848,0.7089240595663382,4.1675925289090095e-05,26.842407045376724,17.107396888526928,14.123267543656244,2.718943460341587,3.689227322629827,-14.978687793938834,32.077155559866185,19.2602767272916,-2.2398695167449723,24.79924077926752,-10.00654575928259,32.55735475849155,135.38083795503314,-0.0008819198371178723,-112.10989378541443,122.92224791133572,-0.0011518195504148434,109.06207564482968,-6.007561119929512,-24.04472839046632,-0.0042018298721249545,-21.081884228982563,-0.07240500210612154,0.007391335107892821,-9.065823076254874,-7.776000258489557,10.589037504182047,-31.47787090188752,-11.209598337717098,6.844546721722353,1.5993282438413667,6.485203905632393,4.297183250161557
-9.347132720707155,0.0,0.0,-8.238914944546234,0.0,0.0,-16.33959027895539,-9.842896861216913,21.982064990319337,9.904530377304127,2.9119314524274262,-12.969841707941496,-12.461397503539336,-2.5190171707843554,-6.769246875127792e-05,-3.803680961312276,0.7074560491592043,5.618042122086959e-05,26.56924177165707,16.50418444729816,13.559152912515627,2.5940891886834283,3.9216192050810688,-14.333551206613024,31.904046128030217,18.94308148196072,-2.3910061758743604,26.541779508656052,-8.664040614700028,32.87371739389656,135.21864001925294,0.0005365216313952812,-111.6982227879558,122.66792162118608,0.0008222788108642892,108.61040424886562,-4.346733270893228,-24.20778194800522,-0.00022995470102551792,-19.30088440046326,-0.9287503345683635,0.015479291398735615,-9.703573311903986,-7.9004209573565065,9.32318803625597,-32.17812018688666,-10.845818499099675,5.6153225154234025,1.874677052716484,6.03119192695238,4.639291126057246
-10.762609098754778,0.0,0.0,-8.238557332645366,0.0,0.0,-16.51881175945375,-9.87111277840626,22.209424406372644,10.077762423065417,2.7798122798808245,-13.702109863035894,-11.309614567301889,-2.6981433695337937,2.6027482893963972e-05,-4.275328049402624,0.44943955998833207,-5.0765034574863324e-05,25.97704208440648,16.32618175492366,12.931815719208634,2.6678374932065676,4.1615420614640195,-14.031475036230038,31.66063498502794,18.477240527412132,-2.213888994929198,28.642574741471236,-7.926515343461485,34.02015209901303,135.2040301047556,8.532062000068557e-05,-108.65452821615482,122.43657546492014,-0.004219864125903973,115.31352838107965,-3.4961802354677936,-24.710201970900123,-0.0005340625073689052,-20.001239461604346,1.7350736237580617,-0.004799547222057567,-9.664349402088707,-7.9050197150554595,9.341915661892399,-32.13852158019242,-10.857164008074237,5.630984685881758,2.119370155233593,5.956706279674475,5.0371323033985504
-10.940366830442978,0.0,0.0,-8.57668406788027,0.0,0.0,-17.021762142042082,-10.586097227859465,21.858346394254898,10.690900591336828,2.7455365648605072,-14.430842677182211,-10.718522971991275,-2.44037166021837,-3.762304490551268e-05,-4.462634203358279,0.20000565137886225,0.00011901133345400271,26.05801415061199,16.111916996982675,12.137046771113337,2.741790704632783,4.584299616351751,-14.415549333021847,31.109048995197796,18.539278444125568,-1.9399633168912358,30.118078411274706,-6.856969117840439,35.543454077890885,134.95130401422995,-0.0003645902489398802,-108.24518501628572,122.48346344692415,0.00022919115202624655,115.34519194813397,-4.657425685444712,-24.31728923186836,0.0009578208517214475,-19.810858951540617,3.8164174404764446,-0.002332186271232418,-10.01189476752368,-7.791715213650107,9.378377021327521,-32.476400457747154,-10.766273103917316,5.709050758114373,2.5239958101285738,5.9768091016239255,4.947814626928065
-11.38868562686812,0.0,0.0,-7.832810964834166,0.0,0.0,-17.45048814113878,-11.338101034949561,20.539863157598315,10.64142433628466,2.42790221962975,-14.691715175510842,-10.214397776541196,-2.2836489499450314,0.00015204848969369852,-4.65902832788703,-0.04412493139557383,-4.176662313717126e-05,26.071128491975173,16.36267173551597,12.112561446367186,2.8099155082812954,5.193509394277623,-14.593505056819426,31.26138727328337,18.676526520797733,-2.5096428428480735,31.064018944959635,-5.788703656763447,35.835751542830394,134.45167518102343,0.0006763723190780307,-106.09781996643713,122.82253828869898,-0.0005230479314937314,117.43657044435933,-6.476448360090351,-22.88314865243268,-0.002586705058558334,-17.954595502620766,6.614042513535682,-0.0006063272233737104,-10.079309672417473,-7.377769829290418,9.437110532850305,-32.51195799366957,-10.405917092010542,5.9245972372762505,2.8977061702642,5.950237629424425,5.278772779038346
-10.043042539830957,0.0,0.0,-7.370384949558603,0.0,0.0,-18.3715482141301,-11.489815346206782,18.93523656996976,10.856132272540787,2.563040928445588,-15.299127020412515,-9.841215129383489,-1.938257424154361,-2.9701520401841874e-05,-4.558845397948917,-0.22664765633127046,-1.0986504511297586e-05,26.072066523930197,16.323775060186062,12.691094415262143,2.568158369509462,5.632864200101709,-14.884579880726756,31.775260965208297,18.20527472253823,-2.5334750022960537,31.83662152478006,-5.197783724219351,36.29719631535471,134.46333408730462,-0.002141660268753398,-104.10239766445383,123.02746706544026,6.727759741553952e-05,119.9686716494762,-7.123976686919276,-22.951070593601898,-0.007964312842423781,-16.54349699370512,8.286457078853399,-9.850430470588733e-05,-10.801724020754193,-7.727691366453896,9.31841876845721,-33.26389275703746,-10.684400892931967,5.678069997148121,3.0241514644884204,5.9454214784567245,5.388289877260295
-9.740234652834879,0.0,0.0,-6.5686802271044025,0.0,0.0,-18.60149265242497,-10.916548537524596,19.077352683981903,10.646568980015667,1.9275532870667926,-15.663005115683747,-9.414376605828464,-2.1871531984969095,-3.991022193522345e-05,-4.507928298980176,-0.06893764723060872,5.562977211391542e-06,25.919173512218205,16.373181115828398,12.37629206337113,2.563161615815845,5.688603632243986,-14.832158328169747,31.366695518655817,18.105344537284125,-2.8339149595761217,32.186396396268535,-4.231648849082978,36.812758171380324,134.56709363828563,-0.0019205293679021027,-109.52372901370882,123.46610889281236,-0.00024388834506008464,123.03170793814007,-6.103304565563642,-24.448000593099383,-0.003263478587722069,-14.743166092175116,9.35396189547616,0.00044837544208080403,-11.08608661989531,-7.740331568659432,9.338943313358987,-33.54838269592958,-10.703855579819878,5.692271568267995,3.3997503912241185,5.84543012805008,5.469923520182726
-8.72799709673731,0.0,0.0,-6.313016113703188,0.0,0.0,-19.220147349850844,-10.444618097572807,18.159401056096044,10.741087161558381,1.7784481040334634,-15.404987579744837,-8.719944868133286,-2.1130598310109905,8.584771542903473e-05,-4.417396285389215,0.10996240321592436,4.954614644301446e-05,25.383572646058138,16.090376524833324,12.709642141607192,2.1418445654790523,5.604020824455686,-15.637375586444215,30.989492806231137,18.131989130185914,-2.852516792851439,32.801591515543656,-3.6065127872234286,37.84764944693113,134.7314063875265,0.001005090008634069,-105.32366870531303,123.02410359810733,-0.002630914479381714,122.39564139188137,-7.581394864719263,-24.429092777221953,0.0032374620414190847,-17.308486911119868,10.435964737773364,-0.0014139521432604788,-11.401543163012414,-8.115511212318273,9.275328731317533,-33.89377384674652,-11.026443675272676,5.486944320660073,3.525250503572838,5.609833145865374,5.333135638324409
-10.20356855235268,0.0,0.0,-6.831199990946218,0.0,0.0,-18.3257159274414,-11.950037434898313,18.965111596998174,10.834373855124312,1.2437453391731643,-15.690932413956514,-8.583988117833755,-1.9717082258549243,1.1466882744431995e-05,-4.327232906813308,0.006999949717881267,-4.988191842802918e-05,25.42435516705968,15.973719499479628,12.463382036765127,2.30558734628725,5.606194970155072,-15.193115112084413,30.927935565131595,18.774382527686193,-3.0804538602500413,33.33902604007368,-3.1496294020879034,38.15880995398128,134.7186610842596,9.064462305564627e-05,-105.98171239000966,123.0343218671515,0.0007850476606668905,119.63923524458207,-8.205773682758567,-24.65661208928547,0.000276940947268606,-16.196844700260463,9.321044704291081,0.0004351744862081774,-11.259836059371532,-8.22894781257115,10.071572239332296,-33.729269163156225,-11.432633200892854,6.185201937685805,4.0337550656203955,5.289437329702083,5.557759414552108
-8.969864616929568,0.0,0.0,-7.025510764784325,0.0,0.0,-18.901819633806127,-10.890418287967808,17.927102661251784,10.794833645547865,1.3548215703693738,-15.369636001245306,-8.315643510081518,-1.992432221639425,-1.5070386824129922e-05,-4.395367386417626,-0.0651207082930302,-1.3340438635604085e-05,25.423269533535212,15.931906248504218,12.38101974896073,2.3730068941990194,5.693555713719127,-15.853951842410847,31.304285877466477,18.3488323928499,-3.2808523973565777,33.497516319118226,-3.3317659104582296,38.9980422431871,134.13379357963066,-0.0003721071293348681,-106.15119020713863,123.56160170350697,0.0016671212375689718,120.16343982366392,-8.220359956262028,-25.09369549224945,-0.0024891731204000965,-17.780295792900997,10.556777734075602,-0.0027015105886919553,-11.41679410337777,-7.976217896586969,9.681726663951926,-33.882980456190126,-11.05159443789995,5.9200361824284125,4.2015154525764915,5.303013673444962,5.825301318980771
-9.961963054124837,0.0,0.0,-7.308690216731177,0.0,0.0,-18.521528782603397,-10.774823591413046,17.951384880248987,11.121744645411786,1.1920406530170666,-15.853089448458078,-8.01259729853078,-2.1544869583951716,-7.682667493762201e-05,-4.698442785024697,-0.12915286353177516,3.895590853321076e-05,25.218521547947596,15.731434415620823,12.447744054131244,2.5724664041564553,5.507856298832205,-15.451919764337429,31.27697057146095,18.43338648080394,-3.5686542489553035,34.10201588847254,-2.8461960163864717,39.42341806342371,134.24626234016702,0.0004152546055965332,-103.51949434835333,122.93889045817428,7.04615036421384e-05,116.16981320766797,-9.070877382826342,-24.556175332504118,-0.0012394508796986915,-19.8970628841508,8.939091639020976,0.0025697957927783358,-10.937786510508847,-8.258330184835796,10.08209722739449,-33.40905260433075,-11.463765147319899,6.183563359981744,4.5089885461569645,5.017026123301567,5.922157203932862
-8.415019195793416,0.0,0.0,-7.71049194146181,0.0,0.0,-19.048272762334186,-10.253910875732382,17.463769998918842,11.291679242082617,2.2731212163762016,-16.077236722874186,-7.857667819638527,-2.2135051006430775,-4.320206040446633e-06,-4.927353106196577,-0.3018148680289856,-0.0001190432816352584,25.33156793236046,15.917262234984697,11.92540711185567,2.8170262723845716,5.6641146050056275,-15.57241195111496,31.074183928644928,18.298995417137355,-3.5165596286861125,34.336142964725724,-3.0808184624079433,39.63798677902333,134.10844670610925,-0.00037813824549536306,-106.47324065199815,123.44693192474087,-0.0032511283566630726,114.4974888482178,-8.159587111008753,-25.310828944426447,0.000151420404471605,-20.156698743390667,10.048051221773543,0.008435228553340272,-11.408156894930178,-8.236312704124128,10.109511168571386,-33.87657066323418,-11.453788762752303,6.217733507517257,4.869255389975501,5.159543584171519,6.087040866879765
-7.315220161043733,0.0,0.0,-6.418061776095994,0.0,0.0,-18.877602693371543,-10.859837739209638,16.789155033411095,11.29853221225776,2.5169534592619165,-16.367508451170977,-7.962017668737198,-2.041203470096523,4.3474400431528394e-05,-5.3756693823401065,-0.450704035379433,0.0001725353740669142,25.24395649282759,15.925504846417036,12.414242573435661,2.9041101379691807,5.6561661653872415,-15.758993566916438,31.227954752360258,18.322554938607055,-3.5966265650780045,34.49216665164767,-2.5714592517500328,39.78319474348444,134.02531310485574,-0.0002416928474808689,-108.2498475361025,123.17968721978397,0.00206507707761738,117.2335670518946,-7.3488253275053435,-25.694670525906137,-0.0016516892452262972,-20.22330358396822,9.371797272967722,0.00018350739596628801,-10.929749257554041,-8.41459527020502,9.936985854436905,-33.41916003551175,-11.553257069365419,5.98719321336952,4.903611679164659,5.083409283253236,6.051122218249996
-8.733185978482918,0.0,0.0,-7.759476070278861,0.0,0.0,-18.004697890081683,-11.769302258000973,17.14163020467556,11.782323772149446,2.9465710872461033,-16.80388763225468,-8.163106183427248,-1.9659141208431723,5.233902851177371e-05,-5.820066738637354,-0.47507693250382194,4.754919790320845e-05,25.250099291174013,15.99848128188552,12.202783766534163,3.0931610841573227,5.621883464759847,-15.164565268669978,31.283398323294122,18.656644371403406,-3.0632140446709406,35.283606830888125,-1.8084513185873916,40.708012243916386,134.10837249737918,9.664334653583071e-05,-109.1052613030298,122.97775137474332,-5.519133647969789e-05,118.03122594957937,-6.665958040453855,-25.436917274706566,0.0010210309269056477,-20.49784682489883,9.71135642004938,0.0037752017346568594,-11.254845864363768,-8.41714955192819,10.637553388664871,-33.714511908610376,-11.820546550868302,6.640144446003264,4.9738045145834775,4.973092718961513,5.867877050250208
-9.33049849089714,0.0,0.0,-8.191407369644345,0.0,0.0,-18.03369665059433,-11.595424079294434,16.48406211481585,12.15993197105664,3.318819786007646,-17.105940846822058,-8.10265292811842,-2.0046311138933106,3.80942173257585e-05,-6.073584483960922,-0.7697602571242494,-0.00010131630820480817,25.130767560303,16.009333723602484,12.013765330846915,3.1323384154013048,5.646274672078564,-15.295876146259593,31.7001508351662,18.801536204139087,-3.195218694620737,36.13266189210627,-2.1207826277960637,40.69169830017407,133.943891172088,-8.856986632141125e-05,-106.08413715069462,123.15537000951682,-0.00030324256932487176,120.78316110293045,-7.710757236544548,-24.859023406342985,-0.00520270667998609,-16.88408923202326,11.423666707401495,-0.007093529569820792,-10.96490481124302,-8.21734456680652,10.149573780326488,-33.43015213012143,-11.451404925837616,6.262507613322919,4.9638477586521494,4.851947317546065,6.065490433868627
-6.243123017201786,0.0,0.0,-5.602713189549797,0.0,0.0,-18.887983509772493,-11.161359508080656,15.236772736485776,11.390916993868412,3.1608723008286264,-16.480574729664973,-8.23917022280762,-2.085968562997851,7.230232800372958e-05,-6.556722528794505,-0.8863715339064737,1.836205587484095e-05,24.86296228352496,16.240935010661584,13.057041108817216,3.0734817598231596,5.6701573331545605,-15.481426819587234,31.920626379869343,18.70443163487553,-3.3668363409270294,36.47016276166988,-2.364389414769415,41.29611842941334,133.93354104576238,-0.0010829719095849049,-107.33038446192081,123.27123175875742,0.0048463527459758375,116.5438904355289,-6.512297271640894,-24.97021174750286,-0.00022080875827214865,-19.32372169946021,10.26857078231224,0.004480279285598951,-11.30409957517411,-8.233092488993476,9.832688638864342,-33.78365548630115,-11.34608965964303,5.960726161377857,4.894963013550439,4.881944404635218,6.17514160269293
-6.651668477800993,0.0,0.0,-7.519546431492155,0.0,0.0,-18.663876336928812,-11.482053346960125,15.125408252950692,11.95970071136463,2.7886115512036254,-16.789402544314118,-8.674169764413378,-2.263963191920464,1.956372491813383e-05,-7.09901838601077,-0.8107797345779342,-1.793243129221719e-06,25.266042612416143,16.244670051121517,12.799814465000354,3.3490026016273786,5.50493660292341,-15.414565776456879,31.50314119780445,19.14790773330827,-3.0097434650895663,36.82964296976239,-1.687155549089146,41.552093687870574,133.7707901362837,-0.00010834238555720591,-105.0758127813674,123.80030696264502,-0.010918519213213218,112.31122034325625,-7.021064228825823,-23.45463326870214,-0.004977081965561723,-18.968237877062506,9.637745003698633,0.022610764526738967,-11.155665941443859,-7.986602603586944,10.475718306024394,-33.588896935511904,-11.361453801245172,6.656824874477297,5.310932872331141,4.728421280413568,5.558719644879242
-8.100687660959029,0.0,0.0,-7.69499665765593,0.0,0.0,-18.160535886549578,-11.609190396582509,14.874703839196638,11.679602126159066,2.264716205081653,-16.454518405194424,-8.948995823574835,-2.390671524536248,3.8387253277569264e-05,-7.463090673951084,-0.690773063414058,-5.5686344493907123e-05,25.47353159309127,16.31122378675839,12.491335090467516,3.5009473949301433,5.420055428039089,-15.458209329680363,31.69115910726528,18.941562672393136,-3.2979630261612476,37.122815633990804,-1.724825123654463,41.74624038504694,133.67073725317863,-0.001285606752189924,-105.79561521699961,124.15150055521909,-0.0030062106594407117,116.07793390183335,-7.28734469859897,-23.44602512519441,-0.0040975789724631805,-18.85687119746118,11.025469557804266,0.005994320352890223,-10.62374673265918,-7.980174197628913,10.149926686060267,-33.07080677779098,-11.232352833176474,6.35523088348419,5.31602139897319,4.695647331238113,5.391179727413895
-8.348406205614307,0.0,0.0,-7.3499264475278725,0.0,0.0,-18.40254693777228,-11.711182181167063,14.586411003372065,11.612244270576683,2.861016285832861,-16.588888933275463,-9.17650799205789,-2.3918211578385256,6.17211988105553e-05,-7.917022435466803,-0.919797620493167,-3.085233871419919e-05,25.56784985703891,16.221609825212585,12.429144959940205,3.522408561808523,5.338884684541993,-15.184740237218099,31.9756869929274,18.80820555940157,-3.5090838691524664,37.16983344764619,-2.143620531436014,41.58841995213675,133.8984448194747,-0.0013576314710507823,-110.6976669004574,124.93205020012896,0.0005278104147065989,111.85081781734114,-7.188744412171217,-24.859775167846713,-0.00019118994635504088,-17.643370358035064,11.667116694673814,0.01642323379991029,-10.467114564298262,-8.275827364287883,9.634025235466881,-32.95781554246732,-11.310386158904551,5.75879264739718,5.181138794124813,4.646265642224174,5.148967366618932
-8.294741179132092,0.0,0.0,-7.808018523584336,0.0,0.0,-19.09956466721422,-11.03038461828321,13.732437146042006,11.807605944210348,4.153502931560874,-15.98432164090285,-9.295062678365596,-2.4245403339708624,-3.175458210200743e-05,-8.717722601706233,-1.1222046665352232,6.957996411931302e-05,25.72965257860222,15.94565288432786,12.457866780397504,3.8001259200355424,4.918713278058818,-15.478554896750351,31.657677995848506,18.746695016086402,-3.427769446550811,37.517654789130894,-2.246702392996189,41.77538999383893,133.9134018980303,0.0010338434452616787,-104.5213905515328,125.0385127900996,-0.006194388520026644,112.42759811820834,-8.958992888278688,-23.40733091007578,-0.001924115905026212,-18.91221171400482,12.027805842099433,0.004812801515713023,-10.232552847233938,-8.141912077074668,9.690205718097587,-32.71085915232754,-11.207912282472305,5.8633890014624805,5.28870998554087,4.562422607836471,4.932660059139488
-6.355266197497494,0.0,0.0,-5.817491213616295,0.0,0.0,-19.820508200489947,-11.508720586656677,12.756004663151323,11.415475047263731,4.171013087541164,-15.64666628918232,-9.635028815962485,-2.39983005239601,-8.815323941309374e-05,-9.097286142100637,-1.219222971658025,-9.678968031914795e-05,25.78082335374234,15.822091107994769,13.336459541554824,3.852853626147292,4.564455032663826,-15.323979922589388,31.5880532182472,18.244158924247902,-3.365971615717056,37.88593287843286,-2.2500928084358796,41.577027534984886,133.99961424801157,0.000644157506016314,-105.59421276777456,125.76520732053427,-0.006670298665280419,111.67614739596183,-8.311530692096118,-24.367860719055173,-0.005500012146910678,-18.16536370879293,12.918035244908088,0.012872968667150451,-10.344990830981166,-8.364158606157938,9.276721299270926,-32.85591636948515,-11.256683222517859,5.391241641583051,5.1856248047302955,4.504993101856107,5.116774891150596
-8.148296395528535,0.0,0.0,-8.052974301013252,0.0,0.0,-19.615318294137204,-11.18075347657701,12.97697833733131,11.975843684438487,3.856886300435348,-15.653603255583036,-9.76375682841455,-2.5985459324202433,5.461270941631638e-05,-9.417674042227215,-1.3727773654844673,6.64416841993038e-05,25.82272329154018,15.719521738398885,12.627243202560104,4.037653307778871,4.333982842054877,-14.865738227401675,31.35779719338479,18.349445534138816,-3.4949010267912954,38.07595083526917,-2.0203553012780215,41.845669311283416,134.24253957779675,0.0001742485187339306,-109.22523841698583,125.6459759130282,9.046804635353077e-05,110.28262516747743,-7.424109468913918,-24.590570999726527,-0.003808024738959031,-21.727997755445706,11.315192320820962,0.005083096908008748,-9.975307710664152,-8.115581999163567,9.820827260513882,-32.446376267560176,-11.233017774925981,5.995475141833335,5.2246227351981265,4.102322404074307,5.149885065801701
-8.718854769687207,0.0,0.0,-8.302363176417435,0.0,0.0,-19.306123981620814,-11.756164858764448,12.343315588138625,12.329425536309778,3.695736187911333,-16.77063760332775,-10.32390817746173,-2.507610754374295,-2.6935224265392422e-05,-9.596688597016882,-1.3842865619535305,-8.809609449640268e-06,26.00673274559741,15.494167187358208,12.492914514067714,3.993514663935935,4.177853443305607,-14.359185577418412,31.474014211500528,17.713984800542537,-3.891395107727121,37.87666430377082,-2.5448088469016,42.277282676219016,133.81500511452236,0.0029658024186334274,-108.12031659412395,126.0781519651309,0.0008157872925503548,109.21528806677213,-6.931523922721537,-23.98142013478292,-0.00514069129622632,-22.8613565411905,10.026398295938593,-0.001637430921542235,-9.648249902255333,-8.293865519975707,9.733840743908136,-32.1364175491515,-11.364828651410724,5.844834703007977,5.034922636995303,3.8350045263673014,5.2445981447315395
-8.05249952984786,0.0,0.0,-7.650870352856528,0.0,0.0,-19.2697046363526,-11.592993152546212,11.747875143187049,12.44655214117211,3.701073231423788,-16.35352185345409,-10.802067042343795,-2.6688786226573717,-0.00017180673404351316,-9.717245791668942,-1.575039074081824,6.4975695721858945e-06,26.191357310360992,15.710117895505753,12.550314015210017,4.038336432229087,4.29901107819356,-14.92696090158685,31.855566700926957,17.581649241934194,-3.669268194399546,38.21910215949609,-2.628879494073115,41.92890460313386,133.46552351766724,-0.0013178714467807313,-104.03385114587968,126.43270237037103,-0.004962374068795274,114.46279608963505,-8.012976577663906,-23.18279592625656,-0.004672786173417453,-19.421643876878765,13.760273557417523,0.023320568047422364,-9.457922789648208,-8.159720832052253,9.818544955369807,-31.932431313692067,-11.272934649535411,5.976137118203684,4.949477170381459,3.7130929493995333,5.479640874410181
-6.512597309741313,0.0,0.0,-6.401752133731117,0.0,0.0,-19.170132698246924,-10.755834851085659,11.823176182828291,12.371014039620507,2.969676406781625,-16.41650863924734,-11.249415350854035,-2.8819813468281152,0.00013806297350813857,-9.44246654351159,-1.2813372718263762,-1.7644306409383432e-09,26.252567301943348,15.807254557918448,12.661732754380388,3.820583579494383,4.128134703730321,-14.481978335885136,31.765734025490204,17.688540768885307,-3.2130302116804477,38.34228368125887,-2.7363413183135243,42.393522387466795,133.42709510493304,-0.002290288687860436,-106.70162337586763,125.94760130967607,0.003206311002624918,110.97666569406572,-7.509973939269926,-23.306243414487206,-0.00461459488412494,-21.20483205496895,10.269304102157573,-0.005388069163595022,-9.25555244990438,-7.946551965720722,9.682283592865872,-31.71950423198275,-11.024378617244421,5.932109357085357,4.957315763162657,3.65607879625362,5.693322001523847
-5.724607309746919,0.0,0.0,-5.485415291957094,0.0,0.0,-18.90291459990868,-9.971187411974562,11.370625313074273,12.41332006742056,2.736892631801074,-15.735830671960631,-11.811390996318973,-2.7643950723343322,-2.873480066233576e-05,-9.169500842698762,-1.2184145878445325,3.332851898892198e-05,26.344506928708434,15.631301376232873,13.90818459991004,3.6752782051108013,3.7833274891564432,-14.780136104012316,31.787456170964255,17.728219292663532,-3.3530295551407363,37.925437630801355,-2.779742356980972,42.802284626271955,133.5967507745202,0.0007205462714528777,-108.47009648633964,126.40812416676354,-0.002707646429697317,113.80617555339344,-7.658001544467669,-23.8667303250344,0.0010330148719631172,-20.45225343655737,13.705937675715932,0.011431513185596348,-9.043016266558304,-7.432722248676053,9.31466627096208,-31.484356480781038,-10.410362010123594,5.7891519333891175,5.025989026618676,3.2890433408848616,5.836191605291986
-7.197677429853699,0.0,0.0,-7.104137929384637,0.0,0.0,-17.464008780982176,-9.95595536356917,11.845851049446031,12.87460407046758,3.265480909522811,-15.904865023557798,-12.974736936699195,-3.099259730832132,0.0002909421563780084,-8.300582437003941,-1.3698295661515671,-0.00025068631313991224,26.856030136695548,16.05827766168968,13.561111344956284,3.1414316282346126,4.193939575754129,-14.933354548753968,31.659419735510976,17.90073223451938,-2.892750301719002,38.06399913891404,-2.480757748924197,43.17874482291435,133.8377641860508,-0.0007284478883841591,-103.47895202160166,125.50941925360672,0.0018317523929550156,110.42051322292532,-10.197200393781483,-23.39083514850471,-0.008202922006140761,-20.359139661580752,11.115241162025981,0.0015012225671239114,-9.358491880482555,-7.875003777896498,9.99190423759883,-31.804365707598215,-11.075397156895312,6.248718652608045,5.01575177499046,3.5336856372112977,5.622142372817072
-8.738974879720796,0.0,0.0,-8.886139634227831,0.0,0.0,-16.779543221236167,-9.39032117840511,12.484450864589782,12.878668668151985,2.861070900580618,-16.048721289622556,-13.833391923755189,-3.653298381255533,0.0002669821579003556,-7.293645878696716,-1.0025947410563394,0.00020321356398407704,27.43155443079004,16.425557439395195,13.099009194649952,2.842307373528949,4.195653166189316,-14.453177611166195,31.755824037025008,17.626604598996643,-2.785623212270979,37.86821856639925,-2.7448657707914323,43.60678550576721,133.99829192548708,0.001035015743352919,-105.9021801650775,125.38675524235659,-0.002490178942047436,112.9496347947272,-9.049477737625617,-24.53537412297667,-0.003572145115534143,-20.686527908646834,11.684384637180186,-0.0033613481308094662,-9.383177452460183,-7.974746920380187,10.334022002632786,-31.82181731685402,-11.2969487014366,6.52916383711085,5.196159181047543,3.644956830999686,5.828355809430442
-6.136185240688576,0.0,0.0,-5.952713581970711,0.0,0.0,-17.416961808566963,-9.150334572313055,11.914628246518133,11.77213969549304,3.251121670211131,-15.079823108666815,-14.769267708376399,-3.7197464094168113,-0.0002668530804702501,-6.415596915780535,-0.9356958557933855,-4.080104330386384e-06,27.718074621814957,16.75040556365296,13.370814545701009,2.0760929498926664,4.402980674241964,-15.374004308204745,31.778773531021475,17.66980480834891,-2.752750944327985,37.720955972247026,-3.08302158283908,43.828361019622186,134.13547224847147,0.00013268587691928378,-106.69643393587836,125.01334891169962,-0.0005208769414831848,112.72073363753756,-7.963971013275414,-25.277818989782805,-0.004882926307782091,-21.252430482224767,11.659135230047966,-0.0017903389276929008,-9.740188166198068,-7.813482141136132,9.94694844072386,-32.1833686726526,-11.001536067128287,6.230725862247408,4.983108075570365,3.815383148613219,5.716717088487683
-6.898168044136506,0.0,0.0,-7.1370566081306706,0.0,0.0,-17.299032973799015,-10.208380048617556,11.679947779848954,11.59928058812295,3.2636571295561105,-14.369464118679707,-15.422708486330654,-3.6140589270812975,6.487086132786836e-05,-5.6633647745763644,-0.6030857211837635,-1.0597521087374436e-05,28.03432237854919,17.056816286830177,13.850999530494455,1.687046805164484,4.405083260811724,-15.92282460316264,31.916773239750945,18.097549006035216,-3.1022793021389665,37.566996991278536,-3.1452953278805773,43.47443542011533,134.00750858506206,0.00034621304965872527,-104.00611829939298,125.00443100839028,0.0034014271391210886,109.25356480890503,-9.517346842905617,-25.0678926802507,-0.0028196393758203255,-20.705936424994473,9.831764477184146,-0.000995719068065461,-9.771485684776927,-7.756346493249768,9.994844897086642,-32.20840709292035,-10.966836681570225,6.297615858903975,4.807163838854355,3.7694992187134932,5.90774214864525
-7.009208950918649,0.0,0.0,-7.248561526151399,0.0,0.0,-17.698824073847536,-9.61710668149454,11.907990197279924,11.138439834024064,2.6201476600793803,-13.992583395140734,-15.745443020922,-4.011301037398126,-0.00011123981091702611,-4.947971953195579,-0.3364008391363008,4.8791315539061304e-05,28.506234267537245,17.247387294697496,13.213150503276921,1.5674915485395131,4.419691701459154,-16.13302152174504,31.986485683593223,17.945348860239722,-2.9468837728466055,37.52289536162105,-3.399466997595499,43.79151023196841,134.0899239990458,-0.00013396027425736532,-106.49359204364195,125.09389561840807,0.004606164592380033,113.98545525542359,-7.963139649766979,-25.844150738083098,8.667964653965695e-05,-20.21613607800859,13.272665427982187,0.006673054271992393,-9.719827616580739,-7.976298221870192,10.30592360263477,-32.159817586846884,-11.287755979586379,6.502340477707211,5.038406085921085,3.902838924738803,5.709594222424054
-7.000468725173437,0.0,0.0,-6.745462788508216,0.0,0.0,-17.672583597642845,-9.07362472190515,11.72774068910276,11.223042379842205,3.124552846989606,-14.684357898619252,-16.231400479503034,-4.2267242968071965,0.00024029500708362624,-5.0527884784121735,-0.33978459793912213,-5.038368900826536e-06,28.26389840362298,17.447887739463454,13.595562978963569,1.1492670583223534,4.366676775917323,-15.825427262551905,32.157352991230276,18.54014056427778,-2.8687122899507904,37.46245793050325,-3.2084680882543886,43.76623277336209,133.96422187607345,0.0004959871436302165,-100.50995755982487,125.11481232816456,-0.0029136928872381947,106.64012759812714,-10.891795755925619,-24.609518181283942,-0.001025798101658159,-20.887806161321034,10.754213045351182,0.0019298891967836323,-9.514179245244689,-7.801791816264937,10.42469293462109,-31.935656305282798,-11.171341499812755,6.681079093448149,4.605111947809639,3.8352486775412507,5.674145590838959
-9.178548205107921,0.0,0.0,-7.664446933289719,0.0,0.0,-17.0860051273411,-8.666666628174164,11.591106491619016,11.657684507016697,2.6145935459833507,-15.70719900042801,-16.815730114439447,-4.668812848792821,-0.00017337742925447976,-5.118407595162751,-0.247695562075145,7.0938328319539284e-06,28.566241028662258,17.565310240905568,13.448535173395577,1.2390901467394,4.182946704884474,-15.060313393567766,31.714513010380355,18.643168089614964,-2.0284737716890158,37.21292519214224,-3.6135098136506842,43.703474061682996,134.27726958415735,6.555505605430626e-05,-103.89166022588515,125.22466836090801,-0.0004980013420337246,105.67749556263657,-8.813267170031878,-25.000716579725168,0.0002427479177600091,-19.80337926550393,10.037291031817091,0.004010375203210233,-9.944173351886038,-8.289845882820913,10.594848871960163,-32.395650717739066,-11.686762308444624,6.6499222609471005,4.875407652768569,3.8386089673611075,5.608210586620261
-8.117062776593507,0.0,0.0,-8.047592629200738,0.0,0.0,-17.55158453468034,-9.876079021751554,11.778200886327252,11.968870094531555,2.4174794683041707,-16.16540682209026,-16.784163688780616,-4.372420169164578,-4.6352443172781485e-05,-5.620756755193029,-0.12694886214374837,0.00017406777691790336,28.791663153231884,17.33268019178644,13.447381773728965,1.7117371412993307,3.930613641963391,-14.627583060189874,31.82118493154947,19.00548256203916,-1.2571906538088784,37.261120406856904,-3.540505303239668,44.02898411613813,133.97016075877733,-0.00021756544848139622,-106.44155678764918,124.73595741681183,0.0013605509600513772,106.44330609658509,-6.564219953340996,-25.8999721488096,-0.0015493665976935506,-20.740164598338723,8.392924916742578,0.00010204256385451718,-9.486853912798143,-8.588656150292174,10.266353977138335,-31.97642316827293,-11.838682362720608,6.226563162845116,4.892880975224675,3.8056327281859903,5.33801266153199
-6.387121010547494,0.0,0.0,-6.4022071407410674,0.0,0.0,-17.61047616633715,-9.738114007780274,11.394626152234911,11.60363607702647,3.1977790687004903,-15.98881458572658,-17.114503507447136,-4.321714723292811,3.37743966792497e-05,-5.786935730007474,-0.32708822242262015,-4.5747940623247614e-05,28.634816878413215,17.546408003986926,13.508099353555929,1.4796202581212197,4.076285316787394,-14.800663137305598,31.379416596884955,19.06798687742867,-1.1811410416325392,36.72933263017195,-3.9772592650628287,43.742887323913415,133.84454717423307,0.00198980990462347,-105.22075088537352,125.3496076326675,-0.003348449795832837,111.13172964607807,-8.367182593305822,-25.003602993521064,-0.005044642310831598,-19.453132009015942,10.638358554363545,0.008162535827240795,-8.948623479310514,-8.431326590735543,10.09604598928412,-31.432816231465793,-11.62890009446435,6.129068330271153,4.658232549998455,3.975775745722752,5.44185306044196
-6.011588772398401,0.0,0.0,-5.387948735656491,0.0,0.0,-17.989271448655675,-9.697280493065954,11.336799309655186,11.173698990698954,2.242184452754533,-15.999771365548403,-17.388320585128007,-4.418991381858928,-1.8031365422985796e-05,-5.914438099680161,-0.22734087415948592,-1.8617360738044984e-05,28.972460273388155,17.547005731439306,13.644048298101572,1.7351667506161292,3.9867988549327893,-14.691882962667385,31.414731698911282,18.70768630948718,-1.1696796653308634,36.55863527520633,-4.303201463183098,43.72422541572654,133.5536125967268,-0.0007860070280668923,-105.78882025304208,125.11567613570998,0.0010355273738285491,113.56076898809334,-7.93129804745592,-24.268151634042802,-0.005680577716196721,-20.589906469553178,12.413629788352525,0.0038870371125580114,-9.66026351088628,-8.395340410688586,10.520175203028408,-32.12343268116256,-11.756026124319362,6.5390314093174,4.763248647779854,4.096689559293076,5.361959699573255
-5.240813821157959,0.0,0.0,-4.330001524538928,0.0,0.0,-18.157394666440265,-9.350136720151344,10.391312425224823,10.77971704484368,1.9931907172991061,-15.784074819662058,-17.929723874446324,-4.330805197389854,0.00015419978443123876,-6.086330226431813,-0.25333410426891273,9.001283925453043e-05,29.232264122752184,17.75509597862524,13.949026147342538,1.6956773393993083,4.222651454624841,-15.036260618662602,31.003517902751092,19.11335515042837,-0.7666813313767858,36.159949709516816,-4.539383510585719,42.9261899414316,133.71425603018764,0.0005677029888813606,-103.74211276286965,124.8772984054077,-0.0012681122646472566,110.08508182160928,-8.05260738328432,-24.148591954979075,-0.0020329381916317376,-19.36706861128586,11.122487323028855,-0.022932532633765525,-8.526729490847007,-8.902848532500201,10.725553402203364,-31.02214080116321,-12.302603516246068,6.532461469057046,4.587345324306477,4.28144142932165,5.103235681275033
-5.457771935069538,0.0,0.0,-4.296090243831016,0.0,0.0,-18.30202290561197,-9.551609039242317,9.974599285763802,10.52214200696588,1.5413462190131837,-16.0480928268061,-18.278301600312087,-4.450818520054434,-0.00023119002676997468,-5.760800070478875,0.033612339199133034,-2.970315841798464e-06,29.352970494215537,17.915381889047715,14.435179590003814,1.4768356957199744,4.0740209350355014,-14.703919446733154,30.816959241094366,19.223843819309074,-0.8843221145568164,36.09319969106974,-4.817313556107028,41.470921423854335,133.62533679542764,0.0007657199581045587,-101.9742936823284,124.55797269422966,0.00261337212425912,107.38461807000361,-8.511779860292629,-23.828018099218124,-0.0014141571466379358,-17.750014990679865,9.518366286962044,0.008504431748532932,-8.164839743767649,-8.878991304778658,10.997874196306041,-30.64596240289722,-12.383471004559196,6.7962659013921485,4.537757317017328,4.234324194058494,5.3561405214808335
-5.301898093851999,0.0,0.0,-3.8091126344835495,0.0,0.0,-18.81265162910191,-9.922576063721387,9.148818850995914,10.506722530697377,2.2703319518782017,-15.539248550620936,-19.0339967072475,-4.414581039229895,0.00020347266520658245,-5.7937606827469015,-0.2493853363759662,-5.4149743294917335e-05,29.508051081041092,18.006470317693733,14.983705776069908,1.3363117533590045,3.9946801624044666,-15.15867320304383,30.100388682397504,19.059630124298323,-1.0573165146219212,35.57369630802301,-5.105162398290716,41.49946166760112,133.8626930587781,-0.0005662226380783701,-100.00390188036711,124.4359273574147,-0.0012473870349501237,109.62090454872323,-9.269330823033496,-22.62848630217083,-9.34276118700879e-06,-17.765377852024116,10.460045790715244,0.00165549780202395,-8.046779680101709,-9.071013264956987,11.011236604316204,-30.543528850099662,-12.565942378898635,6.733536872144344,4.2911954605764295,4.172746929854384,5.447548498342943
-5.44682983663441,0.0,0.0,-3.3207469136306376,0.0,0.0,-19.37277672609317,-9.33682832591987,9.481352327083158,10.083661858971798,2.454575632468161,-15.467263765769811,-19.716980815015045,-5.074160245612009,-5.147970038953117e-05,-5.49186577392915,-0.14158074450580194,6.425940326057991e-05,30.115269133476097,18.63804378981801,14.855372157203828,1.5354126897429654,4.033775030615655,-14.96237085408367,30.169217867685468,19.44149886186687,-0.6678344195014392,35.36728321805488,-5.050994514229875,40.92930968129529,133.88745986281415,0.0017526916411296609,-103.50568199121662,124.57941597667447,-0.0005674686849796517,112.06308108154965,-8.21750439302352,-23.605084078625904,-0.001304006899731091,-16.998496826331554,9.246926210673609,0.002915578480220602,-7.9814344044404955,-9.608032552456478,10.070669641251357,-30.563877157757453,-12.706172774565855,5.644097950183544,4.109369268002284,4.419483645034325,5.702079521768538
