PaulMeinheit/Bachelor_Muay_Thai/processed_Data/E1/teep/scaled/JointAngles/scaled0.csv
L_MTP_ANGLE,L_MTP_ANGLE,L_MTP_ANGLE,R_MTP_ANGLE,R_MTP_ANGLE,R_MTP_ANGLE,L_ANKLE_ANGLE,L_ANKLE_ANGLE,L_ANKLE_ANGLE,R_ANKLE_ANGLE,R_ANKLE_ANGLE,R_ANKLE_ANGLE,L_KNEE_ANGLE,L_KNEE_ANGLE,L_KNEE_ANGLE,R_KNEE_ANGLE,R_KNEE_ANGLE,R_KNEE_ANGLE,L_HIP_ANGLE,L_HIP_ANGLE,L_HIP_ANGLE,R_HIP_ANGLE,R_HIP_ANGLE,R_HIP_ANGLE,L_SHOULDER_ANGLE,L_SHOULDER_ANGLE,L_SHOULDER_ANGLE,R_SHOULDER_ANGLE,R_SHOULDER_ANGLE,R_SHOULDER_ANGLE,L_ELBOW_ANGLE,L_ELBOW_ANGLE,L_ELBOW_ANGLE,R_ELBOW_ANGLE,R_ELBOW_ANGLE,R_ELBOW_ANGLE,L_WRIST_ANGLE,L_WRIST_ANGLE,L_WRIST_ANGLE,R_WRIST_ANGLE,R_WRIST_ANGLE,R_WRIST_ANGLE,NECK_ANGLE,NECK_ANGLE,NECK_ANGLE,NECK_ANGLE_SHADOW,NECK_ANGLE_SHADOW,NECK_ANGLE_SHADOW,Trunk_Joint_Angle,Trunk_Joint_Angle,Trunk_Joint_Angle
X,Y,Z,X,Y,Z,X,Y,Z,X,Y,Z,X,Y,Z,X,Y,Z,X,Y,Z,X,Y,Z,X,Y,Z,X,Y,Z,X,Y,Z,X,Y,Z,X,Y,Z,X,Y,Z,X,Y,Z,X,Y,Z,X,Y,Z
-6.955450000000002,0.0,0.0,-4.097930000000002,0.0,0.0,-7.281650000000001,-9.058050000000001,9.662430000000002,14.638270000000004,3.1909800000000006,-16.350150000000003,-13.888370000000002,-2.8480800000000004,-0.0005600000000000001,-6.47663,-1.14206,-1.0000000000000004e-05,25.295260000000006,15.065710000000001,10.11755,-2.16535,3.13114,-15.347730000000002,19.600880000000004,17.794430000000002,-10.653790000000003,-5.16643,-14.26925,18.30747,135.77786,8.999999999999999e-05,-89.37289,32.37329,0.008680000000000002,95.18276,-7.360100000000002,-11.27908,-0.00091,-5.62401,3.7678100000000003,0.0022700000000000003,-0.8204200000000001,-7.71446,25.648780000000002,-21.802800000000005,-16.698650000000004,21.150570000000002,6.911440000000001,3.1537000000000006,5.255980000000001
-6.682547216760873,0.0,0.0,-4.055868036308004,0.0,0.0,-7.000962183250836,-9.240430099819262,9.18624433540643,14.822580047794684,3.65472186610293,-17.793853969592814,-15.241477049967575,-3.1980731199550294,-0.00038310036756194577,-6.384989877855428,-1.1169178756959448,0.00012950278761795917,25.4706674701811,14.949165851359872,9.369493083576861,-3.1850109822022765,3.2901671557599252,-15.22242897276864,18.878226605926017,18.441368573597437,-7.620027107419051,-4.702292609335107,-14.753234960083528,20.060177911592202,135.6070382658347,0.003993816760717872,-90.74624892608209,34.64961390804336,-0.005367411661377138,97.1651537641212,-8.386181097620467,-10.030917297910728,-0.00594265279218085,-4.823365077547123,3.1004871981995064,-0.0007243045768502143,-0.8179801477903964,-7.60655136145039,24.75053612851571,-21.915096186242224,-16.278329729015695,20.324454619069694,6.323665625984852,3.1105915053665796,4.504213967190648
-5.451989369939536,0.0,0.0,-4.259426022671704,0.0,0.0,-7.11815331001954,-8.500048183006609,8.4383198583837,15.141976204196286,3.201002591766142,-18.548326975679785,-16.428961376838966,-3.519384235782002,0.0008795003979294067,-6.4734600432331675,-1.1065735188893788,0.00019628145885774374,26.09570290232948,14.815549192028836,10.160651223141354,-3.3811979092823155,3.1343619842281067,-15.15381151852967,19.63897437698956,18.996922456538318,-5.482490286110658,-5.144028004072107,-15.014828565076277,19.71973197124737,134.2514231357605,-0.0040105837556948035,-94.3063318897092,37.493648427433165,0.005116633353873645,99.64259247815083,-8.636288823065362,-10.423742159479774,-0.0004139687895422252,-4.6668591217882875,1.7206779786599595,-5.29444126882387e-05,-1.1950421631882793,-7.8703927222445484,23.710422714308173,-22.45931606897646,-16.1519570177613,19.22435785115303,6.660462904978458,2.8506481650764237,5.206527353735328
-5.966023444722727,0.0,0.0,-3.53269238293658,0.0,0.0,-6.296662903360293,-8.045456269907596,8.060699868651854,14.931170325576689,2.721928648544592,-19.356011873005027,-17.63076030107048,-3.7333478958873583,-0.00074835191382497,-5.86791198027341,-0.6598121622664026,6.551604119060515e-05,26.803518282457635,14.366939850957603,9.177373133984217,-4.074349274600396,2.9748626156036977,-15.440418575215784,20.21199303682267,19.124954497437898,-2.804515807351456,-4.426012302844963,-15.709257776858166,20.47668338787693,134.45657120701824,0.0013243386411518519,-97.72879213770459,40.56549336815687,-0.006689752973341226,96.66108241668498,-8.1152398318484,-11.422729758065781,-0.0031511191338362624,-2.8275505056125123,1.0655131785943621,0.0011234807089031888,-1.7558465293006682,-7.961107276506241,22.574502506947294,-23.173436982681523,-15.827007707870095,18.099890241522566,6.725064751682793,2.7343180967948313,5.341711618741373
-6.743473638039139,0.0,0.0,-4.264891858258814,0.0,0.0,-5.2376799041385365,-8.270268817326096,7.306192757518779,15.153759902752663,2.542892949663502,-19.916292800756768,-18.96885038286488,-3.5025808952873256,-0.00022184659010380365,-5.255595761588219,-0.6154223951516391,5.226668414673221e-05,27.35700801914164,14.132242670063896,8.964236453146373,-4.672901263562967,2.982885831806584,-15.261856289763594,21.271997727005946,19.57748485672064,-1.4372068582781006,-2.9776434716213465,-16.2654442127563,21.028043726721805,133.84553754765676,-0.003973323022596759,-101.57401956834835,41.96628500223556,0.007378926374905634,99.62048179589601,-9.676576517192215,-12.103245722614279,-0.0028163772883490956,-2.6314743587530294,1.5964092789474533,-0.0005987106404619013,-2.0815319588540717,-7.970955877511464,21.622953616465544,-23.61408320169727,-15.491154652532769,17.18539128438866,6.863110950230501,2.8106757737000443,6.374830076313582
-4.120989638472,0.0,0.0,-3.2388070191738962,0.0,0.0,-5.096931717001705,-7.6599217288359895,7.706106796166229,14.725515967682474,2.0912639751116493,-19.25238123336144,-20.217382653788018,-3.7807940168737577,0.0011171616278725838,-4.574606776193733,-0.4894870300371042,-6.184908708156209e-05,27.735546456499964,14.042978191676607,8.145520415665828,-5.513869187092709,3.040235149146915,-16.323840456363214,22.091633480453165,20.712725068246243,0.046708050009419085,-2.3066753603660217,-17.16799006027894,21.460215949552158,133.38953106295995,0.0049894670445601854,-105.79892334035878,46.59941200029113,-0.01510392234317043,100.7092286298101,-9.328175147838957,-12.493962943501481,-0.006790437757482436,-3.2149348934923125,2.592050938069895,0.0013184858383373942,-2.2917935502400395,-8.361806387048714,20.671658049439547,-23.97190283603291,-15.50779189336073,16.1275225756564,6.822402693623864,2.7527393179658106,7.0150583091237975
-4.799336009327315,0.0,0.0,-4.187170689078822,0.0,0.0,-4.142521568542842,-8.218968777554512,7.534682718765247,14.91901407851081,2.5976043745599764,-20.79411379554101,-21.730686843101502,-4.139344923632901,-0.0005184458943978076,-4.266999806966922,-0.45898540602534615,2.93155078935476e-05,28.449185100566986,14.371150207076475,7.449911970207644,-5.98397508732639,3.3240053493442043,-15.506737758472449,22.58345645021353,21.023037481860207,0.1166367403611738,-0.7833965669428189,-17.49851706369909,21.880764436112205,133.26262934340673,-0.0037889100994340894,-109.54384033247882,50.21345114215189,0.005034305841721645,101.14879634000533,-10.256789144268202,-12.799230009664681,-0.0004388688820221891,-3.886812778364854,4.895575406199752,-0.0027562130593847688,-2.3443248194360238,-8.622635259371151,19.911166560530503,-24.132525178103926,-15.471558983496841,15.302280965364321,6.8767131097184215,2.954867401131225,7.5219615123814405
-3.5569771334182727,0.0,0.0,-3.3852893931674495,0.0,0.0,-3.872358036277714,-6.824535941722706,7.330878445610283,14.717237322935123,2.6352479882785285,-20.485280045204792,-23.0636359534034,-4.285406104010589,-0.00022687782571960763,-4.341882802948937,-0.4960808459740113,7.798811572920196e-05,28.862440217477065,14.055521649226945,7.383429899803215,-6.26495788968771,3.116957485494064,-16.07352922978452,23.424574451966063,21.734539943873386,0.6077241372394112,1.0102321385592805,-18.06091266989898,23.01117703823717,133.06328609365872,0.0020053701260321524,-104.72065390947769,53.07988873546732,0.0004796154351859359,102.63466836188371,-10.6576248458641,-12.036985442363608,-0.003942963861841561,-6.728246460806073,3.815182620100349,-0.016074063447928597,-2.534274099926678,-8.400719952035406,19.645594291693193,-24.327422415203053,-15.167992604019895,15.134824203775745,6.955313685392502,2.9254723664663547,8.012715097353198
-2.4556089049911582,0.0,0.0,-1.789954516065377,0.0,0.0,-3.7447331865670015,-6.778042947938718,6.54217178339797,14.12715648972068,3.675060611001456,-19.87629439879255,-23.88106312260021,-4.161879287786016,0.0007463137524855408,-3.7771773517414178,-1.1566251281914484,0.00011262699579899943,29.263870701710115,12.744371712385316,7.535544733344452,-6.928347790968719,2.755409605582743,-17.4254717163606,23.535129207271495,22.01196338726758,1.2295756535800901,2.8899036517499557,-18.184815403357874,23.913149220641966,133.40174234436356,0.0017318279518345897,-106.62323707415152,56.57717222420585,0.005465798289555974,104.27609550619168,-10.263947478771529,-12.84552356797166,-0.015190883393554403,-8.095196198563649,3.6295864788546632,-0.015541039759094183,-2.3439714293563605,-8.387978481327117,19.818291007076855,-24.117953878088592,-15.21956630412581,15.304111673127371,7.413765298531705,2.0587413000203196,7.2157131094639535
-1.667585495827619,0.0,0.0,-1.7447597601333267,0.0,0.0,-3.0139514427321723,-6.573031605972706,5.760625774239724,14.201331680868895,3.204934529387593,-19.703189461083948,-25.13512275602578,-3.681909594541047,-0.00017672109046669698,-4.346243815115859,-1.4240017345554266,-0.00020708197714662592,29.702401597710104,12.004842523199176,7.754580786952595,-6.88822918847255,2.3358073267330925,-18.075601636630616,25.101415538248347,22.54480336904654,1.6918376393841068,4.14018531267372,-18.287398525240278,22.977801816904154,132.9851035683115,-0.001166176622593935,-110.0670618632365,61.02721606472284,-0.004641943293125835,105.45463066307579,-6.96603360992965,-14.029617810397632,0.0013731668524933213,-6.822833646415494,3.5566755252171576,-0.0021225502069548265,-2.0530565208262526,-8.591800074827644,20.01772024093745,-23.82696259539993,-15.48201061966994,15.415653350227124,7.6594585101680375,1.8553296501052814,7.624357393853739
-1.3617952265198925,0.0,0.0,-1.2996216395075335,0.0,0.0,-2.041358991329901,-6.219817806048615,5.346442402782792,14.220676295069266,3.9803846309929396,-20.405369082834625,-25.946356799738254,-3.613989943947099,-0.0001395232746565553,-5.739554107578683,-1.7242322106855643,-0.00026149330558077614,29.834042679642216,11.506774368855707,8.265422270415899,-6.338207568629344,1.6425228710072615,-17.919899693768514,26.5115620067985,23.262849871392383,0.820458815004175,5.617210239215051,-18.352633860178383,22.85596033883696,132.03664023549055,0.0004492922750182104,-109.87866141595181,65.32811088443421,0.01206829930117583,101.7384621906149,-8.449188761432996,-15.461086313953166,0.0042107238609788164,-6.16065591116406,2.8957683148964155,-0.0003059825878760124,-2.448438305591948,-8.75878560850835,20.050519866208294,-24.236154457424238,-15.649103360467892,15.382594874414714,8.063291841335088,1.8015080278481426,8.380037379272514
-1.7668909654601903,0.0,0.0,-1.5085387098859857,0.0,0.0,-0.4015374497999804,-6.616630717200717,5.171448407003139,14.752663179504957,4.648091671437182,-20.681611887339592,-26.58375646093045,-3.2932950221790467,-6.813481413994357e-05,-7.813241894232061,-2.0561284858249773,0.0008392295687454564,29.84721866236078,10.917282109425715,8.706181121497323,-5.509671413306022,1.010421380109341,-17.86350867539502,27.673269924174267,23.856794056975048,0.2168610516559374,7.711441705389214,-18.044476606569845,23.339656637097274,132.17664388427858,0.0008194923780581884,-108.32840898637201,68.09136386169351,-0.0018057920357305477,103.0620352254791,-8.938386086933418,-17.77825599308402,-0.0051024263112506634,-6.192792046811319,3.0237187716043894,-0.004289519683865935,-1.7612817921742026,-9.264929058100202,20.343226356626634,-23.571864496424105,-16.226409977032166,15.466274070267605,8.589416224924289,1.9651439491892793,8.70616263892951
-1.6266765729707382,0.0,0.0,-1.146574783995701,0.0,0.0,1.0876670783865063,-5.640683932049306,5.466913403420675,14.734649408149725,4.642128691282909,-21.168371269278143,-26.665699792025087,-3.7543940428902975,2.5779810737849032e-05,-9.63547519830029,-2.3899237365402564,-0.0007277312298742237,29.28324557162901,10.296632926989336,8.181768226533709,-5.177600475537739,0.4422985372446742,-18.15154879551043,29.246972441710263,25.208550217867586,-0.5996247828489978,9.45449665931471,-17.95812981701468,24.286981379499608,132.02770009241772,-0.0001772933243409846,-112.06101576576228,70.78843740634863,0.001327577021504266,103.44179890026314,-8.332961412312793,-18.034558674482923,-0.0014779128595163757,-7.067308762969465,3.1514311704386975,0.0013672869927075322,-2.062271984744762,-8.691399157770663,19.49376135389532,-23.900413902408683,-15.382060228773312,14.878345864883487,8.817340812356715,1.8850234811313233,8.544773544322831
-1.246885575820511,0.0,0.0,-0.03186462284092641,0.0,0.0,1.9903704064398624,-4.88606328551996,4.160250604291574,14.05792186633388,6.192540960639314,-21.06302525218109,-26.973158584611745,-3.573174856762815,0.0002498960284874161,-11.722211488817782,-2.5918132380696726,0.0016775866700846414,28.731787475180372,9.375698780060294,8.850207169559743,-5.061013789812974,-0.39097323274594276,-18.524190716316603,30.576566162982793,26.147815758768925,-1.5851254866078048,10.435286673651,-18.330560729178874,24.361554397712,131.85285185048653,-0.0007512893959940489,-110.67883479829993,72.799132504153,-0.0008542368089331186,102.81300733664509,-8.669708831548531,-16.628961586328877,0.0011141042110884073,-7.784015166492931,2.686672098431818,-0.00024620157752290963,-2.3026318289606897,-8.61110743879786,19.437416160195898,-24.138289946983207,-15.286815236912961,14.855690605607194,9.315196076057926,2.0513001125813304,8.417307130297374
-0.966285492901118,0.0,0.0,0.19106588782931905,0.0,0.0,2.463057521812039,-5.273968890220024,5.0758681568308335,12.611895076775864,6.725328308172017,-21.12636538931959,-26.896658071320328,-4.134545354587848,-1.0615517375097695e-05,-14.757208877278522,-2.6682267009160903,-0.0016006493908402846,28.05955423778496,8.42657023504822,7.1767103730552755,-4.547245048331952,-1.2945460596479172,-18.452017023845677,33.54807901124166,26.41484077768066,-3.518197782379702,11.391763783437735,-17.852137644046486,23.803372252403754,132.05306053812944,0.0018645437231397848,-110.13226963483892,73.3383647825045,-0.0005772905366997808,101.34255388730573,-6.9627469524303915,-18.373882255730248,0.0010892120061493712,-7.158091146378696,1.1675846571170245,4.239795286494193e-05,-2.766886784733121,-8.359817638651045,17.65430339481196,-24.74817446207043,-14.395582488164058,13.259995747298175,9.75487044234476,2.069896296525429,8.319720783293997
-1.288492582479009,0.0,0.0,0.6959339517108247,0.0,0.0,3.2364157913313796,-3.987592231317923,3.693639208252762,10.241574128912543,7.576315740354957,-20.281601104846164,-26.688357000324366,-4.101390978999965,-0.0002166583451903263,-18.521212937301975,-2.928977518784257,0.0010064964192196958,26.916357711459735,7.507120986994045,7.164282443314538,-3.8897386616381118,-2.245869768405725,-18.495086286013024,35.76470158466675,27.579805614398893,-5.29360295768005,12.430664984568704,-17.74220677047227,24.496966057525764,131.79455275433207,-0.0023561881830578136,-106.76883153520657,73.26186834289767,0.0006625675358672925,101.38129404826147,-7.375500606364328,-18.146524043437953,0.0004943919786118547,-6.92367410735182,1.0325975370621971,-0.0017869113249313194,-2.8655620696529653,-8.576666799124979,16.567607612208423,-24.961409123180562,-14.193264468429355,12.147889000721094,9.93116231483088,2.2056505107157305,7.547091027987069
-0.5671139986246737,0.0,0.0,3.16281008883794,0.0,0.0,3.737937512501401,-3.723555573522352,2.4799223539575785,6.912947504489327,7.684517123716934,-22.12754111929687,-25.683053936979945,-3.4717570627431664,8.613352948943981e-05,-23.98501530129171,-2.5879116111417035,0.000382145144419844,25.855102912914877,5.953000895237786,7.063083847298909,-1.6741887083187053,-3.5649363123620095,-15.973701693562878,38.63518691085991,28.717588457486123,-7.907515794811511,12.724045877226287,-17.20521611966731,24.344682769207143,130.97756010549878,0.0018754904347526385,-107.10427004023113,73.08960202454318,-0.0004320392192350626,99.17247550559554,-7.65957429135534,-17.60963127263006,-0.0007890962173821387,-7.591317396798308,0.29985911745432,-0.003159427611581685,-3.1349096133360628,-8.398924080649259,14.960992022748103,-25.33896413582049,-13.429496820923726,10.701344231502123,10.378358614476909,2.0506562284982426,7.1742108895996575
-0.44233999999999996,0.0,0.0,4.9111400000000005,0.0,0.0,3.5240500000000003,-4.36894,2.41305,1.20628,9.774680000000002,-23.501429999999996,-24.941019999999998,-2.70359,-0.00031999999999999997,-32.27833,-2.8422599999999996,0.0054399999999999995,24.38186,3.92882,7.023200000000001,1.9911100000000002,-5.42653,-13.826519999999999,41.37139,29.06011,-9.97126,12.602379999999998,-17.25476,23.48267,130.02364999999998,0.0007799999999999994,-108.62271,72.49476000000001,-0.00041000000000000005,100.31981999999999,-6.838070000000002,-16.734889999999993,0.009519999999999999,-6.80353,-0.4010000000000001,0.00069,-2.46231,-8.58061,12.775020000000003,-24.825369999999996,-12.777700000000001,8.57658,10.01775,1.6690300000000002,6.99333
-0.9265197580344516,0.0,0.0,1.5035638500912185,0.0,0.0,3.599158111632239,-3.6505898327623054,1.2666642382168343,-6.360387708773331,8.920297184974126,-24.240754977507056,-23.458932706889268,-2.1082674668611827,0.00040864334888351565,-42.44010379341718,-2.6581618809282133,-0.016953695645586332,23.049433156646884,0.7412127616039498,6.0844985534241784,7.178886035658644,-8.047913171506107,-12.654640038207424,45.131086069964724,29.048889003405865,-12.804090406605889,11.825787264293027,-16.962699587545607,21.470366035175516,129.80992356402683,-0.0007180350346888886,-106.50897683213138,71.7898675698697,-0.000475361795404198,100.50992929760658,-6.438481001171517,-20.184075332452956,-0.00795666961146121,-6.268320223863743,-0.37480538755781806,-0.0010848775933698243,-2.375343268186833,-7.903194746847672,10.394310745271017,-24.8058586728092,-11.253594339146535,6.613285339359032,9.822576358331105,-0.1805766259866753,5.695565060853199
-0.5699246084140064,0.0,0.0,-7.776357194842644,0.0,0.0,3.802267509352643,-3.8582602265217734,-1.1554280118728746,-11.093984195599395,7.90608909539158,-26.616731859207583,-23.248948767703553,-1.2737759260860269,-0.0007469577403536156,-52.70651172998801,-2.028246392438647,0.018176182726967086,22.144185408033998,-0.9361380443453214,6.15320224015438,13.169879160453387,-9.034598825077195,-10.5780337275694,49.158568479172935,28.85238678482329,-15.430127762769065,10.939955496810114,-16.810314086504757,19.89079757391942,129.08549091576714,0.00039791462458306764,-105.15464186245659,71.62823651202923,-0.000915336937920604,99.30479354038465,-7.829339929266175,-20.677871638612515,-0.003682491388455492,-7.741233619456293,-1.5484628112975707,-0.0038232665197969326,-1.8528969525310348,-7.580399579642027,8.326756772765103,-24.33976785202602,-10.172576208624871,4.811893175350195,9.056948886765559,-0.8164452685307622,4.040963746750755
0.9805322530524031,0.0,0.0,-11.337342354543013,0.0,0.0,3.016389206357498,-3.7833435689400035,-3.203069041389715,-7.6458046254401415,5.890844468049061,-25.848529066975058,-22.942336629037015,-0.6948719949261274,0.0011608138837042776,-61.32159182580773,-1.02825030929266,-0.011560698271659894,20.951114167746848,-1.7380430041974981,5.242321835609195,18.897005362698195,-8.431118444166218,-8.39169825186537,53.26590320979566,28.801251157914482,-18.148228507951643,9.820568359168366,-16.65042145829895,18.23947390417592,128.70319122942965,-0.004118316303039182,-103.04203281294609,71.66748993703574,-0.0011489182677995892,101.86291314030191,-7.687069162800043,-20.480184592209827,-0.00015742606558937687,-7.102053119499804,0.14570125371958628,-0.005017106035367976,-1.372664462347092,-6.821387589903967,6.440891605276721,-23.862942065615478,-8.755615321383726,3.3536489232739677,8.167429744167416,-0.6254554282798693,2.0148355274287026
0.11681950199018219,0.0,0.0,-0.6719285003762165,0.0,0.0,3.436739069923526,-4.217048091547804,-6.333064695987446,-4.000345705143082,6.015068139217721,-25.24397843801983,-23.578321490095895,1.08077572313676,-0.0009522433333192646,-69.60961595412104,-3.5451071564302437,-0.0036453573886075126,20.14678987322214,-2.568933450301614,6.1058791650074085,25.722212701124345,-7.366733410189578,-9.567577031293728,56.68625275361696,28.435754459000826,-20.90708354736618,9.344746388613931,-16.478363117952924,17.44942977652391,128.50687073696372,0.0025365681712848985,-104.03926010535311,70.41081011954158,0.0011151683704399484,99.73782640922708,-8.386865928566804,-21.380995498233293,-0.0007490867351627161,-7.3800850617670495,-0.9243103560950351,-0.001948099267783298,-1.3420577888855172,-6.106703410564286,6.034572620984791,-23.801233305442814,-7.9408787561162155,3.2527116706618457,6.855633174167396,-0.885070199994209,-0.07990861439141828
0.1836238776805493,0.0,0.0,2.13885510999695,0.0,0.0,3.215740143330158,-5.110193273276552,-7.816152410126404,-0.4849216907277946,4.014201301030524,-27.63515956161782,-23.453262686810174,1.9527781214075073,0.00024321267832357597,-75.55059866655058,-3.084130891859927,-0.0007832921686352663,19.155881134775193,-2.181517873847346,5.544736795621289,32.92473259620216,-5.171499977595349,-7.993646654176476,58.93913636453811,27.842645326056957,-22.831002430899915,8.18896874477569,-16.395360649214926,15.090636792550013,128.0165064433039,-0.004093507561276177,-99.51739849305575,69.77940810586104,-0.0007592539473392621,101.50186230574603,-11.195289356145276,-19.44745685307557,0.0019372468329432,-5.844117213652927,-0.5842889149157087,0.0008467089819811659,-1.9049232245541265,-5.860180421303285,5.797454175775201,-24.35629559209587,-7.6229717447704255,3.1277695137680652,5.8153934142831165,0.2707599085545726,-2.040963973580459
-0.10558566260692774,0.0,0.0,1.2916317532878043,0.0,0.0,3.4504833356882267,-6.12228005821949,-9.960897837789851,4.273851093193339,2.579593323865421,-29.33795738276354,-22.88974711863905,3.434095615281088,-0.00012566732424200476,-80.09949497263473,-4.270341049909625,0.0009877327008366696,16.949795487862637,-1.9557402885996025,4.431620794266628,39.36432134693699,-3.2531526906596966,-9.270749888348924,60.96766742745463,27.206337785354126,-24.474823461585224,7.288962557861751,-16.36231746300028,14.221931938342323,127.14844323743624,0.0030382518659117026,-97.03609334486099,68.66354916452299,0.0027282154573943372,102.47888981963385,-11.559369273771468,-18.20149158211775,-0.0010959819613116874,-7.1736139057644035,-0.021819634857423567,0.0022246414399559266,-2.667553375573109,-5.317847361417919,5.044512946037032,-25.107189167654223,-6.835613753625602,2.6383569849757453,3.976108942220373,1.4879891742803604,-4.440793215025763
0.08351546325923465,0.0,0.0,4.8845152502283415,0.0,0.0,3.5629653542556645,-5.503416985062582,-10.5676280453519,5.025156565856676,1.6725030448968345,-30.968417227353527,-22.366672782114644,3.6854294889677126,0.00023415832553100291,-83.58443249717183,-5.4077093474316245,-0.0030510543575776087,15.608109855526346,-1.1121770273299447,3.4476519992786607,47.11737296598336,-1.718460846003222,-10.837276830625875,62.48374735867099,26.57101887713326,-24.814205813368716,6.349664747580425,-16.57511671697362,13.487888935708892,126.48999739100215,-0.0033149025620675785,-93.43798823184777,67.23686066281921,-0.0008951017789562271,104.07339900707886,-8.974890225958088,-17.43600161270142,-0.002125634065406772,-6.93991150533231,-1.8998583063933252,-6.857386728882063e-05,-4.251557926463933,-5.306217633852672,5.531824112203906,-26.6813191524554,-7.010040095999819,3.094608696843984,3.0021583421365357,2.736446720630928,-6.2843014207072
-0.39047930206199444,0.0,0.0,1.632073718746707,0.0,0.0,3.698762713418528,-4.9734556362062365,-12.863440292089097,7.599244335005593,-0.6567954578764057,-30.15205363899688,-21.78097280915036,4.161417065150302,-0.00023818096841359224,-85.19737605655658,-4.382996943668418,0.001038444062672667,13.52754398634535,0.3864427298242096,4.377524258924348,54.63966311688055,-0.30662852191688805,-11.335651818806914,63.76961290274103,26.12594947696218,-26.200600629987346,5.982114363330713,-16.956783313973812,12.890584240695938,126.02521211572494,0.00048817241777117707,-96.457829410447,65.84151666591208,-0.002238246017849984,99.57858196139924,-8.584341852548995,-16.819268719974087,-0.004299983551962621,-5.449766405499427,-1.2513373613181606,-0.0005139879849282135,-4.947202622837774,-5.584843821644658,5.095840435860059,-27.398397362278942,-7.101894981467551,2.5832322370707903,0.9608225772185068,4.185241844010538,-6.928598232936219
0.21910157674493522,0.0,0.0,0.779795810630315,0.0,0.0,4.10917235581356,-4.509476680992469,-13.552843903896392,10.737912911268054,1.6679681756618792,-31.502918430427393,-21.059880447265876,3.959739027739327,0.00010595113918882177,-85.72371197549224,-5.063701990143512,0.00027691920547052805,10.427389953709833,1.4342325711907031,2.504898758028423,61.284914169431914,-0.1822012824178009,-13.425427827044516,65.44244137043573,25.284985025496105,-27.114419496326462,6.131478465623163,-17.58931915181327,12.764258096341718,125.49827432264965,0.0007604274413971351,-90.2919454874738,63.805403976118384,0.011373646557193555,102.43345842929901,-10.353479289789165,-16.95743361110164,0.0002896254911931345,-5.745004765506367,-1.1218503956561214,0.0021188638735388596,-5.706773704120373,-5.216271105189142,3.7345292124353797,-28.15990894727346,-6.2436493833642785,1.4638753065446886,-2.0980151241655545,5.339406979904702,-8.900962385857389
0.4063014694677317,0.0,0.0,-0.5321291401345531,0.0,0.0,4.777214196941984,-5.183373327721917,-14.303885781599012,13.887841885124269,2.4136133990768895,-31.07999937725162,-20.885914618612023,3.935788005702412,-0.00010200323117022118,-84.67860357705484,-6.04358324662771,-0.002646613258653417,8.183890468069908,3.066487633831768,1.2498587598969078,68.01322342787243,-0.35261419808105526,-16.26180108806305,66.52247471202212,24.1483167176874,-28.539287725619218,5.634994113096174,-18.651996180605703,11.977819952010103,124.6762488178976,-0.010775155750837425,-90.42836658234785,62.003076399944014,-0.00896112610626067,98.92558689472219,-9.826958122648186,-17.555296289301136,0.00013560699339762214,-5.770124155632879,0.4638801824699411,-0.0025635060749600986,-6.998754575655776,-4.958664702439237,2.6980315297855144,-29.448842558544325,-5.611285189029796,0.6034975668428687,-3.91351739929096,6.9438058570694094,-9.698672218890824
0.4763905889054061,0.0,0.0,0.8396880811479186,0.0,0.0,5.248952011788186,-6.204264921695813,-12.840236689739783,15.380701553584684,1.6307525564032503,-30.157539837323917,-20.68046140305997,4.79822326609276,-0.000360332442351609,-82.39359543222898,-4.9593550215729865,0.005246785021277249,5.015931893438402,3.2840352808133533,-0.36842270082315587,73.92693098509767,-0.25410494208398443,-16.402868535084934,67.31373489861916,24.152994413859496,-28.9236503944217,6.12812591399133,-19.43534585239028,12.123112234884369,124.40203501585411,0.0014216762439966293,-93.07889875406728,59.09461704436876,0.0039031152002402428,100.49304466136041,-8.939486254195547,-17.864061212283673,-0.0020435381188442505,-7.754153892471923,0.2778240818032073,-0.0005128494492242243,-8.224976171870372,-4.827366064326914,3.0042206154649764,-30.668554412870108,-5.6064109168032665,0.9371890947126659,-6.5265330379470425,7.73745449218439,-10.209264880941607
1.5835247567313322,0.0,0.0,3.381761868827957,0.0,0.0,6.728273744429057,-5.488821407653191,-12.056927882248793,15.759658357647155,0.6983573633802129,-28.18579598171914,-21.637778580324955,5.001879840136565,0.00041445950710864994,-79.32635208687672,0.559971546142832,-0.005353785240450832,2.6884968301008945,4.402008071655029,-2.335282908111441,79.20664589370854,-0.6351135966643899,-12.44078754188981,67.62257009684848,23.71563190306461,-30.382958157281937,6.691574659750694,-20.599557353331207,12.388551564477767,124.10241051751343,-0.0022176384740266344,-96.84085340576081,56.895602654373576,-0.0046278650309817555,103.43831781716801,-8.86607421727847,-17.97876341988746,-0.0020592156794073304,-8.92519846716009,2.554323972744603,0.0031517336771501618,-8.82334979344186,-4.018888049184216,1.8073403547185258,-31.24421030597964,-4.403761753489685,0.13963244882839404,-8.593245724117276,9.390623838449024,-10.695078167433953
1.6767063714711776,0.0,0.0,4.363491736691265,0.0,0.0,7.942921551635265,-5.32690842788995,-11.454510850610832,17.15444474339298,2.165827332717188,-25.37110393809491,-22.558459844452326,5.045892889355626,1.0872231836500608e-05,-75.60996411555907,1.650423298728652,0.004590446508095174,-0.01174388527013509,5.618779114666221,-3.49768210538718,83.33599002854123,-1.3290119780924756,-12.560178749879332,68.89208747754509,23.57993302443077,-31.380723435801755,7.916116745645271,-21.653746304667145,12.539871223571607,123.41456061269307,0.002440915827461417,-94.37346018760637,54.173362729419566,0.005551927071245894,105.76684232939851,-9.23977128851056,-17.197599067969268,-0.005327860869815405,-8.459325351771515,3.5976766094698767,-0.005155682428810479,-9.238987379090013,-3.91837379221121,1.6788243734873909,-31.657026114848904,-4.261947038678864,0.059220348206959726,-11.215287067236991,10.734740537604873,-11.015941265237638
0.9853890114323074,0.0,0.0,3.2337706129012,0.0,0.0,9.54109612767152,-4.925966806867675,-12.047214770003144,17.279690269186553,3.5693223999517767,-22.174133844171475,-23.369267624552542,5.005367916541793,-0.00012924094254194686,-72.05565173347554,0.793123268500153,-0.002387586458484474,-3.0567308749614464,7.6757185136409145,-4.066072568777041,86.38470902084137,-2.2651599626578194,-14.892905275161194,69.44268681702928,22.992740648550992,-32.35441142910388,8.481979510077132,-22.730723236926114,12.534905491133225,123.41872542814461,0.0006751516477992615,-92.64362507171228,52.62166971862885,-0.010307129247231043,101.60214602393053,-9.208710735593971,-18.78592685864981,-0.005687566170105723,-8.054186914970078,1.8037776619332573,-0.010872537745915366,-9.52783575646884,-3.2687620060044016,0.7286621453159026,-31.92788886215421,-3.2998840046748246,-0.5711975464642961,-13.89145704822126,12.563091590193352,-11.59479075178873
3.5369281427514254,0.0,0.0,13.217871460267785,0.0,0.0,10.299829143559958,-4.829150560118217,-10.895216208158786,15.275319785409017,3.9929603066295387,-20.010294639814827,-24.56427953193719,3.7359475871948264,0.0008451087463811024,-69.81769356453536,0.5198296626161419,0.0016363966937924528,-5.180145269700364,9.490454353908842,-6.341215375106841,89.86091516122332,-3.109379526517551,-14.935374939069199,70.07309531072355,22.790976829153937,-33.228522752117264,10.355991944254317,-23.573328046653284,13.367923521352367,122.900682786482,0.004028063346481747,-93.93544506614295,49.3608258281142,0.0010410488468414964,101.59596865756731,-6.587544920118066,-17.052789566158836,-0.008657337882191252,-9.365106501048558,3.718052377558253,0.00011155726304965811,-10.115429902116988,-2.2199244903052273,-0.16481423940718945,-32.49236835563429,-1.9902002119770532,-0.9973613348056607,-15.632139959171438,13.559577166873552,-12.351707139940983
4.038782973034265,0.0,0.0,23.204558782361236,0.0,0.0,11.24718128955154,-4.642192350802549,-11.436528187007733,14.012484376016788,5.437727809957475,-16.534777055528814,-25.363956716975427,2.7940030420668043,-0.0003664311124485421,-67.20130123725976,1.0076425819908303,-0.0002508660687830467,-7.673874633310518,11.551844579244793,-6.3221389416527,92.05780910377581,-3.895607795394166,-14.509141613505074,70.6018989796718,21.924277591459305,-34.66982725917018,10.604045847451607,-23.9093360005934,12.548521742914165,121.79343492854753,-0.003004950223529496,-90.77435627215895,47.0648190958695,0.0037100779537775266,101.95907899024647,-7.962899367927872,-15.54707657558249,0.0007921764551457114,-11.059322209954322,0.3377204423598416,-0.005584667711540262,-11.156627953670702,-1.6034909703759812,-1.1384412643759199,-33.51874584514853,-1.0498087972047772,-1.6628595894582536,-17.56441296557478,14.217154727479556,-12.816307650688096
3.56985,0.0,0.0,25.34966,0.0,0.0,12.461009999999998,-4.9385200000000005,-12.496829999999996,14.2226,11.152280000000001,-14.26587,-25.99861,1.68811,-0.00016999999999999993,-65.91343,-1.50835,-0.00023000000000000003,-9.88605,14.094200000000003,-6.571749999999998,94.07571000000002,-5.11007,-15.668260000000002,70.88242,21.25382,-35.92172999999999,11.104710000000003,-24.77915,11.165109999999999,121.31703999999999,0.0011499999999999998,-89.34021999999999,44.99721000000001,-0.004519999999999999,103.67039,-9.10935,-14.45663,0.00022999999999999995,-9.050530000000002,-3.45453,0.00787,-10.892660000000001,-0.9105099999999998,-2.20928,-33.23795,-0.001740000000000009,-2.3894599999999997,-18.79062,15.39087,-13.516209999999997
3.8558028671747246,0.0,0.0,18.735614356251297,0.0,0.0,13.317015830293242,-6.7206043103053,-14.310391445124113,15.873279961971765,8.94787913412549,-16.353330042549004,-26.651044389147568,2.0968601743772384,0.0001641733843364381,-64.96399246606526,-0.36399263718457364,0.001337727220428741,-12.018080360609927,16.195335882694277,-4.432772570477516,95.61161716854505,-6.025254306831116,-14.306683566086907,71.13790161009041,20.68710876912595,-36.88285166172922,10.955330135915347,-25.32870124465403,11.092043609965076,121.44204643434443,-0.004017215957171641,-88.02403327113488,44.16748372107877,0.0030579779805159457,103.13014171180293,-8.83125302253974,-16.546864543422004,0.004140561414868366,-11.168945243202788,-1.1779469816398245,-0.0036055283756526195,-11.9124905611926,-0.43525481746256356,-3.510067755732797,-34.23420285572168,0.9321229463322911,-3.412028587909516,-19.861480639734207,16.3789858675286,-14.324118853307182
7.212735752261144,0.0,0.0,26.95892452459544,0.0,0.0,13.838200836499096,-6.697298858925138,-15.229917781660914,14.337257041860312,8.325588162672206,-16.894551645863395,-27.699716928910647,1.4837273054935947,1.6624810310954473e-05,-63.59115959441907,-1.2112186248620713,-0.005106958907022391,-13.630589420169251,17.75511619450387,-4.1292558577829945,96.60015507818802,-6.677649888168698,-14.573725560066627,70.82205233885172,19.861739756054707,-37.71338616625167,9.163167499163224,-25.809595066017714,8.800490708909892,121.02304396704152,-0.0007015599639669366,-89.52110240854635,43.97735704413085,0.0011840307224296458,101.85300103996207,-7.529565755989911,-14.369886144345523,-0.006345068754799603,-8.1380262370238,-3.018433577694059,-0.000592699016781406,-11.826913270851835,0.11211668457209595,-5.148203808216514,-34.1098221235498,2.0602318753688467,-4.7203416634509905,-20.28005644878919,16.649004001131164,-14.864520476873821
9.229076853193932,0.0,0.0,24.21238120056246,0.0,0.0,14.71050079978578,-7.292326971195126,-15.646115041851042,16.4448812187542,8.52580548782987,-16.765785949700042,-28.803976565011908,0.6034750224823395,0.0001712768206162779,-60.45573805155253,-0.3956353907027726,0.004977927282847143,-15.037401929552624,19.135802410986077,-4.90011311537498,96.02843554334044,-7.253230145121097,-13.049508043145018,70.7885563893705,19.107746289802513,-37.81370990021262,7.641579116436511,-26.40444907189261,6.8293668947421935,120.79665871619966,0.0006952113618867939,-89.77391325646659,44.04721673734171,-0.004585499444310518,103.03949917031159,-7.291704194500434,-16.710591908390704,0.00497452192350018,-8.575205170236767,-2.5435796632034133,-0.0017496022594790887,-12.260222369032387,0.7996682244192261,-6.42136177854019,-34.511291361198595,3.178922746203777,-5.638953354801025,-20.98245577481274,16.976083525291806,-15.454057737602152
8.510262351059046,0.0,0.0,27.58600739328936,0.0,0.0,16.082769915603492,-6.79575886436752,-14.941084633322008,15.60559017313802,10.445463694232389,-18.85066529522802,-29.852222358330327,-0.25418342951384437,-8.81183478745186e-05,-56.19049518336378,-0.9036438396665144,-0.0008229055245550869,-16.004002408798225,19.692504396378133,-6.4515017394185925,94.4167117666766,-7.810251299446606,-12.587314170840342,70.97954245595422,19.50431651113963,-38.72363573496442,5.719880117884229,-26.666033692918404,5.5978683952699635,120.32784458494915,-0.00029249644766760497,-90.67478137602589,44.2760572896858,-0.0010222436391526246,102.06526847816784,-8.398150608718206,-17.64772605049606,-0.0069980455986048745,-7.744904563844349,-3.812619918892529,0.001072065523923518,-12.298458053776052,1.4506571780648698,-6.7678374717263425,-34.55174003037728,3.912601535545602,-5.713186740152731,-21.383614153022464,16.528325734709192,-16.91646163691484
9.761329498564862,0.0,0.0,16.174492190460683,0.0,0.0,16.51089347829216,-7.117310245508546,-14.087832266121975,9.111517083195917,8.321021608566031,-15.290789937971553,-30.397035947296192,-0.5898948131405811,-3.208898466131477e-05,-50.97500020475773,-1.9839484665572054,0.0016313025965562502,-16.563914839313764,20.019480416080135,-7.848881452715733,91.93066402858064,-7.66856845918248,-12.813439285052098,70.58106842150507,19.302313257306892,-38.67259794974727,4.3574295337961715,-26.8171020017717,4.434086687060909,120.34259857075678,0.0008586144025298743,-86.90415703973565,43.0757075896011,0.004848224009381456,102.85476644250788,-9.492086286035475,-16.74996525387955,-0.0164306568949921,-7.920411995229874,-3.736578188782906,-0.0012361901862265351,-12.975421385582068,1.5330724433791962,-6.805704545016267,-35.22942903160648,4.003219084539726,-5.717021627346746,-21.313138817156627,16.613612547671007,-17.3855526097289
9.905376705243969,0.0,0.0,5.014784584247055,0.0,0.0,17.010205277174425,-7.363845717604721,-14.106073581379814,7.8046819196766535,5.3586207031274755,-14.891761947444863,-30.589770760750035,0.04408291901395332,-0.00023308806108718354,-46.625772236632,-2.391126320170903,0.0017153852680029194,-16.83802675953277,19.254956368926358,-8.703882319852298,88.98715440305885,-8.211521648264968,-11.412171985474924,70.17113712774348,19.192676099286178,-38.51307719744622,1.6976575948040422,-26.675776415980287,2.79923341449287,120.38078344071528,0.0016272707530285684,-85.46163261396342,42.599925425769285,-0.0016639016802823237,103.62534277945413,-9.5556175162027,-16.71842197318249,-0.004816407298413685,-9.124153231092743,-2.8081557862410933,0.0004430930337467443,-13.942722759562804,1.801621142212721,-7.369293670778651,-36.18205034140318,4.465057451348041,-6.13791444374912,-21.105056997842816,16.058861865854357,-18.539485982605
12.405524993971916,0.0,0.0,1.8508232325003746,0.0,0.0,16.295122009822865,-6.8278776899849305,-14.076034755382377,7.01157092846887,4.959411002509724,-14.723157575715103,-30.288173079602828,0.5370898950862935,0.00014930271522691708,-42.08242277436766,-2.5138932527834212,0.00014487806048113513,-17.304105959481593,18.342148414654392,-8.791335203562927,86.37260893842777,-7.732797508472887,-10.182476108885728,70.20809813368298,19.968167870329296,-38.17879567847748,1.4592551317696163,-26.15782435878826,2.2084339771554466,120.38244039035719,0.00016604044126163357,-86.6072639308279,39.93141939201631,0.0040823195303363756,101.95177898483877,-8.71127075117096,-18.2112169693176,0.005413867858903175,-10.036450555646965,-3.069439361503906,0.0008295858126630709,-14.696008282259491,1.639222694344812,-6.417656000635228,-36.96703894869873,3.954501200792197,-5.316859090543641,-21.329810800400168,15.449846390763518,-18.907811834335376
10.530877599155263,0.0,0.0,-0.19843150498268525,0.0,0.0,16.789014316816175,-5.9245221719421135,-14.06441959307843,5.1585099230501426,7.300674494883231,-14.51687237912852,-30.06451777512956,1.3670180221046553,-0.000200030820380522,-39.018423235737174,-3.2267777548334347,0.0010578986755199994,-16.49406604823513,17.145614182533635,-8.790605690728,85.62627840573336,-8.0277400512343,-10.556499407775386,70.23164178353412,20.95370465924218,-38.312804509314546,0.9645318158658774,-25.48993993472754,0.7125746405230656,120.71891278321577,-0.000478707728200399,-84.59032053415494,37.38291110135305,-0.009832627800312688,99.48009487699237,-10.745106394455492,-13.969749849822955,-0.0017547046763734656,-8.857830358233235,-2.7033569648018005,4.274162626862318e-05,-14.866684578362317,1.5299832742415436,-5.797440144903176,-37.155789970002175,3.6183617654588063,-4.783418856959221,-20.74625599235546,15.034316960774722,-19.154674591482706
5.661340481543652,0.0,0.0,-1.711658963841472,0.0,0.0,17.032501587305,-7.264731390354527,-14.111002562834155,3.695792370905375,8.772366182538086,-13.283497045916322,-29.322224459564055,2.753941780210245,-7.674572699524562e-05,-38.203369268680376,-2.874771881256982,-0.00065356361885659,-16.093536822572,16.413849879471417,-7.558332524344896,85.5591027535935,-8.089085643062573,-10.587546391228631,70.2231638908894,21.085157525860797,-38.23263570893893,0.7871267123216327,-25.211358647324374,1.370400007539069,120.58024795216105,0.010314873333627772,-85.82936691876282,35.14083317684734,0.003211897279218504,100.01263757469539,-9.486529074747178,-15.524687013930954,-0.016385791516719976,-8.110630423649189,-0.7884425336846261,-0.001239154220009627,-14.517981479864698,1.181402272421391,-5.6631937720020105,-36.8034317836724,3.2449208720602387,-4.791443340855702,-20.44365795979057,15.476460255078237,-18.295626719460124
8.367552427708077,0.0,0.0,3.5659840919328545,0.0,0.0,15.689336634845391,-6.446252787293338,-12.447938761940152,2.230505163078034,11.550432968627169,-11.328527442470225,-28.451751761449653,3.631745380224026,0.0006662323065293931,-40.20453634036145,-2.7320868804638874,0.003162252310853219,-15.758046943167177,15.065388702697582,-8.58818292391161,86.05963123167336,-8.518149765135325,-9.51857394293799,70.34097056892938,22.328972020726127,-37.80557290260257,0.9115116979026945,-24.617496126795004,1.2907697408414902,121.18412637601146,0.0001099220068454479,-87.46718422489565,33.25919235678534,0.0015584749833641577,98.75193432917787,-8.039834142862281,-16.230173161853372,-0.0068641856947354585,-7.027310457027401,-0.7058330604721753,-0.0008834467917194532,-13.368144266951694,1.1459401874071662,-5.130558283470886,-35.66896032113059,3.010098342119035,-4.311458596442866,-20.809194037789986,15.823665394487692,-17.65149569347816
7.69893329414171,0.0,0.0,9.10316638322053,0.0,0.0,15.044932055243576,-5.659505233237471,-12.105754647994228,6.065493649100456,10.508175027809195,-14.481558135050912,-27.341636336121752,4.2065005286249955,4.3532733530431914e-05,-46.81917210520993,-2.139603183693972,-0.004298272290761798,-14.760593453781192,14.860842691744171,-8.558323913989783,87.79424733171611,-8.758814294640725,-9.816394648063627,69.76415932531361,23.63626695120923,-37.424892859401055,1.299195126834592,-24.00802254669131,2.0628935690097188,121.31269052727767,-8.015235127917394e-05,-89.43427799988768,31.507191911233676,-0.0015586575221839705,100.41317250118301,-8.45310188896962,-16.162589341403137,-0.0015353091449454178,-7.369706785835176,-1.3722104800346087,-0.003317245569172828,-12.996629831620176,0.5998223459356687,-4.205173031625005,-35.312598582147906,2.153625741643587,-3.6620814244100033,-20.09637318868002,16.845278965096142,-17.21069596110109
5.060804828810182,0.0,0.0,13.698946807838206,0.0,0.0,14.549972233934477,-5.584200959720515,-11.554652159989088,10.56266833384033,6.894757080266374,-19.113675915599746,-26.715799886625913,4.66461255499015,0.00017283150285874496,-57.274356355070424,-0.3339353119463769,0.005236111291427411,-12.75596415097992,13.8729999198813,-8.768282994652283,89.97992640938712,-9.030604698824579,-8.775153864601792,68.48083088881697,24.392325507592318,-36.083242114752856,1.192945144571641,-23.16222406479978,1.8951044335971927,121.98082234967603,0.0014241959810457898,-89.66179746730575,30.717783573493975,-0.00022881559330565357,101.69129255456656,-8.088891044285038,-17.11575414484371,-0.018006456299794762,-7.395568480015048,-2.1553652355923045,0.0009036943817273476,-12.53099189589822,-0.24184668139213894,-3.819978813396906,-34.846847174782845,1.2287290712271879,-3.625306100812649,-18.391581643734217,17.087940566698652,-16.82036983695719
4.416201185242195,0.0,0.0,6.7152084502205,0.0,0.0,13.421821677588301,-5.199500114814926,-11.59518909271579,13.142760516272956,6.228121650277201,-19.369710883540787,-25.06897469110255,5.014700589376865,-0.0005070417127492244,-68.33837668763493,1.1272225941231029,-0.01478927398693839,-11.6960810146824,12.620190544677751,-7.226461913204493,90.76927681062965,-7.678414084818124,-8.226460906918868,66.44093409651525,25.866650091067275,-34.981766705128635,1.1860856911131443,-22.640904464954282,1.6295823906118974,122.44754572528436,0.005686543565796406,-86.86574091016037,30.439566640918567,-0.0006657768499663741,103.03659762527883,-10.739807485827466,-15.814475956369373,0.004382993374927588,-8.156132594795746,-1.1011653961692727,-0.0012744070599163832,-12.58796731902512,-0.16657551620973882,-3.7152218041441665,-34.90692268333196,1.2585810317387898,-3.499786034676418,-17.154839347153743,16.825406383216674,-14.558292278579113
6.443427981763847,0.0,0.0,7.806669916217135,0.0,0.0,12.46458338299655,-3.1712931717020867,-9.33272930101988,13.11367239441768,2.7536757638403775,-23.222240279900557,-24.254326488660908,4.173698936575595,0.0004275707556875485,-78.27405532392328,1.670252902915138,0.022737417808162838,-8.880290044366676,11.589011321530437,-8.050777056027032,90.83873225466007,-6.675778807134007,-9.181634926676697,63.769742623590055,27.536562211059373,-32.886776188236546,1.0922050067673896,-21.93695487245167,0.9456323839263787,123.43184664532177,-0.01759433378689213,-88.91316271714349,30.29688339184859,0.00040527864917485105,101.70235431706342,-10.887102479041934,-16.19086657942373,-0.00035681560040522176,-9.240769691202521,-2.1225276130284705,0.005848648027363966,-12.344890855740674,-0.42717119875491233,-3.5140974288712608,-34.66655260302069,0.9411352384485544,-3.412686365373575,-14.773841179590494,16.70521915768535,-12.582691860517892
3.111394691053903,0.0,0.0,1.1911539030785432,0.0,0.0,12.183919687939088,-4.227771678379579,-10.93780071308786,12.682728194907067,1.105876783570094,-27.005328020495494,-23.431565075624285,5.793639250840542,0.0003608273157934798,-87.3414113386285,0.15253837174171547,-0.0224423669337913,-5.984658738713873,9.187711508089286,-4.245115787043922,89.03652165005478,-5.105547373785333,-10.549766066179743,59.65487342063403,29.885275739923493,-29.82571554460713,0.7596227526910662,-21.67130844320558,0.7553921687114477,124.2886484541585,0.00423718316298426,-94.76463329616507,30.73081763676061,0.0003919986539650292,97.8850142416472,-9.06461503421969,-18.72505669622307,-0.0034140538640593733,-10.584941394943787,-1.6608084474368436,-0.00016571686285444577,-11.858930908192223,-1.6347198374502212,-3.38467983083664,-34.180810604500785,-0.22507407784552205,-3.7516216569375573,-12.205550318664512,15.776307875472,-10.566402066514566
4.159149098958456,0.0,0.0,3.1084111169252564,0.0,0.0,11.069017513948282,-4.589481513734506,-8.836859369941227,13.23072597137948,1.2118013685019524,-28.827496911658802,-22.87615894211751,5.828903331687887,-0.0001592984003288252,-95.41839653601981,2.7376788932040896,0.010813540885706872,-2.5071402748481524,6.613811961589314,-5.4464546797470765,85.06027740228487,-4.789573557774989,-8.058896311121138,54.48540174930968,32.94912229047842,-26.374023641873706,0.8671038676895698,-21.7446903007746,0.14883939381473277,124.4810182725647,-0.0008675246812363655,-103.88232722335833,31.615371084725247,-0.0014253002377103612,98.51466856833963,-4.491486842252063,-16.183201891208874,0.00282057399980678,-10.166606398811773,-1.2807967046725566,-0.0025964943566974437,-11.413128838516165,-3.0240523969253204,-2.472276977001914,-33.76636639984762,-1.8566181395757702,-3.4363394721371576,-8.723196253058916,14.919338417188373,-10.00594056973115
3.0619,0.0,0.0,1.2696100000000001,0.0,0.0,9.87905,-4.540800000000001,-10.174770000000002,14.612239999999998,2.2203800000000005,-32.47552,-22.034589999999998,6.084160000000001,0.00029000000000000006,-101.00306000000002,0.36651999999999996,-0.0073199999999999975,0.7834899999999999,5.00779,-2.27996,78.37112000000002,-3.6565599999999994,-9.847299999999999,49.108569999999986,36.33973999999999,-22.532879999999995,1.0157499999999997,-20.91022,-1.9298199999999999,125.11913000000001,-0.014079999999999999,-99.19191999999998,32.6687,0.00204,96.59746,-6.60476,-14.731529999999996,-0.00399,-9.02651,-1.6902300000000001,-0.002939999999999999,-11.021010000000002,-3.31018,0.2699799999999999,-33.41955000000001,-3.16368,-1.0110599999999998,-5.564310000000001,14.261149999999997,-8.983640000000001
4.234892267683755,0.0,0.0,2.705618102913719,0.0,0.0,8.155993306015544,-3.9148348969732005,-8.915337603261952,10.896412035371092,1.6657949951360556,-33.56552581801047,-21.35099731303663,5.463240211518722,0.00032691342403984763,-103.2256209405109,2.2190786672140614,0.0030194050243011845,4.227964909455724,3.1456402340149676,-2.223765623619418,70.06618155217282,-3.3055041597818375,-7.38093200945081,42.6163273088311,39.68980703629873,-17.94871606082176,1.866484585820287,-20.839051173791127,-1.548924188554601,125.67655037423387,0.00255853662709793,-99.63830731019797,33.72840808946067,-0.002887454879409696,94.47866943515072,-6.417262376320058,-13.516005951942644,-0.00013893100467170127,-10.918085260172152,-0.887014037720258,0.0009326375152194865,-11.235288743110287,-3.507912891130586,1.002164045875925,-33.64174881944746,-3.6250459364588874,-0.4096386913083213,-2.3204844032382512,13.4504083099671,-7.789472242064452
6.645334325473212,0.0,0.0,4.705720893634164,0.0,0.0,6.363554705599045,-3.502345184993307,-7.4454284436638805,7.251709187481826,1.008066399492507,-33.40145440988764,-21.09547259523571,3.938362555801256,-0.0002299511216453143,-101.6034644823088,-0.48703857223784214,0.001324599385556493,8.507122893727576,2.7726772066729826,-1.5400590183887273,61.10963042205743,-2.2251012471866853,-9.370804277431018,35.6506647837413,42.970659670418506,-12.299263273035692,2.677985557659743,-20.174787754045745,-1.9756331762536132,126.15493025882131,0.0030175972331756306,-97.65877788949767,34.92787313306659,0.0027428881020847315,90.66202896165473,-8.380655282999145,-13.8037040793635,-0.0029242392578022213,-9.687551303047066,-1.5220837752343261,-0.00021131553387266733,-11.213224367788348,-4.675714284657782,0.20377863160701465,-33.645613537224136,-4.400871114026259,-1.594070177565969,1.8075767804176912,13.443144232849217,-5.904630741624355
7.755851549884128,0.0,0.0,8.300898409858428,0.0,0.0,5.547750046930254,-3.6406537829818983,-7.371053474825233,1.1470223331337008,1.6724399628162578,-35.59276485440576,-21.78947488202112,3.5432551022510808,0.0010742194325316856,-97.04237827697145,1.2159204311855663,-0.0025901738421998193,11.529699471780564,1.7255831242750095,1.070143589992135,51.102316405595566,-1.5643500233762422,-5.123120061225597,28.6739489342355,45.84539955732299,-6.691919238892312,2.956888179277631,-18.99316645253387,-2.459672469942916,126.47311493713613,0.003112621975211779,-93.66744653059524,36.70365659489656,-0.011833441816593853,95.11856841566099,-7.715545948385713,-14.171594869203105,-0.004999556219255946,-10.051845252383947,-1.8684974806064358,0.0008521084379287939,-11.43654339380852,-4.457295227770547,0.2431275341760442,-33.86305228861261,-4.2139422533968025,-1.4741342019624812,4.390630312731351,12.314380673362768,-3.445509617448913
5.773181283691368,0.0,0.0,-0.1018711631440553,0.0,0.0,6.287033575367361,-3.6312162664850662,-5.952001060492855,-2.403885126282339,3.7608991064065327,-38.91657644862723,-22.532670672645196,2.058229455510607,-0.00020057810841939822,-88.71379399165482,-1.8603180393898266,0.009089950507793928,13.239646908301824,2.288159141126316,1.3722166649735685,40.16918497080615,-0.9613966267405558,-7.3242529976378155,24.193444968108764,46.904863358629505,-2.511923929742409,2.937476283250461,-18.124312625139826,-2.1615802318057233,126.89581069227513,-0.0025449771184851053,-94.55716736278744,39.2648219424086,0.00019359248285615577,92.57414332612257,-6.2392897982532185,-15.007056064858673,-0.004555226623442452,-12.727500605554535,-1.8869196041649765,-0.002641645553195795,-11.459074799398469,-4.036679582650153,-0.7265251426794714,-33.86295144991608,-3.456368573615828,-2.209338191984698,5.476478077700811,12.619753726858525,-0.9488323371011216
12.62287683164203,0.0,0.0,3.033276632750714,0.0,0.0,2.574523132154721,-3.674241120285114,-5.130688091936267,-6.061346528051493,6.549138213442484,-36.38200851232414,-21.9641821699233,2.3331757248064835,-0.00028231980855988246,-78.0909089642342,-3.032697751348198,-0.006858010442677958,14.88757541632316,-0.3203119676101788,2.243958512172132,29.84932612342447,-4.088675734075175,-8.081927807784757,19.150533809998883,47.868646478512,2.276628790905645,3.7700170225002894,-17.50655566591912,-0.6873052652049951,127.16607365212325,0.0009098290948625732,-98.72815973139981,41.60957957419724,-0.004256009868158609,87.63503711948839,-3.6832326187338977,-13.550089920957099,-0.004914647832283291,-10.753881247978661,-2.7443709549102064,-0.0009554595867685917,-11.536113315054497,-3.7684818014748847,-0.8003866685883076,-33.932982424794,-3.180335327216701,-2.175205792579582,6.670586667129698,10.530217574748985,-0.05917602519696574
6.98732536232759,0.0,0.0,-1.0277580599385856,0.0,0.0,4.2723773960877915,-2.5818007075914506,-2.9145059709725687,-3.886346470500465,6.3378560842606255,-31.378773116483785,-21.704727330566527,1.9935612102462628,0.0002839533017843026,-65.30136362389649,-3.281785718058452,-0.009978672681668483,16.352371065253546,-1.1053992809065682,2.9031307542558444,21.13393434779468,-5.676258738255318,-8.706599953952477,14.84712095069057,47.864215473042485,5.805629320079369,4.594500316177028,-16.262113293927204,-0.09698479824594819,127.71167104792235,0.000892798806222797,-100.82193969092702,43.97772291461385,0.005166476316913063,90.46065465887284,-7.056127615975384,-13.129917830064606,-0.003786677823344806,-9.472447870918865,-2.90822476876066,0.00015969437121753647,-10.28725710561024,-3.6426031327202084,-0.2756740782530573,-32.68809081219564,-3.263473638931931,-1.642285375542499,7.237227442952495,9.722491460079668,2.7794739929690326
2.4815909642923546,0.0,0.0,-3.2204642721020034,0.0,0.0,4.778424695283633,-2.619386566206096,0.28572461910922453,-3.2951668866292576,7.821376953776107,-26.85465107206126,-21.113541855468203,1.052475277914029,-6.349696857260945e-05,-51.545150707783364,-4.330245413625679,-0.0008378520643969031,17.533544393209976,-1.2647402783209811,2.7792358593465667,14.040683468187762,-6.774577454559463,-10.856653563130568,8.90657859882685,47.071906007933904,10.728021466258491,6.085057747332142,-15.209908075352258,2.242520974575135,129.81270329532055,-0.0025561735387792475,-96.90910178688864,46.17208417288584,-0.0012984311132048705,93.53303979723303,-7.348106330681381,-14.282433037957066,-0.00025515193242698345,-10.41754044288429,-4.023611543661862,4.7229447329998975e-05,-10.1559939688143,-3.2587507756206358,0.31266184015066134,-32.55373037479203,-3.132374008577128,-0.9519746445195818,7.421283838162838,9.2484815828791,5.538739743828808
5.197610396793514,0.0,0.0,-4.107018513424522,0.0,0.0,2.9948811866834837,-1.7668706684304383,3.215037935759267,-2.167101655547793,8.557025618614187,-21.923651062457072,-20.567376426117644,0.6399507963090526,-0.0002843570196980525,-38.055465286112515,-3.693934155509388,0.0036833116862693242,19.07234674136848,-0.2753159862308733,2.7356406501978885,8.241691231530792,-6.193227361547334,-11.772970074671814,3.831498891528202,45.094602894318,14.560996929676618,6.675361742584772,-14.108210939217784,5.32893776672371,130.9888479468613,-0.0036341606000898615,-93.84296484803079,50.49595114599817,0.0008598064000247074,93.95484769949634,-9.072151021943613,-13.685969634694139,-0.0004766492450496212,-8.409714257456178,-3.4511807841682653,-0.0005660802074640601,-10.226451349270942,-3.4924666062065857,1.2064895006350276,-32.6329579564954,-3.6885067443087602,-0.21480086954010025,7.704030764755718,9.664692563665165,7.512861689829937
2.91911360491019,0.0,0.0,-3.4012324305355253,0.0,0.0,2.0351798920632267,-2.2091978820968863,6.993774766648342,2.3132705931228816,9.378613993775105,-19.33674548867519,-19.46287162982743,0.37691228694046314,0.00021822115696621015,-29.272844792888584,-2.7726592268495303,-0.0019240133400140469,20.604811932838814,0.31405212605219,2.6414190044496677,5.611918994251824,-6.412345676819094,-12.978412088132176,-1.6281947856258916,41.904226258715454,19.014370425995565,7.939989185633404,-13.224573440741944,9.864190084792572,132.54804345020744,0.004321872585351959,-93.6013427479991,54.58596922751315,-0.009021498870312701,92.415165972652,-7.484184998297907,-14.04172068055737,0.0007597004672160051,-7.835007657556172,-4.194166888566437,-0.00030475145831555724,-9.70496257899501,-4.046150948500035,2.567920955845663,-32.12418708768457,-4.718326205253691,0.8327778154364818,7.949249897286517,9.607327304070312,8.599360794172307
1.4690982760222389,0.0,0.0,-2.1290431716557894,0.0,0.0,1.7490547106809031,-4.700986883593453,8.776971241040673,4.293370474771996,8.757162865523803,-18.019683206462403,-19.33282437568864,0.3949993567138574,0.00012418641606415295,-21.91066533906912,-2.28274174911984,0.00023966625340497293,22.052027014480355,0.8469588876707449,2.682381770553122,3.215609701811903,-6.060541742721539,-15.713040279086863,-3.136009028210575,38.07491458224647,18.944700026375713,8.32629184314891,-12.332312759352705,12.783113935053498,133.07549129653384,-0.00673434811882431,-87.8725436029686,60.64346465933926,0.0042574529869162095,96.91788853704746,-9.568641754315578,-13.63641399860468,0.0027358582045516324,-9.620075708676705,-4.025718025211929,0.0005725303359709553,-9.458918481079163,-4.624468161871517,3.135435118763883,-31.894084983793736,-5.468802374380752,1.1364307171256516,7.475013186420098,9.207077657869448,9.247796230802425
0.11400702199035521,0.0,0.0,-3.143583550199285,0.0,0.0,1.2542916716014876,-4.894081202368713,10.238557838546603,6.20756840329367,9.339321660572281,-17.66460650742985,-18.435827137365937,0.22530197366444968,-0.0010274761748355133,-16.57181155215214,-1.61984291710104,0.0020779142284209403,22.564004823450514,1.4660199661282867,2.542381404775591,1.7695394072206956,-5.751060101606046,-18.202897739494393,-4.465680448666375,34.22132647741007,20.029178822180338,8.228882278590874,-11.152262113500836,15.729126110434883,132.83236009839206,-0.0011597808060024827,-80.87019630253145,66.42838314772861,0.00992996647379996,95.60023430813382,-10.97706110505145,-11.024600951055094,0.0005336030457253932,-9.544777802959622,-5.856033269953225,0.003818988994261531,-9.476757846427656,-4.839480834712337,3.6191683995283443,-31.915806901097056,-5.851532806071722,1.5017383701905112,6.606108685736304,8.455930612853258,9.350325494301932
-1.21544858527349,0.0,0.0,-2.9027999690940627,0.0,0.0,0.014032286108445854,-3.678075948571001,13.23776570098715,7.2303643466523875,8.099539331856654,-17.04679882037751,-17.104336394611448,0.38633029232152377,8.752287981729677e-05,-14.803417832395574,-1.0489986570348926,-0.0008409945640549085,23.884040871637517,1.8409279252224742,3.817523978939083,4.088524744405724,-6.3763289004653085,-16.770080418083346,-6.113418126353186,29.573293842725437,21.5790167819081,10.388857523141711,-12.56763936398437,21.836258254868213,132.10416594729853,0.0023964536477630487,-91.12755093808144,70.93753166477967,-0.01025495700916198,96.27444781563483,-10.25856958276522,-11.599857108537421,-0.0009712745864126906,-10.331108120414966,-5.699598569814669,0.0022315358038194864,-8.21611714611383,-5.560407999034034,5.336348240588851,-30.661805830719896,-7.170711174698447,2.815596564988877,6.019820299241915,8.17001276427521,10.065508638966701
-0.8390486998556856,0.0,0.0,-2.520187020393506,0.0,0.0,-0.5456716472171677,-4.590044430761855,14.052402980408182,8.647430633850858,8.203077762935669,-15.376034208922391,-16.904797397233388,0.42667090171849914,0.00012470402123531847,-13.336166618135795,-1.4881578899231476,0.0003730374833636781,24.627390351767655,2.2557695268017453,4.466571505390287,4.661971147337423,-6.299924246211514,-17.30049455532587,-5.518913023281604,27.278737514801,20.532616991676683,10.539855663218091,-12.788429496494794,23.910603819189976,130.63024446904817,-0.002960856821155963,-95.57161564653902,75.87091347843005,0.008945825244937372,97.66282942086761,-10.657095931993235,-12.177715201383657,0.00624001229936265,-10.814057676364332,-5.995454161643595,-0.002705870371648818,-8.55850999518689,-5.071321385308658,5.781244763635051,-30.971916881273216,-6.887639382854559,3.4161864708074963,5.279079172992938,7.022419688451848,9.773055635516753
-0.7366011472929421,0.0,0.0,-3.4763667804076617,0.0,0.0,-1.2934952532747666,-4.580203614316225,14.425124241463813,9.862446336944112,8.237473459222986,-15.251358059510043,-16.566375255906795,0.1549695388599081,-5.7934846100637874e-05,-11.731476785290402,-1.2864796074025349,0.0002222979439494647,24.904508532545186,3.662523938260584,5.144733107112479,4.544236706614307,-5.2931810524384035,-15.91717746314855,-4.644520472409541,24.155255298632348,17.677152892014984,10.558629617899852,-13.435105119139838,26.258736973022145,129.86185184133004,-0.0007068422708496286,-99.59188909930789,80.04674939747702,-0.006999057770378181,98.53600532216541,-12.707401059800313,-13.895239401583154,-0.00036435777241710374,-13.556258577545062,-6.062469325210683,-0.002406156019979528,-7.761967705288545,-5.836378172676239,6.467763639561594,-30.196646423255462,-7.855544558605862,3.7589206763212597,4.186954949559222,6.434759746733725,9.218403579564729
-2.10879662648553,0.0,0.0,-4.140846918488378,0.0,0.0,-1.708575676305155,-4.867792047859764,14.786589638377286,10.316593219472091,7.026279425637456,-13.900595402121812,-16.238145364839987,0.030979751964633588,0.0001401500433261392,-10.30297119178929,-1.2687999258205918,-0.000899986140106057,25.09442258953733,5.432251767947928,6.04908209208633,4.523485932471455,-3.780884572785757,-15.75507180787087,-3.3482834130499897,22.24163962034467,14.410406232726045,10.224636030917301,-14.05156039741151,26.53304791512996,128.5988358157829,-0.001342506786037209,-98.04943870553137,83.75280962564337,0.004651521785279558,96.73473926386733,-11.803863373159578,-13.145697183749094,0.003829618026978034,-10.187847533120934,-6.23192632399272,0.002623479479652296,-7.68330220402698,-6.062298001908157,6.503572345081483,-30.129159644364567,-8.077948929792557,3.7050906821531533,3.1076061139298385,6.439778426874163,9.364576329113683
-4.039304883862454,0.0,0.0,-6.047108647754277,0.0,0.0,-2.1876161444657765,-5.060528915447938,15.647021308994795,10.497773540032284,7.895063610292452,-14.58508050951527,-15.746104685232872,-0.5839398293757367,-5.9824555076128075e-05,-8.396885190322612,-1.5916636686882655,0.0010025082239200928,25.30504017146543,7.310856723617919,5.3722948311323675,4.0860778729999225,-1.7452243684658861,-14.984947260926287,-2.6025650729842096,21.325335862431817,10.854346001985249,8.41414376828091,-15.096619790258934,26.849886273854942,127.43012697389821,-3.87728766326266e-05,-103.00804674831,87.20537697244937,0.005531296943904132,97.66538247673493,-11.17250179044105,-14.239751025431659,-0.0006494417866965322,-10.461632186197926,-5.292781739564066,-0.0008731412279676048,-8.202305089479417,-6.332242994297965,6.321436329446749,-30.667309547167047,-8.25826032325575,3.43186657265303,2.5194284141299415,6.835841832041199,8.786769200485402
-4.05528,0.0,0.0,-5.03431,0.0,0.0,-3.4884599999999995,-4.90138,14.730470000000002,9.52574,7.537349999999999,-13.283570000000001,-15.07724,-0.51555,0.0006000000000000001,-6.7534800000000015,-1.5007099999999998,-0.0009199999999999999,25.146609999999995,8.765419999999999,6.292869999999999,3.4979299999999998,-0.37306000000000006,-15.27054,-2.26984,21.349160000000005,7.70408,6.893229999999999,-16.03502,27.566290000000002,125.53912,0.00013000000000000034,-103.21659999999997,89.19795,-0.0032600000000000003,96.18021999999999,-10.35106,-10.452729999999999,-0.00112,-10.923020000000001,-5.716450000000001,-0.0011700000000000002,-8.066179999999997,-6.36622,6.697529999999999,-30.52401,-8.432470000000002,3.7678699999999994,1.79527,6.846019999999999,7.774
-4.954363122457132,0.0,0.0,-6.762387453858607,0.0,0.0,-4.043571858485458,-6.202861491373101,14.986168261929317,9.532743706668633,6.638322884370121,-12.581864053578416,-13.931838748219622,-0.5199655703691721,-1.8687454859521707e-05,-5.105473846688399,-0.870864763702633,0.00010371563735479557,25.050189260986325,9.921679716739458,5.9030187914288375,3.155414869402157,0.7136375136648268,-15.24580798250781,-1.5635381767099774,20.651746643976015,3.965478097687559,4.347564068317038,-17.36255449022145,25.650655392256702,123.54670601931008,0.0068954831204956655,-104.76989536739451,91.20742161725536,-0.001611558730941255,95.86903406848926,-9.956144607479546,-10.349845054151103,0.007675738639672508,-8.962261838274204,-4.492154644418392,-0.0012369503516217772,-8.859752398809324,-6.266558483230447,5.238426242899971,-31.342585696137874,-7.786060382835458,2.4526718599058763,1.84949010328935,7.124263491576547,7.709699089025233
-5.696280764812514,0.0,0.0,-7.254461272515217,0.0,0.0,-4.620708829353847,-6.427453057224788,15.629674413141634,9.207265187995052,6.644461036622642,-11.902329921537184,-12.916440145657822,-0.80028978178237,1.8926532629813276e-05,-3.6215659676283423,-0.5702218093430175,0.00039824120418239595,24.285730916894924,10.969260363574971,5.74206020464694,2.2489846000480767,1.6227595788656,-15.15250311916568,-1.8727621298583166,20.77229868610409,1.904014640572319,2.5614824586615272,-18.80859910071148,25.23851389883023,122.146638895526,0.004663360857775089,-104.38010462067918,92.39573465237781,-3.8137992079397627e-06,92.96044746898973,-6.183577739859668,-8.47922838799037,-0.004016683905809534,-9.64902310225112,-4.216290174037022,0.001852682301928165,-8.539328962179775,-6.361745369139208,6.674439955693243,-30.99750587626167,-8.41956599162847,3.7481584982702962,1.123408424619398,7.146362571998381,6.940082352019566
-6.452841295578929,0.0,0.0,-6.9747532887396835,0.0,0.0,-4.965375964144577,-6.145554698129708,16.213679996571624,8.652380300899567,6.719938546594878,-11.205899454398185,-12.134711923000737,-0.8066259214797038,-7.876097847569143e-05,-2.1879174933013035,-0.23449868435378515,-0.0001840024487996342,23.822551548230365,12.186149683802604,5.802426283401853,1.6361764749152092,2.6136757141119378,-14.954928720426397,-2.2404173807918104,20.768318404816092,-1.233646140789105,0.0746068686571738,-19.927694806865,23.053232603772184,120.62585639297106,-0.0004792902841195206,-105.6606499105498,93.88349412577799,5.732017411216162e-05,98.05034525305255,-6.589272243616866,-6.7544383550417235,-0.0010511943052454915,-8.530576778619373,-2.2317819181799887,-0.007344369196660904,-8.07972651339567,-6.448764678803449,6.33238496129683,-30.550991462600017,-8.37010056731755,3.397022824609561,0.7712515444348048,7.647583804135054,7.1893564633093625
-6.400284555980931,0.0,0.0,-7.035660647774591,0.0,0.0,-5.184186918501607,-6.506036081173149,16.806309639722198,8.04870624791433,6.401245204811937,-9.914708470416938,-11.700162020532746,-0.7993130889706034,9.078202721345859e-05,-1.37861747565221,0.5043421001158674,0.00036696956968414873,23.63835262123031,13.524940235375205,6.339607241760439,1.55967370925927,3.2363214319956595,-14.462470381897507,-3.0307593618783186,21.2723247310247,-3.3384301640805596,-1.1928206599615954,-20.425988432905278,22.486400485754682,119.76477978970925,0.0036129571098243362,-107.28991178760458,94.71550747078128,-0.00023598396664792373,96.96583776282243,-5.984469982335377,-9.062072745043912,0.0038071519485342094,-8.809739261609462,-0.4596829984349008,0.0024696956365594103,-7.50058594883328,-6.793427238689881,7.3480133312617255,-29.966107673673008,-9.074160348721247,4.20693759945287,0.7173751811212173,7.894870671110665,7.418686064192892
-6.961111108941896,0.0,0.0,-8.260741879805593,0.0,0.0,-6.01678879318373,-5.897072478347163,16.869951114076976,8.196348420323352,6.982669949789629,-9.048900609021999,-11.4053746874032,-0.7843279122032386,2.5543553892016233e-05,-0.9402312663835248,1.3649495005284211,-0.0002678375765093707,23.996559344067926,14.203606263211999,6.449408221266757,1.9001445300959119,3.3760962730366346,-14.680639977109152,-4.582479663110186,21.031230235094164,-3.818001711077348,-1.9539607649222062,-20.862965425565566,20.038164327835062,119.40830673180557,-0.0023053036391042347,-111.37879182317043,94.83338850314128,0.0022635598939425732,100.04106356471335,-4.270556189898007,-11.654062572773974,0.0008450520610256775,-4.855277796097211,0.4251045949162111,-0.0012693535436740884,-6.520737040278891,-7.437577308554402,9.139065050309114,-28.96917134471866,-10.34837043404011,5.623654015570028,0.7384723101408328,8.112225107449039,7.119279876727399
-6.104944243788035,0.0,0.0,-7.9781040032486334,0.0,0.0,-6.357298513477217,-6.560834921233683,16.01690029195619,7.854456445021976,6.625799447927019,-9.006346975744842,-11.283251748171363,-1.0484870052185595,-0.00013243353097730973,0.6703278196158813,1.671577229022664,0.0005182653096075305,23.224755403454147,14.637519301106487,6.412847907207235,-0.044641658314137245,4.021867671113971,-15.171039470747585,-5.745269852372383,20.888029572776997,-4.230655194017616,-4.613508181338343,-19.14571717212553,17.88278241440163,117.94834001590392,0.0018628619888430024,-109.46450240211608,96.24840420602668,-0.019054174565932856,102.77048932444144,-4.33189863341762,-8.71554077258643,-0.0009051940321983744,-4.489686712592372,2.048466943430276,-0.011323276257499718,-6.89680003952923,-6.931526556566975,9.705568939825977,-29.287585318323288,-10.094937707420714,6.3477237904677475,0.4898345161148408,7.6487397721167,5.997040735962228
-4.851531009092191,0.0,0.0,-6.643773067211584,0.0,0.0,-7.516582327603738,-6.644804887715939,15.096572874939055,7.452847650738688,6.820055241929227,-8.35767747781324,-10.929095698977243,-0.7102264983876612,0.00026709243369805975,1.4665621501072905,1.9255933639043352,-0.00035419266055024636,22.75278868651149,14.53986334852352,6.786040867536586,-0.9570453984937026,4.101171443090091,-15.889620788455957,-6.694000919486223,20.5339486017184,-4.265822474709753,-6.235370842309425,-18.096040254849097,15.854974325227126,116.90936784154172,-0.00037920498364294917,-106.78298100692767,97.2422670118238,0.005540611744976013,110.5624760441352,-2.815814307802953,-9.244748900588283,0.0014610201044329967,-1.6602539663984375,4.671457900243208,-0.0008866788438430879,-7.052613400455153,-6.5839994717466945,10.839581812456233,-29.366750627617805,-10.201804879439827,7.540070254443452,0.5648195323980421,7.135219642299366,5.505006550458034
-7.355226595296071,0.0,0.0,-9.152535373692393,0.0,0.0,-6.48720915679757,-7.70800316527659,18.39131286985006,7.8466887117535515,6.716072676995154,-6.822877083804228,-10.874726752312004,-1.0893442433165614,7.709012794672229e-05,-0.5290423903610384,1.9366385312682026,0.0005384790469930417,23.44480213002801,15.81249879876694,6.265019567324147,1.966619160168127,4.056503208509303,-14.397633519641328,-7.088126312254745,20.028042844736145,-1.8082352123352226,-3.9534178729991214,-18.853063401261135,16.893423462512192,116.49380673113961,0.0016846829669330673,-109.33406280236115,96.9108455099243,-0.0020307550833674097,107.13660137168495,-3.418969275773405,-12.414719904693733,0.009741051600586274,-2.5920656367193655,5.28243551474409,0.0011819141900616063,-6.144748258470227,-7.422508532449588,12.381283163883875,-28.43589587665689,-11.558304412367917,8.657678083758581,0.8266467442276165,7.301375584507857,6.835375988713537
-5.65331187439821,0.0,0.0,-7.265850371937172,0.0,0.0,-7.312697340159531,-6.926871274653731,17.42221850935507,7.190679458782779,6.977931139910875,-6.017316913572256,-10.665141486415944,-0.9816765483708096,-4.3860363405839245e-05,-1.2406198379882432,1.8092709754217302,-2.1388725090659386e-05,22.66306620639758,16.42011249667394,8.153591499345527,2.119770323505239,4.207627102652624,-13.596919656519553,-7.388365142958615,19.38026173956343,-1.043012915602574,-3.5479780720595344,-18.55003576818687,15.990532404905316,116.42085729098979,0.00041660671790668633,-109.49192653181242,97.55206657844316,0.01404816157985018,105.2700531328876,-4.983683129655564,-11.956139086435192,0.015339172982967298,-2.5025841881464577,7.08258050228397,0.0002451020584925243,-6.0067344091002495,-7.4533322334629695,13.241819507452245,-28.247694247594193,-11.91015951720051,9.452270464542213,0.2107665435091936,7.382398302254754,7.7880458687737955
-6.80923308510774,0.0,0.0,-8.187983036171017,0.0,0.0,-6.854509212176508,-7.4999491694739,18.43688606196677,7.52928852916364,6.7234729027904665,-6.162175660834802,-10.789777419202563,-1.0340699192168619,7.773120075339887e-05,-1.3400403843413982,1.6385301865856496,0.00011934694695676693,22.731796486434448,16.59498797342543,7.329085926741401,2.2866148889608304,4.416481233720732,-13.541160288049463,-6.6877359624846795,19.18157070063429,-0.0729504879358058,-2.3095698763294457,-17.86280119421661,16.56002118999317,116.36405253379219,-0.000329963354001641,-108.14210704990212,98.32102512479518,-0.002184151138820167,102.58425990549321,-6.864875061874714,-10.681149859886258,0.004308980805764463,-3.391872860775869,10.309167016932046,-0.005401561365059929,-5.4706602627085745,-7.696815822086301,13.465035722747263,-27.716965299425397,-12.219270074741505,9.567443805432717,0.22770927470022306,7.254995857368817,6.973018839241063
-7.631528483687945,0.0,0.0,-8.480275144344153,0.0,0.0,-6.373490355223437,-7.627046017526809,18.757519441691194,7.612323219946176,7.198116899014417,-5.825951106552687,-10.943496703218758,-0.8767025796301597,1.6888479968702705e-06,-2.017623201726344,1.8770117835178324,-5.9449855831593154e-05,22.601412711188924,16.749847878645593,7.387198540234083,2.4519931680087765,4.353711426169144,-13.498953175900208,-5.3157485081205005,19.419149433083604,0.32891328944169446,-2.404881302099975,-17.008329698642257,16.458142091526703,116.8747981439055,-0.0031374186989405737,-110.59173159386738,98.95441201902108,0.00026459835642286253,102.00520459915921,-7.4468819950407115,-11.942837850369044,-0.0006363563760985619,-3.9204670298443447,9.597615374554483,-0.0005838200348238506,-5.4081622371903935,-8.106106193397409,13.943397643850055,-27.65736748520544,-12.777487995350262,9.857921886483018,0.07301258153988105,7.136815860134061,6.809124382341374
-8.040797448470254,0.0,0.0,-8.74660082982233,0.0,0.0,-6.007599829341082,-8.00366850703633,18.970553997083066,7.845057316708249,6.990713810150247,-5.560854371843135,-11.370079173466435,-0.9480797649702865,2.5195201164427396e-05,-2.278797309186159,1.8327620885623657,8.644226482866187e-07,22.889539677278258,16.975885539021505,7.293102149716747,2.791356631875879,4.3584148294982175,-13.386691854053725,-4.595152279103362,19.635850472301268,1.1671420812279778,-2.2204300578444154,-16.226926749127877,17.1240254067856,117.80421036802265,-0.0013223846743506394,-105.46785638974272,99.35741196640808,1.9033306811409048e-05,102.41756282026068,-8.860502565439267,-11.529455372283337,0.02092642008678616,-4.423486715512413,8.010223020923563,0.003821010880417702,-5.092719443574943,-8.048345192789927,15.103891903679,-27.25499757561777,-13.158268942266773,10.971921193312872,0.4962308553076299,6.840497411676034,6.625267354329071
-6.649511437464376,0.0,0.0,-6.9974134122373135,0.0,0.0,-5.979093648959751,-7.860467520249434,18.434005803304053,7.601526347288064,6.964371638557278,-5.438328459745912,-11.987060609833417,-0.9798127034192132,0.00039367500726404236,-2.456506715711803,1.6317258015696403,-4.8796496841754545e-05,22.68976322016928,17.168281573513124,7.9260559492773215,2.2397256032053154,4.575919087645084,-13.533061140390956,-1.8666380758718357,20.589206480412823,0.8994983338872133,-1.6455614667421061,-16.18887688534747,17.748863663711614,119.02327623285493,0.00626613363755683,-101.5176147016395,99.14635066489107,-0.0014955419456166756,103.47885537080691,-8.898239127285933,-12.23452957454363,0.0071972910414432505,-5.867556872638075,6.298613944504079,-0.0018753027552429029,-5.415269247181092,-7.644443904164215,15.262467426104275,-27.53045942742247,-12.843347692430498,11.277475363011868,-0.03223020910886247,6.741887561111124,6.331479848425137
-6.950652320412624,0.0,0.0,-8.117276309998623,0.0,0.0,-5.3089819349759955,-7.005349564557456,18.288295432914005,8.323803927005208,7.179250115406454,-5.805670012211249,-12.595702692067574,-1.2368457129150885,-0.00020102679027541673,-2.9388692439739272,1.4891539466228005,4.3834668100308794e-05,23.28720014379134,16.910798057640008,7.494930916202687,2.5518999732918504,4.3730968841905815,-13.908391445678095,2.3342992968946397,21.50200768782605,-0.5776751474703162,-1.1813407391944355,-16.179795033482797,18.593939301474418,121.19926974138612,-0.01665815754418662,-100.53909922924825,98.69807453827973,0.00189876115554113,101.7563379598828,-7.548044060325299,-13.077941629925329,-0.015131171921823963,-6.777313930425642,5.322620670023621,0.0004949249527179965,-6.146128369786385,-8.08651007741484,15.183540014073683,-28.30581730458445,-13.223364654399361,11.032147630978153,0.27762668350284353,6.5632553433310505,6.381918590863068
-5.484467556678596,0.0,0.0,-7.984838287831636,0.0,0.0,-5.383915127652681,-7.17766926384167,18.343212895631083,8.48148000983636,6.115936211585717,-6.896859046586973,-12.62644744916651,-1.1814483098782047,3.3155745160672055e-05,-3.3948503420114586,1.4496335914865168,0.00018693433056428215,23.081932010842007,16.685082799358174,8.052749216075144,2.7496077157525023,4.100689104655824,-12.50593565155765,5.298725536198305,21.741166968483306,0.2284281362677447,-0.6839172964654081,-15.983573328923185,20.015324491920836,124.21095582929149,0.0281633553947296,-93.97042386279038,98.46200196046912,-0.001588964084234656,101.6558858644797,-5.426892474060002,-13.414282395485143,0.0010663931279568872,-6.9447034558067315,5.271476571227281,0.0010743636961364198,-6.459547897246497,-8.165659522854149,16.321109331034506,-28.53725643421905,-13.720717562587868,12.074292788813306,0.5244919442735919,6.204535801358989,6.3645888863287245
-5.056098335791652,0.0,0.0,-8.697463709031403,0.0,0.0,-4.727632757803311,-7.270149551569443,18.069144715012786,9.160991809982765,6.657021544616367,-6.968544242709741,-13.083578756426908,-1.2026426537684445,-0.0004854693447595196,-4.146887082743857,1.099826917974857,-0.00017774881264267083,23.35618140255204,16.31049296302307,8.585808980471972,3.2896280651017915,3.6785629724280327,-12.479433088962738,9.35275485960547,22.096212140063713,-2.121346989094758,-0.27408306501650176,-16.369053658378593,21.688568219263708,128.1753283882522,-0.023768711160247338,-87.52234633047577,98.12627902360065,-0.00031045659107831273,98.70995256536773,-5.039322960213652,-14.318371920959763,0.0007651493969636442,-7.582003964049278,4.593848249229876,-0.000913137087340628,-6.401230282833084,-8.413034399714174,18.061565910314947,-28.350455356404247,-14.595645307361867,13.625391046661264,1.010614294268421,5.86944206084879,6.281738243043606
-4.58478,0.0,0.0,-5.746739999999999,0.0,0.0,-4.17938,-7.426130000000001,17.55022,9.24508,6.913069999999999,-7.735229999999998,-13.507289999999998,-0.92506,9.000000000000002e-05,-4.803029999999999,0.7350500000000001,-1.999999999999999e-05,23.833260000000003,15.33529,8.616720000000003,3.7606400000000004,3.06295,-12.66061,14.05801,22.523700000000005,-5.43563,-0.058309999999999994,-16.300600000000003,22.52635,131.30887000000004,-0.0006499999999999999,-81.54159000000001,97.38038,0.00042000000000000007,99.60491000000002,-5.201479999999999,-13.3509,0.00493,-5.285120000000001,4.552710000000001,0.0006899999999999999,-6.378069999999999,-8.35562,17.644489999999998,-28.35984,-14.38807,13.25233,1.37502,5.24835,5.93932
-5.016254687076058,0.0,0.0,-7.467574031149906,0.0,0.0,-3.8817488378347127,-7.163038239947886,17.698621755348892,9.727273528038712,6.898881769172375,-7.641115105439566,-13.669926907994778,-0.877144398542825,4.537649178300334e-05,-6.1573564391581295,0.11012601874956833,-0.00011081720980615087,24.376891196695038,14.197028649348095,8.427651394633427,4.872503936475552,2.292469982562746,-13.034950251813765,18.75732379461839,22.03013300271854,-9.801992000758638,-0.3785008536450973,-16.806927709310447,23.214641472242054,133.5361841476293,0.0005779351327961315,-76.74215643281649,97.38405569225434,0.0007855323028072942,100.00227560656342,-5.010535820909501,-10.082397062308765,-0.00044083928919313846,-5.037055690431085,4.719685071425818,-0.00017039236206845736,-5.578948995895012,-8.94800284140083,19.473964591904032,-27.445587225548834,-15.612945453126082,14.760376955502116,1.9434274623108583,4.6716968074182885,5.4252962120078365
-3.894397212835631,0.0,0.0,-4.915341376357524,0.0,0.0,-4.395716489607671,-6.568422760096452,16.2269401738399,9.835003531093243,7.804354852769568,-7.785376280373781,-13.026961441791377,-0.4117057386801679,0.00010309470961472887,-7.195544647542284,-0.6155932234202727,0.00032610259611933054,23.959737048487813,12.652912881032934,9.458540820367931,5.12017139278865,1.2148717405901257,-13.540866878359152,23.690870930153505,22.092883706001587,-13.959314841524433,-0.6804649935299538,-16.57616243383295,23.68572003023633,135.39838720138005,-0.001755297507262269,-66.83796641742056,97.15294117393586,-0.0011905671724045737,103.6282547472648,-4.716573410465175,-7.760783305965242,-0.0015411646828472582,-5.8826547305504535,4.692836134116337,0.0016590080494772563,-6.067461050582084,-8.536906831004568,19.875494897265828,-27.850585408426543,-15.378855027572907,15.301302424100825,1.8830477931162248,3.588861002011144,5.127996362896981
-4.302546893928307,0.0,0.0,-5.2151456499706885,0.0,0.0,-3.23970407933892,-7.716941075692198,17.191663546782877,10.344635031279472,7.445423083298599,-10.017771093760583,-12.573006314156887,-0.6413296203846659,0.0002299425850184142,-8.47762848949831,-1.1910724128301393,-0.000603346652618412,23.055211499080748,11.498638620094638,9.048232138425732,5.154797899203109,0.4431167034258428,-12.182696031476446,27.137988385898463,21.412911921083992,-17.40352927965561,-1.4944657106987824,-16.72671265747278,23.479664515559016,137.32749249953173,0.003757173025912024,-70.59363868629941,97.05600089961452,0.0009416381254773232,99.95066475428301,-0.4427444807080055,-8.368926371242281,0.005453074581102354,-4.289734850226175,4.07066800068692,0.0010410155890670319,-4.914060690385975,-8.23986972017299,21.126507075930498,-26.5310486628738,-15.560500237918928,16.60841104355624,1.641910996404446,2.794041800847813,4.801841235882614
-4.026701298557062,0.0,0.0,-5.062262633070031,0.0,0.0,-3.4902011854688344,-6.534472187445915,15.829301451540317,11.062362619652175,7.778787934906806,-11.00553488425316,-12.347702950296409,-0.4980565420440217,-0.00015578324549881417,-10.61252327906827,-1.9616127592480928,0.00040205585811350263,23.083019441590597,9.963512294389542,9.755764996231624,6.145045490600096,-0.6832492593866467,-12.149464271793311,31.92815167522343,20.087335606881496,-21.38037323109314,-1.964937709865545,-16.935755355185886,23.232172921466248,137.04482253687394,0.0008371351760680807,-68.22952780350893,96.73589904562614,-0.001557196164260711,99.53824262990886,4.494553961704169,-7.50562834826217,5.8525771897665604e-05,-3.7998406658375066,3.0795959023737107,-0.006571929701030767,-5.205242167056594,-7.917750906092524,20.556101031429964,-26.853253413029716,-15.052879032017112,16.18724204970449,1.7325832239294543,1.5156017848380772,4.380353316496736
-4.177260737672764,0.0,0.0,-4.365221462677854,0.0,0.0,-3.443899015505369,-6.190401574350863,15.784223005245103,10.91683757549644,7.415670713241186,-12.277025522968126,-11.745201232877024,-0.5134046093126851,0.00011071315145024249,-13.016079972729237,-2.4825264094098487,0.0009108711517355734,22.99191453736643,8.4666437662806,10.252506786870596,7.783966126826957,-2.0209076951192038,-11.524826034213419,33.60372292610219,18.76942190557584,-24.00063012883051,-2.1570578746292837,-17.166517091064105,23.65899206829055,137.03097930938145,-0.0009627987275666526,-63.246224721832164,96.27701347911379,0.0005245444900240329,98.27098871019886,3.5021069996127765,-4.329614641971469,-0.0012187640410810886,-3.8550736748686063,3.2316237444547102,-0.00013388019721930654,-4.799643921220295,-8.620088000238976,20.991927458172118,-26.4711711655583,-15.864820982571139,16.33417798373741,2.319777747107657,0.5025028190546457,3.949058576862148
-3.7704521376285585,0.0,0.0,-3.8304974165201524,0.0,0.0,-3.552584394011781,-5.492905964323306,14.601637734180876,10.900032819696008,7.713288047664107,-12.931284216702196,-11.456154480917021,-0.48475508326835903,-4.837262153375277e-05,-15.720200742225117,-2.7413457797584115,0.0008852796605806596,22.65519472084192,7.237645775686159,11.20161361071008,9.070050005920207,-3.3665845884065675,-11.442779651693716,35.21315625952881,17.83623972618179,-25.97981719391292,-2.083573235561286,-17.391656197863753,24.278977995913582,136.94113636340882,-0.00014672225881665063,-62.302139192689744,95.98816795938356,0.0019112260782947726,100.67506221062911,2.8284031753676206,-3.687385111558428,0.0001142986910848212,-3.270849874565656,3.0489355736298784,-3.0597341378824967e-06,-4.353114417137132,-9.351222331081468,22.228239278770836,-25.962538640978547,-16.994748878105817,17.23645849569707,2.0379389400749286,-0.33600222056817336,3.208736309608903
-2.46820322961948,0.0,0.0,-2.6677929065021244,0.0,0.0,-3.5946570862360443,-5.7970439527310225,14.871356223373706,10.63676128476285,7.679604387892661,-12.938803505279239,-10.924521168803407,-0.5456942160401256,0.00014467001066862485,-17.896214228267542,-2.9601434871041805,-0.0008643640862534683,22.55655706797408,6.073253277819125,11.102502796193308,10.491942229325765,-4.620566183185171,-11.61357179836783,36.05730172535257,17.572070669502367,-26.261356382461464,-2.045694846080107,-17.12208504978721,24.43881526931909,136.86512502472135,-0.0006744561511839084,-60.554618754974946,95.75723466884077,-0.003731695382654622,101.54017007080176,2.0377292391450648,-1.195809439952093,0.0025217193422052185,-3.168890269131156,3.147879907245932,-0.0017548883703931565,-3.6951938264933677,-9.15421534859714,22.837358208148856,-25.209316119772264,-17.032475476497392,17.896890749960228,2.0145915106406855,-1.4808591533874351,2.6127969385415053
-3.592346326448054,0.0,0.0,-4.250718778323534,0.0,0.0,-2.7560669811490013,-6.867783817315161,15.584658410634574,9.812210385811872,7.330445659659379,-12.800336119756803,-10.498130826622933,-0.3603607286991163,-0.00016193987412909818,-19.508695329629955,-2.707609696553647,0.00040416060178833887,22.638621008379705,5.9181600136583254,10.710061924924428,11.742288591927066,-4.933736851058384,-10.985766650088339,35.37227775698875,17.26840399401447,-26.528521989435937,-2.1197956477917335,-16.539551832880615,24.518417371520993,136.71079853083467,0.002824452167287044,-52.25136316222069,94.73560089941526,0.0012396210319601344,107.30014264217283,0.23266447877293958,-1.1992126774347334,5.987257749502902e-06,-3.1772272800357197,4.310064571465226,0.00015624362532304294,-3.392064005902288,-8.990115122306406,22.55285960862303,-24.922440007397533,-16.7767402360636,17.686659733076564,2.096068501989216,-1.7172078459252458,2.860897623147897
-3.5541520098604207,0.0,0.0,-3.933666048273566,0.0,0.0,-2.978683344215071,-5.817736289132507,15.243431680833037,8.554708996609634,7.97239806616261,-12.100435655610465,-10.276047169462968,-0.30756451290820586,-0.0005770170412750636,-20.751698952362243,-2.3000331144462454,-0.0006768288127690608,22.962014711877412,5.686248487926027,11.002188054830047,12.699319975988924,-5.505005224723473,-11.311794217720806,34.28581401954652,16.526649379799206,-26.661657932621413,-2.0793664390197746,-16.646839565261246,23.857834743503357,136.57366802349617,-0.0016504723288124931,-54.71706844021604,94.00320182686534,-0.0019095150476579283,108.03944123898455,-1.2439264826059089,-1.296853421953083,0.0006726147784445168,-4.513922095217334,3.0875275735083285,-0.015006832242261466,-3.258411517968578,-9.239227230315525,22.859506997317364,-24.779404431802888,-17.119572848470835,17.885543471440624,1.4961795892903567,-1.872928365408847,2.7072120941021485
-2.419294450416318,0.0,0.0,-3.1218690389243697,0.0,0.0,-3.7211992581238214,-5.310342907479072,14.602683688225229,7.2425051390043915,7.848809959879885,-10.855999666001798,-9.682038042308662,-0.08895759093566183,-1.6645730787460914e-05,-20.975096101779016,-1.66984547902504,-0.0006085582543613816,23.136230678036142,5.58345457384852,11.30891437400377,13.127928883009064,-5.89640569376564,-11.782356639061835,32.309745836238676,16.77809440648924,-26.012462484155634,-2.4685558377906935,-16.22784185014214,22.52147709186268,136.16636453282825,0.0014538117135557904,-50.212315458217454,94.08811508846469,-0.0012611592715469837,107.51424981128044,-0.9614551525980674,-2.2647415706139844,0.00103644421525657,-1.4573895270937334,2.977430440405179,-0.014153336744689491,-2.4362112569299614,-9.394809080873957,23.189133371119063,-23.934292604809688,-17.38358501804006,18.142700014963204,0.8508157384266177,-1.9109144105985492,2.1982118507432404
-2.263709110227939,0.0,0.0,-3.0853524801122214,0.0,0.0,-3.5678205068569238,-5.3303119422765874,15.349588574690264,7.096956405172455,8.091198380913136,-10.081682776166225,-9.555410367116693,-0.12988843847666198,-1.6388500079305283e-05,-21.52091504510562,-0.6936185806072044,0.0002894281238258965,23.42098015005285,5.6984103700260444,11.190501952544327,13.730517856413288,-6.4539158045003004,-11.405077124053518,29.67613699220205,17.200692666993696,-25.47127594168222,-2.8376195347329514,-15.906661445401415,22.353127156804288,134.90293934323861,-0.011836995617376594,-56.23634712701622,94.65398251699769,8.572341279976356e-05,105.89159538892469,-1.3075251759995052,-2.8495322309353424,-5.6015451335178505e-05,-0.16657408979676885,3.5901377377535666,-0.0011533830324315956,-2.2885594063230323,-9.123206134550069,23.383314754718374,-23.731420826312952,-17.200983429838693,18.433618186462684,0.3491797725663989,-2.6620540529635766,2.38101106610188
-3.6435625968282532,0.0,0.0,-3.8800732491164207,0.0,0.0,-2.9879777529028404,-5.542455991365648,14.847340947807801,7.3906027512812065,8.524321666823921,-8.571104918822241,-9.88189079498986,0.11603839703947635,-0.00018707150202717726,-22.11674146727222,-0.40858920635702034,0.00019211662924362735,24.08471777712574,5.73784009707572,11.178525899768426,14.167478723604221,-6.788199123596211,-12.056994731144655,27.060650321854403,18.294526518874594,-24.199441100123344,-1.9701325292919663,-14.935851116454403,22.405459663060384,132.81104563212875,0.004514091116211456,-62.278869989538464,94.07653596418612,-0.0008768837632864021,108.47005667105657,-1.3947390449343282,-3.3196250820833137,-0.001092501098664401,-0.2768345410635507,2.7541877716704404,0.00016308259534426683,-2.2870711954107406,-9.44146015298292,22.583565946802572,-23.864431475246143,-17.20766196935119,17.54275901464639,-0.4451010582262128,-3.0235338781612464,2.3888169529103935
-3.1482150455434357,0.0,0.0,-2.8529615968444024,0.0,0.0,-2.486366916835367,-6.1246413652796585,15.05831316530359,8.310829464961163,8.411087211696398,-7.935385772413336,-10.467428825234688,0.1275863269130417,0.00028884068349769063,-22.40937926873376,-0.36260403319718987,-0.00043516556659372316,24.768891762716578,6.1898883587819284,11.048130291183314,14.372665908570113,-6.676968069724589,-11.672850269055033,23.22020077146769,19.134119952496572,-23.05532686036851,-0.7427088688825615,-14.848701757059972,23.066641427184965,131.1897438657464,-0.0024306550251948977,-65.68203170150994,93.59738692679403,-0.0009225101879088397,109.79637348709714,-1.2354692763405608,-3.3576525702577924,0.000246617010162507,-0.642890219670288,3.030448873265592,-0.003023482102422884,-2.421452359792529,-9.82495813737168,21.591128577757377,-24.15816732079288,-17.202986776317736,16.4426227216151,-1.3670111615163545,-3.3203737377394247,3.0211780344439156
-1.9030612724980756,0.0,0.0,-2.882617958108779,0.0,0.0,-2.6286131705303446,-6.041368874514039,15.116106206395843,8.86769002119809,8.827452251467928,-8.261842255361463,-11.373184315983691,-0.043065165745261105,-9.876248246537119e-05,-23.40621002030001,-1.0533290224323932,0.0006370130263703129,25.890850507146233,6.470103371185391,11.239107076148555,14.890029646046221,-6.791936387135374,-12.46422584825288,17.820041430373806,20.00499765368223,-20.547685343544867,0.5745931514050348,-14.724988764580596,24.419121478484445,129.53165817212437,0.005687479566855784,-70.21623759216989,93.92764506871652,-0.0007668959808577159,109.66454158863462,-2.5720617238590626,-2.8988219587458626,-0.012881613062421964,0.36377116723246034,3.205693817367003,-0.0017003641905526162,-2.4290806833765513,-10.189617760849847,21.07167841118983,-24.26535461328833,-17.351730883780046,15.803425240887854,-1.7786571618796745,-4.164614519524019,3.148627454497248
-1.0332470352081333,0.0,0.0,-1.4318268456340808,0.0,0.0,-2.487400601491426,-5.0078321446514495,16.197013813121462,9.32784562722956,7.906927352314131,-10.868084235749036,-11.823647548034158,-0.14414810282405832,-0.00021723362498868065,-24.72092658087176,-1.344050702160222,-0.00038866162605448565,26.333943842675108,6.570376508129899,10.93055674687713,14.811448010600428,-6.971628979251971,-12.278356864521859,12.533728623766951,21.212271060179194,-14.917784862213376,1.0991030184018014,-13.91840457302674,25.09472238645166,127.24409410840705,0.0016008449371797788,-75.13690514225257,94.48267283400033,0.000460327714844945,111.10665813488826,-6.630561849426635,-1.9423306022552274,0.0014963840487110548,-1.0029271152087191,3.646556138840433,0.0016829084602549757,-3.0278598601237414,-10.085142732186599,20.693503514675555,-24.892704229887936,-17.116206199087067,15.482368465399908,-2.217793203849495,-4.935848901604251,4.029410733164167
-1.268001888782674,0.0,0.0,-1.5423294115694022,0.0,0.0,-1.9787458866768635,-5.027658022883209,16.17447245002067,8.936925095174276,7.218626322463764,-13.479991826188375,-12.700656185126352,-0.23898397129058488,0.00020562229262566134,-25.480082432884693,-1.6098405717310693,0.0002304782844008359,27.418506261625115,6.951672483881574,10.044687868085166,14.446163215529213,-6.719547346242256,-13.055487915492273,8.219863811079893,21.431489815466637,-10.209636065205615,2.191560427243368,-13.836192737606826,25.58035733435174,125.57175301830021,0.0024002722671480534,-80.41516264636907,95.15440366490402,0.002465387405316062,110.78469984953583,-8.861942966544522,-2.9051604182191135,0.0010180564984046266,-1.0145731053735414,2.651471512687513,-0.0010225508989084005,-3.7040499788603634,-10.636652493143453,18.77391231920573,-25.82282041466334,-16.920410237930927,13.4353047177387,-2.1010006922251807,-5.011217062285632,4.521976762166022
-1.21671,0.0,0.0,-1.12576,0.0,0.0,-1.6884899999999998,-4.48898,15.724019999999998,8.248909999999999,7.230270000000001,-13.445839999999997,-13.16301,-0.57216,9.999999999999999e-05,-25.26899999999999,-2.3751700000000002,0.00024,27.41699,7.060059999999998,9.50549,13.063999999999997,-6.90757,-15.062789999999996,3.88082,21.61671,-5.663700000000001,3.2218099999999996,-13.453340000000003,25.96993,124.47557,0.0009200000000000001,-81.88745999999998,96.35335999999995,-0.0017300000000000002,109.95343000000003,-10.48522,-1.4032399999999998,0.0006899999999999996,-2.66202,3.134699999999999,-0.003749999999999999,-4.359969999999999,-10.921420000000001,18.45598,-26.54048,-17.0664,13.020569999999996,-2.62557,-5.53395,5.41879
-1.5045694222234807,0.0,0.0,-1.0615282850085432,0.0,0.0,-1.5988848164787386,-4.946876593523413,15.356349735694398,8.539539576078658,6.9153468119240395,-15.246333592448437,-13.841090760654584,-0.2261524634756341,-0.00018243108608501668,-24.48361809596612,-1.1597622595940777,-0.00038801338574925533,28.609284800040985,6.725285726850075,9.598036547695184,12.39262257604702,-7.499750281993354,-14.164608664916804,1.2685660576172615,21.21019647172218,-2.3862873656652677,4.270795492109989,-13.51865694411658,25.60701930812036,124.30063907423535,-0.0012846030633117496,-84.39033178072216,97.38557661103212,0.0005177465859347718,109.82562373125741,-12.01595307782867,-4.812986838480788,-0.001459582191461515,-0.38040438115810427,3.0165649032660893,0.0006679994726135145,-5.409921271588007,-11.16086373973853,17.856768735514102,-27.67062129695166,-17.065654071846453,12.356323477468745,-2.296227072045873,-6.143645224169002,6.46428286948358
-1.6834704185751643,0.0,0.0,-0.39210720657004267,0.0,0.0,-1.7584576197300015,-4.2936696478439105,14.692619985963788,8.013524803652258,7.290151606623073,-14.538747171640455,-14.433546365112264,0.028928186412826237,-2.8857705639012376e-07,-22.533174455997738,-0.8332853694631357,0.001070393402496558,29.042201037055975,6.615040530476661,10.189932322746083,10.744259708062229,-7.504238338220978,-14.431319425899375,-0.830133392193259,21.014479493544695,1.0544208255578138,5.997369319247785,-13.988296311754764,26.185991348711585,124.18681219721651,-1.583496311697243e-05,-87.1777264481111,97.94524634454075,-0.0011885729792010106,107.47164607297479,-9.81135514463069,-7.064966064123188,0.003573015456173963,-0.5529932479896458,4.203311254979869,0.0012241757387656065,-5.982375826249361,-11.282699170851048,16.77442253108126,-28.345292112861735,-16.775297737167268,11.281374992449663,-2.2359031976867874,-6.696870540193087,7.319718203918037
-1.4939821795438706,0.0,0.0,-0.9059769638590116,0.0,0.0,-1.8965647005573194,-4.415179886692995,14.734590610804473,7.7286950700742585,7.677070021790885,-13.607945623494476,-15.339397598583421,0.0604095125910752,8.349204120753362e-05,-19.722947037754203,-0.8061215802143715,-2.404369759263374e-05,29.777850316569427,6.488912421454749,9.823511017503986,9.065784447032716,-7.341815191880763,-15.247035785817566,-2.9963789149369244,20.889031997351115,3.6052275025087015,7.758829620582116,-14.459459628076935,26.88095195859573,124.44719656874244,-0.0007320261928873084,-91.08145798152074,98.38613686905282,-8.911762136467789e-05,109.28425315852361,-10.777194675475005,-6.3502997858544505,-0.0025274049996333653,-1.5739763179197803,4.1465256909801,-0.002361938396263266,-6.5067415459675315,-11.198859817433073,16.322280653999254,-28.894629477710488,-16.528950519148026,10.886656355753834,-1.7565712054291192,-7.052199896624689,7.750710997203352
-1.9876841977523736,0.0,0.0,-0.9047964041980863,0.0,0.0,-1.4412638045075306,-5.855027749798644,14.908945395414841,8.06412182960379,7.550587981508696,-14.434124073402884,-15.82813668733951,0.14485015913351618,-2.7829592026857514e-05,-16.946204819936952,-0.827355222191759,-0.000774352689730023,30.712572919334708,6.8278406140284895,9.103443083191884,8.049127660362599,-6.4003186962694105,-14.821775597999935,-3.963140959751689,21.29310571235154,4.543467612144744,9.561502086044015,-15.179311883156522,26.64647121288328,124.98971021565723,0.001332730779533711,-90.42731267419677,99.32447123160979,-0.001126906008680959,107.30426719519355,-11.891817860617675,-4.611938539946979,0.010261982996152748,-2.0540404766893556,3.32039830311711,-0.0018703977042709235,-7.385976926235136,-10.735594891685219,15.25538204786225,-29.79967152535706,-15.701495691664018,10.062429173823196,-1.164676274477289,-6.816635467944634,9.14668832977983
-1.2733872664256718,0.0,0.0,-1.4273143897690834,0.0,0.0,-2.1573849510448877,-5.163123420507675,13.900912108801736,8.78424433917942,8.217388132263075,-14.016410553390552,-16.09453102959443,-0.2913994468770408,5.716847138826927e-05,-14.36377986083219,-1.4438067364119251,-0.00012008443403365011,31.36732983093844,7.258250611831789,8.319524374413572,6.460206656333233,-5.155407913570113,-16.93786309769246,-4.054767940907398,21.879989569050625,5.430365669790377,11.098793680615374,-15.0091504518474,26.064958082994185,125.59970500927768,0.0004956101152813927,-94.38532325668622,100.31609527332112,9.276804759619067e-06,106.16958644200831,-9.854576580317936,-4.87271809409345,-0.0012060863525644252,-2.8807075879878528,3.4366002420220663,-0.0001618680768000377,-7.618953993384934,-10.82372973428303,14.995056038043275,-30.059827472492696,-15.685396828183958,9.78196394297353,-0.8635952762206659,-6.624173481542502,9.609621643937807
