PaulMeinheit/Bachelor_Muay_Thai/processed_Data/E1/teep/scaled/JointAngles/scaled5.csv
L_MTP_ANGLE,L_MTP_ANGLE,L_MTP_ANGLE,R_MTP_ANGLE,R_MTP_ANGLE,R_MTP_ANGLE,L_ANKLE_ANGLE,L_ANKLE_ANGLE,L_ANKLE_ANGLE,R_ANKLE_ANGLE,R_ANKLE_ANGLE,R_ANKLE_ANGLE,L_KNEE_ANGLE,L_KNEE_ANGLE,L_KNEE_ANGLE,R_KNEE_ANGLE,R_KNEE_ANGLE,R_KNEE_ANGLE,L_HIP_ANGLE,L_HIP_ANGLE,L_HIP_ANGLE,R_HIP_ANGLE,R_HIP_ANGLE,R_HIP_ANGLE,L_SHOULDER_ANGLE,L_SHOULDER_ANGLE,L_SHOULDER_ANGLE,R_SHOULDER_ANGLE,R_SHOULDER_ANGLE,R_SHOULDER_ANGLE,L_ELBOW_ANGLE,L_ELBOW_ANGLE,L_ELBOW_ANGLE,R_ELBOW_ANGLE,R_ELBOW_ANGLE,R_ELBOW_ANGLE,L_WRIST_ANGLE,L_WRIST_ANGLE,L_WRIST_ANGLE,R_WRIST_ANGLE,R_WRIST_ANGLE,R_WRIST_ANGLE,NECK_ANGLE,NECK_ANGLE,NECK_ANGLE,NECK_ANGLE_SHADOW,NECK_ANGLE_SHADOW,NECK_ANGLE_SHADOW,Trunk_Joint_Angle,Trunk_Joint_Angle,Trunk_Joint_Angle
X,Y,Z,X,Y,Z,X,Y,Z,X,Y,Z,X,Y,Z,X,Y,Z,X,Y,Z,X,Y,Z,X,Y,Z,X,Y,Z,X,Y,Z,X,Y,Z,X,Y,Z,X,Y,Z,X,Y,Z,X,Y,Z,X,Y,Z
-9.39164,0.0,0.0,-5.69444,0.0,0.0,-17.053270000000005,-8.68744,8.806400000000002,14.51125,2.9400900000000005,-13.538770000000001,-17.12776,-4.315450000000001,-0.00020000000000000004,-8.66766,-1.74139,3.0000000000000004e-05,29.179500000000004,16.329020000000003,13.510000000000002,-0.22506000000000004,3.97565,-12.443260000000004,22.34061000000001,22.618550000000003,9.932670000000002,39.698180000000015,-5.512780000000002,39.944520000000004,128.10313000000002,-0.00074,-97.34526,124.93158,-6.999999999999998e-05,116.82134,-6.744300000000001,-17.585320000000007,-0.0013400000000000007,-15.35304,10.813660000000002,0.00012000000000000003,-4.4159299999999995,-9.281649999999999,12.636300000000002,-26.848930000000006,-13.373640000000004,8.17228,5.43354,3.4287400000000003,6.253830000000002
-6.946624995739901,0.0,0.0,-3.8443923326917675,0.0,0.0,-17.724058465743177,-8.742882216732987,8.427511729004992,14.081467156103557,3.7992986163149034,-13.07501562317613,-18.942137267962835,-4.8340610429925235,0.0004433782398400055,-8.335436517632997,-1.5673206381072302,-1.944067240183355e-05,29.879358210046433,16.711035740152653,13.680480233809682,-0.6139787020657134,3.5358252510225965,-12.81106070175477,22.786412288247778,22.654900073367806,9.371789897852086,39.984397302287036,-5.846900901526451,40.10430365635804,127.96293797731676,-0.0005822155451719075,-100.02796075497584,124.90883993289854,7.95432160223862e-05,117.95147520942383,-7.582358570759903,-17.701940592336705,-0.0021469523843029386,-15.194409506526375,11.033009110764322,0.0024785373180664775,-3.8058605573508304,-9.688498208931133,13.011996425997227,-26.25537356989548,-13.891136303926427,8.364891874105208,5.068855703036033,3.287999030489691,6.541493112988139
-7.623182163257735,0.0,0.0,-5.541223339807415,0.0,0.0,-18.593389473437192,-8.702235127690496,7.021809452634485,14.517300563844517,3.601910635228298,-13.258165645375874,-21.159379106531013,-5.171542576777802,-0.0011437605986832644,-8.187355808404037,-1.1305725526346395,-5.181737333532504e-05,31.419769837969213,17.065448188841675,13.93270736310914,-0.5724195371403887,3.109436610750492,-13.157078950475562,23.275702956336353,23.071618109263422,9.329032478707095,40.72014466315955,-5.923187884502142,40.72323042129403,127.66418190657502,-0.00020000425568355543,-96.5445631128321,124.97185404429928,-0.0004997372147651908,119.91056900817745,-9.519549843672513,-16.670331988160346,-0.0010963679571664347,-15.123921971016296,12.682534171451593,0.002193676418709655,-3.9230717769275643,-10.333733358269853,12.868556433170625,-26.44284810999659,-14.433300823729734,7.975780637265345,5.063814623938174,3.3376343298682785,6.269770359240022
-8.384071442995147,0.0,0.0,-6.748143569178818,0.0,0.0,-19.379018870724074,-8.80253315834878,5.6270847758264555,14.745724411934964,3.432962382384667,-13.374020648264436,-23.4233015329578,-5.417476170713903,0.0010864759108686114,-7.65403752486901,-0.5766827568548469,3.251593793727869e-05,32.720484396704535,17.456714159958633,14.063024154941088,-0.9201433275427889,2.6060075767702577,-12.974695547048753,23.651739419836044,23.250989904479326,9.329032551995837,41.678577131633475,-5.800367717824412,41.13736595596465,127.80528799472529,0.00135223331617275,-97.82328133441239,124.3500702002939,-0.00021303138242882813,116.21337693220099,-8.903707439673653,-18.270042116709014,-0.0004175397122788054,-15.035387429949417,10.006929216431706,-0.0066874165973648805,-3.2195003863580935,-10.70435612501787,12.872179174905918,-25.776103604045222,-14.776981023410238,7.8323746421293094,4.927567612480566,3.241682779158029,6.148721790532603
-6.753131193282184,0.0,0.0,-5.885578835487236,0.0,0.0,-20.813856427211366,-8.601328993823765,4.327471652062689,14.160592537069316,4.3379517137968575,-12.479891357922124,-26.078158138148098,-5.522666427784128,-0.00038204820076912746,-7.064219170218935,-0.5317158907679378,-0.0001565893097407403,34.15311979670285,18.01820439190964,14.542686140301425,-1.3448536331063938,2.2830274670246795,-14.025969517874673,24.269350500318897,23.513894447616618,8.909768913372895,42.808950025939644,-5.832750938360281,41.500478956634936,127.30451779200237,-0.003963315173941668,-98.4675050719217,124.24316351679654,-0.0011060155014247432,121.70802473619156,-8.603962779048008,-18.784096679446,-0.0016288190491808227,-12.987941363637747,12.305225228423312,0.008148906650094885,-2.966190105537453,-10.513510205811054,12.117921273263768,-25.54257124171508,-14.316240710963745,7.200767468404507,4.9283439604382355,3.402468343258281,6.415714704293611
-4.063934664632787,0.0,0.0,-4.685994429159316,0.0,0.0,-22.50305984906494,-7.910129912687726,3.2024856789118075,13.739566168623686,4.026421684549799,-11.589657576856757,-28.20794613630348,-5.601952874679321,-0.0004869332199310278,-6.402126064044668,-0.4958159453751634,2.484277841995085e-05,35.34657283830433,18.493389348605977,15.819150373864643,-1.7289733862992984,1.950787892910123,-14.640977096532131,24.963086993889597,23.94605633342595,8.440016071072046,44.1864326057174,-5.4114249205799805,41.73805922881925,126.667150221574,-0.00019188261299650787,-99.74221516461417,124.01942553237343,0.0005606261954466571,128.36439667852287,-9.89818882178203,-18.86038430124507,-0.0005959570763205273,-9.534785992249676,13.29015495606611,-0.000743610105462374,-3.3068533111913965,-11.093074280507606,13.26179928712245,-25.882302616490275,-15.282753710422277,8.043743616252994,5.042774382182872,3.3382588623514686,6.436419028948976
-4.692575493444521,0.0,0.0,-5.048727065060934,0.0,0.0,-22.945326208551293,-7.715144036796138,3.009200990048264,13.730557454398376,4.416040760746942,-11.031107516088081,-30.09802453128818,-6.036815318634774,0.0008543082100632674,-5.583595490410925,-0.3282864082173542,-0.00038660578612227214,36.73008057580553,18.602339687577988,15.83365228898884,-1.8849530561410717,1.2648698208468236,-15.242532858351217,25.052029155165464,24.050718746479106,8.109353153000557,44.96891401670478,-5.561997477133524,42.14301471691943,127.20570861255507,0.004304905044507404,-103.44367780972297,123.85944496499279,-0.0002069198682967701,128.5972156883839,-9.442852903353357,-20.3172622393378,-0.007540749686939486,-9.105146000872047,13.26816265606016,0.002823200322018483,-3.06290714051808,-11.524165437542445,13.126929865261964,-25.691487577114458,-15.629916333270964,7.7451779482883545,5.64711850171685,3.162874896066179,6.667561107158542
-4.989919683320399,0.0,0.0,-6.169125788234106,0.0,0.0,-23.84475359538102,-7.779756283754205,3.567483983362722,13.337678299068546,5.438001054985953,-11.584461096832063,-31.29965915457072,-6.754590116344052,-0.0008676032660589044,-4.4087963193373785,-0.02311269741472023,0.00047655759228655976,37.74321687364349,18.901712266575256,15.67503716593266,-2.3115506562491563,0.6071626267014392,-14.841294220857616,25.899319813232655,24.479243381044625,7.697153015352558,46.105453301713624,-4.321313316162696,42.35106459468322,126.86371912578379,0.00916097952144469,-103.88416080391472,123.47754579475975,0.0025635500429355466,126.05050526371242,-9.670350377362817,-20.440092239518307,-0.01454344200918219,-8.0596224307662,12.471729419819162,-0.00226327850088907,-2.7002151921701385,-11.10883726099003,13.672989591148335,-25.254095306238558,-15.45214268453656,8.423900705759966,6.340341769195511,2.7390653292307516,7.299395301276804
-3.2391697109975763,0.0,0.0,-4.7892618026689195,0.0,0.0,-23.470351638595616,-8.353844807505126,3.6696885807572994,12.729264117303778,4.702939864846569,-11.278279164937443,-32.641346327851764,-6.854847031924777,0.0004546464694883999,-3.524635767874032,0.47405897352982873,-3.113688176211158e-05,38.922571783734334,18.84684787232606,15.377997604136441,-2.6013928680539387,-0.1403448842743638,-15.044171869722584,26.046366939235973,24.68586646384187,7.649595330819391,46.9521758714382,-3.9479234694272414,42.10426040982814,126.69172638701733,0.002785308777525632,-103.57434332392722,123.52419911895001,0.00015482680688529382,123.5385044586485,-10.244091025893894,-18.81975138816752,-0.0009798006588230322,-8.433147760821695,11.754491997490424,-0.0009763389753525166,-2.654725854601295,-10.956956690787482,13.316777826002149,-25.212902130180392,-15.177771307006646,8.149527605628277,7.080167234489569,2.519622266345523,7.494663640320558
-2.026310891389245,0.0,0.0,-4.39209513888326,0.0,0.0,-23.665906211742875,-7.842453076699643,3.183699244151515,12.358726414437662,4.86438282038021,-10.66956323207565,-33.74550147929486,-6.82302904367448,-0.0003431977435390144,-2.6080274839800586,0.8549474510450199,-0.00023615047378851143,39.36530328733215,19.052013962819846,15.345370304644584,-3.4693020084982162,-0.7292295359763413,-15.211670770983172,26.55301287257051,25.021076753192805,7.674494339918382,47.7987633217797,-3.8801161986323485,42.11043786897836,126.37878842551763,0.0004050764407810508,-104.14079439642643,123.39315572208358,-0.0004628612715783409,125.19190131542554,-10.719643566475815,-18.278294943190627,-0.003582432823103706,-7.819802666724971,12.802751477997433,0.002572448168626376,-2.608147175952186,-10.904471111142588,13.665315371937517,-25.140954654702313,-15.26050431865669,8.497936790796997,7.408023608074475,2.614372113616558,8.099723558795692
-1.9539692416926684,0.0,0.0,-5.279335341173674,0.0,0.0,-23.78034541779347,-7.545218945009244,2.430865334940078,12.516951706632135,5.351040884867553,-10.954508426368978,-34.850799423491296,-6.964892960243356,0.0001208073890610134,-1.642995098721207,0.9995335279375527,4.5524741300699576e-05,40.01210765159462,18.88586048379475,14.63638796423205,-4.268783215876199,-1.2482419371714426,-15.23705766801329,27.31660284102524,24.98861337365345,7.8159283108928514,48.648240409815934,-3.553902626856078,42.24471676079826,125.84573107455287,0.0003763382325554526,-103.1792117970621,122.74516547606667,-9.088187370813186e-05,124.56736059787862,-9.879598317717862,-18.745520236043202,0.0011235995208652885,-9.350956966266569,12.075065965169072,0.0035415271355698254,-2.2789192456432428,-11.98811358926489,14.306923989800037,-24.892184621609044,-16.502518613991242,8.669191834408055,7.960421482348383,2.7047795798702094,8.165201631502212
-1.2571077467560274,0.0,0.0,-5.744710139810674,0.0,0.0,-23.961274593112044,-6.415173093954673,1.880349663939292,13.295578096128748,5.320678545357891,-11.557198347187306,-36.147093445366664,-7.527335091863956,-0.0020854692388191996,-0.9913810481998707,1.2625254345300025,-3.4333031820507314e-05,40.850716101065515,18.8373384958667,13.325087405430715,-4.968426735289684,-1.6840164721316522,-14.914715195633345,27.71752673425766,25.536493105285995,7.934163771890407,49.45359218458148,-3.296415169800955,42.0194087878067,125.99828519801801,0.0002693647116816253,-103.29164726209099,122.02139238740493,0.0003796343960521767,124.00346245294024,-7.939249806031022,-19.180047926800885,-0.003975786321352413,-8.555325432788669,10.304330011998507,0.0014336305415333138,-2.1678456843423115,-12.003376467925284,13.340191954742265,-24.837579939094752,-16.152570273631827,7.753645233593937,8.759981301856438,2.954132090434796,8.395325766831778
1.0411282372514539,0.0,0.0,-2.9856321752548736,0.0,0.0,-23.24075028294645,-5.69165372532698,0.06597921366702647,13.314609502810415,5.824253226602465,-11.037660729048277,-38.75415750654504,-7.541444129899685,0.0021670292871621504,-0.6983234408199086,1.438260724852716,-7.29658805105312e-05,41.59521979033708,18.48879615288915,12.364234475665677,-6.097070145502488,-2.128788986246304,-16.294276734156963,28.173684356607172,25.648159864813046,7.921766704306669,49.972875829618715,-3.2124296683414157,42.0342762786793,125.96727412845621,-0.0009810788877096348,-106.51578278635598,121.65523945769125,-3.506537840975376e-05,126.3265585702567,-5.705633493460034,-20.304365546250406,0.0012560542609489716,-6.691480375495759,12.064999334156523,-0.0008452787557159658,-0.9884074592024383,-11.472774436640242,13.765752870725498,-23.576032182853087,-15.823123897181352,8.366069353863201,9.327876491145435,3.002108113346066,8.349756684651338
1.5424884515310633,0.0,0.0,-1.6786381252778304,0.0,0.0,-21.12627354287651,-5.676834339533785,-1.3425249313652712,13.716859414959123,5.873765462988855,-11.197732792632074,-42.046189279143604,-7.221973744059106,-0.0009671586872022456,-1.321986493258773,1.296426488809802,-0.00010917591267174746,42.6098723483033,18.256787300872062,11.58583374443459,-6.848561056531305,-2.0577940161871084,-17.139971739551576,29.912943219228428,24.905942283027592,6.617539096132241,51.78918216957856,-3.692154936887991,42.07673676561093,124.96127918885978,-0.0003970694580302984,-105.36501024415693,120.6181023579893,-0.0007963603998121377,119.44387694893206,-6.001618434229026,-20.524557820372426,-0.006058366374004335,-8.01142903929753,12.874708116885433,0.0001707992540017384,-0.44801820123944247,-11.334196665963795,13.97962550015922,-23.008105246334406,-15.775637830245765,8.622538106997657,9.232550668677755,3.60044050076357,8.632852078937404
4.901223104972181,0.0,0.0,-3.4652945999912483,0.0,0.0,-18.706272035668135,-5.4039489707257085,-1.4148475265371325,15.628953618248556,5.587177547348413,-12.781913331052468,-45.46460781307575,-7.805246330286934,-0.00022606438425600565,-2.9213232942260823,0.7560455782349447,-0.0002299954761887397,44.05649657056736,17.99844188384084,10.150043479136913,-6.653681621083961,-1.9202928119541343,-16.75760697973896,31.601005980387036,25.68239550824769,5.722483976458889,52.99213134760616,-4.662430209831584,42.626616601363246,124.18034363795269,-0.001439894110302181,-101.76044066695322,119.95665843759394,0.010462794986410366,113.56103483590073,-7.104506445247425,-21.907079068682393,-0.0016958916901838993,-7.791495246608351,11.910454393053943,-0.008481676234064562,0.2362599598170923,-11.760162838985458,12.457179964678986,-22.45174177283675,-15.594985409211535,7.022237700098164,10.117216262240982,4.359166574617139,8.199631117166001
4.354949283585235,0.0,0.0,-2.9472492585194283,0.0,0.0,-15.254874266239202,-5.037860791534297,-1.6106176726960957,16.665440441116715,5.5877507965554924,-13.969944708334483,-48.80177073461391,-7.812152942120109,0.0016480927475841323,-5.400916377167455,0.013332046533135425,0.00039166930198514553,44.63057182376448,17.97668980166328,10.47808054986445,-6.235604727505718,-2.1516061245116904,-16.22727471482041,33.75005051932844,26.715885239160905,4.46736216426064,55.549476364226926,-5.741466754985863,44.02927741655441,125.04850024783526,-0.0036652653953506403,-100.12044836348039,117.88783747661716,-0.008067193867538916,110.19139093004205,-7.461805605834801,-23.658259250144837,-0.0044656071511451805,-5.865054157956055,13.016047418742394,0.006116804203750018,0.030219407441255976,-11.096907944930342,11.711904724103025,-22.623371041733474,-14.701417455553658,6.5887645461984325,10.621830275835684,5.09143567478184,8.173894467076671
9.67166307582863,0.0,0.0,-2.483457277172914,0.0,0.0,-12.885038822400066,-5.022489997378741,-0.8787659227226761,17.596741577932548,6.978109509999222,-16.076061687362593,-50.9644913753994,-7.941024226164194,-0.0018203539312800529,-8.030276867087098,-1.0187948083563485,0.000979203349465534,44.532944297747356,17.21776261275895,10.80352568102593,-5.927695844259948,-2.6254164848717876,-15.378202625217794,35.3177080440891,28.816405398337007,3.695341847524135,57.30568713337402,-6.286588552808061,45.00468032648412,126.06663713408007,-0.0019914893442422145,-98.36565897732982,116.07888952865439,0.0037345199064665107,106.57030415840869,-7.30476565207244,-24.208106345846783,0.0016786979929280849,-4.580920185948601,14.102490309890284,-0.00023837961819196947,1.6086574952190902,-10.462594568554968,12.23037647441949,-20.95714845709594,-14.311670043953631,7.32632622841211,11.41425847923207,5.405228483161444,7.591012369091557
7.013083958768797,0.0,0.0,0.20909441455174207,0.0,0.0,-8.492299265570667,-5.076478397623665,0.009074494980918911,16.58006088549969,7.0250643961031205,-15.929038952398889,-51.93017724589964,-7.715841707454387,0.0006490911269060232,-11.70227416664131,-1.9881472707308951,-0.0012716407013398314,43.18817290593867,15.236183779857857,10.805194826844266,-5.731342988043908,-3.8937867398675707,-15.22993174850894,38.37979743791113,30.927484482335405,0.46342641971300974,59.004424110283225,-7.732027290910036,45.84904499497023,125.9515659845302,0.0026502363028941007,-103.09365011097147,114.65492424329554,0.00355643485878415,102.11624665321196,-6.708041079950982,-25.431088971559802,0.001366258732028103,-8.338182361650189,13.660295797573704,-0.0015773426225426336,2.360581943084726,-9.975656700449191,12.330500775095254,-20.153218409462482,-13.89970398084054,7.612614422995296,11.660755658838944,5.263457674285802,7.375052597309697
14.246261421039062,0.0,0.0,2.505047225375811,0.0,0.0,-6.1633051944456,-4.5593276530652656,1.6336013668730465,14.610260918861822,8.257644070499836,-17.44671701438141,-50.81406927012615,-8.404800130888804,0.00020979156503280163,-17.84183978560621,-3.3189502440169725,-0.003618458180257952,40.52888216039318,12.700201084864137,9.359702043975464,-4.108583488731477,-5.454245653043158,-12.78201990283045,41.72203329001332,32.523578165043155,-2.2613189115244,59.47093911897266,-9.273412934464636,46.33388874702382,126.36317224212468,0.0002684319748868903,-107.17900202595547,113.81570786227947,0.002798705766580487,104.61678524776788,-4.457089560687499,-26.012094908977915,-0.0003714442994096284,-11.515705535549673,12.885522527397223,0.005399756845288296,2.566993616492427,-10.344507688092099,11.30184513866585,-20.031294285841774,-13.851933637635106,6.50370235440373,12.418004729706979,4.742795771958894,7.414223507809348
9.482759078705056,0.0,0.0,6.910584733627311,0.0,0.0,-0.2628395773735513,-5.604902286588596,2.0789746102275752,5.520092582419902,9.522924891568566,-20.39955332807596,-47.41475890788665,-7.983905746482848,-0.0017259655191100352,-29.362011018972954,-5.289948034386321,0.017225935973454825,36.22789142108554,8.427565999564484,7.206613258907256,0.19650048908008055,-6.708766761315617,-9.668667698928951,44.78569821034073,32.285720583653834,-4.663726910062638,58.46445647260064,-12.845317125686424,45.69715924951686,127.05553637498305,-0.00744706828781194,-105.47524748649482,114.3403749284686,0.002873959649561669,106.45967148791141,-3.0733983644657785,-26.324580561534518,0.004693428361131236,-10.00445199267196,12.197329318445265,-0.001920276384357778,2.4872310538458926,-10.110001072327135,10.993785641994732,-20.102571639542223,-13.518942543919106,6.3083550693614425,12.792663852929332,4.0440519713725696,7.00536050597166
10.050550123543754,0.0,0.0,-6.140623923275995,0.0,0.0,1.8382893151965929,-4.450665652124877,1.3901148049869128,-5.368201935505233,8.579326179910847,-22.462946163947766,-42.35152213896028,-5.512047870828495,0.004427176500921646,-46.68669679480952,-4.706400928173603,-0.011798701502146167,31.825564895232805,3.367439924222819,7.2926515518238775,8.262093495301428,-7.570383465496716,-5.071124910828226,47.950243596026354,32.01267064020082,-7.357499773735245,56.57805372465813,-15.833804587572434,43.352033744861664,128.25461506365434,-0.0010895374997471167,-100.26175561166787,115.6746298191399,0.011477583066926833,114.71365511804443,-5.816544606698417,-27.864483847730106,-0.005099116871211353,-10.853343933897772,14.513899879216899,-0.002724608728151602,2.681936017945679,-9.330970494945957,9.039725733868544,-19.91366465955948,-12.059748049604124,4.791805126035199,12.909647145133276,2.517995152779947,5.7417913093801145
6.871360222602115,0.0,0.0,-6.76975864928248,0.0,0.0,3.2933964995005995,-3.716560173027418,0.3935242459143333,-4.75573623149346,6.768612523061198,-17.825998086512953,-37.5459337180968,-3.2954405503144004,-0.0013319140925927915,-64.83133039831851,-2.902803823332338,9.869605522288888e-05,26.968917642386458,-0.11898501425919186,7.672089220458179,16.44695461074804,-6.101756539805496,-3.9292311620174254,51.313431192983685,30.830292528878257,-10.445033213583308,51.928915298865704,-19.460373828182224,38.99425473641938,129.5364213316438,0.0030845861213311754,-99.72636135643101,117.71047686066032,-0.007952276934124869,109.84784979282922,-5.5671849885333,-28.273405872407665,-0.003201245321885408,-10.835085688895262,10.624906901137148,0.0018685012350481464,3.5443744737860654,-8.087991175367128,6.503851823474868,-19.024503421108324,-9.949484329066637,2.920248667538363,11.911369278960244,0.7912167227784795,1.9158287103587741
3.78203786449189,0.0,0.0,-0.256388138450643,0.0,0.0,3.143039174914982,-4.544430903215362,-2.991041525712712,0.8303022524884803,7.040911988445956,-20.460238256436256,-34.051483393920144,-1.3100112253504206,-0.0010132157074016562,-81.23200571236404,-1.7018305238631604,-0.005451936620861557,22.8724011749565,-0.6965643293145338,7.32401380095538,26.57786023600631,-3.14132568562715,-6.421289577021813,54.92141718999935,28.903984840188016,-15.038021499914516,45.67883255238708,-23.13096131302607,34.91448327005109,129.10949975457078,-0.004510244881807352,-102.25051270158714,118.08527597278768,0.005088724872560504,116.15842725435843,-7.38283696149355,-27.418502634015734,-0.00031843673942941333,-17.295282510648292,9.616635349437264,-0.00102178039586762,3.250262085973437,-7.001072588533392,4.592023703997557,-19.280816034066966,-8.21884760883589,1.569737791717487,9.942346744767415,1.0518732405519948,-3.046688899347804
2.959043241720672,0.0,0.0,0.0739177808814888,0.0,0.0,1.3075985428186343,-4.052324504156803,-8.398880711512144,3.897170541334496,4.3484862553731425,-22.987354477865196,-31.184105886595496,0.2918409653097827,0.001554239449297173,-94.3877283086081,1.787368537682877,-0.0009888741364720663,18.969621745740547,0.7516821244686073,6.901378882087174,38.561025035534755,0.36924326923180695,-7.113091195241614,59.111813028119485,27.259511469731596,-19.091243095381298,41.1548895383877,-25.142654585251915,30.775844498335356,128.32749474812528,0.0016414548856456075,-106.65246736009037,116.1272931036889,0.0006912368643115735,113.7829429384186,-5.55903655076031,-27.51088566213616,0.001586790553994031,-19.610043381803074,6.807388604907256,0.0007101207979537972,3.5087845769902284,-6.723601982861545,3.185771919590301,-19.0168397256544,-7.427606536226435,0.3752978675206995,5.873662392806613,2.7256281085947527,-7.874584587026411
3.1700792526102717,0.0,0.0,2.756865274668074,0.0,0.0,-0.7215354157322197,-4.500251592694676,-10.219906513523851,8.02788528254037,3.7779551193913345,-20.700890410303032,-28.96069138039888,0.5742534893016311,-0.0012063837673032026,-103.45599325703542,2.6947835347680025,0.008918731704755125,15.629646702581212,1.6621255522544935,3.4644659193411456,51.376061641427796,0.874542588424566,-10.423407636708886,63.236576710565814,24.589041833588457,-23.200768020385564,37.90407639118323,-26.722104688134753,27.07974878877105,128.24640173366902,0.0020748786605665165,-102.44862576799412,111.3909268088713,-0.0006008013475670436,115.95339084643183,-7.7100832864657205,-27.33234990515056,-0.0034773086688747352,-22.39239699697437,5.091060662361943,-0.0066990882427187225,3.3448947611835282,-5.7422846630417625,2.1688099891870625,-19.136728252942827,-6.134078002333147,-0.18702297135752968,1.5426916564323028,4.006175889337629,-12.302089268069377
4.4332657910997,0.0,0.0,6.417051650666158,0.0,0.0,-1.921352726910579,-4.626707988757821,-8.886181925577047,12.754812755733917,3.171126476999314,-18.608015530544378,-29.06265592131717,0.05935544962859374,0.0004692438475398659,-107.26933968662962,3.119326428114954,-0.000983377064776373,12.770187021388239,4.93228604000781,-2.0050918678679865,63.48312898368828,-0.17777821750547274,-14.713451627380225,67.87635982280584,21.309516891172862,-27.321860783951625,36.34953580836557,-29.19690869095639,23.36185199452604,127.38238374841607,-0.006466688422200701,-98.70440583250522,104.72138404288708,0.006499895046855596,108.47726098411701,-9.079630582902015,-26.118305895140676,-0.002216218057385071,-23.797078490107364,1.1185643516124337,-0.0001545079952635606,3.824793185984369,-4.721021720068138,-0.21854911859289877,-18.603861877012527,-4.282141849094585,-2.0016014690852537,-4.028219207881524,8.279407393338145,-15.448983043159364
5.891535666379872,0.0,0.0,3.8277465329282925,0.0,0.0,-2.655263625811525,-6.520729891399237,-9.902919696063192,17.158720247845608,1.7792788445750651,-19.28631489177004,-30.94781322060808,0.9078103844691072,-0.0041776489815331325,-107.20824251790377,5.246820480504215,0.005911012131720967,9.431957949689108,8.400154011889928,-4.080517240428623,74.69970092799419,-2.232965723756506,-13.882266265599805,72.14581044857186,17.817755327301754,-31.077171668386725,34.70896643036348,-32.3816455781725,20.9500702053522,126.47785058310042,0.00542590822742135,-102.88866513168676,96.2037147185551,-0.015764357028800486,106.24399453036642,-4.439839968845447,-25.624614564564865,0.00294223169902563,-23.751974431956715,-0.4301655936010427,0.0094676609932192,4.012455145857325,-4.613408384970324,-4.605467998628915,-18.29695991706361,-2.5179650226747032,-6.010916637401917,-10.352023660433114,12.127386865154236,-17.012995413467117
10.675624698887622,0.0,0.0,1.6188819771829224,0.0,0.0,-2.413228366739931,-6.527236526519694,-8.949501381872638,18.40478507608304,1.1862600403545895,-21.473442107699693,-33.867757059051236,-0.13713182658415562,0.003986789630553526,-102.74051178974841,3.3685531679770038,-0.025422235232488394,5.471855538406906,12.927897041166034,-5.40592339047076,85.47558256135638,-2.344665387277153,-15.062044709870293,76.80160408238052,15.780775046551547,-34.58130833278264,34.429882307498104,-35.61263776766288,21.83814356815776,126.12890957124407,-0.0029048493123754273,-95.38358517093592,84.97269629795048,-0.005567605601775747,107.03406003342015,-11.423449821083128,-25.284487267942556,-0.00932303324334795,-25.298617926656608,-5.918409071373608,-0.006861581186836057,5.479035716277729,-3.0504300127160184,-6.433858955251113,-16.735931310724244,-0.38040152447208464,-7.107494539434407,-17.447528177770668,15.434100884875424,-16.219507093606026
13.506868170190463,0.0,0.0,5.391214699169072,0.0,0.0,-2.142105602368877,-5.448739856063576,-8.309510093098602,18.988751719767663,0.7329772166552267,-21.384901340965108,-36.696891694394374,-1.9287272443007715,0.0011337655911752124,-92.2779366352935,4.7737059802703214,0.03746470381726227,1.664551555800596,18.656564818654125,-4.075125660045852,93.04213307060084,-1.6484964982759123,-11.538968931217845,80.47046609883401,11.955796204762784,-38.15636023898102,29.932950021415245,-39.782699723750284,22.5557376914998,125.35352653720676,-0.0007507275255971437,-88.8431492759816,74.92875589049154,0.08357362462252246,107.5350706012093,-15.423928258804244,-24.042744694832727,0.006632951830255281,-30.38786725298173,-3.1317078348341374,-0.04113837988076424,5.5111386562143245,-0.49932738356036027,-9.393423389677396,-16.569900389480186,3.09752939814984,-8.886277650629802,-23.311196553829472,17.31919545442966,-12.381905253732848
18.509371163267083,0.0,0.0,11.06458856367051,0.0,0.0,-2.2566577971289963,-5.9758548242246015,-10.031695602903914,18.84065597433642,2.4007940349565966,-22.937854356972363,-39.03983697726011,-2.4221660239363456,-0.003469109656171605,-78.00602465730947,2.428247151927021,-0.036716869539864444,-1.5414591106932696,22.50213384443168,-2.581816610041589,96.78987866053879,-4.10024869995347,-9.736959936754392,81.60506963954018,9.592050342929573,-39.14492362934735,23.961672550799147,-43.2440432639849,21.410525186516505,124.37461053493057,0.004285517494525288,-90.61642596915617,59.399850306946156,-0.047196811989990206,97.60240168189083,-10.460974296953763,-26.21099180360673,-0.007527340678115123,-30.70986193946891,-6.397711783370836,-0.017456174583990885,4.415208453580038,0.7449073489824729,-12.249746494770635,-17.511268001180824,5.3213559365542125,-11.074278461601462,-26.05356496021104,19.159168502040835,-11.6736349135191
20.407380252559573,0.0,0.0,9.42054412132879,0.0,0.0,-1.801796259328674,-6.449363013053645,-10.928345583024134,14.277395031180042,3.4931234582362793,-18.525613050487312,-38.45577020962704,-1.389574402029559,-0.0026999448124137176,-57.757493934871036,-0.5587348919462296,0.027445099865036286,-6.09959894617419,23.57026041992492,-3.4365770530982664,94.0629237235835,-9.353025803115415,-6.388342815114477,81.18202555497999,7.483993592756818,-41.45166785102117,11.959008572492685,-42.241814825357395,12.734221453059238,123.10234744457057,-0.0025256312818229716,-98.16419554285554,44.169574671770526,-0.01596097353028395,91.65611656794543,-5.1365547213870775,-25.13200444229837,0.0011397161866653729,-27.50505823864418,-6.446613484556677,-0.011662333726651137,2.24164104667899,2.020531278237348,-14.602867019890061,-19.55146910989488,7.381165245952731,-12.793178436677099,-26.216817419152086,19.979112162367873,-14.76483330337485
18.524947656098757,0.0,0.0,14.12419870310371,0.0,0.0,-1.2882624771156763,-6.608916518369833,-11.754713634416197,14.53913714128306,7.240167681010329,-15.041431545586313,-33.991267287411524,-0.5042707474239763,0.004403336996320296,-43.438619544369615,-1.7270921246085666,-0.007340115958874274,-14.868737391498982,24.468996126016346,-3.8986115795904555,85.96938069866026,-14.123862183435824,-6.427751236166069,78.91766094820721,7.5249067527912885,-43.733291382443895,-3.650198327802631,-38.53368772266965,1.3244421367576729,121.71811331687401,-0.0019493286215488382,-105.89265481144773,33.37020084391273,-0.018557107790611604,85.21793774784668,-1.7774249503983444,-23.42644733479861,-0.01589143582525641,-31.693373698740867,-10.3007110477951,-0.0010370979070474236,-3.672138783203507,2.3039028087402276,-15.818112640719042,-25.37209288485493,8.094309978012598,-13.825533881965663,-24.89639410389436,19.64456480120308,-18.614916446962493
21.070531435236603,0.0,0.0,15.950172918644355,0.0,0.0,-4.163377591775031,-6.835961899907475,-13.304323868424364,16.80848482020026,6.889908850033041,-16.225024436709244,-29.767874757140884,-0.05056205845032319,-0.001348278620864043,-39.77380205061766,-5.084859120021272,0.002974552116522595,-21.024720353559974,24.56859948885002,-3.314464881584438,81.54292523120206,-15.32091747743595,-7.871295939866641,76.72664181346312,11.347922249252147,-45.515606033427964,-17.229059864878394,-33.046231375344604,-9.589614730836141,121.15496372859805,0.0032565586499588278,-111.51212745901398,29.868677755625626,0.005786210266526936,77.85119422110762,2.4746173190475793,-24.729813073676414,0.004058700570962799,-35.600433414263954,-10.998997142721313,0.01870939455450652,-10.149169929635313,1.4188861266577528,-14.261425943672622,-31.943587634268688,6.6958264895290105,-12.698944440332845,-21.744809321620615,17.616398489738472,-22.535056264402375
26.13509441056726,0.0,0.0,14.08058423997663,0.0,0.0,-7.550581399348346,-5.056894750618144,-16.55855711429157,13.349573299323065,6.6812676682239855,-16.486022035667954,-27.517543349542862,1.9447908938105292,-0.0009519518950369714,-36.142416593164555,-4.713321121141605,-0.009611682698967387,-24.269144961060373,21.466600678754606,-2.816412297518233,77.46866449959806,-17.20873458095597,-0.15710415760834384,76.51373707317191,17.619404240957284,-46.97277421744976,-25.58378641647542,-28.53809401602791,-14.381499392129193,120.8280813110659,-0.0011847840812774823,-105.26464563772288,29.84828748124391,0.0049534084961206796,66.10102780918878,2.898068790775579,-21.637024952265406,0.0006510496756069901,-35.330914190656,-14.212519449626996,0.0004602978220704036,-11.694903561885427,-0.023359371803419335,-9.974013648503172,-33.75179701493144,3.756769797445614,-9.24612820389003,-20.94919230280422,13.692273744350375,-29.540501341325015
30.94293666285122,0.0,0.0,9.414583880232033,0.0,0.0,-11.558784752208803,-3.8714807327352987,-17.60812476567431,7.137523244397409,6.580968377540419,-14.975769161131701,-25.87360135599997,2.1969909101516967,8.272262289927041e-05,-25.235609581805264,-3.711959254851613,0.01108050505673583,-25.152217857112458,20.025960659145284,-3.0685108650232378,70.0568363385912,-20.98671059387313,2.590210671099247,75.77344093283443,19.32751710912834,-47.658897166327,-29.991035452594804,-22.8154301852889,-23.050611240228925,121.0214526331504,-0.0022849832742938775,-103.97883662073636,28.95795131089021,-0.0006409699144804433,59.747850596389306,1.6314293370073414,-23.003792955719863,0.008879892820749578,-30.142779434414873,-18.854088088613285,-0.011158525053324854,-12.527292502051088,-1.0077361260283864,-9.882700234806089,-34.56864930662737,2.810110687678377,-9.531501848738582,-20.93248021744052,12.368956700774966,-32.820799908729356
28.793580951651016,0.0,0.0,-5.462093297208736,0.0,0.0,-12.203353687230281,-3.483908681603147,-16.262314947031275,-1.2973516066299668,9.256941983594585,-13.52469921394629,-23.2078948394617,0.2553771810333322,-0.0013685408758654352,-14.04415168036896,-0.04808282277653392,0.0030456943946551114,-24.275504262986832,18.49603545671431,-5.199347954296845,64.81336008074135,-25.73676345027711,1.1627839098265917,73.23804409311205,18.48614897260863,-46.66055683745363,-30.582753475582887,-18.056942924239593,-28.06130531220138,121.14287158351144,-0.005114871535845351,-101.78396800267612,24.68870281508754,-0.01595962328789805,61.38780557242546,0.6456679337473025,-23.26354955369418,0.00293504769131117,-32.437658270541014,-20.406126549007627,-0.005007465580179781,-15.503160997439219,-1.896940576832765,-9.667261207356834,-37.544455045467096,1.9050709475177379,-9.66568044559652,-18.621033824073617,10.925888553180268,-34.03201256166757
19.82683466244742,0.0,0.0,-8.473485585073705,0.0,0.0,-10.62300977459528,-4.273388209332493,-17.034187557152993,-6.906067904754835,9.790345841272629,-14.902312740375052,-20.667528999191727,0.0355482341740078,0.0009040490454497725,-11.871582370727111,1.276909847447593,-0.0018442674077749966,-23.087212771676512,16.84713395612412,-3.630441896868322,62.03768725043471,-26.402636339315897,-1.5769394598473834,70.34125074083501,17.887769035274125,-44.51722530519289,-27.882408144991274,-15.923064476074076,-30.95144535732273,120.77365409114024,-0.0008619790703649928,-100.79138647531002,20.357091470207486,0.008921752050909126,65.72503703027917,-2.389475884622406,-22.31594427911346,0.013643039184921062,-32.516367296365445,-15.701020954383281,0.0071486010821820095,-16.589644233662977,-2.5315960453050566,-9.021247392329455,-38.665251833523264,1.0744384046179567,-9.305622037833924,-16.161590956603142,10.27980492788864,-32.780008639001736
16.410033186041478,0.0,0.0,-9.327267431223117,0.0,0.0,-8.632586990255248,-4.62128980236186,-14.964271339093228,-4.504999056549721,12.193207556810659,-20.293444777203618,-18.68220748667132,0.8264452378051819,0.00026423448683229655,-20.055203076491075,0.2875273494902393,-0.0064210278954184635,-21.24685439883435,13.281797992399326,-4.374834109298854,62.201225966234794,-24.621508237869588,-2.4747808367888426,66.89570924396521,17.426706951268255,-41.648757728226364,-24.160378657893038,-15.934650560457774,-28.932453192033417,121.45141692591459,-0.0019439388605854944,-102.24225299038943,19.080233641950503,0.0006598502100026906,65.4753440106796,-1.3083334446745596,-22.01537142577536,0.003423665286757108,-30.57917663846753,-14.3219470205867,-0.007440733856880149,-17.17305722678782,-2.5750613936695603,-8.968971597618047,-39.25159362971853,1.0145345736532203,-9.27355848147665,-13.314469476262223,9.257690789014493,-30.397656149063383
11.163339638111667,0.0,0.0,-8.503203578170972,0.0,0.0,-5.451403046801448,-4.778790337029938,-11.470375728920185,-2.68775323704828,10.32030033951144,-24.255012654714534,-18.360626108358705,1.6041229804199086,-0.0004047409656691994,-33.45203557021665,1.4596311809303757,0.0016122627761425096,-17.357042188243017,10.048713520635571,-5.641721264301328,62.87688717980267,-23.143770071580967,-1.0096196067226506,65.16041062380461,17.140429472440722,-40.090821262576924,-19.10413849069304,-16.97606186804024,-23.427006409526193,122.08049239053095,0.0015977377170009498,-97.59640449641107,19.672315634998842,-0.004853212050516214,62.38404913186264,-1.6245880570611348,-22.338971349540472,0.0004213283233552766,-25.961496320873387,-15.475790446483757,0.005315810522938578,-17.84720134418655,-1.8301371393626664,-8.786417877573818,-39.94312462812096,1.636199912943245,-8.824308420278985,-9.969917798319727,8.728015795748826,-27.218368220899283
11.57816806236815,0.0,0.0,-7.546398503405079,0.0,0.0,-3.891060416237788,-5.065521301884644,-10.3612209639675,-0.644542014082052,8.813482616349201,-22.431377708529443,-18.598195039132317,2.4578395701243565,0.00016694748879056526,-46.72968410444987,0.04577800069962917,0.008837032329586244,-12.86384638637166,8.250875092802003,-2.761562106325091,62.10004869231713,-19.382613677733435,-5.091063671552702,63.90129985374556,17.39336909959339,-38.31069457544506,-12.800509219885278,-19.193568370674406,-12.908296801032314,122.15570760908223,-0.0024538713554528952,-93.16865623290406,20.982395843716635,0.006760228909553093,61.91592412828329,-3.133588786664674,-21.864577416697156,-0.0007058212090122783,-24.08619397972975,-15.655820387661883,-0.003399905061757398,-17.924208741438314,-1.6392858611497052,-8.0252423141553,-40.06463087412438,1.5265372871946168,-8.047311199452718,-6.344700921223379,8.932728939627884,-23.206270042182393
7.579964242411194,0.0,0.0,-9.314278401857191,0.0,0.0,-1.9756160987460116,-5.226475520760828,-9.047528156090115,1.0542929895387887,8.685659926605075,-24.333384602450135,-18.14665394235361,2.607559419321663,-0.00013710886301891717,-57.6196142683508,-0.9146021056008362,-0.010171002924302184,-8.169452615644982,6.448586267843862,-1.2560340275946595,59.23169084234621,-16.44608586924591,-6.709053585595619,62.43929571245494,18.795777379073915,-36.969781871358975,-5.011449264313258,-20.352968563151794,-7.26041322869124,122.4279212109424,0.0014011807192161323,-86.29794208546839,23.51425777474218,0.0032132056418981117,69.25561539441745,-4.3113706003753896,-22.375012924596323,-0.0005452956040102052,-22.659257562447483,-13.61202967609085,-0.0023854904769388197,-17.06009091070943,-1.105246271332171,-6.195427068045635,-39.291612828097065,1.3302069717739964,-6.151217783948595,-2.1647477383086726,8.698575337677623,-19.88846638913977
5.596235499680323,0.0,0.0,-9.690699408797906,0.0,0.0,-0.488963944973566,-5.134756161863963,-9.11883817941439,-2.4858674291482505,8.288569809350012,-24.685564560718323,-18.177065373102632,3.0875331649832805,7.144363242756686e-06,-65.67881475245397,0.4093998497517426,0.0004897303052564547,-4.120355022414999,4.275268572896479,1.0796594102161852,53.8368612186881,-13.827002255274335,-5.753354476259177,62.131120222493486,20.50323330439853,-35.850611164880505,2.9586211698081715,-21.046883110301362,-0.6270078311029392,121.99334834658345,-0.00039360940268969925,-85.42898925159167,28.015893191669,-0.006708939115211406,68.97464973810894,-4.6543187583309145,-22.255927354581605,0.0005418701490122249,-18.846165178359165,-12.297961736491933,-0.007966669754828497,-15.835696483536498,-1.3346757181784565,-6.1634888268177255,-38.06668249810873,1.10575493673083,-6.2084852115228255,0.6665903648376765,8.007743013631613,-16.05444568760103
6.809452595305495,0.0,0.0,-9.499692592103273,0.0,0.0,-0.5049104751746887,-4.665778351837913,-9.828807932937002,-7.945626861431583,9.393616071343844,-24.688172702928263,-18.453226824143588,2.174889996022301,-0.0003897283905018801,-70.41064427346488,0.16977728410350487,0.0011749210635972726,0.24630499280371376,2.1502921883461803,0.49332219963209484,46.541405049358055,-12.92148874425646,-5.596361257979493,61.59248112257847,21.194801215103052,-35.80435856356745,9.097744957370434,-21.358876359890868,5.357686746620361,121.84279664432367,-0.00017001693804763384,-87.65928090570637,33.27092151353583,0.009833514837012499,73.74853646618463,-4.727325704178656,-22.519546574530974,-0.004271866909545154,-16.765385547887718,-13.725273923926355,0.007964039435139686,-15.16028439322387,-1.3242605250562982,-7.833609471050603,-37.31411090504853,1.746091301553684,-7.750992535059411,3.7397639416187016,6.1239800267528945,-12.902066120068344
3.960612922472125,0.0,0.0,-13.309984845850826,0.0,0.0,0.8828562405134698,-4.325184828838766,-8.653402215518616,-14.322485871548542,10.585912332649025,-24.847321639693362,-20.023380672560098,1.2904434091460395,-0.0004086987470635646,-70.67127121979132,0.99490015793033,-0.00036279818287582685,4.660659226064525,1.2856080750946197,1.55193561387552,37.21624696031515,-11.396509207340026,-4.988078727601808,61.003117391902755,22.333125530141693,-35.22888612122712,15.741708427908373,-20.525940935392573,10.31551409589128,121.43176067065176,0.00042391486629568667,-87.90998844502114,38.82937049339178,0.018752276987090987,73.75090445739349,-4.189599476167614,-21.991325039072244,-0.010371014347127212,-14.268403492022099,-15.715061878049301,-0.020249917144066872,-13.233849474499744,-2.2435236089931143,-7.266343785409186,-35.409124860486834,0.6808614627974217,-7.572678914926332,6.063577858887897,5.402291221323869,-9.66168805973088
7.6238307825114795,0.0,0.0,-16.26761463222657,0.0,0.0,0.7910634218049163,-3.88894033601591,-7.299096459159117,-15.50683247997897,10.36393682240788,-25.57139779216252,-21.6753627158865,1.8089625793807471,-0.00011727507515863064,-68.36513828939724,1.507404296129427,0.0026955098876147456,9.850173425832045,-0.535812840758339,2.6046074080726664,29.387212715073247,-10.808456708879634,-5.123707437066067,59.7643801897041,23.60393657090234,-33.75422140104493,21.307323831452056,-19.113836252067866,15.009149134570844,121.85947865264492,0.0017836516386167507,-87.08982705594029,46.03867087467365,-0.043902005465478365,73.93352680289642,-5.910777287428915,-21.907245798371285,-0.0006230900103101031,-14.004611292613964,-17.459475566285814,0.002671047941729301,-12.64648116958609,-2.814314989998173,-6.358190745832918,-34.86450007862925,-0.19038213452613245,-6.948267800093731,9.139495172913175,4.669703667625732,-6.233000801008813
6.1958805057352,0.0,0.0,-11.01387799983844,0.0,0.0,2.821822194939193,-2.9515185419964625,-3.775173300527174,-13.599292125253957,9.065298339057295,-25.57121684723053,-23.503383832674807,1.5802784089217345,0.00031703991221423885,-64.5294710659155,-0.9095068516303152,-0.004027698426817653,14.534217014622639,-1.4010623305046233,3.326332800241571,22.81211003177999,-9.647650993206698,-6.801219697276424,58.91747170042874,24.361113091705562,-32.16413424935894,25.201248145639354,-17.827153866783366,18.968131400358153,122.09337638688822,-0.0021433104338091776,-85.48321517152263,56.931446104298594,0.040854128220571946,80.67275991112656,-4.65542415050356,-21.475592808907116,-0.0017929954170622666,-12.899326127750511,-15.219494911993724,0.007852925621311319,-10.62619479271711,-3.5433851771026887,-6.150935570121683,-32.85654046405812,-0.9435651477591834,-7.032458241214972,10.934835537530734,4.3767720748970484,-1.7460140463891203
3.143158990045225,0.0,0.0,-9.52124284571712,0.0,0.0,4.310250979803058,-2.791421061821043,1.5821336316848147,-8.751745437890929,6.616438912299116,-25.20571753097159,-25.004201721788046,0.961124273732029,3.752605368525531e-05,-58.2570776768464,-2.5490707326593185,0.00864348547396393,18.03954956774925,-2.3261130299922406,3.466289591067862,16.705632551449824,-9.740810270042426,-7.570291776414361,56.51980005226934,26.165366741344165,-29.08041144933106,29.339532844622244,-17.054989691117058,25.401540459406274,123.50507868580821,0.0016241275272818206,-87.21418110581564,67.65454941086435,-0.009373533364597621,75.9603628996707,-5.262179604183811,-22.891969161780377,0.0005791980737995168,-17.167059668401993,-15.480391289465993,-0.030908211484422205,-9.392188582023387,-3.9173226223631596,-4.837985888850799,-31.682445185182146,-1.7859487065486095,-5.96128373977248,11.071650350823484,3.834611028470124,3.133872602695592
2.566166798876949,0.0,0.0,-10.931142201466887,0.0,0.0,4.3628314440519045,-2.7134748307566303,6.5400975866485025,-6.004186166139609,7.2892212485442665,-21.825324732462615,-27.3543809765997,-0.08075485767205795,0.0006836697348431515,-48.873317160775855,-2.673355273105062,-0.013875193742916634,22.08088389172762,-2.1772344396547223,3.50552310989115,11.819457161627371,-10.408968787214285,-7.180465054658576,53.609575117323324,28.249014267335426,-25.008058163757546,34.37506350047813,-15.357405079547414,30.85674079154259,124.98352184702685,-0.0019288750535046669,-97.0266569726746,77.98286148116419,0.008030003108934768,79.61067890026274,-2.818377656381473,-22.878466147160715,0.0077985489648926265,-23.502258942094887,-11.776664687676588,0.010067538595627788,-6.8863840326151,-3.896351839746063,-2.0567377315781887,-29.262598110563147,-2.821122885676656,-3.3846175818194775,10.409259702440675,2.96921452169872,6.860557959623001
1.755729614312341,0.0,0.0,-3.5256869944433364,0.0,0.0,2.78191068736878,-3.1891118125060673,8.01389004459872,-5.103275377812272,9.224520371292508,-17.44280873306663,-29.866339950579942,-0.4461256366481355,-0.00057253695509096,-38.12885238538054,-3.5222865383197677,0.012048253244378715,26.263894140406045,-0.7671467462764647,4.931680107365492,8.14706360040827,-10.103548499120327,-8.786127816464091,50.02477084417719,29.75994258701046,-20.781056890424775,38.89563628685305,-13.79641172716287,34.49504558302286,126.74867062416605,-0.0006418725176337096,-96.78741226325712,86.652913759264,0.0011903275980236193,89.14164904712679,-7.150856834557526,-22.820506143137788,-0.004776789693997167,-22.756973598135648,-8.943786492625225,-0.003383764594590171,-5.171778701221252,-3.574801233359751,0.21945542609130292,-27.575728229867753,-3.389118082492475,-1.1587779691543887,9.108344105565381,2.2293392819049993,9.082598876755938
0.9592935833891251,0.0,0.0,-0.18181253213818552,0.0,0.0,1.6091369750913145,-4.793196909242731,10.21607980501985,1.2500988327351485,9.987926850509142,-18.85414894497357,-31.47651772890094,-0.8283472497162417,-0.00045860507062180496,-28.859610544263752,-3.882713230161735,-0.00835368879801644,29.445999786880613,0.9895789599038838,5.612416608167413,5.899075524852556,-9.80829604563296,-10.104402166964897,45.284032694914025,31.139372205876004,-14.050292629888764,42.844667258775196,-11.027904073950461,38.393030130162884,128.71561529703763,0.00027012335742743096,-98.95827618022278,92.98307168357472,-0.01636689935369796,92.17611215907229,-4.964129261307075,-21.9290229494658,-0.005110885645758756,-19.63997829007323,-8.937303926374291,0.0007842033112625086,-4.534176788833581,-4.058831236072263,3.212778361121538,-26.94897758920774,-4.9753525997556185,1.4246906970049278,8.18108052519937,1.6910070302189295,10.68522602657089
0.5259624714801763,0.0,0.0,0.012334835522380029,0.0,0.0,0.43230464842021793,-5.57732017844204,12.48925062390936,6.202898480266318,8.914980682536655,-18.035337121297072,-32.73810997837665,-1.6143470855608968,0.00036580424956530013,-21.785255426121246,-4.562124204303092,0.003475569197782127,32.08457776803785,3.2897471591456533,6.303605974208397,5.349295906989282,-9.470850791783823,-13.430576579887298,39.7973136718401,34.107604215231525,-6.597591762534049,47.209091668295535,-6.581864695924019,42.51067141398549,131.21083376854534,0.009466150329810406,-103.66913942407444,97.35662530062778,0.009369104467512076,93.46735669750802,-3.812782767631787,-23.831566502194455,0.0011538791021873435,-20.60627622881157,-5.8828238087810725,-0.005018942928277173,-4.263937065325754,-4.340745628855679,8.311646022371246,-26.563075238093045,-7.171377604556556,6.046129081535614,7.254801267198302,0.7316758399379752,10.741420065356698
1.2307171486060937,0.0,0.0,-1.7067443453714535,0.0,0.0,-1.3452678787474504,-6.104038003397158,13.347038727620108,10.258489971262565,8.70149400146563,-16.144653094200677,-34.08357533941934,-1.7253886977625281,-0.00024586202027006,-18.502305008913282,-3.951972373992111,0.0001073932762525008,34.62169339470599,5.3167684770155335,6.75373194965873,6.168997698636412,-8.99981791872753,-14.849888249074914,35.51495447202624,34.269242170261556,-1.4811482084684917,49.20103739256588,-4.987890221763033,44.10246697001011,132.50013674371274,-0.00411367791563347,-110.22801516760026,102.33382096263095,-0.005518685324419804,97.74756078060726,-4.370549832412064,-23.450511739819724,-0.00786927339229046,-18.853398168808166,-2.709628072238364,-0.004374774402467987,-2.4551657331042906,-5.246691934231214,10.635856114608242,-24.69459170961309,-8.887497910541917,7.863970850660989,6.000174451848979,0.5601174721123257,10.526237183085279
0.578489667042369,0.0,0.0,-1.2029547716152582,0.0,0.0,-2.361351440675546,-6.667582574625276,11.789460110180277,11.747716338769788,7.910172074312019,-14.261392246920913,-34.00402469973117,-1.0528693831381803,0.0003729290812214817,-17.636994213406865,-3.076808332509023,-0.00023637504592929505,35.79788073251371,7.298928454356195,8.492028828679539,7.2813755920121945,-8.391972661025623,-14.802186099102673,33.46541832680713,33.53330893909274,2.357859277608814,50.15339737990481,-5.208687044370881,45.14313920463645,131.66455404269232,-0.0026471744270310524,-108.78335048360276,107.50683511744646,-0.0084268134094361,103.37424042216882,-5.892208320763765,-22.306259376933692,0.00229314699081032,-19.27649684648703,1.7788129576630753,0.000200897157552459,-1.4011091742844872,-5.623730609427159,12.225178107558333,-23.5730849793576,-9.834549281656285,9.204152177603149,4.385911499566632,0.7866492210926583,9.73074085268945
0.48228465068245363,0.0,0.0,-1.2118089039547961,0.0,0.0,-3.9860967985709945,-6.227951925847497,12.486191775424361,12.723821016312048,8.244953616094755,-11.554077959622694,-32.502946149292946,-1.6339072169537328,-0.0005264399143228999,-18.074339793266653,-3.0197904327033034,-0.00018634077880955993,35.931467634403354,8.9402115593817,9.183183475307423,9.059260393515466,-8.070752953104394,-14.827089532783122,31.087408917145353,32.563061543050395,6.195011032613414,50.215814338236086,-4.9962766182878715,45.967522688965744,131.89088081369783,0.005977265048224514,-98.26052726213338,110.77086093027194,0.01676531136718705,106.76045366199448,-10.65503842983306,-17.811325592349565,-0.0014999825463357344,-21.258785307189378,0.8700293405666835,-0.001331770600237418,0.37279050005525805,-6.08563919508751,14.003748372226234,-21.712201894574463,-10.928928564017447,10.693498427633775,2.9875039687693326,0.555018772744854,8.928631615922946
-0.192984363262486,0.0,0.0,-1.5050232345880326,0.0,0.0,-5.7123861905056605,-7.0060949621395405,12.662245087053797,13.19633944388124,8.100244486503192,-11.294169485198072,-29.98929933625248,-1.7155949252273452,0.0011094100343247554,-19.03459803011068,-2.7713278148662988,1.538197498582567e-05,35.611999368929354,9.98732321782888,10.475130702454244,10.832872286869454,-7.572859443285829,-14.46837661983465,29.306583497028974,30.90752489395894,8.87125609373261,49.36990488527377,-5.367711240183909,45.66509147677022,131.2022668193689,-0.002112587916289825,-88.2141899833522,113.90212502504689,-0.005386326368310361,106.41164982651146,-12.240710500230191,-14.561548114158827,0.0030729497612161376,-19.22014548723448,1.278190324857761,0.009183420541548802,1.0717066207325667,-6.535477515240113,15.062871576715443,-20.968004636858556,-11.74123865491815,11.516211378076669,2.2081636675844476,0.5766264884985868,7.7954764911239485
-1.3217872067306027,0.0,0.0,-1.8878746419411754,0.0,0.0,-7.187362611370437,-7.187079816209403,12.759927258516797,13.19350886355467,7.307972162932801,-12.467559018202191,-27.30181515953201,-2.328882956355722,-0.0008555459377456477,-19.29253752770058,-2.742124027918512,-6.659455454173024e-06,34.4730254472866,11.471375328957404,11.766370376498635,11.691082001908228,-6.2356869119013645,-13.280175902255333,27.959531351544673,29.23674461604001,10.02382790713139,48.63943623034174,-5.839428321404442,45.206061897487835,130.59371379160785,-0.009556144085907714,-92.24407050914081,117.19484033564599,5.410620655646849e-06,109.70259118267322,-12.95106006811657,-15.639928481705352,-0.0028424973617087305,-20.77334651708792,6.102676725463304,-0.006593817260795252,1.2123108852251263,-6.740509121448259,15.615958660363397,-20.79991653018546,-12.137337845828583,11.958155307761865,1.1936534917470134,0.8053348885792073,7.069086611027687
-2.2908154452201988,0.0,0.0,-1.8730134550917952,0.0,0.0,-8.674194798842535,-6.385601787124359,12.880944323432496,13.454109755115093,6.910469576486688,-12.825527706463275,-24.722824112485924,-2.613031343463914,-0.00013187770400631372,-19.243978261979738,-2.683606399641774,0.00012536093798674815,33.35863318424946,12.159490866069685,12.708137366346689,12.121400125456903,-5.379109266211763,-12.210369194302203,26.195719549183806,27.627659464407326,11.831946048262465,47.93680491103146,-6.395540966026605,44.64627310737146,131.04142522737072,-0.0010746822580392098,-89.41348574242234,119.38363970100285,-0.0008259954192067217,107.96940123618484,-13.91063186159321,-15.541217369196199,-0.0011365163418669277,-19.954093792079817,7.04607976760744,0.002135767433767471,0.9629699507151603,-6.754132559043315,16.408432691554985,-20.98447547730856,-12.444527850907003,12.69983261091834,0.7611786190935741,0.7678372051059682,6.43867412992524
-1.7197919866772564,0.0,0.0,-1.5330826548885963,0.0,0.0,-10.176603964449784,-7.020199930640089,13.102981098232068,13.173312600005936,6.233272733579703,-12.306172906353488,-22.52034709350904,-2.140637432951883,0.0014304610007449391,-18.633594772251012,-3.138833133589732,-0.0004715778669492146,32.34655932383069,12.432852861809867,13.504448412676185,11.84879262416006,-4.37900969046922,-12.73279327401841,25.320832446809327,26.60129368557913,12.684857366643136,47.50974001513212,-6.913452828062762,44.18246164188478,130.70716581887018,-0.002012007391043184,-95.06963180254812,121.02468096774204,0.0004931129865155707,108.38039297472498,-13.158282783296242,-16.13402072438491,-0.003171730264766282,-20.061909740714366,9.467251095018431,-0.0012456332674453,0.7317027459854863,-7.552478548225861,16.395838834838067,-21.28476632646155,-13.180163444601947,12.381497509461163,0.3470436716633183,1.1939389029460385,5.602563920420066
-3.6058815773224,0.0,0.0,-2.8857024654956853,0.0,0.0,-10.905430809186628,-7.346405940312944,14.363428846310912,13.414906530801254,6.524928522714751,-12.974087011797259,-20.346511347855134,-2.729012038249075,-0.002429604783215522,-17.999898567925626,-2.8365971248157753,0.000434597400453144,31.214916757290048,13.231482885951147,13.484234693544686,11.625744618047019,-3.513691124364002,-11.648718712701601,24.57058968723261,25.730042768555478,12.48773607339744,47.15844081224435,-6.490271301320952,43.81626045429801,130.62417374464854,0.0006140131265020149,-94.8483453265009,122.08622141424611,-0.002203256556610798,106.43873159795231,-15.563798716507295,-15.26613702301828,0.002243671098429924,-21.69030293793198,10.110201384087262,0.00681344915181224,0.662285820338093,-7.554027298779461,15.75892982968871,-21.40638867096047,-12.944648164443167,11.780121115741359,0.12273844311951143,1.4002129370047987,5.62199594855249
-5.594803099050236,0.0,0.0,-4.3533576371811495,0.0,0.0,-11.876338567067263,-8.309814273594519,14.085206287811994,13.781365764810339,5.940317883971677,-13.44416239832471,-18.38138481732901,-2.4707489688971456,0.0016775574160654292,-17.139980544665626,-2.6072569716064193,0.0002560271637295371,30.257527855357807,13.432156746702894,14.248223201651284,11.155543560306173,-2.918985833676942,-11.368337808375363,23.67945187722418,25.27557668368544,12.484250416130287,46.784737658769046,-5.6856341258517595,43.860898193212776,130.53044969774294,-0.0027634163958727637,-96.53934862969504,122.57099641058811,0.0022035655865953385,106.00652157010408,-14.90938580716752,-15.563996952846376,0.0002563998698884165,-25.671021467937646,11.495842836379257,-0.008468849841058815,0.5770237042658616,-7.531836795565898,14.874412796406064,-21.557776291983853,-12.594154202684999,10.955655808210263,0.32176412997831955,1.6258652154696824,4.974972053324948
-3.8957350759399123,0.0,0.0,-2.975924758929197,0.0,0.0,-13.401254521371568,-8.719045606079586,13.387379866514085,13.148849739705197,5.389921308846887,-12.566232007955792,-16.777999786618015,-2.4098940296666185,-0.0005818125374594896,-16.38247241956443,-2.5263508746479175,-0.0004370066137342624,29.38003829161898,14.254551947069961,15.23747346047842,10.711709584835328,-2.108250890198129,-11.58711244415508,22.131217838975516,24.725624676908616,12.980441993588414,46.83138551302386,-5.215874072268555,43.65761929995741,130.96026004109984,-0.000221930608055014,-99.83137547363864,123.21617611429863,-0.000526561218547682,110.6580451207874,-13.264386977994128,-16.910410976560684,-0.006017092081909815,-25.12787205912996,16.98318087057488,0.015874263158605528,0.63235053596847,-7.468523603281076,15.303143839703816,-21.46470325997562,-12.695530836475388,11.38366785468234,0.4993909405259591,2.178866333468807,4.944301992915963
-6.1537507827721205,0.0,0.0,-4.24886494505752,0.0,0.0,-13.644501408829786,-8.460079789739341,13.67182908651306,13.304946873444038,6.13676276719688,-12.646487504372622,-15.68271051174928,-2.7263548803849464,0.0004876908120596742,-15.701047279479022,-2.5852077578738064,0.0003656019390863448,29.024729428184564,15.197640417634911,14.659382952874884,10.444811111956014,-0.982304147737733,-11.869930134248802,21.30625142024253,24.10157591237224,13.232872978693253,46.30415960499719,-4.837005498089947,43.82016916827937,131.2266556571821,0.0006202624399818857,-98.54920331890843,123.89876838217043,-0.0022598886338506875,108.99201621735808,-13.292635656736277,-17.693330357423395,0.0009150215104689542,-24.811190893140108,18.393988695331714,-0.02745346795200282,-0.15266584445956166,-7.951420069815493,14.91966172231263,-22.32005909573274,-12.999677467808024,10.835998450348649,0.8582863067515919,2.95993512744902,4.637523568613257
-6.470691556187125,0.0,0.0,-5.404425000088606,0.0,0.0,-14.105386488621999,-8.246172806066733,13.47986781254152,13.344798623445218,6.26015722883813,-12.79294484731131,-14.691108076503287,-2.642057345288232,-0.00042680993764757357,-14.630671981336507,-2.6353223381952904,-0.00035084907433560275,28.31446977787877,15.82111815259065,14.848347247155155,9.55920998355802,0.04486562159644563,-12.022101904521058,20.468393858080923,23.839768747285966,13.110961571946252,45.93198563394329,-4.16941563148897,44.25904358090566,130.82391484245304,0.0005969148725556326,-99.6947794009933,124.16292202405849,0.001777919184158385,108.62298531251216,-15.24737590125525,-17.487129007377526,-0.006520221818193316,-26.34582116919105,18.222250862949807,0.004872337830153161,-1.00591992520924,-8.388391412943063,14.743839310576915,-23.22463900116762,-13.33853269596441,10.500994750921185,1.089701324621065,3.7957824676745577,4.273827675344708
-5.600639034045717,0.0,0.0,-4.274331800644492,0.0,0.0,-14.87351286790203,-9.234944545321436,13.982601740248194,12.786069801140878,5.18104060255806,-13.014233910072067,-13.832926943966598,-2.4207861656419127,0.0003258410625932537,-13.739648470554195,-2.322497183961078,-1.0094244201146011e-05,27.5663881538801,16.46528186307092,15.052952154297682,8.657334876692234,0.9688187474374796,-11.803208350472147,19.864838340789593,24.138857041761465,13.588792261447303,44.7671159090685,-3.0348297561456636,43.81030279112339,130.6134187911213,0.0006335094598000443,-97.62714503731783,123.92585325075876,0.0025384276403096363,106.7162212923981,-14.801414729588348,-16.43032461252035,-0.0019149249505338438,-27.68640969535183,15.084874383434707,0.01672062153212981,-0.9668393164178664,-8.473600223332697,13.951223843629682,-23.247544173619698,-13.120522529511737,9.722395335341224,1.2211201596273626,4.319547412848086,4.392991385416654
-6.4131572870355775,0.0,0.0,-4.919591732178347,0.0,0.0,-15.656981841274435,-9.727867189035232,14.427402734976829,12.560537554809487,4.790998534481983,-13.158472778774875,-13.188521102059154,-2.2951760737308655,-0.00015597437987819901,-12.632431246934168,-2.151095718926297,-6.755390378619386e-05,26.830322403458926,16.660154061948244,15.131012839812579,7.523739767145254,1.4788207725527283,-11.60707969348162,19.522126281811627,23.63947241610782,14.135629292534313,43.36133317209485,-3.073567752414243,43.4808578072924,130.37241269021018,-0.0013291526177280795,-100.30657893855567,125.21138823157426,-0.0053620611120446336,117.67194399024032,-12.89750589646577,-18.027504525098955,-0.0015296133586622045,-26.077161540409236,22.50160282578954,-0.01666319488747842,-1.6452827625754107,-9.249723701414846,13.553238784380008,-24.021619275038685,-13.68905168469159,9.045347113676286,1.0890867230796986,4.4411149776322505,4.601916513861616
-8.047201718714165,0.0,0.0,-6.044813050996595,0.0,0.0,-15.74759987591581,-10.566826212918487,15.761938568098413,12.54353841438979,5.19319239761435,-13.079567071838957,-12.714111220717442,-2.2387604903052534,0.00011798591356585536,-11.629155922077809,-1.8572866305800484,0.0004570700973233595,26.689907615194514,16.756055770289638,14.697838094493385,6.911269021945066,1.8762723700094963,-11.44447528759274,19.558596137035842,23.091045720772815,13.522869124242279,42.129741652355754,-2.9449373699418233,42.25558834571107,129.8088995831321,0.0004885079797957626,-97.05440852810206,125.67207659105668,-0.0008282222279189872,114.88461795085634,-13.478669889798352,-16.409312327396187,0.0003921005432635726,-23.28275263390575,19.692554840673978,0.013233487813348495,-1.9768230531666853,-8.895224778614208,12.473353144729977,-24.384392212351084,-12.955048695374625,8.170879108131633,1.2723071600645397,4.617129079331565,5.003878260511865
-6.728755348217884,0.0,0.0,-4.972692863608362,0.0,0.0,-16.928545416109067,-10.408196034070514,15.768396365650592,11.8645961148115,4.778456773881451,-11.843402286604894,-11.959668701313845,-2.1162402030015817,0.00017276607440275732,-10.64259607504959,-2.0315785957279315,-0.000674239263863678,26.365191905672585,16.988311539544885,14.902692315624359,6.166965633560414,2.587089607064047,-12.754891324146197,18.83918048019667,22.867431159676713,13.727274474761494,41.18148439223725,-2.902514048391202,42.12975301979461,129.92763394023302,-3.8740069606243944e-05,-98.68940286943638,125.7523561260009,-0.0018828524582907796,115.40256156871708,-12.696464239116734,-16.82603721702279,-0.007080250364280047,-26.041468837108017,18.70102538100389,-0.005002171905035643,-2.7454437442886586,-9.35327513375556,11.63237131790494,-25.237353297839814,-13.061307324473193,7.203737559731955,1.4142299017082445,4.910203689837198,5.1430044151017675
-8.62328442628984,0.0,0.0,-6.622957181595219,0.0,0.0,-17.151492508557517,-10.287777683449248,16.702036271552885,11.705367947299427,3.9590272922515997,-11.963386093448502,-11.401597906828137,-2.2913076777834886,0.0001177239279240209,-9.562200451677281,-1.8015547706412895,0.000582648431597887,26.258320749692917,17.35739033161525,13.852439261338292,5.267959116194923,3.4241099088093936,-13.184324925574884,18.955871876840995,22.505514604996588,13.694982395890396,40.041198718511225,-3.1356097837437598,42.43913068482145,129.23523764913816,0.0005469292567861008,-96.57979039788854,126.39687855331371,-0.0002571275417100424,117.82366229308474,-13.297891407751735,-15.83194054081648,0.004155353199008236,-26.770945836862985,19.793180632047747,0.0044226983597949856,-3.403430563179899,-10.113515132568024,11.393875002334404,-25.975851555814156,-13.673434813458993,6.681122419421884,1.5694422007639508,5.643907737455154,4.89682154489048
-9.006201172692641,0.0,0.0,-7.668631581931396,0.0,0.0,-17.613486901790928,-10.899257409744628,16.62562865572281,11.900116008070981,4.05248240673992,-12.531547876977742,-11.209979638404931,-2.3435871689168564,1.2624509038234155e-05,-8.66912741815804,-1.471951276449127,-0.00022622980565042,26.27944592587165,17.813278080770434,13.025196196040318,4.547530505229174,4.03166243371442,-13.12462847249312,18.97652762807358,22.928458940699006,13.546690432985441,39.429307903661815,-2.8551552995941303,41.919337071778685,128.67844983063029,0.001133258425671254,-98.24981930467638,127.18701161736618,0.0008802288495841735,117.35717749970995,-12.815416916941642,-15.467783330190942,-0.003327194235943476,-22.005683041573064,20.932540473696665,-0.014832772161914084,-4.3837610199101364,-9.721120181284558,10.30787640739484,-26.966839100994008,-12.900384467926251,5.820974773449649,1.5648027596720606,5.717723650191511,5.043016959914757
-8.536959818413518,0.0,0.0,-6.854495634158001,0.0,0.0,-17.986475116303207,-10.631915320599449,15.816994271561008,11.699560857451614,3.8213029304669184,-12.3442610199027,-10.928622936328981,-2.2444964777093963,-1.4083630954311104e-05,-8.332765763368535,-1.3518284523103383,8.46028401772465e-05,26.15660349696661,18.122986372050676,13.315065532766706,4.363697405179138,4.371584964054773,-12.869799875538334,18.3642629237131,22.898638886747925,14.066620030910695,39.13417058756421,-2.423663287304529,42.06634413605099,129.0765579807001,0.0004405860752882559,-99.98300872539855,126.9055141008667,0.0024829585063419475,108.55949317681167,-13.183491529680019,-16.246778961265253,-0.0011983500184322262,-26.250681575552903,12.84252467271845,-0.009108399247409344,-3.5488340021314144,-9.14998191423756,11.345255990032506,-26.036786593819,-12.765069720151372,7.014890655771274,1.9288739140285913,5.8704302595917275,5.250353146513759
-9.006928659401838,0.0,0.0,-6.499484392299386,0.0,0.0,-18.320195415847007,-11.168920207336294,15.154571540068945,11.583504677305012,3.828941243872999,-12.588327447646014,-10.611484209261409,-2.167646326350982,1.9662322498869558e-05,-8.059645240603068,-1.1748540394502143,6.577962917104531e-05,26.14697182061552,18.3247550065279,13.0281843202655,4.094619403352389,4.667852231953556,-12.8406086489139,18.04980517061736,22.739840111737124,14.455695069625431,38.77290643970846,-2.562799055953848,41.92109435515448,128.6262701579533,-0.00014690185584131582,-98.89411293361346,127.36931977045252,-0.00018201596136823532,112.05370212037342,-13.583902965283814,-14.609706702186042,-0.0024024836746586033,-21.10327854028929,15.514342198210437,0.036647439075962567,-3.59356991002411,-9.37935431856078,11.664744641345063,-26.086202466143753,-13.097618621208161,7.223786257735157,2.209131132803509,6.054826762585084,5.181950263774377
-9.78142723551782,0.0,0.0,-6.786154172307438,0.0,0.0,-18.450806769339646,-11.383681395901117,15.525574016853035,11.42665657907279,3.521336705574977,-12.56072311866975,-10.386523487965787,-2.280960820323374,-6.411511949526609e-05,-8.10276807011457,-1.222869668779653,0.00012675253920854811,26.024958729842474,18.60698123882112,12.452752898968381,4.0722675355970015,5.02489956621396,-13.030709919958415,17.98488101637146,22.93075714010395,14.80445799592096,39.03871998817948,-2.643590190895113,42.11343452107719,128.40399884857717,-0.00035297447073301673,-99.63846209326812,127.23730709050805,8.057511133544158e-05,115.45178612579264,-13.052979879238356,-15.117461919225352,-0.001438632954312592,-20.00383349272442,17.069008317834502,-0.004383690791872649,-3.7678357842849852,-9.01147854886687,11.315517794509264,-26.245281042085804,-12.625866394875956,7.041362331116456,2.3541859215522436,6.301437146525457,5.370940547515444
-8.979176593834785,0.0,0.0,-6.425339643475129,0.0,0.0,-18.98699572551068,-11.232841830824217,15.093121931966902,11.502583882208588,3.8872119824177425,-12.401513596294565,-9.966989319930223,-2.1794298278658424,0.00010968093672456331,-8.170259914405326,-1.3950637454991794,-1.9284344560003546e-05,25.66971596173083,18.596877466143773,12.422483625825548,3.9468796166230193,5.124797707888495,-13.36263102361139,17.62182225786557,22.535176789758683,15.203361164241956,38.96396917261745,-2.5155438547666327,42.28202048285567,128.6103534579898,6.521977577509595e-05,-99.84073424047095,127.17335070301374,-0.0004323333228765585,114.5654473364529,-12.377633787360384,-15.550239025491987,0.0006927254220044565,-22.44585080679728,17.640763697822255,0.019355612848891136,-3.5047016039562076,-8.970299650657616,12.276502293973941,-25.92963536306448,-12.950305284626863,7.957037531220495,2.4952556332086506,6.302864393559983,5.584514365660481
-9.549819421291712,0.0,0.0,-6.646862352594227,0.0,0.0,-19.46386934750173,-11.644839931832125,14.884671948516877,11.442974021474086,3.2074180359956626,-12.911764476366688,-9.489848948031256,-2.2315575738720566,-3.2151120262564214e-05,-7.959378815191411,-1.2286244804384965,-4.474029918881012e-05,25.507708634964146,18.428699309980534,12.098752671165547,3.78408320575632,5.016161043341166,-13.069499011956113,17.6314092986157,22.643168977872218,15.469243300478674,39.624612954631196,-2.04581971891638,42.484870851919574,129.0215654450228,0.0007777425252248864,-101.39195360006266,126.91864273970127,0.0026189307282217782,118.00903324941676,-10.416950477480725,-16.876912839547206,-0.0017782747652655788,-19.2874382878065,18.609893012933995,-0.005409200115424191,-3.374732425728326,-8.773775924321225,12.301166631585767,-25.781219387373643,-12.77792686962616,8.057010622269505,2.651107794720942,6.144038783887586,5.535504423812047
-9.548870286529453,0.0,0.0,-6.40231700255415,0.0,0.0,-20.118449282226017,-10.848157760296004,14.367928693543886,11.191582002900791,3.1884291502638633,-12.646229157658045,-9.020582959691993,-2.2357391877144264,0.00013072359268856935,-7.805928514043406,-1.3323434056919456,3.292278478584867e-05,25.158721340006895,18.488644340490545,12.029487773008649,3.5839032355171967,5.197160239606247,-13.239216367230286,17.72406258870372,22.456300102273318,15.679731025855185,39.79387554762036,-2.1560758816934666,42.58012123458238,128.9213206452271,-0.0001095642459659667,-97.3135076941308,127.38496212705088,-0.0038445529001538813,119.73354425639931,-10.849843799423011,-16.727485351596844,-0.0008410431484396694,-20.23953599506695,20.769796351356185,-0.019216993974469115,-3.066083238061295,-8.814896621505198,12.437939717949412,-25.468598817241876,-12.867454813634374,8.169096367369056,2.672213678046543,6.138875051486748,5.947546129554464
-7.543740686935727,0.0,0.0,-5.3108341837937125,0.0,0.0,-20.98476736783292,-10.921012620927558,13.318083066861684,10.898718466243048,3.1699647429756594,-13.02832347236457,-9.012389648364833,-1.9708401954356372,-9.453320207528389e-05,-7.650711766815805,-1.3807044977317342,-1.0908783651214493e-05,25.28197427771244,18.459785517086665,12.615437861776488,3.363175483472956,5.4129040910995405,-13.406175127778294,17.85721831601187,22.290023640022653,15.139782908656565,39.82343286840871,-2.148972966507497,42.603867347508476,129.05151284354534,-0.0003069893250537459,-98.60824121928763,127.77675401251696,-0.001620258347304205,114.61344649178835,-11.89224238581249,-17.100715284050235,-5.483355887488399e-05,-22.89813250415425,19.64677197095438,0.055420789905825316,-3.1028674857963034,-8.36948983058531,11.634084680577335,-25.510671996427554,-12.152724495240033,7.590295429766382,2.78022418402093,6.256129473408844,6.064582543649864
-8.51017902019308,0.0,0.0,-4.835762774751387,0.0,0.0,-20.57827187035889,-11.45521660487494,13.332379729090807,10.739527966691405,3.31254065544516,-13.088256391181972,-8.954993064430647,-2.007675427502823,-3.4395889192191874e-05,-7.521350723087516,-1.4412987157567978,-3.623457580127743e-08,25.012398667807997,18.51995456680562,12.828639421928608,3.1120230537609714,5.547212766368978,-13.474274092951006,18.274149798624247,22.192391623230662,14.85140540730562,40.19383668057907,-1.9881757966565372,42.442114404257566,128.6722260999296,-0.0003190588841471016,-99.41759245050146,127.55100991879507,0.003751043732526348,120.26227192578038,-10.89351194739167,-16.08888511929213,-0.0008915342837604266,-22.533466037654957,20.89478834343234,0.01672396148685691,-2.8630301442130186,-8.017656536089287,11.548002348393254,-25.246837508650877,-11.794953284604093,7.6467984812660665,2.7378329847578895,6.296177799166605,6.1225935968075325
-8.068230346569386,0.0,0.0,-6.6334087458049575,0.0,0.0,-20.708421462111822,-11.494873357363954,13.50178665080258,11.358726504356913,2.895588775032741,-13.20919589981881,-8.912492233446555,-2.3060910151510163,1.0750368971518973e-05,-7.8418281617801995,-1.263134197123751,-2.7915490596295274e-05,25.0388325183778,18.672558224148137,11.922378013567924,3.1935732569838247,5.490818732603847,-13.060375554545095,18.063553509132902,22.394840838645056,14.875330608628886,40.112665066220615,-1.6338223416552209,42.90745710984496,128.88248697494961,0.0012277930948537369,-100.4862186920597,127.60396455736455,-0.0003323296504496862,123.48121865370183,-11.683268895326448,-16.85716620301033,-0.0012321567824829854,-20.226361829421098,20.791526884521396,-0.0060605765779719375,-2.359896869922491,-7.839296823940528,12.33818611840336,-24.68644035281732,-11.927679586524697,8.455713911371996,2.9882745202764767,6.04436963238914,6.006609289825655
-7.485595670882275,0.0,0.0,-5.170795909001797,0.0,0.0,-20.560976533702192,-11.676411452624189,12.588103166903718,11.17820619667725,2.7323665164169952,-13.595370902318749,-8.988338768113485,-2.2164989416641476,-4.015509961055925e-05,-7.614935050139404,-1.240564911339345,-1.00342928199899e-06,24.77041479213118,18.665025787510395,12.50867267574043,2.6805797187839158,5.599883895865549,-13.234092309244767,18.095899424023102,22.350415191827576,14.957931945612795,40.044387028857834,-1.9384122393462555,42.93262513327295,129.04946198021779,0.0003122408288350661,-100.15534553331511,127.69909940749899,-0.0049142892026498,122.69028300091225,-11.051923043692124,-17.01122380730663,-0.0016776212262389558,-24.528615908184488,20.517503212448464,0.07355208544516253,-2.0982630810905474,-8.159609214941574,12.218593096059259,-24.457539032094928,-12.178923091301703,8.219203526974033,2.701300216636056,6.187476418946425,5.992992378821379
-9.312697028945593,0.0,0.0,-6.304942752906014,0.0,0.0,-20.09126925494752,-11.931967681496985,12.718150929508022,11.620738355320212,2.032402708996416,-14.032041859480499,-8.933280945970552,-2.269082168330167,-3.977930230841136e-05,-7.949994666699214,-1.1061163293945384,4.124454491592006e-06,24.789222187380265,18.54008586358595,11.660212690506372,2.775805896208661,5.490111992581844,-13.203232400001713,17.80804158078098,22.42636876067196,14.968405596733675,39.91155036227917,-2.0235698440237853,42.675564212302234,128.89879338264146,-0.0007335905780526081,-95.72090655693636,127.90266977807632,-0.0016860902813780063,120.06631556330383,-11.378563287396851,-16.166475872723097,-0.00035315910697523767,-22.813899483679844,19.511320997090987,0.018779162896166924,-2.684122678610943,-8.437689218790785,12.369434639201781,-25.0581281639805,-12.492877749558128,8.252178026392063,3.1718696268686113,6.091636302395655,5.867004295017139
-10.121838206653516,0.0,0.0,-7.560318882713533,0.0,0.0,-19.821294216795238,-11.777918226033714,13.50822882225323,12.103944236965397,2.5340615342621775,-14.253115208506166,-8.971044958904587,-2.4039027789413185,-2.0944492302714587e-05,-8.013609670413931,-1.2407305902650378,-9.532972739846246e-07,24.74955212643625,18.510913236084644,10.602568942509635,2.557433375996524,5.60571526032595,-13.449180157378468,17.46407100533891,22.31962497026548,15.036596743387536,40.12266218979978,-2.3225036688635443,42.861193108514634,129.10194972255937,0.000112367627271199,-96.33153421637417,127.81258824849158,-0.0005680124449035776,115.30774383200828,-11.67470194141771,-16.42446314642414,-0.007655819255478564,-26.758496464227253,18.36386671711558,-0.009411511877480037,-2.631487981970055,-8.417343743611308,12.410647880009039,-25.001471963746916,-12.489587854573616,8.298713473215003,3.1919006495322586,6.205363375089077,5.712155243200232
-7.6873011662811805,0.0,0.0,-5.851349668400684,0.0,0.0,-20.550810681199387,-12.107527641872318,12.748163115796658,11.989170679176738,2.546303400562874,-14.004558298537564,-8.642231230333707,-2.063174211734047,7.610701097868563e-05,-8.1969927650161,-1.4211056929494321,-5.866776166409089e-07,24.266706764654383,18.30532936372691,11.572734004487025,2.375142760756569,5.480615096255791,-13.469632386524108,17.200619641114017,22.36123766613463,15.194624929105203,40.28054395870841,-1.9577139291952337,42.82375927701559,128.82402192440037,0.00022824587607759043,-92.39835830247789,127.76793510405825,-0.001459129829120091,115.6485073483036,-11.925550954752028,-15.104649604173723,0.00017255959684634315,-21.819941902630852,18.02295413262517,0.024192953480709156,-2.7005941830526075,-8.311630688963339,11.674578363508878,-25.10157051492648,-12.114494937524096,7.650733803051351,3.134589857454684,6.046097588084544,5.934021487914881
-8.55023718291261,0.0,0.0,-5.904503508721086,0.0,0.0,-19.88594394437346,-11.416811920502894,12.587752944748281,12.238871601777893,2.118557669995174,-14.648046498891597,-8.893156847832289,-2.2688218183646445,-4.725049874180656e-05,-8.258719378417931,-1.2166237338234043,0.00015291605209664867,24.58606084401283,18.375171579458843,11.687996805702817,2.4347579006471163,5.53599457603236,-13.399175141730325,17.15762745433245,22.472983476259856,14.83101913635411,40.1448835864023,-1.8684383569586485,42.9989245017235,128.6313717403163,0.0017220200399393404,-93.73678664351989,128.27150268448904,0.0008148308913417049,120.98705800162246,-12.311409931183299,-16.245968405082664,-0.0027790376352128587,-21.005604962825867,22.329539500238518,-0.01968480706202706,-3.0062019329290757,-8.054506402172036,11.609088921799334,-25.389780152879354,-11.852061002115644,7.689597818931338,3.54722769492327,6.1431493727784465,5.9262102962731005
-9.750608717760315,0.0,0.0,-7.095652469439491,0.0,0.0,-19.237188242619375,-12.625451171015053,13.311693046374412,12.302210830231488,2.1400054585291253,-15.977830263997566,-9.062744226320321,-2.367389533466681,-7.97247691948613e-05,-8.029181573266262,-1.0873171910067119,3.093162344352338e-06,24.69576726290016,18.18831297734263,10.90722859188709,2.2724581607450776,5.465628253503372,-12.502298241376183,17.307587390257616,22.55582045136224,14.961463681996003,40.22187275255164,-2.100610450646361,43.41110218281641,128.52423078998424,0.00198460246795578,-96.6361538466481,128.19543909825526,0.0027563909595459428,121.08540917091771,-11.035862116729827,-16.347826056248156,-0.003935307429312996,-24.404261686906235,21.094055688458692,0.013701288637685154,-3.454769947463449,-8.44397436957067,11.178362177189078,-25.89136782190593,-12.049616944976894,7.135024855286671,3.723330623217191,5.926265989636142,5.988331264834288
-9.638419853492103,0.0,0.0,-6.567723359018105,0.0,0.0,-19.267136429936127,-11.505330905694475,12.381380884697563,12.294114162644593,2.198592769822602,-15.656287319453707,-9.532752310752228,-2.2341089543863415,5.808184068295287e-05,-7.944283485137878,-1.2628393270318439,-5.292160815369563e-05,24.990916638842897,17.859897011306284,11.494423812571387,2.2526225632502177,5.278076199520946,-12.98132078257939,17.465905395574964,22.557294806479145,14.467477491027775,40.04611359871411,-2.5309616011748846,43.21406026203372,128.49437991122377,0.0012215250114499638,-96.06676888469744,129.06568452381293,-0.004715514418026188,124.0351160124426,-11.288947576687857,-16.678961014121384,-0.006607273676068424,-19.697640695861562,22.086177694290292,0.045417744578422445,-3.066369452715715,-8.328876004421513,10.911216460392898,-25.506394899324853,-11.842351589312653,6.930245493323143,3.8802932228918445,5.614795223321956,6.247209237613295
-7.2980600995655305,0.0,0.0,-5.2933736637939655,0.0,0.0,-19.65660441498826,-11.798123582990526,12.073229235176116,12.118889555342003,3.046665831743609,-14.958391095914855,-9.639352375709672,-2.2830340025871663,1.1941763325017493e-05,-8.009317349433113,-1.8697013969264025,-2.1924286061674994e-05,24.86575821812224,18.053777190200773,11.45441531434099,2.08997231323641,5.623933380309955,-13.617083258477587,17.414255698340703,22.613539440142382,14.66551223287998,40.15741722240969,-2.1510183019456264,43.95195705750422,128.32498815700183,5.523745766369144e-05,-97.64065922538101,129.14248954308366,0.0032921646077500983,116.79087146443463,-10.39757973466167,-17.177145466745777,-0.0048279236135166876,-26.421469082743865,22.838801819018233,0.0075315608223536145,-2.9401580824023648,-8.290526728425627,11.08576516009278,-25.36883753326206,-11.872819234005973,7.108330981885796,4.042301936262199,5.75585673734621,6.288910450912565
-7.413850913662035,0.0,0.0,-4.491518394905329,0.0,0.0,-19.41186975872247,-12.138393566155527,12.063302789923686,12.100806141037083,2.9153441376756906,-15.140043685732966,-9.695256039341604,-2.2228699677213304,0.00012833129897865908,-7.958177620328765,-1.9797804725277197,-7.338919881310344e-05,24.852153498521844,17.765984490960324,11.658010021525008,2.0971161158550866,5.409167898313136,-13.639844548158548,17.07252687366999,22.88244610011527,14.74175900278875,39.98140667574422,-2.3131867321293393,44.36905936129559,128.25855606920828,0.0006063873211719362,-95.28458253248681,129.08307454096976,0.001700728471278796,120.77633336892309,-10.848385921297119,-16.395384688682192,-0.004168923131519877,-24.44569954397049,22.7263893549998,0.012956753360137692,-3.1197550655265593,-8.423002745779938,11.583273400889446,-25.534561393573657,-12.183026908532035,7.521883891649232,4.352738348879733,5.49721394821654,6.3670157772383895
-9.190065277790977,0.0,0.0,-5.129083241417167,0.0,0.0,-18.912156847670847,-10.916529769604242,11.74236133210344,12.064246189081834,2.530905420011656,-15.93504086386068,-9.823704274785344,-2.514194582581702,-6.0078450776328757e-05,-7.694662372070234,-1.8996403481087563,-8.792334501661327e-05,25.02636878573548,17.78883089530879,11.54119899828006,1.9186302472836612,5.558157438642955,-13.416624597332762,17.38445940129459,22.681913238896872,14.457327639420066,39.965404478621856,-2.345722237008694,43.60200328079369,128.05525374209077,0.0003637215808924753,-97.88431154962738,129.47133502907533,-0.0006793730357213351,123.82909420647648,-10.052644265505302,-16.557517688231947,1.2590118599578044e-05,-16.59395176025446,22.05443732121066,-0.01267784915984036,-2.5905279022419885,-8.207716074374623,11.897421632463908,-24.971273675181664,-12.10241776191693,7.899764329778894,4.535831878245523,5.6018522011860234,6.1501935491008375
-7.111300717574066,0.0,0.0,-3.945670179304801,0.0,0.0,-19.569915600329573,-11.34823682367193,11.178420150626847,12.126052151874793,2.770003201780913,-15.50826903717703,-9.671893500031496,-2.4953653306924966,9.489839104577593e-05,-7.665390389085959,-2.045375642374376,-7.059167554221772e-06,24.96485728253545,17.482146071066733,11.875055453532651,1.8379310252342338,5.309154327093325,-13.974866500801216,18.145711024868675,22.652105296552502,13.828162244187425,40.227047267062495,-2.392385958279664,43.89796264981023,127.93924121602203,-0.0009382902241642946,-97.2816928210175,129.09858217275638,0.0006927336764609972,120.82596358230782,-11.067789571525697,-17.848661509867984,-5.562546272728891e-05,-19.2562618423685,20.53671367351554,-0.013052514207619872,-2.8656333225125463,-8.442384415351048,11.209224930626023,-25.300620359704148,-12.059788893515117,7.164503335269289,4.683677965105146,5.186850154899307,6.43829409792409
-8.07209489320778,0.0,0.0,-5.365838028765978,0.0,0.0,-18.918640325154357,-11.128836971282748,11.24449122111331,12.271812758573763,2.4864475698972406,-15.988588858154658,-9.764372210053073,-2.672172064857373,2.6144730389950495e-05,-7.503325920751718,-2.088398039799677,-1.3885468278771803e-05,25.224121957726872,17.563056964167632,11.406972446638612,1.9225353276168178,5.492289693054109,-13.693801759325236,17.951449793177755,22.91268164482472,13.85099521989682,40.39154649766362,-2.29896232157462,43.91499661610552,127.83920543093423,0.0012336711295626206,-97.43174258051532,128.98230507120556,-0.0007893534874818868,116.23206431195838,-10.898034915476428,-17.295995475872818,-0.0027687210512281533,-18.198066827066096,19.298947339092297,0.03067362666563908,-2.87249030141463,-7.892907638533224,11.380204886296545,-25.25508334310298,-11.61632323880403,7.538384216169794,5.173445255619116,5.129020183714258,6.2429299357721115
-8.364434945290723,0.0,0.0,-4.698114110129212,0.0,0.0,-18.578000857520454,-11.586733638371056,11.324550647235451,12.036216528951593,1.8769821668007587,-16.208883117008163,-9.90142896517703,-2.636498817987453,7.045177033224803e-05,-7.537193010058223,-1.906781954501006,-7.048724739347439e-05,25.15818863494139,17.56781607602302,11.604755455889782,1.845071734685921,5.447254964672459,-13.502968368096402,17.905740056017247,22.97684767745771,13.679078876778549,40.49242896251274,-2.5657072764421858,43.991776515728795,127.50360278713221,-0.0008479648848370405,-97.29709951164985,129.1866816560349,-0.0008615455624114404,118.32356143217692,-11.019717151230994,-18.188914278748694,1.1402961464424652e-05,-17.805265749576563,21.33062130803254,0.02006098332698699,-3.0767700013344217,-7.918470427642293,12.27927193231188,-25.413035729833183,-11.97874318319174,8.369786636524767,5.246829680717754,5.203153826049856,6.422912708815631
-6.675906520781451,0.0,0.0,-4.140279478437813,0.0,0.0,-18.921784558283072,-11.764382193956147,11.406486154407123,12.086251352052587,2.5573836440511015,-15.533416215378272,-9.8423022054375,-2.6962070055003604,-2.278769677773503e-05,-7.540366243735643,-2.318506440214106,4.4464292696702616e-05,25.14893448383079,17.54603762232217,11.619365473382906,1.9660209929036139,5.449770842479308,-14.31366441645094,17.37932062652047,23.17362750721664,13.867420648935942,40.27931748917726,-2.6826227672995495,43.98032029707269,127.75585524305504,-0.0012610994194291348,-101.22403228861984,128.6975162405335,-0.001823555480528566,108.43853219701839,-10.720039801905457,-18.607704410849138,-0.0005931791210533045,-17.56967807774285,16.240111351301838,0.0029100077687230917,-3.1767024876053185,-8.181345613849398,11.74889473216415,-25.563183858917057,-12.0220582817229,7.771041074411289,5.4450289511705146,5.138311483448506,6.696585492369163
-6.186363789300877,0.0,0.0,-3.9429605557317546,0.0,0.0,-19.306693700274636,-11.722781746923147,10.967402997396745,12.213893737777946,2.741432232989318,-15.619154405369171,-9.739870702927991,-2.574603131995389,9.28521400758245e-05,-7.332440995767295,-2.298991259307804,7.275220631011977e-05,25.19510354888985,17.243648038223643,11.959251528516857,1.8246858272832118,5.327564005675384,-14.559831242036871,17.87642863679046,22.95586968190578,13.92462553041829,40.2039986725126,-2.5002804700210257,44.066815764898955,127.8181902887405,0.00080387282510996,-97.58147686798,128.39363127998487,0.01207476184615089,108.43016463815286,-10.711133043905248,-17.644478434862208,0.0004093800315153735,-16.810838990164893,16.48609136528517,-0.008542233199448463,-3.058178996428092,-8.14101707904144,12.333196542923943,-25.40952101033197,-12.204877732509804,8.333772562176499,5.663354935512013,4.915792111607506,6.432848568574884
-5.670410557809689,0.0,0.0,-3.4271129528329407,0.0,0.0,-19.309348012879774,-11.886766211268952,11.30424488304792,12.072608637999787,2.201279921990883,-15.569669112513047,-9.427153645342745,-2.550190445877383,1.9709772001157436e-05,-7.331644167635119,-2.1864360528633666,-3.7316824647426266e-05,24.86474517569301,17.24383077406963,11.839426196689931,1.6231206375814038,5.351844588697049,-14.665535630644026,17.84036887560745,23.185881327437205,13.835726222656602,40.03213525352361,-2.8980919947136616,44.61734193885969,127.62454345827433,-0.0005685634902873319,-96.09340384991643,127.93265560111116,-0.004090769178667146,112.27093022473339,-10.790052253446447,-17.22722391668688,-0.00043488596590451087,-19.10878501825432,17.722578884758963,0.0065037831705742925,-3.0969595171783246,-7.962556466088398,12.729264892661766,-25.410715848527595,-12.188822123410842,8.774275480000764,5.54069990182775,5.042057627906555,6.540804298123136
-6.052727960263039,0.0,0.0,-4.617072438480766,0.0,0.0,-19.24499133692732,-11.505551664426752,11.115433268247255,12.547259568305467,2.2222351407969745,-16.01562814211461,-9.552981993061085,-2.6570850094673766,-1.3953246300597378e-06,-7.7267456007103625,-1.9314584488217075,-3.497572188174604e-05,25.140111205036934,17.214631826345038,11.690262852524281,1.9969798521251247,5.149289905148364,-14.38258493786121,17.39282399198894,23.25043302508097,13.98758241477702,39.8791710134478,-3.0730099171619756,44.2721424881102,128.07712954986832,0.0010582253295841342,-99.38939604448397,127.61143703411763,0.0009409471949795141,112.56067588614825,-10.436898856501001,-18.5121434210245,0.0006700583223176341,-16.1446152990837,17.156745503363073,-0.00039411044636444414,-2.9363758221385137,-8.043914988980793,12.952624661119392,-25.243441883975343,-12.348055065938508,8.952081122920482,5.639041121838093,5.078499682165662,6.771176288651761
-6.979660564302975,0.0,0.0,-4.843150312249943,0.0,0.0,-18.798132335778927,-11.27084019751207,11.694605765692728,12.627934928642096,2.208506384858693,-15.874710745177286,-9.642801331303684,-2.734950273829024,0.00014174510985452959,-7.967871200286866,-2.0449715339102217,3.955202082189048e-05,25.06429656893789,17.36352409409789,11.233467358763898,2.004125036422294,5.279502832733908,-14.410126033277754,17.552593362115736,23.269416709308608,14.459469298810525,39.9066236166918,-3.284014330755386,43.90726567570735,127.87617357736112,0.00014957683766537958,-96.59528189341933,127.2283298451973,-0.00011047008485844813,112.57826805959155,-9.929726503644675,-16.951453988692304,-0.0006637363638292455,-15.572529792972931,17.10766053131329,0.003457284966870401,-2.7294986970427493,-7.823017539639716,13.673843096388707,-24.97261410179222,-12.414409899076603,9.714546518323033,5.466294341562309,5.184272306101996,6.758876880332729
-7.183653577782285,0.0,0.0,-3.83696699071205,0.0,0.0,-18.699135683586647,-10.679533683823513,11.391812485818377,12.44310188072055,1.4828390048447515,-16.114510842648805,-9.468462058430141,-2.67297697187239,8.461017788014359e-05,-8.172812761695166,-1.9209692074164986,-0.0002717486214543203,24.847546156805574,17.258685009185754,11.543867845206321,2.0544454322364443,5.226461841573262,-14.110713965037496,17.195870325310374,23.311988415010394,14.426288742158675,39.86887034211872,-3.8543597952539885,43.434713929380855,127.9847766676397,-0.00015011014334448926,-96.86565703806532,126.30283945062439,0.00018825438489551423,111.6500861319023,-10.521354948049309,-16.16898950317081,0.0003169075526836795,-15.345345388466523,15.965158060826118,-0.0033028227350647564,-2.4820366952438397,-7.940368770998645,13.663904685602043,-24.735628375374645,-12.519297603893092,9.659720644015925,5.483242812629473,5.162668180848197,6.848442455736281
-7.963709276846706,0.0,0.0,-5.358946527286358,0.0,0.0,-18.07365995250972,-10.80101644685908,12.329020834426752,13.245903869400554,1.6130065775301397,-17.16216560719822,-9.697218118793495,-2.980425838756719,-8.531218845643943e-05,-8.563698378301204,-1.9115426670909093,2.0862745940665595e-05,25.119858936597637,17.32438706887251,10.753389865341134,2.2314828984555626,5.3561996265685385,-13.51882305711202,17.666457617677764,23.476558164073648,14.056028331410854,39.53037406783282,-3.8252738581257804,42.609319568388,127.64309986132784,-0.00015756608050681995,-96.42459875194044,125.61048907819122,0.001243106833000756,110.99386166544356,-10.481985107676993,-16.657792923835874,2.5100371947756723e-05,-13.162347057456344,15.462184651036015,0.003190746755857768,-2.5809118719199873,-8.048677074126584,13.183919957652712,-24.874185085098624,-12.439360057362999,9.167174474615841,5.598665879002501,4.9902632143671735,6.54196435050101
-6.075701124695678,0.0,0.0,-4.316746472738918,0.0,0.0,-18.50606730848078,-10.777867123268553,12.071616688724937,13.310189090295012,2.1561627792584352,-17.086115764953032,-9.545048075880256,-2.952222082046417,-1.4920335185884214e-05,-8.846546410895604,-2.1181637470382504,0.00014116638733882824,24.396128391824956,17.252144394578504,11.423555722744263,1.8620709112267695,5.1837798986400765,-13.588712419484704,18.022584147526597,23.25734064377262,14.381605840904173,39.36954426766533,-3.6174744786956543,42.99007811433854,127.41525782075435,-0.000949994934720779,-96.58562349032569,125.09647263904237,0.0003718342218396036,112.91204506697609,-8.668142957186582,-17.020276624568037,0.001284237561463435,-11.306781581023044,15.948803231456889,-0.0020954469453716715,-2.484535679894033,-7.7071270289804845,13.78690781497766,-24.710542533219705,-12.349523467453833,9.865619793692423,5.145908736932843,4.764290750905383,6.539818848167224
-7.332218437592456,0.0,0.0,-4.787472209777798,0.0,0.0,-18.28313998292131,-10.672648466489024,12.410637573472034,13.555015252759755,2.388836049686235,-17.292522059227124,-9.594823144266533,-2.940173250570955,5.7948172064234776e-05,-9.062150515008867,-2.495040743044181,-8.49655236509526e-05,24.596918938419755,17.322813691073293,11.799862746141986,2.2141328887592833,5.403883261931423,-13.412537089801011,18.122240883589317,23.10476797068744,14.096808237787146,39.01590075155052,-4.425935143051167,42.18973875465735,127.43584046411304,0.00021534980984170787,-98.12133067313215,124.78214475208055,0.00024677296099079825,109.92203977322626,-8.801883135815691,-17.491552538225946,-0.0015447288886510854,-11.804321974802233,12.9648335881938,0.005788029857449544,-2.3142128138084064,-7.5004232303018235,14.137933858312588,-24.499253471613166,-12.289653770954805,10.275303680781866,5.314555841868985,4.856164014259104,6.893129976137705
-7.4802986655205395,0.0,0.0,-4.9673586723235585,0.0,0.0,-18.138358402302394,-10.787143602232806,12.67715563251159,13.720745928110164,2.0615587966742397,-17.398627414706233,-9.795899377144172,-2.7901490128989894,-2.7472177836731032e-05,-9.14423073680487,-2.4599233331901815,-1.2250483625877218e-05,24.666552479491305,17.028734611988828,11.392123348593117,2.0320981915337706,5.301175557322297,-13.744920947506126,18.296745058066247,22.861033529613398,14.291964498912586,39.09408852224155,-4.399012616720784,42.55733741784948,127.60978350058916,-0.0003290959964073251,-98.39271842100779,125.1275773408341,0.00015876248466034642,112.8933460457322,-7.789745333015736,-18.254870779786973,0.0006536276786535194,-11.319388927519565,14.334589117459519,0.0031354813205224305,-2.2598547537452753,-7.671752963285915,14.454243569487035,-24.436919331434545,-12.566678091591116,10.506382147065588,5.0753806211905905,4.687957279034343,6.40895248480505
-6.794036624487042,0.0,0.0,-4.465181514782774,0.0,0.0,-18.169331518557748,-11.619462600939666,12.578621543583951,13.704195458198635,1.7816242536998785,-17.058676115883827,-9.833367169757675,-2.7263475155819874,1.5054675986026478e-05,-9.202278430750392,-2.322766368622853,3.7360262838261655e-06,24.34097282604244,16.982903768696097,11.968353819107234,1.7182115698700313,5.1552484211421,-13.849363995728549,18.208530007272195,23.037861696578787,14.296540162875147,39.18010474326523,-4.352365370693741,42.41327030927705,127.5708451096169,0.000657627639264811,-99.58209461493793,125.03741671280534,-0.001466933798966347,112.21511597763724,-8.37336013269049,-18.443767852356,-0.0023746624406601525,-12.424651785308452,13.175346696552145,0.00043610567248877777,-2.6009750656450317,-8.101586604959229,14.186142266667254,-24.83338330379615,-12.864274497441398,10.087805039111975,4.800036387895459,4.635751257683601,6.576626238390702
-9.80767600446952,0.0,0.0,-6.831656485663934,0.0,0.0,-17.273293840162996,-11.484606483569644,13.402291566926774,14.141971229174192,1.5170373280242881,-17.52276024157699,-9.885476303555363,-2.890234469145953,2.6825690521569227e-05,-9.321742250116401,-2.113217171727432,-5.6161708327647325e-06,24.996986119029906,17.099349947653764,10.685156048725364,2.2750614955350312,5.25822581860022,-13.561606248150259,18.49466460166729,23.299743833840363,13.713532222757037,39.459876704473245,-4.710541548078963,42.481552234176476,127.06164122382619,0.001150052558019189,-99.22109596323446,125.42605594885107,-0.00028774161160376014,110.7415362382234,-9.957140162031056,-17.810790419269257,0.0016736884858674069,-14.02547166020538,12.90505557004084,0.0007226884817444245,-3.127927818824686,-8.172510493748964,14.130493556998365,-25.370265463992364,-12.909073241103238,10.007963623512982,5.400688454587954,4.70610166266708,6.562415488799147
-8.993551841824415,0.0,0.0,-6.328969767170054,0.0,0.0,-17.73366437517115,-12.21933027986744,13.739838069060642,13.923578330937735,2.08327886815433,-17.510259128760463,-9.573694380500651,-3.0366384026779616,7.059797673471752e-05,-9.15686118361488,-2.150132227722121,5.7675921839774964e-05,24.434103255575017,17.15833444150959,11.0914216745558,1.8991130484741703,5.182158071283713,-13.325539168423138,17.941517278287446,23.622000022830964,14.332024409499033,39.74594310127251,-4.498594992019307,43.05830549587518,127.31998690936994,-0.00015280198545861176,-100.30337955100461,125.22296326629024,0.0012564379236911312,113.41020540510317,-10.387358716120909,-18.06966249078971,0.00029729336727207084,-14.794893739158132,13.353275269825284,-0.0007044664298364416,-3.6654147603210068,-8.1993830448641,14.494785530171615,-25.88497717833154,-13.070372528033875,10.34006333330702,5.1671529516822545,4.6812153943951005,6.48194038369612
-7.483799360150596,0.0,0.0,-5.076094613408004,0.0,0.0,-18.392078495759172,-11.180890092057263,12.704781832390932,13.807827369058334,2.2956687386113637,-17.10294271964771,-9.728752996695254,-2.9423748654166717,-7.570604214816085e-05,-9.00608591044271,-2.223921620086629,2.3202659337817327e-05,24.467654961270707,17.13531758987482,12.06486185740968,1.8435139072275615,5.161579508912473,-13.64623684412669,18.300399700163094,23.74891551826035,14.333174112013491,40.04975638332705,-4.3281510329750965,43.003269898644085,127.05846957278672,0.0003999027032266039,-99.5146971695529,125.8975677999217,-0.0013676398724632125,114.3919277436135,-9.225674508925978,-18.30757696092195,-0.0007593247809025694,-14.938718518624157,15.299348165711537,0.0009384484885286297,-3.554153844010455,-8.997090312662328,14.017361740061503,-25.87775718534207,-13.629652967301052,9.580363567839772,5.295281110971201,4.6115385189792235,6.586768716028707
-8.613762974272863,0.0,0.0,-5.119380247572497,0.0,0.0,-17.81943229136631,-11.464065373502692,12.658856049008184,13.62812896369395,1.469971599083379,-17.163509883255237,-10.294766457952651,-3.1154593593856683,-2.7148894107867183e-05,-8.98177936275574,-2.0239405515870033,8.771737866023227e-06,25.005724890593214,17.322036923674005,11.744326240530034,1.9618830442229651,5.24291988500771,-14.069253632312018,18.316226710656967,23.601666804337857,14.140278395471038,40.418990761570896,-4.370137089236485,42.85700128129038,127.37836329949533,-0.0004640831137801711,-100.30547719336516,126.21368629261258,-0.0001503575439386045,113.8447338529864,-7.898694612097861,-18.700572832764955,-0.0011278585861868664,-14.645358056044714,15.073413862136746,-6.023332189403346e-05,-3.934785530677361,-8.713145618720791,13.81519934825603,-26.245689555348054,-13.291135512178013,9.501225977660921,5.520326661780423,4.678370355369443,6.479990189726787
-9.45934191450359,0.0,0.0,-5.907622266812671,0.0,0.0,-17.512400465333304,-11.646558014921467,12.756453595648912,13.77317146099158,1.8184863841484482,-17.40231317311868,-10.322615029036923,-3.2210181365376913,-3.041252567737568e-05,-8.844913367791829,-2.1030780188673686,-9.826617129958446e-06,24.90166030360007,17.412304318311094,11.789285720991804,1.7836518119945874,5.310297178909112,-13.860988987797283,18.23233841185439,23.382669591423756,14.45079725117834,40.60588866288473,-4.153496767439053,42.874125595927666,127.54503684514515,0.0006505362118622199,-98.57314183641941,126.36662964203516,-0.0015064659050444025,113.36936820354845,-8.06574875793765,-18.105908642255688,-0.002165296642008228,-14.49151253883033,14.941323228144656,0.0013491456006118902,-4.235054816143827,-8.757439787898107,14.202476579553746,-26.524500489729085,-13.477364132032388,9.847988408270167,5.50863429685569,4.833359640530828,6.382642051237282
