PaulMeinheit/Bachelor_Muay_Thai/processed_Data/E1/teep/scaled/JointAngles/scaled1.csv
L_MTP_ANGLE,L_MTP_ANGLE,L_MTP_ANGLE,R_MTP_ANGLE,R_MTP_ANGLE,R_MTP_ANGLE,L_ANKLE_ANGLE,L_ANKLE_ANGLE,L_ANKLE_ANGLE,R_ANKLE_ANGLE,R_ANKLE_ANGLE,R_ANKLE_ANGLE,L_KNEE_ANGLE,L_KNEE_ANGLE,L_KNEE_ANGLE,R_KNEE_ANGLE,R_KNEE_ANGLE,R_KNEE_ANGLE,L_HIP_ANGLE,L_HIP_ANGLE,L_HIP_ANGLE,R_HIP_ANGLE,R_HIP_ANGLE,R_HIP_ANGLE,L_SHOULDER_ANGLE,L_SHOULDER_ANGLE,L_SHOULDER_ANGLE,R_SHOULDER_ANGLE,R_SHOULDER_ANGLE,R_SHOULDER_ANGLE,L_ELBOW_ANGLE,L_ELBOW_ANGLE,L_ELBOW_ANGLE,R_ELBOW_ANGLE,R_ELBOW_ANGLE,R_ELBOW_ANGLE,L_WRIST_ANGLE,L_WRIST_ANGLE,L_WRIST_ANGLE,R_WRIST_ANGLE,R_WRIST_ANGLE,R_WRIST_ANGLE,NECK_ANGLE,NECK_ANGLE,NECK_ANGLE,NECK_ANGLE_SHADOW,NECK_ANGLE_SHADOW,NECK_ANGLE_SHADOW,Trunk_Joint_Angle,Trunk_Joint_Angle,Trunk_Joint_Angle
X,Y,Z,X,Y,Z,X,Y,Z,X,Y,Z,X,Y,Z,X,Y,Z,X,Y,Z,X,Y,Z,X,Y,Z,X,Y,Z,X,Y,Z,X,Y,Z,X,Y,Z,X,Y,Z,X,Y,Z,X,Y,Z,X,Y,Z
-6.7065600000000005,0.0,0.0,-6.78033,0.0,0.0,-17.19995,-10.56408,14.082140000000003,12.271550000000001,3.94388,-13.550130000000001,-16.513200000000005,-3.2641100000000005,-4.000000000000001e-05,-5.49259,-0.6890800000000002,1.0000000000000004e-05,27.946050000000003,19.326290000000004,11.81723,-0.04444,4.22428,-13.256360000000003,17.63878,28.336820000000003,11.913520000000002,42.56974000000002,-8.18244,39.38534000000001,120.51436000000001,-4.999999999999999e-05,-104.62273,118.43416,0.0017200000000000002,115.80787000000001,-13.6898,-11.76246,0.00073,-14.637480000000002,6.7567900000000005,0.0006200000000000001,-7.589790000000001,-10.304450000000001,13.65873,-30.06153,-14.703690000000002,8.729460000000001,3.6018000000000003,5.346400000000002,8.68636
-4.978302457391161,0.0,0.0,-5.9669807861335915,0.0,0.0,-17.741812235855495,-10.82249334588093,13.107676320291906,12.211310401199066,3.9703693453183666,-13.526810255608206,-17.523158062786525,-3.1239277728878236,-0.00015477309439809457,-5.589765737693521,-0.6369856687875979,-6.676022406680126e-05,28.148511192988483,19.326705199992844,12.658867834639127,-0.21715596215187324,3.8882984450434854,-13.543201044687345,18.26344807744453,28.75377654417536,12.351166262906201,43.62980162277389,-8.207174546482333,39.913077673754046,120.2600671110139,0.0013502304488226284,-103.64398187430632,118.0587319366594,0.0010754019515373978,120.36073567410821,-14.632254865572142,-11.06108487354674,-0.0010367246631331414,-17.320112781333243,7.915331013033537,0.0028770595911629293,-7.703064667483887,-10.055548712826937,12.940426129016204,-30.191711013594706,-14.203373336437197,8.153117710856886,3.3741180976620817,5.206579940755532,8.58165001290041
-5.377915831619724,0.0,0.0,-7.44187702388638,0.0,0.0,-17.532730539883655,-11.765984821985661,12.786825930714958,12.12690267588274,3.960323876645774,-13.151074659189584,-18.8450790153146,-3.1810419254281603,0.0009038415652027875,-5.585760821039341,-0.4478590602343511,-5.0702686141351056e-05,28.655361461755316,19.583535468809323,12.911874993954932,-0.30141031219075837,3.600483092541952,-13.482611611036956,18.617167421716417,29.237333887855716,13.35670595083574,45.04323525280758,-8.044382207430523,40.18866692909615,120.50717221027682,-0.0002907078744816795,-101.19472007150598,117.83869873913183,-0.0007095078110367172,124.15022799081493,-13.643713023974176,-10.458148086481955,-0.0015416223571993622,-15.512354455864267,9.791499687639632,0.008888671818973544,-7.695084517992104,-10.692291020023424,12.295236751886039,-30.28033516213926,-14.548238984466495,7.2960564085545885,3.1750296975436822,5.113791499126957,8.138064712240016
-7.722311963650494,0.0,0.0,-8.570176909828815,0.0,0.0,-17.31911712491705,-11.013255378485761,12.57173443803894,12.48382774630391,4.040279940548202,-13.348791926682296,-20.552247018373617,-3.9088986157060726,-0.0005275164563689991,-5.360648103873548,-0.12989860636095518,8.749877088981483e-05,29.855283652527774,19.837696469674178,11.852336906225492,-0.5327180878385551,3.470709968729843,-13.884089562784693,19.74718425178728,28.675642847017006,13.285939363246753,46.18014739119886,-8.329739407003348,40.14544176781924,120.16536164898825,-0.0013810063605375505,-107.7124982781105,117.79929186893553,0.0012360981728533568,123.9587748681838,-13.485480931702208,-10.948770434826551,0.007962694330083953,-15.66153600998047,8.87982507317875,0.006044695560806498,-7.912968910049728,-10.985293059268717,12.103483797894201,-30.53704983589218,-14.746347046831238,6.9999489998141415,3.2531405407040377,5.181166037022831,7.750108658447227
-6.201936663673258,0.0,0.0,-6.504436374585406,0.0,0.0,-18.608527367369355,-10.03080179284662,10.657428618077207,11.754419198094991,3.6326088901783504,-12.374640941609162,-22.282606729586547,-4.11518093490188,0.00027568860023968007,-5.066925513972064,0.41571617207681477,1.4635371415660896e-05,30.691822486925165,20.222348338735046,12.687792707209951,-0.7904742836202925,2.926715544741089,-14.577987620322475,19.416607728459784,28.618217370504013,13.908376294338492,46.956715050605325,-8.040509544312634,40.09252022814175,121.04288653375423,-0.0036919291245040156,-107.10717091522129,117.95476583087573,0.0002199443789207974,125.29440512307966,-15.620220832179841,-11.525779975812284,-0.001657018401785908,-15.72814011330446,8.862192327880456,-4.602685768660447e-05,-7.638448576264218,-11.077101854993446,11.749808866741063,-30.288323579551676,-14.697472991638644,6.632143027672194,3.1164380377439547,5.034477491524236,7.721677943694243
-4.88285203747499,0.0,0.0,-6.842587078950856,0.0,0.0,-19.89492601934909,-10.433581477858748,8.412112919511047,11.719844703196324,4.549350334787603,-12.26532884500977,-24.21209142561147,-4.373710251643878,4.8579956543126964e-05,-4.7631828521467225,0.5103271381225692,-0.0002531934033344403,32.0690866059312,20.492255830847167,13.005851203257187,-0.5874875849208184,2.2077051083428674,-14.654705307043125,19.357837706319046,28.832244745162143,14.31568897207285,47.95249679472097,-7.631906077616939,40.15392857254893,121.41467061255597,-0.0004962129679183784,-105.46955340132537,117.92519735963653,0.0004883473830933796,122.98840355660715,-14.199016232735389,-11.338130519518037,-0.0015975960351576558,-16.489319188619476,8.98952695651607,-0.004390253327234627,-7.228221688536845,-11.389427773844906,11.899519203419029,-29.903232842147503,-15.042267799513043,6.647832252942379,3.53231948654623,4.584573763783473,7.697510195821616
-3.0948990909175738,0.0,0.0,-6.177725019149619,0.0,0.0,-20.891733738078297,-10.566739379178122,6.584085201890209,11.624630468019618,4.440075140245785,-11.786292492095187,-26.278534883761512,-4.993319261958715,-0.000488795890694236,-4.240831841713996,0.6722303523863213,0.0002660565587361403,33.01263968504577,20.955298640026932,13.286993152565362,-0.9931206448821991,1.646167742227207,-15.332071154366702,20.16881846216645,28.732140465534513,14.227878909472377,48.56270784994685,-7.844444470500914,40.183039055344324,121.22214084142706,0.0004019451671647123,-103.18798224511772,118.07125475574375,0.0006800879087724098,122.48905068325574,-13.560195429609298,-10.904569524066378,-0.006499173062721063,-18.556958242524708,9.030621132797947,0.0038973406464270803,-7.102835510573995,-11.205622001740759,11.870086275526566,-29.760273756644736,-14.861526068458694,6.693570529655894,3.5606243338990606,4.239630957495928,7.971176936015047
-2.311457944959344,0.0,0.0,-4.700206922091788,0.0,0.0,-21.958392045204842,-9.498733685993974,4.635281465004464,11.215551545832414,4.51376931701539,-11.372630347154924,-28.31831121223236,-5.643208183309288,0.000517270436617226,-3.6100385424630157,0.9681398904026701,-0.00012129629523508167,34.16307453987254,21.315083930764924,13.738028729863917,-1.330600238239873,0.958227675121268,-15.919739740248144,20.407128181254006,28.59492045168946,14.04832912971409,49.24880749691117,-8.300886965791141,39.85819670245147,121.07863466204667,0.0016492409385458406,-95.06141525859684,118.16235584742681,-0.00023024291484595157,120.39298693740955,-15.152946630805195,-8.248784663421914,0.005932595178906497,-15.896106763696057,7.9735881485053515,-0.013097294464836434,-6.734371260580972,-10.90781175312787,11.982188798646586,-29.3564130817508,-14.629025073829412,6.917121381178285,3.7604918606170177,3.898581908293794,7.945357663221368
-2.5283901613050426,0.0,0.0,-7.542418990301798,0.0,0.0,-22.624063728776783,-9.195574404927063,3.8407881108920874,11.726157620334597,4.92309464375129,-12.11649700401038,-29.815941035554783,-6.485433652565042,-0.0003121006598351594,-3.188552322275385,1.415878831486514,4.550581341537892e-05,35.64600007659181,21.354345566796685,13.159616778299126,-1.296709731975529,0.24452175128226056,-16.130255428281895,20.97770307444324,27.887576650701842,13.001583481612553,50.058932674261165,-8.068125486504016,39.47328762590098,120.73297965457492,-0.004250861370940316,-102.26654171580682,117.7396797320938,4.740800644382181e-05,117.5459840762514,-15.702160543483043,-10.996973636456714,0.005715125589945569,-13.65732337013014,8.137933027426104,0.004918519537392461,-6.295039646219102,-11.174718939592848,11.664553404444051,-28.95863965644472,-14.75532768630701,6.513433673611349,4.460660623224349,3.7703417067706746,7.531792697215486
-1.135733332595344,0.0,0.0,-5.307358752890128,0.0,0.0,-23.107813394748877,-9.043160272295257,3.0329315103568932,10.935807384369143,4.539291807579746,-12.058069847218654,-31.171654576999757,-6.4482975037658266,0.0010791206837108677,-2.3081533887062564,1.722815891882009,1.1610054768780688e-05,35.94192415952888,21.634609514208893,15.025703686443181,-2.3033633143270285,-0.2559258617245007,-16.343180308554484,21.353615822624413,27.932200048844344,12.174935332325019,50.451280826877884,-7.761764717523235,39.50005867957306,120.79576445821885,-0.0009996567606550765,-103.51822152699306,117.51570160200815,0.003058260612107465,119.60380031351129,-15.959650145378228,-12.031781485227588,4.7723985620002854e-05,-12.679081703878111,9.86785607440303,-0.004195445875817684,-6.317390189026785,-11.374082375741073,11.206287391755739,-29.02089996640601,-14.765956205770141,6.005121203832324,4.516421506445364,3.5330280342220126,7.747799637489585
-2.86165538156713,0.0,0.0,-5.167657242859812,0.0,0.0,-21.853107307400485,-8.569962966951037,4.051793889186203,11.020132927740423,5.0519037323874825,-12.875970550834761,-32.65946819706637,-7.03537902395879,-0.0004858625393635787,-1.9637626439744569,1.7399305697255762,-7.698390247143836e-05,36.816234002821226,21.847254527921997,14.657920205094655,-2.9262207355744687,-0.43502246068409356,-16.425877026615023,21.908161942019262,27.78264533120952,11.142376287283945,50.946561991941905,-8.468779630812902,39.24432838058216,121.16369488100403,0.001332464998664039,-102.57783434516091,117.5857337339793,-0.0032339828840391525,116.20076807416277,-16.94718558645791,-13.31011062682025,-0.002989971182303493,-11.96541605659278,9.265223143804338,-0.0027871638157823168,-6.704067410032547,-10.907701261803606,10.76367417539745,-29.37901586627853,-14.168155394792556,5.777125283916797,4.812206785960899,3.6948176085331763,7.934526827228621
-1.2466881357100663,0.0,0.0,-5.196027091069161,0.0,0.0,-21.976077642573028,-8.94717309590598,4.420066192373401,11.1400776248482,4.4239974809002085,-12.511051924621865,-33.196529237811745,-7.163991112500958,0.00023477042185081283,-1.7108689260117236,1.9778753135892293,3.9152938333534164e-06,37.377824532679504,21.58967639997371,15.021730486250144,-3.2195454978535585,-1.0896694364504502,-17.276143526440034,21.77689421532604,28.08347416462664,10.669116401159402,51.70227311260224,-8.410104161014925,39.51673360259118,121.53513642929282,0.00029666247531901006,-101.72042393154946,116.96493771421981,0.004502019262144134,112.91383183109022,-15.95944597696468,-11.903025256010661,-0.003729577229563978,-12.794331151723277,9.875404676820022,0.0004346117063344681,-6.027532843797982,-10.47377150582968,10.111827731768315,-28.686002831553438,-13.52090399872838,5.340608022622262,5.480373360381391,3.4511621954452045,8.073754792658312
-0.43354607168429304,0.0,0.0,-4.373046410978668,0.0,0.0,-22.325995889041458,-8.535390947818538,4.329890363008601,11.678442452065285,4.902131103064667,-13.25113750513987,-33.93912351077543,-7.260674094002557,-0.0005631939080335877,-1.887060856110239,2.2101035496229846,9.087554038179602e-05,37.72570169352845,21.262506435604312,14.749626687034683,-3.862827666235361,-1.7452474373435605,-17.293631970261732,22.281814190787074,28.638496077767606,9.038294522053292,51.40363604063877,-7.605272844123581,39.78453966704752,121.42030783858839,-0.0018179038266390557,-105.40497630093826,116.72334884874559,-0.0027505340466214495,117.99881010842526,-16.31740151058372,-12.935795646068058,-0.003723077911458781,-11.99840493171672,11.2192778840463,-0.00259065485507385,-5.658495171517485,-10.879281643267458,10.241916156360627,-28.350455267580152,-13.944345551262838,5.301103316407964,6.030078936148344,3.4665968537616503,8.308957704349641
-0.7903099389245463,0.0,0.0,-3.2809358483951137,0.0,0.0,-22.503456170884277,-7.954348720815318,3.126759339203554,11.67778796852288,5.327293413506015,-13.215718152459987,-34.422243966487656,-7.084617320996802,-0.00021240705082476016,-2.1916946880516965,1.868724250184021,-0.0001457564541070621,37.787132110596495,21.092995181709437,14.813288897860065,-4.472511491017611,-2.0715126470804517,-17.593357461414612,23.453646399981608,29.195569965688236,7.951660049317118,51.49264614604382,-6.573822756309757,40.134734480285466,121.44144272968741,-0.0006612941048504154,-107.0073617702082,116.3087177875373,0.0004346921163781764,115.55224554756792,-14.83923828772426,-13.209361632688555,0.002143738152162137,-9.796832311399838,10.132663305928874,0.002177042538343381,-4.862960088521075,-11.183642425093222,10.869407977952148,-27.5608900693971,-14.46277388090417,5.7661080604131305,6.108612069157557,3.9359144175996277,8.37198095089732
-0.06837878690846749,0.0,0.0,-4.8657802754502,0.0,0.0,-22.110832714573718,-8.608018373699123,2.5120646294911317,12.380192166296904,5.1149952883772745,-14.386481429186956,-35.14324371665389,-7.904617249455361,0.000621663642657195,-2.6212384419210806,1.4509707174226107,0.00029818866182079523,37.48942900515762,21.241516899612545,13.412097406341989,-5.088113268546837,-2.4264571595608846,-16.89579070814688,24.046315510158486,30.47891833426415,7.196373701855093,51.19541192975784,-4.7848029028941115,41.31807145243448,121.32648517335193,-0.002559347834926917,-109.13123049056912,115.82173541504349,-0.00018023098774703957,117.6620207400169,-13.646709458101759,-12.984071497332744,-0.0007829850291792883,-12.182786997458425,10.66379131668119,-3.866105705610806e-05,-3.7030415102079,-11.330759622352879,10.296073627678444,-26.437049255725526,-14.381332599805045,5.171888308794735,5.816672699775275,4.357743639015078,8.770820518198919
0.37014350314839,0.0,0.0,-4.465233304826346,0.0,0.0,-20.503982464660695,-7.484413780391182,0.929674750393336,12.92240914536308,5.827737039537246,-14.848461293486945,-36.560082728322534,-8.427424256934835,-0.0006740575782511043,-3.498511153940566,0.8489689779734905,-0.00039143974185323313,37.99243029127213,20.84930850078297,12.738945862543323,-4.807244186158301,-3.195668281838528,-17.21101034403621,25.13717759560821,31.981724227614855,6.435562638646354,49.77059165521411,-3.6131290213586995,42.637560467708845,121.1984189052607,-0.00106698021252569,-110.39716973047858,115.33101729730025,-0.002590922995201175,122.11287281245637,-13.482548265246558,-14.173186457090763,-6.433716795760615e-05,-12.809960218708659,11.176304169762007,-0.0031667057355460855,-3.0924420116943523,-11.285576969259562,10.221091318488385,-25.82461302749055,-14.311245185158853,5.119905752082113,6.330115454625463,4.4634611563869955,9.135049175356139
0.7943754275111071,0.0,0.0,-2.7740971132698884,0.0,0.0,-18.755790450169986,-7.2184257065876425,-0.9690126776169017,13.163633041219455,5.987949995704034,-15.045038987030201,-39.418891299336565,-7.989645340660231,-0.00010675519257304446,-4.202301493786418,0.3861374749842752,0.0005811643616312954,38.830906976467155,20.583694545939505,13.502427185685374,-4.8929786175156,-3.8790606435322417,-17.861046994924568,26.43807940616751,33.60005167949628,5.746647154093596,49.238440534811076,-1.7651793647947969,44.73934750054355,121.51787128170614,0.0016922070769575743,-109.9332272103452,113.72989558494238,0.00012646607511531766,126.77884386293552,-12.788406771768646,-14.155864217656237,0.001270933643808293,-10.674079327365916,13.150219670131635,-0.011550429030252557,-2.5541370131496888,-11.818758918878919,11.259940913631228,-25.301422555765242,-15.196411304899756,5.877479610732056,6.685774361828412,4.692896916179371,9.206672493854022
1.7189814494996631,0.0,0.0,-2.4346981350162586,0.0,0.0,-16.497102699265753,-7.314731210058844,-2.041331910702899,13.767568525266585,5.828831051131041,-15.650879973286681,-42.538024029643076,-7.8674700040195065,-0.00026639478568731326,-5.627744981247353,-0.027421988780658026,-0.00032584857011123475,39.52060932620536,20.187382569290953,13.754401086606347,-4.754504394273977,-4.619587096330033,-17.993528788852736,27.801881347359856,35.377029458935255,5.378016469666942,48.24088858202699,-0.3057727547762948,46.834286589504075,122.51506159361219,-0.010749447698912838,-108.93633416622711,112.56676401499632,-0.003737750616844552,117.83749847617936,-11.409074498407367,-16.083376807650957,-0.00014893673583908081,-9.114286144581378,13.556902433812011,0.0015907865766455135,-2.264575696645823,-12.351348505060745,11.772352973077732,-25.047972905247498,-15.881402112658245,6.143125444360817,7.2463534202007995,5.023122942980405,9.409615422203288
5.381142753918633,0.0,0.0,-2.62375614720539,0.0,0.0,-14.009840207656218,-5.843404882879705,-1.5880777811268003,14.519263467113761,6.582888883610214,-18.194306014326603,-45.16679415739183,-8.720412732738327,0.001479877338786567,-6.3450908484621475,-0.12104513329539811,-0.000845714754297509,40.45335762824974,18.552787046857215,12.207569633571152,-5.689253023966982,-5.196521741057313,-17.801311592075592,30.576861606124435,36.97169892902277,2.7702458265040164,45.05751037521679,1.5844270774297353,48.84242015131204,123.91895968624479,0.006063490535259868,-107.80243369914137,112.01175625104248,0.015002296575073836,124.54707660470177,-9.07629484346287,-17.33964025580051,0.0054082587534873255,-11.170733300428182,14.317954160905767,0.005255065330655026,-2.251482685099237,-12.443219765087125,11.53691777864742,-25.05475974504092,-15.877011864055008,5.885720496327503,8.33045034237761,4.950772279487063,8.909370599552545
5.233226247880901,0.0,0.0,-1.6638369440555338,0.0,0.0,-10.87835409639246,-6.26513559389522,-0.7430673979639846,14.691411547077486,7.413116479429831,-19.197293818247537,-47.05697228029642,-8.199152288512094,-0.0013088557865310897,-8.162178660445802,-0.9835085558945842,0.0019299720072702476,39.99669865388596,16.604235167475732,12.95790975460277,-6.488192201261052,-6.30153081549094,-17.459991468240506,34.542373162322235,38.804749683182855,-1.5679694282175047,42.94993621329914,1.3593202650861507,50.52022628711114,125.44084553546367,-0.005863178780906269,-111.48811818753663,112.29474447656182,0.0045280860143560335,125.48919653679278,-7.898726108348976,-20.08974175030363,0.0021740752936957853,-12.02117242505894,15.11888261784342,-0.00971269851077595,-2.6049212731037787,-12.931828262192681,10.30567852201196,-25.506386629074054,-15.86075894260306,4.5377031083164034,8.635414659355055,4.956739841416148,8.815829784315882
8.66737463564693,0.0,0.0,-0.6257719785505776,0.0,0.0,-7.879242158318153,-5.9045333964605256,0.13970672892543,13.748845758738018,8.83849196148384,-19.147047143093946,-47.34439029809996,-7.497044943706252,0.00022056139081233196,-12.255684295158181,-2.001513928797264,-0.004893458513788534,38.8996736083469,14.419137086807817,13.093775162998897,-5.769491312561474,-7.577216948306565,-16.827149507191734,39.83777154254538,41.4738391062119,-7.0396289409302835,39.472679826873545,-1.2961420139809596,51.760439276752955,126.49738763799583,0.005436721292614306,-113.44254771732344,112.1998181866662,-0.00678700290626781,119.24302391486465,-4.930237696844668,-21.705943743216807,-0.008126458997502526,-15.204773524066361,11.123915638653049,0.04289821817886609,-3.0645070215306256,-12.406089931693547,9.014972859499567,-25.94565366427342,-14.88659006288587,3.546633471788643,9.784705043432359,5.319413926154125,8.568649375003051
7.799072700506393,0.0,0.0,1.3462938019325952,0.0,0.0,-2.1913477663887724,-4.995241577636674,1.8189910672679155,11.194050201582836,8.962268537989813,-23.636514598400804,-46.01696648910018,-7.971573788164498,-0.0016295388631026528,-19.10499897371418,-3.011220754522731,-0.0005997681130942348,35.85772487435433,11.443471156420717,11.092490188827517,-4.595095680849751,-8.196823109774265,-14.420211255387201,49.04428816909617,42.81503175485915,-15.661545475377837,35.33608085454888,-4.513348550567245,50.51022858408833,128.53319750955643,-0.008666300790904587,-108.28785306151788,110.95304338843536,0.0018516757558379934,118.25240509346142,-4.169733734265186,-23.961033555180304,0.0036692777470746446,-15.34654813230905,5.765428933848227,-0.011510573317356339,-4.150942803086011,-11.405218833080797,5.864007943317819,-26.98560115007658,-12.766534050142628,1.0211765001168043,10.380920037358125,4.757423711280994,7.7757749541783125
6.035760735556372,0.0,0.0,3.108387728151661,0.0,0.0,2.001908826765177,-4.679801033757917,1.7687965773596694,2.507834028607659,10.704678963227291,-26.57027060525569,-42.5216260604121,-7.096232955358613,0.003399113615952729,-31.535266445888382,-5.530717084407167,0.041888692199594915,31.954324211617916,7.811472571135411,10.912244415312284,0.16952321509381885,-8.787790730486002,-11.485084767995916,57.9426784499941,43.462399183963306,-24.164604815243194,30.882468568150358,-9.333251233385827,49.112466345183,129.4402621459711,0.002341511799570097,-102.03356726752551,111.43690812946805,0.0025135804266562117,119.11452007582588,-6.203618236150356,-23.474195585993108,-0.0032858420367733935,-15.767061744723975,6.378297056066151,-0.0008438255351339608,-5.087372692315359,-9.891084061073117,3.353911037168578,-27.804498187197975,-10.415486903563075,-0.702365029351318,10.861069543929503,3.5959141963434234,5.479850725390711
9.368321623239675,0.0,0.0,-6.827844189176717,0.0,0.0,2.385667022538653,-3.3766808685734984,1.851826277714676,-4.870413704695552,8.197845044881385,-23.57319964446676,-38.73843668730937,-6.285083041132736,-0.0032053718016056667,-48.78495185637866,-3.76773999909589,-0.0816595885957138,29.080592763446834,3.7349040195231487,10.84408970572637,8.944965558507217,-10.619937983164137,-5.06874572444898,66.64489669916664,42.74773117758893,-30.97707762531049,25.95021509862213,-14.11573214465677,45.936636770310606,130.16451318505162,-0.001740468697326304,-96.94407239778418,111.51434312945017,-0.0005566015441163809,117.26626366495206,-7.4162191650672025,-23.187856145225158,0.0004602532328948292,-15.228119196727802,5.605839982834428,-0.0005253035322433413,-5.208641630210731,-7.672866800913448,2.198298915963104,-27.78160016367469,-7.928604095177971,-0.9049871818939652,11.425886186268917,1.3388939930833799,2.4453595930075553
7.5363451559433905,0.0,0.0,-6.595023566614947,0.0,0.0,3.568834467386773,-2.430562783888107,-0.11535715459426334,-3.391748211426732,7.390270901744955,-17.713749643097753,-35.64598726493448,-5.45623711920133,0.0021493979871370352,-65.80945367417239,-2.004048041039793,0.06607543483112634,25.8704765409747,1.5135966718803666,10.854523434592773,17.956958392894183,-9.833799760069956,-1.9494386637936008,74.62930729641758,40.916921586104955,-37.985146794419606,19.602199518852856,-17.893840125160356,40.943005528741274,129.68286823100937,0.0025967521668680354,-93.96217271773678,112.31799371454356,0.0009133978353304158,120.57391022901437,-8.711846692902567,-23.273368081916466,0.0006714500884270813,-16.428915534471862,6.82850121255037,-0.002415375083006061,-4.338148193771861,-6.859774494563554,1.9077721769371252,-26.868335285034785,-7.0671569595355646,-0.8589230933348468,10.744578185072003,0.13507163089836027,-1.8062301975570128
2.529713455040445,0.0,0.0,0.387055890670143,0.0,0.0,3.750861311641625,-3.998086736400476,-4.373161480466475,-0.6955056866103713,6.480802826608942,-19.1461644834214,-32.866671980902154,-3.660085346774532,-0.0014215925240779767,-80.76243413806766,-3.1906542815116037,-0.04322748774617947,22.511272130363157,1.1894255180669007,12.492597550309458,27.98015770163119,-6.783138077793345,-2.713540488991033,80.96573327073408,38.62187137651556,-44.17906674049795,12.168601637486688,-20.760871387814642,33.38309155083403,127.86550965449011,-0.006975248313197898,-94.29373695256075,112.53990741814891,-0.0004231004743666069,115.38857951152877,-10.198426060992317,-23.976652599481802,-0.0018906928527403705,-16.473216483603355,3.442716398245167,0.002405218225230716,-3.759880530332379,-5.62831444116488,0.3676880397048674,-26.22512479507225,-5.343616146993066,-1.8077280233230675,9.029698040658666,0.10695773499280724,-5.035823916735495
3.94562826778575,0.0,0.0,3.0336288238121654,0.0,0.0,2.3540871147602935,-4.322427917185759,-6.560983040870493,3.529447377956794,3.5280376699512175,-22.73224064065768,-30.09980905236873,-3.2399521030316305,-0.0008915021594587325,-93.43210888553376,-1.0364702416538294,0.026694044876364054,18.889355915600543,0.9550417877433822,11.29960623289227,38.33177312491456,-4.277631943447015,-2.54641954057285,85.11955810966917,36.86270323433618,-47.48002755826973,5.9742229211065165,-22.531563775499585,25.375957911412048,126.72934061126936,0.0006425496766778222,-97.71698828904695,111.5774683559681,0.0029242126437625557,111.77504911694275,-8.941117585809408,-23.928838841167995,-0.002320731985529143,-17.520059893198397,2.865815164841475,-0.009563521080329904,-2.0342269803029334,-5.182306454451236,-0.32920816272295794,-24.47506806297967,-4.66644611705866,-2.2803870077494075,5.857596610505385,-0.04082644402507447,-10.129619619203037
8.395264409800749,0.0,0.0,4.99911428294525,0.0,0.0,0.019759955896644716,-5.578923929213113,-7.889913045726637,6.518462912607846,2.9653232146723267,-20.64312030442737,-27.8155692861942,-2.3786335711804054,0.00113083215973197,-103.36181346191482,-0.6773594825995035,-0.028268197619817106,15.96967237985015,1.4369719361143614,7.8858041357496385,49.21127723222229,-2.6983463865329673,-6.784612783721137,88.28857429910452,34.500900873234244,-49.45798635959036,-0.15182101781268884,-22.063638551585594,16.18184846551322,125.7972756208306,0.0061204177170922705,-97.4168529839847,109.00477092210006,-0.010558542050119787,108.52799247024157,-7.830236068287797,-25.056680953043557,0.00404527164576723,-16.164094939756428,-1.1232307073302068,-0.017807559088962244,-0.9931366289825911,-4.553143746283302,-0.44303863289100176,-23.414018920869974,-4.041599042743928,-2.1447645220900657,2.214957361312861,1.063753336123691,-16.363760245752893
10.48968088313227,0.0,0.0,7.642823634355244,0.0,0.0,-0.46072860586704256,-5.628236981792272,-10.100046204041073,9.457763832446698,1.8144433353938838,-16.856841364868437,-27.34479043432957,-1.979027963321888,-0.0007632311663826846,-110.60669628275802,1.749398948473845,0.012178610874617246,12.630622564810539,3.238959075725099,5.548477540804815,59.85831369986051,-1.7202079426937327,-9.058741174487364,90.77068983793102,32.27133146493274,-50.733186198957625,-3.5916460029320616,-20.555483200721284,9.523921487905136,125.62668969076952,-0.001912946692070662,-100.31088187472928,104.73668591350442,0.011164099101399639,106.3607563515483,-6.687243984013334,-26.39487492395041,-0.0018982087296050693,-18.855025278607116,-2.9695324210227256,-0.009538753202737447,-1.4296983738000049,-3.5644111605469466,-0.9494037407210589,-23.820218468668585,-2.935004546532774,-2.235036193640407,-2.4607778625286163,2.487218800701545,-21.90697985903259
11.295153872155455,0.0,0.0,6.44085284012428,0.0,0.0,-1.3023376073639472,-6.101088654539236,-10.990595507571921,13.040481048651365,4.032353041705394,-16.57705855511205,-26.739741095839573,-2.09406800157173,0.0005243201747120849,-113.92803238544174,1.5382817586058206,-0.0025076054604964656,8.228644694953626,6.004870702148357,2.291146170515838,69.68974361086514,-1.7288961844400375,-12.949593945522512,92.10173778119396,30.097034523357983,-51.43373241500854,-5.662417510468692,-20.657977163036023,3.350107490170533,125.09823548754781,0.0024702782749779313,-98.28710047428002,99.49842553641344,-0.01578953212373623,108.83654025972864,-7.9798346916778415,-25.870276418339888,-0.011247418741465752,-19.99895906390597,-2.704092031540041,-0.011267173571106267,-0.4457745741333735,-2.4340643201622574,-0.8870451090397183,-22.818884566066878,-1.9135069503817441,-1.7466158062166701,-8.082009642174436,5.010689570369777,-26.569232599233054
12.509586947404863,0.0,0.0,2.886216138759093,0.0,0.0,-2.5691273737002476,-7.3427284532800705,-12.323288601013571,17.94056311746036,2.062533407389811,-17.393882380584763,-27.380014760987883,-1.6868502071486453,-0.0020599730146642122,-114.08000554946297,4.076806091305399,0.0020683061489216005,4.533242062056733,8.765124488616932,0.5906741944029126,79.92438189141718,-1.324416189001027,-11.690285344796445,93.36414360725887,27.92234326513482,-51.280365055601145,-7.464924519082375,-23.14483910207974,-4.120483893747859,124.44237857854219,-0.004733380316534187,-97.97203951402116,91.19420888866503,0.05128433167622391,110.1869489301202,-7.3326376588038915,-23.92683887348817,0.002736502809392872,-17.971323770640495,-8.0659593252787,-0.012501892393932233,1.041734362263729,-0.7318321183047616,-0.8853589616253141,-21.31867295624547,-0.33997444350869765,-1.0971944909326588,-13.250873623573133,7.473282105033923,-28.473702633958762
16.600247939711046,0.0,0.0,2.945446888569147,0.0,0.0,-3.121408656858785,-7.816200178590923,-13.846603537973898,18.724898168685314,0.45677791974774334,-19.148815535914324,-29.096913580791316,-1.7021255962546316,0.0008354830960697365,-110.25997541826797,5.566524185366615,0.004721868433274837,1.6376805324083463,12.883057684319716,0.35978694938433203,90.2148010271123,-1.2253349714386075,-11.335683813719182,94.8913770188987,25.781110093698025,-51.81804919501909,-9.704584481975571,-27.60939147022907,-10.105309517393655,124.4527242202423,-0.004568032113924604,-98.3252809204961,81.66559375611868,-0.10929012205444719,107.38617063681212,-6.638845977836682,-22.77838539366815,-0.005551457388783201,-22.282960956651696,-7.04110062383189,0.0020071052872712098,2.2284162734893833,0.6447113051197797,-2.6469880485279464,-20.11847793453773,1.6031019135234055,-2.2030140884896716,-17.841457946296188,9.885070005316194,-28.407053598525046
20.023471980997012,0.0,0.0,6.249645107736499,0.0,0.0,-4.219368150705217,-8.438724607103401,-13.865544209253578,18.632822436202083,0.533727343730601,-19.74503008120596,-30.83045324967471,-3.6220904969551313,0.0003215279299902977,-101.73228941728155,2.5138734786481933,-0.010837870390602411,-0.6333662035678509,18.2324875810001,0.36828851178054184,98.83719234585696,-0.5117198095872855,-13.92334713967758,95.91623968095496,23.228108765154865,-52.552840295087854,-12.075626159431978,-31.772294480521207,-17.75116995788544,123.77983336742949,0.0006058815046544685,-103.0204464825428,67.22437541243056,0.07904493150013696,100.57160388773092,-2.5957925297365776,-24.082221804719335,-0.00039765378522817836,-26.531882945401144,-12.38596578775102,0.010547863994661759,2.794775557830299,2.052003143966899,-5.189335083440238,-19.525090175951668,3.8706378271539266,-4.021332887228569,-21.110598047055262,12.021374748891999,-26.85191625583202
19.70478539610354,0.0,0.0,13.501013998659907,0.0,0.0,-5.00016877060839,-7.478837903020208,-14.753521531323848,17.755517934858748,0.8239170731345757,-18.826959822675683,-32.66112249238854,-4.782787035791564,-0.0009641687609995778,-89.11154658040658,2.824770331765705,0.0027832698125385084,-3.316398208698808,22.438467566853337,1.4346948886504005,102.97914600693383,-0.23539072350577717,-10.88352161637844,94.65400424871791,20.467284878296887,-52.712772666273345,-16.671011029444117,-35.123383558112984,-29.069316243610714,123.03078187716177,-0.005752270594519255,-103.32608304623602,52.21749073001957,-0.05262557206468113,97.85824439293789,-4.659866150312769,-24.529602332376285,-0.0010981423050840603,-29.385285843096824,-16.059152745368007,-0.0034412073010937068,1.1346495783414152,2.130964227831173,-7.330784004172733,-21.116292301539183,4.7553284110201,-5.977098350639737,-23.087471929070055,13.524627040302684,-24.726315204642738
19.407667142144454,0.0,0.0,21.972475650816843,0.0,0.0,-7.629425219494808,-8.100438658198446,-16.475496174578044,16.508947499664416,7.7292260769145855,-19.50821564958072,-32.474560976695294,-3.4167319166473367,0.0021959507044197134,-71.68251347895071,-0.15765570312943325,-0.008057044119517886,-6.614121976237376,23.34070197530417,1.025750869872333,101.25732052782882,-2.0391363579061434,-7.927505215195979,91.89176255690087,18.227170315322912,-52.572682903844,-23.765864297564832,-36.79911869060997,-44.43907624597413,122.59328213206263,0.0022937611498218616,-106.184041793589,40.827738552800476,0.09300749122721072,96.92634097883598,-4.029142618192454,-24.40954070442374,0.0023702182143196145,-32.610891641627724,-14.213342912407589,-0.06205882874743429,-1.629226004941012,1.918784768060745,-9.044059041641328,-23.795558664679614,5.206111443357413,-7.648777831282341,-23.474112084894816,13.844503487222996,-24.827360546008613
19.992256537046188,0.0,0.0,19.90104623512235,0.0,0.0,-9.687380203910383,-7.944131849171953,-16.782671352638264,21.00192181212225,11.474492196990433,-19.268365222333372,-29.20542666985173,-1.3566972454564337,-1.0975718303383014e-05,-53.35624916452988,-1.8110583664972497,0.0100045345001864,-12.72989406910522,22.458618325109107,-1.5549839391976537,92.90649329553239,-6.511193522362916,-5.962161047403765,88.54740568306207,18.087211479650044,-51.0961321027064,-29.77534057976742,-37.21975467603859,-58.67416485063345,122.11900648541958,5.367886876041501e-05,-108.19420505314984,34.023617323259245,-0.06317051073308359,94.25698067987786,-1.845918098398528,-24.79766211545732,0.0016698258854001065,-34.34797379626103,-14.356023335828255,-0.02095662638875351,-5.945438187158136,1.775913899189747,-8.282983595942094,-28.14409154900396,4.786609285586717,-6.995853146303495,-24.266813399379373,13.836913274877356,-28.429705435644863
25.000548134665195,0.0,0.0,10.975357784382435,0.0,0.0,-13.13114872781309,-6.601304790813846,-16.61926472194916,22.00494351962595,6.413760209743023,-15.516285949383782,-25.909620082000306,0.2865109032378819,0.0009927227415557718,-46.097191213490504,-1.7862271930604177,-0.00845574174490353,-17.047342208305494,21.04890152055387,-1.8545502685750102,87.28290587673914,-9.274208206268705,-5.387127224602388,84.41338777714381,19.06167657384848,-49.5164782180397,-36.62374980362844,-36.35868435348832,-70.26982849992594,121.95111279154442,-0.0005372779175742128,-109.04708329145357,31.641166317217355,0.01971674298120096,82.49238581844932,-3.921623994354918,-25.351217977681042,-0.0009109073943875461,-33.342131112832575,-17.155873203200944,0.00821321487037118,-11.142469238363407,1.491157399926871,-5.941115404253452,-33.42598911407884,3.636897080513342,-4.931325466797613,-22.252005192864743,12.485334486325382,-31.059393347320913
30.958130768916387,0.0,0.0,12.332808685733003,0.0,0.0,-17.62692039021102,-5.307430227272691,-16.184090714126743,19.625188566368077,5.3399387939393455,-15.784750217959067,-24.379745874921234,0.9593454315569245,-0.0008727884652422321,-41.907696774297904,-2.2459170877726993,0.006577134568693189,-18.67110194070888,19.87461933382611,-1.786420555311492,83.86477902987626,-9.756047597378982,-3.64448857968639,81.60693270277504,19.910751607382707,-48.706726547634275,-42.36017744637325,-34.02168799763421,-77.54736068601562,122.13131473057985,-2.1632684437679335e-05,-109.1959012751174,30.60239525450383,-0.003112587857966294,78.94020057333711,-1.564907899204811,-25.174413852562488,-0.0025693671903781307,-30.10833881543462,-17.904993753327165,-0.0005986465606610146,-14.190346497804539,0.42181672402765663,-4.922563927703879,-36.4845226583189,2.2612087381316814,-4.393869453262734,-19.82487622986556,10.42972098757324,-32.880102855282715
29.335307704070615,0.0,0.0,12.886053911022582,0.0,0.0,-20.176060000138186,-3.606376569215735,-16.918768330819233,14.882207729839465,5.6043656691843555,-15.837573572706775,-24.158440560100892,1.403179236165791,9.286021031614796e-05,-34.70450973877838,-1.6539161604367274,-0.010773678114068767,-19.171603281973777,19.143308921343927,-4.524300403371257,77.49686423412098,-11.459268797157813,-1.2734154023957411,82.03881443513255,20.927497916675307,-49.31030654227972,-42.9116034309029,-31.763779048702666,-80.8208233912425,122.19386404661826,0.0010184849965469826,-110.94861430910038,27.657154556594353,-0.0018435317493146336,70.50314724409215,0.8256996877889247,-26.778780268916634,0.007112178948753392,-26.04183954799036,-18.52110738120274,-0.0007853905912372504,-13.440801874154129,0.32308075384739465,-4.240541172811945,-35.75217609888067,1.9110406971848135,-3.799951773206008,-20.801600952745098,9.965331194231364,-35.16884304657066
25.545088941436727,0.0,0.0,9.298629623352484,0.0,0.0,-19.59407642398271,-4.107903219466658,-17.179965768034954,8.592216989570261,8.935308506184564,-11.225438684973152,-23.03277926061789,1.7868553807723537,0.0010594081361981335,-24.017502936219785,-0.5354209895624549,0.01119955033066796,-20.052551192867746,17.366568691465208,-6.608947594113706,70.49597268189798,-13.345012258030255,-3.339562120848569,81.42329114659393,21.38001977775506,-48.7698059274269,-40.664839997949954,-29.625480642867487,-77.7279810590517,122.1429663171212,0.000447758469247089,-108.80005388580318,25.926442079258585,0.010842669288358258,64.9430228988857,-0.006183184589645646,-26.44243704326272,-0.0005124260534650685,-26.128700692108588,-17.225216985149764,0.0013544071149216158,-13.699588996027945,0.22120612900152073,-3.6885871820883893,-36.02282589551607,1.6072036054599101,-3.327822433516133,-21.958492759065976,9.307026126089472,-36.467311236200764
25.372511841964354,0.0,0.0,1.5980913162878234,0.0,0.0,-18.066593979453177,-3.8990557082867316,-18.3599960070617,3.0878660610597586,10.79719170940856,-7.471813976054912,-19.485636362096553,1.3184653788822875,-0.0022992292516869207,-17.893247217231288,1.7109112352821543,-0.0035666483283228953,-20.08403931947068,16.25682228765166,-5.360243202410002,67.52887218003387,-14.049031287763505,-5.739314718609604,79.60208527785753,21.00741118798203,-48.05923467988432,-37.42629778547911,-27.33519728574303,-72.21794554927527,122.47992438231178,-0.0028935326840033465,-108.404463321331,24.97557797187152,-0.015257471738010897,57.659980970345636,-1.7367675155574114,-26.42978915328814,0.008916732234626985,-23.387044330561714,-15.65172134201006,-0.008969653728490989,-15.38069282310523,-0.5852823757105098,-3.2806833411168315,-37.70667244309637,0.7062194608452255,-3.25682044523228,-20.719018921947807,8.281598664593682,-35.62444815041118
17.414082857449237,0.0,0.0,-3.6372555372232314,0.0,0.0,-14.03223485945659,-4.333850602633425,-17.79638165881682,2.970603010792006,11.10042026515115,-6.995023302776517,-15.918720488400622,0.7594542304408385,0.001492405483230241,-20.861859731935546,2.3411245755395647,0.004868589872557031,-19.320243586155012,15.072970550312748,-4.231101604340142,67.7361773987301,-13.684177856296008,-8.9988538869689,78.01731581771757,20.913801927215317,-46.72994003013456,-32.28067916666953,-26.90468432493849,-64.49238935904805,122.00768660414076,0.0016612753099272816,-102.30252261807932,24.106133440210602,0.0076271948923127796,49.8069946515569,-3.1083480901675995,-23.585966541331292,-0.011796489907806362,-19.41979886760626,-17.163944543649283,0.001961287422246892,-16.459389795535582,-0.933430554326234,-3.8602383522635506,-38.77003906007977,0.6042232231265078,-3.9251584703246243,-18.348664248971055,7.781826814766141,-34.62686813716043
15.346095582158405,0.0,0.0,-3.0388827217104635,0.0,0.0,-10.186626713404094,-4.874319452451204,-14.962384841257336,4.322919989819119,11.607633108568024,-13.361955271251643,-13.009601315679843,0.4752762349322872,-0.000731423574022145,-32.133931768277606,3.2132517342965423,-0.013021020898915929,-17.188138573104368,12.57230920782486,-3.739610957021816,71.10982026576981,-12.61687610077608,-8.316032565226307,75.9708792496759,20.869385648774724,-44.83028061937034,-27.15731797799971,-25.71084381593298,-57.82502695645672,122.8524796193113,0.0047086592949125376,-103.0150012836266,25.468704396845812,-0.00233283666499669,49.482215427941625,-2.2004500580437183,-25.003563727685403,0.0011377899759327237,-16.174785288094498,-17.55835435346444,-0.002843096896292678,-17.293680682312107,-1.3830283769396026,-3.674943380451168,-39.60807846892214,0.11795506340116185,-3.9244713414169943,-14.510895943250402,6.228097658086967,-32.249042800716644
8.342852453496967,0.0,0.0,-3.297062681996376,0.0,0.0,-5.574017957371866,-5.574026948920953,-12.521085612102917,6.375781775291198,9.93990931262345,-18.288754740304512,-11.444722891733388,0.7211669857197701,3.487237460721643e-05,-46.45394387353226,4.5631105453599785,0.012615679189013452,-14.349619853069141,11.370009781761071,-1.1147529479789333,72.8873311096165,-10.907289309875116,-8.598930958354861,74.10887150559475,22.00115290987013,-43.20221875186974,-21.38116434032675,-26.086088277615115,-48.170407909634285,123.33494220013773,-0.0026667021339893057,-105.29900849395432,27.619261239898524,-0.0056518038682534365,54.47971429325119,-3.971838843939646,-24.704914017383512,-0.0014996421649033224,-17.49956135509083,-16.27567514162475,0.014598145043583498,-17.402840453713125,-2.350453516997225,-3.173820839820451,-39.73285306198524,-0.9672082836573571,-3.8285778657787763,-10.835361797611577,6.970863446489002,-29.54213457446837
2.950463504416686,0.0,0.0,-1.2122371162439232,0.0,0.0,-2.0207390493908357,-4.917741616215746,-9.624374251123374,7.479511697149878,7.897356848035047,-20.981635327078415,-10.469834888661683,1.079384879284544,-6.879757300350293e-05,-60.877566469570304,6.755298716714107,-0.03723991300089392,-11.90011438903093,9.420140872089034,2.0582791817353603,71.97492037077704,-9.941572268746198,-8.356701325390162,73.08054938006678,21.864741368858787,-41.82689928046656,-14.704696996601745,-26.827051876029806,-38.819995621975174,122.89936298916996,0.005240341391756093,-100.18604008695708,30.188974044930184,0.006182443325195158,50.1280451218362,-4.377171907869707,-23.057008443790323,-0.002123552229044769,-16.444625496665523,-18.214263564484728,0.0022026667492515174,-17.366884849844443,-2.853263721708795,-3.430952656923164,-39.693837455891476,-1.3347281965968887,-4.257295891375737,-8.486491620039523,7.640291945749966,-26.553674972352752
1.4373125376570788,0.0,0.0,-1.8496551407122797,0.0,0.0,1.0800925775048356,-4.950747599031261,-7.843037822684123,9.320506949326674,6.549324598124099,-22.906097040150605,-9.70212771643136,1.4938257981927083,-0.0003181144395066307,-73.79620708715734,2.4076046660183086,0.05873146059866752,-7.806252248655973,6.890554510412244,5.771114472853579,70.54488042760028,-8.397879347691333,-11.958782934289388,72.92611609848576,21.612634131393936,-41.76224728986437,-7.4720989802346205,-27.460077637181517,-30.53535697214611,122.28228083939216,-0.0004658975269907906,-98.85801212637995,31.86495468526463,0.009802965240704377,53.8245302277184,-5.592406182515007,-23.30833343373448,-0.001897377906607102,-15.171969715079895,-17.790891009792805,-0.0023382021629648757,-16.045679673886234,-2.961877974844657,-3.500725331161047,-38.3716153481226,-1.4087315110392378,-4.363048853024333,-4.863473471787534,7.386709524962326,-22.91189648812013
0.7239601409174933,0.0,0.0,-1.6683700811536564,0.0,0.0,2.962637870231775,-4.221458101403169,-7.185337897387587,10.350062331397016,5.283793685583184,-24.32405493277213,-10.48446108194082,1.1079305385893201,0.0006344889486171265,-83.3536521435165,-0.9855376985715404,-0.02707121617909254,-2.274390614410587,6.106668741127941,8.520908877393591,66.44367520864157,-6.404048287928362,-14.050112973364657,73.35763105919759,22.649595847272284,-41.68886301482421,-1.5100191626306727,-27.968641605595515,-20.083254082191203,121.57167922437515,0.001705949034750901,-92.04394485874892,37.142910885581706,-0.02659292786246466,59.11464758088196,-7.4400635401754975,-22.420882138010704,0.003440806852425392,-16.39304970214798,-17.07239428910335,-0.0027062994117530528,-14.688610220329723,-3.1281356688996755,-4.1817185986114715,-36.99477331962395,-1.3043161333717044,-5.055465851487293,-1.0048151384037987,7.914508933584733,-19.836617116192823
0.9174770202348022,0.0,0.0,-0.18759566532823443,0.0,0.0,2.9605445552123317,-2.4571961981352084,-5.8802846974469585,9.763636458146456,3.67520376600682,-25.528448270062782,-12.717053009502058,1.302322334549801,0.00014814400002766047,-89.23415769867823,0.7169311201499696,0.0003314752965544889,3.107464198314914,3.3772504320338044,9.6553247894038,58.59158092330776,-6.816605653141205,-10.229347788579233,72.57177312390725,24.220927318541314,-41.27627338063166,5.454907948684456,-28.027062076730704,-10.593156905498192,121.3514468443187,-0.0029810187100674877,-88.4345969138892,42.01845793017426,0.028364269159146048,69.08985498600535,-6.795100558191197,-22.692788217223814,0.001336688268789356,-13.826492893742355,-14.29865596141875,0.004983840042232961,-13.472906728888299,-4.2512657334941535,-5.242072790679029,-35.75063860539097,-1.9421100644845088,-6.4611339050312875,1.5367344094857442,6.777942350203725,-17.86254862159425
1.7319835045931522,0.0,0.0,2.136112704148516,0.0,0.0,2.922686432139975,-2.5855767308119417,-2.3272527287473395,3.67438960417724,2.58709723036335,-27.94210057684783,-15.973109319969272,1.169814609308347,-0.0002215279017618521,-90.03084858826067,2.1064708981078177,0.0006693689872887385,8.077169141451774,2.1506445025006564,9.433217106812897,48.20995820174166,-5.489941931346873,-5.822069857463184,70.78776433671922,25.378857167450782,-41.2076629259592,12.080353437934575,-27.473164688949566,-1.2571077509704793,120.99778802264791,-0.005984870651717951,-92.8178024219355,47.54961434336532,0.01445877861734626,69.53609129297251,-6.083427007440921,-22.256888998108053,-0.001457628375076332,-12.232496868355824,-14.08951502979174,-0.0010413984867405535,-12.207289140458109,-3.8603042525701636,-6.5377095495909625,-34.42112360271042,-1.0909749202405215,-7.509687737254152,3.1054353536110058,6.669605378766444,-14.150901435511669
0.6942273537873201,0.0,0.0,-1.6737366016007271,0.0,0.0,2.811950113230743,-1.6636445573864513,0.29829286839619057,-4.823297994898468,3.866941200077239,-34.53845856927026,-18.28354316293953,0.7417861992465262,-0.00019504375749841165,-87.58665199741166,2.1576380984961836,0.01288575286044411,12.789912546322697,0.9746634932185139,10.126174921851547,38.68424890763176,-5.234581764762237,-3.0038797529700343,68.52129473818773,27.55252911296647,-40.147319854004905,17.72609182381201,-25.955304672009287,6.005617613294876,121.87604177117754,0.003610731283733598,-99.34510514569752,53.88838702883732,-0.04569660587857347,77.22279658011627,-3.482117912347876,-23.316816042886035,-0.0019869592176007035,-14.518759382765241,-14.594050926450397,0.008580585668498742,-11.804606393298975,-4.957430791694056,-6.702955759254157,-34.021263784219926,-2.044378559795352,-8.07723164013858,5.298258265618229,6.132761921549355,-10.50431123170001
0.6556816164523647,0.0,0.0,-1.3804609951543905,0.0,0.0,1.468217206806295,-1.1585872633484329,1.9264242731595393,-7.229277997212277,6.027001540810906,-36.01061817063802,-18.24456224208742,0.601666698502943,0.00028437562192983626,-81.00078921463418,-0.8559862323837899,-0.023253134097322856,16.15555742991521,-0.5631783274009291,11.35183176175177,28.87930522400702,-6.170913081439108,-3.63612551445613,65.92070813030445,28.809513537107968,-39.06082767095044,21.21692507662015,-24.448724648408923,10.920384800188263,122.3813432445775,-0.003959507632800898,-101.43363376445373,62.20587730808096,0.03359364240783861,85.95657137400005,-3.6609556561504393,-23.720046518489646,0.002628532698782279,-12.869406437918034,-14.31661220013738,-0.02532292609795676,-12.607061894241756,-5.343634156052903,-7.444816293278664,-34.78733434164519,-2.1227902594939407,-8.907798154201904,7.299124312618129,4.9584427971181135,-6.575688374785244
-0.4778793751548272,0.0,0.0,-2.552367349558782,0.0,0.0,1.1195032710819315,-1.6361796648036193,5.672934157941255,-4.241240684865498,6.016655011310563,-32.400833816118656,-17.580731776655938,-0.18736530598617263,-0.0009724801070153523,-69.9343606997756,-5.631039540394311,-0.002442665843434178,19.19905001672204,0.07329994518545223,12.130395595667242,20.31049116977463,-5.517125918249584,-6.4980790640515735,62.611420056699735,30.80763126613584,-36.52946773491084,25.52300666392431,-22.720488379404664,17.190070259392645,122.59280485307175,-0.004803253682984121,-103.09877677643053,70.61517438966837,0.031029491113371895,82.29508656750451,-3.677747555720754,-22.74925840341834,-0.004869707931618059,-12.962881179220563,-17.68302652726326,-0.0052379726303476894,-12.059523207001517,-4.88267979856393,-6.974339682508244,-34.26052971838901,-1.87296857371297,-8.29943866186578,8.703402090179628,4.953726019327756,-1.8058413827792916
-0.5388541598311584,0.0,0.0,-4.302522008541087,0.0,0.0,0.12017047972138144,-2.344591839050301,9.61915951106237,-3.068542127924883,6.652317198244289,-28.578061657447563,-17.295037623565634,-1.3693259606142714,0.0007999323567333782,-57.60907297884174,-4.813958090450535,0.008130846839707762,21.575030687426963,1.5274976923337418,12.304763076578054,12.735284220459802,-6.017092197881728,-6.631432621292787,58.091318419289884,32.65380812290557,-32.64536431939982,30.30433934517284,-19.825778719054036,23.021800695488437,123.05075822410844,-0.003059872617719239,-103.24444093615587,79.29607616174812,-0.0332285224668937,84.62614848976202,-4.608812618353369,-22.24683927574955,-0.002436607880096229,-15.542387166655097,-13.748695200499224,0.0020151886217263377,-11.451645665117972,-5.274581553171177,-5.420023456984904,-33.737580017203825,-2.821781093552105,-7.01371443583092,9.045381204631026,5.135626342488008,1.467789277482748
-1.079498570517829,0.0,0.0,-3.3856045563910984,0.0,0.0,-1.2935905203843214,-2.353585372636215,12.632052840480851,-4.361131817144571,7.605363633068471,-21.0960528961789,-17.539076913327328,-2.423518605374426,-0.00045673512546440243,-44.6830253559529,-3.858648227128833,0.008953151627571404,24.448302774961736,1.8386739397977652,12.338766705749041,6.622937552060161,-7.505453607072837,-8.3331606990428,52.551103686367604,32.932097962024336,-28.445275506897474,33.658506680441775,-17.71352600627141,27.49428508090216,124.06939852390929,0.005750003273848903,-109.03864729067944,87.40759155661647,-0.0021176022447327533,92.20409507458997,-4.341683672720788,-24.001290161025093,0.0024719868377455698,-18.652073732149603,-10.977543904847725,-0.003948248961912054,-12.00802310231593,-5.5033157759400115,-4.764518451835535,-34.327961370102365,-3.2810797316559808,-6.495998869347622,9.626019830199839,4.203099338430867,4.23046997737722
-2.6882755327339645,0.0,0.0,0.37465349290418665,0.0,0.0,-2.1032695004144535,-3.0534847512673693,14.989776626805552,0.32155864586214394,9.230180618414511,-19.78518104265842,-18.499568542834407,-2.2853666087387308,-9.023823678967111e-05,-33.704100215285806,-1.941634235848705,-0.0074803322715701875,27.850992818778288,2.302891216262681,12.740767909802674,2.267112480216453,-8.484529891239164,-10.996614343826861,47.47130676153755,33.00717240591783,-23.786281989490035,36.903701475464736,-16.19836389588573,31.41805533016297,125.00366337336122,0.00012542858399625873,-111.09868887672741,95.22126773650699,0.011519582188330721,94.97675930714416,-3.4755017613181076,-23.440078843023755,-0.0003176128845049688,-17.332804200452568,-8.982159849027013,0.004559950726200123,-11.057679560760977,-6.884579772179341,-3.0990317841861597,-33.482873149877406,-5.1885780256102425,-5.487831628547931,10.221073411728412,4.054264434096702,5.560618185706491
-2.33090040837108,0.0,0.0,2.912044857190588,0.0,0.0,-3.4845606431692295,-3.301894819919287,16.95823825850335,7.489728047340062,8.427561658659274,-21.690908344643947,-19.787744378361545,-2.8814006425119545,0.00010346802989222443,-25.969885388259097,-1.8105677379613587,0.00039333061643116013,30.810293698483967,4.769857359210855,13.31608756711425,0.18759972657665597,-7.5326165952769175,-13.278032468232311,43.558645006559544,33.56480182217287,-19.748153743762103,40.406727381352376,-13.678659694142691,33.89917133857729,126.37065284075153,-0.007996963294944755,-109.46383988642103,101.74536334683546,-0.016894124888215484,98.07449053557137,-5.896733174455397,-22.26296333073724,0.0016562697440187651,-15.662515525784734,-5.226233677820522,-0.008262167702158702,-9.095355035858809,-7.496767925124605,-0.6949082253960774,-31.6169669605153,-6.666094064914195,-3.507189171232393,9.613867979669703,3.999415238286544,7.504311486424873
-2.951141227919257,0.0,0.0,1.9804702779052528,0.0,0.0,-4.531629860297871,-3.836895199490675,18.05346485876299,13.527699015305705,7.230281525051697,-20.415217662270702,-21.298584631903687,-3.2855885890301737,0.0001641607585144102,-20.3884705559902,-1.8323902770190483,-0.0010136198930872377,33.44565248103432,7.413049947080252,13.592375389148405,-0.5125630771469147,-6.499215988971631,-15.735455874173878,39.824721431892804,33.79530440741499,-15.191613936489693,43.738876333869754,-11.15299377955667,36.513023323578764,127.71342797392225,0.0049973872584349885,-109.00382274343862,106.08763935595358,0.018198591819106314,99.19140601675693,-5.859005268287094,-22.04976125296094,0.002323832970231328,-18.080541548541344,-4.1731554446303765,0.012832296308556534,-7.171635762014552,-6.761737385960966,0.7328347268906916,-29.686483291800716,-6.529703199141691,-1.9063983097349073,8.855317436617902,3.878030292311354,8.640368155976443
-3.0889618655917936,0.0,0.0,0.5913956199741585,0.0,0.0,-6.526289784272983,-3.999989249756053,18.40068491469334,17.111018370552774,6.334438887659139,-17.728111553744153,-21.471374835181297,-3.65212924942055,-0.00024662377572999637,-18.398060654382576,-1.8243818215531225,0.0006875817829363369,34.42606521673822,10.140950648997086,14.575194750447416,-0.006963928152853563,-5.729929359652502,-16.901176010203596,35.423909093771805,34.17523902857819,-10.473553101615991,46.4787577769484,-8.691941338447544,39.092749866630086,129.13398280367383,-0.0030480279876757706,-111.89555882233172,108.90024435056465,-0.00869677177579506,105.18162548177683,-6.891789664331405,-21.786537549645157,-0.003697886073380669,-20.244628797470668,-0.9098926412192252,-0.011680120740063762,-5.201810990853231,-6.341075022132959,4.066161098375574,-27.703344510826188,-7.4091455314940875,1.337834560248014,7.423363333568252,3.978153039651385,8.636219198028673
-3.6982766271797347,0.0,0.0,0.7212561783689239,0.0,0.0,-7.91368815976565,-4.6258468498613246,18.95136172720782,19.252072953997406,6.559988789053535,-15.434279039643446,-20.724140134590186,-3.8779996972479576,0.00011959783340389364,-18.462576452902653,-0.9149287147874438,-0.0001816239052419951,34.164323340314986,12.350774676038437,14.577538460043488,0.5372825136342021,-5.175328981146643,-16.52812479325362,31.887140914164462,33.18265782425199,-6.191229647293643,48.19763124040922,-7.477808773817133,40.749696398667496,129.29633262716473,0.0007571176685185805,-112.07232069141051,111.11183430513807,0.009169060828789766,110.41917639524154,-7.791003299362006,-18.143386548622445,-0.00037940369907626785,-20.507751494415746,2.0520190171620456,-0.002026411436780402,-4.270884645643062,-5.967589120634417,5.718899470282706,-26.729392116008867,-7.6923922372577795,3.0135121709696886,5.4636132169353155,4.416237890956755,7.990712983840105
-5.321639102121965,0.0,0.0,0.8297192697191197,0.0,0.0,-8.98498013326708,-5.9777391664133805,19.97592288237567,19.80845575001223,6.0545185767202145,-14.062588200024187,-19.616389107656744,-3.701162456825665,-0.000515282389289332,-19.645708296153764,-0.9236731368955864,9.290393911101301e-05,33.7186397958421,14.728062499115804,14.23839957850955,1.9529155327267977,-3.6823941314868467,-15.418744785996545,30.30011086659768,31.68546130285378,-3.036124496244838,49.35366969575439,-6.999323360851544,41.125954496179574,129.84137804494708,-0.0028179037798137414,-105.51210282824451,112.12948729004323,-0.0067122314464290985,113.38131567832966,-9.015100573634255,-18.676218196150558,0.002456576271564705,-17.437801944122118,4.008131601597499,-0.00151874010327468,-4.517035991791543,-6.259440472121482,6.8933799066237365,-26.96374172325736,-8.408131277107593,3.9909639185206442,3.537479618733351,5.336704223153357,7.8727516740422825
-5.88922365375954,0.0,0.0,0.3293733869025375,0.0,0.0,-11.58448812527459,-6.963028154057868,20.067839820059543,19.742992783644734,5.743097531602331,-13.409547455011205,-18.277440261600148,-3.0267713366944076,0.0002445542098409225,-20.811271348696366,-1.163320604938768,-9.665075947205884e-05,33.08602381479157,16.096409147705504,14.377339461013733,3.152186268373944,-2.4488395543741195,-15.330522011314539,28.364808966125953,30.030690990032063,-0.7558296424321431,49.3726088684119,-7.342070743680577,41.96229477260293,130.116690546901,0.0007979778291846018,-103.48834403442804,113.5822962399901,0.008126933912744322,112.38051435522034,-9.945674328070332,-16.73324913371286,-0.0006654941787237534,-19.135908821795713,4.163538239429281,0.0022527919108230507,-4.8736061458027455,-6.129642716400923,7.482257628796549,-27.29600782982945,-8.511577334849706,4.588119562314739,2.2519478910296575,5.742082732044385,7.471518301651289
-9.480199048366298,0.0,0.0,-1.5556042113435338,0.0,0.0,-13.171645299426634,-8.348745374973852,20.754536973338613,19.915989077842937,5.004813444286518,-14.053061424087653,-17.03338845772588,-2.622936955689607,-7.446457914968148e-05,-21.25969203592776,-1.236131565994644,9.606268975028406e-05,32.90988694136501,16.922241188218504,14.162479984642095,4.1702887181055255,-1.4670068551167068,-15.100421522253374,26.29533915649433,28.558922214447488,1.1242198773988092,48.551636053698914,-7.681931465556211,42.81988140250277,129.4732456484661,0.0003836122456607135,-100.16781456215921,115.26547347086921,0.007066850222427399,108.71123970175995,-10.31170187814918,-15.602632779440086,-0.0001144218554690747,-19.447473881868127,4.509270991506283,-0.0006306066849789386,-4.957574506146843,-6.318931742297268,8.966085425595441,-27.339035635733158,-9.248763321365596,5.89540652015941,1.8008729306761955,5.887194664470682,6.3208856849140655
-12.181878363705133,0.0,0.0,-2.854905664812379,0.0,0.0,-14.803053156161772,-8.872425509970288,22.14472026229146,20.225676754625486,4.537097041600686,-14.805126801935867,-15.23286416161374,-3.070216862193982,5.878462425623638e-05,-21.082881245077857,-1.1183542141534077,-0.00013233786106606803,31.58510616842209,17.853330609487763,13.968796013443598,4.151579647749982,-0.7433117383936153,-13.42967360229494,24.03453420089585,27.164779230883447,2.991926358739563,47.17572529365271,-8.40231075681994,41.977553559387275,130.35709248413966,0.0026523232324971134,-100.07101976691239,116.89627761841624,-0.007396969468954645,104.59699112229355,-9.404330298974664,-16.44786097796125,0.00012287809423280622,-20.064044773666705,1.0552836987859602,-0.0015521986535929834,-5.230193772327798,-5.73814704200541,9.823484498946739,-27.539245865214735,-9.035768428917804,6.917843288837412,0.791760868789432,5.411027237468159,5.803595793196226
-9.982545181230348,0.0,0.0,-2.2487373796576646,0.0,0.0,-17.746806808082226,-9.486811836900335,21.934362750304555,19.440059160183143,4.582866418251254,-13.326590650279568,-13.844650848226305,-2.7968550527172313,0.00016058727147538637,-20.054941408296827,-1.2209614794567187,0.0005695290550882814,30.67201803886265,18.653456343746605,14.498491797027661,3.9213370645475623,-0.21585252179747733,-13.534204894100691,22.52153902145122,26.326741695384307,5.077524026622444,46.43353889614622,-8.400627681021474,41.611300779043496,130.75827094532033,0.0007294605568465362,-98.31872014129594,117.9863447405162,0.003018539551196904,108.87157877212456,-10.006263241287819,-14.804494767232208,-0.0027859576779804556,-19.79856528766952,3.0378607621583673,0.0010711387193127518,-5.49450331066417,-5.9731832241196265,10.510176334802697,-27.78498415577233,-9.512430418441694,7.46785815001738,0.440820000617672,5.215673018808876,5.572600926315553
-10.44839463222255,0.0,0.0,-2.138221388837944,0.0,0.0,-19.2757216267263,-9.474314404775171,20.754885611252497,18.508305831207252,4.7627177826017935,-12.283738421508001,-13.57563929976158,-2.4464639367726218,-0.00014370317715161327,-18.888306490958566,-1.214033465780194,-0.0006055805912450926,30.368306964786235,19.736015808276708,15.35317015327888,3.799903519869729,0.6597771725119672,-13.394084565525873,21.515197075662893,26.044840692803024,6.999516311815937,45.75905024283762,-8.170613319789304,41.36320707066471,131.17891054630311,0.0018431866512326727,-100.7482123861969,118.9384738820379,-0.002040737489549182,109.55895161539884,-9.960169097084488,-15.519400903212343,0.0036605278660428496,-18.66978040675596,4.383739242601166,-0.004748409206588087,-5.670941139264265,-6.208798229158456,10.844173528348866,-27.959664805980275,-9.856406755195154,7.68894095909522,0.49951796287914013,5.2511852253015885,5.076071200209322
-12.239724562667366,0.0,0.0,-2.1174434676822877,0.0,0.0,-19.496763293070423,-10.422964932706169,20.626019799110267,18.06135873152467,5.851281159055753,-11.699784065257226,-13.478614271138296,-2.53663675298686,-3.508325178682453e-05,-18.022290103374214,-1.7905445193866465,0.0002880029602831615,29.453519366347738,20.440328447969037,15.152601669154482,3.3389186512435693,1.385631956878936,-13.107001894425263,20.51456167342236,25.440855838190554,7.493652479308677,45.399139816633046,-8.069694091170561,41.1518333412772,131.38075147708471,-6.673644817871938e-05,-100.70198033530012,119.3624805955386,0.002496643050576969,106.91368720004203,-11.062586510856882,-15.544596449270824,0.001992017121635736,-19.872247068381416,3.352271707425312,-0.0001825879046788358,-5.6385293410289,-5.974666371777031,11.559670776252233,-27.873023611139686,-9.909255911200802,8.447315684068965,0.18219331417234616,5.030349657350355,5.168990907347239
-11.79065371470169,0.0,0.0,-2.3164218648563732,0.0,0.0,-20.142181817277148,-10.31604767526045,19.863038063884634,17.82685800712006,4.664421556919312,-11.118372713171622,-13.691635609307095,-2.151192533169536,1.7516637722348094e-05,-17.397796659630664,-1.2265180175701138,-0.0002596129088476484,28.978440583242705,20.40748891506973,15.432920847436595,2.9260395340273853,1.3571010730339625,-12.854982734084718,19.74912849260556,24.956312784627304,8.122821084573273,44.94556731025947,-8.27222208559466,40.973590533188215,131.71408865707627,0.00012872615693415264,-99.98446164504561,120.23413892560743,-0.008106662608435851,108.80970854140836,-10.311259619433391,-16.20494585595317,0.0013740829641103812,-19.793001167132598,5.487830974389183,-0.0016133232946354804,-5.975919072414532,-6.433419497232784,11.282713310348367,-28.25658097594177,-10.229530275317973,8.012030026244062,-0.07921743028679305,4.970136503880596,5.062521447758526
-12.19117408729904,0.0,0.0,-2.2343828863153408,0.0,0.0,-20.26113001193438,-10.146282227469499,19.53196290652089,17.738730674802888,4.590486584220387,-10.647684344711589,-13.629420153827342,-1.9893372850656696,0.00019683704732059932,-17.80504566739929,-1.0842690526473733,0.00013630159671418858,28.39397826537488,20.435058593795215,15.004275150455891,3.2003733616175136,1.3313631863568531,-12.289301693724482,19.47404304851645,24.318409780811372,7.8239536570548625,44.61820145074224,-7.713735850566729,40.891384638247665,131.9333936302396,0.001269140148261876,-97.95821880333258,120.69568015357738,0.0017511074946714022,109.9439458487906,-11.602795570915202,-16.2103116545779,-0.0035765101968895253,-19.882464041294295,5.703879935489828,-7.062971420122556e-05,-5.706717560441672,-6.71051668129375,12.223641724358473,-27.953729866162774,-10.84013297322947,8.785134385051,-0.21251926721686434,4.6962422037331795,5.388411135243397
-11.781660540934427,0.0,0.0,-3.0357018056987104,0.0,0.0,-20.063687374980393,-11.011741968817905,19.454276994536674,17.47149587285875,4.842994308381674,-10.284786966106731,-13.771628516366889,-1.9873226448437706,8.221082157414166e-05,-17.83626834915393,-1.3969044034339961,-2.1282833710733077e-05,28.222838834663094,20.40957981752011,13.268568832639328,3.3265196672159876,1.686712091215436,-12.310509613611842,19.58795348384592,23.685314386854625,7.3974750462884895,44.398192879195236,-6.854379835789202,41.31803266174576,131.90900260963238,-0.00021853902090590262,-99.84226745858035,121.23535920429086,-0.00035660445294202514,110.61674300006104,-12.168520857293265,-16.866524498860418,-0.0024739876201346493,-19.223697559085217,6.7581529060686965,-0.0039052877999722446,-5.549279009971484,-6.579454654728764,12.540622283035765,-27.767688555892875,-10.837944857043329,9.132365491052099,-0.2607463386433664,4.716131055597193,5.1025308957026185
-10.041253011610648,0.0,0.0,-2.0358696250342865,0.0,0.0,-20.94834760901536,-9.871628517183401,18.207410894650238,17.089525068237243,4.617679065767462,-10.040861285317506,-13.71811600098929,-1.8535703159292563,6.664605357281528e-05,-17.823020492828196,-1.4809432115508039,4.251568953905769e-05,28.071512393033508,20.124267553074922,13.07541179277902,3.680303280274238,1.666266948934609,-12.106701485466203,19.219814319812077,23.805021681234624,7.530995972051179,43.65798376837404,-6.431629972643634,41.54689831319298,132.16846345306124,0.0007702961051575928,-102.52693894326205,121.6805140038264,-0.00273987699960313,112.46170306136236,-11.096071970698546,-18.943482105479298,6.65038197278213e-05,-20.2156126697277,8.806475899970435,-0.001780115357061757,-5.628581090445388,-7.120170395191108,12.800806569473561,-27.871197608198116,-11.436198101517954,9.167585979074259,-0.031604240034577555,4.464171984931561,5.334397409765285
-11.567756935541293,0.0,0.0,-3.2246513775082546,0.0,0.0,-20.575435894236556,-9.93060368307247,17.727165822280252,17.49424361256351,4.4400434710371695,-10.538408439831741,-13.68400020346898,-1.561516602192577,-2.372313669688549e-05,-17.942481648321486,-1.864918158915684,1.957616380410522e-05,28.048640701108106,19.761922473409005,12.886398661073342,4.060410349195907,1.9082960599362488,-11.369262446140624,18.775540357728495,23.5493064108842,7.234497510134912,42.71885156074275,-6.474618076148888,41.42684005153145,132.83778486286133,-0.0003759218415295955,-103.6277282108343,122.48109270677739,0.001816399693481969,108.76961491340036,-12.16594854503906,-19.313116790838983,-0.0034449427464741706,-19.230328856155833,8.131006816617322,-0.0014841331749247955,-5.504809369915969,-7.187293533526106,12.803263388678563,-27.752422396574673,-11.499243639073907,9.143964511266171,0.22504880079089046,4.221108511263742,5.6944718701432695
-10.453199116931227,0.0,0.0,-2.945767353601172,0.0,0.0,-20.69729485054406,-9.955134964545483,17.527000965948027,17.48430735820849,4.317751830022122,-10.413663462996597,-13.464782012099347,-1.3399522303226308,0.0001187505572041615,-17.74146289885455,-2.4049960734227023,-0.0001225036588419955,27.66986455842736,19.203964749746532,12.496647764350103,3.907658071813293,2.050753264469092,-11.488061609381226,18.529888340285268,23.447924023927712,7.363516905280568,42.24201865483611,-6.285235356013846,41.91303303379974,132.79542659839893,0.00027527992575158354,-101.98344964525174,122.95207110307909,0.0010456921855886954,106.32431590458991,-12.654215182230965,-18.849772758596735,0.001063550795536123,-20.254713832251213,8.330353665598144,0.0028187442758162338,-5.905816872096185,-7.435982378415851,13.050932105606108,-28.157463244081175,-11.8224422613984,9.279970553829465,0.20591735089712646,4.002973721270883,5.452566139018638
-11.312960993922191,0.0,0.0,-3.1056980787496293,0.0,0.0,-20.594814397706106,-9.669601915739936,17.66840953126191,17.47516888997283,4.331346431017857,-11.187632705916874,-13.082392052987569,-1.3489889988000154,2.9450438302978846e-05,-17.761651979328253,-2.404946787549388,2.755901399828998e-05,27.455675491423754,18.427841232252604,11.584665902972272,4.039018225415864,1.7974885741335314,-11.120113047086907,18.73029878459217,23.3613200027071,7.320839711166932,41.64649873931487,-6.00397704481149,41.96444536659031,132.56740419611296,-4.141032135478699e-06,-99.90181339213669,123.32765415975311,-0.0005400369898046118,113.06846314664601,-14.093499751332281,-17.904713535649172,-0.0006193328569596703,-19.756202433822985,11.494341920932687,0.0011979632246768878,-5.468191519024279,-7.431699985955382,12.834717736442794,-27.73290769700059,-11.73725866482406,9.078931190686752,0.19281192968716168,3.652586335382292,5.632440920725555
-10.930326476032219,0.0,0.0,-2.2390051155680126,0.0,0.0,-20.68218930220367,-10.274180222536543,17.070790121914598,17.482954745294645,4.3241227730051,-11.239539372876317,-12.899355914851977,-1.0497312857248384,-3.166879555421842e-05,-18.16059328969423,-2.703907739045395,-0.00010540561175809206,27.29810571046697,17.75586105813298,11.381948360970304,4.047511669641498,1.6429114007956278,-11.253280298450845,18.859250367323423,23.29152731574535,7.368003202376829,40.96584271134671,-5.831132943633994,42.48748863393201,132.29626573559747,0.0006914585788341304,-102.21891387078301,123.65507977783597,0.002860007132108277,114.62884897896164,-12.971393623666346,-17.253286035827696,-0.004513731867322266,-20.092707175666337,11.651611042798653,-0.0017869960339284919,-5.613430979597951,-7.5553004001596165,13.02028370459623,-27.876492269485308,-11.92134738744631,9.205054609048114,0.09971177097866797,3.405246178265743,5.506426225772644
-9.705036580989848,0.0,0.0,-2.169911504802036,0.0,0.0,-21.232844370085015,-10.845424451333756,16.660211054070313,17.499017835434064,4.025677710783456,-11.729943581342683,-12.863448773030196,-0.5967267517425198,0.0001131455274531302,-18.672142036511552,-2.5316086075083057,7.902024136834794e-06,27.55660475313516,17.240453200391414,11.623119328340893,4.337710068047219,1.444891361423746,-11.363450672922585,19.15285558046683,22.964971187039872,7.116919643906157,40.507421471675684,-5.567229662250244,42.320682188893,132.17354955402536,-0.0007140352687224397,-101.70264466900969,123.77379325536556,-0.00029395140825852777,111.56571906459463,-13.071351055404742,-17.646433959592297,-0.000546864586559763,-21.950869311545805,11.34356745968452,-0.001882451288161861,-5.794755289199259,-7.889894094274535,12.565367767642378,-28.112228269596823,-12.059965175283505,8.648894720921927,0.22479253808434907,3.2672502911656944,5.369586794086029
-10.635367514077037,0.0,0.0,-2.6936202834897887,0.0,0.0,-21.402600981826172,-10.338049346451198,16.657828583266078,17.709607843878103,4.312052261676005,-12.468053409627625,-12.565780434270337,-0.7093749700699525,-0.00016993946588638847,-18.851470915635364,-2.3051517894714433,6.930758003626895e-05,27.58961756638813,17.109838012173498,11.337979057688935,4.495773621139312,1.3123734770053523,-10.954655449009305,19.257133662470086,23.123543833959374,7.048567501872699,39.961892402516725,-5.818982989094539,42.64457627155872,131.9634622594511,-1.817428504866721e-05,-104.73229850729572,123.97278047831391,-0.0008012840993295719,116.21019006694029,-12.529700841371834,-18.661409695790923,-7.166939391373187e-05,-21.282570700801337,13.178781236143827,0.003469960055968475,-5.758301379334205,-7.873985713378851,12.341864925018976,-28.087404955249827,-11.961146754651267,8.445694957278931,0.417422249031157,3.2555339243827306,5.429945786797098
-10.404472475910687,0.0,0.0,-3.2629671047200346,0.0,0.0,-21.631692337756142,-10.062311125834189,16.261071134115102,17.58637455243131,4.302024173281531,-12.548615957960001,-12.468912099767412,-0.9996539645748986,6.013257844815252e-05,-18.609327307270732,-2.4435908190428552,-0.0005316324790686427,27.529773817863646,17.150372288186652,11.287320323438747,4.29308538520853,1.3495165108452922,-10.988796840700923,19.380778997149644,22.602340549267982,6.569987878228394,39.88008323312847,-5.473890837755379,42.34729864231765,131.9356756929619,-0.0004036155164692271,-101.22896556463765,124.3503917104841,0.0006468709857264371,113.20588037871255,-13.496798336229315,-18.10522174010055,0.00046439285727714055,-21.461221731795728,12.67809321865518,0.0009149296220537818,-5.59880461764729,-8.097820573299577,12.029927030445757,-27.96343146560336,-12.050728707454892,8.066588325661135,0.3352599097889535,3.107112514101029,5.650673068166125
-10.33140399243541,0.0,0.0,-3.427660951718575,0.0,0.0,-21.98671967920139,-9.937880548186973,14.823251245590956,17.214648198973602,4.44034190169871,-12.213040153555202,-12.51365366382584,-1.094427950725695,0.00011840790620238926,-18.362571294985244,-2.6021862943811565,3.408039640392982e-05,27.662026483241448,17.40811438218084,11.56126107012454,4.256650149204617,1.4849757049538335,-11.317754918492316,19.25434923031464,22.51608991456864,6.682361054915958,39.52428683421448,-5.062841920810584,42.89345700307853,131.65161753135496,5.062014566213147e-05,-102.23030209165331,124.39684804600121,0.0007229995656091996,115.11630838325064,-11.328817517904849,-18.66025275597731,-0.0015810248923673548,-21.859951837633485,12.611435186078902,-0.005535798284823242,-5.256429597171075,-8.190754371664188,11.54826661518941,-27.65409821662164,-11.955103012558835,7.579663973263551,0.48316129619588666,3.1326002172885,5.874987654022801
-12.437369276568177,0.0,0.0,-4.203052129011926,0.0,0.0,-21.19573706991678,-10.251122842683213,14.59360147037081,17.1199146343704,3.9497616195972203,-12.8383787555179,-12.567872259166533,-1.2083822864800449,-8.752644695047346e-05,-18.09201775081334,-2.294312221332965,-0.00010967553208609221,27.690468654196906,17.279495190250614,10.67705468854741,4.0231006694455145,1.3672770189272976,-11.247438655852914,19.036956932787845,22.464603963355618,6.671168433428449,39.68005325926402,-4.752392946536976,42.557048613687016,131.7687690968539,4.693234518952878e-05,-102.56623057852798,124.31902066728304,0.00015106540911817616,116.14827613568482,-11.134274783897094,-18.561076761815603,-2.8015474615289665e-05,-20.071769339715075,12.46422488509632,-0.005054830982589079,-5.105597367984542,-8.068920362564777,11.938027938269476,-27.47287765793787,-11.989379662038862,7.99179573926752,0.5428823628300072,3.00052129307071,5.816652591460784
-9.405872157932068,0.0,0.0,-3.498285296470713,0.0,0.0,-21.933299961607123,-9.802084464546077,13.745608956882863,16.72284114901397,4.252026995377189,-12.509313586984192,-12.395204842797357,-1.3249881864322128,-8.090094762529514e-07,-17.41570647048562,-2.622120486154632,3.1778795788366206e-05,27.417030598345157,17.13559878260164,10.916904020330543,3.6190410098259926,1.2686731371055477,-11.704949046569764,19.140108930532573,22.1892782142207,6.674613374510193,39.65701912816579,-4.57079484270774,42.23355903777525,131.24595058957968,-0.0007409558165775604,-100.12050044254227,124.09896360229526,-0.0006649433126442391,116.97659176739045,-10.977550961220835,-17.15970330254729,0.0028701263863228303,-21.607124886617903,12.14007837222955,-0.003665155482712665,-5.5132685603251765,-7.931759090636179,11.721478675846448,-27.88116677054858,-11.780930700129801,7.842496391880601,0.48613813799788913,3.1024009928817793,5.9505015855467125
-10.09965557866386,0.0,0.0,-2.869067495269004,0.0,0.0,-21.2625368547147,-10.224704611049958,13.57595255412751,16.087293234452932,5.013094793977402,-12.366435792051819,-12.489388546720228,-1.4757571622371466,-0.00017941249763401212,-17.12318992820948,-2.926780513764364,-8.863591683291464e-05,27.545676539638542,17.216813452539647,10.122825707679223,3.6309339220044308,1.4201534510727418,-12.098458505452111,18.63647591206089,22.343786641014635,6.978421836671774,38.808321409874345,-4.8436472286184715,42.20993605683004,131.18054485832724,0.00023741047186463218,-101.6883280303655,124.48726916594104,0.00199205384508463,114.31422959907489,-9.635320737756501,-15.85315048431161,-0.0012799975824501553,-22.05919022909453,11.698603948556693,-0.0027750102362511454,-5.507440778556157,-8.52527752453284,11.599437750045308,-27.929875223786897,-12.283674971079805,7.497101391919092,0.9940213508006752,3.2848348752314616,6.035899316835419
-6.572251131216338,0.0,0.0,-1.7532840200422557,0.0,0.0,-21.350471447107616,-10.583000881627276,12.300678684317743,15.170510784277953,4.99774678324084,-11.568883323746254,-12.818002483408256,-1.1023505119742234,9.504751282342336e-05,-16.94449250060425,-2.958779359703484,0.00010798271391763167,27.58436867682912,17.05335060237399,11.025778050482646,3.6183978330626467,1.1504994704614377,-13.114849816251816,19.125813542521815,21.99896624592726,6.693263843129144,38.46378211564453,-5.092297000489435,42.10267527937278,130.88232373165533,0.00012834057686970682,-100.67908045246303,124.33295251053447,0.0006031453829850528,115.48728280340985,-9.962846839085605,-15.126549662567179,-0.0008368283542809061,-20.990098545915792,11.024426928448031,0.00021046377969681287,-5.434802649982383,-8.26314226898028,11.865219104408094,-27.82179230334959,-12.141539202507904,7.848042265664772,1.0075889358377386,3.1216351854030653,6.3654171684871015
-7.932713937576856,0.0,0.0,-2.9058537304576566,0.0,0.0,-19.748567625447738,-10.515036599939489,12.735840918088863,15.202304317723199,5.359832220474309,-12.254441544725681,-13.339821423549015,-1.7178130725294354,-4.0092048145093416e-05,-16.574571939141364,-2.7455595056019444,-0.00043698835307625175,27.984578880499015,17.26539182543122,9.900324721549074,3.585362705160068,1.1664967253203489,-12.65821835119596,19.21603421226882,21.872732839192544,6.575621730990879,38.13772596971979,-4.6250701309335795,41.87391043236556,130.58126981696557,-0.0008572565290603886,-102.99105729693015,124.2676685501111,-0.0003864329400221435,117.28998235434098,-9.96348194711278,-15.93436725136397,-0.0016067627096589708,-20.12117431444813,9.152217111443838,-0.0007306496184340786,-5.3890985264511375,-8.419353585773326,12.249660087149955,-27.768217191814887,-12.43082125993709,8.14711887433904,1.4500914603708612,3.5277953769047476,6.54777130021228
-4.638906098816765,0.0,0.0,-1.7763202209594748,0.0,0.0,-19.62481858976556,-10.118970476788355,10.005843334392214,14.75606395521437,5.5881973756792584,-12.136138205562661,-13.392140549755238,-1.2006274382004978,7.04380463453587e-05,-16.076087241706006,-2.578793744848506,0.0002418921011707023,27.878067847330986,16.914544036824434,11.144436795276265,3.307353924203034,0.7302037896713983,-13.178856999217427,18.966135994149482,22.375285546201866,6.627015476661923,37.81240660525857,-4.6970678672818,41.85953693440568,130.79017244163126,0.0007637127571245098,-99.4909254384829,124.14748267756711,-0.002787984927647177,116.47405572791081,-12.269884140538421,-15.378563532124293,0.0009244218308360621,-20.413158549749124,7.883027753237799,0.012020894544870394,-5.246879007583237,-8.090831352298677,11.959555073568776,-27.614774317109195,-12.017747722221062,8.003425321983997,2.0292223087491505,3.3593935052306456,6.553440257234758
-6.856727966693794,0.0,0.0,-2.003204879138416,0.0,0.0,-17.214598233832334,-11.140725655006076,9.722778392818434,14.705380627195971,5.248607174529205,-12.483381099428712,-13.748480857834124,-1.471715739725548,0.00011595863243306449,-15.433911123320131,-2.362199051498789,-1.4058250837868715e-05,27.745632555442143,17.231518578884067,11.387612012690658,2.944116240321091,0.6855171528774852,-12.895489774775626,19.39623315168108,22.312603572952725,6.891788563050279,37.84235272221383,-4.18018908238283,42.08198539312429,130.46115562791928,-0.001573994716294824,-101.66481085945428,123.95624805283975,-0.004356913532244393,115.18955259635445,-11.001216091568242,-15.60674308024225,-0.000495573226353221,-22.00130447319882,8.05615296970176,0.013399063346093271,-4.5514362003235895,-7.659752875426257,11.95538560848785,-26.885252375089728,-11.617481350006965,8.16700542546469,2.4951498862975092,3.3873433564961126,6.687214940217068
-8.060337882742445,0.0,0.0,-1.5873297094155812,0.0,0.0,-15.02990154774909,-10.452000469212615,9.365690259698571,14.339499870066238,5.638489354958269,-12.276549811942322,-14.531902042248628,-1.6870288085974738,-5.9254720470604114e-06,-14.991957563033903,-2.367615203844877,-8.080513512969707e-05,27.972816025538584,17.158834490902656,10.282054378753378,2.687280813149135,0.5443404506672802,-13.36756429279437,19.509096232396516,22.447283123565377,7.3755943617076065,38.28141707936085,-4.174684832806235,42.60984009871402,130.340943890724,0.0005901187484095734,-103.55154486909255,124.35056384395735,-0.004565213777145231,111.5149921084138,-10.109763076905846,-16.06359843315383,-0.0004901522675329877,-22.83900816458317,8.420003872085337,0.0012613658351026422,-4.358045154553595,-7.391567578581537,12.552481898936584,-26.636692613524836,-11.594049351481397,8.830009304945222,2.8430263247783776,3.473728905622983,6.352011689655111
-6.000401611408556,0.0,0.0,-1.204608604181284,0.0,0.0,-13.609198889431596,-10.787399623096467,8.956744980261798,14.012220700277645,6.005478152172441,-11.509621073063343,-15.182031137163577,-2.0248240420937167,-4.344911212991786e-05,-15.021823796694783,-2.2491172597733966,2.6478002812095367e-07,27.68430345852027,17.289127866216177,10.568428632775836,2.474674766055712,-0.02884325159505513,-14.118837823219382,19.70735298147632,22.559596107783257,7.623995155069909,38.61530781768963,-4.573850407797436,42.81439442881652,130.3251227796581,0.001476090033963106,-103.65049471833657,124.66998743238054,0.0007088429056402173,112.65579941076211,-10.283339407751422,-16.134541766359373,-0.005276510292831756,-22.337565898043117,9.612567248015273,-0.0023532840715422515,-4.366285222614781,-7.813401248702409,12.437654039927255,-26.685017397127698,-11.941154525435948,8.558940905104077,2.992493540855001,3.5844982162360135,6.557763261555644
-2.9905926731282375,0.0,0.0,-0.31520549930096237,0.0,0.0,-12.928364476718727,-10.763553112466061,7.7191887351364725,13.492909970536294,6.182520673498953,-11.220037506220601,-15.729550324840513,-1.9063415302706608,5.961528249670921e-05,-15.16957229322988,-2.2682114517084333,-1.4727607395994283e-05,27.31008018227104,17.306810211815513,11.62672888425646,2.245893165815243,-0.41028495922109715,-14.446460501408193,19.831498441014208,22.816664683947657,8.075004853232755,38.99255246636133,-4.080090784713004,43.338796042440116,130.48432216774503,-9.099086544627768e-05,-102.42536993295788,124.47339774302708,-0.0004950870604995021,112.45805360801585,-10.791234547704406,-16.49065423165816,-0.004169416797570712,-23.517095084499175,9.577505980595735,-0.0008461377619915765,-4.833255073751422,-7.422730179930248,13.014034109101342,-27.086165001300863,-11.796324684635279,9.250498009656758,3.31180348748709,3.7409209068941767,6.553158785209383
-4.238891087667941,0.0,0.0,-1.558290334454312,0.0,0.0,-10.661040901580614,-10.158277379423964,8.610701575649097,13.110998161662916,6.613118943563415,-11.913850575994207,-16.74536069587438,-2.5319377674115673,0.00011648112847071273,-15.473601180865673,-2.0474041711737696,0.00017041069901900125,27.454694639742048,17.59986993761837,11.1865695964457,2.3242509724167832,-0.6202240709284305,-13.485517195843455,19.56046059347545,22.906019829553646,8.063195262999312,39.37021622927879,-3.8619603274775995,43.46729121109534,130.62984424584639,-0.0004767592607034452,-104.70655954724059,124.14893708739224,-0.002562693715696559,110.62969074875728,-10.723296203168218,-16.825330930696282,0.00023981645947000098,-24.661110820039394,7.348318092971024,0.007978932351337164,-4.5645489725646735,-7.2493899463833555,12.893701647512476,-26.811370957965803,-11.590692025706872,9.204721236515333,3.8083976159939747,3.9184316457337034,6.847985012976413
-4.251032978021033,0.0,0.0,-0.8460826192390578,0.0,0.0,-10.152405273997218,-10.305251453037412,8.414992861168889,12.476958505184983,7.283079955676752,-11.79863512024522,-17.390470063445523,-2.4845612655379594,0.0003227839115933597,-16.63804678725016,-1.8936909223899656,-0.0003360471858501593,27.643159811191836,17.249094455326443,11.956750682726533,3.0080454609555836,-1.485312074635954,-13.0951917670249,19.261428004382047,22.787284500335826,8.739326821460951,39.832802947063996,-3.852784153058025,43.618468917923565,130.8224673445275,-0.0001871429099704629,-106.57209200457744,124.62751295024842,0.00031294727535031514,114.42266241255001,-10.767874092970033,-17.86606889977436,0.006802129609634264,-22.96069888172038,10.401124771634972,0.0011983224908759253,-4.441598163614177,-8.084782419375628,12.295552122757556,-26.790451993637028,-12.138696969628281,8.320380440825927,4.1991995668729185,3.946756877505088,6.818939499486774
-4.058034399332674,0.0,0.0,-1.642181144769367,0.0,0.0,-8.83010102719053,-9.963491791399106,9.337666381597458,12.268287644732995,7.704235238412843,-11.266672162639951,-18.374230126447532,-2.6461287569802603,-0.0004434391439481635,-17.17591545226117,-1.9367531889256526,0.00026427121339067433,27.48878687645281,16.696581320851113,11.61868456042234,2.822022385503064,-2.250354727352788,-13.312486426643297,19.121949424126864,22.80028400661375,9.128154272568672,40.2139605846628,-3.618647006172254,43.429227509877855,131.0883142773551,0.0008882997377480777,-110.77148411450685,124.79873170483641,-0.00033912794961958104,114.19133269588146,-7.411781697214826,-18.7367430474687,0.003938186960099281,-22.05039057002723,9.95851897582218,-0.0007710188635487021,-4.744862548374496,-8.34429558040552,11.826989846455758,-27.14055343086177,-12.202157889084388,7.780627933963933,4.242068668883059,3.54749675151401,6.762005565404005
-1.5747503184606406,0.0,0.0,-1.36516439881839,0.0,0.0,-8.900931732553865,-8.72094688186978,9.820962329171383,10.994932474251971,7.532476313481527,-10.211574707150922,-18.893017159123424,-2.9291740382254083,0.0003222471200546442,-18.171864691911036,-2.2687120255854794,-0.00010371485819946767,27.413753522200746,16.23151665073868,12.369953282430888,3.1083440399727555,-3.0063915608560627,-14.058514589575926,19.30424935449316,22.96676104092767,8.85629561626561,40.55720296718241,-3.054905240651893,43.327328988544245,131.19063395404524,-0.0010853764583950668,-110.53363088814885,125.048371975855,-6.543497889079456e-05,114.08471831097246,-8.828317253658884,-20.62593514982062,0.0015135843011864127,-22.471791853807638,10.342954264220285,0.005227066282709306,-4.081851858915196,-7.782833907335182,12.637167172505393,-26.386451719940737,-11.987924178154836,8.757733121410917,4.376246372475978,3.1669619821954376,6.52744425096567
-1.338709273399191,0.0,0.0,-0.7779290663240175,0.0,0.0,-7.972929529409754,-8.702871303494435,10.419892154651944,9.593434002347488,7.293152286385612,-9.955986860237847,-19.617947980839034,-3.0223466666595824,-0.0003765201821912259,-19.144452332037577,-1.9720821796734769,-2.5012758819975243e-05,27.640368167479245,15.654540979479656,12.822606887105144,3.670125668591288,-3.9911135650592353,-13.770460644234301,19.286321026969542,22.499124192719254,8.895243669447948,40.57761212222903,-3.2812379032505152,43.2771564393138,131.15345267761367,-4.2234257029138197e-05,-111.51139597166375,125.53293061139821,-0.0006141906271081908,111.38878843741075,-8.51027123307435,-19.280496061629776,-0.004038794607455388,-22.284425974494816,10.198809788605715,0.010659912005680356,-4.210948724495439,-7.567809000012912,12.350368647515035,-26.515248236845377,-11.68110784780598,8.572435576822839,4.747136146287368,3.143729162468538,6.797560447597353
-0.2593628782779187,0.0,0.0,-0.42712671671618585,0.0,0.0,-7.463483301514733,-8.052207206984747,10.109195201324752,8.64879750361616,7.23982686749248,-9.557849452992661,-20.1027211717465,-3.0002329590389287,8.791416905315416e-05,-20.308920310395866,-1.813666740087765,-2.871641127817997e-05,27.896536715295497,15.045761382135758,12.586272935636726,4.163949615430872,-4.669106939910342,-13.568374690688039,18.763100991387258,22.29494033028868,8.983396513844799,40.5392788435864,-3.3101812547809457,43.73137668610254,131.67580252688614,6.756282350368275e-05,-111.30093727972518,125.78198620832715,-0.0017335888489256534,109.99565151322936,-8.68150775693672,-19.320330645576163,-0.0012503252450320153,-23.844876360681106,9.403957873444071,0.004676280010463043,-3.6862859843970117,-7.972306112268948,12.825584716428995,-25.995084257997817,-12.234052874443426,8.860782689417508,4.932030246575493,3.1500906882456543,6.601260234898882
-0.6290462526042674,0.0,0.0,0.37123896821571434,0.0,0.0,-7.491435550288217,-6.8164670292434195,9.295061948716391,6.79267888668079,8.082797353948823,-9.369113371610052,-20.410093588308083,-3.104251639726803,-0.00014084913463017029,-21.062991701910818,-1.8685803395372274,-4.71820667441512e-05,27.745218069967624,14.567412614506404,13.339740466191891,4.30372117173235,-5.332405069589323,-13.691493016655793,18.87152562374078,22.706698735451347,8.71432707606908,40.64735983342105,-3.4922831824102207,43.46379563110971,131.66201978853246,0.0008926238838542678,-108.62192082298368,126.32360407564158,0.002635142561042789,110.21605269859236,-9.799605579839415,-20.453335338733506,0.0027772001892714033,-21.999169926687173,10.039973670800697,-0.003692025628591037,-3.510525024854255,-7.612614661448467,12.879431632902396,-25.786865821617514,-11.921479209065241,9.050795465699405,5.109625358261772,2.7401777147199176,6.467600768714347
-0.5231938343487653,0.0,0.0,0.5545614223967039,0.0,0.0,-7.091318181377779,-6.377928745425049,9.43773004102479,5.716774797515043,9.430475309136733,-9.404746217557564,-20.70775670510747,-3.8180583631634812,0.0002491455243696254,-21.581688770986258,-2.027069259234374,-0.00011904087199806135,27.54660790647751,14.35935946533954,12.535866991418645,4.221590054623976,-5.715072887863645,-13.556432355784931,18.822659956747657,22.5443044942872,8.440707571179578,41.04201782293734,-3.1254134770639963,42.66198576096642,131.66982585008938,-0.0023906364022925164,-108.15498836990338,126.55338390814292,0.0008876249059777859,111.29557529894653,-9.954643762251129,-19.747655665965627,-0.004377741323889782,-19.16647726918607,11.317620757560094,0.02084565357341839,-3.6527372337735056,-6.535626356870484,11.833672050736258,-25.909918045740362,-10.531571564042206,8.48769130267284,4.916919446723419,2.480584152500011,6.228002694932948
-0.583454642823383,0.0,0.0,0.15460075090997108,0.0,0.0,-7.169076627710455,-6.307903863659575,8.951670525040496,4.897970328509201,9.363760587855394,-8.984592275803172,-20.47897658830734,-3.969353564789625,2.2898312078038985e-05,-22.231735141994967,-2.1967011061156305,0.000156005806171731,27.374368713432716,14.016541954821092,12.86124064514572,4.572349946901899,-6.118614497142083,-14.060291387557273,18.80530849521099,22.583463664504503,8.163397803018032,40.837685866409586,-3.507649135856012,42.57244012013844,131.860347652944,0.001204725799609433,-107.6265502003654,126.29152252190451,-5.749439480423327e-05,116.02377560341779,-10.66182325820435,-18.5538376952293,-0.0070282694501093215,-18.358306192247948,11.638111094735311,-0.0035467089443387925,-2.839612301333387,-6.517135147932413,12.072318213621669,-25.081667829374307,-10.604233014321272,8.718048455311088,4.979515586682647,2.1278058614227273,6.317047126955274
-0.08688793988658695,0.0,0.0,0.15444000270782188,0.0,0.0,-6.480849465084261,-6.0537378873743855,8.199756816702264,4.1813747478764025,9.095459238961157,-9.208577042512538,-20.375018045550892,-3.906226310623625,-2.9350421738705175e-05,-22.471393399279087,-2.0797455159658935,9.808666302841442e-05,27.16931853388845,13.799933367603339,13.373893727844974,4.858982109643881,-6.465495690055772,-13.953840068189287,19.05952165975004,22.526715696405095,8.287494792313911,40.969920640982394,-3.639603611471645,43.54866100663559,131.29982980418174,0.0035804195919172514,-109.73580916386086,126.12387500358568,-0.0005651722992131751,116.79877750898684,-10.220260893791846,-18.22285753718563,-0.002266173688428369,-21.15768985746388,12.362402212044984,0.0024879583619085463,-2.3221931468159127,-6.65651307423017,12.379882316906198,-24.555958042945296,-10.848873131345446,8.952197881844972,5.083522594284288,1.8888936495260906,6.512194167275332
0.4386951631954521,0.0,0.0,0.3101887889917289,0.0,0.0,-5.822392219811258,-5.715520271891411,8.087660017325147,4.06006053581711,9.445799466717599,-10.329381843711005,-20.402432160146017,-4.295957142523011,-2.608296191734013e-05,-22.191264996616194,-2.114987033050838,-0.00040670422715459367,27.510410177747097,13.807282974051194,12.74956605674928,5.232313947283859,-6.342020953447079,-13.676936132414937,19.34777639238675,22.845007084712087,7.86986102513753,41.34669159103783,-3.6799935231270675,43.78984681350113,130.90813241081887,-0.00048145953192989764,-107.00528815722915,125.97920954367419,-0.00224817652200281,115.46034854245622,-12.112357959531817,-17.738170278966667,-0.002015782347717982,-22.28161668404457,12.324393216432375,-0.006427145786646814,-2.1022662310490876,-6.410388517029727,12.1955753363478,-24.329491083054798,-10.551771179722198,8.874470291920241,5.405555059043521,1.7918503312819491,7.005154169806236
-0.053208459564893396,0.0,0.0,-0.08619758019837118,0.0,0.0,-5.762590826134753,-5.530862108720372,7.612947475582887,4.061560570380147,9.733926393026465,-10.728615346447517,-20.456584589209236,-3.822591623053336,-5.0812573367428976e-05,-21.05341590108825,-2.253348353103125,-0.00021424868205016493,27.74518711019779,13.256932459044927,12.797194689149043,4.899118514460736,-6.472214522386468,-14.611923499185984,19.382576491425784,23.467600773139466,7.801202510373702,41.555243383323216,-3.486888567666738,43.49126406510205,130.9216796344557,0.00048558015097019224,-104.28426465724753,125.9092125196617,-0.0006416560837483097,116.96150620382235,-13.228496208153203,-17.60984678222365,-0.0024372689953303063,-21.042895195890782,11.094771097306609,0.006344690513687544,-1.7412820050036197,-6.306738685331001,12.328510807222166,-23.953213489154656,-10.505784276188312,9.038734520519885,5.404525083580899,1.2173801248732046,6.988084129033268
0.03882579220450411,0.0,0.0,-0.5914873803769418,0.0,0.0,-5.159821022709311,-5.752704230647947,8.465204935559456,5.197499865389969,9.261754514719918,-11.969154676295219,-20.4453881428944,-4.033388439351427,8.807505108147062e-05,-19.731711952028135,-1.9762279860648961,0.0009649871001109641,28.025152423657495,12.655880071895531,12.173410198677425,4.459951708392899,-6.686662297450503,-14.340170119447118,19.64067489156364,24.123520407003543,7.921838246837514,41.568344654490474,-2.796303305247427,43.8281307589901,130.55969990964016,-0.0007836174739318998,-105.19962384159228,125.57249660999871,-0.00019572941821634007,115.84624049074475,-13.5673671834872,-16.769756723784376,-0.00011402850153909834,-21.78804737688978,9.637001905609633,0.014422061130727309,-1.4627587843760403,-6.774168506465527,12.397517626832208,-23.70403356959258,-10.964413134183623,8.92335364605397,5.71793245551482,0.40332161693527635,6.997164830897187
-0.6326045558570511,0.0,0.0,-0.5262667755360034,0.0,0.0,-4.44448509613079,-6.256209478374363,8.595755720014354,6.3485862169412295,9.575807870211314,-12.060278612599713,-20.641709417530606,-3.3650186259600843,-0.0002484404857049539,-17.770938598500653,-2.2748336714090795,-0.0004312489091104965,28.437720667948355,12.100565945182906,12.637199886121186,3.972071998669617,-6.534233541464723,-14.731773644413526,19.870450529603012,23.987822557959984,7.905621641708385,41.39964119366591,-3.04608226438846,43.80631350278994,131.10069630420097,0.0027443473116807583,-106.38837838225834,125.73722221327634,0.0023694837192881684,112.96588253654403,-13.08778001233511,-17.712189660243585,-0.0036223451707469386,-21.24471546283351,8.564366853953581,-0.007818898553050891,-2.0317038197831376,-7.207706067911508,12.824546614279917,-24.279587470788496,-11.526137085418535,9.156012875226326,5.63072139947351,0.16776725186279745,7.435851125339835
-0.09937303223757818,0.0,0.0,-0.4466590217861712,0.0,0.0,-4.068525674906918,-5.554679273470327,8.687899247415963,7.52221558151237,8.95938351774998,-10.89556548191338,-20.50415237321919,-3.034863188836991,-8.557276651828046e-05,-14.932263549387718,-2.280724861048275,4.2342535633969025e-05,28.581418798606403,11.233189860418621,12.523321165456037,2.935136036260692,-6.535154567934943,-15.436459080721564,20.117457824691968,23.977724511713,7.819125410220592,41.5249060496535,-3.0275610607708514,43.881480699603934,131.7398480067317,-0.0013962943511273336,-107.55984732625213,125.59377249787028,-0.000689146979891731,116.56785675690412,-10.724663888329356,-18.276925876257927,0.0009073756758578901,-21.381193356689632,10.65402342769817,0.0014167627039183201,-2.535023455272509,-7.71436104798426,12.941025286840588,-24.8157824623112,-12.038781748795865,9.069107176143996,5.557423608601927,-0.6851734806402358,7.707249502620622
-0.7038742691235975,0.0,0.0,-0.1970598794420839,0.0,0.0,-3.4354110134930487,-5.28360922376207,8.304234378452836,8.610894282642308,8.69603402571249,-11.541604611301578,-20.878569591291228,-3.0262187609047637,1.9845935642328274e-05,-13.437331927053503,-2.431674451173461,-0.00016440068380795832,28.753454747714724,10.872236734828041,12.651004635998934,2.59600526674521,-6.57429040591437,-15.781525797007857,20.946464844036008,23.899050425640297,7.492602098036604,42.22718608912028,-3.262823820228002,43.871924252957086,132.12133870473096,0.001468646210852396,-109.35004669982862,125.42493670675032,0.0027344523630817106,117.17089575019209,-10.877676874702404,-18.90431583835821,0.00038662702196109636,-20.24888949593632,11.77360443576395,-0.0006253772457589373,-2.1474754358945027,-7.96587772845749,13.397868486270784,-24.420380216212784,-12.443079494704303,9.400080092852892,5.105642664446978,-1.517891337490548,8.242366664531069
-1.3052894392287901,0.0,0.0,-0.6503695509313336,0.0,0.0,-2.9244173331670105,-5.550744787152982,9.882253138274963,9.618790255341152,7.556837991726608,-13.091138635855513,-21.056772154834206,-3.3943090593301553,-7.168454470565153e-05,-13.332028362193135,-2.300073125353895,-0.00019084114150296437,29.07735574377964,10.93559639420561,12.13778211008653,2.948311158267273,-6.575049761787211,-15.077659491742482,21.99745554476424,23.997229127211764,7.588134336789498,42.960371677599085,-3.0904212084275273,44.21288140884306,132.62602724194537,-0.0003552747304720233,-112.11875190842653,124.67175104516069,-0.005898741327351015,116.00973401640853,-10.616389774625446,-20.660971953002555,0.001991621597114507,-19.962669427733285,10.633272628120846,-0.00013108052746117326,-1.624079723536791,-8.353664243891627,13.799275108289073,-23.904222255013124,-12.952545888292471,9.626301806997281,4.761955304173151,-2.115800605284724,9.10471104611306
-0.7069707751007199,0.0,0.0,-0.6929337194667239,0.0,0.0,-3.1223664518498495,-5.469781038021902,9.435207114489153,10.54571723884385,7.412370136422556,-12.771232826227775,-21.532903370896484,-2.971865165175404,-0.00013188519145962803,-12.461131923828301,-2.1097212278021007,0.00033703775278166013,29.56043194731193,10.853680640255682,12.517153288001033,2.5051972417002677,-6.472104497581831,-16.62586354873787,22.111179555703398,23.988025864198033,7.707278332375697,43.276312000626504,-2.6835419939091576,44.30101644428869,132.84586033925174,9.243043194858514e-05,-110.30565399919072,123.56530527539935,0.003391830037896628,111.69883891496222,-12.0098449573974,-18.989645741296506,-0.009193393104422994,-23.34781379119158,9.070317350132575,-0.01308121157719107,-1.9309289692409768,-9.196632633055678,13.988803188256075,-24.274885212316526,-13.80351460297749,9.47545244046335,4.297611508913743,-2.6630363009856497,9.251396222861416
