PaulMeinheit/Bachelor_Muay_Thai/processed_Data/N1/roundhouse/scaled/JointMoments/scaled4.csv
R_KNEE_MOMENT,R_KNEE_MOMENT,R_KNEE_MOMENT,L_KNEE_MOMENT,L_KNEE_MOMENT,L_KNEE_MOMENT,R_HIP_MOMENT,R_HIP_MOMENT,R_HIP_MOMENT,L_HIP_MOMENT,L_HIP_MOMENT,L_HIP_MOMENT,R_ANKLE_MOMENT,R_ANKLE_MOMENT,R_ANKLE_MOMENT,L_ANKLE_MOMENT,L_ANKLE_MOMENT,L_ANKLE_MOMENT,WAIST_JOINT_MOMENT,WAIST_JOINT_MOMENT,WAIST_JOINT_MOMENT,NECK_MOMENT,NECK_MOMENT,NECK_MOMENT,L_SHOULDER_MOMENT,L_SHOULDER_MOMENT,L_SHOULDER_MOMENT,R_SHOULDER_MOMENT,R_SHOULDER_MOMENT,R_SHOULDER_MOMENT,L_ELBOW_MOMENT,L_ELBOW_MOMENT,L_ELBOW_MOMENT,R_ELBOW_MOMENT,R_ELBOW_MOMENT,R_ELBOW_MOMENT,L_WRIST_MOMENT,L_WRIST_MOMENT,L_WRIST_MOMENT,R_WRIST_MOMENT,R_WRIST_MOMENT,R_WRIST_MOMENT
X,Y,Z,X,Y,Z,X,Y,Z,X,Y,Z,X,Y,Z,X,Y,Z,X,Y,Z,X,Y,Z,X,Y,Z,X,Y,Z,X,Y,Z,X,Y,Z,X,Y,Z,X,Y,Z
-7.330020000000002,-0.06802000000000004,-0.6450100000000002,-3.48623,2.5717200000000005,0.6199000000000001,-6.513650000000001,-6.937020000000001,-2.1609500000000006,2.8178700000000005,4.491140000000001,3.7926700000000007,-0.27633,-0.18109,0.09529,0.5421200000000002,0.19028000000000003,0.21077,-7.777630000000001,-2.5440800000000006,3.1639600000000003,96.84492000000002,20.350960000000004,12.562690000000002,-2.88652,-0.31909000000000004,2.1026500000000006,7.159350000000001,0.8727200000000003,-0.6055,6.626670000000001,-1.37704,-1.5615500000000002,0.33726,1.3360500000000002,-0.7176700000000001,0.8613100000000001,-0.19034000000000004,-0.057920000000000006,0.053630000000000004,0.19493000000000002,-0.13507
-8.945965818153962,-2.7880336847447804,2.30920198352574,4.069965528567854,1.1199413186443248,-0.5721507803717362,-1.8662613563116275,-20.066224084900078,1.1563640554388788,32.99095673329271,2.747283034468486,-1.9697170511804054,-0.06832491641077096,-0.14368687612867778,0.07108237764978532,0.7795002792657119,0.053359422244628404,-0.051475567718489594,35.60701780006144,-19.1564173805002,-4.549274691109007,37.52509002449781,9.641295083764112,-12.731897608179267,4.89907248725401,1.5167086640131757,-2.4048519419871677,5.793041996086126,0.7598870085410593,0.645220205416819,-3.565133920928892,1.2570766282551145,0.6590852778474303,-0.626489457106657,0.3283987649063988,0.09945237915290507,-0.4264354652217108,0.10105288020825326,0.16153040792780127,-0.29325336624376364,-0.1091083861342065,0.10297007528748665
-9.378790376744536,-0.39502445109004536,-0.4872175127519225,-2.650236542306081,1.1285429880469353,0.23680226730216622,-10.271820078656233,-4.855561116740613,-1.712542791796423,6.20907782553708,1.2478605541590664,0.15165988618610368,-0.27816707204777735,-0.11519633650649343,0.026747827742654662,0.42665838142263507,0.09958133619952929,0.07497187354995222,-11.156036248130405,1.7001815491107335,0.11600005095868705,80.49668383827154,-4.014810489555897,2.5674298010909764,6.240840718591652,1.6411950268357844,1.4649253925603285,3.908181807827283,0.030706639599359365,-1.1720213028115194,2.0997616795369347,-2.2509035080419375,1.5705626583638927,0.2829474592905756,1.1053885872745253,-0.6476908848227695,0.16403599698457616,-0.21318301551767793,0.2151978590779977,-0.05397213311664445,0.1259875765068331,-0.16244700828506448
-8.86131199661325,-1.8248400930122937,1.1007686989206795,1.2888021247224828,1.8743012723750128,0.003801053197209506,2.2665677787574556,-13.245860997810937,1.0508049755877413,28.274977079552897,2.14391101768251,-0.07315605002655685,-0.40468791330282144,-0.11620997777365792,0.0676395293790364,0.8176597671636352,0.2271273717900745,0.12335920824456001,37.20605154338723,-13.860825617463185,-2.6034504447729656,60.480718656635105,21.013925550436305,-9.931828203021505,5.2839519252416,1.0318184297443023,-2.8781749438178093,1.9352227458926443,1.2034019182774047,-0.1366808810641909,0.841536880497307,0.6273303947386664,-1.3814408408851517,0.0824470922714037,0.9144995658373005,-0.4075774633696712,-0.1879754175715699,0.11526875797981839,-0.19234983552681673,-0.21605321372050262,0.20194151058353876,-0.1664487212490875
-9.173266069517869,-0.6756788272694436,-0.5003742816953894,-3.455770858610682,0.06718227583625393,-0.06243173998411776,-20.683258724737957,-12.430625330696358,-4.896574440840889,3.1734727737444657,1.4203564295768991,-1.3401042383109496,-0.28356079851320803,-0.1761954588603123,-0.04605551660309181,0.5450477298661095,-0.009694374329765616,-0.17381960271871916,-25.232623204304428,-11.681993635907798,-5.829324586520857,77.11141765700117,35.645628795684495,8.942400246682457,4.427544252444997,6.791535668485044,8.39921616895793,4.089223614523855,-3.07527987691373,-1.5283595599714304,9.425993867742323,-4.800601966685264,2.0506292307458818,5.6657097368396006,2.384559150527181,1.4625965917419037,0.9463036692584997,-0.1480000961296828,0.016430893922101255,0.8757590168809325,0.14226056947451285,0.3231321704289156
-8.260650136703982,1.460389289409841,-2.2233099374010363,1.3284130361960285,1.9003294763740943,0.20684832235501593,-2.9084176039413068,3.714367832450651,-2.1730577043045214,17.980560310462245,-0.431152726399056,0.5986990500236195,-0.2724731993740529,0.25885476043032474,-0.055796499973110994,0.5945103722714496,0.15078713132289126,0.17996651161400873,13.805134615148734,8.409882826158759,-1.3321029833915605,30.6717484942639,3.500750884904394,-10.82000204046387,3.6043449115668946,-1.6048162121515304,-5.670115238858602,7.077679612951512,3.501131956139025,2.0159224120066517,0.49487898446303963,2.370604519607727,-2.7579858307519127,5.111085675758596,1.8653832008252986,1.1199059408032197,0.5138837780274409,0.04039320133597803,-0.3192271485821739,0.6641730224864039,0.19425861081280976,0.083162269130363
-6.151951294868472,-2.2845118312401267,1.7099950544808313,2.117098007034986,0.6246203955750612,-0.2602816073559396,-7.174293107843395,-14.552938918058128,3.3197206229165985,27.944181253249898,6.707057002473369,1.059701205806979,-0.052299979775771485,-0.33668165159813485,-0.02747095615362915,0.7076912581447053,0.0660651430996972,-0.037574603220425315,22.404187058183428,1.2672656291582696,-1.114817616950495,76.99996968152966,9.53599855475285,-0.38030479870293865,6.66197234565783,1.86779092207185,-1.4713831027062474,10.370617198554351,2.2132223072229924,-0.036583011799237675,4.704297168188399,1.263931778677759,-1.0330741217060562,1.72549086001718,2.4251932911429246,-0.5397967611413985,0.37816357009848056,0.23928448472355626,-0.025042065850093175,0.21662373606622237,0.2702405937979377,-0.06092572414863516
-10.608437033133118,-0.8707011236783475,-0.2343016701737858,-1.6071262355250755,-1.323194709974562,0.22361809246437178,-12.038768632952179,-12.13948361541651,-4.289530673389297,10.636046183618797,-10.553524988833471,-3.469108882500177,-0.005400313419581566,0.025524832042319492,0.0021970210316937053,0.35381532293088164,-0.07346660243764297,-0.0685986204517825,-4.355335828487059,-32.05149075653188,-6.8982092166270075,46.269789448521564,34.41172273999091,-12.505651878736028,4.946507409496716,0.12891087779557098,-1.826342715566632,2.8417237652312015,-1.8108262114098832,-0.551058195797131,0.9450054938189678,0.24095980401410308,-0.5944848691907985,1.5348013636854871,0.7755574767138824,0.33807071054373433,0.2552966859411096,0.01159089106166408,-0.15500732879407922,0.3914340959290518,0.09173142717439502,0.14182169102441364
-7.022062679850031,1.4752816099986734,-1.6831626150939654,0.9452727498434119,1.8259870186909355,-0.15095408300127558,-11.006220995994644,4.677611655891608,-0.2180439594413821,10.547586832739512,6.173884159939396,0.6814180584114918,-0.20510676812294157,-0.002571506214173103,0.005759371721744053,0.846706810707337,0.0628015661353643,0.022137743762887168,-5.18442097488825,15.9046067712184,2.309741417532246,77.40450846886911,23.01896699714045,1.2395159205508568,2.1183962693223526,0.8479111893245327,-1.2041735759137189,6.179791907223924,-2.43544143906956,-2.7661704452862184,0.3817141410084238,0.9100428406725944,-0.7411144462736385,-1.0649135327481747,1.940984443706915,-1.6468586370198683,-0.07450311455372984,0.24548482299756688,-0.17357121935017705,-0.25341327175294076,0.19152221377634962,-0.2774252549351717
-11.205445043482069,-0.3682679981649053,-0.742211407555406,-0.29651048506883143,2.9451981551952366,-0.23317298855592605,-29.615634325114936,-3.2428519120926973,-5.123467716872699,16.690768478842415,12.100251191325563,2.028418948065489,-0.06937311262743437,-0.2072887977700947,-0.09128674909737385,0.5719183704714044,0.02539372580564006,-0.059364519031571195,-20.406161288317506,11.957586541616708,-8.563732436358366,42.98065547867951,13.368946194638013,5.571082051014326,4.175542661337768,0.6372000507684885,-1.7855391355216699,3.114370137352868,3.822684366779468,3.0581148378651206,1.4402817950351396,0.7185878543053932,-0.9732865568370496,1.785932027527994,-0.3395266939046354,1.2870130084037505,0.3872400034971635,0.04371894249494561,-0.17436873520790772,0.13120534587897995,0.02376898801167665,0.1393665578218285
-5.3826408638288115,-0.7824867143822636,0.538934570974612,-0.6384369498574588,-0.715723241859221,0.4224558902026153,-14.192060820656646,-9.241954750823414,0.46303450716350314,7.205192340923318,-13.454786585879715,-4.204772247452857,-0.00972792644216193,-0.127614360551904,-0.005043485361035013,0.5362369150303087,0.017193382291363298,0.20417890429734395,-12.651357146059263,-30.91240396619246,-4.1174228838035365,59.57833539157035,16.119403327051458,-7.985919461484206,4.73925347925362,-0.9491496162803974,-1.5980857808955418,5.405902481058759,-1.6309825816998489,-2.0793575970884532,3.622181822522769,-0.15884387756359905,-0.8765003494620566,1.4484647288276393,3.0102782465626863,-0.8126253629319754,0.7062548535016361,-0.265771727403332,-0.046678408312408506,0.30027183058485885,0.35403284838766047,-0.05535784024939283
-7.516016862636132,-0.9173809550851003,-0.0021877021645145614,2.9620574450359123,3.076158289260935,-0.3296154487535742,-15.657571136128293,-6.814501123277251,-3.610885408012394,24.928549238878446,12.82202301702487,2.146711422981524,0.2309441330440991,-0.29767032897219387,0.10851177765294287,0.6321522490011756,0.2573017365738697,0.030599014619806034,10.581534263271951,12.312575659830387,-3.3638370265069493,68.79903488127054,-2.6593835194028963,10.802160020612494,-2.775676604044124,6.10939599573055,4.953740832190902,5.331675931144948,1.4849648790558467,-0.7799545356261096,4.373896358784283,-0.6666156096990489,-0.09288810070794636,1.8033826776380857,3.1359693500792103,-0.5506129986881679,-0.6964039537237046,0.923089277859555,-0.3735653138574811,0.19677333418229181,0.4300359885163753,-0.10759353022655456
-2.1321288773822555,-0.8728900614363523,0.5943816317048621,1.3222562549553216,0.15831123437880085,-0.047129826007176,8.351034173209387,-6.788472810545846,3.4765916342749565,15.905378640374947,-2.906890620024863,-0.8534930690653724,0.5060896470320166,-0.38716923069838866,0.12766651786094388,0.8703431955455367,-0.011215088949069817,-0.09876847302341812,27.65382439329385,-12.83853732479591,4.060713308608299,12.576801876001452,30.901349163071618,-15.453275595012737,14.065864408550084,-7.117085064549002,-9.7486742787573,0.46508746403802426,-0.343705110110226,1.5085981088823581,0.5189068664340696,2.8708579353022947,-2.5009771512262136,1.5234039365871803,-1.46772216111545,1.095993974174456,0.881340316442469,-0.2063144929843063,-0.07922426594446863,0.1951684017891867,-0.3115501546280105,0.11990685795172844
-3.2151418037195567,-0.22897626266813184,-0.20660327223456276,-1.4178068202185197,1.3695485999779877,0.20772574613910622,0.9037411130310168,-9.143737566039508,-0.0764362075626499,4.37877647911134,4.959418015447642,0.48302070534569125,0.3001472975022836,-0.07810624988126359,-0.09236956345591073,0.47068407990278593,0.08223606183119532,0.1148865144735133,2.4898647110536363,-6.013738247208317,6.585002552312221,35.16282935933485,31.954986896684588,-0.18833834967000512,2.9678702405526716,2.1083764872380777,-1.4955584801720094,7.287522035858005,1.339425599401564,1.8634815934598061,1.330852176972419,2.0967122091151174,-1.25200119599457,-0.6546770050161569,0.18118403171616987,-0.09857703380831065,-0.20827663353105777,0.7234389754150766,-0.19425665340899334,-0.2837512375487995,-0.14589052129227978,0.03288731212454722
-7.548708478711985,-1.7159767891825817,1.4190901301802232,-0.12921578723198232,1.2444486490439464,0.21198580204136755,-7.751535680093798,-11.806347289019946,5.179590187227347,14.863333628407716,-3.7223494247589173,-1.084782546414077,0.07424390059407394,-0.2524189820762493,0.06506718671326028,0.5713735559349711,0.051673233503658815,-0.01713933707107459,14.374265852439361,-20.98899287889297,3.6760456349117705,82.53189967229918,-27.42052905736155,20.26037010551521,3.327860075741639,1.633926750878805,6.93952962793594,-0.4330335868499937,-1.5927795691508604,-1.1371091690099786,5.20101263142983,-6.371637472532125,2.9316864450028937,0.34095003052468514,1.0860516721053142,-0.1761252386059069,0.7669845699358503,-1.44843098999764,0.45006889641903874,-0.0638528737987003,0.25326210038713015,-0.09852444094258068
-3.56468087585683,-1.9485008066258653,0.9455683162544851,-0.012470361975788997,0.7103095967835966,0.11979138127324347,-10.163669101530184,-11.646180545630692,1.36670222735672,5.24783764912101,4.359474728736172,1.2001348651785058,0.4434472202352497,-0.3324970998838893,-0.058103845807325874,0.8000327240998317,-0.021490211262874998,0.02849813951811288,-11.02557542018908,-7.897176461074756,7.319838332618968,10.631221380014582,21.463735590060246,-3.961247272964106,3.6357087798768903,0.3843479797414705,-3.0312575949906564,10.467863160661267,2.6517603233333893,0.4510803994344754,-0.8068100393236602,2.362858247413422,-1.7311733268991911,0.31246456087304036,3.0871416547798978,-1.428122110137881,-0.5594940988308066,0.7065031576464929,-0.3181865205183767,0.06854710059509082,0.4747406522856953,-0.21502036152466572
-7.49946581080789,-0.6483583166580429,0.6354951537861807,-0.3306781845536162,1.0727370573026198,0.020546750966149743,-7.65064622742654,-6.152945695642997,2.964189437104077,20.552693676318185,2.167533834212864,-1.3829440503393051,0.27691654638851765,-0.3659500831847173,0.044259348376431196,0.6253582486114652,-0.020694039046950465,-0.048018871572322666,18.56900451929907,-6.351475293356513,3.2610700531808066,64.33069694849974,16.838530713147218,2.232828462021739,4.257255234729599,2.9634651994481827,6.6204768145460156,-5.804520539638961,-5.273171690245935,-4.568142732598286,6.9593152711816915,-5.812800984809858,2.338012113090685,3.5287839339481306,2.810065581462195,0.15715840123525945,1.2071591568006694,-1.0612768544384488,0.28539272285792755,0.3581936767915504,0.39073516003643427,-0.09159221058838832
-3.077863400020123,1.5180938237793116,-0.902002418336211,0.49817754005988546,1.877958407763463,0.19666871421064983,-6.7595148377945815,-3.438583899165616,-1.6813713668442851,4.132572014980667,-0.32076873771407616,0.8081793966353795,0.39302859515476546,0.009752126966873175,-0.017141704208955257,0.4970768164939125,0.11956265152587894,-0.07547370450956375,-1.6624585573312518,-13.294932641698285,0.7578437916286602,33.606531515731135,43.981980015926645,-17.22929440583299,8.70079858441072,-2.4106019471739715,-6.454250311716727,7.162078419396859,0.8705478660257053,2.4658464353000253,-3.722236602891538,5.188100915126127,-2.386281698663353,2.607014693781833,0.8017165083580011,1.3489091230582533,-0.8713880299184131,1.0421003077554993,-0.32006492795622493,0.3993218818304262,-0.013785802881457036,0.35248187907468886
-5.5149701838040714,0.14577961298370953,0.46755548778663114,3.710080233362609,1.128128448657,-0.5992038395975409,-16.96131221762689,2.5929728857430194,3.1559417055506054,26.512998906801332,7.347178064671455,-2.1549817857767777,0.6372111562634554,-0.6053058459643643,0.07732717426529163,1.3020569243478188,-0.2041031897173997,-0.0017092412491405476,8.771558886199792,11.230039860342206,0.009353039894659368,49.13415900326456,-9.532142169866475,21.411804894051073,-4.7457029444036465,2.1595896373218695,7.621130797378947,5.820529869260529,-1.2174114631400208,-1.1445209592031906,2.8066193098616496,-5.574739169218524,3.418016501970475,1.8180499992437344,3.1155216065017206,-0.9159845186372647,-0.06056059666996611,-0.8941557182013986,0.6472075227672504,0.13486791476644475,0.546131057089607,-0.251906408774468
-5.333426815781902,-1.1835412573527309,0.3563044629050305,0.28260325679727666,2.745146189735851,0.4095793016101545,-15.463091423327292,-9.273052940066817,-0.4360257335785624,14.156494446577017,9.970345915981845,4.848744262601548,0.2621216463327045,-0.24897662404736928,-0.11773269122602498,0.4026082407291451,0.04761413522696618,-0.08194533330155766,-3.738957058227321,-3.467920611565947,7.089989871076239,34.402903573495834,-1.9280562184486216,9.741886506815192,5.434127994967342,0.04766863022409537,-0.7146202951979564,6.815266011071721,1.475603345192069,1.3833981940039084,3.9224495872434906,-0.7618361179767704,-0.8340811927480454,0.8831760447609971,1.0437205683508852,-0.24477607745115862,0.5223004892090162,-0.2110819862636564,-0.15612613088276486,-0.03424528977653641,0.11720811552090486,-0.1209250860291121
-4.117180181416443,1.0351504477894988,0.13879002822325667,-1.1154076369439385,1.7834023411937798,0.5172567718995971,-18.78946004532321,2.94078200566065,2.204945205130083,10.363072773825424,5.508751943674808,2.181184926255227,0.3697936387243144,-0.2821474841865524,0.1414190552572378,0.46133575725649834,0.14967790988630245,0.04168589320994213,-9.29504255091507,12.875925280784852,2.531451649555429,5.572600722252792,9.181093361833618,7.293534525289201,6.5625369917327845,1.8767187575018514,1.9891166184732703,3.8540913778260477,-2.7659179659049147,0.7447933561974726,2.9383134185133826,-1.773867986256124,0.5288692165786737,-2.4379945497096176,-0.7228870077552605,-0.5511738747820463,0.7218355744646714,-0.038333727081910525,-0.19759080079352193,-0.2848614445530203,-0.14959816578584356,0.03256586667136029
-6.140488049129384,-1.3580029891871779,0.40605503566670226,1.7322921333288832,0.20969991260386306,-0.3140939466338021,-14.74937767507942,0.6933585789313828,-1.7235415626194774,18.830020022498886,0.8249445279261773,-2.6350785828308356,0.3244831555317749,-0.37958559045076934,-0.15571457553147314,0.5918758656050678,-0.09021565448929064,-0.10069869255054033,4.1752769465207065,1.0505766888186097,-5.024122696931635,33.958308768570454,0.3400919870781756,-2.9855987077749613,7.337176188880877,-1.5395898522660292,-1.1063023678704265,3.64228815576204,-1.8632045417826335,-0.9611326043369738,7.559919815451466,-1.5776486158850438,-1.1392903040846103,3.3765498802715954,2.680096535169937,0.18281612150755305,1.1077208798760074,-0.3739210188837574,-0.21214485695176752,0.49703889082602165,0.38676192612550064,0.028475339954797646
1.1778573613022374,-0.22497853694377604,0.010058408556115903,3.2700837596949617,3.5787043028969245,0.2374631824858187,14.107593015439763,-8.80066800576106,1.6988384630114306,29.324126989179057,14.238692349091098,2.699937571562729,0.8710549357292394,-0.39481387931154893,0.09060195467406656,0.5035411086922565,0.031719352774181656,0.1205599955686513,58.79480677009433,3.2843219250165294,9.069939727054704,12.478768117622161,-13.13626894905669,11.34460560716472,3.8562107619858437,0.47756230308844716,-2.4101154222286203,7.911750349608858,1.8525203564060926,1.2539162092758813,0.4800824836745633,1.887445392422924,-1.2737511978137606,0.776588310255366,1.208902969539474,-0.6355014728942171,0.007160654930627267,0.21521249837326417,-0.059252594767625226,0.16115508167475692,0.15620006133539094,-0.10914224449353524
-3.4123684233192533,2.3703827642763833,-0.6003170167799923,-3.481305704397115,-1.4197582097899326,0.03491643912264772,-3.9992847696911276,14.976742165269325,-1.858206020505319,8.652635900025674,-3.3683044143788856,-2.91866045943054,0.24496009279007833,-0.20194485102758553,-0.007163957548139373,0.2026155991088838,-0.027848179982487103,-0.2254491173602664,7.875049451862531,14.491244309867282,-0.844935927634469,23.045996071041998,-25.73243644079441,-1.2504526421446427,6.774800375994007,0.006651142115834702,2.9281625925849726,4.337063245853661,-0.4154108784030178,0.6257604885546809,4.385229702679021,-4.102960983996103,1.1978570725211186,3.945203578231059,2.2415336877696252,1.142770485411741,0.5185317257765173,-0.6098638299299014,-0.012957949527754573,0.45578141843170783,0.3054898587975191,0.1850767340186372
-1.3164507629595144,1.8889757454334102,-0.6080198588032584,-1.770966474507937,0.8157415103204995,0.5742217019827753,9.358118120608037,9.785602868344698,-1.2284286904599104,29.515724899135595,2.727651237215015,-0.8108291465201448,0.44632595805860686,-0.16419300480527504,-0.07300742700994603,-0.011171516603182892,-0.1662559691569779,-0.021957693535236085,55.54442792486243,17.36261353004664,0.6886653439330431,-20.29168758359632,10.481746544374396,-0.6456451983024946,4.2113448271865055,3.452815440527881,-0.27329102515209813,6.310894400094932,0.5786287696285354,1.2220639851873805,-2.8281136321473985,2.127550180635985,-0.25607838658887044,0.160777419703527,0.5140018630949843,-0.6214817519332865,-0.9441020977293778,0.6829920883928284,0.063061124048058,0.04175046836150607,0.08586133592692274,-0.16537649121331938
-3.091299299819807,1.1769526755861568,0.024335191487852858,-8.068446669919387,2.72882446368268,1.5245101779951582,-13.533331719003021,-0.14863501736207418,1.7862228805580431,-6.188939854820618,11.278370086700061,5.041122857208466,0.6199342410814069,-0.4153499430020308,0.11597658852801582,-0.1234587558829034,0.17523959653400228,0.24202868167042868,-18.15437638338249,8.785049583822381,6.098578778405533,48.7733641528371,-42.91888519678688,20.078119347335058,0.8795097466967831,1.9899952271002113,7.976644445560463,1.0864646165443823,-0.6935436413613839,0.0967546186119501,4.375516662005802,-7.879237953007787,3.606675584219128,0.32743605342597787,-0.06457334832330985,0.16726362950877383,0.7525251976202948,-1.5368017538829897,0.3885030642353465,-0.047578563718332044,-0.21504225493591464,0.0902182233472515
-1.489836591102802,-0.1464483651734626,-0.20981027880551822,1.7197400166176777,2.2310902040996456,-0.03717668868308506,-2.575365249975648,-4.794460195969637,-2.2647008613663893,15.334989088909223,5.495112508263599,-1.4306030250509416,0.49364789873532655,-0.1800115421974551,0.053071067993501725,0.7113760341831982,0.4336827193159956,0.18888906528862556,15.49712171656875,-1.4971062842817464,-5.054863337601428,17.590968096223456,5.355125604151843,-1.1274565888230077,6.261520735473271,0.7538073717436321,-1.8151355342782896,6.512947083686923,1.067687873074581,1.329101058195103,-1.9841011956617254,1.9125703458992498,-0.627616239722879,0.473123841141029,1.2121264638805431,-0.23125867917588766,-0.34436025236185624,0.34760467093679215,-0.050185072769011484,0.2032933499053993,0.3340247071192926,-0.034692566387994214
-6.056650175665431,0.5183367752761188,0.22140181478572468,-0.48761298078144294,1.3417534294900149,-0.07789143480266178,-16.98156348852415,7.8801998810605305,0.8591850760146655,20.022178221420738,4.516252765239372,-1.2351055849218588,0.37874542879356704,-0.35681168682860764,-0.10194748567528772,-0.12384744784004162,-0.12825934061775096,-0.044174092316609195,10.397708317355473,12.922239069032768,-2.383266328817037,-3.663982697538129,-4.787306479885583,-3.243216200294588,8.081548989562373,-0.6261311580663113,-1.9334697821592093,1.8216029660760706,-1.0578080618580836,0.1857324959653522,-1.3707485915583206,1.1196091390018683,-0.36075945638081186,-0.8975899750607139,-0.3048095353271856,-0.3330775058252652,-0.23656021510709155,0.32043112224430975,-0.1146143777901848,-0.2663195045298187,-0.16348436174993675,-0.05954597081023481
-3.0416080839724855,-0.5228925442831669,-0.0373830973705846,4.094796693484935,1.28239939437548,-0.8145040978137332,-6.361795755125459,-10.911022124851533,-0.8135222992428607,13.021932433482583,6.142920819034349,3.884946418398743,0.1892825963899321,-0.11436022901422604,-0.043331950402127326,0.726817980242229,-0.07304063461745029,-0.41653581830510933,9.83223758415775,-13.586630165587831,3.3825150613480828,2.07221162590345,-29.660822076410778,1.905572151302681,2.842979469962176,-0.4096227075083313,0.37260032274960314,5.629898738274817,0.9614252736556632,2.084239175206162,1.547041890747194,-1.0408837601897016,0.31428050035112487,1.5685130611264182,0.08941534721752661,0.7905272034415675,0.3430352149311038,-0.3109910412024178,0.0973946018603926,0.29084810364645686,-0.010085725114942278,0.18033841460924438
-1.3157978683999887,2.5218282708544524,-0.5116218889628872,8.124335901336002,4.995486025766312,-1.314184456867306,6.346068020025702,14.336084089856266,-0.13581546293346455,21.942819760115817,19.357950080146644,5.004206168427141,0.4899191969175507,-0.2544164452745285,-0.0037003430367193,1.7888839374495977,0.159717038233286,0.38444245902435553,36.55653988421253,42.779572971890026,15.775370558952341,-15.028656269253698,-2.952725134631531,22.892960404128125,4.121496348634527,1.6803503779797033,4.85824773650936,1.7651485440751111,-0.2521246576127208,1.4859974894118368,4.373754076996963,-5.03891956787932,2.037891562381682,1.846215543052298,-0.5449528581205044,1.1695590270711484,0.07960450685770701,-0.7585343224887152,0.3066171107859575,0.1807409860583783,-0.04572293884483671,0.10747208960097608
-2.294266349213671,-0.46537469575494167,0.4823221881027759,4.8064593422768525,-3.2496934383600924,-0.6432466768959936,-3.8131079582957996,-1.5887276743921168,2.2395687864650866,30.387222361665447,-4.44367068367345,-3.773612219948506,0.7002326020245615,-0.4066175136501362,0.10808680671440384,1.2825645167984379,-0.26018343800040994,-0.2427978040982872,36.537235011977195,-11.348776758230468,-4.08229793657444,20.61932822507637,-23.964157509208956,-10.74197665483058,10.902270324215188,-1.223672962088753,-1.7557193250967271,4.741901745863369,-0.7189852403734437,-1.6359790158144694,0.46241722948818414,0.37604201655077674,0.19728674140307215,1.6437459358166686,2.939404744407515,-1.0744262266213216,0.3860520805371862,0.019156745950369432,0.0737082844502932,0.10414698851100627,0.2907800330261966,-0.16463974065718476
-4.0918518650394065,0.21734665672280296,-0.44202177822499883,0.3565817001454136,3.189464615572385,-0.13777747727129774,-13.329562110780934,-1.4141649294244545,-2.1195338527468897,27.519340587687807,5.353436634822322,-0.48117556477142354,0.3453427617300958,-0.3812917833244739,-0.19959109114939094,0.6794473539768817,0.09156867963668623,-0.10711768726924058,15.565545359055777,5.038362082008527,-4.585162812075871,13.32271854188065,12.343911371755398,-4.557155273061011,3.3213238214479124,-0.5063573638930603,-5.878738368470466,3.989422446845972,-1.1756848728859013,-0.18816711021202448,3.076848290519694,3.6591043508189713,-4.101269702056269,0.6970319724338617,1.3033113054918333,-0.4001740221780707,0.292173466253675,0.8865318768485149,-0.7916212120579951,0.09763557222047681,0.22364039738408828,-0.08094126837054783
-0.9656896355387806,1.8491166388962808,-0.43284038267307573,-1.0917305427241162,3.6514337898922946,0.366473057643123,3.0020643066640744,-0.4218599833362039,-0.09166520502467358,23.337277361575236,13.743999333246691,3.305290875882366,0.2607057715088437,-0.02326049321578111,0.14538702158853087,-0.0529304113749072,0.06570111652219551,0.28545990991726483,34.58002360198649,16.62966219636627,5.274064332813629,18.85792181272501,-28.80719477488799,9.385589718080773,9.425408691864162,2.798180513481662,4.936858807387368,7.466330411779236,-0.7126917716307977,0.48897043871463586,0.9628974313404723,-4.269094252788302,2.8529691239174317,3.579968053978396,2.221621901116164,0.3059951492337046,-0.08786553260983386,-0.5644617989483977,0.35408450356936444,0.661723510827128,0.3771049191009709,0.05337295262876649
-4.055259003658135,-1.5156698392253731,0.6753590205353248,0.525463875617241,0.6126218908947394,-0.1152245974943981,-14.73393774235716,0.23704467170375015,1.5877418533689664,14.563211066781067,4.284362800310544,-0.34826094016054443,0.5630706040294612,-0.48438508409515735,-0.002110772711302402,1.0921398672117817,-0.08609990298749916,-0.1127806893186857,-2.9862299543131607,9.501839959038684,2.4455845690198834,20.025237363228754,0.6506971517262023,1.8851221486314693,3.7012287848124883,0.315771990645904,-1.232309119015772,4.71551781287353,-0.11478165998437165,0.24896326877930697,1.39704272208211,0.862712421327656,-0.5874362246484882,-1.5879603285678787,0.7614979712779655,-0.962323103263564,0.3618019886936245,-0.02789948635183997,0.04369001525569369,-0.24580194225816138,-0.06270052942066674,-0.010071277942022068
-3.001451091132752,1.3932226685294118,-0.39871794180791925,1.1812694866495068,3.4966246602988242,-0.22758492167987263,-2.6922901434593176,1.8742352920228702,-0.6056667356674694,16.73561081374195,4.512997220935479,-2.791629685902278,0.5848665705639297,-0.13986483791643797,0.08246526436562342,0.46190333895350605,0.17397748674168118,0.20168959211267456,22.337824207005475,4.176240874501596,-5.212534157845699,14.492547932837745,-7.123089688120026,2.283923088665766,5.649119602765404,0.7497387825909364,1.297358186970277,2.083783502545763,-0.8100002900304257,0.8485851205671793,1.4224416808411091,-1.5294748939134695,0.7200578959191919,1.5298584133203121,0.007222944268418352,0.8037528264011908,-0.322227958298897,-0.19352976234534844,0.19357752249237545,0.044467993564358946,-0.0756313233903598,0.0995938968086585
-1.3131069837138716,0.06100378013315148,-0.42078866612028903,1.7496381782746677,4.991799764523457,-0.05409505828381908,-0.2184345151019942,-6.70820446982517,-1.3940599423433513,24.008780994082112,18.9711100847678,5.654710751760123,0.41346820976184046,-0.2631349024916553,-0.055611912320355485,0.6357736602832176,0.27151211589179464,-0.10392620759283318,28.7406223665756,12.64150454112379,7.640415563440459,26.712716629484603,3.6986847262432136,1.1601374499822565,5.490601189351502,-1.3845953881942954,-1.5807525857191667,2.0200018425829502,-1.0616112430525775,1.367681348989954,1.0115102166068253,0.12708894608660135,-0.28643781737900315,1.522152436417167,-0.928732578059179,1.0258410825716284,0.5139311173678303,-0.46071606680152155,0.1337778525549679,0.2741373403619663,-0.150237549380711,0.15781255832527394
-3.040280298435021,-1.9901677534699644,1.051228309901467,0.13935899528123552,-1.1293880349713536,0.11233293845425865,0.2527514705753821,-1.157555457902025,4.20318406289847,16.45856537304602,3.130473866578348,0.3817493424662146,0.5851522406462923,-0.5171670161913102,0.033123451131783076,0.7311910494373481,-0.21665333860125144,0.03314887186880593,21.882655987639968,9.533442212426861,9.366855846624835,36.83192356670022,-3.935604214729614,5.294986347970709,3.475982263329954,0.42407875995775857,3.218034762118249,4.570244308886404,-1.5917306444356853,-2.4886716147309556,3.0938703560669354,-3.5863581798550337,1.2159372962512072,1.992832197837648,4.148192386795377,-1.2445933543551433,0.30098427736990385,-0.43619287454660893,0.06954105834252881,0.20758128363567702,0.59263449208969,-0.1596228840276532
-3.3631298901615083,-1.2798196814696428,0.36370376187554926,0.3270025597863905,4.0713297150733165,0.1860339319246724,-1.8166335091776,-15.700765913328723,0.8039629369111542,0.7362565814269701,12.53222560267004,3.5198934272393574,0.10306180590064658,-0.11515008616900724,0.0418994170529523,0.5411941994750039,0.3522677280534389,0.18050109236629006,-0.5180523620509017,-10.745439801605544,7.222266790453043,10.279928874038282,15.590887134484166,-12.905417806462777,4.7730445831564,0.8595653990670704,0.589145623423454,0.43226631049728714,-0.4484053498809706,-0.7843290759141868,-1.128586440073047,-0.20828999098018533,0.41954142476311646,3.0450319743731047,1.468734109637395,0.5441387304772201,-0.5283981778339664,0.16908268434663476,0.07617891221827637,0.2252887558330242,0.28779095832861395,-0.06694972658095848
-4.9591331394595395,-1.6707291878162531,0.2790023858693158,1.4049554279591967,-3.402145696874491,-0.2833615204611514,-9.446097770734365,-5.568703922175156,-0.8717759442394172,17.525063519344165,-18.006091542306557,-4.915527621357752,0.45695848111921633,-0.4449089841573157,-0.14085952402742155,0.8114154327667451,-0.24301044291497143,-0.37053662979963264,9.3545934350138,-29.595629207689406,-8.369913388165157,57.873618761427295,17.15766784448226,-9.257043255405984,4.984838683666859,-2.9525780600680784,-4.448087796102547,4.524288359187562,-1.599471920032577,0.33284059053314097,-1.677055559360768,2.2005059631808246,-1.2536443252122138,2.741978497504869,1.4770368932048688,0.6289664136254639,0.036313407242631324,-0.14104506075212364,-0.06826534639531448,0.6700434018573518,0.24195875042910803,0.2745735877136909
-3.9217228819627254,-3.0513556647477365,1.462224056434806,0.9740049861350174,0.5222945906929384,-0.0748159315760107,3.5986152442734056,-14.764774479289239,3.9142271775080277,7.329262054692904,3.830547845282217,-1.0843611043093315,0.2928959526950516,-0.3908106595541384,0.019705610046480637,0.7685413442693436,0.0930474186860343,0.14786200402172503,13.353085687745539,-11.691437587362465,8.507445997192274,23.167398963158607,35.45726341108047,1.663115847983678,3.6350862322656696,-0.8173397144550215,-0.10830559602801182,2.157842380486481,-1.3857181687990061,0.941450955590906,-0.11143099109466237,-0.15291737792544308,0.49972572893224776,-2.378738951144377,-1.1594113158058237,-0.6318078401861519,-0.2503522205607407,-0.06437412979959628,0.2181491515341604,-0.8002041268906783,-0.3726610328434128,-0.2614131658473791
-3.210275221382123,0.5832311831605257,-0.47535099713281626,1.6205282072999783,0.8488548136222701,0.17925376786292493,13.768234705202273,-9.718934625019681,2.6864097670666576,14.347623040049626,-0.16247983684280726,1.1063808615604085,0.34462504861064186,-0.37525329190067036,-0.03308261877557174,0.644296346967437,-0.03282539731444545,0.01733304491284715,31.956751177371853,-14.881521436594822,8.188267746131384,44.22117547715815,-15.210480996108164,11.746176581477068,-0.974827407050271,2.7051733861472855,2.8210903326708863,4.616148474225984,-1.058151235828607,-1.3518601230299427,4.98093104101705,-1.857940447071024,0.022388322751698175,1.9200891996563965,2.7396709586371344,-0.979144287536799,0.515675312982822,0.05327999354779125,-0.22244611626081312,0.5010064377439044,0.5752283874015295,-0.17675941852641475
-4.7425533372722,-1.3550243229754362,0.3270428310945364,1.8091268527732942,1.2226136432012924,-0.35369671426474364,-14.886355736268609,-7.3079530572463005,-3.053503795383958,7.112052651505324,7.577706716712569,-0.3817543585755725,0.14178731120771812,-0.18400794338288154,-0.0741489083744639,0.7440187271497911,-0.021985924381803967,-0.11078759222757327,-7.055081127883225,3.027735006593135,-6.046668606462654,33.4573942413614,3.394427068533399,-3.746807389759273,3.6760839901556768,0.06030061820571563,2.179683906676412,3.63624954380848,-2.3176513638469447,1.8340408209284134,-0.49304604329418156,-1.8429124292073757,1.8163054052536032,0.2571015426887422,-0.9669378098364082,1.0929500312474747,-0.3305522807569967,-0.5969649370251718,0.5782898286319659,-0.09257895829277346,-0.35432127263960556,0.2980134984602811
-6.29782680782304,1.5779992789267157,-1.0826861940956989,2.160386789744656,-1.5295198925881346,-0.17062060402807988,-11.150908203012483,0.7277110961550152,-1.2958008849483045,22.07702076241614,-9.035625549432037,-2.46661168112548,0.2222292846289828,-0.08945888371018972,-0.05758299321802508,1.0538818399400196,-0.10383264442835725,-0.14260660913498543,11.383632284961541,-13.173379970164444,-11.72367098577781,41.595029980914084,35.628931691346814,-4.882230909180118,6.86318100883466,-0.9627028353128978,-3.76867727104571,3.5129868388092698,-2.3163588910141275,-0.9080161367896324,3.3188052962187546,2.2677880625426123,-2.0206336054457736,4.772992658363257,2.08061642247357,0.736165827185196,0.48699640977383996,0.5282503601685766,-0.3829003314246856,0.827582819141907,0.36964631441376833,0.09697795658263354
-8.8049556687521,-1.5211066113559568,0.5679746030383058,0.7391986965430593,0.7876206819800099,0.07603468326802364,-12.730995733659181,-17.50770118459502,-1.6932949325928128,10.078707436315206,0.9072175246455322,-0.08010879121228232,0.1752196585920437,-0.48451179935941135,0.057826548361081226,0.45720690462273517,-0.005348341455666192,0.06473392673338985,-1.4961988656205232,-19.500369000370608,-0.9367803526822477,41.50512077350978,24.57358394438934,-13.173344080654324,11.46260071400561,-1.3758938223937998,-3.5812552401109166,1.2447939001553996,-3.1414493628902322,-2.613965224917773,5.74080180069337,0.6891706294900919,-2.029111971306139,3.954292971632454,2.7258523040336047,0.16282543898966065,0.9325185086709978,-0.037339049886055686,-0.3173373608665318,0.39134690215774376,0.24539126952864543,0.04059336183212684
-6.679126781824598,0.3094739008308893,-0.4771667589092956,2.79031324217526,-0.6213801549101579,-0.3209102681747956,-28.281325203440197,2.5403382605607105,-5.906266435893938,12.889426099532187,-2.040178034868505,-2.150028042497343,0.18305014651789794,-0.030821160026208487,-0.0003162123097336733,0.9952111608131593,0.05375101525305908,-0.09666889945884863,-23.310834192911237,5.3490154045163445,-16.98922572314593,54.9806309201787,-9.732542937653655,18.44102636511971,-6.738838111314221,5.407024274501411,6.802029575826041,5.741174224279574,-1.2660243745712523,0.5008679903681562,3.7808947407294533,-4.033678842799236,1.9303248803655157,1.5403356339794987,1.1633170362333525,0.07649022926880455,0.2218416720495233,-0.17962594296222736,0.06580230727698684,0.2740526530391931,0.008612771158570521,0.14991984462819208
-7.546532150730265,1.8838060707626838,-1.5963993143345716,-1.55874369337614,1.2284815094388957,0.19529036961955035,-11.0420219813864,3.0243759569189983,-1.5899091566589933,17.684794980400977,4.749463470904065,0.2922384607581525,-0.12615778764007607,-0.15032261517207232,-0.10324432579060766,0.26718026071013434,-0.017724636129984345,0.13479270076383604,16.75808552300108,14.295148489053382,-4.339973303302002,45.60000228136929,16.84158182171042,-8.617811221537856,11.183941995356516,-4.015192688341872,-0.9686702525226578,3.8431205793837355,-2.849840584504025,-1.7745499936283011,1.801267696184508,-1.204612401641342,0.5649108185989411,-0.0697683280227625,2.0711858343429834,-1.4468347937756982,0.06351875522879209,-0.4285673743152305,0.2912152301155018,-0.34804100852845526,0.2891070542336843,-0.3851951089305333
-9.145784137666107,0.32875856706995665,-0.30143778672180593,1.355042331968195,-1.927623564973739,-0.23867693081598756,-22.714685985103525,-5.498545786616646,-4.459725605348467,-2.910465379292823,-9.847445615024949,-2.0902703251664505,-0.284521180054119,0.09578259281021088,0.0061850371286427015,0.9612177587509337,-0.07906190634565435,-0.19899413108167036,-36.44802596068238,-21.711906625267595,-9.460098071205639,56.585636316401335,39.56612811195203,-3.4281014522080184,2.0515758943743125,-1.5188183154247037,-1.2090765850000667,3.385930622046422,-1.229064048707946,0.16252835985138345,-1.970806878337005,0.5091246259725826,-0.13063107805878735,1.403303272198284,1.2661758921202826,0.264911045816784,-0.22369687466401197,-0.1072999372182035,0.011468006292586293,0.35057345434313436,0.2992154216137216,0.11705248408877332
-4.590962228786678,2.2752129559114502,-1.3587113707133567,-1.5771343178579633,0.6561450469207775,0.25998740827368316,-12.324569471193312,1.836506360684724,-1.292146732146328,6.848360978792114,1.7069436513033356,0.6993818934117971,0.39109003409985543,-0.05269218022622323,0.14328214079936666,0.6375003501867675,0.04237120893835411,0.1135438751310486,-6.29852943761951,4.474796895277297,-3.0259620234834124,45.59734802336279,17.077546896648876,11.017170584486918,3.817833599186541,-0.24923349100116696,4.006735061708463,4.388674893437858,-1.5037035519555324,-0.3169327581345655,1.9282200934417555,-3.727335771959014,2.0309805849924456,0.5436670661772456,1.0481144917092193,-0.5410889539549834,0.059309137744430876,-0.2325947044982658,0.27825690668304737,-0.1604167854220253,-0.03362123311832987,-0.12594787262242338
-4.856958994789848,-1.4796239108868183,0.4964019661618666,3.169978910424109,0.8196800958010276,-0.21415549324353716,-7.363917236774437,-6.8754695224508175,-0.6680128117173971,13.389190955196701,4.294837866954943,-0.6394332059467827,-0.013805590731367817,-0.2754326930699802,-0.1892208197831116,0.7365414295302112,-0.058052241143232944,-0.030326428478899766,3.6207946466605487,1.0819401110541553,-4.8881480267419795,44.01880865886195,28.884089776156657,-6.893302768662275,4.789874049503023,-2.110396970986844,-0.8081600328316204,2.205138649664769,-2.003646287177443,-1.197128419148273,0.9561119742521068,-1.3938665697510542,-0.3287478300176042,2.931769979499974,1.7822831678417814,0.4507213576973305,0.1347691379645249,-0.4706547040368598,-0.08518957408934519,0.44012145439666295,0.24419849494934112,0.08758184203734436
-11.07750472065546,-0.22731361933354202,-0.5160406388207736,-1.581113262822701,1.3294020925256596,0.1756135204302056,-23.06026162117139,-5.008983293890378,-3.0837904468834494,4.99336004173068,2.891648849381866,0.11893324866894116,0.2105132838777595,-0.42722243213706246,-0.07592075789902894,0.6912838426803194,0.06970900887921958,0.07988717111015495,-23.920806244890727,-4.202979820902399,-3.856890304572655,28.88989398198124,29.445460512572193,6.017290652803348,2.2161172960672113,1.7880693411285893,3.5510538631682853,3.8876034459900706,-1.180592696701177,-0.8469208586651198,3.931589786800133,-2.931086552297374,1.0889307123914735,2.6546801947532224,2.1687485997676346,0.024513856138291962,0.5165064326039674,-0.22215939950120842,0.11920228105664504,0.37172543490798293,0.42135254995178895,-0.05866429539127781
-4.4544665289654874,-0.03163155741081014,-0.4265984690000926,1.3476742673137525,0.2691253992816025,0.22874971081846854,-3.2124391884378554,-9.959253664598434,-1.9280416938969138,13.890013801515007,-4.028287518020203,-0.09136046500155635,0.3989666952898253,-0.1399334155745202,0.020320488335828887,0.28818794080712784,0.08469389638345742,0.12561980682377943,16.090625358756768,-20.802003974191344,-5.031902742482319,24.28216315667017,21.015057681220963,-12.276497632275202,-0.8433065797741125,-1.627755954709563,-3.2557603151006713,4.664850538489379,-3.313299287409597,-0.8422869583291959,-3.646727430200739,3.090730834568579,-0.7414857080024851,1.618133295984888,1.5596043165858486,0.32715056823802763,-0.7045073123724244,0.510436964519891,-0.01398483247207421,0.252895436168882,0.08937601268833932,0.20398801171057795
-4.806505329061937,-1.9994717457566125,0.8781688182048975,0.6293571398722612,-0.3812939985831825,-0.05387786828730408,-11.548809305424927,-10.393423608193666,1.2568440612031708,12.289004891287036,-7.97569113904777,-2.8569891113720614,0.3014964001991492,-0.3012137407869975,-0.07610193668336962,0.5562637816984342,0.037828820751871384,0.017607862825508788,-3.1214607810598425,-22.943278799857968,-4.249134562102331,76.85748272221434,29.32216165795046,2.0738148402362944,6.6885097294274,-1.3039451770686963,3.686086626374256,-3.2315819553468104,-0.5969377608099132,-2.1961950099445544,8.461672529605716,-6.07108266278961,0.9353048508834204,1.48236966321619,1.0405550481973203,-0.1331751392417334,1.4198297279955419,-1.056907344965554,0.024725899783871533,-0.014791748901406344,0.1553257654136216,-0.19263516469618858
-4.708089281015132,-0.13666075485633278,-0.32403727569353813,0.2207524293543317,-0.7389704879468575,-0.2878796494826611,-8.002924092633375,-12.651634673972977,-0.8053454786754473,-8.111383417711178,5.407088113850318,1.0194425102741935,0.24738313498480582,-0.21418170108544204,-0.059942325146540326,1.0918487198622533,-0.18345786283385593,-0.2841090203621277,-22.11889678283058,-10.946292483865493,4.551543168852725,43.22952944722728,27.60232523598976,-11.443361972429434,4.19652549563005,-1.160416508685121,-3.8251369836405145,3.789935028168359,-2.2988054332380714,-1.035424242471909,-0.7343358824721303,2.483766986287725,-1.427211367779414,1.297785978776829,1.6394841725725533,-0.02864156643061799,-0.42271975536518736,0.35347543653708735,-0.02648235086919224,0.10787773794864701,0.20567992630807344,0.00886113569370358
-1.3178415441629496,-4.22054519036019,1.7006859686045281,0.3346768260535231,0.8579178601166427,0.12991833743370637,13.34352257938448,-13.236991293700537,3.7014460425035316,25.133440566341378,-7.6357360741379114,-3.503576256455818,0.5254045289490138,-0.6274686043126634,0.037897217556108045,0.5511073933833743,0.1182050177881906,0.1538044397550801,51.98583555801935,-22.177412438866963,0.3767609617478974,8.683193137901224,26.546435827089777,-2.7502317823041422,5.367979993249852,-1.9480549393934874,1.2042080539459274,2.5400806302418877,-1.1685441154428389,-1.174505162624161,2.8919400854644204,-2.39188259556067,0.940844914914363,1.005432517326656,1.3814235342015355,-0.393176559144943,0.2945471501414831,-0.3440145629158582,0.18167724450898354,0.23908952350667864,0.19864957643172454,-0.051550018832683966
-3.2210142251412335,-1.0985437103488416,0.21609450161123034,1.8069918180347084,0.8641913506654243,-0.21964394478421692,-4.573860899053747,-8.011657109393072,-0.09101724199987972,12.681452954425627,8.547241036279296,1.4732062274775974,0.45793635472868943,-0.23955000401953633,-0.005312122149688188,0.8109023884058393,-0.12347552591553103,-0.14880518548004829,12.101934063590264,-1.1679537448826554,4.051372722229353,4.392944072388695,0.8936761864296603,-2.029569843539808,8.511219995893114,-1.9016391724537325,-4.800703134256695,7.116387921920028,-0.7909236137928175,0.8684408124095493,1.552533054416973,1.4999246409124143,-2.5041969624145266,1.6555297971968193,1.3506357023232365,0.3423011098648064,0.1441013745261592,0.05111748681606842,-0.36855188186936594,0.011089637518802268,0.12004172767802049,0.03238042171572639
-0.5968548311251115,-0.36852166294832195,0.3592097751721273,2.399895335467222,2.183107632268305,-0.05403915199688433,2.173089846057331,-6.107838375395111,2.6299822110284343,18.11149729313518,7.889233675386315,0.8388019434280053,0.5674513183434423,-0.3077528647229209,0.14779777394716978,0.8253201143528716,0.10301308360295741,0.11675568414516811,24.71025955715913,1.5033317011394545,2.6730088467791857,-6.29077815555965,-31.08265096623805,-7.6083008837004895,9.13497711256249,3.2123069407300586,6.858599072670984,4.7049304610740945,1.1063890514836945,1.4259146687119242,3.397261129585355,-5.093774268459791,2.8696768925092866,1.2812779404438894,0.21283258907823877,0.2485863923558645,0.621548257233156,-0.46130633521567155,0.1360999821358734,0.17041998137953723,-0.07209850574882953,0.03616686868935994
-4.285139611816483,-0.7285527513423007,0.08078214456211123,-1.8571511360910198,0.7199180082074026,0.1499272466427517,-8.67744071795469,-4.587867163779555,0.2700967643259251,3.232478834509912,2.212082833360433,-0.0838667659809045,0.44703344246476334,-0.4980733851988282,-0.030757643961763777,0.4221830431417555,-0.03619711538776923,-0.008328541025964893,-8.829979486586083,-2.971934042993368,3.0356488811736964,54.16209713259503,18.152878752096303,12.00564151515981,0.2974982545828746,-0.5063378589520775,-2.261321878644297,4.7178042565899965,-2.066951324408131,-0.26031094299949387,0.8393162932661593,1.5334517697834789,-1.0952548350949147,0.747422001615353,1.1845700362278988,0.060348638998576884,0.13349970018960455,0.024182989535889703,-0.0012013121600613578,0.09070392600260116,0.1141805659835273,0.08183010519979506
-2.8289848677895044,-0.43406669498211115,0.12451401265712483,4.461867022089979,0.16068443092422072,-0.2871877897558579,2.6416267854961686,-6.529020079354045,0.7874461295552094,39.71506324163265,-2.6874994397363863,-2.344768972828266,0.3160607563686838,-0.19743928151526072,0.055437661455773765,0.8588203125684847,-0.0037084803387236083,-0.028025122402516443,60.065340403406346,-9.02709163860464,-3.216114504548905,19.02680489320498,6.055179417611527,-9.590015907014159,7.748983917086741,-2.007865755159796,-0.2558472890687552,4.854181560495416,-0.4440044491399159,-0.3851092689659734,1.074080851493509,-1.2737305229903602,0.23095218781976146,0.954684998892147,1.885864468013375,-0.4704282743084746,0.02591258861879534,-0.2917389142209074,0.06114534619580838,0.06117134671961809,0.3735349245628458,-0.16207197730082315
0.6713240551568872,1.3536827037210029,-0.5489645546099741,3.9038622081214354,1.6936209077773354,-0.332783033686721,9.928130984074633,6.862122626539554,-1.605650908797162,52.73723283632175,9.218046838017575,0.8644097323205644,0.45989633924308115,-0.16360076803372092,0.049805223947654485,0.4774178387702066,-0.04012433769707173,-0.024055198291892788,80.06607262831753,29.295858873650946,-2.9879916775538287,4.804125751632101,-22.44869994745349,5.189118042634315,5.494725363631098,0.18642263775747195,-0.3078794551612495,2.7308556638504227,-0.1046705715666811,0.7497634431740716,1.0141447210304408,0.5184346166759861,0.0927828014157395,0.5976176284282576,-0.11171731458137117,0.29447705671103586,0.11835417585293669,0.12177366686795338,0.10765135709041151,0.04529279870896782,-0.27356433542089137,0.14092790594435972
-3.1917821399215156,2.194074521065151,-0.2918741865631098,2.3163386316538768,2.223874496300677,-0.6057544890776108,1.8167700889313465,8.80461739725663,1.3221847524074408,22.290397148282484,11.978468191480157,0.6686880025113597,0.48836931790210764,-0.3036482848625153,0.07182049016547909,0.9285728702802452,0.08088980157608912,-0.11018420536735508,28.575442568246302,22.49856186508921,7.6631052039531085,-4.5273806392908185,-18.266047994693583,1.2460065411943138,10.333890334317712,-0.9262854891733808,0.11460152645778528,10.738795596743492,-0.13041273690558375,1.262050806641118,-2.2001160799722914,-0.45140341685139185,0.7964380468409157,-0.48225026464843995,2.0920787845074718,-1.1934423592054253,-0.4413167889378381,-0.1927986797039002,0.2782872028387612,0.23019595314691862,0.5288557916611064,-0.16720027585082453
-0.8691345220590478,0.18849329584368468,-0.11020224657768936,0.8898873305598886,3.761582669774421,-0.5184650697535076,-4.772322340094677,-0.2114293229100375,-0.8209968452486143,16.186780910705213,13.06307787995904,2.604556665653312,0.5976399090781311,-0.21014348059527074,0.05215968741003188,0.6900947745840124,0.12506962797058122,-0.08719375242626423,17.71881630479468,16.179534772925464,0.1025497176044376,26.76989527737993,-17.048738655370414,-10.80499036145726,9.204207076065558,-1.277536400366087,-0.5335740635303523,-0.08577173602878602,-0.4347137569264777,-1.000890950998657,4.60724205628714,-1.3356332002618931,-0.520058554239237,2.690309908238489,0.9961682471280322,0.6079364709832151,0.8989618213383945,-0.24415836380796374,-0.16901776309236055,-0.11610944401648061,-0.03631380358515402,-0.03158410280754289
-3.578167526156526,-0.7229192061395173,-0.04131409126661542,-0.09860261009861007,3.1983547003858073,0.3369019088264806,-3.99674975013992,2.214569375484004,-2.1924090814746475,20.451838927095196,5.058957782503521,2.25048423003825,0.22341458835404945,-0.29008843012511387,-0.09350841916272498,0.2806396631229163,0.3493068264276476,0.3520166350182341,25.84330172725913,6.260664054667086,-1.1019929589873974,0.2730229949442543,-9.12972425939458,13.514280508182665,5.143774316811083,-0.5529570945132527,0.7742704729134335,5.471534814990779,-0.08870727232978676,1.39700847811173,7.967974885649845,-3.45055122826526,-0.892952020001237,0.9930627212683427,0.6224324798044805,0.21593786268301,1.1013120904029887,-0.2593536156531589,-0.36297705045821976,0.23273180726359355,0.2052416973820103,0.040457221095880465
-2.3093522276601655,1.3018471293432217,-0.37845051765199916,-0.983004651557198,5.023011735888832,0.05309163312692107,-2.2292937614401014,-0.46933194915690124,-0.7690597168803732,-4.185442881912591,14.236264621178668,6.716957422415923,0.47436543736614095,-0.24876302371748216,0.05393178837095421,0.9990878403184389,0.5102189957590499,0.1777021043835724,-9.65951137245756,10.65111425672993,11.48898639982755,-2.8034648137716522,-11.08066295790802,-0.4780117163679756,4.642725600592743,-2.120281262966897,-3.755188002031532,9.840185840859796,-0.4155568746499142,2.00686651204893,2.676136861284926,1.1700713479432832,-1.6470017881206247,1.3945362340820067,0.7943303346437516,-0.08000420887734014,0.1377017372366686,-0.21939896841602216,0.038487804894347166,0.30687426978156523,-0.004354157347988005,0.05414055228614152
-2.004804067336722,-1.2983823697344683,0.5132780080251744,4.997381533042258,1.1032796924585693,-0.9634034055503551,1.3800948157093482,-1.7143457768295116,1.6557338502927914,14.844850901045035,6.413635066227388,0.06674295591240634,0.6772130081751057,-0.5857360168171135,0.013720367391262351,1.0324823925482216,-0.22346774582868587,-0.1251601115778917,17.029561131116722,-0.9304087250859624,5.518911672276724,-4.536377499315341,-32.36894222015373,6.461520207942161,7.525275007806753,-1.0407650975040321,1.3879704227250793,2.410133285046785,-0.8643387446020195,0.22134082782945763,-6.145654687709615,0.3744555275403291,1.9555028104764973,-0.6501018032626075,0.053376138366282244,-0.3488526548330015,-0.5132736403444735,-0.13854905493530795,0.3387349944003637,-0.32797012817036375,-0.12340088596477206,-0.07609095230690953
-3.424367693771017,0.29273167151948676,-0.052003822371684015,0.8443057306281919,0.38083830323201356,-0.23449402181691367,-17.671252372605938,-3.8012915226897483,-0.9480088667226448,9.029219970539753,1.8565957987966697,0.05085082093741623,0.338097479924195,-0.03700060425011001,-0.0229198254869678,0.7354932555408409,0.002335143703068045,-0.177237704943298,-8.636537610676598,-6.198470005547676,-5.018891647559569,-12.271021958950486,-8.900125830252215,-0.8497773839399508,10.661545103741034,-0.10393051740751033,5.124337818724437,10.241382410522888,-0.30455627446945466,3.4537997328489793,-7.181845485026027,-1.5800762140908835,3.4439842380871637,0.29698078488708457,-0.07550791723720336,0.33979699973772515,-1.009291952291949,0.0016795885647435185,0.4913583868984738,0.22280099562638367,0.07751332018031235,0.10172856099881689
-3.4125133752981194,-2.1713453758723094,0.4562177562892341,-0.8416958190005212,3.2480384375931903,0.48789068251493345,0.9820986983927853,-9.125051101021702,0.04729057686173427,20.374606911500486,5.353766398417974,0.3908306436636016,0.4981532729032997,-0.7018554624544074,-0.0765049949774788,0.0455463217349932,0.3139365165632198,0.34548020544386515,31.78027482179459,-4.8614068768972265,4.2217293675980585,-0.2364016528495465,-38.8339640542989,-3.560862629976964,-2.019190950200019,2.4307312142582527,1.6442599030171818,-0.42039178384632914,-2.1339186496678475,-3.2179651450652966,-3.3676202071212558,1.426969196805596,1.0424065392915574,1.4938468467797932,2.1926054254461467,-0.6083967809512145,-0.9191230128295641,0.4014581088445565,0.28179471145181223,0.12437029251056203,0.23457626940172926,-0.04492486986865639
-3.3222482447177453,2.332397557644884,-0.8072673003196787,-7.856963730444836,1.0966612920265564,1.3855349948447395,-4.304281743318727,8.800586650256449,-1.928000351445704,8.26095409417191,7.740823482622915,5.604951366130998,0.2780155348878054,-0.14107097223707213,-0.11732752801594754,-0.8783277154816076,-0.22832400215156962,-0.1227877948203038,5.6714512919911515,15.61842394132035,0.09054633830230568,14.037749226267179,-25.31991564423474,5.77510127834886,6.876375324391921,-1.7525271626628116,-0.9819813913981614,6.462261893163305,1.3631125170332372,3.4455034701660745,12.020634773472157,-6.252821670058887,-3.5888941043806493,0.5876873982318842,-0.9581363681058378,0.4234373143255595,1.9468448905145723,-0.9690987567028029,-0.7462621281158431,0.24660348848351643,0.07929260143054073,-0.07164308968348192
-0.3920828461445054,0.8877590998381744,-0.09387350621903424,-5.656652549220869,-0.5855171555233545,0.8732999815610115,11.094824677456955,0.2591350730810139,0.8116543136254498,10.467305706898282,-5.931644614560831,-2.1707546480006483,0.5197034529971848,-0.20511921367152666,0.18766676212819217,0.3811129278632276,-0.08533696779479479,-0.26050029490990756,24.852937573387084,-3.8141874898314887,5.645904200796924,5.788850666892791,-19.983875782646997,12.264502421869704,7.948257671413292,-3.7960965769762067,1.5276180688304069,2.9430854188136735,-1.8534981449172887,-2.313593442417748,3.6220213475155205,-4.646081238093849,0.6861404812723457,3.818566271135309,2.1182827139566687,-0.23159914723927266,0.6256109017368057,-0.8095506820349405,0.129453992655694,0.5525800913675679,0.2390254282653846,0.030842524418253647
-2.806821091904043,0.7390380502986079,-0.13402345941451835,0.8894518395316857,6.525916228714973,0.5099493426329489,3.6420145042342464,-0.8902555842873139,1.569100021859352,23.170585239574308,16.67171284712891,2.1794433796317136,0.5708763172727844,-0.41519113379127337,-0.07383591367718095,0.6684052830636977,0.4917329487449365,0.5205007891744136,32.86939887275806,16.838348818935266,7.232604820543553,4.69646009447621,-39.85890800853813,15.427100728284573,0.9675860338616644,0.6372552341831961,0.8866833979192179,4.662704129171691,2.167615923236648,3.1728035762386027,-1.1547943772974,0.3584077798728814,0.7423014905248216,-3.031696006505324,-0.44342536376220065,-0.42910463310309765,-0.41588518651393885,0.10723973959845906,0.3003485564762675,-0.11115288301146252,0.33244295700737914,-0.24412327746249501
-2.4187014030345,-0.09368785394866468,0.08914693103433002,4.545846164192843,-0.16392034425400676,-0.8689068916587257,6.802355805140643,-6.7044139463671195,0.8656541834061905,38.830748714211964,4.546194380705119,1.3797057000899553,0.39830699058955327,-0.3700118123506071,0.027547852069262847,0.3767843391894365,-0.25214006341694967,-0.26463943644979215,58.89271365416392,-5.29300002838562,0.8091176615147015,15.434585734035444,-19.895689046029624,6.025855129296148,5.89660098645809,0.6173449344044071,1.8981097338241009,0.5348336728737242,0.2616825867959137,-2.100341485736978,-2.082254156173446,0.1282347741580422,1.035962237285064,4.308446653905262,2.129281079430084,-0.09872952504294485,-0.2610929818120805,0.2509687929088449,0.06515265851251867,0.3432460077334531,0.4691212684928527,-0.05838480230227183
-3.52875610148568,-1.0274078163548774,0.7047350481413233,4.670211743765126,-0.0437396899501174,-0.5430616185769621,2.233261869610737,-9.26622883553958,2.3981958386986175,33.73068789053818,-6.191247829992321,-4.429376730590829,0.44957354183865805,-0.46735333791425915,0.010580398874520681,1.063494356881845,-0.0337022153978493,0.08604001069778741,47.42523886836216,-23.93866260872085,-0.5755703857240635,10.46451267407641,-54.22686840816302,19.35039515587587,2.2736516516103102,2.3026874871157927,3.8825346998025045,9.040864817533349,-1.9791795419184268,3.9458741312005285,2.131975779686684,-4.260674408383454,0.11738546932035361,-2.8922966334633835,-1.9201652990276947,0.3424734387380143,0.27819559285266066,-0.5414496598273951,-0.03863709865705464,0.04003985585791678,-0.21263579525061851,-0.0510918379560801
-5.419382564132303,2.234222659655219,-0.43049650462648203,-3.919817508334369,3.6186149538210004,0.5348841253773111,3.04712869267628,-5.512944390616167,0.8175443051728892,15.523894584776002,8.514779626349288,0.8156004821140613,0.4732591360152138,-0.10993487277472366,0.23781677367584866,0.3158020813043015,0.04897784055174026,0.008917738241465575,20.26543824403992,-0.8688065514417946,4.922422501086269,19.288136154835822,-17.439274518592637,16.25617422159041,2.79034410256845,-0.25802826462640505,3.1310175250537937,-1.6566096975996834,-2.383374383032254,-2.5733685837554656,2.9706964626007535,-5.468097398678074,0.11596368247574498,3.4762892958290785,1.237245902764223,-0.31622327982507714,0.22702953219486652,-0.750703708124368,0.1222759625865714,0.37978959518848177,0.29344981127969855,-0.063373141151134
-6.154288368669702,-2.0139247825876962,1.4286457536484456,0.2390533574215284,4.354674900040938,-0.05429138401343546,-21.791715654136393,-6.948800591572934,0.5053664733783468,19.352865331543484,14.412518745894742,6.547343690573181,0.32578291705203605,-0.3685557141819991,-0.12158521180186715,0.8384087762112187,0.08493839447061552,0.010845915631780762,2.4705128127565925,14.345938705915605,10.685737987012839,45.309494054222824,-39.90074385255303,14.448155365354303,0.6166813619613816,1.1451827577830704,-1.2485040854323162,1.1881475639794932,1.2587555344670012,2.088361057297534,1.8593822222130378,1.1774952374473435,-1.2684463104625465,-0.38507016948280026,-1.047454397839239,1.1940522325717,0.22351445484666177,0.465134805269579,-0.30072657399227476,-0.38263694697870043,-0.146570340813253,0.17611657371755007
-12.76334437052849,2.881562083026314,-0.8936852157811481,-2.7340012930493747,2.850260301594279,0.6740154391175578,-41.554404127624345,14.63489290064953,-3.2799168928110403,8.37592680415422,10.430288667984751,7.822324512935823,0.0970054021277645,-0.34586829525077945,-0.05390336237204328,0.7388523334074377,0.12983243217607243,-0.027244829731648875,-41.27148604181703,28.113507089665898,1.39601822804273,25.027946622420966,-59.480725961244254,31.746899455999053,0.918785538419753,0.8088568499532055,1.7073525660634197,4.507164631437132,-3.636184252699997,1.7230193876777866,3.5133447633556654,-3.3759618385635557,-0.6670542773986263,0.7233451132303695,-0.7897850722961661,0.9527383017846459,0.2598681181565769,-0.3181235456095339,0.013179533649735904,-0.029248477876208052,-0.1976400823489426,0.2062667415565984
-4.351801061446784,-0.11661777682109548,0.04610480818879852,-3.019410921100564,3.6130596235610852,0.09024594311991718,-0.0347802182098067,-13.587186278780411,-0.6599412234597426,-7.39488552811668,17.48576969625874,6.641805557251796,0.657252929432291,-0.32737669852736934,0.08998730756648435,0.6251131082829672,-0.10442133617577568,-0.17023177961954133,-9.314281324707672,-5.994233673129248,19.65544594544461,17.242878548402523,-37.6527980446279,27.840223232843343,6.403817336928904,0.3279252461341797,-2.537547721542299,10.615768922164943,-1.1931758048519683,2.6763540750359587,-1.515682754563613,1.8922134080786241,-0.5531075859850489,1.9497658706988492,-0.5075841999619369,0.5921260590993707,0.009461792496659772,0.16974788722972683,-0.3648823897549311,0.2939319470614036,0.06772430192911805,-0.1605343155422339
-4.197464424915555,0.9064568197030156,-0.08381377246228389,-3.704011906447207,2.5796161593057123,0.8378073256493245,-14.142922872337769,-3.374500736766741,0.948915428308228,-9.998705708184456,0.6816690159491235,0.9840572706463466,0.4151266303232909,-0.10107325804805424,0.09541046805780387,0.5550066336787692,0.3064377813513478,0.3361393506094453,-37.44386907480645,-8.740713065570702,4.25968406594325,9.905503160530674,-7.546345134687648,28.86448057214334,6.508879280877944,-1.3191566565388424,2.0785256440869975,12.877264596443563,-0.23550716060805787,3.777169291152564,2.2014130471890625,-4.187553547556022,1.4715350977456505,-0.7400270365016652,-0.36807981051734084,1.266458155287121,-0.02290457291338809,-0.7084370663471997,0.7500809698884907,-0.9302714305864885,-0.27834441972275825,0.5821819736949961
-10.832540275973862,-0.27472679746156703,0.2936649918935653,3.2647505570950566,-1.6101891297391413,-0.3691620697196103,-1.7874786829224187,-2.2169049333419677,3.563170643968919,41.75306661798767,-6.807809048117864,-4.609235278964979,-0.24773770350545454,-0.2464360865466757,-0.09650114079465336,0.8714633892312165,-0.14400609490181748,-0.13941065898546237,51.242485214560006,-1.2629205095250389,0.9739997241971887,34.90108465878393,-12.454290210913252,78.32259291901568,-1.9245554573250134,0.13885334412998251,5.392703498123491,51.48968004355857,2.4862650273385443,12.428978232607054,4.675210234312239,-6.119543919831225,-0.3552329707188258,11.427747199330692,-0.8935080613503177,5.884011808857399,0.6630473989405083,-0.5879449478089289,-0.15251337297778678,1.6925269387897195,-0.5661206632268884,0.9572403930787021
-10.016123281396982,3.381670840876572,-2.3419131464262564,-1.6468841042852107,-3.458664960845547,-0.002401437766037049,-22.207425937145135,-4.337529754501626,-2.045083187138129,-0.22018118137917003,-11.020843085657763,-5.110994941457878,-0.9562742334929302,0.33146361446635014,-0.3453634341347577,0.487768734838113,-0.3089478121706137,-0.09509418524498311,-37.50693106414018,-24.161869952398696,-15.270763754860088,106.14309318798195,8.916768068363623,-21.193509014070184,-3.843696678125483,-8.432157456120274,-11.485957018323715,21.078935669974424,7.492714300600483,2.8601851657140984,-1.8318874412461736,8.881666398403945,-3.6089326387006118,17.482876840182207,4.348600256288531,2.8486039305402446,-0.5573810978116509,1.2115800918705446,-0.31501760380193705,2.932985365775123,0.33506209422488187,0.5229490521729546
8.911542983412355,-0.13789768531044067,-0.020747488807044023,-0.9657557813462786,3.0048132443847173,-0.20812433576603784,1.376171922947869,2.7186843541761236,-5.885386247795104,3.571200610055886,8.0143709473138,0.33340969985391933,1.2416151194966452,0.17697570180728728,0.3659500533413743,0.32457382428085924,0.2340372902664587,-0.0640857589360693,3.0434733523398965,24.444150242485012,-9.797691348814503,-36.77994824251769,-0.20240738368115618,-15.880592256368434,5.203624381459272,-1.1900293242386364,8.45219621979933,1.3663001801346955,8.079505398811301,-0.21877643678842912,-0.11469566045902779,-10.321012480925871,7.2873902531813695,9.435069848028554,3.7668078787459716,0.62489411025417,0.1622979267688745,-2.047762796288433,1.5428679241302676,0.9573008160196117,0.676421550454301,-0.5553102243597995
-3.4112348132715447,-4.71676641331249,2.584784577887162,4.0276638989399425,3.030489679164253,-0.3374348819768815,17.8038221845391,-20.34309934693485,7.259824212127594,35.30396707525916,15.356793073986763,2.118169068183687,0.8815673984972994,-0.9277587174355479,0.02534675321512421,0.6406571383925772,0.10727398732603391,-0.04750517407941618,66.92485320277095,-9.771339472559818,11.120369874203416,62.61063903532242,19.4020186534872,-43.27922561210147,6.060398987593754,-3.8057363166921974,-11.307371320089297,-14.642258566770902,-2.6457357816152993,0.4246715810503191,6.630357454161306,6.458800228699856,-8.194743927835475,4.532058178822068,-1.6599361276477453,3.3585167950478545,1.1748095955798208,0.984071686894025,-1.2638516983731853,0.22176801655068087,-0.3325483570302116,0.2984282748115786
-8.527281447521954,-0.8067585148412292,1.2393866742092094,-1.9200147927794462,-1.0589292480071204,0.33108072411027784,-33.448158309916025,-5.068918566420612,2.5735146789144,-1.8096968281970476,-8.05299492163798,-0.46803773939838916,-0.20383606115453795,-0.007628484941489192,0.1638823063629407,0.8383348686121296,-0.06808308188478975,-0.043644008851524606,-39.221781983285354,-17.858065846104157,3.832658068403609,5.841292955917072,-16.45655859126667,-51.56665622501568,6.313190826941681,8.689726756620693,-0.3336701596776903,-38.43141637728531,-10.656921810172735,-8.243723488099317,-6.114354911854188,-4.773998578894636,6.17159375406298,4.986043131001017,-2.3487522892965096,3.1280951312933327,-1.1579650223632934,-0.47932963499417336,0.7755370566891494,0.22887966525651576,-0.4089798737141721,0.1918744040681134
-3.9840449492706824,0.7512876837851848,-0.965524422345487,-1.6463327156700787,-1.0753394111086285,-0.07515331208618475,6.898007752692457,-7.964355553436523,2.9690943148543356,2.36456431782227,-12.871656733738591,-6.146043540182249,-0.1668621693889362,-0.15896318050035918,-0.1593843728320053,0.4257859747945245,-0.00022945494245648655,-0.007469844217178313,10.147003689183705,-28.04264432981641,5.133184213812254,31.485985989168192,41.950844182217146,-30.21610706905172,1.6924259990164865,1.9135015530809478,-2.1663087896776156,-20.282173708796304,-2.320429394820998,-9.476074533224551,2.052389576082131,1.1169833230716149,-2.1442476815821756,-0.482687494488308,3.86387070995746,-1.115619787597599,0.5613281009287246,0.17378222709734786,-0.4977707401180029,-0.25501511018628237,0.9361245108608417,-0.3073597507935209
-10.6470653465069,2.4604734764472607,-3.184620631329689,2.9398725371555527,1.9113072190897253,-0.09379229742731734,-30.77694462641034,6.783601634837654,-11.27095163799523,30.69637557561504,5.903575644704633,-0.4593203770552862,0.07573467347607007,0.16015549605354218,-0.021895965324830527,0.7900878522997297,0.24077133865973138,0.018920997482688565,-0.9656398745630927,12.186114647261773,-20.747173951916412,-0.6577940745927526,25.47701521766712,-42.77779596450072,8.753220826654504,10.656146691236595,-5.203370257454929,-3.71917394533095,-1.5853863540211366,-8.627511592200285,0.5193552512036261,0.31580286830908577,-0.1476453070069307,-2.995563082816435,4.3556957918136465,-2.1059141670868824,0.10942328592971262,0.3096950553949801,-0.23908446146238893,-0.6772599074137016,0.705541035053283,-0.3199268149070628
-6.462355505713664,1.2129350663827552,-1.3406621011568904,3.3964309979798446,3.7156402340286774,0.09953465289232588,-6.477913257172099,2.401243623395877,0.43415049351484714,24.065470586325528,16.133661781145854,3.2053474716550165,-0.06728549517144203,0.12651644490521755,-0.13005351909787133,0.5560877840947456,0.21707371331329034,0.22397369640990705,17.324588042864622,25.16692390220984,1.3078974296852741,33.59269842613229,22.2635960069788,-10.306610925389258,4.360125122004863,3.6483147987344235,-2.2695236285177196,8.988461241135699,-1.5934266101483794,-0.2376749967054193,0.2333619216352895,-0.49013100487096617,0.3190876656185646,3.141165101191032,0.08538947913802791,0.9868330133530198,0.12074458587995854,-0.0549435268572076,0.009862964585965051,0.4097101395850529,-0.3659471839434837,0.16711927868714
-10.231578856827232,-3.2372063731479312,1.8782926424591506,-0.7741805589123785,-2.4456216933461974,-0.21593867645488268,-32.69308116374365,-16.325456296188438,-0.28944198513295727,15.981749784930457,-6.4416329509441805,-3.3503536373445715,-0.2836112426873362,-0.3701992424720155,0.12324712422015584,0.7630182461356289,-0.10807070285249991,-0.1961870118213561,-22.436616695096106,-18.36707535595198,-9.053243849942065,43.99260093977158,46.981072112914674,-9.752274997699768,5.263386053859511,4.3813911292741015,-1.2400716970472023,14.860721519591545,0.47501306064110255,0.5423629929572321,2.5123830966574863,-1.4296094103422101,0.15185395634654272,3.281411319722871,0.9998429538380365,0.2765203003271781,0.2820428147002616,-0.10416397705148885,-0.08281692253612871,0.5999708900754328,0.07930279856811259,-0.014767649215593164
-12.230728035955527,-1.9565818042462682,0.019834440492476825,0.08831760457979168,-1.8773269321487962,-0.17250338122611605,-41.36474168821032,-16.274792930497057,-7.882821327113508,11.612227208358965,-12.60382434412546,-6.166482632571437,-0.02160465408878101,-0.10986868274126574,0.05055649589132011,0.5997172686153468,0.0055214593812965415,-0.07249106175828515,-36.976583264989735,-34.9170823663711,-22.461393328090637,26.081720161220435,14.362846703115581,3.187242192560864,6.185161005089399,3.025114130430147,-2.0323864476165627,13.751167360336726,1.7814765427297112,2.7753650822724514,1.2514541867374849,-1.1728710497446144,0.7558546576961881,4.071849201706299,0.7556254632919914,1.414324609729164,0.1861084611844917,-0.22208216549603793,0.21066376912547882,0.5528103025583274,-0.09032534018133155,0.2635711723194345
-6.325852146740366,1.9019027401476616,-2.4761212086612105,1.2521503528741793,3.5582173892191578,-0.1756845300648802,-9.578962412529568,3.006721826183505,-2.5278253364650336,18.633595342573106,21.93829712160894,5.151393461969392,-0.10520748630223646,0.21468156380830075,-0.24297449465159143,0.4838623476961367,0.12355092212015091,0.0008550489547916932,9.3208008593861,34.94219986875467,0.8234331818315751,77.81128207730204,29.884514375271262,-0.07611977594156297,-3.033222466527966,4.946097382786619,3.649491497256271,10.659062696464591,1.544372852494406,-1.4710363720904487,6.315026896434232,-0.8041262164763843,-2.016759441765316,2.073654606139639,3.3206827243959323,-0.7013392096318488,0.6573441225765803,-0.08880410351636696,-0.31630667268480134,0.19773051989820187,0.4235943026500442,-0.12168982146005757
-9.139123701499846,2.672194429645076,-3.1172650845594077,-1.1847085239084525,3.1119329032418697,0.5657598197404898,2.4202187707854224,3.0582139871176794,-0.47939007802936895,15.43628187444264,9.624193173715117,3.76304143136285,-0.08873303179612738,0.26416361893060153,-0.16233918977493378,0.38191380864427826,0.14948647013534339,0.2732703450217202,18.766615910953373,18.89602227488307,6.224629646246647,40.34013449961349,14.883134197369642,9.809826474070698,8.8851618225767,4.16174869652322,1.4302968170179333,6.123590966194536,-1.2403132897441969,-1.1348073923233992,3.328592431946325,-3.6346812981313446,3.700709720766143,0.4729328780362139,0.7817481689039486,-0.0533879663939733,0.6715940196455252,-0.7313567882745918,1.1124449970527834,0.07659674841376998,-0.1250163154003168,0.09023900667613481
-4.08224834761823,-3.7813815121762153,3.285487047068261,0.8825706496715335,0.8872699224159858,-0.23165329759963205,3.0644593389680135,-18.58620488589925,4.281141475351227,12.142099339548473,5.701521974128058,1.2406415785577536,0.1449102603305192,-0.2846218462523957,0.19411663225631387,0.9685610496793237,-0.0040558950157544476,-0.24609558967661987,22.773437588444867,-14.026022298495311,7.27637234334496,63.57344869841691,28.159325100985416,-9.239782516865596,-0.7042052767918487,3.7453040497632104,0.4742172644787459,7.4769223060658545,-1.218663002503129,-1.1215218926704549,0.6069272910073021,-0.5993640385693602,-0.7744899376910822,0.007607723584669665,0.6981561416257103,-0.37615772202915715,-0.09929584776530138,0.19319993942796804,-0.5509056021102454,-0.29434432283027934,-0.10874223486451325,-0.0954367660865281
-10.734729989746603,-4.361880995682449,3.2898072008603774,1.706187479975438,-0.9889925808069528,0.031228565597800528,-16.465007569560914,-14.77092802928648,3.2483569535979835,21.333992198553414,-7.311506291295773,-2.8700578785450555,-0.6630572956882493,-0.7380287885414899,0.13703205716497313,0.7563516412013632,0.018480373810071185,0.08660018856124381,7.199663744603185,-24.348694405228752,-1.1389454755004778,55.805902686394916,8.307701707358685,6.368360251315434,2.6017884549747294,3.0851273064095444,1.7336238135848132,5.722229626213102,3.129637771030231,1.7689522463999923,1.4922905899948327,-1.7031703382715304,1.9402830008334697,-0.5379333318933576,0.9686340478134572,-0.37547662001839427,0.1202487834018002,-0.44064583163919624,0.783116706879401,-0.02242558423172256,0.2758503372235452,-0.03698491780165239
-4.301401830347101,1.843297715604873,-1.8444862212030788,2.4994583433168005,2.3626485487936018,-0.09110860643560811,-2.5820955703745745,6.372808558446362,-2.5320566347777915,18.206078960808238,13.501631285121777,4.0047752391254425,0.23041241481880334,0.25526655293227035,-0.022320826087739915,0.8305856360189325,0.07484124605585826,-0.04441957257893876,22.97176001736551,27.566451557783463,2.1495344587453737,50.96949699898327,11.525410112295832,5.678891749484583,5.3921457757405875,2.3339606746684787,-2.201888734568817,2.306198186863077,-0.5362445054057386,-1.0054406094737,2.2749796333200747,-0.22679105367556246,-0.9778211990670514,-1.4838313911580099,0.2677110821679623,-0.6786895866515182,0.3950506443154927,0.10236265182208591,-0.36834943353200317,-0.4686070958958654,-0.04587777666708673,-0.13466996744130133
-8.790038038892368,2.6865538041206856,-2.919902372583393,2.3913991111179773,-0.44838903689924187,0.021948620284183564,-12.947220619748808,1.2069687318934565,-2.137963469699109,24.26161407025759,-7.632331773868721,-2.303808721401986,0.07246576145952156,0.12093176737433715,-0.18703817394454325,0.4120979047681377,-0.03803328248096763,0.018332498112278064,10.247786907807821,-8.796600011638814,-7.196946350140209,54.433190514438905,3.2984305859148773,-13.1919806243593,1.144954491635597,1.647236043839003,0.08702104909776617,1.2689636532267203,-0.6024676030241153,-1.153983230914246,2.0038628733542145,0.14170750405001548,-0.4112870830625236,3.233529808791028,1.4852371622088634,0.7213376843775336,0.3181992716543358,-0.052361494033664024,0.09487160974143435,0.39649085779978277,0.20896067753271497,0.05021601111560923
-4.113164305535056,-2.686115703671219,2.069649655870257,0.2792250239583518,1.5466145211724172,-0.14130477521408424,7.911777375649375,-11.281343274638385,4.989847267953181,18.650275943409333,6.087821829823262,0.27116505284358294,0.13863285568289224,-0.3361581966968999,0.1444739959767776,0.8763675666760313,0.11574150073023849,-0.13235496954895912,33.23968501252979,-1.044822342169969,7.15641535395461,-3.0828329154561014,21.598010833215707,3.6256810153606764,4.803915870567882,1.6202125161049588,-1.4522664888048653,4.46667124053092,2.7307836063688504,3.7502725043807708,3.0579827010356264,-0.6462984904512787,-1.1145945998343423,5.121964585142914,0.18277529115959656,1.8267409183012924,0.31088511976610905,-0.06332481516434725,-0.26418199269293,0.9251189903177437,0.05856482532518053,0.16731799858670388
-9.204243741104298,-4.3969342828942,2.8200901518584303,-0.9617623896430297,0.14002389230184054,0.18208519016370442,-5.645187788469148,-21.056456786024594,2.0601577854786095,12.267928818710525,-2.036653335791982,-1.2083697185125877,-0.2595963459990024,-0.22162169004020627,0.040769508486703215,-0.02399158554498451,0.026282200208304518,0.14309919859884038,5.433693091162306,-21.353388133518983,3.1758000915750775,38.25578282092224,0.5924793458845335,-8.56363182651832,6.126740301159781,2.7889124107855467,-1.6162251748477583,3.5324029745652332,-0.15677552395649602,0.02159418678897038,1.3785803123683915,-0.2305080180751288,-0.17800077057586627,3.265508366500521,1.402590897962439,1.068531678923161,0.058458465955018746,0.09197048047676828,-0.09162266633359739,0.49809120782562394,0.13714555182260585,0.20477751421703339
-7.8789018884781825,-0.21310622903621115,-0.3250431591687147,2.6862109873796522,0.04706670295495885,-0.47375977978148764,-16.8378822674911,-3.9159499899109145,-0.758191493525264,22.180844759123993,0.5731597289368099,-2.5473055895150227,-0.26117713052465946,-0.10135999402215667,0.032503924742709744,1.1482215410807457,-0.032557626382653373,-0.20348042603254163,10.307478217589267,-6.186639236015068,-7.369570476605893,53.063745345575,4.6922353152832015,-1.570594781467809,5.443547689645377,3.056506278845822,0.5661112947409701,0.6178678530825004,-1.0656993325906483,-0.30918333797970776,0.44737196230119597,-1.8472690478806841,1.4109405269807773,1.4400210905870074,0.27553230660070677,0.4426181555285846,0.0873467304778083,-0.2684344539265781,0.13177233659376442,-0.03146928907817815,-0.007474631196053225,-0.04835121504609334
-8.071530272710268,-0.6735618332118678,-0.44585289067638617,-1.0379282093237074,0.42864432134876707,0.09458556762501245,-6.746591560855407,-9.630009928723902,-0.24310113338906386,10.716405493148027,1.9070929140215291,-0.02002462495881411,0.14020586098190804,-0.052787977413262736,-0.07643495718503238,0.1476573952334777,0.02333329814337345,0.07081276044566667,1.3904641900386738,-5.420269398956648,1.3756392623825695,51.503501833170425,22.445881649610538,4.981441280923748,8.480637930877082,5.201862193445872,2.4024803531285843,3.8918272122251865,1.9219921728817102,1.1347982730024975,8.131524455154034,-2.3323046767405033,0.657799812262318,-0.5188087044262224,0.03676161919288673,-0.24292435771126308,1.081975690882577,-0.23902603891829238,0.21260406370558355,-0.225611902551383,-0.13883453612280036,-0.016113267081879823
-4.692470135885714,0.6949766152342203,-1.1398125683083313,2.781190443055542,1.0001475480659947,-0.1716402959387995,-1.6315845527290502,-6.055807280365774,-0.25364435088040704,12.808650305477427,5.535116683133124,1.8657265371327607,-0.1134074807688014,0.12240670689970255,-0.1580059886414967,0.6762791693292683,-0.04336025840540833,-0.1216776266068186,11.987562078537755,-1.3444671080464308,1.341391335048293,39.24904435043027,-13.8154406560388,-7.401858941324057,-0.45644316007409413,2.1866869717607895,-0.1035682388014303,11.345393500304041,2.539208133640632,0.4509777336742536,-3.4447315850513323,-0.41527121138668277,0.29989323522514993,1.9793890090990214,2.939976975818,-0.7654542271388869,-0.5290362626434063,-0.060533533158378734,-0.17818914673995856,0.26745042548626646,0.4317889578415603,-0.14456658043697054
-9.25777519411017,-2.2114888106122312,0.624135351322349,-1.4588992781248558,1.6171577858743633,-0.23302159405623993,-8.882098521976092,-12.928880730609308,-0.2502159197847936,10.877656838489342,2.4834389531697973,-3.0113568597601925,0.05084914435720352,-0.3013999210158692,0.14199762505779093,0.5220247075205582,0.2173830235985344,0.005534337286133863,1.905234500221662,-10.266624551967881,-3.355247311107575,59.28171397239057,16.562859401142692,-5.151944086117138,6.548458878202396,2.9243743356312057,0.7275153076320878,7.412766325600361,-1.688675696724373,-1.206497078121361,2.8704721479855713,-0.9707001772451511,0.4274098690611471,1.3971782124265277,2.019707663418233,-0.7222480012431327,-0.452235685714605,0.2832726752560676,-0.06767000545120604,0.40354827751760347,0.17587280189992047,0.0015755188227817784
-6.138104310348206,1.3812208058700564,-1.273252557656408,2.235574629251225,1.5008251992324628,0.2725590735668225,-12.425302578712099,4.5446258847882985,0.11697096284153125,10.393195627410883,3.965948748080705,2.420378350524951,-0.7204902709499247,0.14660038931059555,-0.10346503866434223,1.1688473728324287,0.13244200896025968,0.1903643290159375,-7.238446223645928,10.756353962548069,4.980635603799821,38.53997040912998,22.119772749367367,-5.862936519421749,7.395783229701902,-0.014274690925152642,-4.079766956469905,5.1010378706863415,-0.3856005539128003,-1.6497519644558898,-2.3548152001929012,1.481470722772234,-0.2597843931025813,1.6204780562069674,2.9864194537838387,-0.9984675551902822,0.17281646291739589,-0.13609163305109032,0.2696221900507538,-0.09227347929305119,0.3301114979525353,-0.2007428582251364
-8.25352136128445,-2.9161920002844632,1.5809090150184377,-1.7252061178301894,-1.0580191284619505,0.12629408430641437,-10.97480956841227,-16.66016066640288,1.9513788173475457,1.6090236904755122,-5.2787184098521776,-1.1153280453234282,-0.04094589150004076,-0.2845687049569029,0.02795865858963846,0.5404520725316276,-0.005358612652269223,-0.05323028580837422,-16.502800967125037,-24.537559146464027,3.5480520118512486,40.14952233198156,24.391417828753163,12.24639355220109,-2.7487555996002997,1.2812335175158518,1.5987163749365862,8.669499823991826,3.4112527536794146,1.9016582450541353,3.161962043961752,-0.6639705535481877,-0.642891760321049,4.131166686708938,2.360545546096745,0.7914575137259735,0.35334574152439485,-0.187727667496925,-0.13352444086222348,0.7363108350179832,0.5155733455733881,0.05409159021594374
-5.006121262007057,-0.4967517420423724,-0.2580260594494464,-0.4029408229553157,1.4246924654934923,0.1962114903433188,0.6777011919074871,-8.92666258670727,-0.42158654706480286,12.97665249680183,-1.6519845525804344,-0.5045035212234948,0.03972555017617491,-0.08267082893140319,0.041718588590809624,0.3473087886162801,0.15241747159133423,0.13127083950188495,21.211537324892802,-12.763671521550865,-0.34094892825735434,37.540820820994924,14.328579308665608,-21.02875439279759,18.63366037609105,-1.8623469144887839,-9.994888618633057,5.106847658546121,0.019550933470194314,0.5873922213805313,3.111595781200582,3.6809751929051604,-3.6696164799264244,3.1971995273889617,1.1031070620031083,0.6105163369869467,0.6729606108706582,0.49678829681777703,-0.5512098421469075,0.5324873867150022,0.0024625501885491233,0.13198672931548627
-8.478880612730094,-2.3289450510202836,1.5756404813928588,0.7875551210221376,1.1042170606275827,-0.10429123419650983,-32.46888142591704,-13.909822666814621,-2.022797438179587,0.8211049758811214,4.493504133946454,0.7573981600552335,-0.09661814623150664,-0.12234284338492696,0.12461929618471855,0.9468542624172651,-0.018985655736180974,-0.0919776122865386,-46.80392075703545,-16.543077686488196,-3.2282665167454803,63.71098215395932,29.599852695036514,16.999703000010122,-3.4282458477899413,1.5543769799493556,1.3872617971035415,3.469835042480314,-3.414058710784116,-1.0564480453681793,5.578629615546912,0.42101957672800083,-1.6060540678503428,-1.4045312734607887,0.9362089082286328,-0.8441154367342005,0.15288356315076593,0.3722558180841124,-0.30987362580531225,-0.49782804060409425,-0.12211324225400168,-0.002943103348649527
-3.577524460802976,3.009681038140692,-2.993657138772746,-0.24009399332663506,1.542070123891193,-0.03072472523615872,-9.711769980964092,7.008541650268933,-5.560640711424982,15.997572723562117,2.2384364246515647,-0.9767996558311255,0.5604758197197348,0.16779210277224013,0.018966843992631762,0.46204228835272404,0.15109988361802923,0.09054983662535764,4.891580698098975,13.619793833674402,-10.798456010640695,36.50500880911137,-9.809661462248792,-11.034365919434089,2.2620018693557506,0.36771711162691756,1.0711926564268095,1.7832803369834362,-3.4715738208231186,-1.1442957090561738,1.4414820330460443,-1.5148470959568916,0.7951156128857374,2.374227344781724,1.3368737002908966,0.1348579114585797,0.7771497460348736,-0.7742635994797509,0.2933833415532057,0.5277099971963781,0.22205903369085858,0.033579314327550076
-9.502758696361346,-0.33158574119428197,-0.4538591225544619,-1.3733513744317098,-0.027447561758947928,0.4411519456049305,-25.646716613209318,-8.045493707543134,-2.6494742103248354,-1.2212064882952134,-4.954813028131573,1.0041909021180446,-0.37963416699027996,-0.13234062626322085,-0.09045664950392322,0.7623221969717987,0.09222877801370959,0.04553701425392572,-33.36718309281557,-13.154381512519619,0.7067484892389655,49.41845023495339,25.729856977910735,19.631348092970946,1.732551504120038,0.47936623040173293,2.1154891120357426,6.99993058741561,6.286216476497897,1.381568893024625,1.1688975552550762,-1.8538730480954895,0.839545045749571,-2.359162270451283,1.056862446474464,-1.9808669556775704,-0.41983438058193284,0.018864011463152384,0.07481348823766626,-0.6588992860254768,0.25363441355166694,-0.484460894581858
-4.948135094321408,0.5461581036488025,-0.7997786751591155,1.7728325027541756,-1.7486553039492325,-0.15321252815243527,-3.2081846627534776,3.779272454296121,-1.9581903514136658,18.60570301149018,-8.323568464487726,-2.330785714613029,0.4030583283144816,-0.019451798488248413,0.07548605984228152,0.3841251972759158,-0.04343506448388829,-0.06710686543740117,18.88773220833858,-5.7680064685961305,-6.07390678406043,62.43618196507705,21.256477944675538,13.001580650688354,0.17274251930957046,0.8146525729822558,2.2775720064510576,5.306140111718399,-0.6547106160616807,-0.4933899305999979,4.328726654827258,-2.243350037012804,-0.27407761492373633,1.5945231680333931,2.546433798596743,-0.6160202759754744,0.2726466015253499,0.01655326070390059,-0.22597104877642724,0.2352256271362261,0.5227860762710397,-0.15802013115808364
-6.646895399128177,0.07917375467333203,-0.5202425787287364,1.3937413605994093,1.665290162581984,0.11531293775969956,-20.14916947118023,-5.710283454640444,-2.063138272007997,11.080253994309357,3.6643316355297535,0.9860687347089113,-0.41749472833209844,-0.11343305980800973,-0.1278708362340431,0.8204703337185243,0.18109796578805784,0.12821503858779743,-13.789304784462898,3.3385067213778865,-3.277156352444919,24.985195410870272,5.690594402614751,-0.23713216383693442,-1.814909265189895,-1.8308089477849503,-2.96378550423206,5.493718606386419,0.10044326475591855,0.5531310508304813,-2.2601496731072444,3.516842138535034,-0.37292812629860095,2.4067778523783985,1.6277070586598927,0.1707079244760636,-0.9911029555625296,0.8220724922828551,0.3101939189028434,0.4044438027081913,0.2172473527145331,0.03172004711100673
-13.419813060297102,-0.18822350397237494,-0.5083408787336136,1.1798283376248522,1.284396045743651,-0.09552063551248845,-21.225732916353454,-4.6640066857614055,-1.8162308893192334,19.36715064936125,0.053811640997035615,-0.16306731613973982,-0.43913495088354904,-0.027421104539489594,-0.16548481479674643,0.5121917815258,-0.06562087994730449,-0.10187739823388241,5.990005464629284,-10.86969301254244,-5.368783611556303,89.70412072359196,12.654758614419631,19.539955654755598,5.595341700362703,7.679039106246972,5.1995563675421375,4.800248846448422,-1.517398737914345,-1.0920181621569047,4.462404066469594,-3.2203298068818973,0.3622699856338967,1.1030728186679128,2.608850040336953,-0.7721486974954043,0.7441208297257103,-0.5278102227859108,-0.10413250022459793,0.1281155345928529,0.3009795824670724,-0.031921338740627594
-3.0521802960446713,-1.1867557920578085,0.6191914368585199,0.11039561536548484,-2.134976271289048,-0.243810806260139,-17.811412752600422,-8.806858188063785,0.5914240550670025,8.220185422677142,-13.239527939141137,-5.908478373741194,0.5177604248283179,-0.3405978119802122,0.013317393153389156,0.46297083275647377,-0.05710532776246725,-0.026940302898333282,-21.24836158524805,-28.972004777698125,-8.219018927879567,8.994727983848378,28.124087474726224,-33.45214035791872,3.6978241796140914,-5.490700799340128,-6.216250032757076,-1.7841318524248386,-4.9507391688970195,-2.085948599566764,-2.8763956003116324,3.2179113748572816,-1.2118693888158623,2.985014485435554,1.0507401173092341,0.9928776847966497,-0.2521375469239583,0.31779393670081285,-0.04643795717744788,0.354952102877424,-0.19471936360488007,0.3070450859215199
-4.206262956700133,-1.6388104948848754,0.5867660490361204,3.5365293070348494,3.671065282705824,0.029274933554860775,-1.8458878840151574,-22.24234050424921,1.8412580040713153,14.513656752979585,9.705032945117045,3.659503929928628,0.35449134641218527,-0.08490064330887447,0.024539911364318788,1.2718351620926693,0.2831323897933888,0.01613230849836864,16.436467083131006,-22.24425085058481,7.874385336672866,63.76783701106531,11.452316381635343,8.295841165119718,1.2989191551825943,1.4152045513564995,-1.2270597677766595,4.429659675943993,0.6982594168076217,1.4153801852817791,5.828183582623321,0.35629934181748885,-2.2551461686085386,0.6760682356444876,0.13220397985846466,-0.09117652968218926,1.0177920474130602,0.175596650815058,-0.5310969842115384,0.08489510688796054,0.2588612410243934,-0.21204820093899718
-6.798538057502436,-0.8081739794874194,0.20720147671673356,-1.4271321591630481,-1.9697821646799056,0.017159408558176097,-20.749300492577326,-7.097136461820324,0.5200370129793804,-2.671694089271552,-12.190086066160482,-3.8632629770637545,0.18911820681111768,-0.286359141053731,-0.09426899683192211,0.6455804548670088,-0.18983469041006332,-0.14592950531110446,-31.37914117753937,-23.613870690091982,-3.1640888946563424,29.020464191748687,16.6314798099945,-7.332774453810083,5.225644740089888,-1.2106554352155936,-1.0936379721674458,2.1854653311191057,-3.209372518809959,-1.0243487855062499,2.731770637577488,-0.0891257551811237,-0.3986162633839053,-0.07494254426502492,0.9816213223104858,-0.3544331563350466,0.1777091466860636,0.19721166285038164,-0.07167154315755092,-0.03183923411977764,-0.01248188330107052,0.054116756752393066
-4.11816115210109,-3.7401084674309297,1.7689070437210859,-3.632762190989652,1.801730039645379,0.3444203531985518,-1.1655090654072366,-11.575601987942655,3.288705582796733,11.678204639301388,7.669418292374557,0.25931468046510864,0.45604356703930776,-0.4821295558079026,0.06734577997995331,0.18741774426701574,0.1260024650062512,0.07369987003609883,18.77065803907343,-3.413985373217539,7.328984183485476,15.741375520501188,-16.143616597398864,14.59248049465577,8.234667495309093,1.026183581554748,4.999062098869803,4.846925370948147,1.1541176843310066,1.2663017580160394,4.062710125170053,-5.258323242841306,2.9376948262340075,-0.46198541204866206,0.3517275311037741,-0.42657989311951006,0.40504004741644906,-0.911828410981874,0.5062194911463751,-0.15896479116760004,0.07999413689900765,-0.12580442251899585
-6.584499432902347,1.037020813055816,-0.2442005548961332,2.3831606712755256,-0.8568601801289237,-0.18661818253256207,-26.55502606555154,-2.416435804673279,1.5374493549179253,17.195542203446568,-8.735822445445544,-2.8649912662407235,0.44778546825545973,-0.1998219660505796,0.008176556704330339,0.6656245349830158,-0.09125516291162797,-0.0637895903089736,-12.902189730004427,-19.46721776351595,-5.277133153836508,39.34566449901629,11.748833880202891,-2.827738601307802,7.257228279234265,-0.048559236347309576,-2.131222215633416,2.5951581089044717,-3.373623807547094,-0.5659843121851985,2.10766104905628,0.7344227787634704,-1.3239706378819873,1.4426226002435112,0.7588667967467412,0.3577554612768738,0.4350048050578832,0.45912150419546527,-0.46230196722710803,0.01909854963582506,-0.1292349744797529,0.10599475375614027
-2.1797001338154147,-3.019842474414437,0.8314398750837841,2.30468393531358,3.9896354325289876,-0.08360983786079575,-3.077453105727737,-13.925014708807145,0.7434696329041854,10.827004311385158,15.966211765738572,4.804813797491328,0.4657410653925304,-0.35522780590845027,-0.09092996576580327,0.8105184627225388,0.12107012779618335,-0.004694627997389391,7.390667003050126,4.719028856072305,14.25354728244545,30.698078982126926,-10.344898046927451,6.6341086894894605,7.547594030866779,2.2482448491218747,-0.9640400667675763,7.411324118723326,0.6222233403273679,2.2295435507562393,3.71804647415322,0.3526341003651857,-1.2307308004225963,5.410148161075157,1.9622808581430111,1.8815552151965924,0.5651544384425043,0.4160027040461316,-0.3321524996589054,0.9592061983601514,0.42889583681021176,0.36187564885922796
-2.8811756657519987,0.2324801237845252,-0.004887937284238322,1.7536448163488663,0.5521463437692311,-0.21028716320111102,-6.259908532526131,-0.9629877719431383,0.11351312339371068,31.153721971016573,2.1985837084797333,-1.2431513776732328,0.6053939075148578,-0.2430989402783531,0.11846334528767585,0.6415219845341253,0.10196087191761206,-0.06015162044285417,34.62876835792892,5.4221024692417945,-3.984452254947016,10.747177117691741,-7.293129132274645,-4.981972693213888,7.217069922892886,-0.5042285218418999,-3.914999608791149,2.9821995836400035,-0.24336231942310735,0.618671250721683,-2.560281895281137,4.103622774922635,-1.3953151345272907,1.7878428563588642,0.6098982087204905,0.5339314265613815,-1.153179846470406,1.372585050676947,-0.30590543173993834,0.33906953410987106,0.0819720692733879,0.12268449070376763
-3.559537787359573,1.8477951724198478,-0.5440978352368842,1.2041849675815506,4.515906352850358,0.5468257536691434,-9.510599798981826,1.8610277277009986,0.24273961011218828,29.675166887181597,7.721706684431796,1.6741876280509043,0.41945061764660796,-0.211011210805008,-0.036171579592480525,0.08303710987778866,0.11196839132666321,0.32841821146097694,27.081076629895385,7.975663206527672,1.2562938579052478,31.809710451637343,-4.292629010917594,9.902031304800605,4.089147363136503,1.6066940740468776,1.9521757204350432,7.716414115990046,2.120820479393777,1.2085591052137394,3.187530767107548,-3.063192464017992,0.5322802633988644,-0.24604330290448428,1.2808809627726154,-1.083030570264663,0.6852158587125692,-0.9363786857951439,0.11461118148384308,0.10764540737579634,0.2964794482166014,-0.1913448170082341
-1.649593564838346,-2.562791224779221,0.7967963775865103,0.6883236510453887,-0.0044390546085189,-0.4023085866734592,0.2928395484774685,-7.116564104707695,1.9217734900561625,15.459845270159319,4.2182828846038545,-1.194897362862066,0.5610613397579385,-0.3850472600437201,-0.03590877131867845,0.9337287975504561,-0.04232995505440017,-0.2572113246500769,22.332186836862927,-5.5276032477529835,3.205274399458094,1.4100958454933936,-5.369778153469124,-5.943184272891448,8.768087698814792,-0.47648552244640363,1.7072423104293164,4.398371915305861,-1.4998453441664077,-0.17854477550420914,-0.21801140956351517,-3.478230342691926,1.6632805491514269,0.7164331523743814,1.3551678308272885,-0.31223066939376243,0.03109355774025048,-0.8059740315276853,0.19817075027999775,-0.12527729004734875,0.039673816417499216,-0.05619904598892829
-3.3127460604088093,1.4600141285006634,-0.48977630933439303,3.2399527413909546,2.1543676455989735,0.04596209769027324,-12.06359110492808,7.278466636026047,-2.956721031999192,26.619372958039914,3.7215646832084284,-0.36506750948387706,0.35163009111275145,-0.19565651072238988,0.02963001769152182,0.9091300409301462,0.23370940038507143,0.1579909869109067,16.226121909023387,14.825786691906364,-6.572021717100695,22.883444477980092,-2.9988142254068215,1.6138872401345827,-1.0644282015876516,3.1862472585611767,-2.635030288619419,3.423589586271887,-1.069095630676669,-0.18704910085426196,-0.6742134619870648,4.909155940186476,-1.8109426911013238,0.5751470534125854,1.0434925379001392,-0.4972927750429591,-0.2795306657562674,1.3979484974364966,-0.12451691782099633,0.1518941602015537,0.24043807441767406,-0.12871947525408212
-0.9366009121916987,0.6432921946876907,0.05704466412841627,-1.1782952928036128,2.2455699155886815,0.158771454255493,-2.2453400368140306,1.172008291765605,0.8315960547221175,19.225770466227136,8.202909185796496,1.7259842189749088,0.6746753385070366,-0.10053399637711012,0.09858194619856112,0.057611283617988,0.0719154538697736,-0.1542682290737464,30.54688629911128,10.881855993642493,4.712174100513731,12.434082577933673,-8.657340529514936,-4.376017279761627,13.050935856986008,-3.737456876043784,-3.2764802017267094,6.089139017928109,0.4004854732516102,2.511088232222812,-2.387928709657502,-0.05506203682160782,0.8861803263288867,0.3860923702805734,-0.9145545057037221,0.7025088335791392,-0.05124953829347814,-0.6646528916012141,0.3357266312306541,-0.07941448958338897,-0.32686647470567254,0.1448124324195675
-1.9561767820196838,1.615655220996713,-0.7753080869373636,-7.251972155095329,0.9465191010354503,0.8891191179294905,-15.357755305768794,0.35213870863407726,-2.5789838348568273,0.5547549332816715,4.440231434986822,1.5455660879922088,0.7022209141797767,-0.3511582869293837,-0.08803846603307004,-0.055834046165670566,-0.10223542910083046,-0.09262289965898915,-23.122309318608767,-0.16794736141191002,-1.684213321044648,22.525651140073833,-21.71465953626198,13.849388882526934,-0.2938300477545811,2.7717813292458033,4.311609975925351,1.9818454993883658,1.6896717244161652,1.699526593034414,3.1335130418964567,-3.948690875448532,0.9327861954343698,0.519471368970823,-0.7634283404888579,0.476747525203521,0.8089146242120441,-0.7049257311890298,-0.003322655348312678,0.14212416942866948,0.011432997762601108,-0.008051156491933838
-0.09868,2.30443,-0.11852,-1.03709,1.80678,0.2332,2.84848,9.72664,1.17071,13.1947,7.39813,-0.03234,0.67606,-0.16551,0.17174,0.58913,0.27569,0.21064,30.30406,19.9399,3.26511,-5.97103,0.94784,-20.81482,6.61651,0.98178,-6.16517,5.85496,-1.92691,-1.80977,-4.36801,6.37844,-2.13015,3.49527,4.31095,-0.32334,-1.47215,2.07334,-0.60057,0.44471,0.52256,0.04829
,,,,,,,,,,,,,,,,,,,,,,,,,,,,,,,,,,,,,,,,,
,,,,,,,,,,,,,,,,,,,,,,,,,,,,,,,,,,,,,,,,,
,,,,,,,,,,,,,,,,,,,,,,,,,,,,,,,,,,,,,,,,,
,,,,,,,,,,,,,,,,,,,,,,,,,,,,,,,,,,,,,,,,,
,,,,,,,,,,,,,,,,,,,,,,,,,,,,,,,,,,,,,,,,,
,,,,,,,,,,,,,,,,,,,,,,,,,,,,,,,,,,,,,,,,,
,,,,,,,,,,,,,,,,,,,,,,,,,,,,,,,,,,,,,,,,,
,,,,,,,,,,,,,,,,,,,,,,,,,,,,,,,,,,,,,,,,,
,,,,,,,,,,,,,,,,,,,,,,,,,,,,,,,,,,,,,,,,,
,,,,,,,,,,,,,,,,,,,,,,,,,,,,,,,,,,,,,,,,,
,,,,,,,,,,,,,,,,,,,,,,,,,,,,,,,,,,,,,,,,,
,,,,,,,,,,,,,,,,,,,,,,,,,,,,,,,,,,,,,,,,,
,,,,,,,,,,,,,,,,,,,,,,,,,,,,,,,,,,,,,,,,,
,,,,,,,,,,,,,,,,,,,,,,,,,,,,,,,,,,,,,,,,,
,,,,,,,,,,,,,,,,,,,,,,,,,,,,,,,,,,,,,,,,,
,,,,,,,,,,,,,,,,,,,,,,,,,,,,,,,,,,,,,,,,,
,,,,,,,,,,,,,,,,,,,,,,,,,,,,,,,,,,,,,,,,,
,,,,,,,,,,,,,,,,,,,,,,,,,,,,,,,,,,,,,,,,,
,,,,,,,,,,,,,,,,,,,,,,,,,,,,,,,,,,,,,,,,,
,,,,,,,,,,,,,,,,,,,,,,,,,,,,,,,,,,,,,,,,,
,,,,,,,,,,,,,,,,,,,,,,,,,,,,,,,,,,,,,,,,,
,,,,,,,,,,,,,,,,,,,,,,,,,,,,,,,,,,,,,,,,,
,,,,,,,,,,,,,,,,,,,,,,,,,,,,,,,,,,,,,,,,,
,,,,,,,,,,,,,,,,,,,,,,,,,,,,,,,,,,,,,,,,,
,,,,,,,,,,,,,,,,,,,,,,,,,,,,,,,,,,,,,,,,,
,,,,,,,,,,,,,,,,,,,,,,,,,,,,,,,,,,,,,,,,,
,,,,,,,,,,,,,,,,,,,,,,,,,,,,,,,,,,,,,,,,,
,,,,,,,,,,,,,,,,,,,,,,,,,,,,,,,,,,,,,,,,,
,,,,,,,,,,,,,,,,,,,,,,,,,,,,,,,,,,,,,,,,,
,,,,,,,,,,,,,,,,,,,,,,,,,,,,,,,,,,,,,,,,,
,,,,,,,,,,,,,,,,,,,,,,,,,,,,,,,,,,,,,,,,,
,,,,,,,,,,,,,,,,,,,,,,,,,,,,,,,,,,,,,,,,,
,,,,,,,,,,,,,,,,,,,,,,,,,,,,,,,,,,,,,,,,,
,,,,,,,,,,,,,,,,,,,,,,,,,,,,,,,,,,,,,,,,,
,,,,,,,,,,,,,,,,,,,,,,,,,,,,,,,,,,,,,,,,,
,,,,,,,,,,,,,,,,,,,,,,,,,,,,,,,,,,,,,,,,,
,,,,,,,,,,,,,,,,,,,,,,,,,,,,,,,,,,,,,,,,,
,,,,,,,,,,,,,,,,,,,,,,,,,,,,,,,,,,,,,,,,,
,,,,,,,,,,,,,,,,,,,,,,,,,,,,,,,,,,,,,,,,,
,,,,,,,,,,,,,,,,,,,,,,,,,,,,,,,,,,,,,,,,,
,,,,,,,,,,,,,,,,,,,,,,,,,,,,,,,,,,,,,,,,,
,,,,,,,,,,,,,,,,,,,,,,,,,,,,,,,,,,,,,,,,,
,,,,,,,,,,,,,,,,,,,,,,,,,,,,,,,,,,,,,,,,,
,,,,,,,,,,,,,,,,,,,,,,,,,,,,,,,,,,,,,,,,,
,,,,,,,,,,,,,,,,,,,,,,,,,,,,,,,,,,,,,,,,,
,,,,,,,,,,,,,,,,,,,,,,,,,,,,,,,,,,,,,,,,,
,,,,,,,,,,,,,,,,,,,,,,,,,,,,,,,,,,,,,,,,,
,,,,,,,,,,,,,,,,,,,,,,,,,,,,,,,,,,,,,,,,,
,,,,,,,,,,,,,,,,,,,,,,,,,,,,,,,,,,,,,,,,,
,,,,,,,,,,,,,,,,,,,,,,,,,,,,,,,,,,,,,,,,,
