PaulMeinheit/Bachelor_Muay_Thai/processed_Data/N1/roundhouse/scaled/JointMoments/scaled0.csv
R_KNEE_MOMENT,R_KNEE_MOMENT,R_KNEE_MOMENT,L_KNEE_MOMENT,L_KNEE_MOMENT,L_KNEE_MOMENT,R_HIP_MOMENT,R_HIP_MOMENT,R_HIP_MOMENT,L_HIP_MOMENT,L_HIP_MOMENT,L_HIP_MOMENT,R_ANKLE_MOMENT,R_ANKLE_MOMENT,R_ANKLE_MOMENT,L_ANKLE_MOMENT,L_ANKLE_MOMENT,L_ANKLE_MOMENT,WAIST_JOINT_MOMENT,WAIST_JOINT_MOMENT,WAIST_JOINT_MOMENT,NECK_MOMENT,NECK_MOMENT,NECK_MOMENT,L_SHOULDER_MOMENT,L_SHOULDER_MOMENT,L_SHOULDER_MOMENT,R_SHOULDER_MOMENT,R_SHOULDER_MOMENT,R_SHOULDER_MOMENT,L_ELBOW_MOMENT,L_ELBOW_MOMENT,L_ELBOW_MOMENT,R_ELBOW_MOMENT,R_ELBOW_MOMENT,R_ELBOW_MOMENT,L_WRIST_MOMENT,L_WRIST_MOMENT,L_WRIST_MOMENT,R_WRIST_MOMENT,R_WRIST_MOMENT,R_WRIST_MOMENT
X,Y,Z,X,Y,Z,X,Y,Z,X,Y,Z,X,Y,Z,X,Y,Z,X,Y,Z,X,Y,Z,X,Y,Z,X,Y,Z,X,Y,Z,X,Y,Z,X,Y,Z,X,Y,Z
-10.101920000000002,-1.9871400000000001,1.0228000000000002,3.554500000000001,-2.5948700000000007,-0.14863000000000004,-25.348360000000007,-7.667870000000001,-2.9559300000000004,15.242710000000002,-10.905450000000002,-2.1492100000000005,-0.21496,-0.44078,-0.17833000000000002,0.768,0.024369999999999996,-0.003360000000000002,-11.078740000000002,-26.458870000000005,-12.231990000000003,51.31485,40.24725000000001,-9.641,0.49681000000000014,0.5065200000000001,-2.2569100000000004,2.110480000000001,-1.6304200000000002,-1.8574100000000002,-1.7656500000000002,3.27388,-0.6699900000000001,2.3967600000000004,2.7032000000000003,0.5280100000000001,-0.3158000000000001,0.8071000000000002,-0.10849000000000002,0.3890600000000001,0.4295400000000001,0.11758000000000003
-8.541027114378696,0.46228268281443424,-0.47310715597467534,1.1674831263580239,0.54184973883215,-0.34405906038165823,-23.183532692212992,-7.3156967205152315,-4.099248241431498,5.94888364049415,1.244721247752665,-1.9415838291663978,-0.1163356727067325,-0.0077602683881044035,0.018319153489315034,0.7487252737959863,-0.1686016831874217,-0.16258097532388038,-22.79542226481289,-7.768033106432961,-11.57136879668725,57.025886465829544,0.4792090525852126,4.546410418792587,5.147806809482504,-1.364069570856552,2.3483808709856744,3.9266321662121952,-1.3801688779455428,-0.008387194423539635,3.1399669995125397,-4.438097085795365,0.5310294196479434,1.5842507548526075,0.5552739345499352,0.26735833614603655,0.37156326995814104,-0.8154706274802658,0.0030041891679810258,0.2423970150862235,-0.04643332023914977,0.028757093642499863
-3.306990133311603,1.581882215485785,-1.0539395341784492,-0.4747671933700409,1.0046703074602312,0.14733886539412935,-0.16568960615014539,0.3581019537985032,-0.7713320949816329,7.358776656029233,5.622410280389555,1.5887325774194865,0.2894273688270711,0.011007564599927331,0.19344114483615044,0.4815412782883721,0.11848389086185532,-0.0060702810894369096,9.536130939718134,11.749589194417002,5.302215254531814,18.94822527933136,39.418015941630834,-3.297063559673901,5.970875967735879,-0.6300268963150374,-1.2822098435771545,4.9011774203621306,-2.2725824370196164,-0.8296854225453518,0.460022854475603,1.0836470254961097,-0.2638715033700642,-0.05271092751158857,1.3822767702402519,-0.6653377844779188,-0.05006657520633449,0.35946620516523736,0.013000165068658523,-0.05072137182052221,0.19706562595837737,-0.1557122377825214
-6.625998313307697,0.7865135989130111,-0.7676231315562102,-2.8959302853805777,0.89859096999905,0.5238580013747736,-18.582656135916075,-2.461334562668352,-2.3910772671184115,-6.251435874920074,-2.2371421025389004,0.8084929525885319,0.2783594454066754,0.027399352280827096,-0.01498913606035162,0.26573468664170374,0.21944074339285713,0.2985797822037204,-31.851055308157576,-6.2605789932017935,-3.5260880838661333,47.82165437813572,17.48760222762063,0.6975903586261842,2.7951080624995415,-1.2544313061014292,-0.060352921252633654,2.6525727516337345,-1.6502062042500683,-1.2310194793620202,3.4640815532764475,-1.9660197831410506,-0.4480778626144167,1.9209751441488145,1.8918015129135006,0.47028779272005494,0.2628192049726399,-0.3761442640342772,-0.038929638237920096,0.24163747735608587,0.21110043930653768,0.10430123970890741
-7.121253113982867,-0.9121823924136025,-0.17220506308933697,5.06704917865559,-2.5053327914521493,-0.7589437833109557,-4.01139473260924,-10.954782092171707,-0.8587139697329447,22.846318144613363,-2.056112612731136,-3.1454122365869917,0.30993577823556107,-0.34441880431426636,0.020633772832430595,0.9498913184151893,-0.35463160461131127,-0.31383285131199934,27.58557320548363,-18.932135514404408,-8.140769406602697,40.10271820189638,14.523747734886705,-9.69988428608882,7.34642319599975,-0.0708479361555031,2.4421079794812095,3.8232688760807556,-1.3269272578059839,-1.3560258240165912,0.20019300847514654,-2.247135872486096,1.3519233980505436,1.8082029172857625,2.201142253627711,-0.021064314121869314,0.2557149443790734,-0.4694702433010413,0.20588647987868985,0.16111073812928445,0.2983627030187621,-0.0721455202888673
-3.2653685999318993,-0.0003308225548906141,-0.4757229009665026,-0.4406459180824328,2.301131750153222,0.523408388110472,-0.8253770076673489,-7.881048456112227,-1.143414323768703,10.868470192265157,0.7445621791750451,0.9790259099551466,0.14454430584511604,-0.04834919461778407,-0.07004236818818006,0.007822900911497122,0.23129401734669436,0.26829413905228555,9.849697447293508,-6.686290868830237,1.8789130766252655,14.875475392314746,24.00914434161368,-2.395312444981299,5.024771345694225,-0.9806601131514288,-3.9185601705964346,6.027483714872604,-1.3503696665812008,0.4663394345376434,-0.4744473957644905,2.8068814937687545,-1.583124565829467,0.9710293766719672,1.0142287731702493,0.14970849821519921,-0.4581326511186439,0.7780950234728745,-0.2782080673393858,0.3823447000840094,0.17044065433634853,0.1329293855748199
-3.9127266540005983,-2.028803932985511,0.6295340336003975,1.6477606327295575,-0.2219897650215139,-0.1407013665083368,-8.664180330366591,-5.349685612108392,-0.6718332870079398,10.376694930219095,1.3078974379813355,-0.3140186280291553,0.41491138671653405,-0.3916422280097132,0.04065036630334814,0.8022327379444959,0.02164631582757572,-0.08791352738623301,1.7329784039869687,-3.68644442402324,-2.9788974098485665,54.12103767503751,20.528016986252016,-4.306341628771992,8.858172641299385,-3.2665906019230353,-0.1258490863401026,4.071982664143509,-2.3816990190641514,-1.3837483603077088,4.490677781455059,-2.9988929009308096,0.08019779940521818,-0.5889511480851853,1.3384155962160735,-0.7387437432697984,0.8526383223871661,-0.5895796205427631,-0.00021124071030092888,-0.3604443348600505,0.025772165534600475,-0.19300635598689586
-2.880042290825016,0.7500031863898382,-0.7518130734286356,2.726275791483922,-3.4154787616015154,-0.41797133308100454,-8.238574505186019,-0.5667850175300428,-2.190137553362187,23.363172951995864,-13.084763487509184,-3.4040947931635164,0.3303131491428803,-0.058863768722967454,-0.05651085455122679,0.7818147903837793,-0.16796367794109235,-0.28425940496447843,20.68808220253283,-11.65603455853601,-10.3958224395115,29.248872198643475,21.16336288597018,-4.295529889976205,2.979505344370819,0.5035521069447577,-0.424815097255962,5.788595129423361,-1.566624905820283,-0.6714971935933418,0.913460955237092,0.19546134694349998,-0.4116810085935218,1.5344679727340975,1.9990918188865832,0.1269621975667688,-0.19160096858187287,0.15835323875232107,-0.01711840039289509,0.34409055322847426,0.23736992917385863,0.10346579965418852
-2.2704796866904022,-2.68383016821305,1.0739301819900238,-1.2109163576279094,3.7502885954560816,0.446623369289749,7.139407950968269,-17.887663294916877,4.324326104147656,-3.2307095529003624,8.6207574111441,2.407022393510245,0.6221465294337877,-0.4721958064432025,0.055414834092759616,0.3310471230751764,0.24344777279531357,0.22957933444040216,4.007899169062755,-16.008603052531573,14.99929023332725,17.327386909356758,9.114840908214987,0.26028746673713615,5.90132821594313,-1.428731109122599,0.07067337409288002,6.327790319311166,1.0911409452961551,2.260350473999541,1.4512688856909772,-1.6919081320158795,0.183630305668603,2.4675173098074903,0.5686315125274086,0.774365661800227,0.42826662223776857,-0.4432283387174537,-0.00609937218034863,0.3845106416887081,0.06963093207651791,0.10955310627457376
-5.287302130186535,-1.518571990170076,0.0715424666755679,-2.5974063369673632,0.7214716882406305,0.3789044434650962,-12.364716917989517,-7.985143309191717,-1.427196682133486,3.119445453337155,-1.5807255503600388,-0.0462433710391431,0.2508706830077884,-0.3095785351899692,-0.10203935848409355,0.3145911639455209,0.016330903955183194,0.09995177893457417,-7.21012787712525,-14.882161720431098,-1.3257362462966016,46.40552167880642,4.319800742622617,-6.0658754320109,2.7436715131337808,-1.1340705507979638,-3.244158945832395,-1.9025295833177231,-4.1982386182416285,-4.055353133276661,-0.12627060614741628,2.512430849910671,-0.9753344751073333,1.2044111080812103,1.5770688313151984,0.11580362502775363,-0.38731744505737553,0.6322084663393714,-0.06983124805028836,-0.05947258996379255,0.1291110070256301,-0.042088792959321074
-3.8130907309889603,0.17548633207200898,0.13147450379778094,2.225259814989446,0.2982123992822035,-0.04906512509862551,-9.43721295269192,-2.1334281530202523,1.5214534639565178,13.39038820267292,2.267714265031793,1.7037310653211126,0.376130177057778,-0.1854864471924774,0.10835407162537358,0.6117409829351012,-0.06517380367863428,-0.12318622758144751,5.766365867109184,5.941270904642405,4.7631730352605475,16.020889177806687,-13.969721787721362,-0.24438075316962904,8.286661266718056,-0.1861066165763356,0.5267153231386628,9.088180976788207,0.7180773212571452,2.708246600885196,-0.8909062615766755,-1.216133521260461,0.7588182398767265,1.64687682366312,0.5898532459422717,0.5923522505654394,-0.18162249791894544,-0.3548571797165819,0.16345220535339627,0.3668054935654283,-0.04551066194498756,0.203871097312202
-2.5201012114926558,-2.453072276507394,0.879049577385413,4.619930702357908,1.8618351289048465,-0.7801750321313438,-13.794240874841428,-8.95300463844083,2.4364291828815756,23.443253756481454,10.855642324821801,-2.7056622774439725,0.7041572982126285,-0.6155813352160364,-0.012897904519224963,1.47869074422778,0.04058793903031584,-0.05607006476933146,4.554895716718349,4.549540652468817,-1.1696770377378096,36.42748239844879,19.665854011704077,-5.402438842125259,1.0945060027465983,0.23176872183637534,1.9702642122563814,3.2207098436373425,-0.6832303412130976,-1.1309639211329394,0.8748309222471493,-1.5934805459098684,0.8991441094555261,3.1379977122622638,2.4317680334913554,0.5281146244297877,-0.08560657579622484,-0.18589288997860084,0.22043318796489203,0.5342353393089557,0.4852837751954678,0.0423575598801953
-3.392513995195099,-1.4029349222349574,0.4028247762252423,-1.7637444351821845,3.212532014048935,0.8919010610710442,-3.967192132061996,-9.092337526869514,0.8265534711933188,21.112270452755553,8.133636917842589,5.62447735289041,0.2084058395710159,-0.1676196290018647,0.031338730299831336,-0.033713822370065476,0.29233943768730225,0.1355146547040722,23.43644017778325,1.7912034696807722,7.102758231073768,18.96971343514349,12.036645804349854,-9.933429600573954,10.140166571729717,-3.2800726686856994,-0.968352868385567,2.383471219762437,-3.028690332616526,-2.2418561478656023,-0.4163064161549824,-1.5242162038870324,0.6449303917207733,0.44765758566403424,1.5072266172055424,-0.443370716300539,-0.12595856577066467,-0.3357393784132479,0.10692708913692024,-0.10692221132750855,0.13162329795857952,-0.1439580455719568
-2.8461503481008643,1.8280909157486065,-0.5753685524056373,5.319357684430041,1.4453305413380062,-0.9880441326098989,-7.160786617153059,7.8731178121394025,-1.189238761933627,35.752393880119854,6.65291160238509,-3.6942960800528244,0.4771587940240327,-0.24097972443050983,-0.031649160531191343,0.8774741044572809,-0.3282083519969625,-0.23831477270868803,32.40492507169369,21.935927448477084,-9.42110079600364,27.05698474912197,-39.097656051723725,7.106154024068973,4.801137648934273,0.5842502422679612,-1.6485968921020362,3.4221922544751044,0.9909040027672054,2.2821182563894653,5.455903187429757,0.36957954012471017,-1.6059419314495937,0.047660318437085264,-0.8395339495599778,0.31900866686024537,0.782802268068222,0.06417794970917969,-0.2547489885513407,-0.10414515897564525,-0.23741909193157704,0.05187749567994855
0.22473666742876228,0.38686949979551805,-0.18890158573192461,-1.6373591987588825,0.4384882687709293,0.2290782721679682,9.537809369188354,3.167228260581519,-0.3919618811469394,2.5228115118813874,4.146759548421406,0.5673591758477453,0.58849902260538,-0.27783782758074843,0.05273131241550214,0.5337043874396932,0.21507162014592168,0.10501454836784001,21.485620757133482,12.798981607905207,4.214367348137283,14.26394110891538,6.242045157969627,-7.95308542441712,5.0065076272305165,0.8048826608345782,0.9366163320910645,5.565969900586677,-2.292728049559087,-0.34494051642826373,3.5427143608897844,-1.5093365063232436,-0.21422942978578155,1.3035600738324933,0.9039957679068533,0.011150790660161471,0.5134776224182508,-0.11734231824238119,-0.15414709197157428,0.24960209086954216,0.012658690908195332,0.03583145474249369
-1.4191735489342472,0.49461401295834956,-0.3639194326944446,-1.8144927888587847,0.6479854336940721,0.27757034357959437,5.389534424325126,2.94968125565442,-1.1400167673548955,1.7125742360344975,1.0190805411315667,0.2065050430009592,0.515447277702518,-0.37537566320481647,-0.06690382157767841,0.23109629440693047,0.016847180981136654,-0.000857543766365073,14.917086036627447,-1.3570101326903952,4.004766887506914,29.314552526163776,-9.39798245232636,-3.465103453482177,10.686694309000584,-0.8256854801256049,-2.023085257907503,1.7205168345165858,-0.3975312206971989,-0.554180198953729,4.818006329155839,-0.6149770088990901,-1.3671046820248318,1.4624470073372544,1.182847587947834,0.2182498265138483,0.7904498413514238,-0.14995316269707368,-0.3182934502398789,-0.10096036699927378,0.0909042544825636,-0.047807959768708275
-4.049034889703011,-0.47528574916130156,0.4500136457997423,-5.443180914292529,-2.1982355509998897,0.7239510606423327,-15.154330622817792,0.5052648149944857,1.748417111186561,-6.8358821179406375,-6.712779807470559,-2.133949876354223,0.4708611855118443,-0.23481517425917484,-0.024243723953121743,0.43752252997241686,-0.22806209822872803,-0.03588052681616769,-25.449574500015988,-12.85793181611306,-0.26928011254864936,11.099409473724352,-13.356484252851267,4.949867881813736,7.4736295138136715,-0.8543169446893699,-0.4654135528810873,5.5187421342925,-1.4673368906966415,0.9124153238494925,3.1192891486168026,-1.6749351944812298,-0.5997531958844874,-0.08710229786093833,0.18916500915524784,-0.19223160748201404,0.5546487618590855,-0.373418507637834,-0.21180170382668267,0.1682460645047224,-0.043402242071187584,0.05978358937181695
-1.2448500000000002,-0.8358300000000002,-0.10889999999999994,0.48759999999999987,-0.13861000000000007,0.32164,6.554319999999999,-0.04139000000000026,-2.00362,14.704469999999997,0.8493599999999992,1.42637,0.4675500000000001,-0.49683999999999995,0.03229,0.13672,0.02019,0.22132999999999997,32.10016,8.07552,2.96028,-3.511919999999998,-19.34699,10.868409999999997,6.208529999999999,-0.6851199999999998,-0.9788400000000003,15.062189999999998,2.38292,5.622699999999999,-1.0789999999999997,0.93804,0.28891,0.43639,0.85823,-0.045009999999999994,-0.13501,0.07912,0.13949,0.11823999999999998,0.17057999999999998,0.019479999999999997
-1.5473500679662673,0.8341882694578844,0.05577703504924332,6.579227642761172,-1.395222791780663,-1.2326208295865406,-3.7881297242262075,-1.2207500069421031,1.1349959632653963,37.49717887786717,-1.8425729423961372,-5.523688999504415,0.6539003486462884,-0.16509447672808167,0.10528959457044615,1.322477805400167,-0.04547661354563547,-0.32992135515322,41.97344413722494,-10.216027373538031,-6.619769585227329,-2.804396698749927,-6.70598047916841,-13.93418282425155,6.576797172066995,-0.955220695168171,-1.011993929646896,-3.144660611349011,-5.191705148423179,-5.4928655067166146,-4.024887581584503,1.247493857153463,0.884098581208562,1.8630200885794257,1.8044524884290372,-0.25150716406135526,-0.47936197972419425,-0.3890136242181526,0.3555369402337913,0.12999781660580484,0.13352155161335183,-0.08970103911812996
-2.738682305687733,-0.3400352821755394,-0.030862220103719883,2.9177817254051686,7.283746424742473,-0.44357120762546787,-1.7202428817618138,0.31087126852111646,-0.3844101236088666,42.9860129785214,27.186294656219022,5.103724326259954,0.34134562200038077,-0.32849302152696414,-0.14011885795582368,0.5988559801395513,0.1297321105856412,0.03140255442857752,49.27933165067759,39.33031460239803,4.609646847925905,18.94037844714606,-30.441410491764145,8.981871849018125,7.407666874595419,-1.2055290518498212,4.590351083050578,9.205612587432475,-1.1141235697508582,1.9456839873144112,-5.754553414889396,-2.9511881610952644,3.2019707080967086,-0.196620537177064,0.796713020970147,-0.34647082566916343,-0.9361387164329693,-0.34391898236177665,0.4586463052031773,0.026521532529861204,0.13218727218819445,-0.03455535801908347
-3.251382769971074,-0.06671782982205994,-0.06524438191726505,4.376015936722085,8.671101536264633,-0.03894231210992845,-10.078912716627205,1.4374978951683621,-1.6376366261956534,42.87258979106807,16.558932067700688,4.253619701518108,0.5609153553331946,-0.34686207517430895,-0.020873682897427203,0.5971818917580719,0.780255648057059,0.18745696652518418,39.63447313181941,21.767643875717617,-2.2331250924179535,21.15638401661759,-18.045195709301748,4.171373558358739,3.530177017437059,0.14242914960515435,0.07946178355991362,4.988651579719697,1.8512453696499707,3.2606208635312646,2.447542982361588,-0.7188873904011363,-0.6203805810218813,2.034486864908784,-0.6522508510893921,1.0655592697092517,0.2391865590522141,0.29482875318425117,-0.12732918319997497,0.42470418948254773,-0.11598376402230781,0.24062524084685677
-1.6613694959153236,2.349024747793311,-0.34585067854187684,-0.1597003218955536,2.8318014477553404,-0.08457063201319677,5.770863774555802,5.229239973188414,1.386453119778569,31.865624615271177,17.08518379760459,3.8506346812994123,0.39643549670207806,-0.2211412328654718,0.03850848455747095,0.588724166410827,0.05894917437265153,-0.016233667760114066,49.562216366447075,34.085805401515074,9.306932825655055,-15.39439666009412,-22.74238492281401,14.534006767084879,1.2580062880485832,-0.5536656771579946,-2.4234874886524578,4.3411008920892575,-1.7284964340162425,0.029711202937174882,13.485519696350883,-4.761968421450004,-4.105025129081305,-3.3455253258296733,0.982751268077219,-1.252466048100228,2.184597963546857,-0.83919367482497,-0.5960445309761465,-0.6964286760217913,0.1771888877049046,-0.24881813226055155
0.6027809696300798,0.25650731586394737,-0.35576417697824814,0.6940089534495429,1.1587464326482078,0.19584591895573517,5.896041159377284,1.9743881450455343,-1.7742881372449144,6.859106425565053,-1.6804450613345248,0.941429909487051,0.5070914330871772,-0.239658151015102,-0.004370739356916667,0.16317710473240682,0.04984577249619257,0.04341430417675939,17.62738071915824,-7.077684705173801,-0.6986836952310123,21.755104410810137,-20.50647292648069,-13.244888022497317,5.760274842236715,-3.9936970842643227,-0.3519495351188948,4.834998897715248,-1.511807579313245,-0.49340318654241344,-1.688847052783391,-0.9423191429995781,1.070550379322825,5.541429818981547,0.9078195960987593,0.9890016926842291,-0.7164265480588533,-0.1453552833401436,0.3100837414116429,0.8970318972580437,0.12442513984210027,0.15430284208086617
-6.363210820075134,-0.11735494612148437,0.25636713034842246,2.4866026591481782,1.65622143441428,0.03493325425105328,-9.695160144798589,-3.403717569339126,0.41208680984162144,9.198403880541544,7.066262311075454,3.321419395925959,0.29909665902984417,-0.2950868188805173,-0.04673376724743709,1.0641633968994761,0.38801602874411395,0.31650756288207094,-3.878435382964901,1.8781881107536993,6.536792493597845,6.117157679869291,-50.62484530678382,5.578625524184671,9.080813215970483,0.05112179547139707,3.070468126902315,3.078611612715186,-3.1018788582354544,-1.7245912760223472,-5.161766741496517,0.622748721293276,1.7684096631036095,-0.051382823800047,1.1432312051387161,-0.6698932248848545,-0.5234104104200281,0.24217422663344637,0.0930640144428519,-0.17349018166208222,0.03017335050763317,-0.12387463242944095
0.9800367807611722,-1.5308047474713355,0.3920488685921879,5.706300125696127,2.1672552533741403,-0.9585504572201831,6.045028295557189,-11.109193382663564,1.720149344234014,16.492932703728645,1.1643533864028557,-2.5883139112909666,0.4893587562272843,-0.2898660680967605,-0.01879016044911573,0.9456193450134224,0.06163311316130935,0.020031342974891123,30.49764876633734,-19.792874476700586,2.0033535793006974,-0.07550156815590658,20.591687955842282,12.4801993819813,4.669512747428026,-0.5092971960987026,7.4811295601301016,7.461235224262695,-0.7071234005279763,3.0270285723297645,-5.245146356635583,-4.340122099108777,3.2593857827038613,0.35038846675866114,-0.377876128736135,0.48335289418363325,-0.8629117102723827,-0.5621787124904417,0.5471371681135652,0.2141132296388202,-0.03521985607613549,0.14956564578853535
-2.6988191490841484,2.810573105896757,-0.8636373098033677,0.0054571151480593775,0.9225530650104266,-0.10061906317772278,0.912763228692803,11.513430686069597,-2.3159198329930417,20.684946020612927,2.229462604301907,-0.43353608297225354,0.5461590228542812,-0.2925709801278657,0.08118617886579742,-0.05407092236401402,-0.06820246619433346,-0.1713620566251574,30.15360371305741,11.526295223824055,-7.147085902482864,-13.207725464349164,-64.17034808377355,8.265739144333473,1.4698055326804393,1.5431539924999416,-0.449715829250846,4.80064978323453,0.6078973715356394,1.7679227441398764,5.959423940226933,-2.503634727316076,-2.1923758055003653,-0.05824300494503672,-0.06654809490461465,-0.1456022905966957,0.6947737678320113,-0.2325514024887699,-0.26293457237883666,-0.0795405248348742,-0.08354444720583189,-0.03700216734992409
-1.350802541464755,-0.11472918525042944,0.268839054423063,-8.64876773674333,0.47465340980896853,1.9138151965516272,2.760344985670123,-5.415471316228041,1.6043047172180105,0.38710115746048956,2.9035745982812404,2.093077718616732,0.5298603569919691,-0.11395354907896645,0.07946479590055441,-0.16848550177063532,-0.11752782082070477,0.1585520492100685,4.654594541154295,0.4050048787946972,12.8337955293211,11.583431900209009,-10.171121249058977,-2.5422329141014886,5.050571109217356,-1.1815968690800733,-2.7172266753334746,1.2000306617435592,-2.8523957777647952,-3.1839665722920008,1.5656657511733596,1.4860335109348242,-1.246427181696403,2.3679076407623345,2.5100969810778566,-0.3587540570941102,0.3036896805004841,0.31500509082045325,-0.2716290641599082,0.36960398864782534,0.5485123369915188,-0.04725948311258522
-2.419954389710204,0.058892555070985744,-0.1790256664279825,-4.640445721465385,-1.2150979832376974,0.34161489626476604,0.7397005944449463,-7.184838560733312,-0.7714897974537669,15.5222875669652,0.8521876027258819,0.23905367300210828,0.5509951610505153,-0.4799075183881268,0.014456605622132954,-0.2668257724273682,-0.44162419607755826,-0.6339710033085032,21.3045804861163,-12.640151550004834,-2.7091763057022695,-23.65250722496418,-48.011838099793046,15.896451988915649,0.9071844831444306,1.5294930056495677,4.245243202226052,1.5639926303307552,0.5511941346258302,3.5544396723399765,-1.1504107252947589,-3.088400004646151,1.0252858426660498,-4.313706465275332,-1.915869155138142,0.23620777822054137,-0.22832561106304655,-0.19754886778956599,0.17137122690780526,-0.9251744912509986,-0.4147321822951507,0.02410409434054966
-2.281293505246814,1.7342663250116228,-0.41493319241673854,2.9431526499022196,0.7286103154993124,0.09352058279181763,10.688372224607859,-0.36941913631598594,1.7651362714242447,39.898110970901634,0.1755866823888198,-1.1273722183994508,0.4863325238922876,-0.25112672018098325,0.05182453160819897,0.8581772837540868,0.027970197179692215,0.2866920832240165,69.84858592532719,1.1843617302106688,4.614490961070517,27.566116476561923,-47.01735338301868,15.972751126162933,6.219393907447478,0.057801625637735624,2.0283617432026624,5.217465909163319,0.24985785802415672,0.09339007432213238,-0.502794428182834,-1.459830268038757,0.722744648008234,2.509717738038631,1.159407481369223,-0.3686027333414031,-0.26133515751087666,-0.06894493212042388,0.2551286157884664,0.5790215193772735,0.2873661240458114,-0.07543430916833688
-3.1869972087124943,0.33735420535412325,0.1364992197675431,5.538081524963241,0.604468246593527,-0.4988643989899271,-7.045946988435365,8.916279196352384,0.7759699870338616,26.586476020480262,-1.1439391636955336,-0.3733831581086885,0.2589308843371944,-0.17697825399182793,-0.06544468732939879,0.8466963685452833,0.057431533039934375,0.1437656301322917,23.80384289014166,10.100238477858676,-0.1935422503634952,-33.73709670070958,-58.504442443986356,31.42549428248974,1.6222994298825812,2.7820365029052554,1.8350772187901159,-0.6342514826802097,-1.5736617664656585,-0.4007517143456501,1.5704753451152262,-1.9980418714542993,-0.6305888632634797,-0.15937629921556823,-0.2664831273823609,-0.015108172199622242,0.50704735939691,-0.32912320096783093,-0.26291693547952494,-0.1885835598106342,-0.07237668256850434,-0.0394706983460896
-5.710872796664195,-1.1539562205349159,0.6939192613292661,-7.081912808138188,5.4114057912202185,1.017816748276164,-6.189139463364577,-13.153459742844364,1.8496965939743963,-15.705684861622508,20.987255257348657,7.414720796989915,0.5782073117367847,-0.6018429788599423,-0.03521393219288972,0.4046649600893238,0.1189944321975929,-0.14153766329834766,-25.07008525345313,4.969538629810317,21.766095260710514,2.927909488640271,-46.781367171118134,30.128596336965458,8.242957679056257,-2.750304366123861,2.9304620945905824,7.434896749856789,-1.5302512921991576,4.920088415300971,-0.2823657915376294,-6.314392589476111,0.627498453004835,-2.277270417375468,-1.6541773369890231,1.7349239929447469,-0.28613204276352555,-0.7963033911783722,0.22563979993424496,-0.5004403848157404,-0.27267102538404675,0.30008828292782064
-8.885268962436886,-0.370368983930455,0.7854419640440792,0.45912052837884965,7.27457577344005,0.4957735274309552,-29.18516053788637,0.2363761630045852,2.0648629182393665,17.91923634430549,21.201672079858287,6.313530216215872,0.430718228321253,-0.6071391109498312,-0.07612629383802011,0.6532137200434981,0.4054649873244358,0.24817667365930468,-19.021069172400804,20.159905869099237,9.137211554063636,24.58417046737059,-62.14155444042234,23.65978265391046,3.7157793974740363,-2.1230092867367345,0.5954235048451899,7.689495061324646,-4.845033442444385,1.1171100547193475,0.676502734526004,-2.420072590725217,0.11938654582925318,4.238888056482133,-0.5080168504219079,0.09619466011010462,0.3666767810171358,-0.3052594760083936,-0.1167487449277109,0.5952305957889319,0.06906263027156741,-0.127339689377408
-6.211365919446083,-2.182035069025357,1.5769406749185215,0.6644676358679118,2.6784010703137917,0.3448910991257969,-7.263489739322448,-11.075321312317511,4.188126367928556,14.644855042553115,7.165175366001607,1.9271033781888374,0.26957584319295075,-0.31078442968791664,0.13106225353810474,0.8469627698831089,0.14076911169842524,0.126179460001505,12.750321449887949,-3.273651263990419,13.18648969417675,8.431127973881592,-14.017028130914815,70.66913464666418,3.699695891309394,-1.7478658223819297,3.153659026294726,22.380824462972658,-1.7330389369418524,9.158355572709274,2.9675781649041637,-8.500734501545287,-0.06188532882471114,-1.6129653067231824,-2.6452843198381606,4.470640824148255,0.14164180988695552,-1.5824493263149406,0.24900176584966108,-0.688642634583912,-0.5552401913555527,0.7675296981851722
1.9593456834964016,-0.41805807949171103,0.02011627191796886,6.354055310712818,-2.9990654172076394,-1.3012951677946942,21.046256452388576,-3.9849617211466812,0.7829239390143586,30.700472887422027,-16.710618972786683,-11.971698852310094,0.6408054431911879,-0.18575801167428,0.018091637023220173,0.9873140549678198,-0.07025482786945325,-0.2215757082262427,53.1302977266515,-29.09903375332535,-9.8737838840071,6.817811371184558,12.151334364504283,41.659543913851444,0.9658950919288024,-1.304369508025662,-1.949912074701839,48.17768504027995,-11.48055963343821,10.50064470069201,5.228099080279911,-0.02657720479976533,-2.19745417791278,7.660188426000959,-0.9997301359818412,2.01262129511311,0.6627772296761508,0.4718338274186212,-0.37633596376189354,1.3926843580901438,-0.5360018801687303,0.7236163884401212
-0.8575599999999999,2.13489,-1.5160100000000005,-4.55873,-3.2881799999999997,0.7671500000000001,-2.6580599999999994,-1.35577,-3.0783300000000002,-10.17221,-8.3733,2.58436,0.6954500000000001,-0.19729000000000002,0.17526,0.1275,-0.28687000000000007,0.045899999999999996,-27.20836,-6.235909999999999,3.6657399999999996,33.33448,-26.145900000000005,37.0854,-7.284520000000001,-5.82519,-6.660570000000002,32.60600999999999,10.10821,7.343160000000002,-2.9396399999999994,6.426370000000001,-1.26541,16.539269999999995,2.87214,3.97089,-0.40002999999999994,0.55075,-0.16209999999999997,2.64527,0.010799999999999976,0.70317
-7.301662953014793,1.7173358421725926,-1.738085510120204,-1.4983981007597447,5.09530912749578,-0.4599846207960443,-24.289594277339003,5.006460451994611,-6.129949751641091,7.51262527340097,23.07614845013378,-0.9474001126346127,0.15619458806869632,-0.049565868122295575,-0.14363543595018363,0.4872525799549147,0.31770026411779545,-0.2151621587643554,-23.72501603896394,31.764666150897106,-21.942446854063846,20.415865891018,15.489360967698591,-31.110852545036124,7.3370677124599695,-7.449223375192409,-2.3161482542910834,-1.1406497458721343,15.493091231220642,5.785089284169257,7.208789629407535,-4.464331437130669,-1.4876251527251068,8.032240747209642,1.0732305104748616,4.3880705680118615,0.6288747691285643,-0.9487542484493323,0.3021143286305994,0.5477397022835061,0.38184392333939066,-0.1843798969902567
-9.362706090082778,-2.8154727570336746,1.1435084623109137,2.7898244435579564,4.995124907891666,0.6669295702656892,-16.18096211463359,-24.341839155163562,0.4295371092440273,25.797349944395716,14.704695545704583,4.1876140174467995,-0.30905969160242125,-0.32057176692578104,-0.2666722160463735,0.59247184679657,0.3048006592563343,0.25856235452900855,14.32365074629621,-9.364160720795077,1.2920348814106029,49.1591430596757,26.69123535505327,-59.37368617941187,11.594900463721574,-1.5622140095901045,-6.028744502118439,-15.669471130943858,-4.651466203301034,-2.237680829141949,-8.356824993626724,-0.2942830184262106,4.742540930899728,7.43630346533028,-2.0597313001349815,5.351299324663451,-1.0647542155048548,0.0535045519154505,0.4640321012619746,0.9589399174998492,-0.35689447237947125,0.35612610926041804
-5.480553911040317,-3.1029923642387596,2.5582757305684596,3.3115190423047576,-1.6961743990883167,-0.10072500054886786,-1.8537818661118814,-5.758383593441461,5.091757666427177,25.115880036493284,-7.911145451860374,-2.785457858630366,0.31340559826154457,-0.5019116370508165,0.2898016431782646,0.729569006900583,-0.07697587207310949,0.012649847652015149,33.05777602449934,-21.32888023030099,5.33104360579651,52.73035903359338,14.187153290107101,-50.02895353581794,8.108279980786007,5.294466983182479,-5.3909519187164054,-41.56033952929891,-8.364836194172774,-15.937957339867591,0.7519821829610723,1.5194731320559633,-1.0372515348439133,2.7492766258732066,-2.0228868311430035,3.3572679703718147,0.8694423697055091,0.15541372777889792,-0.33126436457902086,-0.2187326806952968,-0.12279726248680004,0.06911898084617303
-5.773270155622257,-1.7241212347952997,1.1587190876553293,3.8927634401383617,-9.414786067072953,-1.177731665382412,7.123853801369712,-1.4864228824124142,5.781275278599923,28.82636115696426,-33.374776835036805,-12.576995790250765,0.189076927257087,-0.5750244245546339,-0.03317097789785853,0.3806641168978741,-0.6356350599550838,-0.40258939515079467,49.93655980834752,-43.913910749151334,-3.707579989364164,-10.07956844614444,45.47846937640469,-44.157865568378796,7.031238927491837,7.629638277855501,-3.570033232918618,-23.15983973311135,0.1837061080273798,-17.150891998783262,0.6948000151573208,-0.23450812195589177,-0.9887329687155447,-0.7398110877042999,5.501835980809636,-2.6050589535500417,-0.07671553477859086,0.2120049604686103,-0.5866798786106906,-0.0841170166014257,1.4161332298725902,-0.5501141834644379
-4.998326505575337,3.0701756755130063,-3.6766056852133064,3.4928622624191847,1.1461512086552368,-0.30954761556752075,4.801595826879705,9.179846202488001,-6.1561372916629225,30.971368444071267,1.8893720306949568,-5.213847892115218,0.15586492287947196,0.008354803380046317,-0.017795745750410714,0.7614040002571889,0.2582776039877845,0.10866743256901722,42.2527808904394,13.620161614020859,-16.622272172831153,46.25578763338089,28.575309906378447,-28.684905045277144,0.9469721533358799,3.7236102547558034,-0.6744985664090308,-4.2293422240394625,-2.7965242028493034,-12.760561045776928,1.2982725391273535,0.2368566468698714,-0.7662658616286261,-0.46478004385870775,4.14589623796262,-1.5483506261206827,0.2094261634610362,0.060892620020236085,-0.21202138495513909,-0.29429594766799727,0.5877383412923939,-0.2442532081320434
-6.397094269716988,2.300771274063826,-2.749519071386921,1.242933260260434,5.393150863304525,-0.06063135018592848,-20.626084623114206,-0.10421022992517995,-3.8752174818789276,18.80162009900281,22.57695770651266,4.194111866483377,-0.4524688239842072,0.298885684866201,-0.24265759615509017,0.9108875337804291,0.38381080428009307,0.11745278037740543,-15.560489610933006,36.09955004533036,-4.3094216645087435,24.18366833300855,11.670696176085235,-9.474157366470747,7.831961617152015,4.516935583967154,-2.972752941881411,9.214228498161567,-2.4782601358037684,5.519529371438652,1.2745463149618728,-0.353042427078864,-0.16847900802161425,1.9006921765319085,-3.400002727172004,2.245458937274878,0.19840118586905936,-0.06092245793150507,-0.05554027357857347,0.21773357757979384,-0.8522815666957951,0.29794057027857335
-14.99045798795628,-3.7883929540155927,1.8030608079030395,-4.343797835274527,-0.7184740812131636,0.3904168001253475,-35.44826806212824,-20.63171703765438,-4.536234834078943,3.2041303368370033,-2.8244170459281426,-0.38788645988116743,-0.09088380605697134,-0.35646854461421024,-0.056937942356738526,0.2499760890638869,-0.06287937973504139,0.03589942628615823,-43.02285789754125,-24.353513017519177,-9.302497600550504,98.83704314778792,92.16247484098537,12.533474689346397,-0.7887206794842049,0.7953546522726602,1.8304018661093697,13.109009904803555,0.08812978811863506,0.4689243777783006,5.73315788380567,0.3842643486747427,-1.070205923251068,3.854117050230942,2.0873875492989034,0.6721873001810932,0.6273024426366316,0.23459458559078863,-0.12005174656685356,0.47296667869877784,0.12738025926389937,0.03783379878620806
-9.028452229646536,-2.6328572086628106,1.9740423378534697,-0.6880284309286211,3.725968409808873,-0.07067868691933167,-20.42558016103417,-15.472198992250407,-0.894567509232104,10.884958309563594,22.75266208548984,9.577629078126183,0.31065312692573616,-0.18798602291880467,0.2381297999699546,0.7603111734454633,0.22707607263636298,-0.003645888287083246,-22.494349321262845,16.79265385460325,5.534553329306026,41.607529526049554,32.45103709380409,-16.30778410847687,3.1007789134918347,0.8014891604279247,-1.3276753101161567,16.483284209150533,0.7914242834638807,3.6472659038555446,-0.5065545874493225,-0.34395190300020995,0.2724419038406814,1.8028511525819313,1.2593592366376007,0.1647899759854217,-0.10888461731152949,-0.14933023478175325,0.12960517826416598,0.16108798876071487,0.21169952107480022,-0.061064522323481495
-11.18302284327128,0.23660140595020077,-1.9380604731881144,-2.0015289680990205,-1.0935665895501725,0.19055999297930754,-17.319220935333533,-8.252702916106772,-4.388137995521633,14.8289397585955,-9.076091019555221,-7.001991523339433,-0.5007397821188831,-0.05289699671554377,-0.2467642121458205,0.6712107885085046,0.02867135233513148,0.03728602429836237,-9.931637536914709,-24.62958941491191,-12.341775587636437,100.22110326052183,67.90799297269349,9.785063441990413,2.410250859223108,-1.4284115181697306,-1.2543412721445035,13.765653861971488,-0.6153036159363268,2.4768965925175985,4.6885064575888125,0.33275557725901267,-2.220191527436758,3.048171116378121,0.7822458675597721,1.022890105545568,0.6927015583360854,0.07649600156660814,-0.4438695861478991,0.4500836785296624,-0.18195533072109743,0.2208615765221834
-7.061840960041773,-0.03565253412255928,-0.9784010654361662,-0.7564553490157918,1.2142362445766952,-0.04915790353753137,-1.842568593279646,-5.265089878517035,-1.6152534985401645,4.959157886858619,7.843166079077861,3.080022945994252,0.1447347421974334,-0.022988785629390853,-0.009627057691179901,0.507867954968772,0.08749261032396415,-0.05141440613585657,-2.696631060112909,6.549878327426551,1.8517126471201313,82.11280241859019,65.13634607427214,5.152890241138152,2.2958183293832635,6.888534476415226,1.710990148687516,12.608854848624476,-0.22683135031251384,0.09207605861400325,3.962450646582271,-1.0316965505087348,0.9983795448003508,2.940604603295175,2.401299701745123,0.06310210175835804,0.36722089976600397,0.006038882939422763,0.2534074558114188,0.377734615174841,0.32133057361674305,-0.06757500470263184
-9.234141794712508,1.793419982741144,-3.4102436718341633,-0.5053684702651806,1.2067610037645635,0.17861590307227462,9.553178486491749,9.850148053057408,-1.2589948474367063,22.49517015354334,6.494807414771998,2.1672063913307245,0.13615193407418474,0.009894932820605655,-0.08608302338271634,0.6926060271628659,0.10613963073895176,0.09331257121375014,39.947312381557616,25.708236832235052,4.833095508673756,62.40675993857453,44.273096303100765,-10.518930524596374,5.498802857358639,2.6129729336671264,-2.1176613290208057,9.129109561121837,-0.5873567690342989,-2.0055211523943344,4.80596853031249,0.9591127577066211,-1.8039907616638269,3.1666552995484305,2.6806456874263653,0.03543965462100587,0.8541410889031493,0.2511813167338202,-0.3110999322873843,0.44221732775815026,0.1163818634175457,0.026330958983875843
-5.604323288090863,-2.5322583403954986,2.2022728473625244,1.475436260016244,3.1921774572291013,-0.0014361305014060689,5.453914773786017,-12.118804299009447,3.981416071667382,27.211621507440494,11.466505766755267,3.29953597007107,0.12309694162642651,-0.3441275963677612,0.14539588020239588,0.6098326455318337,0.24950049900844762,0.12980571825363674,36.22898763778605,0.2897143415544365,9.501738445488472,57.91901926563157,48.7541134751493,-8.396717057491143,0.9203111452527972,1.0101698477415448,0.5005654572733096,5.142190786010911,-1.0609817565311885,-2.789238062467804,2.3836851990987706,-0.8838006303915071,-0.27915972374886333,1.5520761207917686,2.4319995630046067,0.07269611120527596,0.2142814508049066,0.00339861666020241,-0.2194423686242654,0.1422707192821352,0.2803901729164985,0.06495050029176633
-8.011068592091048,-0.32962781402393343,-0.5037663424543102,1.7296881738833658,0.651638601266524,-0.011839367182028224,4.00787331398773,0.7341541360339378,0.6531476403066979,28.024949603751345,3.898094287444854,0.3981362420209113,-0.0010187049932791482,-0.1183126052875002,0.07791734843611473,0.6854893272714068,0.11551345003485082,0.047911450261758456,33.03439852001461,12.55559537350401,0.4712865207278772,42.88350135282632,22.11341415309173,-2.8119514841820883,8.242075160619986,4.667688569241704,0.8788584515464614,2.1052555469044147,-0.26441125772469487,-1.2008907584899742,-0.7809457862856387,-1.9885557069271758,2.8477957718208993,-0.8585041401247893,0.5757420138773996,-0.8721110385557279,0.09463146335464126,-0.1328800816171447,0.4449257436281779,-0.2509901427618731,0.04869173505839573,-0.18519704897139178
-5.841581874705887,-1.7878529390634645,1.358314949322744,1.4065974775822079,1.0783580137041893,-0.10027554955662153,7.813812718123092,-12.240806521368649,3.936304498089966,31.35306089075346,9.16835017119583,2.192706062085613,-0.2994394692660179,-0.25648502036847126,-0.015991256125208634,0.8520844095835353,-0.013658754098753355,-0.013825813870945555,46.080934517038244,-1.2041833570999332,2.97286614707621,36.59516315140209,35.28856577729679,-0.02642307302079214,0.14528418990643582,-1.0121926301676685,-2.024300426517265,1.429588679565454,-1.3948269096562664,-1.5167110748005845,0.3086846606322221,1.4445353133778953,-1.5795918513379685,0.10964211441467843,0.36743702339124124,-0.06369969252193337,0.06423838017652894,0.15776547931345217,-0.2502345509759474,-0.10804495629385996,0.02899876703289579,-0.04304077771813131
-7.6248218539986565,-1.0931140652011175,0.03905971354660724,-1.8081652753928557,-0.9644709007981425,-0.049568226138784914,9.894675245856527,-10.522604462547871,0.07362790762291287,7.60540932000975,-1.970696149217269,-2.559215396023631,0.11397367724048782,-0.18614955050449802,0.04534129391135038,0.5536263283037696,0.07252737359196626,-0.06930978502298453,14.9498844112506,-9.458483332370102,1.845332607436391,50.33725347178158,2.046897477450603,4.160200379196515,3.35393478292061,1.9380353543105475,0.6175156012472945,2.56795321879561,0.4685276154151459,0.36118323229165816,-0.4027409842996342,-1.4300308462393052,0.885494457669014,0.6325881545068041,0.33494037373129587,-0.05261697509246737,-0.08532558977801734,-0.18313614108610726,0.01806482037369531,-0.05481382960714606,-0.038406563630788856,-0.07974160283001024
-7.238979236115538,-0.5468608182038234,-0.24295177404477478,1.76369238211656,1.2402468564315667,-0.07090642437910964,1.0129104605995791,-2.8520242349059326,0.41743737489955307,35.90206659651794,1.610777838931487,-2.4760084959619717,-0.08899816568005119,-0.20317106712183905,0.05769270714364455,0.4331246334216926,0.08960865730696557,0.07384332675829561,42.56118772293511,1.523067105808741,-6.22504191321793,39.74952278036118,36.2491121004801,-11.970462053831874,-6.023291625655405,0.6145173378459591,2.4919462818397267,2.0263852096620734,-1.7064963588626507,-2.318367774580454,5.123444597782787,-0.10590999186822048,-0.4225739669955832,3.1808549251690503,1.6881523342799167,1.0613512845596422,0.2470044710327263,-0.059631918061265526,0.11796095352268995,0.4383920205677397,0.1433291102905328,0.1959617568072238
-4.79342,-0.66327,0.19017000000000003,2.09603,-2.5368199999999996,0.07742000000000002,3.1948,-9.60237,2.08341,24.465289999999996,-6.44486,-3.3066800000000005,0.018499999999999968,-0.19396,-0.055049999999999995,1.1281800000000002,-0.13205,-0.17510999999999993,27.008499999999998,-15.123389999999997,1.77019,31.215610000000005,13.122209999999999,12.519239999999998,7.628969999999999,0.53274,-1.40263,6.650739999999999,0.75006,2.23764,3.11466,0.06979999999999992,-0.45058,3.8625,0.7733999999999999,1.52683,0.55951,-0.019510000000000003,-0.03778999999999998,0.7511799999999998,0.20464999999999994,0.21184000000000003
-11.057388686582721,-1.0218338213789626,-0.22019538039225844,-1.882994519975085,1.166261946969676,-0.003381887521982296,-8.332635610535359,-5.681637086709747,-3.6951468231127196,23.665369680034622,5.395758941012008,0.09698289181847425,-0.3897938538145159,-0.10758383339167801,-0.034799127345427394,0.37783259808775677,0.31318564142227917,0.13627023534162327,17.296236778926428,1.8428500355095394,-7.480182430360382,74.10570861107355,42.73694212787831,-10.916021020120553,4.438632886871314,1.9039634113750772,0.18107138169640877,4.876046759102568,-1.586251233565922,-1.7432085794008452,5.3183090680233125,-0.027872689423972932,-0.47972912063168877,1.7974344035653262,1.6995146194864537,0.3016317839377576,0.7215648111817244,0.027555709868199954,-0.09973433728029177,0.04650438575493506,-0.07267543685507943,0.018742154165527027
-9.21880649961263,-0.9941928209522333,0.24162862772837446,0.16725964680121969,-0.6676348475324599,-0.1386480869060935,-8.940157019865373,-14.806927803047234,-1.1697854731685189,15.54494518225882,-2.400447938187678,-2.770446776981139,-0.08817167878331197,-0.14008162204478583,0.01709847096290611,0.9360128661598862,-0.040219554416621506,-0.23904661803040314,-2.956446448089462,-17.57254798099895,-3.607995813631071,74.0608096619155,39.36454091183801,10.794765848143777,3.1641758688972246,2.922317841274051,1.4408128664387814,11.762515132851785,-0.028148969603585705,1.000321867820612,4.188196035041528,-0.6893081899021403,0.37554453646378494,-1.5633127657187091,2.1557605202831907,-0.989241559278056,0.40961638413032275,-0.11434650028691513,0.08606793365562782,-0.18441971704418222,0.28334716589924047,-0.033406494615985396
-10.704309105095298,-2.903473658009564,2.0356545492533376,-4.402527420537973,-1.207263504762198,0.5013824792538932,-12.231527205725222,-15.922959158775225,-3.3519534574991394,15.386906553477033,-1.6411863678611216,0.32828898653069055,0.052465756292037556,-0.3935490405497296,0.15542165279863163,0.370583092802257,0.029665470417896127,0.12093134025656689,-0.8952011925731971,-18.06168400527712,-2.2323093214938945,47.66245094668551,57.24528508851766,-10.531598363859883,11.145193193217725,1.4050590147056832,-2.2149719097111213,8.807675401038754,-0.5815076169468568,-0.6147882765905887,4.253648069125699,0.5543991914132036,-1.184701980301051,-1.685083147737318,2.462985833881742,-1.3966513761908266,0.7004652081005731,0.20951874182551944,-0.36445182925167724,-0.5713967927600729,0.22228595058139475,-0.31023739625660957
-11.159077568689188,-2.439821273004647,1.5103477818592213,-1.7502835567565622,0.9762205859298194,0.012126831376480761,4.224009400718472,-14.937396040495182,2.185853343158586,14.549558821203854,1.9153592688242234,0.6213001847580314,-0.08871001324831304,-0.28660197241020663,0.0723682100503253,0.677916364729136,0.08517052935269655,0.044853850476263044,20.170109927924443,-16.61984879418015,8.434759391876318,72.47795306073587,35.018285344960105,5.95503239769217,2.852363352761726,0.5012407762906952,0.601990538513856,10.270394881040458,-2.001881664037321,-0.31182725940858164,1.825519464967076,-0.3601079444812901,0.5469895774180665,-2.428044235146928,1.631018600879956,-1.6206658852215663,0.08099058583613207,-0.12932650075585764,0.21498538291318747,-0.2582549395841078,0.14899776839380674,-0.1711564970973553
-7.173463656260896,0.09028038640327508,-1.238063692265091,-2.9990887259692025,2.751923353113258,-0.157566212164995,0.5302389647838001,-9.732866178946365,-1.9962522746238156,19.861323936328567,9.620485028904678,4.232991293613728,0.2451094801052079,-0.10864962255007074,-0.03906473666811303,0.2039881801032918,0.15818641218189836,0.11234518299965184,21.367834879717808,1.0792687823209408,0.9628154309051669,112.8705345517019,27.33575545616086,5.7892569250021895,3.445214461736279,1.491564697181606,0.9172409963161947,8.827555072248279,0.36640402633060165,2.7059319707166454,3.590063300526792,-0.5628939051215528,0.25816206742231473,0.8111731349877801,0.7533698977135105,0.20958799582167978,0.42387054283104003,-0.07863229416182056,0.024500091361294087,-0.0056500953024814695,0.10257323406424274,-0.04807165481460106
-10.998095626812871,-1.0576338500830342,-0.6739455205103919,-2.8873642437177613,-2.546285579030699,0.057103411920523206,-21.334242183754785,-11.28868204197129,-5.128640920041335,-1.7487055864260435,-3.067259225120093,-1.5814273704103732,0.08152447234401955,-0.2708100210003838,-0.011520220451696823,1.0143062900231936,-0.11495879612499013,-0.23348563845429532,-36.7974548915035,-15.889930581069432,-2.9237402648918,39.52325791507337,70.8240336214109,-16.68346303294222,8.314561706148103,2.5376187132071184,-2.419674798409158,-0.387500887322451,-3.830352113005869,-5.1447149262390175,0.63156139701877,1.8976432877908567,-1.2284094641381385,1.3471253689997829,2.619482315661351,0.13039636215433953,-0.16730280806737616,0.3528857532187157,-0.1606706018392952,-0.003988358069408322,0.18395463416829114,-0.036288465980163706
-6.001925604476209,0.3450353228489671,-1.0408244983900403,-1.476352316880125,1.4758125672553406,0.182697308878928,5.432865222792699,-7.585854744352404,-0.7558355333968089,27.174000493098593,3.8682330512098573,0.9806823296674632,0.0687475591126696,0.16763732979948578,-0.0534107118776964,0.6273642641810465,0.30345675518196147,0.16932923703086755,41.988425688651624,-6.365164347629749,-1.756083891026062,40.580324532467,29.475566815244274,6.8480917611641905,7.309908187308507,2.1603760142663617,1.2717470486719837,8.138357721590033,1.7909855908729417,2.9896043587862056,1.7568368199789064,-1.9781664519181321,0.8795156810705735,2.0263674815394768,1.5275087135541006,0.8637986331543953,0.493848155872093,-0.4277369430576671,0.077593433507916,0.4970027622474237,0.23673713938033591,0.2457547148575245
-6.187941513017951,0.6134355462730298,-1.1739936705751954,2.3383895480325325,1.656234166098829,-0.22165088530212387,-3.279922446817217,5.841348626930818,1.0492117665370218,22.01605809533196,5.97656868862848,-0.3271741095251775,-0.07328364450884355,0.0026349646522212163,-0.026526228198273376,0.7213803657549149,0.08088152703871145,0.07891738161294458,17.315897154982768,22.114861144996652,1.047255580865506,39.17322418303243,21.76649842975267,-11.663979953876074,3.916490471733767,0.27434775333924966,-2.03302307317365,3.572007625586317,-1.981280048706964,-0.34813298799643666,2.4764124303307646,2.2427365085352036,-1.0145317590038665,1.6904561551953496,0.8373376602018173,0.5660499249132245,0.18885291292416262,0.3726520212988597,-0.049724405645485796,0.11740258121061224,0.13330096677985798,-0.04518030546523608
-8.452528486733817,-3.8653010963289653,1.8646725789969034,1.138228941495532,-4.082059046508151,0.10978526969571606,-5.6438010881916645,-25.796191592119555,0.45005348522007854,26.743908701167538,-14.255057771054169,-6.161461204588367,0.32867441240117984,-0.4931238298158352,0.08496560484417479,0.6648184793484729,-0.07198021323944545,-0.16279502562370834,24.042141810833645,-49.86753399492394,-7.979311061483003,34.21500405912083,43.763192098163955,-10.198303722313801,3.168840412416702,-0.396963638913072,-1.1701282491787843,0.923949796319764,-1.588785027531698,-3.040395133292597,1.5440570774569362,0.05642710622987314,-0.853095632285007,3.9165755821767627,3.9241949822480775,1.651687647484698,0.022018189990976645,0.007913601971368318,-0.2666338852284732,0.5706770459827222,0.4732579014930227,0.32974986905031733
-5.9946992759708735,1.092437208306417,-1.4226055095719996,1.875861641929301,1.8264134155648684,-0.13324203038244228,-8.5434141180867,2.38408851312023,-1.5694587561310727,21.28127128284164,6.151256447598665,0.23157440261249945,-0.18737568963655185,-0.04736538445295056,-0.012957496537221502,0.5450134816002017,0.028883052164199043,-0.03339502802061411,11.034275430741392,11.060818910197314,-3.6388539509165487,29.459811053706826,22.308800025504787,-14.23563571543555,10.359406152252129,-0.160562117101884,-2.766382012307228,4.530438534874504,-0.6449982030308513,-1.0578569573191916,0.7361246506244238,1.5698049698002274,-0.3503939171817566,0.4046916529216325,1.9998005740577003,-0.8281904177617552,0.5878388674670056,-0.026743697499636183,0.24414910193409756,0.07067643009682335,0.34552888640213786,-0.21504547969939028
-2.4002700244906245,0.38099944258225044,-0.40228706351246446,2.310522519515128,-1.7930625350251141,-0.2589817214632935,14.567215057329426,-1.2738828812205545,1.679792883605167,21.751383624274943,-2.575179933270724,-1.8000277199520347,0.45097580134017556,0.08880085210992622,0.20785993073117393,0.64618212711788,-0.021524520169051806,-0.24160750736687683,44.801046515052306,-5.009445933359913,3.0605588478081835,50.88667750636996,25.9978485163322,8.544986248815679,-2.876374768055766,2.4128059512044793,2.5217624358958157,2.8732645273402273,-0.1814304493499294,0.4232893710414943,2.3176747859406066,-1.125610562499878,0.06237690524937768,-1.802796045094388,0.35101660464436474,-0.7808876045179401,-0.27427336042825157,0.06944562615718715,-0.22451166210574391,-0.3622617763588748,-0.005276833194050394,-0.06862655490194511
-6.404249842333234,-1.7212227841276804,0.4683100250119913,1.3953243617861653,-0.06764396199685035,0.16853523712826238,-10.086756399295481,-12.555766125565782,2.008517203218033,15.11025305224872,2.125778785169538,0.854224101329197,0.049773588817828014,-0.262277531840379,-0.22514749687869912,0.868687145406536,0.06803720462121667,0.10883297450850786,-0.7748743119891944,-6.940465709140189,3.381880152234635,49.47682027100971,22.600108451435432,9.540921529341052,-0.057765140966307554,1.611255870906691,3.4553009713650487,4.224542756751896,0.07489359566185946,0.3656748943566987,2.070812276838192,-1.2872152043188558,1.719350464585754,0.978375597633187,1.438957398765759,0.18718089599957363,0.040777451015858446,-0.029869986173965548,0.3284200839055084,0.14096669659147767,0.16420466464172032,0.03971551264616739
-3.470471542876517,-4.187137614594462,1.7483673676732572,-2.0478621547417375,-0.08365937693526851,0.13561976836875417,-5.701799800172871,-13.594145422283262,-0.961614207971117,6.936098452240209,0.8161520762955895,0.6183250300831988,0.3282200110235463,-0.6275566375006678,-0.08467020683152762,0.10436478175592356,0.04624427729816886,0.007735841234544918,0.05023520474256965,-12.747885342670166,-0.05392359837777621,28.820298143987287,53.8403490351375,-8.707447821782846,2.63612925423274,-1.961642615842261,-4.568567304747427,2.0575903837533525,-3.4980990326466714,-2.3976405893175134,-2.0110335459117397,2.160495238624413,-1.7593899145221124,0.12813628900002233,0.8390974372462419,-0.5379718346532898,-0.1686116615639192,0.041761218253997485,-0.16533889195153526,-0.19312395521644252,-0.1415234002620295,-0.18498776880630505
-4.252171533988769,0.5531806880843646,-0.3927416504273011,4.729743615846161,0.5198675739334386,-0.23327385672090822,-4.003948628500764,-2.9518433444975143,2.3833128244031263,25.32592960681671,2.2353365718583387,-1.5839661695650442,0.30134003828421874,-0.054132406059991076,0.00041015366055238196,1.0683950857264413,0.01033194368456175,-0.09310939227791012,23.81448752387705,-0.4153228226978562,0.7309569145609948,33.42132433574252,0.5193635712139454,4.596219117736487,-0.738530848918741,2.5800192790948557,4.199860663326064,3.4067462501446095,-0.6240814747723856,-0.49892030166955137,2.2573390791591845,-2.3138363887127995,1.3135107911326875,1.521476132502253,2.1414997500668176,0.4318856380449662,-0.07510327204940483,0.03664887325062571,-0.04594491673803343,0.260989653051224,0.4304884681968524,0.0877040800215618
-10.39082728402735,-0.07697743341133895,-1.1935566031378697,0.9645570362357607,-0.21157748145645078,0.25480837168666726,-18.893474636951186,-0.24852764396211943,-5.5043460598806035,17.174209195648647,-1.2926476057422152,-1.247627620492104,-0.06237688288740558,-0.3016640274078205,0.0005611409836725374,0.4519228370658196,0.23488592597614372,0.27544990358559956,-2.3274688627936353,-3.9869764291910625,-7.461052825292577,60.81597065170549,54.32474097087141,-10.30300368337093,6.766705765548919,-1.1698704984890307,-1.8040502334080923,-1.2782453763743835,-1.1600596563145438,-2.2650691603762185,-0.15609435263927549,-0.04361115201178808,-0.08220628917159753,2.8751431157369205,2.3595481396240356,1.0514556466311085,-0.18497205204897949,-0.3238920834615487,0.191294826086304,0.3344571453202492,0.27147819146212426,0.13739861194168565
-1.4570319474922098,1.1121239019263474,-0.36754655505801237,2.04120743912081,0.45268318875694724,-0.1919618012683223,-12.211799459861272,-1.8762393701282796,0.8097464370798535,11.10900120530134,1.566199237539322,-0.659950528042062,0.4967299958986078,0.12009652833036238,0.06907102859085486,0.8413351471275119,-0.02273048079585625,-0.14367128414874614,-5.843983851990248,-0.29012255475733606,-1.051046320040117,36.61727409523118,6.190849510904595,2.6072838264392937,0.7408971193396079,0.8688383271249475,1.7737599847385634,0.9390247782438977,-3.9345384722165724,-2.2892637302360477,3.6992199538502852,-0.7288283788662122,0.5948715186953576,1.4000172241334115,1.241377369855811,0.19202355145825278,0.37244553872158065,-0.10807317621718625,0.1398566406189672,0.141550528024035,0.10891613474571753,-0.02057001068087838
-7.580129999999998,-0.11215999999999982,-0.54983,2.67431,-1.1960699999999997,-0.41166,-22.678499999999996,4.492999999999999,-3.3763199999999993,23.977819999999994,-0.03447000000000011,-2.7848,0.3805200000000001,-0.33309999999999995,-0.011169999999999992,0.7037799999999999,-0.00377,-0.13879999999999998,2.8346100000000005,7.51677,-13.038449999999997,19.004600000000003,17.985819999999997,-5.78958,13.366799999999996,0.47019000000000005,-3.4790500000000004,11.492520000000003,1.30572,2.9625800000000004,5.92122,1.7828500000000003,-1.71088,-0.5976800000000001,1.9023599999999998,-0.98926,1.01095,0.3047500000000001,-0.15376,-0.05364999999999999,0.23893,-0.050109999999999995
-3.9109358978346584,-1.237199383947838,0.27154416252684344,-4.211092837389486,1.2183617150032557,0.5478789501465102,-4.942274680954587,-14.96474010701661,0.9918297893859102,4.755399502491505,0.021167974726590363,-0.6624653957051411,0.401353607096406,-0.26296437814680573,-0.008113566053246292,0.25838834369395064,0.2018586140320939,0.2909060236621128,1.3823981441319038,-22.492271133220147,2.5216302020333172,49.70332359364018,60.78695476708335,-0.3142681666776932,8.090831219917035,-0.26225388055032767,-4.716959016246866,2.1816116369027414,0.1873570034567858,-0.4305730990548906,4.263649556885669,2.5988644054617,-3.167797019283346,1.8530850327221302,1.8394090854363825,0.1357666469798044,0.4317633746838235,0.741532458835517,-0.756046971702698,0.3602553746910609,0.2915104977902903,0.024768632258066747
-2.3992527017688605,-1.3614813521539668,0.6869189738259159,2.7543495104385043,-0.7441610302539212,-0.4331213389335726,1.4870568508801636,-7.6839022796160705,3.016369375105101,12.53038615744359,3.6086552630272943,0.08313183541859392,0.5586461841763851,-0.3061785339843288,0.03201397627056975,0.9318170109804593,-0.0843198158514327,-0.2594906120042993,19.63907362346272,-7.308670620827686,7.142055965735255,71.29826931399401,12.621107724119108,7.100046481125587,-1.431140077494152,2.272043047961138,0.41883583977934863,4.457209190288655,-1.1462510599839564,0.35236628759028094,2.5035148409682004,0.9035779725404129,-0.6705232823033088,1.513877524119036,1.2282814833867728,0.14847012609772908,-0.2180070933734013,0.4618315602069202,-0.23167168137468516,-0.00235959492316095,0.04617255506133665,-0.07688630187443711
-7.613402027468359,-2.2614616720668956,0.3204616818507814,-2.7198644725940815,0.9761641649408589,0.30399776164527464,-22.94442213637148,-15.645387354695943,-1.7562823706113058,1.5603845877334512,-2.9760473156363823,-1.0969854980666904,0.35630880244765095,-0.39752411035284707,-0.128906829432483,0.1766932728921786,0.10423647828868625,-0.0015166340834118046,-31.657568019926234,-26.28777048667197,-4.548429326466808,13.366655669906065,-7.432467570678694,7.27361399585484,5.3592927434599495,2.702473933105854,6.027392403789661,5.66509209478914,-0.3225229057503411,1.358703407791463,6.430287645662542,-4.42527601219826,2.7466772294007953,1.7809286561689244,1.5548494135057789,0.7284888591333007,0.8866114049456576,-0.6582626273857272,0.3785302278970038,0.2402373361532866,0.11536856563617548,0.2445110148712147
-5.1438516929726035,-1.2348082697269191,0.6491829956088367,0.9010148210016662,-1.5618952418014975,-0.39464117891806577,-12.158907854582399,-10.469206391965198,3.432313063165685,18.31031847733008,2.344069733410632,-0.8001490662650971,0.24506737635103001,-0.2660383699666527,-0.002549785037731236,0.7883121571968448,-0.010743488537184067,-0.22553617850698776,13.163460598487507,-11.898215880139567,3.589736799489578,24.009288501130637,36.079294802456545,-8.319689007184374,2.2343466577240605,0.6887841631179955,-1.3128452336971175,5.019265974411248,-1.6581337016989397,0.1086308536951012,-1.985159949200605,1.4584599508774878,-0.35570204680112844,3.108277021078335,1.6613659081417078,0.34391925701092957,-0.41880262603892393,0.15486393542043023,0.10598786914650027,0.5528059380916109,0.257812765249924,-0.017870351807396125
-4.578892581457465,-1.0534208587318339,0.25021901223662596,3.4763054681422316,6.734210565221485,1.0374339972256392,-20.240706043358244,-1.5193440116426773,-1.3361075898126535,23.3856602969922,19.929365118710876,5.650691605812631,0.6384814390746348,-0.47798390394044915,0.04629533408189469,0.9105083938504545,0.46559991106640225,0.5492258334162492,2.1275477273002257,22.596596493033154,3.433579688674396,27.98339087999488,24.89060185061157,11.362115567022752,2.7598444281704655,0.3162624203612483,1.6427788338189089,7.950406682766828,-1.827009098180766,0.035674736609597434,-0.9293079365527451,-2.8767913709303325,0.6634433194746345,3.7091951603748097,3.569727607631243,0.11909493993897004,-0.04889420454070521,-0.671987200546048,0.09687821249703289,0.6287813016114322,0.5774146865159537,0.06451870283941304
-3.666015370042444,1.0377026540417547,-0.25507739151276815,5.5750164139269724,0.16549625629655007,-0.9558681431839249,-11.938457125726202,2.544479829906565,-0.9371156612774825,28.88070469216825,5.112226027917105,-2.3339778800396678,0.3438208349190985,-0.08180269826791467,0.10926124136635179,0.6831086542993429,-0.001579873358297403,-0.3469962837247666,14.614260098754718,11.57027443226705,-5.982943030907221,36.9268531764538,-10.215791079146262,-6.355155324520612,4.763134758712232,0.7463995131779736,-2.436855732573054,2.7464726763980116,-0.42861935404105683,0.16477046771526555,-1.7512044474664563,3.161183081830009,-0.5642364394936351,0.49187543385283483,0.9997249124384937,-0.1565644228447236,-0.3679602378913924,0.592752775652787,0.053161913573805585,0.09859560162291874,0.10201870354066336,0.05379924613685786
-1.013226204927236,-2.467966441759699,0.8133292275675035,-0.26595588115971897,2.8346886948268475,0.8149491407098579,-1.706471239620793,-13.78159604780649,3.2444366543859084,28.727348299133787,17.333359369464283,5.140416010150363,0.5557250359313123,-0.3253326219884737,-0.03521343272932039,0.408193051032957,-0.09744069481576333,0.16248183943912337,32.05929206113202,9.71602344870746,9.923375560378076,33.31440425447216,-4.467728592685786,11.439523218946123,1.3733601001883822,-0.6262209865647753,0.5059579975492887,5.850856612929778,-1.3993554879791752,1.4667875047000045,-1.167574979282088,-1.1491111714155595,0.44165095464087123,1.2514116089311653,0.6148868107214606,0.22591696304668407,-0.4406060933104168,-0.1719189039983676,0.09018840250627862,-0.027427127807961985,-0.006303363411011859,-0.03836282301450195
-3.882015952867106,1.9501079961519598,-0.7457619142901761,-0.12131184314023574,-2.0970194668321187,-0.2849261747422309,-1.9278725239110608,7.562678839879088,-1.3960406014427944,15.721338446465902,-8.273499009316405,-4.052430816260808,0.44282714302978615,-0.2955991592346445,-0.15201077348512387,0.5793581777472959,-0.08991513395839167,-0.24835122996836542,25.64074439837606,-6.5942197986117,-3.2485356433363974,15.878974716721167,-3.049725610511577,-1.7939615122679875,5.678501296836918,0.603294497930774,-0.2616209414976186,4.35465118170166,1.1557445594692461,1.088295760256523,5.089335044272332,-0.19117007002841913,-0.3896661371944716,-0.7715756167781841,0.5745677733238633,-0.5789804131027656,0.8590073312931025,-0.15764891331746375,-0.0956889219887333,0.003362572157083453,0.04106404388206389,0.02922264218038135
-0.9470046424777943,2.6447214186418107,-0.5607109799885266,-5.204549155989694,2.096955112605217,1.003448780268141,-4.829031522757951,12.497985875318818,-2.1668081272891757,4.407435550202632,13.197981576347424,4.633990344222298,0.45286430412223966,-0.12925904384286763,0.21340718620775956,-0.15914145288399845,-0.0046438892532594325,0.10472008012501123,2.476429425609794,34.13629296183572,4.743054370496785,-3.4854065014051145,-22.243893810107448,10.07892776348498,6.286125245187691,0.8003058835010316,0.05702729946631722,7.3012666968802735,-2.3351464334165275,1.5014051900131848,-1.5941361045223161,-0.6452433674233005,0.7078973077688945,-0.07340026070945994,0.32256359652529204,-0.5173790373230626,0.026008432789612013,-0.5202682268914844,0.3995184549978863,-0.06044863604726177,-0.035312944734186474,-0.10926467592044617
-0.330463443326231,-0.004516206117271324,0.10146821797012627,-1.6230021487277753,-0.9916999963897224,-0.30879028900332145,10.24980841556538,-2.725345668856807,1.9110720898966722,21.61049118171296,-3.7790960787815746,-8.254861000320057,0.7146420735132574,-0.22932786590306217,-0.015679812250310645,0.10804158869133086,0.003956120269826045,-0.11528438184595159,46.360710255589495,-12.26329718710166,-5.859079530499391,48.909766986948426,-3.1024455915198508,-0.5783578963813427,13.267737472381487,2.8716773313396455,1.3022454609430771,-0.6600751996031982,-0.25499749569484154,-0.18875291222584437,6.212309617369124,-1.60703485571288,-0.022029902666996545,3.1728460108490535,0.9743491168007025,1.4470869904072374,0.7406225216315072,0.47358438611915143,-0.5041879344601125,0.5445980935534084,0.11808905146802276,0.3312492264058405
0.1029474860087906,-0.8173297660491894,0.0634413684491542,-5.446393013760821,1.6565074748443562,1.1294242596837756,10.352036486949814,3.308907022778892,0.0001479242208897863,-1.139361500615193,6.488580659720275,5.410297290515797,0.6259759675493226,-0.4816955840007516,-0.0682832238390439,-0.38897744882948376,0.013483792572386272,0.060761846052549064,17.16505880764861,12.707095365945618,15.023448133131362,-16.04179573062151,-15.927792447400273,9.90486440886409,1.8882724402595175,3.2967793519883277,1.9026247522250466,8.408276158033893,-1.0565076149353716,1.7405155229916647,3.2958443698695734,-0.854091679591034,0.622332715691265,-0.9071970102963162,0.32105578786371425,-1.1222033165416618,0.25163094867658403,-0.21220627739593637,0.31969559065681175,-0.04122290959758815,0.03163724684424435,-0.2028529135169791
-0.8662881813769429,2.8567633727750885,-0.7913507445534849,4.443091365477101,2.420926347889522,-0.3076885022064289,1.4094707225486798,7.948217234825489,-1.9982987363207037,26.376750129117234,8.601894766614667,-0.19855853607723534,0.3146282086022817,-0.08506156320450947,0.0010909277922372847,0.9325818440592795,0.16682621103914644,0.224657484600929,32.960117524898116,15.609504801343705,-5.28783567463435,22.975830559752875,-18.778951362481116,13.837364223493168,2.703678628659563,0.25521276364955,0.9547499309980916,3.9658929602030484,2.113523884237392,2.1203615604945942,3.501843802844435,-1.108809415721494,-0.02150451671859589,3.672905022544516,0.7693929053966422,1.8312199882504265,0.30669692156439327,0.3537374259781843,-0.329941986754894,0.44483883741832875,0.04422491468344646,0.33789195690069795
-2.0670955144119283,-1.1833281262701323,0.30417034378424773,7.071753389491123,-0.6600487116834148,-1.1441999178119964,-1.2678363666938453,-7.295280293515478,-2.882423281765946e-05,18.208226718086376,2.645839301453364,0.17341018773441472,0.5818216832889832,-0.29789774536518826,0.1110623969844434,1.519677715466149,-0.19801783471919748,-0.3048803676958896,26.176743222639306,-10.820834531875802,3.376017240958518,11.894367464594827,12.108064946487683,-4.312698323639877,10.74524006512301,0.9891635415990868,0.5327970770617226,4.914798819808834,-1.9853775790744015,-0.5422534899186856,1.6631783298586182,-1.493423947487906,0.907274432643001,0.16929749850341216,1.8011910706830796,-1.1423264568439828,0.6415050055027041,-0.6021458604530904,0.3445367822969132,0.03150944710955892,0.2702553776151052,-0.2181735376807709
-3.0489258795686007,0.19183375158340654,-0.16946071828809747,9.214165281382943,4.68436520420089,-1.1664627668349832,-6.631646503406071,-3.577790271434109,-0.8138194381512158,38.12395631589124,13.040738530364333,0.6490609004621107,0.31479909714046833,-0.12970165560367466,-0.09803817970313669,1.0262602206982772,0.3568679531309777,0.291905303300633,39.30495523744425,7.123936659159282,-3.7602500191980988,19.4682616596971,-26.15913050943494,4.584140227587492,3.4277601121418955,1.8413333737707227,3.378319771871124,-0.4126690263279688,-1.2728590927564218,-0.37884535377863926,4.2572328792748015,-3.2069515590802746,1.4093395300739904,1.52650029137029,0.5309070403495229,0.6043382652141532,0.6106229279313998,-0.3050515359833037,0.058202064041599486,0.015711412978834008,0.01687938765518023,0.05821372369942195
-1.7463525288315425,-0.27844915855090124,0.26503289309037364,-2.473756882762603,2.047953727501814,0.4140333101561858,-2.472405759080324,-1.8578441430305674,2.6455050304188013,8.344465791740063,10.726251492121575,2.305545323681769,0.7580289276267501,-0.48419992080579866,-0.08647689262039948,0.47332676057411716,0.05384695030228584,0.10122100766675489,9.115522846490952,6.419069461227148,7.631209075994078,19.692648050159395,-7.315554069061108,-5.7009761544729445,4.8420531758695935,-0.8322799944051565,-1.8456630300712102,2.4967592420959064,-0.6811712201598508,0.07614498581734694,-2.5151920270824397,1.0856714456590568,-0.2723311571986023,1.114562339722188,0.4202122514755293,-0.0249729915708236,-0.44369554129173233,-0.02543403196303192,0.09209310166933185,-0.004266836124578456,-0.11303567557339375,-0.053741507607975844
-1.2022745029975963,-0.5470172602418896,0.21890964485117184,-6.42459818536792,5.3525844921254295,1.2782476277446098,3.584781751809428,0.16025637444707463,-0.7020737735811349,-12.646278722191942,20.97812742146838,12.053116837036079,0.4855757679152808,-0.154769200989464,0.16847032831705955,0.1548532262226607,0.1069637231150265,0.04463833528722022,-10.43891734087057,28.095374155572234,23.779454354652493,26.82533777920086,-2.4963278250220666,9.398396687855621,0.8927386902708392,2.1846117275249424,0.0721580005333233,7.450731214032088,-0.7813537800888183,1.109911643994408,-0.2704611519133397,0.9561054330302778,-0.21451742502235163,-1.9864462021298963,0.8734535954969299,-1.2924548025119869,-0.3490799265131252,0.4384145607790848,-0.04598992228087745,-0.2049288003856774,0.16646142828804253,-0.16042530309762898
-2.69488,1.5989199999999995,-0.051869999999999986,5.630469999999999,0.4819899999999999,-0.7315899999999999,-4.53663,6.945480000000001,1.30551,44.20966000000001,4.572809999999999,-1.83829,0.36959,-0.15619000000000002,0.07893,0.61591,0.019499999999999993,0.009260000000000004,53.80570999999999,15.92308,-3.6849500000000006,-3.381180000000001,-27.78696,15.345050000000002,6.757569999999999,-0.42275000000000007,2.77135,2.59296,-0.9593999999999999,0.15743000000000001,0.15211000000000008,-3.7138200000000006,2.0606600000000004,-0.0553300000000001,0.5590499999999999,-0.31008,-0.054669999999999976,-0.7165599999999999,0.35954999999999987,-0.06707000000000005,0.10570999999999997,-0.08951999999999999
-0.5011419864396045,-2.3940482412247337,0.19623338204841248,7.538040835469571,-1.5039586384644685,-1.0784671387308635,6.882188168299976,-8.907956484893793,-0.6696153081548046,41.38861780867512,-3.882278842609562,-5.650903477002291,0.6324668420723607,-0.47163855240812536,-0.21058104993727816,1.4184552833111277,-0.3266605977845128,-0.0865952944739601,52.72056812793561,-14.457445580494523,-6.658191002373307,11.119011861502553,-13.605628326667635,-6.803566777348863,2.573608079161109,0.80409542159612,-1.823383505788692,8.672267038153402,-1.2929158823405282,0.7232900021570288,-3.2684221611520794,2.27715188303611,-0.42947063256126017,1.478145797441024,2.065673861315279,-0.42307864354785524,-0.4618232885433616,0.3123030373427859,-0.0152775478743339,0.35665329963559617,0.24849201633893162,0.01993796282917064
-2.064497148446365,-0.19027975464127667,0.1824645872654647,-3.075489437995803,4.217773695299085,0.3900471415255882,5.860524556565149,-0.6917431995534262,1.9752065988899687,17.980736636890637,19.20201797434589,2.5129707554443907,0.5926454721018124,-0.3542603231830845,-0.04925811126101117,0.24908388010254606,0.17035389085763256,0.09921597198033826,32.135968437378565,24.469932661807647,6.924578045653787,23.329581970689688,13.851737644006196,1.6399240132464428,8.962288218459802,-1.9401936469382268,-0.22385326417422247,4.792292578412024,-0.03385131943089991,0.240070291190025,3.031041537167231,-1.8797845042429828,0.030065980347858512,1.4420192225187847,1.5601376905136788,-0.17618494816803348,0.3996175536432627,-0.21783628696558782,-0.11218989096605025,0.19455811274706364,0.1729471735170506,-0.01377063402143123
-2.7088185583558153,0.7530935572455971,-0.02662809407366365,1.3995947259978319,1.2175041551348402,-0.4131530864572479,-4.0428379513849855,-1.1255262444101592,2.080121890062967,13.379574160331542,5.149336463498642,-0.3753465355757566,0.6525443306694501,-0.37077376899286624,0.02918135530008153,0.7946289674260889,-0.09481515793986404,-0.2591051242550757,12.653561707069732,4.711338735652978,3.8640521244310877,18.56372806153022,-15.087862672594227,8.359012205873821,0.08894862074560067,0.2782971555262882,0.6567837266594018,3.619279422315532,-1.5485387924540706,0.9268659038245592,2.1355487630036887,0.1629128935366076,0.6783699119339931,2.707630243132578,0.2661732115791292,1.123885321268314,0.033232697325740745,-0.132256709959389,0.5457751983548567,0.27922818506832114,0.02085768611652667,0.11979136639849837
-3.724855807951318,-1.4772122166736106,0.36890570720309807,-0.16425599647301098,1.0273747887663403,0.023309895509755013,0.5222523403490165,-11.63999920015558,-0.59638721983228,11.619166720711064,3.6594885948642313,-0.40461455855554196,0.3060505708388277,-0.16695650577174867,-0.04093608371822109,0.5440648405927629,0.1172454970069701,-0.047419092971008936,16.996611060601403,-18.91360903912129,0.04854519460139706,4.419721017612356,12.769982360796478,-4.29667925008845,6.898782024379221,1.001502783670473,-1.5529887092757066,6.317216350769488,-2.699678585624773,0.1455457638135782,3.5480120540935625,-0.6867271829630532,-2.1357297748925337,1.8514676150985558,1.3535989647838953,0.15910145050625388,0.4490381505957371,0.2779476446367537,-0.8279078283839516,0.26586619162376407,0.0958463138315146,0.07480474482441996
-3.81007773700282,0.947137472899152,-0.29367847416737397,-0.30995110520738733,5.454652043982096,0.6307874374366692,-0.5028204528930378,3.622612778041433,-0.12868032015057967,11.511427353645091,15.061906788087365,5.172033666124049,0.3780282073964845,-0.09018634263369638,0.07070568109131593,0.3139246981442808,0.3464495388850012,0.3898272739202592,13.627014083854224,26.1294952323904,7.557142198349042,36.52445924126145,-28.74474708556397,8.053690529398581,9.659878326005144,0.8839980663237587,2.938829363604338,3.9232384376117646,-1.2940093601440132,0.9225294474580915,4.2727302133286695,-3.25234463798075,1.6489267967479537,1.3688257969831463,0.1995403052407796,0.6559815575330719,0.6250315883870861,-0.46800171583177447,0.3732711738917176,0.18145519987294526,-0.08170842275196148,0.15968884988644882
-4.579044389853485,-1.6741531134003382,0.9182050564619295,-0.5033640236645642,-0.7114461496464195,-0.30192034793973443,-8.65959967152042,-10.418954565306338,1.8275600831729657,0.32459106631531437,1.7411589172439963,-2.3065569546526636,0.3610627242009561,-0.3496058596391976,-0.01933043935532226,0.7941905190331141,-0.09758700232848615,-0.12901482348028281,-10.849074023666045,-9.992342040998459,2.7852361187552224,38.17217456979264,6.673014436214501,1.172006647100973,8.087963691862134,-1.4723811661508475,-2.4472428575330776,4.712476052448859,-0.6752385248154646,0.09238917052527391,1.2493198958122682,0.2619945849069635,-1.1171466883815224,0.5929243615424336,1.1130355289829206,-0.4777759650419451,0.20232025007307028,0.10685491438544412,-0.28675995894129075,0.04540741217548623,0.1005729477219654,-0.10588770737794759
-6.014983197543001,0.9753138826104849,-0.83991074402634,4.642760233491163,3.7580801613328494,-0.0626120757480349,-12.588635048486367,2.8816679717030547,-4.068922813642278,37.35121924764755,9.695868129620772,0.44834914965781336,0.3171043514439704,-0.183025843676444,0.006937478556143849,0.6982462000356433,0.3131657713309698,0.15836789690472589,29.6726803713099,14.868593459752976,-12.309983699118018,-3.0422373694388885,-11.735244521593193,0.5376775189065032,-0.3216809641815984,2.893552100708827,2.491585844205131,2.9368927584458664,-2.0744896334844642,-1.118623907477086,2.086193691890825,-1.7187919585381852,0.31188238020498116,0.4088839235496112,1.9164951316083803,-0.2771651091531719,0.24334322189242688,-0.17412672117036132,0.0049638719857846335,-0.04979227514629065,0.2845247663634149,-0.022266994865809915
-0.04733797776481416,-1.821221399557919,1.2089989592167634,-1.5406974296866998,0.5412770826915652,0.04298579315792169,16.810779432736577,-14.760651044810528,3.9314689687853686,-4.004151883599448,3.3507131724429535,-0.4564492482217869,0.25105187003789087,-0.0960693238754792,-0.00023520154594768245,0.8122943761115792,-0.04081954806167463,0.010214408976246895,13.338228350898058,-10.629037202470135,12.48950975624072,58.45489953276565,-7.9194265829418455,2.2031234443146714,7.258906597713571,-0.07309363800171727,-0.539526401003302,4.0567774884508,-0.6455940017295471,0.4830336201841073,1.5193986173955438,-1.0680797628706873,-0.6809214321937449,1.6134111525092256,0.5871594586792979,0.1745204542876746,-0.04693548066830999,0.14824750355173566,-0.28516502579117503,0.270416193985473,0.047800883802813394,-0.0124943554883855
-8.070871993276233,0.1977342124646265,-0.21097589047056123,5.66328593453007,-0.8758697508721973,-0.4992188083534469,-17.22912888834378,-12.075597520566593,-3.320959413812642,34.505212815502155,-3.940879822848172,-2.380862113166272,0.5525812480864437,-0.278872995438856,0.08800825722104647,0.5924942970560098,-0.12631255948504905,-0.18804106887641547,19.9006330411172,-24.34769260140088,-14.447524171545925,31.87017498889831,18.12186933105717,8.169889915498954,0.8209256519607928,-0.8247096046287237,2.828795635484681,4.995090285276663,-0.7954869305466907,0.10150304064946992,1.820364034996436,-3.386457621899594,1.624614956359529,1.6880746779115272,1.5787374552743452,0.03205215295422045,0.1897760031481753,-0.9984359458787787,0.5189838823954753,0.12483946794889593,0.15791153848176454,-0.023282912434519406
-6.7445273281845335,-0.8059644253028226,0.11363229859051434,-0.45697018090569375,0.6647771514756707,0.0743666004569625,-10.886177706265656,0.37805015500543976,-1.8803522209307522,8.275928649552847,2.698722723465407,0.2978545361934545,0.06007035081426408,-0.3095094214041159,-0.10655439691691272,0.4727670677398324,0.030565531054212135,-0.016043511831852403,-2.3558274744339176,9.083245930431762,-4.54882856989711,4.070387804841547,-2.2377119985170326,-18.063404889771427,4.150470967395425,1.211870610793312,-1.2364801587555212,1.0648962824875399,-3.253765287244765,-1.712630429342448,-2.897945029895307,2.767531468808677,-0.14188675738667386,2.0428416049722866,1.1046844402207434,0.34776803954009533,-0.6109361700444966,0.9016563396998285,-0.0928185674197704,0.309876144984918,0.12296295484310955,0.043558449424846775
-6.1392265272389865,0.5527366260011806,-0.31453412771566464,-1.6632407037306602,2.3953148670624667,0.32651647902350045,-7.4196885368418295,-7.121880859963367,-1.5291778938346094,0.13400003745439268,4.099642218416128,0.6802956925328194,0.041151367677196696,-0.08022351849463817,0.0896865598600152,0.43237311818585555,0.1924815374694098,0.16910843818233454,-8.38549374620294,-5.6640594910770385,0.9089631437361552,36.44542173244452,-1.5410447405929646,16.07417803053208,4.915740710997263,-1.8611792196998402,3.081849637626967,9.342847841635537,0.9274845673000265,2.434864277880048,2.354273702361419,-4.807483254397219,1.560668230639937,3.0091188260851554,1.717868067903357,0.8088567849297362,0.38511305711595467,-1.0175599140185112,0.2770297484153664,0.47464442424010833,0.20517028419870548,0.1765407628510327
-8.009924933299255,0.05183481269824914,-0.1475105776302184,0.3580876752100778,2.871001230844671,0.11588988759645652,-9.051594068305969,-4.429259519818354,-0.3928458708559844,6.92020388844598,14.915071005368056,2.4074944979451214,0.3879681130447421,-0.21567938822975516,-0.07848622540687239,0.7322072207527605,0.1472129754918682,0.12570411740471713,-7.259607166047044,13.89233439202845,0.7760638398014181,32.50989498135116,27.845840848337968,-11.773707604788477,6.016552960852995,-0.7180111195501752,-2.2488538240420164,-0.2103677480149598,-3.034637898565558,-2.5902358645858024,0.5309530832101942,0.488502106477971,-1.3077375198809704,0.7687982184858448,1.4044015004372328,-0.44624533259921173,-0.09921706156071146,0.25974029408360194,-0.33688637052122006,0.01966221219312478,0.14675716235821554,-0.11273139396774218
-5.150413040165651,0.4573771628418697,-0.5143578401498341,1.460904202353149,-1.5883287465975966,-0.27851185700774755,3.434939731952348,-8.999489810601357,-2.602506229422095,11.495039725445148,-9.298030092197344,-2.8359443024843065,0.08437524923121834,0.0737498927990128,0.007996497890203094,0.530347065409668,-0.18273044883856016,-0.19924000743955572,19.26159640141932,-26.25733099129659,-6.970450583908276,32.467655353572155,6.0417443304516985,-5.537381022628089,6.367789040401747,-1.0447592234126344,-1.6035954445535374,7.81150815155807,-1.0237992410511556,0.8893187385198652,0.2755517997129557,1.1265443580294165,0.09162399799065774,-0.08054098798352001,1.4096398463928175,-0.7211209900146632,-0.0220300779619276,0.105578592354301,0.21759954337930446,0.053599814694875104,0.15171421378833164,-0.06414622809095356
-7.497870154102096,0.3766111538009845,-0.21288533382297065,-1.6948179819940896,3.085881435211342,0.4965437517368165,-23.357890644618326,-2.981518931101681,-1.5302845230439492,10.172694387425935,7.0014821965629945,0.7445423167323948,-0.0224660470883984,-0.14184189977438327,-0.030695772744777673,0.3265369881605145,0.30970493581843334,0.38368225445993204,-17.305500934867812,11.455817505427854,-4.131189479027734,54.899620483385156,29.095778149201198,-0.8877285076290078,-5.017372178542976,1.362424693189884,-2.311948358594888,1.0626849013073603,-3.5614299121622994,-2.082187734890442,-0.8421681468926715,3.597827158023599,-1.3883839829623876,2.2361227764376106,1.5847164736952548,0.4208028284578551,-0.536993357154557,1.0105355012552537,-0.20899258808676396,0.234855427782985,0.16951577468934464,0.05501393907436468
-6.311678871220758,2.010619165590038,-1.735629976163134,0.8324927552080753,-1.2219281131377773,-0.24861950378912487,-14.386624292485125,3.3577148188576524,-4.227880384584667,9.862997986967962,-0.8070965009278437,-1.2862145157013312,-0.028450558920607934,-0.20429813539503558,-0.012609435705805127,0.7138785249691386,-0.1171257963601024,-0.14926654923911006,-6.4444841960252575,3.5209121170248396,-10.117674137116893,31.684032430823144,14.669638296579178,-0.8085811620688915,10.541454220635675,-4.377081924768292,-3.1729818198688453,5.000203616478493,-0.8510890057104012,-0.3080317305928147,5.68010280415491,-1.886546964782174,-1.7398947974129284,1.2670917543614788,1.737210959770764,-0.3677806543136903,1.0970261512852115,-0.354445376061261,-0.415511622318009,0.12978790787244765,0.22188019050141905,-0.10908383484193505
-8.02154749219818,1.001256818921894,-0.8424878313658596,0.3291858590099823,0.3260653559010618,-0.026288722294279383,-15.602606359446566,-6.7665879110614995,-5.340825318349217,8.411993186337481,-5.29907999657226,-1.6454671324066905,-0.022387504838475094,0.2595645432532799,-0.04983670681353223,0.47280854333372946,0.012212580968428028,-0.04974570222180229,-8.011741654224771,-16.92625172601676,-13.783824996456996,54.24804091470157,17.75080148706204,-11.04381492947874,4.516301045117792,0.4643286853889699,1.0268142269319545,1.91547463513272,-2.2339559078612123,-1.0216627992247445,1.7354337071772876,-1.4873669275610395,0.19951895450010534,1.8266658935985827,1.0625835842879843,0.4136707117610797,-0.036884772874687576,-0.09735775323801192,0.06244116468445207,0.30383852985669996,0.08326597881678083,0.0995102467374316
-6.24049,1.2619600000000002,-0.8429500000000001,1.45637,1.17135,-0.08324999999999995,-13.78867,0.39723000000000086,-1.8192899999999996,17.28829,6.979430000000001,-0.07944999999999969,-0.10107,-0.013179999999999994,0.02636,0.7820999999999999,0.14725,0.027789999999999995,7.904499999999998,10.03818,-4.323969999999999,42.38702,29.364379999999997,0.6299299999999998,6.0329999999999995,-2.9739600000000004,-1.6191100000000003,3.611419999999999,-1.5659899999999998,-0.19294,5.882189999999999,-2.46662,-1.48731,1.6854400000000003,1.08056,0.42446,0.71726,-0.32502,-0.33216,0.041179999999999994,0.022860000000000002,0.05047999999999998
-6.763533862952022,3.166022849289355,-2.269007341048331,0.06325632257721803,2.704941956531105,0.3620840223771903,-13.344866276584401,3.8153682656327477,-4.26472327841953,10.55477365187711,4.408311269707754,1.28788438702105,0.48654543845480674,0.012852759199697937,0.05250262146320454,0.5077454113890165,0.19079604319100132,0.19602998331329705,-2.2163045500691174,12.969721473121593,-5.971735142215271,38.02876523428831,32.425916890156444,-8.957646314726821,4.791445723105844,-1.9276532826832524,-2.7888395226589067,4.391053915632717,-3.3385442117788484,-2.3671886667674293,-1.1345648728758164,2.37022274479166,0.009574682338255397,2.1356905055480544,2.4346055992410456,-0.4243530082637579,-0.23007584582815735,0.10137061270399758,0.322422670564088,0.2988426397842314,0.30137750493298915,-0.11900223649666558
-9.579371681990839,-0.9119248523459683,0.3103544920473778,2.9184433133163266,0.741701685805764,-0.007869588852284306,-13.304223106856359,-12.734030339848555,0.2509501394185188,17.422938265178797,-1.1579045121330436,-0.4167556941813616,-0.09197178637777095,-0.22401990112230885,-0.21113656110068427,0.778253236357081,0.006060695023049241,0.023735863177098318,2.8835701553114195,-22.31845610147378,-2.6624007967324728,49.4035148904201,21.835175863148518,-6.376474380734509,3.570177107076724,-0.7505659102090529,-0.5950253608172602,4.461039884308476,-1.3303648965883974,-0.31576033314479035,-1.5225287005549037,0.27256537659001856,0.12063735852958757,1.3855401735075292,1.6813344941194892,0.10569396487453658,-0.3220481967700469,0.16734824309247173,-0.048835290087434716,0.1789240920628869,0.2679348412871964,0.025147739545939428
-3.0882944573417204,-2.481137218487174,0.8589592995195439,0.19717185577419802,-1.4137609661154702,-0.16367563442743058,6.8827073180759815,-11.572257305608597,0.4680975682613286,13.806807079322887,-5.9226630712659185,-2.319849220700554,0.18601549842624604,-0.5160364758001378,0.015519739583963448,0.4998314332652876,-0.04758338957797932,-0.12176344123817345,29.49385887595781,-17.85652100985852,-2.008239348677147,34.56101306180966,5.980399204707402,-7.611612752981577,5.628405805666901,-1.907200939720136,0.47388468865693173,1.405754617257637,-1.2655252120273761,-2.691633371448471,1.7398926546912277,-2.252385968534106,0.4826207119366333,1.8681461853944445,2.6920958441339877,-0.46100413869472917,0.372806148675981,-0.5646986938855498,0.08445803242252556,0.3212384418495666,0.46740286126351926,-0.1358227380609218
-5.638018445059501,-1.701692965352082,1.2258161801095715,0.3219296327067084,-0.150465525684524,0.07965953615450735,-17.34236421943767,-14.526586717470034,2.30833350247227,0.6573932290916943,-5.7025778548638115,-1.4703519955732893,0.554692267778967,-0.14621958515596764,0.06597434925800008,0.800112794881982,0.030679439709151494,0.05050286038650931,-23.953437660768376,-35.04887332555788,0.8030664588378675,44.3648611888286,20.40414417875499,4.304539713440981,1.6080196918156817,1.8718948326761393,0.9607064481092786,5.468767466462568,-2.029307001343973,0.01854670669177161,-0.6738587694136865,0.26397950995079156,0.1523690021437232,-0.2832038678961005,0.9360361070785759,-0.3762347545790502,-0.6458845148361634,0.5991149350880319,-0.017073406878108363,-0.23324149317003115,0.010492863814650755,-0.0761292642378256
-3.0784989486469647,-2.906194972068022,0.8154456288814856,2.5957718188570214,0.8966899353227868,-0.3682488273443466,2.4349127134728272,-12.32773385209113,0.401334849241225,17.461691388992953,7.878041326949203,0.18097285563520596,0.25446392252563915,-0.5031186213289631,-0.09600865320241886,0.8672113314272917,0.06434391772999745,-0.1462666749086066,20.999028628916577,1.0321269782399114,1.1376289869784992,50.0441243701456,10.359493652260948,-7.17224517072097,2.556230207323414,-0.15119535845997192,1.1832036531488161,0.2958458824521356,-1.5950570911659185,-2.5265226408719172,-0.09530426306852172,-1.4905626366182483,0.7867859978019139,4.0400509557248245,2.581098422454093,0.8918109023890805,0.03978273104780669,-0.4617315149899662,0.17552772782020123,0.8015868812246273,0.5521978438409442,0.15490161561454938
-5.95418266019956,-1.67729060008761,0.8563398948368101,1.623710887812905,-1.4691311321691505,0.237168140317982,-10.886853918119032,-15.37813588773894,3.9776894777276373,13.368133349154373,-12.999126537458297,-2.098103553758975,0.39576471236614963,-0.4593265737962473,0.012882795688393782,0.839611251516542,-0.12420666486033549,0.05303122919639339,5.991289464502,-38.350645509769805,1.8568564508313055,27.897872829255174,44.86414090447354,-11.868401272442046,9.346285617495665,-3.2895383039040293,-4.773635895759342,2.871317376084059,-2.1351451504788366,0.05531049836899206,2.281514707712428,1.1759822782771785,-1.7117893027856863,2.1297088800221307,0.31217484796074974,1.0003661156438821,0.4785862385019271,0.05784568351943614,-0.2898055585297385,0.1885061007534133,-0.07313350547957459,0.17277105343726631
-2.5210543469548146,-0.7173202590948192,-0.05432324642808978,0.3861974793720814,0.7048138352655319,-0.27765711788678554,-1.7071252872849787,-3.807880854516927,-1.5652998182550661,20.743671217690405,5.252242677145488,-1.5279688403515412,0.3842548745876077,-0.23428540143808158,4.8320965083583495e-06,0.5924702008489852,0.04293780109044061,-0.10261463013939505,23.95236515128599,6.202214489956223,-4.27709415586837,42.58082790260916,-18.971775026617617,1.973531965660802,-0.024494261463016753,0.656621682775382,0.19651064659011117,1.939790242905184,0.0010455211302802143,-0.4392161883357569,-0.1510319597687261,0.3032937109173171,0.1594630428290064,1.1369085589203423,1.1022462573332712,-0.033415215396389766,-0.5193126835069396,0.11317812202409015,0.23099501798591227,0.016836053096554303,0.07242263205902388,-0.06846874850560426
-4.05486057100871,-1.519952131709575,0.6220452227450586,-3.3705895237964127,5.360263941608253,0.4727284291912233,-14.135544337614318,-13.391036090916886,2.5364562590675734,1.768625243710087,16.61135699331781,5.789861371873965,0.4838414338453451,-0.3348548155953845,-0.019234867660553205,0.5078798140539109,0.26128721868183996,0.16495341548279402,-17.08171111720385,3.779687624505283,10.471158645787083,3.319221317408494,8.41986376949001,0.8699339275126943,2.2158756028511832,2.4066856642409227,3.9114879209306057,6.924166177627889,-2.2004776015657654,0.17538838648315097,1.4588169659220647,-2.508523138472746,1.6243503003620148,0.606558081431581,1.1506514907638945,-0.18621403203676182,0.3188316091112097,-0.40239083872592213,0.267911731315534,0.14462033004926209,0.013746764853204332,0.050380795665450194
-1.5129028701066003,0.45064528644396246,-0.17127018460572904,7.281665273171862,-0.3739133140559216,-1.3638874812336323,-0.23631453089115245,3.548648001128286,-0.43758158888724036,46.399533546464276,3.645755527792265,-5.936722260181521,0.6793149223136389,-0.3753973344239388,0.08711073982116645,0.9727591927581903,-0.34240224810036474,-0.2910187180414909,58.91377694787171,12.392196818261352,-9.385633886290886,11.869011410234325,3.1373204522425517,-2.014374739540863,10.04033569676629,-2.1462423571803773,-3.5285614918681687,5.128845944466683,-0.47380865274098716,-0.29259430187996266,0.7848933976002637,0.5876638715980327,-1.0231040086913732,2.7381121551239698,2.3272645226566424,0.22010129003472464,-0.046346080090980804,0.19638186648040964,-0.2173762071461399,0.5224347435274564,0.49262801744186147,0.005072824369108463
-0.6260666676711351,-2.4738300103598623,0.6250740110407003,-1.7269358960006207,-1.2055868127316083,0.24235479082144332,3.6636080927018035,-14.114092612109076,2.146042986441276,26.911847416201905,2.748152619464131,-0.23998600489290348,0.3560825905912585,-0.36627848843407557,-0.04231976110695305,0.46395324291354406,-0.10996439807401472,-0.2064341810123156,35.617476849452444,-9.680018259349815,2.0218216602735977,18.457298293150263,-14.203551723779395,4.948788896112507,5.855526674225622,1.4330574571595038,2.1058912469194007,4.274214310608501,0.41403141303701874,2.513943796652362,4.287542205772594,-2.7189308676948607,0.15378651234310026,-1.3592228787669138,-0.9272197471178952,-0.22045734485049,0.5614693615843329,-0.1785273246844699,-0.238194652292782,-0.36827135160697133,-0.24937614445948006,-0.05456454724487807
1.9071288688669266,1.5493974261381709,-0.5367005449630128,5.811020013253874,5.766938760613147,-0.8260138803651932,14.507002787274887,6.546061454968656,-1.0930894293135054,49.091387602123774,11.570385837460917,2.779848547621271,0.5402520489679795,-0.1780391726973754,0.11042934832516435,0.7833306010386785,0.5239197151841933,0.09458566360204466,75.86703155571841,24.500826742600953,3.0767120430906925,-3.189454562287379,0.19961271108279594,-6.972802024926402,11.51114172374391,-4.956781741135777,-6.07506276666725,7.597663721995653,-1.937571524276561,0.4482683244497705,9.114972483312586,-0.48427175009608864,-3.614178049181488,0.48489294611180117,1.6405572228215255,-0.3452269246676614,1.5662714590342268,-0.1788526719696779,-0.41349905630135436,0.12102489941972956,0.3129301006241148,-0.02725665045106667
-3.809674032671129,2.4505573395412683,-0.7404919098727651,-2.421241724392304,5.096451284081309,-0.6228580883718664,-3.9428077064136646,13.319065063942714,-1.805816710972263,4.738216517998316,15.679114502859424,0.23277843634733192,0.5159997328470484,-0.18660259851197714,-0.07152361916751582,0.6059492298551837,0.42448005520397003,0.1482461475748895,6.267650962187979,35.84688986794416,1.4171810549988137,16.16838240080029,-29.989322528049996,2.9038372604553317,7.160361745947611,2.6425767837293552,1.9655223524847676,4.606951986757912,-0.27961380570954614,0.3969828302588314,7.796784492927337,-2.7097298089981816,-0.40048087974323066,1.4820350521194805,0.7307549389220119,-0.09961127316164783,1.1540890020990664,-0.2495651663114235,-0.24252505546316727,0.1155862176976336,0.015475186592562128,-0.08609401115200933
-1.8767591148938307,-1.1639864718509747,0.21512275533203293,-0.35671311572215353,-1.4450635434843961,0.5821728958204571,-3.9134956448305607,-0.8544378573497523,-0.18492786104928435,13.739205287788367,-3.5625096911962792,1.2793833649616906,0.3677434747834589,-0.36569939487026265,-0.07407252298392808,0.34223475315974117,-0.07651960009498833,-0.00445049993852631,15.20160398620305,-7.236179204231757,3.2942292781352664,-2.9539518846199675,-3.611445664179779,11.004701963593408,14.831396346764931,-4.020206032141505,-2.946183276287008,10.408069356675083,-1.5604128478091064,2.348871158276707,5.772894074635664,-1.1216962467974851,-0.9577125732704111,0.8502292343088091,1.0120282520335924,0.09978605253986372,1.0001603295113466,-0.23865128745635322,-0.1083279704969223,0.04872014173824561,0.09781016643076895,0.0594918325601602
-0.05504162632965862,-1.0249044384496413,0.47293960465925455,-2.7261890596627425,0.0761349548612044,0.5779830722172363,-3.5312086262803266,-14.802401449925416,1.2593407765627203,3.8028195006577206,-0.581255456093877,-0.3768486314192366,0.7601846846843743,-0.38507553167487624,0.28210650220451505,0.7405212861315065,-0.09513240534839011,0.04513838050181149,0.48235191553518997,-25.71631136548417,1.2833923234736724,31.218033332809313,-17.157008018854686,-5.142715874526711,5.617130755028875,0.6611178994095716,-0.2472790838035011,2.784107954232746,-1.2305541270857119,-0.7543670874967302,1.6736653716689338,-0.1034770282805597,-0.063476930601671,2.304674920854052,0.9698690095483116,0.2071334358566204,0.05357623638057467,0.0008574811024191649,0.1182581678370117,0.32129334662074677,-0.03780716705705931,0.05549040026531519
-5.760799968348705,1.406602867691613,-0.8703611176626108,1.1453780611516289,4.3662377792738924,-0.4018239668816676,-0.4015001607355214,8.785908394143338,-3.4866644342822766,10.454439979356772,15.542969936125026,9.562022736516884,0.07054236062194935,-0.056264996132326585,-0.3138688395910981,0.333434412852032,0.5131644475982888,0.08867485007351478,18.59898704586738,27.00032450246242,12.887809736866764,-9.480044221326308,-24.591074837943026,13.164896562297807,3.8613129079635278,1.1474996951978094,2.3201888035235676,7.672442560384058,0.5225287918577584,3.6494173853798713,-4.6252845114996095,-1.3409969947039244,1.5850462912085614,-0.736080607297858,-0.6102793177655228,-0.013853550300340047,-0.6529732828849005,-0.3581235014274908,0.3096820659915626,0.08619151641693241,0.1737904857822705,-0.08024569375284679
0.026251989724824412,0.560672225137309,0.1813379807839905,1.8864986782570843,0.6789210374484068,-0.4270267909670534,6.083467186179792,-0.9202153994144558,3.172185353839094,11.15047143031754,2.034294278405878,-2.5868495821331225,0.8352161903727345,-0.5153637127168038,0.16284814877030615,1.1169269045822914,0.013141981979028092,0.001523563093100191,22.158559980357413,-1.7193076603429809,3.026981732645721,8.21484152388944,-24.322165383083114,-10.027818565400537,-0.023378949011760207,2.709468180415995,2.9901047593847085,-2.693159255238662,-3.4768045453004537,-4.209091263245151,-7.507358813993603,2.2481467451455863,2.5928455562216954,2.330294888070118,2.0061015371811313,-0.04630380206609756,-1.3595558005780706,0.8843791347362304,0.41923635291369893,0.008737113483720093,0.08806914968482014,0.018631042348286588
-1.31051,-2.95615,0.57935,-1.84848,0.50911,0.30909,6.18106,-6.16778,-0.60703,-5.4558,3.53164,5.4648,0.34602,-0.253,-0.10875,-0.41529,-0.10509,-0.13964,1.3738,-8.20423,11.85357,-39.07786,-36.86921,16.45991,4.47922,0.18917,5.70868,6.25958,-0.86869,2.17442,-5.31639,-3.32371,3.08199,-1.48009,-0.62187,-0.36048,-0.80505,-0.30782,0.3336,-0.2534,-0.15292,-0.0643
,,,,,,,,,,,,,,,,,,,,,,,,,,,,,,,,,,,,,,,,,
,,,,,,,,,,,,,,,,,,,,,,,,,,,,,,,,,,,,,,,,,
,,,,,,,,,,,,,,,,,,,,,,,,,,,,,,,,,,,,,,,,,
,,,,,,,,,,,,,,,,,,,,,,,,,,,,,,,,,,,,,,,,,
,,,,,,,,,,,,,,,,,,,,,,,,,,,,,,,,,,,,,,,,,
,,,,,,,,,,,,,,,,,,,,,,,,,,,,,,,,,,,,,,,,,
,,,,,,,,,,,,,,,,,,,,,,,,,,,,,,,,,,,,,,,,,
,,,,,,,,,,,,,,,,,,,,,,,,,,,,,,,,,,,,,,,,,
,,,,,,,,,,,,,,,,,,,,,,,,,,,,,,,,,,,,,,,,,
,,,,,,,,,,,,,,,,,,,,,,,,,,,,,,,,,,,,,,,,,
,,,,,,,,,,,,,,,,,,,,,,,,,,,,,,,,,,,,,,,,,
,,,,,,,,,,,,,,,,,,,,,,,,,,,,,,,,,,,,,,,,,
,,,,,,,,,,,,,,,,,,,,,,,,,,,,,,,,,,,,,,,,,
,,,,,,,,,,,,,,,,,,,,,,,,,,,,,,,,,,,,,,,,,
,,,,,,,,,,,,,,,,,,,,,,,,,,,,,,,,,,,,,,,,,
,,,,,,,,,,,,,,,,,,,,,,,,,,,,,,,,,,,,,,,,,
,,,,,,,,,,,,,,,,,,,,,,,,,,,,,,,,,,,,,,,,,
,,,,,,,,,,,,,,,,,,,,,,,,,,,,,,,,,,,,,,,,,
,,,,,,,,,,,,,,,,,,,,,,,,,,,,,,,,,,,,,,,,,
,,,,,,,,,,,,,,,,,,,,,,,,,,,,,,,,,,,,,,,,,
,,,,,,,,,,,,,,,,,,,,,,,,,,,,,,,,,,,,,,,,,
,,,,,,,,,,,,,,,,,,,,,,,,,,,,,,,,,,,,,,,,,
,,,,,,,,,,,,,,,,,,,,,,,,,,,,,,,,,,,,,,,,,
,,,,,,,,,,,,,,,,,,,,,,,,,,,,,,,,,,,,,,,,,
,,,,,,,,,,,,,,,,,,,,,,,,,,,,,,,,,,,,,,,,,
,,,,,,,,,,,,,,,,,,,,,,,,,,,,,,,,,,,,,,,,,
,,,,,,,,,,,,,,,,,,,,,,,,,,,,,,,,,,,,,,,,,
,,,,,,,,,,,,,,,,,,,,,,,,,,,,,,,,,,,,,,,,,
,,,,,,,,,,,,,,,,,,,,,,,,,,,,,,,,,,,,,,,,,
,,,,,,,,,,,,,,,,,,,,,,,,,,,,,,,,,,,,,,,,,
,,,,,,,,,,,,,,,,,,,,,,,,,,,,,,,,,,,,,,,,,
,,,,,,,,,,,,,,,,,,,,,,,,,,,,,,,,,,,,,,,,,
,,,,,,,,,,,,,,,,,,,,,,,,,,,,,,,,,,,,,,,,,
,,,,,,,,,,,,,,,,,,,,,,,,,,,,,,,,,,,,,,,,,
,,,,,,,,,,,,,,,,,,,,,,,,,,,,,,,,,,,,,,,,,
,,,,,,,,,,,,,,,,,,,,,,,,,,,,,,,,,,,,,,,,,
,,,,,,,,,,,,,,,,,,,,,,,,,,,,,,,,,,,,,,,,,
,,,,,,,,,,,,,,,,,,,,,,,,,,,,,,,,,,,,,,,,,
,,,,,,,,,,,,,,,,,,,,,,,,,,,,,,,,,,,,,,,,,
,,,,,,,,,,,,,,,,,,,,,,,,,,,,,,,,,,,,,,,,,
,,,,,,,,,,,,,,,,,,,,,,,,,,,,,,,,,,,,,,,,,
,,,,,,,,,,,,,,,,,,,,,,,,,,,,,,,,,,,,,,,,,
,,,,,,,,,,,,,,,,,,,,,,,,,,,,,,,,,,,,,,,,,
,,,,,,,,,,,,,,,,,,,,,,,,,,,,,,,,,,,,,,,,,
,,,,,,,,,,,,,,,,,,,,,,,,,,,,,,,,,,,,,,,,,
,,,,,,,,,,,,,,,,,,,,,,,,,,,,,,,,,,,,,,,,,
,,,,,,,,,,,,,,,,,,,,,,,,,,,,,,,,,,,,,,,,,
,,,,,,,,,,,,,,,,,,,,,,,,,,,,,,,,,,,,,,,,,
,,,,,,,,,,,,,,,,,,,,,,,,,,,,,,,,,,,,,,,,,
,,,,,,,,,,,,,,,,,,,,,,,,,,,,,,,,,,,,,,,,,
,,,,,,,,,,,,,,,,,,,,,,,,,,,,,,,,,,,,,,,,,
,,,,,,,,,,,,,,,,,,,,,,,,,,,,,,,,,,,,,,,,,
,,,,,,,,,,,,,,,,,,,,,,,,,,,,,,,,,,,,,,,,,
,,,,,,,,,,,,,,,,,,,,,,,,,,,,,,,,,,,,,,,,,
,,,,,,,,,,,,,,,,,,,,,,,,,,,,,,,,,,,,,,,,,
,,,,,,,,,,,,,,,,,,,,,,,,,,,,,,,,,,,,,,,,,
,,,,,,,,,,,,,,,,,,,,,,,,,,,,,,,,,,,,,,,,,
,,,,,,,,,,,,,,,,,,,,,,,,,,,,,,,,,,,,,,,,,
,,,,,,,,,,,,,,,,,,,,,,,,,,,,,,,,,,,,,,,,,
,,,,,,,,,,,,,,,,,,,,,,,,,,,,,,,,,,,,,,,,,
,,,,,,,,,,,,,,,,,,,,,,,,,,,,,,,,,,,,,,,,,
,,,,,,,,,,,,,,,,,,,,,,,,,,,,,,,,,,,,,,,,,
,,,,,,,,,,,,,,,,,,,,,,,,,,,,,,,,,,,,,,,,,
,,,,,,,,,,,,,,,,,,,,,,,,,,,,,,,,,,,,,,,,,
,,,,,,,,,,,,,,,,,,,,,,,,,,,,,,,,,,,,,,,,,
,,,,,,,,,,,,,,,,,,,,,,,,,,,,,,,,,,,,,,,,,
,,,,,,,,,,,,,,,,,,,,,,,,,,,,,,,,,,,,,,,,,
,,,,,,,,,,,,,,,,,,,,,,,,,,,,,,,,,,,,,,,,,
,,,,,,,,,,,,,,,,,,,,,,,,,,,,,,,,,,,,,,,,,
,,,,,,,,,,,,,,,,,,,,,,,,,,,,,,,,,,,,,,,,,
,,,,,,,,,,,,,,,,,,,,,,,,,,,,,,,,,,,,,,,,,
,,,,,,,,,,,,,,,,,,,,,,,,,,,,,,,,,,,,,,,,,
