PaulMeinheit/Bachelor_Muay_Thai/processed_Data/N1/roundhouse/scaled/JointMoments/scaled3.csv
R_KNEE_MOMENT,R_KNEE_MOMENT,R_KNEE_MOMENT,L_KNEE_MOMENT,L_KNEE_MOMENT,L_KNEE_MOMENT,R_HIP_MOMENT,R_HIP_MOMENT,R_HIP_MOMENT,L_HIP_MOMENT,L_HIP_MOMENT,L_HIP_MOMENT,R_ANKLE_MOMENT,R_ANKLE_MOMENT,R_ANKLE_MOMENT,L_ANKLE_MOMENT,L_ANKLE_MOMENT,L_ANKLE_MOMENT,WAIST_JOINT_MOMENT,WAIST_JOINT_MOMENT,WAIST_JOINT_MOMENT,NECK_MOMENT,NECK_MOMENT,NECK_MOMENT,L_SHOULDER_MOMENT,L_SHOULDER_MOMENT,L_SHOULDER_MOMENT,R_SHOULDER_MOMENT,R_SHOULDER_MOMENT,R_SHOULDER_MOMENT,L_ELBOW_MOMENT,L_ELBOW_MOMENT,L_ELBOW_MOMENT,R_ELBOW_MOMENT,R_ELBOW_MOMENT,R_ELBOW_MOMENT,L_WRIST_MOMENT,L_WRIST_MOMENT,L_WRIST_MOMENT,R_WRIST_MOMENT,R_WRIST_MOMENT,R_WRIST_MOMENT
X,Y,Z,X,Y,Z,X,Y,Z,X,Y,Z,X,Y,Z,X,Y,Z,X,Y,Z,X,Y,Z,X,Y,Z,X,Y,Z,X,Y,Z,X,Y,Z,X,Y,Z,X,Y,Z
0.8286900000000003,0.3950400000000001,-0.13541000000000003,2.0396299999999994,0.5813600000000002,-0.032749999999999994,3.471410000000001,-8.371710000000002,-0.11430000000000001,18.179620000000003,2.9875400000000005,0.05189999999999993,0.5071000000000001,0.08327,0.16004999999999997,0.5233900000000002,0.08713000000000003,0.04002,22.677260000000004,-7.52775,2.7112100000000003,28.24039,-24.609930000000002,6.981320000000001,-1.06302,3.8352200000000005,3.4588000000000005,1.4030500000000001,-3.160350000000001,-0.33281,0.47777000000000003,-1.9078100000000002,0.6272900000000001,3.84306,0.9371100000000001,1.7233700000000005,-0.19719000000000003,-0.12074,0.010339999999999998,0.4535600000000001,-0.16928,0.41230000000000006
-3.810482471020897,3.4284838518165492,-0.9102468907907033,5.15219964049683,0.24773110966309797,-1.0142245612736902,-6.6604929408631985,6.79797296182562,-0.5337788710632858,35.30274472962765,0.6095947436314614,-6.899683835752507,0.6599929111818097,-0.2579997850365867,0.11880992027618047,0.9612909527646161,-0.2016013086644929,-0.2046160434760368,40.77114155685828,2.160849591728346,-12.446619987773843,35.20370192575879,7.4314320686841,-12.156300965862691,8.739984745706645,-1.4464699344999559,-3.3109576604006277,2.795510010938053,0.5289965743402939,0.7205317474425325,-0.7573269639238867,2.5736495797333263,-0.9117753824919693,1.0033521051529142,0.5733192511955235,0.3494176741291372,0.08294075856502285,0.6710721393434295,-0.22543467161440284,0.049360189818346056,0.03631836440676048,0.05314507487014027
-0.2581265891646817,1.3709224160660396,-0.9646196671780588,-2.2406355053354052,-1.5836624091122062,-0.07450511098878687,12.945446225602886,15.620099019947414,-4.054947217252096,17.352661551838406,3.6300180632200467,2.120261927926853,0.37411061961661196,-0.40804103624495636,-0.13832130436953188,-0.057432262737313285,-0.24905984459140132,-0.3923777011372325,39.805871791417054,29.740954118499488,2.8904774231050103,3.635249530505262,-42.91999403147007,12.923301839880537,3.487751864236997,0.804747787815297,4.201138235152732,6.023121477414268,2.6694273685754784,1.637759518566441,5.123653037005248,-5.054511083008224,1.277926287729849,0.4362606812707108,0.6769716292108983,-0.3103049689165198,0.6212806794315294,-1.0421587252027211,0.15551163518809008,0.030694889659082233,0.15541656557906092,-0.12726311494785625
-3.021718013720346,0.600111752284352,0.23117650712266424,-7.913700036891437,0.06793372941509679,0.9579313808710389,-6.768042106635495,0.6377724029422499,2.3783228302627255,-2.1453123071217646,5.010622196022318,1.0381220244197609,0.6466158111880742,-0.28586965622133276,0.057743027779528604,-0.04048953309733579,-0.20217407300490878,-0.08867787412475618,-8.15529829898538,1.5747021463644082,9.689800801810778,22.63873228643812,0.320786299351854,2.694314279363688,6.070910418313783,0.2706464950070425,-2.075265888757934,9.510287487726158,-0.29576422581057615,0.6756354595277415,-0.4359785339383021,1.764909546585137,-0.7514891685545412,0.3185432739515541,2.1650333683109158,-0.9024778854631397,-0.4772683636789512,0.3826451971557415,0.052042312256050535,0.16609069730091372,0.33798658911368185,-0.07635122616561973
-4.418118592342823,-1.0898881321389056,0.5957100218278766,-9.52046018597877,-3.196111373429069,0.9204871345595251,-10.497520885851788,-3.2463955252114842,1.255421803657777,3.7126072195889557,-9.605191052006287,-3.508820682037056,0.26395303227878264,-0.08701863651288239,0.012668207849556768,-0.8572107574789907,-0.29062164556460124,-0.05466477415620342,1.0944843993373254,-8.611814449896954,-3.194660881811184,-31.06397813025161,-11.459337863043976,12.409575790679495,1.8836994305170598,0.46069192226832645,0.8436868035115048,8.584305215416144,0.20623471945046515,3.071210373555209,1.4624518982191559,-0.9913101162215339,0.3253338726330118,-1.7524000120697554,-1.3707207502851033,-0.3807556436506913,0.12448252504548468,-0.2811027969015502,0.13117742231169854,-0.06993131312758086,-0.1856819896196948,-0.007548431633363377
-1.9014246366897967,0.35700716192494086,-0.3692012358853911,2.134451971825241,3.2972064013688143,-0.09291329395408537,0.09150463199233762,-0.18734623597670694,-2.242765310879589,44.60790309379547,2.9233290107289918,-6.92939653277596,0.3943552081689483,-0.3236815495915916,0.0202664443914085,0.28772348528136144,0.5054223306205475,-0.01068836370267608,61.47621303749563,-4.496361944211464,-17.876674853080154,37.72884053422851,4.641892329787865,-24.50482814738967,15.331299429405481,-1.1507623668059945,-1.2103085899157005,-11.291591672104063,-1.3721816984644581,-4.107132534902047,3.398780081877196,-1.152335860510528,-0.45313740379385536,4.371007354123487,1.8816297547482441,1.2797540828648433,0.9389165303779693,-0.19840526782168796,-0.27424288103072986,0.3139251772403032,0.26198136305997116,0.029178906138278657
-1.6093810818503864,0.008794507646265742,-0.10159540358659414,-5.070005290964591,6.27310777910846,1.4649136745895976,5.036045121841317,-2.5576272765706265,0.8563989402143493,-10.834428450072874,16.93610480994834,8.602136470620177,0.572316128582554,-0.41483721781374716,-0.12341935072897142,-0.03477704227766219,0.3756222705082625,0.3386545720200707,-2.4120948128122626,9.519448524711756,20.605476026882727,20.205085357642787,-15.230530517542554,24.367832498392335,5.152334251215171,0.44134509071378325,1.4090442543176123,16.13806739395965,1.8258231579704056,4.266671349324812,1.9757605483843264,-1.6478617003737623,0.5040861324644839,-2.7671254470977344,0.1374955487003174,-1.1816863297154967,-0.12423951065070511,0.012423845844684575,0.009486086835206211,-0.4645879568330309,-0.1693872033372763,-0.04129052258669815
-3.266511457962082,1.107336031068227,-0.17613981512842874,-1.5422736055239212,3.4300109131183842,0.6694955824288633,-13.324297279403869,1.3864294443034193,-0.8869280662243172,-2.0504264528390688,12.652575445563283,7.001542658629141,0.4689510930072735,-0.18633652098867085,0.11659383266909562,-0.23432724108281514,0.2216288202913858,0.3666969433719467,-19.98187772557329,16.108473717298743,6.520819109783305,8.815094040779845,-33.682142099121855,17.60244441871177,5.676618646259882,1.0933232198030518,0.5841919302271744,6.830426919903355,-0.3628346310037422,1.586059738442864,3.537754359057711,-1.0483437387785381,-0.16162171953137394,-0.7288378563137042,-0.2846338886427177,-0.49477048382233296,0.5260273216913879,-0.11941760955864457,-0.06118905433951217,0.08362037073487175,-0.019908388055030164,-0.049062927381843924
0.49974001837751814,-0.15914526865430978,0.02050661437667859,1.3533030455596147,4.25735814942059,0.18637145563080373,9.07742095863448,5.451567397286798,-0.304651697605406,11.950883993887535,17.941919078891434,7.860474460800859,0.5825596609065292,-0.23272740459804897,0.03981510809549325,0.9747466127999895,0.22861767027626786,0.24362949860839261,28.541284691260188,26.011620287920035,13.807082154229347,-12.766872345484117,1.2373364551475698,-9.366933638722275,8.638898122750843,-2.485327707959653,-2.276116129673311,2.722163191801738,-1.4972457397157282,-0.5623807007206946,1.5923571725130021,0.05197415231444835,-0.566419418149303,0.3397085296312238,0.782950760482802,-0.558985796167219,0.2856103470729964,-0.2575239573813417,0.023779409041643572,-0.04427483560172918,0.1619023353889942,-0.2167510079515071
-5.302489987143614,0.48526190606399855,-0.2045858779272118,3.957690472470054,0.549403552952545,-0.8984937858446428,-17.668236623406127,-2.9876955216278476,-0.7954986778282386,26.015992952262685,-2.744170722064068,-4.250862855151142,0.3678551015601344,-0.4237308418204579,-0.07036388752589634,0.8248716614468746,-0.03487520339008751,-0.4646501589755753,14.533149854039126,-13.17812323779842,-10.208352527873375,14.957382404122702,-17.11778455658719,-7.670795386821707,6.856428764589467,1.340611936722662,2.622259220806156,3.776472233943455,0.579547814566273,0.0687449391517207,-1.6921410390471996,-1.9650109825506687,1.4937762302861133,1.717997526189716,2.058410740806652,0.2789444343151048,-0.4219894148101846,-0.07464969535351787,0.11080328022118205,0.11669591963210814,0.1843383407008213,0.12882184392422824
-2.4590823406283415,-1.0367676108509782,0.30076087483980507,8.568008158411764,1.112527000915681,-1.3162456031011684,-5.447443326247192,-6.565785810330123,0.49238234395285435,27.886191439344806,3.737178759007646,-1.7940259912469514,0.6028851493599648,-0.28978645883679743,0.02105690860273721,1.6660621074629496,-0.15117423380171535,-0.1152510562386951,27.076876025034277,-10.595662775270197,-1.4519378724482208,24.754201645503045,-6.558445503021327,12.29421868772436,2.5111015996424455,2.615042136024093,1.9115431116894028,3.8121553804736497,-1.4629688890684471,-0.03673400960695182,3.1340043750622297,-1.5368300126116308,0.06729580547462691,4.044100833150114,1.448617175634302,1.0615544171026867,0.5707100828525425,-0.24826879652913036,-0.06212448732138037,0.7276346601534027,0.12229368918337766,0.2100234270085266
-2.630117790610409,0.19309576605178905,0.08805307989089554,7.670111012040149,1.8011843364035947,-1.0670287424104437,-5.3566208752960875,-0.6071682006256717,1.2836526506416854,29.02383303627328,11.930083857861224,3.227134621321423,0.3783289186482548,-0.2577855500073068,-0.048489501443591834,1.3131961416686029,0.0016853524820552926,0.09370673826286594,26.656397876463437,16.564810940515013,5.692588331795029,-6.37385312275494,-40.96327830068464,5.075551057992566,6.206275194091638,0.593343679472552,-0.49065528967644323,7.323535341414396,1.8198595594255491,1.604212754631321,-0.8543096650922256,0.6590806629048291,0.09137186373679704,1.0830728456166785,1.2991307385929987,-0.18129015719500932,-0.18460104893112092,0.19018620318922835,0.04586129166397713,0.193957998361245,0.256925871093092,-0.05319722087493385
-1.0127047104967992,-0.2816135488900395,-0.15639435732524898,1.2487900244358807,3.7157886401006945,-0.1336798596959635,1.719558070877308,-2.5827313507373515,-1.530039580986976,8.603510824489032,11.869727677744933,3.3849273047046324,0.38906767888279986,-0.24662229132163813,0.02423073098029726,0.3667283834758684,0.28468334970862297,0.26939628213047523,15.327959785836136,3.8038927352237986,5.917533905534016,-13.270327182321955,-19.043718204494418,7.54869535243035,7.641483384218088,-0.3641795405642284,1.2587397768441038,4.082929297665206,0.7285526358955398,1.4084081446186318,2.873375050515766,-2.2429303118790074,0.5340376033411169,1.3503565005137006,0.4511788836224735,0.561257471478411,0.24461648014787873,-0.15538357374019104,0.013452353156604733,-0.021834342113818156,-0.010232650500307468,0.047547124375231
-3.480704900496505,0.7813024383915429,0.14376465153318332,-0.2485705828179846,0.36621424818317605,0.4231417282675567,-6.526834808000731,5.517989409070435,1.3984154076685025,25.09925862356019,-1.3210156512517932,-2.77096906607979,0.5711899158841247,-0.3561107346232641,0.0646436175457307,0.8859611715927774,0.10797570752935405,0.28499107254503325,27.45527056313921,7.72244881266167,0.06943709270251319,21.944238028454862,17.650639987531612,-6.72139698173233,2.554000869012966,-0.02063850402573688,0.030897500542338252,1.356383511449974,-3.475214156633836,-1.5434389992929274,-0.889175639392512,-0.7206472412734718,0.23035086975584712,2.6421377954399263,1.3644845597040187,0.4251522503190057,0.02387589568728287,-0.6333737948990702,0.1544425827820277,0.3034546763793642,0.09953024107402983,0.05161049156241687
0.8487096997967374,0.20936440668468403,-0.08324818247135879,2.9602888901478295,5.22357363819988,-0.5573610736292629,8.7003798020722,-0.2961919222067961,1.6371904880715746,29.081999363414816,16.438236187880094,4.935906844561773,0.5069998848945844,-0.3626359368759026,-0.10142219482861674,0.6474409309438542,0.028531390075682582,-0.13013603219495287,45.860041711001976,16.891862710083036,8.472068483998916,26.920215924675176,-21.938465138418376,7.956626473218262,8.394312041655674,0.03620835598338584,1.3146455604554605,12.273408177548077,0.9096875110539192,2.3480709173387178,-1.5738275710069114,-1.2285003262717176,1.108429961735228,1.1599844197132947,1.519973806210128,-0.4001751911094254,-0.47578402109720064,0.11798272270444383,0.1400084940836977,0.5775952550358538,0.26490940917018285,0.06473258006333356
-1.1140096732399842,-0.10919928309863372,0.07592769432821803,0.42686780268661284,0.7420316320228377,-0.3289567569916023,0.2015038980436349,-1.6737133911115312,0.3162790369770612,26.4731868902472,8.006701075662471,0.819538812632439,0.5805266416041427,-0.263826155120972,0.08082623262844386,0.4121179359067285,-0.13432663360268196,-0.251097898525341,33.929665144495544,13.234190345075683,4.368689429005207,-32.25813400660505,-10.61377480481417,6.212050284270553,4.112856325355246,0.9376805284630982,0.10153372642882572,10.389163806677367,0.5784689613541433,2.7565949568076022,-0.09408662254899143,0.1949978742327404,0.05524741979993415,-2.356134110141565,0.11096803655327786,-1.075701748829166,-0.11693478082178453,0.12658502551575238,0.030796813997929544,-0.3805181196176511,0.07569856970322303,-0.1883557908082702
0.7535660373963009,-0.6251226054799064,0.004312658379657687,-0.07836327430046289,2.556784124242638,0.19783705443888042,14.45013984626904,-3.555493873243238,0.4596893641959541,19.625912676746985,12.779703611129788,4.4044887017029595,0.6406161112971073,-0.2807549512598876,-0.012842165977177073,0.4664200620624879,-0.061984692652541765,0.07539655375201113,45.99206910673935,8.734927650656653,12.304086749995285,2.188930167759007,-6.932694567856083,1.1514077876981126,2.9082903612204754,-0.3000368001746902,1.6815720189753605,-1.4141440600705484,-2.2546527594808925,-1.6088563015196355,-0.666390573458032,-1.436490281800877,1.313036557449486,-0.8065981549916069,0.08715996581136068,-0.45968396757260105,-0.300082383594183,-0.27614709085678757,0.3673269680467976,-0.4101107148069726,-0.2928383300616763,-0.06154147631495829
-2.6062664634636796,1.3858138944551424,-0.5520319481586926,1.059143355450778,-0.005090502335300187,-0.19517353718202446,-5.825674012275818,5.931533627296695,-2.4858717992617283,18.24377404282855,3.7200359784001322,0.28653376898647176,0.43253832846928464,-0.3172350844991522,0.015157653742347336,0.8925692264990325,-0.22291549158725485,-0.1903314799271151,15.627168882871329,10.799150741860776,-2.2658090213520374,29.57216646542231,-9.703038600949066,4.803803072023071,6.454538231967725,-2.3464718686225563,-3.5600770737002088,6.545045149171408,-1.3805662318002059,1.8432985159776123,0.11424180877364001,1.7402683722768555,-1.0445465555786633,-0.1189575222210742,-0.08115432647058655,0.3057633512239295,0.04158603536595261,0.22876964984395148,-0.1617417922865711,-0.026134630996554907,0.00010540518139360005,0.09545129647012224
-2.022954650741891,0.026805162189226052,0.18280998011637078,6.733722984714185,-1.5322576955405722,-0.569755872209567,-3.1072532499157943,0.20994501958637948,0.819018614614525,42.00595239867729,-3.6290042186987193,-3.723327341254033,0.3931907258390943,-0.2009870548034148,0.10559401366931838,0.9787633471949027,-0.024848999030846322,0.1481921833651256,45.59198184557247,0.6463511982236028,-7.358663773138622,-7.710424956395299,-5.686608565606424,1.3633455228652445,7.026592041810184,1.0460711548317638,3.658677033007729,4.857923405265697,-3.410723021046927,-1.8493473440637687,-0.9527736970130299,-3.196247225915597,1.804580310878096,-2.0859508561154474,1.6296517144695222,-1.944506601797431,-0.3479096782256724,-0.3944594166588774,0.27515872619506465,-0.42726351259102324,0.26102633486764126,-0.38688438763383826
-2.064023152644861,0.7181602194167493,0.22122626591663747,4.629397931406541,-0.789181812164357,-0.5487858362922222,-0.6448939127944542,3.4841710579334513,3.5898579427482433,38.03918915729197,-9.929105524436972,-7.385131363073347,0.4299009323832498,-0.24186806297079852,-0.01021512478832259,0.8901667317761343,0.009096081914505161,-0.021177983815903384,50.423055300953536,-8.382620649852736,-5.266570686460837,30.581763716503886,-9.25732777657462,11.390275359683278,4.7067520701688865,0.5092449624918236,3.456285415550254,4.7829052926639,1.378720268005581,1.3116287202550903,4.948014029342333,-4.504363965116477,0.7464694238427035,2.677280554821191,1.271597686714588,0.835973296407797,0.809964045678462,-0.9137737597081638,0.016689577733452095,0.21813139390261552,0.03169664451288242,0.14537836310956975
-2.5645710387598077,0.1090030637042124,-0.24359550704876592,-1.8160106460555299,1.775365268153244,0.20532093480088334,-7.174578906637205,-3.5812748652118893,-1.7932647959042787,14.084064849894112,0.710247229637541,-0.6836197288235478,0.5106259725814108,-0.20783112390650424,0.07708677913715638,0.43185528348854535,0.023519906536452685,-0.09966423064305735,7.271120142215437,-4.156125098201443,-1.938365832345598,11.048624323049054,7.122227891029619,-1.2729882368058587,10.072474715100224,-1.8176340206362265,-5.714912397894714,6.9960337606460605,-0.235139930176309,1.687875934956018,4.399639407639059,2.6725172546727896,-2.9481192840352204,-1.2761955106044753,0.18392109041969248,-0.7213484719226827,0.7800476734785908,0.502997092280821,-0.6664083193415457,-0.18258139552676278,0.018257162692006237,-0.09903722876187437
-0.7783638856937252,-0.004038600333578019,-0.61750180454051,-1.1174956487367957,3.7695486087764625,-0.20365299147600918,9.95760964216201,-1.5112633033955116,-2.6613378887746775,7.674180948637365,12.645173729182453,0.3908870062342836,0.5118296409127052,-0.3414947327957035,-0.1168640740482351,0.3068369804623376,0.22531222519931868,-0.04674132676433647,26.496211500947044,10.766091783179318,-0.7535095035038798,14.1362569395782,-16.93708503358151,5.744934605223217,4.058967871597493,-0.9726596147318477,-1.9200721042648574,1.9277878664779937,-0.151672801859984,0.06208576955090875,3.867468422559402,0.7331662390707421,-0.4703526422550261,2.1604689703517437,0.7926424992079674,0.5503699695686702,0.5439092786686267,-0.4220662063254126,0.3474224055987407,0.32769623261902997,0.08301533819459145,0.0752211454959662
-4.755931933524841,-2.9463336737510257,1.0724407307229902,0.04068997602393981,6.776130121784195,0.12073300158256356,-18.336925388062298,-12.468852460459239,3.213014218784039,11.34952127310079,21.32268710194146,4.981733547717458,0.5248485021930662,-0.5833899735983079,-0.056531347698905936,0.7661546793548719,0.28849431454142066,0.11578948019277661,-9.95370871428849,8.765537418913503,8.365541390989607,28.262524542325064,4.5765131578165015,2.2498412410502793,6.92419698688817,0.7033716562545442,2.2268997354426334,6.073016757606813,-1.4026405233439054,0.06619413362721038,3.4596336550159976,-3.0102325074398237,0.03795151284894126,2.8460802080591727,2.0813883118096,0.46381854677035655,0.4778136113400468,-0.12532425385802481,-0.313553448532239,0.527190182989373,0.378988846136583,0.09839333119858003
-3.325609093766229,0.23325937591673027,-0.08540767195832738,-2.0296247339765956,1.1053700301279203,0.599198338881859,-7.886823576074154,-2.704617960688326,-0.48989870877272124,6.986292859785702,8.873090492858575,5.3148202516161085,0.531729154998126,-0.25874463645388257,0.19407583926232855,0.43780694966388695,-0.09691029031568783,0.0745397825861157,-3.243045164264539,9.922492834291463,10.519850563134893,37.712809786977594,-0.810550784081247,-0.14170150746563057,8.1775038820503,-0.04869771429161255,0.4275351510085901,4.855890196162501,-0.8263015484254829,0.9110407858250533,-0.9902655071527254,-0.13778154884409666,0.37823102002065734,2.0272479169283266,0.8352746441871113,0.7788801890055134,-0.6115527271457404,0.4490386790844759,-0.028399610317876266,0.2711600183941012,-0.028871959680063893,0.2062329583868576
-4.349112753477176,-1.9383852684402345,0.8715366163558232,4.965855062489809,-0.18967122127037045,-0.3918222667576036,5.715239772388279,-15.22803119803523,4.825463576806819,28.2460311453,3.1784659237956436,-0.5477994004917291,0.15202474701972923,-0.2015191960548715,-0.07330890323731246,0.8731809264916622,-0.019380530268697717,0.016502297505580583,44.00958738956983,-16.008064714803268,5.872533970936518,23.489366160816882,-6.089018302177813,-1.2315974196284545,4.701213846657782,-1.1272156323636988,-3.1538393721527846,4.8303092744238105,0.7379369329333542,0.9489574420515553,3.4995293311784534,0.25301695778710614,-2.060756865129245,2.395899410454036,1.1894522304985053,0.4420781090782156,0.7989058388429751,-0.2760002749714971,-0.4311304655237055,0.2965509360872542,0.16292488265797103,0.007715177028900681
-1.5936429318647094,0.3656392334318886,-0.1907427860373823,-0.04478951432303143,2.84982442798941,0.2721621009895204,-1.245054117186062,1.9536286133441276,0.07663763877534373,9.557952086395428,4.122145351712918,0.7407354922541213,0.6919050573881389,-0.44038411789796567,0.1356359781760046,1.0073785916443123,0.2789992818076388,0.1584726692473078,11.076178696122868,5.220178046788936,3.4566675594697256,20.569228515211297,5.623493086499768,12.725332868588733,6.9967740760119215,-0.1364748971918537,1.8881541789064002,10.689138994851023,1.0355280651879524,1.3798696023878898,2.7872805036476733,-2.1611002584003876,0.7412979197130245,1.1495813450541328,2.483746055117355,-0.9004494818596857,0.02234479180318545,-0.14206568311771198,0.21738931487165855,0.23739003854766985,0.46146477832295096,-0.18932194181938716
-2.252173737093195,-4.177872249462422,1.6938614653029758,-1.3809727355672468,-0.06390956548020728,-0.15340657890738812,2.4703523527219544,-16.020639980554215,2.983468122940949,0.5224480597435762,4.000339138235999,0.07024661733159916,0.5920248213072777,-0.506591909201075,0.0009588771557264787,0.21673834779059556,-0.22559734798058845,-0.1647936506650004,3.210390867424947,-15.76785438217108,6.32608801141323,64.10181613247296,8.571559197299441,-7.1725102013466975,0.7907476185231134,1.1050754180098878,4.247789350924776,-2.1007889047135175,-3.9576160445592237,-1.9479193477393266,-0.5266223859910056,-3.019787785068143,1.7963462249985722,2.8140376126336197,0.19917967049322435,1.3834369659658758,-0.18725181582859438,-0.49734538205595413,0.3187321177254483,0.19312323815639706,-0.16326320539928266,0.19865275135369242
-4.173510222656904,-1.1367668502529689,0.42144047832842524,-2.9431020855831096,0.4376231277823084,0.136493820219563,10.943268553508275,-17.15737771236383,3.0438749584556186,1.4107990642470518,-1.5562449982509279,-1.8189444641910886,0.1425343804437116,-0.025531546269907602,-0.05502509167901212,0.5349748336925241,0.15611785179652188,0.026254668969226572,20.80491192082887,-20.68197576863751,7.0942034023659755,11.281526927744315,2.923852412432574,-3.410919354477284,9.69185006097156,-0.718673516971881,-1.0908211045738667,5.955336923670893,-0.7369947215983159,-0.9025958453452038,-0.8932947797914262,0.6076907418160796,-0.013789045613435802,1.4064542474776016,2.714962176080867,-0.5355493106160548,-0.12391550092660093,0.10044868755876606,-0.0012819063483665513,0.16169438016098878,0.39826278904507706,-0.09302383413012569
-6.777472432596272,-1.6508071520412473,0.17793295375123275,6.904670634131169,-1.2247997666984187,-0.6328941147572166,-17.465786440162102,-11.407715477273934,-1.7979419885576913,32.06684390131983,-9.412913495296504,-4.4162812722463585,0.2220013737917232,-0.4450057787675379,-0.19384199941034172,1.227060576957122,-0.1325288167712822,-0.22220499736612834,9.25868025349739,-28.90956018934768,-14.412225716877096,37.552747007090886,23.346900398180328,-19.56258904748613,8.264498588455485,-3.971461322125538,-0.0071740165495103175,4.502726299550565,-2.396738813559299,-0.5221133052680593,-1.113817575472441,-1.6555442162433918,1.2538878924135717,1.5698327306053894,1.2087737337408382,0.317291744753955,-0.06402044076925612,-0.34890443182792397,0.18693381136772994,0.17041480702948222,0.0772670573807169,0.08152436076904947
-0.2722397735070929,0.4726338925815012,-0.43098940425501825,-4.89729140437233,2.053377835278972,0.5424614041798171,9.014107773049925,-3.2095163461931793,-1.2585656622441412,-12.784533266926669,8.953698480140488,3.3909785432017503,0.7919496764153497,-0.1457441716576158,0.21054703932330626,0.21940259137744583,0.09218095322383563,0.1288307010945236,-2.6585907947551473,4.783313123235363,9.663268385792621,36.773650682860364,0.12679436929403443,7.866935695827207,4.690563665479426,0.680410898914813,3.7783617099461204,5.345018763333341,-0.08422465886383138,0.6578734673884389,1.2049511428405462,-3.6129567261326767,1.2668923221175392,-0.1990213954708496,0.9532031632939547,-0.4880033579713383,0.11689061257882588,-0.6144156116725551,0.18938035421888488,-0.17078799054828736,0.15339190237024145,-0.14087398100840023
-3.2735697049315946,-0.3073269931518852,0.01536247555411667,-0.6906313326736759,0.4915809833320193,0.2224062110659223,-4.489425103403863,-10.940685923779006,-0.4031932265195187,1.4264514969669344,1.5322067386968323,0.35811705536151994,0.288128101196435,-0.2787567847173996,0.025688942817747296,0.6836360605275829,0.022262924602951883,0.12584376114400445,-8.257540882404586,-17.798492076347557,1.0987664711063996,18.322684226408278,8.997392552033473,5.254792132415663,-0.5016281290905341,1.6932766742940535,1.191119599223202,6.658589295058631,-0.6228444091352555,0.3257297350968283,1.1072107150370498,-0.494791186916131,-0.212497147060269,0.420365063551516,1.310199142215246,-0.3331056061163168,-0.38745575813625854,0.24322877241634797,0.03563922604532144,0.22655532004346168,0.08100912967157017,0.07074390652131701
-12.09792698927146,-0.7876280607221003,-0.15477998886173827,5.348045615305369,-1.4097763080960513,-0.1769519721946417,-30.67927050638005,-8.89644464220211,-3.255683829421345,37.827016418826965,-12.963152216525911,-2.838444288355539,-0.2758012776873073,-0.2217909685355886,-0.25087575483145746,0.7269683841943613,-0.08161422516961087,-0.11697925443437232,11.870296533477699,-19.792796605629103,-19.323261396933212,68.32655073189817,34.79800176407665,4.6345474566907665,6.262692810143541,-1.259293523672091,-2.3332333563060237,6.012710808096185,0.8421679605382579,2.23028586462145,1.264363444336256,0.9363862032446828,-0.6822449881229018,-0.3162814144210668,-0.1989590323189988,-0.1679708155386147,0.3504847409790638,0.18432824806295514,-0.1187071549717561,-0.22830353981074392,-0.010279708390578977,-0.1378310034867837
-4.546130877361606,2.643400956683162,-1.8152976121952091,-2.319736411671194,2.9795557630353553,0.07043513688629664,-1.898480288334657,2.967492124984586,-2.6246422600064867,-0.6215526308403297,14.56550832054081,0.7928655423485025,0.25844896499572906,0.06047718506871005,0.06704613786384545,0.26586285862612946,0.1975164172063307,0.14250582415470814,-3.444598990229558,16.75498670584931,0.4320809118275566,17.228343534481148,7.152269846213769,-33.745029283071226,4.7727677496543,-5.948011904536557,-6.2528457602386815,-2.187916125897279,-6.234347567318348,-5.603070334771329,0.9425819797963851,1.2230448211326481,-1.5493554468038302,3.6412481680504905,2.6403177402767897,0.7691927205049248,0.07662389193037929,0.06848186022215115,-0.22441041338712872,0.38124604678148954,0.22219489645679422,0.14414183491289514
-5.99781455164882,-1.9336052316414314,1.0765609772460418,5.314792689682099,-1.1782611247512704,-0.13546100427858304,-3.406863030853591,-13.837646746448577,-0.559438548395494,23.572826784271484,-6.15495886149883,-0.011437406644725479,0.5635780717247637,-0.3763441043237559,0.16782815464568274,0.9344977323201223,-0.10634407344090162,-0.18682755331917164,22.311029629176982,-25.62913164866673,-2.0175089913948066,26.205274409646353,24.626100764561208,4.00309029555361,7.649778302925122,-2.1625310238533095,-0.05092418492409014,5.642980485439147,-2.0908940385868693,-2.1774497521295637,2.6374107189143596,-2.099408213833611,0.1368697581695358,1.4997494934000333,2.88349869173485,-0.4593058050659599,0.15100504557404307,-0.2364902041661319,0.045853269258965164,0.22925780366302195,0.4213690429273395,-0.08195645289529388
-8.261740095270326,0.9902687937752729,-0.8185140665003748,0.5808616212899405,0.3278498221673185,-0.1691624606930979,-22.50752348470509,-4.5500945468482294,-4.797916819034949,11.202495617784114,-3.7589653769729394,-2.919352221122653,-0.23291063651555607,-0.013197022695394188,-0.027639704249812058,0.5711985700940425,0.09771506858663702,-0.006329518920210356,-12.05691583036287,-7.8927105851310415,-14.228976371611825,53.068461803962336,20.595480551137165,0.5661768334325392,2.4448170564069804,0.9180286406944786,-2.3947945944211226,1.9883344390372049,0.8492124623027462,2.675649335854699,3.4093867284931867,1.3557711777728372,-1.7806046328325116,2.0114407150431752,-1.1179338833284156,1.5366567448923285,0.47519118612700495,0.1210185355186209,-0.20603854839346925,0.31800154444092554,-0.2810954608703388,0.33379857483545505
-4.2116116070102825,-0.8517530085283526,0.6416439840994268,-0.14417063225764093,-0.3323372411750097,-0.09630400670193716,-11.965186410729055,-5.818219917385093,0.4713049191778784,16.985451067529382,2.0803668018555004,-1.6166811287668792,0.4035955408523552,-0.2646804383901959,-0.02021000045021504,0.7408253458111198,-0.09632064177539111,0.07040797172535992,5.903505441618756,1.6356508865372452,-6.5170932928304595,56.41045935398356,19.48243148995348,-2.090943169796697,4.42689916204733,-0.34218156903109204,-0.5347372273099126,4.5752481895402966,-2.61022136965875,-3.1449638448837995,3.6748715753785617,-0.5830410417626426,-0.6529378145681818,1.3618701558020543,3.5189515029717793,-0.4984129905326934,0.6601542859740509,-0.0008851096022329547,-0.12540724439293746,0.09951142702697957,0.5492685167448979,-0.11387110601956354
-8.52972991779161,-0.4973070970492026,0.23616907212615032,4.921412509809839,-0.053607513293345684,-0.08894769892477945,-12.2666427649916,-6.185895890253802,-2.5016023713243416,26.86690717690528,-2.875318125355925,-1.2771480435096105,0.08074802633116004,-0.28721775141510086,0.1298249908219629,0.4859849432105608,-0.017122552723029344,0.016420824539319263,17.420467356172814,-13.182675611405289,-10.333136224200988,39.826428629203434,30.870442443443192,-12.50115790824601,8.128271473443064,-3.0582265386228307,-2.9278595233114797,4.365676182935009,-1.0375982444699736,-0.6914229329600075,2.019863876988743,-0.24271044477274648,-0.925105563932303,2.2213850730209668,1.5916248291835424,0.2658240558067202,0.4032423651379959,-0.07387510160470144,-0.2195998141231889,0.3540533856637747,0.18639909014049852,0.032290976731034905
-6.39875972817455,1.5809869223944866,-1.2916379145904047,0.18950232867962202,-0.964996743906106,-0.11146952086539103,-14.433999735169051,5.54922799994741,-3.6461334518725352,3.360729496782273,-5.510187942772881,-1.315693557939034,0.002363817398192952,-0.1126079306247324,-0.07620968974298735,0.8806199985184584,0.0516061617014915,-0.09493083108861562,-14.764208154376398,-0.24661994201342033,-7.110889895844125,47.31336477556812,19.99006062768482,2.146762275306677,2.039185341554837,-0.9257445246522387,0.02079574894122985,2.660027763710914,-1.410281074864339,-0.7227284335887478,1.2702896216689614,-1.3250865167834367,-0.33562118147512743,0.9259806423180207,0.9249986566771661,0.11825934327233649,-0.4314133403283117,0.00830608172259261,0.0006259327396650706,-0.09447885651304413,0.021271370423320203,-0.059634206720769696
-8.630025294476997,0.042213245713881214,-0.21439675419156126,1.1453653456652078,1.5233315387090827,0.2285865317470323,-22.55668643384322,-0.8826952579938436,-2.671890462194664,12.93358842311762,2.4699622541989417,0.5724831381318338,-0.16697483418289297,-0.29304286034119875,-0.09447228696514409,0.59878066672368,0.03071951778830818,0.1217094422130733,-12.126293381644837,5.6411980002463205,-7.679344721000512,48.9714364843206,12.189574625106957,2.2333970794213824,6.467716053691587,-1.8760074670357894,0.7507432541447424,5.917855440064625,-0.8655809235041712,-0.696716433402756,0.5322085327911428,-1.7569030177425145,0.9918179811527937,-0.23379548150650373,1.813997191629133,-0.9144765281223871,0.10466732220837889,-0.45729897198717373,0.24327479643940497,0.07766547162628078,0.3215260677067946,-0.15191411830782245
-9.902142509170835,-1.0515867079702272,0.4922989007148338,0.8153186469592567,-0.1270208852323454,0.14055261332912797,-23.20774878825647,-11.337223300483634,-3.7439536191286886,11.856257452713773,-1.8904559248729191,0.0974054493272445,-0.3718922365289466,-0.13763448689439292,-0.15948612214508567,0.6439091068483062,-0.01582216437396985,0.05270888267224487,-13.345379982862582,-14.071863838260768,-9.506056943848401,49.48649546500021,27.71730612265841,-0.6695382071739011,4.460453585063563,-1.7229101785353895,-2.2739872320034062,3.587070728735621,-2.2596800639565493,-1.599015421743969,1.3875823465748265,0.5708916327139397,-0.6622977941361018,-0.5104913985828866,1.6007894698660228,-0.4919606035200392,0.2719066937277863,0.06068436580972515,-0.10043234878705282,-0.10707241277740269,0.11054800694308096,-0.00974170220974267
-4.797921388095213,0.6775609241229735,-0.9078577553438506,1.3270499337634392,-1.4656333448991432,-0.346000110783989,-3.398392861969027,2.8698974215121007,-2.0954745247537683,7.509338103119872,-3.6704379087081636,-1.2532621215566264,0.06011317914098262,-0.23490278533571973,-0.024840109755332615,0.31732738109035974,-0.008566345086770684,-0.24308301630699264,4.805010734495027,0.26300935973895667,-3.3956274976350898,25.373655610677197,18.734623103483788,-4.919409692500613,3.6877889098140018,1.139614603078356,3.3684453922902424,2.985951358599106,-1.1851267028679549,-0.7226212622216543,-1.0132846222508065,-1.7941397809289625,1.5260667187168737,0.31113005044931935,1.0185361612597255,-0.3317116583669325,-0.6254991935789309,-0.2128608002096833,0.42953065844476124,0.06793913568528234,0.20703299957257854,-0.08903181434936164
-2.496912504714974,1.671665534948389,-1.2809700528577677,2.6205469688706815,2.315064551738983,-0.4346828547017745,-1.8278585282863635,-3.258224422387545,-2.1826133964015257,8.057556675581523,8.777121695945306,-3.223746811513756,0.251434732536921,0.021250508252564505,-0.008532657774331317,1.1922078477674403,0.07664463886513975,0.05572105621999915,7.329708334238526,8.158550838063817,-5.714638022565359,58.446425822470154,35.71830055337645,-3.278797224306517,3.7609255783886697,-0.16259980601128662,-0.6140015025615428,6.236017073135077,-0.6588529483940758,0.009643274201225882,1.2647625508078018,-0.6055620615903775,-1.0628189985453846,0.20514218271762108,1.371814635738906,-0.575102797573099,0.21811037128129462,0.21933232320339288,-0.4202439280712685,-0.06949251204483704,0.12830665456522078,-0.15320179543280318
-7.5760777465394415,1.4209341564663414,-0.8267866117659636,-1.7264919166834052,1.714968391358028,0.41119844167532543,-27.10493872754071,-2.558077074424479,-2.9305576065681804,10.49354526031172,6.6444555504698215,2.4404501348224312,0.12576439914549312,0.1850395600958447,0.01115532162825287,0.6043760368075126,0.08763149349365074,0.10772571765149912,-20.12433628923327,9.374702603644662,-6.841209152461254,44.2198817411823,14.17365804663778,-6.760212863283451,7.779060403978994,-4.068833090748483,-1.7763532065387424,3.147768216691367,-0.42003681254896436,-0.461185172495874,1.5114671761624636,-0.9666785042932682,0.2334521801739567,2.255971997017522,1.786983593578984,0.5383858375998672,0.2003046525039031,-0.2349295727855629,0.12597178123135042,0.2910187241585068,0.33686191918192876,0.04556087484760078
-8.929658353277008,1.6793053345292517,-1.4486031853701227,0.4509177346177421,1.3117513717289722,0.3067475718826045,-12.97174129961157,0.8703289711570412,-2.6915753372230595,10.795630109027325,4.4932249391318715,2.282866107473432,0.1287310362762492,-0.16140542594268936,0.12238831879801951,0.35142996337501414,0.006371333599415656,0.06488151127059577,-1.168648842163834,6.245176995577174,-3.925519204947839,39.48223296717276,25.856974795754855,-3.6098221120675444,4.342472635964017,-1.7004504273856915,-0.10489497812898155,4.124193531872722,-1.7149002398510802,-0.8948257627454334,-0.054951415322797376,-0.672422979861452,0.6112409876025977,2.7011537912931605,1.97781510230366,1.0277652900306076,-0.02497221144196273,-0.25359783883270215,0.19386558641849916,0.30836836638287596,0.059372397084828075,0.26248299935462854
-9.323250925629468,-0.8985199674332351,-0.24575111622109766,3.9992584070317827,-2.7529297509227546,-0.32292089087451814,-9.129764248645476,-11.205883673573533,-2.5119147194509277,19.127764661912476,-12.777174468560546,-2.795003336019437,-0.05370493583355258,-0.2607941815156997,-0.13883173120630074,0.7947496644822573,-0.05878799635459359,-0.1543770328418017,8.32216749128248,-30.64735652144144,-7.540162842351102,35.958603394707524,23.237085892168626,-5.606331844787513,2.4933240845178544,1.1754677547619408,-1.5347723732987673,2.9455554798278523,-2.1432413071319747,-1.606246670267762,-1.0752577026210566,1.5868519836608022,-1.0991260023419847,2.451861665080752,1.527796046501292,0.4144132210679149,-0.39237516860976396,0.4241987710318412,-0.26016531235841556,0.316086439649384,0.13095118922897692,0.027921736780050666
-3.5537094647393617,0.08536323266218437,-0.20348883220301064,-2.134104297248124,1.6880717721582756,0.27874452470283057,-3.7921712681904802,-9.17873500664941,-1.3240240977012165,-7.0661228627038986,6.041072533705362,1.3748198841808084,0.38452698947472347,0.008198138967513835,0.05201514375609155,0.3422621364726384,0.10240582999931067,0.13303830223798044,-14.485474317880907,-4.949214301451042,3.5845200858343924,58.08126061652337,29.90789323724626,-3.6703123566364297,8.413302844766353,-2.1723803992672703,2.6382355713035133,2.637025931705987,-2.529983017258097,-1.94287514577927,2.6635660286718035,-4.045153220567929,1.3371820863605122,2.6021114725834855,2.087044155434119,0.646899834179283,0.263335809352709,-0.7115979358817097,0.311646543821916,0.2557076334031008,0.289422138509264,0.0724223376502378
-5.8195037427778775,-1.1571548732623775,0.29984418091489845,3.625208590182601,-0.8880520470586858,-0.27336345878046936,-12.943032907564918,-13.902105352913381,-0.26427099793284325,34.611533537792134,-6.536849587043974,-2.9889196602158843,0.3142589169762252,-0.31677603146927685,-0.09149177802057532,1.0591660863336105,-0.1837113653745214,-0.1135218013471394,29.823856528066244,-26.61493803733265,-12.234241143689985,28.103914814866968,3.144639960664466,9.058648370138359,3.2566341748086276,-1.3345728251901985,-3.404294005566792,12.163654181228964,2.8618049893385087,3.882810256914832,3.234996047784815,1.3759315100301577,-1.6232594345889348,1.202922252408027,1.352190853096396,-0.041655446849320474,0.5220099120732955,0.376888263608992,-0.2720013227135709,0.27428085502373056,0.26645377908019857,-0.0037794545750603698
-3.5805990062272515,1.0879630621379255,-0.8515876922370471,0.25541338332478725,-0.2629281908473895,-0.30092851047355373,7.178504429979736,3.5720075586493607,0.07556020440698807,-3.675676121437422,0.028136101435592642,-1.7873949408900196,0.23377305873506124,-0.1844970982849729,0.06559669370982188,0.3377578266082735,0.08331440130353382,-0.08693206509745166,3.0766132385072,7.507592279828909,4.350799531177189,34.48495255285376,29.392498659977853,-3.715601447585924,6.294306165852484,-1.9456349465917349,-1.2136430136208354,3.4234252952379114,-0.8409632322364173,-1.822533764923924,3.383727742410321,-1.4469145298400372,-0.8276224962734832,0.24576524397287947,2.2867494324136315,-0.6618852331564266,0.309800097356773,-0.18510117776636087,-0.1348893490146625,-0.005114406039551409,0.23484738998565782,-0.08006542556028559
-5.351005403075965,-0.15576887735877276,-0.5269016433852604,4.118138622963939,1.0136488085755067,0.1681232569485099,-10.389541564879758,-7.127238209588299,-3.437494020356123,30.33668905838878,-5.913511899667622,-0.8751084652556768,0.32893827449948615,-0.25089211873612227,0.002135935264779098,0.6044861156688699,0.108863261825595,0.12677357740825648,21.407604625502614,-19.444565462562668,-11.808913762892981,22.6321007150705,10.673179769698315,-10.567500666102974,7.6228190401396665,-1.168199676763773,-2.087151975044864,-0.01047640148689494,-6.421042324352643,-4.314919436323994,2.926704395109546,0.0048468124431820196,-1.117722793644903,0.21958649227772642,0.8082778907484506,-0.14022533478273339,0.542407663628912,-0.04151922137487373,-0.20587280111452128,-0.1612065926668526,-0.14205897585119684,-0.02156931358717526
-2.451803242768486,-2.930956266867009,1.2647481806032634,-2.4282541279154266,3.3579479525509726,0.44693908671304805,-2.8290498259208037,-18.59037444810402,2.504961833439409,-7.375797859226742,13.790810636088404,3.5256197022021496,0.40715953831409424,-0.2668013676939268,-0.10100329374294154,0.8079500448844196,0.10585576026258345,0.1988746306612734,-13.454859456893145,-6.282325061451029,11.914891897106415,43.46040455445957,35.738519488841234,-2.5446904103367114,6.155197163017532,-1.1275019614032775,-1.8334534058447263,7.331551732367925,2.057864726644679,2.421592279723198,2.1855483111245597,0.35919495503864807,-0.7373756322275111,1.1653752383638245,1.3274815805641453,0.2557393733096122,0.30608756238958235,0.1375867721920781,-0.10354183806100332,0.40652916378110215,0.4084028771526452,0.10639766881727417
-5.482005235552054,-0.11942911696273069,-0.3797590069545327,1.1090677365504609,-2.4736831995340713,-0.6024737077967895,-6.569369596834271,-3.226338768675006,-0.7668088795724758,12.391430723502774,-8.476925611003727,-6.0019641439857825,0.3193441961268559,-0.3378321369647886,-0.09652902386760687,0.5624291717746118,-0.10826650267137784,-0.15773433515169727,9.815565117270374,-14.08987512863343,-8.27333298803281,47.55456180247704,15.763738497777352,-2.5340492569054036,5.8149083085214235,-2.587983144843771,0.7125143779003678,6.360305134415727,-0.8141897295558147,-1.6821331639756067,2.3206436666673866,-2.953822033187047,0.4582736801758011,0.11485349665687784,2.833118811654679,-1.1751932638311173,0.24767075687891504,-0.5418371007272521,0.11393415222601634,-0.014559052323269905,0.42972035604123443,-0.260283893113572
-4.779414420909168,-1.1566654720584468,0.6795080842052532,1.2348914731877447,-1.3920077666376058,0.008269047077476225,-13.830078183213558,-9.735244561694108,1.7565163849295256,10.906737961948188,-7.407587865809635,-0.5950128974484067,0.4178280477711841,-0.27771649032935425,0.1816450076921723,0.824864896120523,-0.112460177157487,-0.1539827337106988,-4.232973378123123,-25.434650830008728,-2.3103995247399434,40.75134303356645,6.81778902258265,-11.214363442562936,3.260673820443249,0.49957338271872725,-1.5043161907331284,-1.6592596225899388,-3.527436563791389,-1.6808441874476392,-2.317536759386843,2.1210469979197364,-0.22616101684269094,0.8286221861902523,-0.26053430120468085,0.927313748566141,-0.4029215668177733,0.42688746820672485,-0.06020443613018542,-0.18881957513761885,-0.3534132457949917,0.1865294754215481
-0.37113017529496567,-3.3715688843806086,1.1671482133376447,-1.295847451130504,1.5768175759495051,0.143171855620005,4.90680858655267,-15.243073283818877,1.727657667785077,3.0595390032591117,5.743772451685107,1.0938169408854603,0.6473776396656014,-0.3878579787938527,0.03933866283918751,0.5084658675206524,0.01467340944186348,0.0062703750965761055,8.548489989483683,-10.807899153955901,6.523283951653796,35.029228552734644,9.463979257359902,1.7894606123287609,10.193464917322915,-2.9506620998043074,2.4177193756868327,4.198317633642702,-1.3617703554418827,-1.7258844329221117,3.199266478375695,-5.471196761250468,0.7916340953250274,1.910718253828662,1.907740546464483,-0.42163097052250925,0.3820247947285232,-0.9294735724529107,0.0768650855389504,0.3047284179831047,0.28010022168800774,-0.16926643373994305
-2.6051992559595494,-1.594597748727271,0.4026377739187055,0.8527722525176533,1.9118090102180585,0.023946222308810643,4.156416840648163,-12.324556788412153,2.6919137480491373,13.801091750342893,4.847719611131662,-0.2923689969407894,0.3329556709687394,-0.4566601241434057,-0.08386837021505616,0.6141511735270755,0.13227707002172256,0.13081490994299466,23.928548908104148,-6.96016308489594,6.754520711258343,-8.829684211569512,20.802883036892847,6.1222079305818236,0.4557004700579318,0.6933207863440818,-2.81433266196312,9.863427301674438,-0.07550034253051383,1.5641474271181495,-0.905279626551852,3.800931225834851,-0.6763638624632815,-0.8370602016227892,1.6819643276520637,-0.5520355959805464,-0.32119163565375813,0.8637233655012395,0.00285826969088321,-0.11233123027089388,0.28355972086801806,0.004800601656166805
-6.128358426714421,-1.1606458191296842,0.21124061601477373,2.3338321227472263,-0.8478914467687805,-0.20840593419943848,-8.94302146183129,-8.919708769309844,0.8978422504856124,17.759659586467357,-1.0024228126661316,-0.27723563678724833,0.028201036478647478,-0.26702295912333684,-0.08255775954069906,0.5943423880493405,-0.03884341870310278,-0.15587419989305887,11.092753972309577,-13.405817228717414,3.098621951845312,63.4002670240673,-6.646507046644435,-4.077171963328882,7.3318484665393715,-0.7687491907287257,1.3964485196615035,1.2256997202589222,-0.35964772747776935,-0.395033704849778,-0.528457549329009,-1.5466379718736045,0.9908960922775226,2.3508439829851513,0.7951225269582017,0.7107437992795964,-0.3288878417123966,-0.05103207642716999,0.1949647020589292,0.1312574326982189,-0.008734235360416788,0.037756792998512194
-3.519377995057001,-2.634104136721749,0.6128452037217345,-0.257649370081017,2.067725286869257,-0.0265939642065101,-11.574161129011816,-12.158990338722939,-0.07539293060591545,12.960781126373229,4.696033849379104,-0.8326445063845962,0.6971174655010245,-0.5144447594051988,0.01701488927183469,0.8680700392365452,-0.028723096361190963,-0.0028777680569900994,0.9805428949204227,-9.433237526272245,-6.627203718644963,11.515590848180283,9.241163495288934,-11.43664030541441,5.462942820684467,-0.7752913537252865,3.8324955850363134,6.135977879687364,-0.44369868924385886,-0.509722415610478,1.3726941231137186,-5.074805167728907,1.0202468390936257,5.155352920159482,2.8296878988839866,1.1424331631968996,0.35059509263623895,-1.0744921018772091,0.07960353356971317,0.8429334819474907,0.5331980818971378,0.16091944154375992
-2.746570772343102,-0.6267332161591995,0.7420970624154969,-1.6503340143222283,1.9135319808728974,0.7094057204231509,-10.893449022155764,-5.415068701491802,4.399211033998543,0.4369032486095312,9.292711046339234,5.465198552640568,0.4004298577893023,-0.23697425061439675,0.1115101382328698,0.29492590589610834,0.14038967066489186,0.2471946872021126,-14.313192201105643,2.899324460395209,15.402295341665726,13.31520031050324,2.7767030434037947,-9.49250165301591,1.1517592745570742,-0.9108076332398073,-1.6971177953271912,2.9705807461051794,-0.28566219179784325,0.34968842883561635,-1.9241114046957424,1.3654728663717703,-0.023890765960307675,1.227003331881492,0.7839594177143203,0.4300102075517016,-0.4564762408634122,0.1477106156215314,0.07768751301195441,-0.010579992392518058,0.0966331119451243,0.020897614272669767
-1.5994040912493408,0.3636436566322531,-0.13670101423835096,4.084892709384369,3.033489423748341,-0.5642672911450634,-1.4669411315275203,0.7460140630075639,-0.5550523457772222,37.65896170583874,8.498594537853077,-1.418386462473462,0.626670111055837,-0.28087340818798756,0.10820979528518918,1.0698135223767555,0.09368633606241815,-0.06497287377253429,49.258104792709396,17.124305944035115,-5.333291571199116,29.12803547665017,-9.518090557404058,3.4563721652076684,7.468411509660675,0.6614852261780264,-0.8938022203222162,3.828550769372957,-2.023761046993773,-0.2078565780099422,0.9198703601447565,1.3201790190407763,-0.2533907749254671,0.8849361972107957,0.2224661555660196,0.18887272568333144,0.19015572854361618,0.5719780447289794,-0.0986088776828998,0.22210576088163042,-0.11100173558176323,0.1024053292370866
2.3368334113929716,-0.1941467734293919,-0.44958674123636083,3.5049700705198297,1.6764008806520585,-0.7309123600507492,20.843474237273863,0.1880751484661065,-1.8345315135614597,22.98133251119064,5.862560678691119,-1.4303106050154697,0.6181397462844099,-0.46332931900413915,-0.023818130248025347,0.8059129671779903,0.04977582603666673,-0.26060980717435095,54.62603481329623,4.43825089170225,3.4299100277896106,7.793316295211607,-2.6478637831726792,6.8565831770284795,5.742725274113048,0.027898499070915517,2.3343627359229346,6.226546695490803,-2.422520506682597,-1.5226871119587662,0.7374962954340802,-2.7643734179147925,0.6178253097322337,-0.554348093331717,1.9452185163993656,-1.1980207674526624,-0.009851002842048123,-0.344555158043613,0.02024981115346742,-0.21648561508532543,0.2194447815353873,-0.245578393903295
-6.725725489656254,1.6146661864340597,-0.1895306326773605,-1.0374691204060311,1.2302049673870155,0.5973265765957452,-24.279555907775585,6.316642188815355,0.12425726242419714,21.085060204214372,1.3261839277162883,0.4998344822565736,0.3813191783764724,-0.20348521684342277,-0.025475136665691036,0.50533289292188,0.16918459072148814,0.2750675617630829,-6.048610028598827,10.909814690460111,-4.855535436029813,30.11393185453923,-0.11791190727388257,2.902678073324475,4.524455233811246,-0.9270144349687542,2.763180119866066,3.362898344213534,-0.848947823911938,1.0951417106193546,-1.1450602433597672,-2.263810463549441,2.1807208042883004,-0.27022520839070246,-0.1182955375088472,0.24725522523937396,-0.38730780884187727,-0.5474364799071291,0.6339397047767585,-0.15691330900314282,-0.09509169832130923,0.07696913133498484
-2.185378564885611,-0.564484360465992,0.013860905554663319,1.5754104117880905,-0.8904447941197557,-0.40927768496341943,-5.358194770564734,-5.278922566473121,0.3162664220555465,27.685825291687447,-2.7227668031378305,-4.282983142638487,0.3937272122490054,-0.269969404996705,-0.09761730976278092,0.6943624426532847,-0.14139979586736742,-0.19689993530814714,31.68504500045301,-6.4977850330996,-5.321536428867147,6.392058330485854,-4.932438525142104,-1.0531210919702159,7.145374478445891,-0.44688979982072485,-2.082352306783855,7.968590294622074,0.7934407179067705,3.1601437124762506,-0.68327783622307,1.1309749365966795,-0.7720035520642847,1.064649486539828,-0.018394241783574142,0.4618390652761086,-0.25868882566327395,0.4199992539701189,-0.24278705041913673,0.3043514224108249,0.025752259492015057,0.1199338223657649
-3.97172978204724,0.28814139509871217,0.16822811072478505,-1.8402636787505353,0.3696395345286682,0.35498518130906054,-5.275018413441928,-4.140509110826666,1.4179902042797556,9.896925665315038,3.71476281413052,1.3116682692737618,0.27176494862640116,-0.23266673683633016,0.11975786720348992,0.36176778612510996,-0.049357247734186135,0.026397275149262288,10.67318101810045,-7.3420084231637714,5.388778071542921,-15.452308333137958,-4.18994677073628,2.355680718449029,6.7198166841348295,-2.786859443606049,-2.9423171645042485,8.597231736607645,-1.9492163408534275,-0.522603745428933,2.86427591856257,-0.4416960121496146,-1.193023990247354,0.30148354586478393,2.3157294044899683,-1.0003509495823573,0.5690648328046877,-0.4552350591862544,-0.12818328426929027,0.10030866437805343,0.43962135359704463,-0.17468780210924442
-1.7846713689351488,-1.547445037504868,0.24430106550018635,-0.1813821694324037,-1.7987362054157157,0.3619670024762216,-8.270718033875337,-3.25253803684962,-0.12466468764925445,18.621766956963405,-5.704848399512741,-1.4497559182546558,0.8211098161113477,-0.6188564000763308,-0.05543451121342768,0.48042597974201035,-0.1700742416515635,0.010387818127006836,12.756315746021748,-10.904449286633817,-1.4955416834471953,24.390225007461744,-4.6143447228346375,-7.666747570269602,9.67631172859142,-2.4337613993053973,-1.0236542680207665,3.9154050206592355,-2.1816062139237578,-2.103968914534827,1.632705657335986,-0.5218565852099185,0.36522958890044843,3.2241665308541188,2.3199272349513955,0.24804134112418683,0.3171127579669506,-0.20002515828284895,0.20738288387453685,0.32974955625107055,0.11448944875463543,0.05495522578542469
0.006283918566362843,0.665288850750934,-0.22502316273961484,7.753743562495145,1.7487220296452792,-1.4334889180957924,10.514580029575813,1.2020678940250886,0.3632966448707921,53.918284307390394,8.41409127779372,-2.1821271619063096,0.22540618272170093,-0.06211595102126488,-0.062395911405730003,0.9045546646503552,-0.026490720560879987,-0.26801926576910656,79.03813253828496,16.718449689207926,-3.646517082033381,0.3507158271724281,-7.998017894789501,4.3073498959282635,9.196081117228644,0.09621098677763062,-0.5437316758899308,5.091394292740157,0.5116722917720612,2.080311512780599,5.744713747163982,-1.3765152396109888,-1.3591447930163332,-0.9404476885931031,0.099056641352064,-0.22834349655237451,0.8835573747603299,0.08317804622525489,-0.46310181733353106,-0.1780329284030415,0.028681824974603618,-0.00864962611287024
-0.8518892861998208,2.1833680877638315,-0.319423007803353,1.1245746196378514,4.058654471631138,-0.41495436755627674,9.965776823260162,8.363960359913106,0.6396303026599354,27.54706045997571,12.09962387590215,2.7758649578784453,0.6059623331194666,-0.26042670203436263,0.11608175457002513,0.5618119156472204,0.1688863507347196,-0.07614235559661695,48.78968257099199,30.6532553918559,9.531249938861377,15.828119389498644,-15.328387742677595,7.018032376686733,9.779664245047663,-1.0412357872162241,-1.1175478902159723,6.602629859908247,-0.6229565875107512,1.3646299704148055,10.781992408290867,-3.112723679740468,-2.300148468616077,0.9890481549129724,0.5964939836876748,0.055101741384069855,1.581150646433014,-0.3404683331822561,-0.4824747129890653,0.1072857041040226,0.0647147370870488,-0.01067615478442348
1.6857994985557119,-0.05272191153649225,-0.02085026176776226,0.11222823408710886,3.482719596295553,-0.2264792204576136,4.0760156922999204,0.6985869157195006,-0.19353420806004196,26.330367246023883,10.564082275599233,0.7399285434851202,0.9605924845258612,-0.4752490835179998,0.14301610819380017,0.7748430862898004,0.26955910372904435,0.06068043974231589,36.61345345536113,11.316066011287843,0.9059482642814082,10.10485612146474,-26.583476588933156,-7.77579198678738,8.402096494004725,-3.798189220905583,-3.5337697794003198,2.105326176926617,-0.09549379187345972,-0.2711851325930768,7.837552073390626,-1.5835662514509266,-2.173257754016998,2.4186302305228584,1.1308150930499228,0.48743961892290677,1.1674541047088807,-0.34954948847017103,-0.3076976405417212,0.14760217651360438,0.22726461803299738,-0.03145401738563868
-2.8363287210530634,0.0722375022979885,-0.20096831200330628,-0.029839238843314957,4.637223253864614,-0.4372375836427104,-8.27632756253711,1.421427120026236,-2.022408160312151,8.84903698713729,12.970936133731902,2.6077628333420817,-0.027187320066700528,0.001825077603850046,-0.10644029779731068,0.5122020311062878,0.3950247577360038,0.021686053809516798,5.552858938412894,15.894478596768852,-0.5724003720728893,-8.843713871181066,-0.9778377419036518,3.3528019195398717,8.913977159741105,-1.8584942159181415,-0.3848624381283303,7.910140724833602,-0.24507391921052085,3.1766614424219894,3.2768039892271292,-1.5921552429848476,-0.28951399249225257,-0.3875220640855037,-0.5953686308122759,0.05994940839850379,0.2799225253549053,-0.0802244862545771,-0.07662052705156598,-0.3351119160450315,-0.2491991408482002,-0.04781748342782178
-4.409992431892832,0.2534920421739351,-0.01691137090694808,-3.9071179373682527,2.455773989532536,0.2875692559280176,-12.821140755121423,-1.9439862419844303,0.33606847536022116,1.1686404044460166,8.80306859632135,2.70057469130872,0.6010220890833988,-0.4771720468976842,-0.11533476089995529,0.42081260512233,0.11173512497268434,-0.05223894225548403,-13.987154292648825,2.781240983507985,5.1894277947538185,8.324740673295498,-10.168633855068245,6.552565351465124,10.791857783569949,0.5173442877351223,0.3195973679244568,7.881036753297161,0.6958376542487748,0.5395940928651431,1.7722950615614,-0.37864221608507725,-0.13219099141440094,0.4630703388844969,2.7134359204117673,-1.0141707263879192,0.5776501738120383,-0.01997562768643933,-0.12550983981368424,0.427329835028109,0.5627628809726953,-0.04795747070242348
0.34577749827714643,2.6350359888533887,-0.5278083140297942,5.358975777032852,7.2886699756662905,-0.8471848904960333,10.110169277993688,11.383902002460811,-0.5215404131461109,38.66460596779624,22.279754618261943,11.776957894605337,0.44186254255876495,-0.09234935238600858,0.18460295148049558,0.9533231066361332,0.45860182041474123,0.14992379662354344,64.85853522104742,43.75440379665201,14.373649210166816,-4.833642662096792,-26.39605699677256,-3.4843858267590306,3.635691427109272,1.0758641937989262,0.5793827960996218,1.4626811231884285,-4.161610200500184,-1.4582448312799987,-3.3037372654721784,1.1272836022263557,0.6310379383488166,2.152438727105812,0.028297160794681992,0.5685893069961148,-0.24623295028883746,0.016395405549348874,0.09580762255807605,0.2273306525633702,-0.1335899672004048,0.06425738713516838
-5.73563582502714,-4.196742638819068,1.1024151490218426,-0.34138744679123084,-2.5910416916979733,0.3867038131628354,-8.558058696780321,-20.383761752079288,2.272676065972528,-16.684629539941326,-13.683319548209596,-7.003502052970872,0.34162620778014385,-0.5035969987054671,-0.2154541785480212,1.143819532122656,-0.02995911155686866,-0.010702456196555462,-31.886739181331787,-52.43446088835539,1.888237778505015,-18.228157170304815,-15.77129112290897,2.084143716309774,4.39036864385228,0.7699796773374097,3.8264658515801204,6.087896743496296,-0.7546565809699475,1.878401890619201,-11.493007105397771,1.5130207931311157,3.721842856678336,-1.072189940667231,0.2603725767517724,-0.24223974165724577,-2.169391277987115,-0.006646045027810004,1.0520976545404295,-0.29039889393101237,0.003601784341422297,-0.006548201585243888
-0.6907559196566753,1.8315616467175753,-0.4267790540245779,8.679533330569706,5.761410234771644,-1.9769450821874177,-0.6469394901210668,5.51101892285175,-0.909821982879868,18.85179204949077,17.107659462285678,3.6187654528528674,0.6304847146122474,-0.29735580566183295,0.14793711027644646,1.4966249995468093,0.4351069547805983,-0.15910443434072488,22.109745649153144,21.092230652081327,3.6251175946993786,6.256487941216624,-4.3679184364204575,9.53189369533107,13.047294899950323,-3.870296192899836,3.470701210713007,10.287998159626332,1.0450792476283506,2.3323826054410848,-7.3574989733716025,-1.0747440916282238,3.476458416590083,-2.2894636258963823,1.7163542005837047,-1.6961341116630035,-0.7174395758855395,0.07432547541125878,0.37972721158038164,-0.2503130157706499,0.4402818446074973,-0.2880770942221064
-1.0004165662448994,1.9653032192846898,-0.7478058782173772,3.691404907197334,0.7557889083632275,-0.2244717577577804,-1.981049058779388,0.5114294736084821,-2.181028860209911,18.623827631772976,3.7094322495426924,6.728516471369554,0.40147927717063303,-0.1352205739252819,-0.0009927564381029166,0.24632669419002914,-0.1613602256606491,-0.07041699212918918,19.842533165462783,-2.79355468002374,4.394765946676308,-11.678796326494071,-19.267039088874405,-11.706348894872065,12.899393278020776,-0.8625425546016391,2.4064755978032504,-0.9404151492252169,-0.9622674669117401,-1.5469437291948762,-11.142713760072784,3.5386431507952985,3.497163498190908,5.245743205628161,0.3982011118384474,1.3527202742221045,-1.6328090621492177,1.2952014856325846,0.05590394496611036,0.44536953726273193,-0.17602448760430398,0.13902356303601676
0.13262186926386013,-0.08498125895588189,0.25791657709625043,3.9338486466534963,-1.5920143727865794,-1.2097780399216747,5.25293058110661,-0.7199101650644897,2.3071588019091727,16.0282411645722,2.0088520277544246,-6.50585078791076,0.918998337894786,-0.3488223242375425,0.06803275256357533,1.2987461038297932,-0.14980162829322508,-0.11469630523063357,26.21219850100484,-1.3974620121114685,-3.0371588293600547,-11.67664015666857,-31.54662969262288,-15.258665831939926,-10.18884270027028,3.6856498203258545,2.973181201050043,1.6251769051716323,-2.460079197847736,-1.9057966478777888,1.4443797615482523,-2.1541998088517076,-0.12781841723096365,4.642558949608367,1.520577672199637,0.8504222276602527,-0.24048966904501737,-0.5806389128251992,0.23559821115559018,0.7263350458360999,0.213802399576463,0.15970766613288992
-5.844766195127557,-0.2931308002092024,0.16169239106102062,-0.22268477688901078,3.9186232471659324,0.4497296502992569,-10.712894722637872,2.181980823752682,-0.07881038232781656,17.029759336686013,7.448242336310616,1.4569107618135257,0.03202100788121944,-0.3978320096067913,-0.14261088279141973,-0.03347648943833818,0.29953160611101737,0.4236641052981749,10.111924597089585,10.005189058120715,-0.07958759767682427,37.54983507323473,-17.291513047777556,7.480964906543544,4.1085641336184455,-0.614277175555419,-1.150579954673969,4.86167324259955,0.3352173001208366,1.4954079292016793,16.384785495045328,-7.824259919353776,-5.390109929267277,1.6288459574971776,-0.2239691536223533,0.1866341001969683,2.5572501075558534,-1.2424112065360156,-0.8377812735719022,0.6423323066706604,0.0294661686662413,0.0058407803226012776
-1.2280902877344735,-0.2711772460743329,-0.14267082866748637,-4.816985429401221,-0.35085290035307076,1.5533892595056717,7.814040579385278,-3.665134308624846,-0.8797982925607418,13.777610038337823,-2.1075880077363776,5.506891098690021,0.4574160031283254,-0.24900986312811554,-0.037985280414223034,-0.06980743315024474,-0.15396362579695347,0.0760854010928208,27.5332704654059,-7.601983655820209,8.51665288980257,-7.119800686130965,-20.97033675825863,16.396200992552565,5.044198780969122,-5.52623188930201,-5.625835114774335,7.44908686890285,-0.600983222999723,4.349711278428254,12.295574019308246,-4.752309223849523,-4.891828416958341,-6.552617386049437,-1.657213107698718,-0.4108358630561514,2.0334179874494485,-0.5966913066034032,-0.8602453886000399,-1.4446619380544325,-0.4955448679892881,0.05743860321321986
0.9782476111424238,1.0285729294184616,-0.16397273023077644,-6.22236613437672,3.0367168165702196,1.0705013254680107,11.019898610898029,-0.6175126109161883,1.7974908532260254,14.235183545729505,11.654514004438468,1.6990288155124085,0.8163078197951984,-0.38150754987353935,0.13871274534946376,-0.45813029069036804,0.0992482970887812,0.07055678938419699,33.30086495879833,13.49959902446224,9.249151841905913,-6.789579707748554,-30.049041875593815,3.820519685585458,1.4715108343355576,-5.055321965515945,-1.4795959177366143,-1.0563955542748624,-2.2985545432715697,-2.672086651120144,1.8868057604744723,-3.1942926835267667,-0.15618270021351877,3.661094036809292,0.7692486527227165,0.1268214021378093,0.2233379478378693,-0.944626052600506,0.10136996750300625,0.4074723258691013,0.08342878762785794,-0.04879936657757725
-4.113819184731989,-0.7044048463428598,0.5866826517270156,-4.983774213048079,-0.892174877608161,0.18344543430564264,-2.8694692124070613,-14.792501995958466,1.873378027140051,7.751282422298958,-6.927554055774595,-3.9497227302202607,0.22486493637484584,-0.036559837671073354,0.08371982883711544,-0.6934803342316388,-0.15877484857757207,-0.5209563799530014,8.492695219170216,-31.087244696095205,-1.0503683604905594,-16.016775166533797,-32.24038417999594,27.58227348441851,0.22768481251430722,3.8583559870149706,3.5645516355392712,6.071621918572622,0.11052119062051827,0.24669311016056433,-2.7148907888622396,0.42489891158171944,1.2076550547596652,-0.9282546981201856,1.8827870462734484,-1.1309984614548902,-0.5655337721721734,0.3145621295335076,0.21277810894685736,-0.24405415080788995,0.3751928891910575,-0.20545265678690025
-3.6811564571864763,0.8977954143049577,-0.708430074900144,-4.393993037669402,1.3677142298942941,0.44638204081487015,-2.0401290159133323,7.525685604664877,-1.7423271015150021,28.05611877643604,2.9728591077765896,-1.085235927302955,0.3593425360163094,-0.5251799754648313,-0.29819781433405823,-0.3033825603974536,-0.07013566449237205,-0.40912991406749605,36.39268222179886,14.725655783912632,-4.5651300014604645,-9.923020674050017,-51.68313226425155,11.803186507593777,5.4943469791505235,0.49150512414604547,1.397533364270197,5.597004525906851,2.1713731742458604,4.797029166559059,-5.600551756082804,2.8478177583975843,2.1410124521394334,-1.7070550612701618,-1.4946649705463562,0.8548704073393015,-1.2719002657806997,0.7118739724394829,0.5315002137367115,0.2777333795830214,0.06711548240138221,0.09653568217669325
1.1163106215423229,0.9616957317357442,-0.26270032075049815,-2.9659772747213204,5.045146267724654,1.7034992939260742,12.049746832791033,-3.1160837953373313,0.6218842836609022,24.41277683989252,12.148004706729662,4.524817001062559,0.509766468024167,-0.05852382830724248,0.18609076875562663,0.7842590544003148,0.16624691117999427,0.3926824564994428,48.50691849665126,12.328624742092607,8.149405345381618,10.233840379789761,-31.130572473447994,12.508976638985262,8.337645686409498,0.6788983782312624,6.125708992074144,3.5068048633616646,-2.158664533023167,-0.6985107540135822,-1.3293809306012596,-4.547818420673759,1.9804769108785127,1.8233771105782794,0.5626145073233288,0.02568977810654799,0.013084608794364197,-0.610346447224794,0.26832285120857,-0.023462836994804157,-0.21497580287739057,0.1784042828569914
-2.2044589576839555,0.5019865427384453,-0.27517016575747577,0.5150964254466593,2.5598419090056415,0.9974075802794058,15.013046068866075,-8.366141768950914,-0.4359331585220718,21.90462776205897,-1.0909549982205795,0.6268902022574048,0.5479542463893045,-0.2885675902118834,0.09069528064410963,0.511174324156646,0.17171170473212138,0.4527426750660692,44.08933443885977,-20.02764526128897,5.51478205491767,-2.3545847705879517,-45.41422214739678,17.974635054981615,1.924538131249676,3.7435326292311855,3.050179845668822,4.549337790014898,0.4724255391446138,0.3767505809358059,0.7693233445391715,-1.1842661207981902,-0.06117874901954205,1.13034409510445,0.6387069829051498,-0.6300862576102367,0.24068684271554308,0.3198088168284794,-0.1495598401398318,0.07924626249089732,0.4287010577632247,-0.3655605494162829
-5.03131112406721,0.7363475811158416,0.29851539334427235,6.653703241434705,-3.292517529289484,-1.4485490199511308,-4.637420993626679,-4.386281369637316,4.6228854443968155,30.2483684079848,-8.767586927882235,-5.440912957789257,0.5356315935156855,-0.5091591604143548,-0.10773670471982581,1.0754926914659222,-0.3076901934385626,-0.1670449616650098,28.601578850736303,-20.243247045665044,0.9721727746504985,33.29789562957058,-46.75845716857767,30.209277069034115,2.2932816947983428,2.711794404018201,3.8226340624532154,-1.7262607625152138,-2.5566397117884603,-1.8539339979057285,0.11477375593423957,-3.4934367279063228,0.23843252938124318,0.3725839728223079,0.5841064188234629,-0.5037457058553272,-0.22016873530123604,-0.4163109318485069,0.08635093471765257,-0.15181243238027084,0.0011676832933187192,-0.0424956226084922
-4.18765357055974,-0.7717500621983653,0.7138077974404345,9.694050059877975,0.7700711541852089,-1.448693998836579,-8.451427991407305,-10.95809826876566,1.2175297622984442,37.94750228620897,7.384062966798831,1.570959169978715,0.26674915671225224,-0.2359775019740638,0.06424753034609822,1.369116722721902,-0.10043390826183793,0.048552251704811346,40.005659454923915,1.2522406073591086,7.104689862250171,-0.5824560549987846,-71.87709918611687,29.344132062585956,7.727483859986949,-2.9272287346582253,1.6629838144646596,9.586068753650263,-2.495732545624431,4.0551172735491186,1.212498871192745,-5.058303561762286,0.20105156416705822,0.7856974160637413,-2.2901412575665607,1.864470328037514,0.23786882918257563,-1.0701888110485864,0.06309261594436497,0.08048080852897406,-0.3666702927588871,0.2683981683842022
-7.0667853606611715,-0.9914012046637543,0.9760232650133012,-4.044670901162598,-0.6570093149242369,0.6689342057607512,-12.636646052227302,-2.262524500698792,1.6213823128590361,22.48983089651543,0.6972725688428154,0.8521988175367875,0.4420577849875315,-0.5505513276830594,-0.05862797991290912,0.2691426632255559,-0.21725532331386146,-0.15343194615324707,18.674359797294166,-5.6966808449203725,1.597173676226589,24.883821196925663,-72.55578816305119,27.52471343856336,-2.559646368694878,4.842993564134212,3.2332690724725808,2.0832480958021753,-0.324176160683555,0.9780572217588325,3.159427178166891,-3.27469682375633,-1.1419512768277607,-1.4130635789520247,-0.22600380508471102,0.1872259826907428,0.42377562308444783,-0.19727635732565668,-0.24052233010407634,-0.25750011444118626,-0.04150829895553278,0.019881394944690853
-6.79809111274072,0.6040380674153768,0.044089388537285515,-6.210490964424656,4.25133779848294,2.148559493912423,-11.721309602238486,0.3620484468363979,-2.0274666872838245,-5.073713030634744,8.93474760960243,12.317588867630517,0.42737682333116683,-0.3319520411298663,0.040170451459168324,-0.1716587564984124,0.18009478772232154,0.18422937062851605,-21.826099914709864,-1.1992461681211324,15.841740646623771,5.92302900356604,-77.32684579743247,51.94904908332608,1.4514338147391166,6.587295878707877,6.368447100979471,-2.180449868572962,-1.6686195271287227,-0.017999206728296743,0.9351284405142605,-4.483150969236152,0.5616085218924367,-0.22973298892107236,-0.13682316572782893,0.44192570726368574,-0.08552581255368777,-0.31001956523381713,0.16703410955881184,-0.1875655495387031,-0.017228418908518128,0.1084473404884257
-6.717715835441869,-0.5647730970359408,0.8119019253303857,0.8295424462945249,9.88981319392942,-0.014212952482120095,-1.9006592395770872,-6.129201852881102,3.1220972315135,13.159980490640024,34.923460626974716,10.612322020144065,0.38005932007303206,-0.5078608466877793,0.01665760518036656,0.8424129370978761,0.3741325868813625,0.04177150406254093,13.814448201880396,35.49648211911476,24.81801199060387,4.832251744853661,-61.850752524347016,15.795074930264942,11.272402354090078,-8.120190432257536,-1.9497218961892555,9.886945328777546,-2.933357274173452,0.9473112206808755,0.1855550650090842,-2.297226077109899,1.266026281029327,1.9727399300451864,0.33462864192788117,-0.20419773930537505,-0.13682627058695923,-0.046301244148373596,0.36765001830999744,0.062093685859223334,0.009651567877517347,0.08451882288656884
-4.051299222915294,-0.46761365214487305,0.4796716864849524,0.9779229413474445,11.631635311640196,0.08426690937054145,3.8859459646833816,-7.959843252268289,3.2588268159403184,7.857387163120373,38.39633382685003,9.878911082207969,0.5758309499086064,-0.5550967106343688,-0.005719629755784467,1.198642050657167,0.5212378152225073,0.25965696261903604,11.993699703652958,35.27353657005419,26.508233779896194,34.73827865416958,-31.17704128743129,28.815465908218354,2.844071044050589,0.40277077583769766,2.1468551605691335,9.159087397241095,1.5820186216273529,4.743691135828242,0.5934893928732712,-3.151628746900864,0.2579032093916926,-0.8757774341020812,-1.8341746312952096,3.0455292462368155,0.01619218402887452,-0.36245592510721814,0.05601444641808574,-0.016097739290982068,-0.13033615321921843,0.25732997659550233
-3.585392528714498,0.559656702847434,0.12177599343030487,0.32203043083182875,-0.514590696844269,0.4140219577220563,3.951814700144904,3.9146502210587197,2.8511232623351885,21.068545529907205,-4.039427247287645,1.0318841034908808,0.5258045021284423,-0.34113469697873744,0.1373340567073665,0.4701704630502762,-0.005168919540219237,0.025659615580532,28.67395459691991,1.1675937660075417,7.147770944087226,36.798421937940866,-73.87742733131057,42.70510557340558,-0.6925288756692624,5.278570666621647,3.1432463945280555,0.9962725102304296,-2.6063911639833925,0.8499069769564068,2.5359462060804994,-3.48954360208966,-1.3299723233989529,1.0147846661145203,-0.9905008603022049,0.5896863900147002,0.4322136689212065,-0.7451326108579543,-0.384643145593776,-0.47182539948673813,-0.275532364718577,0.07063060595363066
-3.9218186417234455,-0.8966443031105631,1.0052707011266409,-0.4939860223358178,-4.385120951700798,0.03788906936849422,1.2374088015844553,-4.791568811861972,3.390886262957595,19.23659940696932,-21.26029525389615,-9.080034209150549,0.2318330886344082,-0.02267597798209707,0.11179889842075937,0.5598725625557589,-0.23249904182893014,0.032874003133234894,21.99152292824921,-29.16085282536587,-3.7827059281903903,40.13441477926079,-34.00111559848511,34.72462669586701,6.224950791530517,1.4316705826600078,-1.8124770321799077,24.44489152361346,0.8565080980120814,8.044834480202981,4.731522150951336,-0.44204773609048725,-1.9802351403795369,1.3354550859516765,-2.648775375616248,5.605992774349643,0.4505629964061831,-0.07568068865559739,-0.15278158059573166,-0.26386959079182326,-0.5864058578900871,0.7134634990356281
-2.354705450816727,-2.870591178822304,1.4446360763226211,4.266600780572506,-7.548963370767101,-1.1615005051113645,12.648416386589302,-20.062693669618373,4.249805580267982,25.303455988333752,-25.372381452473483,-14.077423750183792,0.6121232032238494,-0.6309477334745445,-0.02062581733860735,0.9377627868241847,-0.3924611882613972,-0.28026785959225364,42.56864880546288,-53.02917361041071,-9.603053496308506,-4.769341796272412,27.756496566595775,42.56583489394818,9.06228072090744,-6.6445632533060115,-2.3082608498568042,36.78977665896913,-6.958355636784505,8.652316240786574,1.66831303896678,-2.6829807622754887,1.2912824237603522,10.520473091798126,-0.9034171689037355,3.7126231171597412,0.29045694415694095,-0.4270934754885236,0.47300560936057967,1.1522114617616326,-0.7209544874436438,1.2999445704262504
0.31135971293038356,2.2768291237975835,-1.9994503516487359,-2.9263926822581436,-1.7811016895243152,0.10086848111682463,25.406098534985745,4.361865364730463,-3.1540926055920764,1.9236488017876967,-7.867956082772592,-1.550479832147045,0.7220774867465077,-0.034431278263522345,0.07581207846589702,0.2600533039624911,-0.15093087778986042,-0.30647448593580245,27.03705376185933,-8.747243631078652,4.007466579073884,46.86661348116076,0.49705279905148425,39.97250315100277,-2.3522014389518304,-5.998454184521132,-4.703239928897832,48.95991567074468,7.284519830150302,6.462475255143365,2.7583468089059298,0.4883558307133548,-3.5614333778402667,16.921444958854398,1.2549401593124714,2.9153447894136337,0.5402731066676099,0.010594556082683865,-0.9696080257066304,2.8914953091134135,-0.14874278452225742,0.3151961487549901
-5.143416397102232,2.2444116163590815,-2.123994237640919,1.8658384825854033,4.590910967103329,0.2234741547432385,-6.141486491945591,0.6072097034206573,-4.146925189791465,12.225744283901241,11.633610412449089,2.150553212860894,0.047521715518797206,0.07988623594876468,-0.10026024682524173,0.935179715526398,0.24416244150383695,0.212806250293935,5.131225186088383,17.834081036085095,-4.6948716316488435,68.71289242656758,-15.663263152626719,-17.582994233965202,-2.9326095220655843,-4.38113590993771,-2.85836696775409,18.005135941444873,10.274705033605002,0.30497866606902246,1.610147512968853,1.219907766535419,-1.9154350465267544,18.574883809851343,4.584330025638539,1.8363808962031665,-0.12689332969634698,-0.020833226580897535,0.053275306587037385,3.2839352011874436,0.42497342600989,0.23896358838516382
-3.002031427542764,-0.38756067486240614,0.4146501273302559,-0.5405436185267788,8.417529185777209,0.4262358231403606,-3.229604110081116,-19.515647088247412,2.7057980944993356,19.185671927976127,27.51718603178073,5.583703781678523,0.45664366778761883,0.05678051937190062,0.07215546421703707,0.5128517011768405,0.5262536685909587,0.29869224021125207,10.918808773208005,12.127275007020675,2.1398198956558603,62.61952318277311,-1.7866851651256042,-19.982923140153062,6.965862731972073,-3.5075153351345074,-5.099670809103363,19.32667837934052,15.714140709292039,2.6990965635397832,-0.9129261088527487,0.024744947495083897,0.9112890706866636,19.57618867196701,6.713586184249241,3.189308169025255,-0.24492619523396522,-0.007233974596704192,0.30307855341529816,3.0246758944752945,0.9023505449085621,0.13382940075038802
-6.670973070336211,-0.5932103854263401,-0.5616454965208888,1.6162189237193392,-1.9738339436694385,-0.14897382204122966,0.756538205740878,-12.296620568041316,-3.192095362992797,19.511696377731695,-5.6287906405645405,-2.383872528308003,0.037709640312457604,-0.2698118666832326,-0.2089947013253983,0.13844129542112749,-0.09532360094431835,-0.039835711118236236,20.229335374552193,-30.585655993634557,-8.724114175570929,0.7758162102110226,17.94236620632246,-25.595980713318962,5.078906352422896,-2.361605087707887,-3.9005730944117167,10.650668320617324,11.82061780380263,2.4516954402368003,-3.9899345538807465,0.3119761152599091,3.158445922576277,11.53857642109212,5.057032191692876,1.339029860357931,-0.5282056178432453,-0.26093771182763204,0.7991187916245612,1.256282740841559,1.0099227154379526,-0.4361372144445187
3.0128082462915082,-1.3820984914757644,0.8089990025588313,5.91806402514355,-2.8479579447085577,-0.6318510780368779,27.49024506013483,-16.293638710108556,0.3737473731125581,39.283310531540565,-9.376727860346596,-5.31621764060841,1.0618304406374985,-0.15658555073605623,0.2284217227446504,0.9574690546559775,-0.15140450492344412,-0.24837480117730532,78.66950414023513,-23.968618897106154,-7.701294806715717,35.26621609012748,-8.431832683180847,-41.952367678198165,10.266427378423202,-0.02518830118189122,-6.444736866993271,-7.276812012923439,-1.2349462339569166,-1.8354705523751138,2.387110122950098,-1.6422187843173557,-1.9775484995130834,4.415591345685613,2.0473966840945512,1.0547803265843705,0.817875288240785,0.0457844137786697,-1.1815671038020723,0.07179147461145376,0.2445151759092139,0.016483246934880156
-6.922406624475461,-2.0091671629292556,1.7881340899843114,0.5614020043792685,-0.8219113810225955,-0.25638185525003715,-29.178356525269216,-11.680226021740692,-2.213458301437857,14.019278178720661,-2.2277804549220828,-2.832136129101341,-0.05002704059042584,-0.2825081191907156,-0.05392766741731522,1.0207541764547112,-0.12951555973689022,-0.11747596183241799,-23.3483410434849,-9.515894788388842,-10.666658811153143,78.35268752587697,11.271967642087857,-37.14407681600254,5.359265288440749,-5.668603131289672,-3.7179270640043347,-21.239220957776666,-11.744347115115104,-3.573425465209909,4.683575482228104,-0.0753419784236834,-1.5573460880002132,3.10809341954002,-3.5656702035103116,2.401615239467614,0.3383112910610065,-0.428449912552256,0.7185211327168327,-0.14820051196001213,-1.0526966535189854,0.20118568471449302
-14.579098946135364,0.7152749409771461,-0.40091797499132864,2.562438570997329,2.6346749071437325,0.10457689154979109,-39.96169264807233,14.56425281970021,-1.8099916274710712,28.07305917873851,6.725447532816736,1.2836852605606335,-0.9998772585462541,-0.3941904108513445,-0.06796824426088248,0.3314831490452542,0.1799241051634182,0.0977288956678797,-12.579294332768374,29.60990204333631,-7.517673746907419,8.595023804025638,-26.05688810004641,-24.631247015522483,3.5413966063036137,0.4389427414523328,-4.336896949769188,-25.403598340627905,-8.231933004153435,-0.3371455495571756,-5.395989624662511,0.8568333464232742,3.301777312228464,1.7830898789358947,-4.651888307980565,1.5988273451485442,-0.45203207854639976,0.03273014992971062,0.3780337956682904,-0.08756337040060463,-0.6948784420290263,-0.03104040398460824
-11.312387473227876,-1.744841640826581,2.24365577185246,-1.1156421143878563,0.8545715929597413,0.3865835926660672,-27.062389338793388,-4.314034888128656,0.18563101093704773,18.674733138114355,-4.253272214828897,-1.6934205573078658,0.1301045990303745,-0.5305214677662009,0.2344751674112928,0.4189968272524681,0.1699292885793754,0.1335338619449994,-6.880012903523246,-10.24468503548991,-3.6042883193024773,30.36866678727568,6.105695376171051,-80.19089092360555,7.439816118864059,6.87100359851519,-2.7499922405041857,-31.31712207094885,-10.441622191037128,-12.097908907377136,-2.44532619018985,-2.497138422331015,2.6502302824242774,5.857478615827093,3.540860584725202,1.4893244731386508,0.036869701136455914,0.1009879143675621,-0.38974875302432355,0.4864777079862187,0.48494113165556757,0.08401562631529029
-13.565310437566044,-3.259677639070356,3.911469011171346,3.1903757829368273,-2.1683320992073227,-0.4618389959930881,-44.94061438037684,-14.426608140787906,-2.329993699485691,39.94255241350556,-15.945487096699326,-11.257401195867567,-0.6671159439047608,-0.46308220228641234,0.13788893930288715,1.014709607530235,-0.08248666399125702,-0.15370588316957443,-3.4219569365995706,-39.56452977402113,-26.469429551889238,55.62148722205111,75.56688532557921,-20.36753265144514,-1.4366193822769826,2.974550280158658,1.126075280226829,-28.82889067907754,-5.450416200148083,-9.466585571100698,6.487478578599871,1.4978040281958809,-4.799000760256896,-0.3789521719499201,3.2093585321024682,-0.19159877817381907,0.8304945951765093,0.14248842741327222,-0.5936128281598387,-0.40562474502616686,0.5953090821317278,-0.03413077748259348
-9.32696449024054,-2.1378551011084417,2.2336192861670066,4.695807386205297,-0.5256244758430633,-0.2067441722833998,-4.693107282240375,-14.34942465418591,2.5918630102002655,36.02003345521442,-6.62195348005539,-5.392631439165398,-0.40139757822330696,-0.4068288489165816,0.019598033705584685,0.944738034391434,0.044999127437821106,-0.023205394313568908,35.60022267133157,-30.353391451621306,-5.364902372113389,37.24996746075976,-4.741211033008057,-8.009182195741614,2.828503583784152,9.28367897357222,1.8660629948624397,-13.669377976082039,-0.05864140921215319,-5.723821865265816,2.838037962044298,-1.4030680303980048,-0.11738559210603139,-2.7289758894693543,3.777381940260185,-1.2640783073626092,0.5835647123644893,0.10355692462722085,-0.2940833524133228,-0.6732288265307295,0.7744337078448058,-0.17101379917244158
-4.510116493778372,3.686541631601817,-4.55606377398913,0.3807441646924343,1.767916346892573,-0.23855270375138019,5.026023287220628,13.436848824279652,-4.5438615209655735,29.128322120263746,10.009828755623218,0.6895140561509654,0.38385726683251503,0.17819527069160074,0.02782408460794236,0.4348254879766686,0.10519645091936254,0.01900364949410396,36.90057861577918,35.65320779255728,-9.3144307071968,9.808545902154446,10.948008521478194,-32.91839370679045,8.799231562860403,8.243700812115298,-1.7988742296239455,0.7852921144040652,-1.3108576794828521,-7.780297609939162,-2.833014848955108,-3.2064772365520007,3.7876913807610535,-1.1160411406563582,4.028286865073523,-1.1346817524233601,-0.6182522922277491,-0.3549759834287999,0.5844724850428287,-0.061276305800725656,0.7422151261176796,-0.11675195028574649
-8.647710309299216,4.538932141395965,-6.236974581591122,-2.039595626282854,2.7714816017367268,0.018531257355890736,-6.222448745523525,3.5993590642092705,-8.657735566833564,-6.966511316838532,12.220757468118824,5.770363679498323,-0.5270807885899019,0.5421000800653138,-0.4340301579254331,0.6988072200565287,0.0831414920225735,0.020131900473747598,-25.35171784005536,20.99282416981521,1.198430976733379,8.342069093091308,15.134464718667678,-41.73241080462568,7.772434953742832,8.208752767235202,-2.600435133499159,6.971218161269368,-2.384410866262895,-2.7665596416890845,2.8915544677196956,-0.457308568859986,-0.7071037708260086,2.138139876009617,0.2653063487531208,0.42596258802515874,0.3799149547958672,-0.06498153666281661,-0.05943281469882133,0.07022386205738086,-0.48287248122630433,0.039569057805526046
-8.870319785433242,0.5012734059836369,-2.0277972779532214,-2.6380577320078746,-2.8705296669846336,0.01861783909010428,5.688464651981015,-22.815854634864152,-6.401036985537189,-1.2454547079576508,-6.2540504820084495,-4.686393247447777,0.02042372021876273,0.19303365055879304,-0.34178468630489944,0.42415064930088786,-0.09962369654219676,-0.12179619758278382,4.7449558260187965,-33.73824386533161,-10.522085802216196,27.728679671470474,16.628461699866396,-15.384514221216405,6.425358133783249,6.016288646112986,-3.3040157550543885,14.286768965171499,0.36826929193710933,-0.3756616312258184,1.7772489349507188,0.019188078350186377,-1.2939127930150878,3.0247503623913436,0.8260766002208311,0.36863417152906536,0.19240802309862812,0.05718174736802848,-0.330579778848997,0.5667608398903923,0.1998533110719159,-0.017024893139943882
-10.840162590084178,-2.4407830384307725,1.6945445769871257,-1.4996453418150049,-0.10903104469924277,0.3605989137178188,-11.43331651543816,-16.380315201406273,-0.5251667658569352,7.499571268292369,-4.2636290518613915,-0.04599218484990722,-0.33649871036409607,-0.24476299933078627,-0.028174758144967053,0.8273353782197314,0.11954328607333252,-0.011379701488987499,-17.2681702752765,-14.286240048608105,0.10484250212086396,57.28698291059737,18.665951098899534,-21.628485985687405,9.941755556589065,1.5777065368387304,-1.8060986546954483,10.880908888124608,-2.8030331081095414,-4.167955906498207,-0.13539152851512104,-2.839555719006463,3.164258735094658,3.6338106161460337,2.361019012401808,0.6197993916810206,0.646498532946538,-0.02337751815332508,0.12275972117043753,0.514834322543517,0.03866397675638389,0.19428967864475738
-10.602498544555031,-3.638510302605754,3.4168194310545745,-2.205701025154005,1.385717445219754,-0.024929416639102628,-4.790576108064582,-11.792670472311082,2.555489414812412,25.224331329972266,7.87855282580788,1.8850546309542642,-0.33868683624645896,-0.41535917473557193,0.3070894974583853,0.4975908446584232,0.005043043739189828,-0.029369054546168113,20.846253662097187,7.854757251604321,5.644089112436289,73.25530938379613,51.32308485117085,8.155277513411544,0.7485764090417781,1.2047499249121225,-1.111412695028319,15.759892947003507,4.37892685693773,3.503486454743673,1.853693670229896,0.6798075929530241,-1.6994671049427048,0.05341636036648887,0.5812993234325012,-0.09443027259311038,0.04882518098821539,0.02927094854750125,-0.17431361744431134,-0.1332075214611504,-0.014008194484344011,0.0006696647439555434
-10.102535949317952,-1.9447171664831266,1.688504984611661,1.499495251508133,-1.6580587383794407,-0.32045543887246813,-25.033654963449735,-20.112147953021985,-4.431215511488316,32.97900319804148,-4.995142873793541,-6.392202347350308,-0.5528905545354748,-0.06125466367853478,-0.016176884407100186,0.47356583344614384,-0.19012569892582695,-0.161849798848533,3.411113652789917,-29.001854083202655,-21.789675186976083,57.26416995465254,20.203160937530157,20.37113754524573,-0.6852078630486402,-0.3602533815163433,1.2468889695680994,15.98011730797564,4.436462206173558,2.0317287797417336,4.113839567051488,-0.40241850138362456,-1.4741316440109893,2.5365814817469396,2.4101106614349392,-0.16104391903326207,0.400162643745362,-0.21487567718535766,0.040011784886549724,0.3358615646523458,0.3075565153364863,-0.06334165401078815
-11.449677270654341,-1.8064270333885841,1.3510802793459946,-2.062525632890094,2.035746225221183,0.234268119326691,-35.986722836667845,-7.2166015895362605,-5.1757726866698555,7.507113592127603,8.114133940789733,4.446262646567649,-0.3681608629573767,-0.22277103960259675,0.19197413179642137,0.7180764119346965,0.14310206927799718,0.0926243686543586,-43.65905582817399,1.4534045509543454,-5.661395124797314,43.534739206009725,41.569340660975406,-4.318336848583325,5.150787819048688,2.331496341601285,0.02212045732780274,13.113527340344925,2.2408904338412983,1.758493443043619,1.0036744716554657,-1.5129011333060391,1.3819242361542847,2.2080918989223326,1.0979886297605996,0.22905416891320085,0.08369027715998345,-0.15231547007953708,0.3245303541459835,0.3824161419663387,0.03355782500959055,0.03376484824594582
-12.30024581625058,0.27399203414392304,-1.5434405298317864,-2.9620012290877087,4.280403109612942,0.40753517744733786,-15.958404020938646,-9.234581211971708,-5.584282404861068,5.076345391396967,13.378659768854643,7.867645389553715,-0.31989021181041843,0.15629756281508744,-0.0894667109159375,0.9097252520021964,0.28375015701289696,0.2943360039357096,-16.757810198035717,12.715535530361766,2.692911665853429,72.20272791272092,12.602091716021814,2.727588340683506,3.2743665932793644,0.7205296482433985,-3.1802660384499353,9.685928175675064,3.363568893143505,2.1641636723124904,3.0172260721651996,0.8082594584847954,-2.8386066181580705,1.2015719839113173,1.458873317185507,0.047907956198346424,0.4506004603618738,0.03496562814420806,-0.5267966525985506,0.10738219379914576,0.2943507513669896,-0.02052071486376428
-9.576407464785293,0.8692876862032892,-2.5475242327245597,0.2939245627792675,-0.7303176090151334,-0.17553019672039794,-8.293818843748745,-5.13584466435384,-6.004465902009714,24.96691743615987,-2.07170419137874,-3.3600229281204843,-0.3526808174760655,-0.1041152250903737,-0.15461577881664823,0.5754259247837769,-0.07602094387226849,-0.13659604533051345,17.669051034644045,0.523818357615008,-10.441161012950262,65.95085698740824,30.109932005888552,-0.19377550675456484,3.6571295184286856,3.663274685934195,1.2927662722385924,10.330400421826576,0.8619421495766851,0.056858351882155156,2.345720398460213,-1.6913595280136369,0.7533910734814468,2.371699708189711,1.6927997486979482,0.4127063739512894,0.1617256458938006,-0.16281284024203965,0.2097437508643689,0.15613281358950287,0.04551121723701244,0.06473644315601568
-5.812200742041129,3.8150917861473608,-5.314538184198453,-1.4187743598335303,2.791751027920937,-0.11496676602876715,13.92144646326228,9.736396624829032,-0.5619413611008185,12.51760751419974,12.7899457938198,5.163831523771188,0.04647650925875206,0.3266619104146182,-0.35608911159740925,0.5480111814301023,0.12620981079019675,0.006546101220582857,27.18262812495598,33.38242683496121,9.249374681856743,74.05711967999311,11.143428011821216,9.847380804031262,0.6871575364075516,4.839859837837052,3.3880125763221067,2.7634080361414015,0.08104789053340469,-0.2168785437056109,4.971860698373296,-1.5010142725859708,0.006694098706553998,0.0488994484197637,0.39326801270870676,0.01813232001025688,0.6664788796466541,-0.08026095670936158,0.11431834951088576,-0.036035695533671565,-0.048531286918402305,0.05129368913074339
-10.858930255148666,1.0954427508199627,-1.8107749239997255,-1.7050546360369028,3.571367099090174,0.12272042143197492,11.170029275371876,-2.8364951111886296,2.9928022148875293,16.397318231828162,5.6520242630058695,2.007988480732709,-0.4537660546104786,-0.013513269029719307,0.010327138149529628,0.589368298273769,0.15891502324885956,0.13600909160044186,33.876548664082264,-4.508804103681616,5.574657123017507,87.50561245288618,37.39846265766044,-5.746313644261715,6.6739676117715145,2.78313912497621,-2.000500925509993,4.422926340054297,0.00407605743473155,-0.6659099768831744,1.343960603750602,-0.5994171084392109,-0.40779434059166353,1.4302113680252757,0.8455232354411983,0.052257744309631614,0.2476826962596246,0.05077262611910056,-0.24816662079954113,0.057509143561281596,-0.03243995386604217,-0.03974531950523019
-5.638728620775181,0.0565395876809177,-0.3468269478310855,2.738483493297054,0.8010583660789912,-0.22792730045916842,17.558535413755944,0.1375893865076611,4.548609008738483,31.364853624075256,3.3266163959482595,2.730306897901387,-0.06890407094766254,0.035640718185421943,0.014349642843331682,0.843730795226038,-0.01755204219367704,-0.1433956202174225,52.73870307717266,20.08623138271605,11.894688968999667,66.17412209008398,39.41970101210946,-5.017671398487302,3.7778698548671015,3.122625528558519,0.25234776618759514,4.940625716274764,-0.6215594513576953,-1.4764593124327758,2.4362582824639984,-1.4659789974594994,-0.19025065868359883,0.5943885561381921,1.1591773823381422,-0.07470958952752298,0.1367997501608885,-0.16847338226432723,-0.03667776460119779,0.046237692348921326,0.1832958084903628,-0.008404613721612117
-8.92599735873487,-1.8377703823015852,1.8294095253787783,-3.880786148780806,1.6826775457077636,0.2695290118442247,4.847748791328981,-12.771601917748994,3.7067946966695176,12.277242187788396,7.059474554272204,2.3024410098081143,-0.22429386140415614,-0.17711009010184584,-0.008389448390539117,0.3454912594722729,0.02539816864275146,0.05867385689898348,20.707775268181553,-4.20607251840216,7.488114063220048,58.87557088193108,-7.8935641098801765,15.140584243513253,-1.008668727846521,2.424631499369291,1.3588848410736012,2.5167979394548805,1.3810375903942027,1.0710800145083437,3.228067069374819,-0.3780982644847917,-0.9166881102588412,-0.31932654716111547,0.07716173504131989,-0.1594235308159221,0.2523580738094978,-0.08177264969446708,0.022623546915690053,-0.09853707549832982,0.016200534679170386,-0.03796480996048464
-7.624492281323099,-0.448889123844061,0.5218948537849465,1.2392936031296027,0.7716965068571487,-0.02623594310775942,-4.695302295897378,-4.183900471315855,3.2404033218626003,18.56899995551059,1.0071467420134654,0.15278943117755872,-0.42366059249512583,-0.20051658446126575,0.13575236966394086,0.8245187349519335,0.1277946938754234,0.030273658961364074,12.510422813499458,1.7286003512060752,3.0558165695014554,62.51172369504623,26.891865826454147,-4.921797787308687,2.128538214166098,1.4455834419663947,-0.8025575818613042,6.5624760427715385,0.24720412059676894,-1.9073096997258312,1.1213540486782303,0.041406167759639234,-0.7855352385710374,-0.19797719825562085,1.6335525966625746,-0.8024881904421433,0.1252689626295536,0.17793649387514493,-0.28480150033954155,-0.21335236763564933,0.13331808844538406,-0.13896796164258735
-7.362930111016468,-1.5492469151809884,1.511645203465253,2.5432074224984613,-0.7621617781521146,-0.18366479597302499,-6.772840901868131,-10.837303231378087,-1.229803966876742,38.306162279278375,-6.605194940607758,-3.657961767490793,-0.27219398647120596,-0.1420995323062023,0.13949402540398498,0.7168128810872121,-0.23441734658870048,-0.042614044626983254,35.10514104375284,-18.40549947384028,-11.394006979698483,55.522762086172044,10.208294166468098,2.0044297192073395,8.360269180382272,3.9184504521542722,1.90980683947188,3.308312244593941,1.3450157293171408,1.2955793425405504,3.1585109205920663,-3.431899569714154,2.05206553368475,-1.0322939437654848,-0.2430030996953043,-0.16334680391991946,0.4669726440493442,-0.4952586699870331,0.3681750024752825,-0.16072293217096253,-0.07929835585237345,0.025953681337677812
-9.186128937729514,-1.3267039631240114,1.1681973742153575,-2.907354191988321,2.6976995727991757,0.16999458708130322,-7.505756612285737,-7.975793590577452,-0.810545752992651,7.323247518408986,7.315046447475158,0.43775651799891113,-0.45183729020490154,-0.10751649771726823,0.13951655662490364,0.5689558206023627,0.37957030545497583,0.21555382988980795,-5.103955098434616,3.0494537682699496,3.5199681559510494,40.813337863302365,1.5003000840926792,5.5023555414513785,-0.932463474733921,0.26417802951607083,0.47471226448259574,4.214246982648003,-1.4865481414331787,-1.7145702844272315,1.5113452092157558,-0.3713877228463187,-0.5655302154367304,1.9937391748564977,1.0486905722476763,0.22207109019065724,0.07451627988516898,-0.0999867786013444,-0.01099262932820481,0.2015519293604185,0.14009978062515477,-0.014454757966478674
-7.133838350418196,-0.20507031949727136,0.041925789119718886,2.6510589346001474,-0.918129343903763,-0.10386771061026336,4.983767195513878,-9.752772748929038,4.143692009701572,27.652167306243303,-5.089647336611503,-0.7883875543843496,0.0790680259584183,-0.09207817237334334,-0.006222382266434921,0.6826732527390567,-0.26355326759509407,-0.1729738910384673,35.1671757683587,-11.569040793894224,3.07871915674212,57.592380063729756,36.494656780476056,-1.0159020783777475,3.908953363409526,2.4380164523218437,-1.3439826139500137,6.786381084320075,1.2926964448816975,1.9351607997476035,2.9920714842094402,0.14383435820394797,-1.424915264106689,4.096941091581894,0.6292109132926412,1.2445281502390282,0.2842630631982723,0.11689207837020264,-0.19026287753999918,0.5453325579700736,-0.029909203885936226,0.15609991816504284
-8.922604539402728,0.8333313389296187,-1.6877931263557588,0.46977529418325065,0.916669660933715,-0.2162477928434388,1.1465564155430505,-2.5444989285692254,-1.9153696384281929,15.42912745863584,4.865703827899776,1.2069822433074715,-0.4282363566924054,0.09656976752169158,-0.11707174201233057,0.753764361469669,0.06753136602994175,-0.13266399719676594,17.935998941989098,8.805376012199368,1.4718667728184096,54.757739358861635,3.652542332867455,-4.3149335243125,6.233195938692958,2.437063461844157,1.3181109904533654,7.04684347074095,-0.08614717534188573,-0.32627657748033595,0.9202575843565484,-2.068770176046545,1.9637031557471512,6.0610685661084185,2.0080475587101843,1.298148604461475,0.05651459323301537,-0.11957646168830752,0.212143084187208,0.9589493239554523,0.16402343505000386,0.1850976936514166
-8.608702305890644,-0.003213657417110115,-1.0635994213353102,-2.408773501675936,1.3291200740608011,0.15954704534878564,1.665989584484014,-7.258333483447226,-3.1783182080918944,9.404377563702962,-4.067411256968222,-3.664481636436645,-0.2990759313463362,-0.07093714918948324,-0.1095208508292358,0.42519623777207616,0.20892730518320918,0.10344870300212529,11.334810798161799,-13.554961048171664,-6.775259731189453,37.55314645551573,6.617879473847381,5.940923547892878,-1.2852866013120299,0.18675004109701196,0.18727242199305863,6.252007938303637,2.162493840983298,2.140610250993607,4.8582515977146885,-0.23979124004390073,-1.9643134394576023,4.915494867338734,1.2436542650316242,1.3718890785219053,0.6755227019911236,-0.14745687574791602,-0.11025621958103543,0.7505071808701382,0.1455842375993835,0.16049954402791652
-8.112477284833053,-0.14373037564311567,-0.2282937168421389,0.9805117003415555,0.8252429961822604,-0.27257492804619876,6.580782672951273,-7.700946212999094,3.99456941601211,26.033668408066006,5.360302703127222,1.1933427582744012,-0.0707661513325871,0.03793101579412176,-0.08261369679222509,0.5860185288035349,-0.15031124567866141,-0.11448811169656967,30.883472872157494,4.648943804348998,6.441280912275788,34.01893840271887,15.919929488165364,-4.462702510096084,12.583037571383525,4.879950897080101,-0.10798156781407796,6.430393958219007,1.7024290202577679,1.8730926725337824,0.8060286251972824,-2.825774192179699,2.128811629114726,2.660305414026406,0.5425699960733142,0.7845562871048432,0.09807617611905277,-0.2620844081761137,0.12298210462630328,0.32592649739302665,-0.03852686767420568,0.10564212174780854
-4.42639,-0.89617,0.62657,-1.23433,1.77762,0.51938,2.19773,-9.06461,0.70349,18.03625,1.02325,2.34216,-0.30286,-0.15292,0.09865,0.85081,0.23614,0.20169,20.11042,-4.95419,3.01668,88.99241,18.99264,10.77474,0.17079,1.24535,1.12275,11.69155,3.89752,3.3473,5.8767,-1.24525,-1.42744,0.65156,0.38174,0.02918,1.00393,-0.21691,-0.11298,0.16392,0.20244,-0.04784
,,,,,,,,,,,,,,,,,,,,,,,,,,,,,,,,,,,,,,,,,
,,,,,,,,,,,,,,,,,,,,,,,,,,,,,,,,,,,,,,,,,
,,,,,,,,,,,,,,,,,,,,,,,,,,,,,,,,,,,,,,,,,
,,,,,,,,,,,,,,,,,,,,,,,,,,,,,,,,,,,,,,,,,
,,,,,,,,,,,,,,,,,,,,,,,,,,,,,,,,,,,,,,,,,
,,,,,,,,,,,,,,,,,,,,,,,,,,,,,,,,,,,,,,,,,
,,,,,,,,,,,,,,,,,,,,,,,,,,,,,,,,,,,,,,,,,
,,,,,,,,,,,,,,,,,,,,,,,,,,,,,,,,,,,,,,,,,
,,,,,,,,,,,,,,,,,,,,,,,,,,,,,,,,,,,,,,,,,
,,,,,,,,,,,,,,,,,,,,,,,,,,,,,,,,,,,,,,,,,
,,,,,,,,,,,,,,,,,,,,,,,,,,,,,,,,,,,,,,,,,
,,,,,,,,,,,,,,,,,,,,,,,,,,,,,,,,,,,,,,,,,
,,,,,,,,,,,,,,,,,,,,,,,,,,,,,,,,,,,,,,,,,
,,,,,,,,,,,,,,,,,,,,,,,,,,,,,,,,,,,,,,,,,
,,,,,,,,,,,,,,,,,,,,,,,,,,,,,,,,,,,,,,,,,
,,,,,,,,,,,,,,,,,,,,,,,,,,,,,,,,,,,,,,,,,
,,,,,,,,,,,,,,,,,,,,,,,,,,,,,,,,,,,,,,,,,
,,,,,,,,,,,,,,,,,,,,,,,,,,,,,,,,,,,,,,,,,
,,,,,,,,,,,,,,,,,,,,,,,,,,,,,,,,,,,,,,,,,
,,,,,,,,,,,,,,,,,,,,,,,,,,,,,,,,,,,,,,,,,
,,,,,,,,,,,,,,,,,,,,,,,,,,,,,,,,,,,,,,,,,
,,,,,,,,,,,,,,,,,,,,,,,,,,,,,,,,,,,,,,,,,
,,,,,,,,,,,,,,,,,,,,,,,,,,,,,,,,,,,,,,,,,
,,,,,,,,,,,,,,,,,,,,,,,,,,,,,,,,,,,,,,,,,
,,,,,,,,,,,,,,,,,,,,,,,,,,,,,,,,,,,,,,,,,
,,,,,,,,,,,,,,,,,,,,,,,,,,,,,,,,,,,,,,,,,
,,,,,,,,,,,,,,,,,,,,,,,,,,,,,,,,,,,,,,,,,
,,,,,,,,,,,,,,,,,,,,,,,,,,,,,,,,,,,,,,,,,
,,,,,,,,,,,,,,,,,,,,,,,,,,,,,,,,,,,,,,,,,
,,,,,,,,,,,,,,,,,,,,,,,,,,,,,,,,,,,,,,,,,
,,,,,,,,,,,,,,,,,,,,,,,,,,,,,,,,,,,,,,,,,
,,,,,,,,,,,,,,,,,,,,,,,,,,,,,,,,,,,,,,,,,
,,,,,,,,,,,,,,,,,,,,,,,,,,,,,,,,,,,,,,,,,
,,,,,,,,,,,,,,,,,,,,,,,,,,,,,,,,,,,,,,,,,
,,,,,,,,,,,,,,,,,,,,,,,,,,,,,,,,,,,,,,,,,
,,,,,,,,,,,,,,,,,,,,,,,,,,,,,,,,,,,,,,,,,
,,,,,,,,,,,,,,,,,,,,,,,,,,,,,,,,,,,,,,,,,
,,,,,,,,,,,,,,,,,,,,,,,,,,,,,,,,,,,,,,,,,
,,,,,,,,,,,,,,,,,,,,,,,,,,,,,,,,,,,,,,,,,
,,,,,,,,,,,,,,,,,,,,,,,,,,,,,,,,,,,,,,,,,
,,,,,,,,,,,,,,,,,,,,,,,,,,,,,,,,,,,,,,,,,
,,,,,,,,,,,,,,,,,,,,,,,,,,,,,,,,,,,,,,,,,
,,,,,,,,,,,,,,,,,,,,,,,,,,,,,,,,,,,,,,,,,
,,,,,,,,,,,,,,,,,,,,,,,,,,,,,,,,,,,,,,,,,
,,,,,,,,,,,,,,,,,,,,,,,,,,,,,,,,,,,,,,,,,
,,,,,,,,,,,,,,,,,,,,,,,,,,,,,,,,,,,,,,,,,
,,,,,,,,,,,,,,,,,,,,,,,,,,,,,,,,,,,,,,,,,
,,,,,,,,,,,,,,,,,,,,,,,,,,,,,,,,,,,,,,,,,
,,,,,,,,,,,,,,,,,,,,,,,,,,,,,,,,,,,,,,,,,
,,,,,,,,,,,,,,,,,,,,,,,,,,,,,,,,,,,,,,,,,
