PaulMeinheit/Bachelor_Muay_Thai/processed_Data/N1/roundhouse/scaled/JointMoments/scaled1.csv
R_KNEE_MOMENT,R_KNEE_MOMENT,R_KNEE_MOMENT,L_KNEE_MOMENT,L_KNEE_MOMENT,L_KNEE_MOMENT,R_HIP_MOMENT,R_HIP_MOMENT,R_HIP_MOMENT,L_HIP_MOMENT,L_HIP_MOMENT,L_HIP_MOMENT,R_ANKLE_MOMENT,R_ANKLE_MOMENT,R_ANKLE_MOMENT,L_ANKLE_MOMENT,L_ANKLE_MOMENT,L_ANKLE_MOMENT,WAIST_JOINT_MOMENT,WAIST_JOINT_MOMENT,WAIST_JOINT_MOMENT,NECK_MOMENT,NECK_MOMENT,NECK_MOMENT,L_SHOULDER_MOMENT,L_SHOULDER_MOMENT,L_SHOULDER_MOMENT,R_SHOULDER_MOMENT,R_SHOULDER_MOMENT,R_SHOULDER_MOMENT,L_ELBOW_MOMENT,L_ELBOW_MOMENT,L_ELBOW_MOMENT,R_ELBOW_MOMENT,R_ELBOW_MOMENT,R_ELBOW_MOMENT,L_WRIST_MOMENT,L_WRIST_MOMENT,L_WRIST_MOMENT,R_WRIST_MOMENT,R_WRIST_MOMENT,R_WRIST_MOMENT
X,Y,Z,X,Y,Z,X,Y,Z,X,Y,Z,X,Y,Z,X,Y,Z,X,Y,Z,X,Y,Z,X,Y,Z,X,Y,Z,X,Y,Z,X,Y,Z,X,Y,Z,X,Y,Z
-0.007620000000000005,-1.7114800000000001,0.34674000000000005,-0.18789000000000003,0.40811,0.01644,12.55635,0.15477999999999997,0.4972700000000001,11.555570000000005,4.115100000000001,2.99375,0.7182600000000001,-0.4200600000000001,-0.04899000000000001,-0.06396,-0.10832,-0.09257000000000003,30.876960000000004,1.2162300000000004,8.856530000000001,-45.90867,-34.00771000000001,10.821640000000002,1.5816300000000003,1.79714,1.7093600000000002,6.145610000000001,1.4390000000000003,2.8128700000000006,-2.4372500000000006,0.42821000000000015,0.5550100000000001,0.16581,-0.3158600000000001,0.18195999999999998,-0.35235000000000005,0.467,-0.15445000000000003,0.07036,-0.07428000000000001,0.047410000000000015
-1.5120175340824726,1.2188565534707498,-0.4730469252753612,0.7608948216670568,-1.8811978304195112,-0.637393481223334,2.8464972042226364,-3.7167652327575484,-0.6863299928954405,28.50809853877859,-0.8448779412321201,-3.35737990854404,0.5456785854066847,-0.3011460936182958,0.08819269510611728,0.49457896163498216,-0.4605555947073843,-0.48107572199501664,43.81281709476335,-6.7831140976203335,-4.986344662006412,12.30374874071258,-11.671005130021493,-12.47959755449565,-1.0570596183868697,1.2989660911834329,-3.4380849646228873,4.450481653603663,1.868348983208294,1.842501078028564,2.3288089006060666,2.7382226457199543,-2.0733756137974613,4.355220207099962,0.45414077634832006,1.3848479210395268,0.23188178610343502,0.5089909175417621,-0.2584283396447806,0.7947849740864557,0.11289451869563288,0.25287997459052236
-1.2230729143402714,2.7809006327838324,-0.7692914070127943,-7.066108482557573,0.514272620791489,0.9947016353865357,3.4680876348191862,9.862528288882432,-0.28382486943279134,10.32853997891204,2.321743947366377,-1.1262695274707792,0.5106052768184952,-0.15847627895975683,0.047677107189664496,-0.42072558630790396,-0.31159066007391656,-0.11002575846508864,21.139237534458616,18.233045298260212,-1.153626178736774,12.51448354991314,-30.177712875952245,1.9618806346963642,3.693805409296305,2.1382672823377984,2.7920343275355024,6.260949625666771,-2.618245020739573,1.5705407614624227,7.265292005563238,-4.367933478556088,-1.2917641364992645,1.0053386142481566,-0.6264131356090454,0.6426248051160318,0.9770133822430923,-0.48452576383533136,-0.1697797942314338,0.0468253092363515,-0.27369594248808954,0.1641846207851077
-3.7744792207379447,0.12430178008579082,0.24745962334259627,-4.505710123144158,2.634852882540503,1.177697274242925,-8.68981229030193,-1.9713974165878847,2.437151100257253,19.2821804602131,13.49643099946679,7.483670935411439,0.38362982645546245,-0.2910049289630114,-0.10423598983837469,-0.22622501205015164,-0.21313354287710837,0.01726110442130175,12.823750512369104,10.270188024783545,11.736035831160468,6.443795250067517,-23.05290959648382,16.923321249890893,5.776165735480739,-0.07227238550805185,2.2780596213159705,-0.2848340247060928,0.07763314828507052,-1.026040822264964,9.520224714209705,-6.477299845580478,-1.9219867130405204,-0.06425174156317473,0.740032245632453,-0.7301132536491874,1.4800315979019933,-0.8788458639709337,-0.38624691433993463,-0.1076230396777335,0.21638498518459756,-0.24775811990028074
-3.3719226244893306,-0.18003902372760902,0.030206235703611497,-7.5622686383986775,2.9556669682785457,2.0091910192394558,-1.123182543861101,-2.2767496059080945,-0.6443381455042329,16.645390927598374,7.221683354444279,2.7788194276600926,0.287727734658881,-0.16125928818565205,0.0035461985181795387,0.007935995142858915,0.5236737664883432,0.363591571884512,22.849034548097997,8.856074182813979,3.7525026175247227,-3.982493360534604,-46.806015548513265,8.892821296522644,4.074742361301257,-1.6063447422789718,-0.24712938394561895,6.244824086654849,-0.9181065079735509,1.6696486784422642,7.058090170316944,-4.289409669209758,-1.767215771807503,-1.8708013399490764,0.16912488258592773,-0.5959672332913075,1.0667879225501076,-0.8992038383858546,-0.18560845347573057,-0.3942510827449666,-0.0031583382685570413,-0.10217496837904855
-1.0870925247981704,2.1256336161316947,-0.739425463541666,-8.038310669124712,5.242363406844047,2.309155970514274,15.785008969850862,3.2444281447814927,-1.0998772118718971,14.282253967700921,4.078005380438802,0.08118714961399512,0.4470788397872535,-0.08820662214359246,0.1736561626545684,-0.37366902584284406,0.43813751958061403,0.4955403178831261,41.84310416185311,5.808831994540352,2.6287083642043836,-15.81272212767121,-24.84105783746144,20.169793575913413,5.030665193804261,-0.012005477450420243,0.29221122022818347,4.704535455867437,-0.1758808277710773,1.4025192984372885,4.566637946514709,-2.2202310762029493,-1.0574895730491494,-2.984570031421041,0.18392560891829413,-1.0018622158179853,0.7721571201736626,-0.19622421433147566,-0.2072391794477856,-0.42251579772903997,0.04317083000506664,-0.17818457324977358
-1.6645586102776118,-0.4822118832048605,0.10211018645584777,-3.9983340678959705,4.9882142692833975,1.3833376516887672,5.271437943102411,-6.635777565589283,1.9328786086333056,22.042356376983328,6.205805161655647,0.16733916758372458,0.7205026741933774,-0.5009645748994601,-0.11939023692317097,-0.21163423261086445,0.2409214143848331,0.350037882829615,36.79910983762009,-3.0439372706891383,5.605510243209972,-3.152912322352161,-32.52279235617437,13.867263391193793,0.5991962408636704,-3.263822599440485,-1.3098610173856375,1.5651567776993935,-1.7467269952101703,-0.7109613870970062,-0.2981715730785689,-0.4040922237515495,0.26332292361492743,2.4948867399170616,0.6768542964892807,0.4391844242772409,-0.12968584747972803,-0.08174721628673626,0.07930728285109401,0.22466477773672888,0.2318377703413326,0.004477316717580228
0.6459200000000004,-0.96928,0.07023000000000001,10.801150000000003,-1.9031400000000005,-2.2345100000000007,10.372710000000003,-5.32124,0.41832000000000014,49.29955000000001,-1.27149,-4.987770000000001,0.5796900000000001,-0.34418000000000004,-0.08860000000000003,1.5126100000000005,-0.5287500000000003,-0.47339000000000003,72.60817000000003,-4.5228600000000005,-3.7433199999999998,-18.99785,-50.17624000000001,16.48134,3.1756099999999994,2.1976800000000005,4.699790000000001,2.67584,1.0131300000000003,1.2515700000000003,-2.10177,-2.632650000000001,1.8406600000000006,0.5486899999999999,0.19691000000000006,0.42134,-0.7801500000000001,-0.15152,0.3840500000000001,-0.025510000000000026,-0.05471999999999999,0.16587
-6.8982838737596515,0.08158824935052097,0.5031908254325369,9.036886511222958,-5.97715625372613,-1.7412345110617147,-16.637939458196566,-4.677759646861625,1.7920974598015578,44.93712119001761,-9.79168552994968,-4.751001279212028,0.11177774828261883,-0.25769107156077864,0.05504641644925242,1.1676557246035086,-0.44672006953985555,-0.30658485591730267,35.78709511411271,-14.968094598911458,-5.685194583408702,-5.113105917870007,-59.90339859297712,16.381855551279628,11.905804570311922,-0.6318825964121609,3.181489048802167,5.413502629686024,-2.7747371765898925,0.4977265822411295,-1.5000175891236336,-2.4374926331543443,1.8361457222534736,1.8891761394222981,-0.3977801133535014,0.26958616256364154,-0.29392307635556686,-0.11704012811778045,0.28758279880221577,0.3773331900916638,-0.3717764208581562,0.1711763233043625
-6.15610144262079,-0.4720678529564442,0.5933364368846852,8.74405106964873,-3.286672660958303,-1.4289295540176263,-15.196754309208812,-7.100224958930423,2.0138342030090106,28.2353251868133,-1.6342958487484893,-2.642056792705159,0.6412372007634581,-0.516463582141326,-0.006819029633053582,1.323702320792729,-0.26788119321003917,0.012668664597305859,15.622751126845502,-19.017702533594765,-0.3534871808720652,25.89557087420782,-24.80013128991522,23.62135835393296,0.9670805619449471,2.1882434598249407,4.185587998026613,2.3528119715294036,0.18141964771818175,0.792528094878976,-0.21479688368021363,-3.2130238911873192,1.193738902985761,-2.1010158271230472,0.6430729489633337,-0.7291477904212128,-0.02711035073148212,-0.4867410946893551,0.2357023992710482,-0.38225626904393084,0.4216498431858844,-0.3196490575825802
-3.7751033700901027,-0.08238648152634606,-0.1353726187241394,3.560869423158445,1.905847753454173,0.041298978876046805,-14.15791981990151,2.8841579808864566,-3.4725925248480802,27.25927028419766,2.721313452242106,3.478382308651518,0.44949946942837343,-0.23709518294706847,-0.012757669480729546,0.6581658384461035,-0.04368702977609196,-0.051662213114454195,16.19181343961545,4.933337586798983,-0.7151918289775308,0.6980458178625956,-65.7846982834806,30.948075271044246,-6.267842812303864,5.919895445066076,3.3986297380424397,-0.7886742737520989,0.5542220790683589,1.2123065729365368,2.393488173577385,-1.6996023984598754,-0.26554467208787325,-2.422624401004155,-0.49302459493107126,0.22223520263670482,0.1865265003590009,-0.032792461497683494,0.015862993055740616,-0.5720212853811469,0.10128071106711795,-0.08547021338528123
-5.953143850338822,0.3767559928764366,0.3912516812685725,-9.262210405045092,7.549142986390976,1.496062035150122,-1.2047302546483798,-2.374422939484198,3.08609194676992,1.8106977072160773,22.03086695086659,6.725116850162434,0.2798795945931878,-0.2843695357593668,0.0849067909604289,-0.04157490599259425,0.3536651761404362,0.10841256656432066,9.30311470882592,28.00298087691594,18.978109815698584,-4.0339450715102965,-44.80185913174256,8.305483355468127,11.885580866533768,-1.5646368225101686,1.4422035738067578,1.3688869608665906,-1.6580668585083813,2.3600760437038706,-0.583902995343546,-2.5957898772666805,0.4395219453757264,-0.8799442385201751,-2.0544235390966397,1.4083689857410508,0.07879661409599292,-0.20362564971612615,-0.1271847846958878,-0.2643416660131771,-0.3887391591732593,0.21305752834063932
-5.402424836908939,1.0176692982479258,0.22922941811565645,-1.7816431040960294,12.378214587599688,0.4837711677350922,-0.20165539188087084,0.563345992072826,5.350279530430758,10.98849136962705,38.33635303314246,7.229280777870913,0.5348119624666638,-0.5097679182152909,0.01969894824835765,0.7044154086796784,0.5342321381524191,0.39943023238359426,10.879329766545025,43.43234378939507,20.913185581275318,-15.366808625789474,-3.030496764293797,13.569217875234054,6.403494941844558,1.452131106230262,1.845721966970171,7.028490683381808,-2.402255499998685,1.5210755242073335,0.18598008135832225,-2.1825778014504364,0.18498548889399255,1.5734443221014063,-0.26196160680779634,0.4833289811048159,0.013778670229418501,-0.25100178305901744,-0.025051028829439975,0.062642160117235,-0.2626155458085483,0.22752606758244595
-1.3407905204956516,-2.627898612339764,0.7975418958850881,4.691829343866992,5.959250753405191,0.13011041441297136,4.895612007545521,-2.2011967709917863,-2.345649788956377,29.11781351508376,23.68827437592255,10.47464287906965,0.6146389830756332,-0.5294342841111086,0.0730659305978565,0.8667960010650899,0.11868714654963802,0.042489013740053296,31.862019814184226,25.80563405771659,13.714434387571334,5.621146925627044,-33.51912869328537,31.318915419630525,-2.4428521000985026,2.7583074568352384,-0.7819107673506698,4.293099975143309,-5.243072474161943,-0.7683781284106095,2.1552633465892557,1.5878120369352038,-1.0646149781961667,2.47473276590858,1.177446105771603,-0.6588499876394565,0.06335916436400095,0.3082669734297939,-0.07380166683622282,0.3630729155626241,-0.022580560653567873,0.13382424882909155
-4.838239999999999,-0.8676199999999998,0.6938499999999999,-0.14785999999999977,2.67853,0.40374999999999994,-6.444519999999999,-13.63656,2.617230000000001,17.79961,9.03356,3.8192000000000004,0.41339999999999993,-0.2988700000000001,0.06593000000000002,0.63816,0.19284999999999997,0.010419999999999999,11.857209999999998,-13.64314,10.7463,8.327449999999999,-11.483629999999998,25.77807,4.78682,0.7338,2.40978,5.41327,-1.6830500000000002,0.6935699999999999,1.6486599999999998,-3.59785,0.34950000000000003,1.63062,0.51348,-0.3898799999999999,0.32851,-0.34448,-0.02525,-0.08374999999999998,0.21434,-0.25612999999999997
-7.626745001155245,-0.7897050664414356,0.6016612470307485,0.14017422132653098,1.2018095658841408,0.20792239213562919,7.3359193362915995,-12.767298269933965,5.793917764401804,21.301521771257374,-1.879382483620615,-2.6934916484296467,0.340153187016806,-0.4392251961199087,-0.1400739113948564,0.6162674717013925,0.17686346376320092,0.11294151388503977,46.66762452085324,-21.158001801536578,10.644277607239939,12.381246013807075,-16.279982917483935,15.971522754520496,4.2408681111306334,-2.348180354135571,-0.4407913762112553,10.569616772150036,-3.332668759104263,2.5174748957970694,1.5534599947159053,-1.8607072228723531,-0.0906364721626046,2.4905009301856826,-0.5278736432370246,0.2308922724082225,0.42296829439996475,-0.4287599466572048,-0.04166044393197952,-0.1705693196006348,-0.26056676531190076,-0.01445027449132245
0.27155877544456536,-0.05056466762852034,0.43075050015854194,0.385314630502574,1.0200504506920045,0.2307281503764171,16.87904431384053,-0.7679819772456075,4.103335853348825,0.4308377858983348,3.7484632664234447,1.522743035695477,0.6857070959310071,-0.21528046882076587,0.2565641084244326,0.8841062024083501,-0.025882189554321103,0.18115270634633474,18.284513087193606,12.06932867691448,16.092094363125394,10.4260320430585,-22.851616900794323,48.21598173531592,4.383605960107118,-1.0256001531345227,0.032687258474387,20.216340949083264,-5.570241095799625,6.732405686958953,3.3898252605510897,-2.803943303923786,-0.7618834760106171,2.8498317174581205,-0.42371299072861957,1.43170137094598,0.22913109385768823,-0.28495791895031225,-0.02213197102832316,0.4228541262504102,-0.1810266707692724,0.3262229120222117
0.573084120520552,-0.2081622671677051,-0.01083342042855806,-1.3581488233390437,-0.9510685599853999,0.1517663232339639,17.588243176257887,3.8452696641899946,0.31071980152156287,2.545925861973585,-1.448393641004196,-1.2055967134849481,0.4247498802145197,-0.222861781896222,0.1259682481836814,0.6651815056015765,-0.027844522770928297,0.0741219316789818,14.904638335589407,8.473467638190115,4.1724782799686135,-6.910559992151029,-6.244710297874321,21.699761312513484,10.084459354885984,-2.3930748465349865,-0.499437718291193,29.092326198910516,-8.479812302171077,7.801291827910506,3.857073736927865,-3.7342603540459702,-0.34870195257806097,4.817130215679615,1.1500049181596523,-0.6590643086194513,0.45231575626244025,-0.23551888581841648,-0.062056560131357234,0.6683478546284675,0.09562821854870646,0.1777091770757057
-3.2786251578844072,-2.89205336974605,1.2950071978095397,-1.8687973543895207,-3.801436897889719,-0.031295498304040145,2.124109016402774,-15.460449116741968,0.4836307293358301,13.227046924311546,-19.32182000386875,-6.7349652202354955,0.6417870750775067,-0.3447955996814542,-0.010296284629466228,-0.06142039522607708,-0.2388276147128119,-0.24633101526391465,15.499789794793111,-47.57200206070821,-4.1327857795159,-26.632225914778367,11.10867961658533,14.92129721093844,3.0681409063108522,-5.006869028469363,-5.425584272667347,41.93960687384034,2.7364182320475363,12.217176508015987,-1.6984758894888532,3.1532659187364325,0.07219139740428122,9.024021708418731,0.6951519284329736,3.1875891527598035,-0.10393759363445694,-0.01714420996558335,0.21349452721150441,1.3446969875749089,-0.24783504023219013,0.9422450496931799
-1.9924985697735365,1.831273390378572,-1.674339398658666,2.4350104336173812,-4.560240390053013,-0.6247959265557566,1.8722501375284109,-6.9391820436725205,-1.4990026814849973,11.361073903921145,-13.003283628174788,-7.134513709716737,0.18791867115555747,-0.058306701088429516,-0.09288525933230955,0.8619357258305266,-0.28916525401897764,-0.09375711143322683,8.349768668509684,-21.79796407077273,-10.275571522544052,11.80585012094699,-28.117878944013967,49.436791188962935,-6.190409063922155,-3.9557455970620032,-2.200303892426869,39.24011522802326,8.164267847680412,8.161564851358674,1.517841851442614,1.3141039019743277,-1.5378022360700059,14.371021582221417,2.346249845692717,1.029992516260406,0.14369439373178217,-0.3360179347649426,0.02079910818856793,2.4643056095444003,0.09895826242820549,0.006503144092496967
-3.938297980842367,-0.9841004115375475,0.16429028956350292,-1.1239656529151771,0.9361857556779232,-0.4699884094826574,-5.1392916119329035,-7.759941431177193,-2.982952715913994,11.041248023227453,2.7739553820559495,-3.9634145954393722,0.2748836755318279,0.025811777984886822,-0.03610372288461801,0.38474577452144076,-0.07266489997582046,-0.24157292317688384,-4.591401773217953,-4.52504754248071,-12.420221049586173,75.86205415248861,-9.2605720454303,-3.5962271049451893,2.6162038601461943,-1.3709094470023697,-0.8198028914978449,17.985028305571426,1.187712974708482,1.7319330379601314,-1.5006260051539715,-0.2439511544535261,0.7358182574232387,16.208291092881325,4.966025864477647,1.3745058813496192,-0.2886291838436823,0.11271752924705813,0.040887283940495164,2.5382185483994015,0.7159693612127839,-0.020145165858158766
-8.89643,-0.4772999999999999,-0.04426000000000001,8.64793,4.95593,-0.5360200000000002,-25.876019999999997,-13.459030000000002,-2.5436800000000006,49.96766000000001,16.505739999999996,2.5354,0.12520000000000003,-0.07576,-0.08518999999999999,1.31554,0.3312,-0.18544,27.449829999999995,-1.299230000000001,-16.156150000000004,33.67355,25.700899999999997,-12.159920000000001,9.74366,0.5669900000000001,2.6717000000000004,18.721029999999995,7.887739999999999,6.086260000000001,-2.4272,-4.71005,4.5973,17.93633,4.45603,5.78118,-0.5700300000000001,-0.39789,0.8094500000000001,2.5740999999999996,0.49160000000000004,0.51072
-5.267113981620275,-1.3471110683601832,0.05949439087169479,2.1698579608775703,6.53022352427967,0.5095977348149824,-7.784080923094792,-3.6718483093242864,-1.5173531647720355,23.225468221367368,29.847434404322723,9.804648512828495,-0.041319017296764675,-0.6847277988551421,-0.15655835497594958,0.8434345200605643,0.32944433398244444,0.43206822025026415,10.406361783038328,43.751397130228995,3.9768812298323044,31.767283462273358,31.21684460641122,-8.973522847322567,-3.7035238191406123,-4.709230963987477,1.5543464337096213,4.635725161781398,7.795459470324202,8.66489423492788,7.506825119499901,-2.4633480922275925,-2.5899929665531523,8.013238672425919,-1.509822015618115,7.019261133630037,1.4520580201928133,-0.7430721424575172,-0.18003958888257618,0.967200843139576,-0.2788313129877336,0.6356719711653309
-8.353931460256984,-0.9900084094704361,0.10697191538042017,-1.385322414317282,-2.1381592491576686,-0.19611734309696482,-13.140308435741181,-15.935947239477327,-5.504273846207802,3.1735502052986875,-1.707310577045311,-0.35474602991092374,0.21362480753795113,-0.15144728568378366,0.029361388894272603,0.15531941197508783,-0.3429722106265909,-0.23243700364911624,-17.40139613989886,-21.961873293463693,-7.9662019663487955,58.68575000995655,39.51280665609754,-53.83316147805011,11.853108947967243,-5.48814072382767,-7.516617177433772,-10.464030910065198,-5.2020343143710255,-6.10994470668186,0.3022637370075873,-0.08021260882348387,-0.5813128043764867,2.7646338140139646,0.23455177037160313,1.4326188263847344,-0.1961911596121423,-0.26936053638809293,0.18805795026950672,-0.12548863165799243,0.03443035382260489,-0.04422843204802938
-9.789343310666986,0.5942242389793444,-0.4444986698816102,-0.9953874496165305,-1.2488596176651106,0.020600786525572477,-27.30284532129528,-8.17570661521595,-4.203165618126424,17.902010705724525,-8.213506413774054,-4.539592163337927,0.13964398011530071,0.17068733494813432,0.07059138348782776,0.5565896262047756,0.07628879198933082,-0.022854368560048993,-10.171562291537185,-15.1026421669901,-12.946706322614293,-0.891140621522447,-5.339125515380007,-56.93955266006057,7.457995577451157,-2.3406580518499713,-8.122380394042,-21.322392636479393,-7.3122200682721195,-8.912453031051289,-12.343567704223787,4.931363961271861,3.4027097351775244,1.961330844170067,-2.5547580766758102,2.4311125343088986,-1.6913713552379535,0.6057862931592809,0.13301828670376348,-0.2158492670651271,-0.5689863263294058,0.18825637198994374
-7.396173623606289,0.5513426699864635,-0.7853040103306443,3.799860894391615,1.1169354604581843,0.11271983798121536,-31.100279168129507,3.8976861892553587,-5.372343790116077,29.77804958635301,0.28126580340343627,-1.2687619399869623,-0.21706992959725047,-0.17478948981510306,-0.08129241085266639,0.8566445525148182,0.02361614285805054,0.19188147351882875,-2.1332357052439654,6.8738439022192495,-16.542262178184128,62.87768334930455,17.41161888437248,-47.945675711495426,4.462141536193922,0.20100649260321596,-4.6456386025672884,-35.41398321709632,-7.337092270196163,-11.693535502242854,3.542338629057919,1.8700812452790738,-3.6818144946310145,1.0059950646948428,-4.9276310199116296,2.6708533554255123,1.130763401819674,0.4976007292892541,-1.070289936170052,-0.39103335012810336,-0.6886144256035318,0.11922227959858958
-11.087503824720644,-0.878677055546338,0.7889203726004521,2.265881762168418,1.5107535957257876,0.1361149807262125,-21.119413516170415,-2.27374106400829,-0.42275620645973844,27.888868019749477,2.3688144636559687,0.30305341102872285,-0.6460367677929185,-0.2896135517145105,-0.08672313357417515,0.7148393067301789,0.08717023980571817,0.048361465779909685,14.217728624936447,0.35392328968550846,-2.8073718530008405,65.77182433533763,36.07792985234541,-33.739018238134236,5.703455495751605,2.0908617580823434,-0.6911408894589167,-33.1845867551856,-3.1254439971739845,-15.040324483602511,0.10505372792772977,-1.784540352423436,1.139641753873139,3.4981519553625917,0.017042871773809698,2.061419511906611,0.29261346102117175,-0.1298619280004347,-0.040616187894146255,0.2247262300897852,0.2462299448086927,0.022802186718380052
-7.727979790301615,-0.00617990484743558,0.4992722184073202,0.1959866042886722,1.7712800894472185,0.13928154143950522,-10.991266309595584,2.7508090957201254,4.665271627330821,29.387889917940818,3.5858088775891983,0.7927949750901898,0.18314254730702959,-0.30634337881506396,0.22489031513201324,0.4302642723240456,0.057599728587077424,-0.055638467472553896,27.751424673272297,5.873178153740196,5.336403913547546,36.44983536738508,38.513205661335114,-34.604569118375956,11.753144249594303,5.91903539774457,-0.8837017000426594,-20.14603713767856,1.6278496087187952,-18.658157752546643,0.8981946476147387,-2.7081928741188572,2.3956608634610967,3.2460972901434255,7.798607874369825,-0.37690303642007406,0.12057258015512923,-0.12112166252287093,0.24870193583450093,0.32153361083923265,1.5313776686128922,-0.22912022149302905
-12.133979999999996,1.3703,-1.5871,3.8425599999999998,2.0374100000000004,-0.00726,-24.65197,2.17871,-3.4700599999999997,44.319289999999995,6.250670000000001,-0.5491699999999998,0.17838,-0.33032000000000006,0.06763,0.6113499999999998,0.0040500000000000015,0.12334999999999999,22.617579999999997,8.611060000000002,-13.185989999999997,55.87207,48.40146,-24.78797,-2.1825,6.8481499999999995,0.6176399999999999,-5.85138,2.09766,-15.293159999999999,6.071429999999999,0.5343799999999996,-2.8217900000000005,-0.1579299999999999,8.89148,-2.95677,0.5650300000000001,0.24555,-0.35263,-0.33042999999999995,1.51395,-0.53116
-7.6253002526153235,2.180838727840869,-2.681647487735115,2.4780827071330034,-1.7184781287255066,-0.06031585724566828,-2.536252756970701,5.789584296321803,-0.9150231857642804,37.872415297026144,-14.471158823760407,-11.413645308871233,-0.08517799635482923,-0.17078173661666524,-0.031083748657782,0.9728467774188113,0.06972368078823098,0.14345143323319756,40.703838926356546,-7.53127812055987,-17.83111059362034,98.491190392206,27.716862826611578,7.625425066212664,-3.6260257284803994,6.256562876034654,1.9663134686081256,-1.3131293785611111,0.5067633947717629,-5.315301368823357,3.1299162772457523,-0.08873120026522406,-0.7584189225861192,-0.41513897060975286,3.386924829790124,-1.0766697143504502,0.12376527375247325,0.1156520920180341,-0.027800847158585534,-0.12683312478925193,0.651961233587695,-0.13117561778309367
-9.981446161189606,2.291290037549109,-3.145537525779459,-1.9092248125899052,-2.3567906852292126,-0.3591801064914335,-7.6194871455239594,-8.145573445682135,-9.578104552653032,9.91417377338926,-11.187105005959221,-9.354706253202721,-0.00762487785875773,0.4101802271061491,-0.19152120971884362,0.37524144245824337,0.054327806863966974,-0.19054749695048545,-3.125512233924994,-25.656776884434116,-22.1344728402478,93.93060231123835,45.612089912582796,-23.578283406308064,11.109863460662572,6.251626982863442,1.8145021514922806,9.554903998339597,-4.274821685753569,-6.91063847740997,5.3706585937877405,-4.621755506961156,2.2128584380784915,0.7357316823283744,3.5864734001545906,-1.237298640133497,1.0542272072197791,-0.37524417237648905,0.1597283206911811,-0.14275203418511576,0.34112857945578057,-0.23044595892113057
-11.198528872791146,1.268786782332139,-2.29825709356982,-0.3011255755023443,-2.191049714175553,-0.23587115904070308,-3.9763239187127524,-14.689855206319843,-6.7660899901626586,9.921856803717516,-5.574937465928584,-3.2976313086089797,-0.16530040744354754,0.26053785165893917,-0.22556908503758766,0.7012004101091684,-0.31114966313029807,-0.31119227277256417,3.772553369196419,-31.01503020376173,-11.774801765711302,41.01268385300873,55.94290068097051,-29.842550311530946,0.18697104687665678,4.836093504117076,1.0069127705592638,14.239608001870737,-4.679661883483878,2.098602175586593,3.390156708229021,-0.9286249195552033,-0.303295112821235,1.050967240216218,-1.1339301513631734,0.8125422198330575,0.3365081683126305,0.018445022600040512,-0.060883579874108786,0.14251947774923238,-0.5192257560870003,0.19167681386318045
-7.551037785593665,0.6640301121648763,-1.763593668046907,-3.180186824465778,-0.2065135115369971,0.13787388986818605,8.97623362258463,-13.63306688975047,-2.891994769405287,5.5827745953182735,0.7803149940285828,-0.6351303518182532,-0.012891172255933548,0.015439787145755154,-0.1894340575706735,0.7509022339775776,0.11325065044926771,0.07102892657718061,10.26963638862552,-9.91642385684631,0.7732091585797928,78.0162426523892,36.76618810903566,0.17497972040908044,4.03317284899677,-1.26927141129322,-2.2613315059013464,16.210744097603918,-4.4930180964087585,2.8933549335535163,1.097219662365693,0.9967752998846492,-1.2197527704210571,3.745756105672225,-0.6383583242345058,1.7429802390554112,-0.02039001529040172,0.19909898989010336,-0.16415445852453997,0.7867142318400515,-0.37372063508057657,0.3496603838240117
-7.118478054634727,-1.375787892678312,0.7350752873213928,0.7690158777149213,0.6576317368643326,-0.1837202717141695,0.9156653335975788,-24.166896465579683,-3.1406284364497297,24.985038230226778,8.179354626204585,0.6317417127872964,-0.19291793506339303,-0.019292937671043918,-0.046890237741769425,0.6351490809039386,0.07932261484680529,0.07333186557394641,21.719286452222732,-13.201176389456457,-6.626576361868818,99.73319261373659,79.42099341405688,-10.383971798638397,13.021435348310952,0.8077114345901824,-2.1898009776130545,15.8071631489225,-4.502932224907349,0.7768930505808906,6.1252565067751235,-1.366190234400926,-0.5784821256599065,4.18564430798908,0.9538365369185601,0.9973009484449322,1.276400083428719,0.05314561981657052,-0.23911700837455532,0.4110399678312384,-0.039061025633070415,0.06857899894743551
-8.103289894441637,-4.013935272655821,3.7596311807953926,2.4208574081567766,0.43527107672860577,-0.23338981859255206,8.982849816637378,-21.282366517860474,5.523915004875832,29.503049806194216,5.416013617054099,1.7004339808354816,-0.00034079123943740394,-0.41234968867712646,0.13749087339309612,0.7313637233544457,-0.09810382074886051,-0.15100566932788823,42.72427853164867,-7.718097502396431,6.412633183820063,70.05223274259143,46.515700829877034,-4.334090033116923,6.777213669448045,-1.4436279951508055,-1.3426253179502323,13.45444839399288,-2.3876781475667492,4.204748710811767,3.580792728872988,-1.0296345634589028,-0.48173846658597247,3.7435090651299823,-0.7380106712164369,1.5612848323391093,0.6573567433155871,-0.18177304625879212,0.007168519261074653,0.5208388303941982,-0.3659279681010407,0.18332003655889775
-4.79099,-1.8068,1.53253,-0.47689000000000004,2.11422,-0.18169999999999997,18.27426,-4.241409999999999,6.087769999999999,14.943449999999999,8.62409,2.4621099999999996,0.21349999999999997,-0.4690500000000001,0.1637,0.6377700000000002,-0.029180000000000005,-0.07555999999999999,35.31015000000001,8.81034,12.804629999999998,73.86265999999999,41.535079999999994,0.18924000000000019,0.09626999999999994,-1.7692400000000001,-0.74979,10.3772,-0.9210300000000001,3.9782099999999994,0.9222800000000001,0.18292999999999995,-0.83606,1.2351,-0.14932000000000006,0.8471899999999998,-0.06889000000000003,-0.001300000000000013,-0.08148,-0.07602,-0.2868,0.17302
-8.227616920336983,-2.59653905719891,2.2522448901675327,1.0311349609132603,-1.1763783699071368,0.26075972304958517,-7.061476523838489,-17.50931588252561,-1.4096885580496545,21.492881369201942,-1.089813534949319,1.3949091315021296,-0.037982070578402846,-0.28647694521852735,0.031222013783026952,0.561247930658036,-0.047077676998013004,0.0324777116403847,8.677654276721611,-19.633243487259044,-1.2951408634927832,68.10080183469307,49.74020847521233,-4.270772843811047,2.3239367228751058,-0.07618447370881114,-0.9797509903774058,9.375339548118916,-1.0155570419735072,1.923842534513634,2.2350050708455758,0.6077579553036208,-0.8619083879618694,1.4057807578264323,0.8397794569041922,0.09509530618070551,0.5268651156936079,0.193998984901056,-0.1584592000003338,0.11341952764561135,0.14289290171751828,-0.053632162874377796
-9.270170807268938,-1.5566042804348736,1.5040724089132431,0.3120403482121473,2.0108005460284177,0.046501951671837585,-7.666022862174246,-22.307191433058726,-1.849502452833234,20.0924238666939,9.054654211979255,4.086590031150886,-0.06643475802381163,-0.1078525694797698,0.08795396757459814,0.6727349005249229,0.08142633988022097,0.07691984659421466,12.182894188821981,-16.251835379674365,1.2667990638728148,57.38022923869603,47.77044547267481,1.2387235976414532,4.889531349461535,1.024898684076805,-0.3174514110583578,6.556759595433938,-0.46006071379240787,0.9554081355760796,1.9955212149141803,-0.6624303201440573,0.2720761979833916,0.9936745471713007,1.057743651047007,-0.16864349490745442,0.2425053890025955,-0.0541805242421972,0.11747997160633349,0.2796532259271154,0.2767669009982187,-0.04603215382701766
-9.633217626067092,0.11850936806596807,-0.40551241786318754,-0.06997999673067368,2.909575162355438,-0.1188179262707043,-17.392808483352873,-6.136187715101807,-3.533817792300061,30.341953713136647,10.271600750671809,2.3486427551117037,-0.562462288387742,-0.05649930226199068,-0.08958834616499645,0.7870313480530758,0.15301824119524407,0.12384268481523775,12.81244769690859,13.751818636261401,-8.575327036478935,74.95906679319548,24.7999117932242,-3.7728513923963205,2.6407779846546515,1.772701886169631,0.8114265355206407,5.489042392331536,-1.9936130444903604,-0.35489855936543907,2.6782165358914503,-1.7747089535215137,0.3338551968599821,1.8877449200192598,0.6371687447554732,0.6200014389356415,0.09684673036223372,-0.18700240257197126,0.03199404449476172,0.10446406017407087,-0.13599070714089473,0.1033705186854113
-7.4135436084535415,0.367114867983357,-0.660417730103291,-0.8095445726241401,-0.6865597125528073,0.33411833113116296,-0.15362045979834774,1.3419733758110894,-0.43491490857296444,20.480672307300278,-4.581347474398821,0.12968380898979018,-0.022931784479443405,-0.2212037929871619,0.08351123069789046,0.32569488546647757,-0.03205514434951747,-0.04019453677545178,22.368369241716458,-0.7762965230735305,0.01997843284266093,69.02807913984432,49.10921997578625,-5.952436326342436,2.179796052560225,-0.39373243741989356,-1.7809481840242771,3.9243339548552787,-1.0899058869479787,-0.9719969921619028,1.1361479800676828,0.7855832305404403,-1.3396347121604957,2.104331397840443,1.1892169839640407,0.46934823690530425,-0.23959413403262855,0.19670359850376914,-0.19052679298124278,0.20015464658481497,0.14142118102008108,0.02143400253047472
-8.078676304977794,0.1432613298415032,-0.06542331769490475,-1.160480533592019,0.8931288023814618,-0.17312207106928612,0.036201447743557325,-7.811344187530123,1.3888346033557275,11.634420731174103,2.8173695576824134,-1.094054291353907,-0.24071546023207568,-0.05936729433530319,-0.017640162486213813,0.4640310142897684,-0.14894625508833767,-0.029679207701153267,9.777677461370022,-4.883661384997127,4.030759621303338,52.34155058676729,70.44088357606637,-7.373349693967455,6.348060941045138,2.1459412947219665,1.0007389225353078,1.1699500900717716,-0.45869337767507345,-2.3614244746544797,2.3574317033064323,-1.7730951685228715,1.2260580017553753,0.6724485812501586,1.654172324630026,-0.3601484032700935,0.41625807760243005,-0.06461996386183935,0.10525586579149307,0.07997534824742242,0.2552039876812998,-0.04641673564656634
-6.749649678674683,-0.8246644509211862,0.6488651571400099,-0.4032863444180377,-0.1054445619333532,0.18784423277975332,-1.2025961696096097,-8.214809911476559,-1.0681236648479646,17.041515647345427,-0.9157701304639505,-0.3558592849226442,0.08985199384980459,-0.28966504103742824,0.10926854830904521,0.8937182500905335,0.06534959716546193,0.05910089469557246,17.10584077238429,-9.235029079985,0.18150965959966095,64.03664675537885,40.223920010890126,-2.400282319504157,-2.252690867395934,0.18455980867841845,0.07985386033738728,4.103376242696085,-1.2787981958210901,-3.592713266127411,2.905390202029524,-0.08816567779170885,-1.046845586222477,1.3085060882001645,2.803492856884732,-0.5911668005133963,0.31994844275488693,-0.02032062219100133,-0.09717594225012895,0.17868932863113035,0.4119983172006265,-0.0776476135048289
-7.74021,1.23282,-1.1154599999999997,2.5574900000000005,0.18588999999999997,-0.10617999999999997,6.97163,-1.6737300000000004,3.409709999999999,36.454089999999994,-0.33750000000000013,0.6774600000000002,-0.29767999999999994,0.07422,-0.07688999999999999,0.85302,-0.013039999999999998,-0.15535999999999997,48.50413999999999,-1.1882199999999998,-0.08497000000000016,79.97039,18.67516,-9.135690000000002,4.025800000000001,1.6467399999999999,0.7711099999999999,3.9257800000000005,-2.0662400000000005,-2.4838999999999998,0.1777800000000001,-1.3050199999999998,1.14841,0.8780599999999998,1.5211699999999995,-0.19690000000000002,-0.01880000000000001,-0.21672,0.24408,-0.23227999999999996,0.09187,-0.11135
-9.635141190757592,-0.6381906319487395,0.8494652467246483,-0.08427003380958749,2.11675627006385,-0.1799490250422994,9.243025947760083,-16.6871795474748,5.740384612051413,27.471110705043138,2.286471759679491,-2.3519727201251404,-0.11139073492131307,-0.20268862390277667,0.026473654474654815,0.5768631528707766,0.07790974115697107,0.13334516383399803,41.162401545483945,-17.236117513946947,6.069210984456649,53.04975754718051,16.66842255220347,-8.654167067939525,4.287175145843394,1.1728726852480589,-0.4106709717278154,2.3991344682835973,-1.2405730981736434,-1.1022186281631818,-0.6813454454720239,-0.39561905928039964,0.4264250275662141,-0.4894248376398086,0.7230118190886169,-0.49865885842040225,-0.2714076133575514,-0.04926213271896118,0.07660182953227644,-0.2648804602402681,0.1654203929402224,-0.14486932725204213
-7.936971237602651,-1.5552052614932024,1.3511518446261728,-1.7163974142527538,-2.0126402775060237,0.4018023605281698,-7.2302936946214755,-12.777510978475398,-1.5767543193153515,11.814411866161924,-6.949382039677607,-2.190410261300177,0.052179953654355224,-0.3990700159727543,0.11043656666961933,0.6651168774372097,-0.09809418258740524,-0.0016038885587444603,-1.400395051752247,-17.298137770722487,-0.40068145877320904,73.7054195955017,41.23206468419491,16.087140702734334,3.6260142968285067,-1.1216432801057612,-0.6394323468742027,3.0892726241003166,-0.20985146875958574,-0.8412241592803927,6.553573141633795,-0.5133099969827842,-1.282082199025735,0.3161003459702926,1.3738176763023673,-0.39494476933672157,1.1726749648503,0.09640645211112393,-0.2638053021663912,0.07868633909280558,0.20227463752881392,-0.016172735381506757
-7.298430203403453,2.388689994202367,-2.8482300610735134,-0.6115281878362913,-2.0128283020270024,-0.03309121772282625,7.7432331581705425,1.233448723431003,-1.8079659712330296,14.562321741777149,-2.5686396341458617,-1.9359853639274733,-0.16606279229593307,0.14543749277957468,-0.11603688575450957,0.7410291685127646,-0.11546343641173357,-0.20240696720957344,19.91789522055094,0.2969209431270565,-2.0809339248316183,86.7901521376737,34.737565091093195,-0.7576586110552481,1.8980470634095234,1.2409426422634973,1.4448503026460122,3.9646342755459716,-4.180399577325653,-3.7237223145670924,7.61416291405226,-2.1216197014803937,-0.45846241143749394,1.872520457122137,1.3752080401902802,0.5117017552573704,1.3351053555917054,-0.30839194777306356,-0.00933735209443702,0.06919059953277402,-0.16262598393167085,0.1869419987584801
-9.498817443789463,2.295096310352709,-2.6891237764253217,-3.667213404272427,3.24284004370526,0.021196175314599032,6.998645093398151,-1.660295012310827,0.822683185443445,15.850699183195687,5.249487372290296,1.0671871695546153,-0.032553260851092586,0.06918113709706616,-0.09000711899111044,0.35905185894995945,0.10741423122099357,0.19694962199990396,25.04689708762678,5.886111485581592,3.8880965638609974,24.936623173239944,7.320939027039567,-2.416353319148572,8.987857660399902,0.9355649041608265,-0.5764048669587274,12.336156321752423,1.0643393797150205,5.27175663139269,0.5775374698157083,-1.3999323188004573,0.660704967567382,1.164319441275048,0.30927973363169237,0.2239536375450633,-0.04734336955972097,-0.2716027993145226,0.16306547144249461,0.2714214760822745,0.09302021792526964,0.004785658579115518
-7.212331560921403,-1.4087633570745897,1.451718354354,-1.1223135532199957,-0.35894734659336497,0.13385910579075966,-7.387205964369754,-16.91993364550784,-1.0845752570310925,4.979291156077972,-6.59258532837198,-3.588444419954398,-0.27137702428612753,-0.19027518959493536,0.07858234432832573,0.7576413245833845,-0.04744170263388194,-0.049815948721799994,-10.725418385723872,-27.579344289257794,-0.28884540590669694,57.73934484619718,75.96241223707796,-15.816328966031756,7.770905549385566,-0.548991787574155,-3.837487339221099,6.5566917533292735,-2.017837056695712,-2.093525511539455,-3.144344389067652,1.8267206463045849,-1.06763729193162,2.38562713039885,2.2459917596471985,-0.22125960238498182,-0.7582534675331246,0.33657409810162364,-0.27738006703362256,0.25863977679045985,0.37568337882616454,-0.12025729086363278
-6.701901638307356,-1.250148718596142,1.1937013011808828,0.7626874567559888,2.3130060660872127,-0.14792033017750797,3.5782988987841398,-11.864171494314155,1.673972139460585,31.86098138182436,11.297549240598439,6.030719393832858,0.010011996813510787,-0.16864094260120147,0.07049688549537074,0.6359416216829405,0.14126778512706287,0.0337896867631825,35.85754030407784,5.514755836145083,5.440890895479136,50.60696502149916,-0.5718596816986596,16.182165730486478,0.22133899645745164,1.7279542795585021,1.4593948282295985,6.349666871047335,0.007889829348169439,1.743635001550676,5.340698124302103,-1.4487683713036414,-0.3893510492005573,1.4456305444121669,0.5480053354820802,0.4104265229576404,0.697018060092744,-0.11875651261424505,-0.055646313757994094,0.1962306729522685,-0.01343158945719454,0.08955952109656225
-8.94962,-1.60229,1.5664099999999999,-3.005699999999999,1.612,0.23739000000000002,7.144150000000001,-17.09201,3.77132,24.74913,3.675220000000001,2.7666600000000003,0.050149999999999986,-0.16857,0.06364,0.31502,0.034750000000000024,0.12921,32.56256,-12.504369999999998,8.243570000000002,58.66358,3.816369999999998,0.83725,7.8779,1.0856600000000003,1.15892,14.381270000000004,0.09241000000000008,3.1579500000000005,7.03091,-2.9561,0.1286500000000001,4.852759999999999,1.9949,1.24717,0.99491,-0.44294999999999995,0.08013000000000003,0.78856,0.26484,0.19054000000000004
-7.255814823274581,-0.2625120017133865,-0.4400512179539388,0.2767666507678738,-1.1867713743174064,-0.04452761584401074,-1.4624752559291427,-9.527129550428171,-3.706885017966515,9.43656797920958,-8.883164669180507,-5.045619160722249,-0.19837466382196986,-0.19960066339952834,-0.06180005685623103,0.9350181063456653,-0.1509421966752941,-0.20502770236843876,2.846496292024049,-24.450613208252374,-7.884646714656956,79.79045371319894,49.320453334483496,1.4832403782863304,-2.7136074714729124,1.3612129665087414,0.1210987698959906,8.885258543381957,-1.8522063002140803,-0.9399164260675509,3.4116168471809813,0.20498730955514202,-1.2347114902151641,4.044969558871475,2.0103258607061676,0.2863240801091786,0.5073881680159088,0.06185370210932078,-0.2126027997136503,0.547682247391821,0.16365359389713272,-0.025775694832235706
-8.358917918929127,-0.9687198653949142,0.7502952139217536,0.18107295875704568,2.390777993895309,0.08533015826992747,10.215701454200929,-15.056098118706581,4.019191901692193,24.41765867579438,6.9389805422277435,3.281953436417945,-0.2159032138294688,-0.14594676613239596,0.11667582265119134,0.6777341873950358,0.18665590357476522,0.25077394103236333,41.826863532010556,-7.950369720572551,8.456057227111664,43.185709199430626,31.082621663382167,0.5623045305245133,8.056236785547913,1.2148152494792497,1.7322803525572026,7.243450652562533,-2.297702400817598,-0.41992950618836233,0.993683910715025,-2.042698831180677,1.7979385747707939,0.6899800672224592,0.5985940588239009,-0.4113639087861335,0.17786698481454322,-0.12204952884412533,0.22569234996945298,-0.06375736752337542,-0.23375430641541473,-0.03270839286624036
-8.249905095165948,-1.3807550223633334,0.9016110307733386,-2.0351453969813815,1.4729856699482766,-0.03110991056521461,-4.650283338936974,-17.003460483308626,-0.9772665005813409,17.313968265844323,7.416823427693171,4.094819260069374,-0.18226907428939496,-0.13349256385056454,-0.025047954360898555,0.46944357333240705,-0.032487361645923925,-0.04363925067663867,11.076866960831817,-7.229289008895538,4.93313802502449,40.486313586912466,15.72567362319143,-11.848884300884034,11.683592518270434,0.6977707538805072,-1.3512079858774266,3.2504103150009507,-1.5889259427107396,-1.684390849971133,-0.7185762121134698,-0.7088966289988214,0.4534092762478954,-0.15130743667369972,1.510533532095124,-0.5421571038263627,-0.18104414367436908,0.018736696333093713,-0.06390614557535669,-0.22439562281226264,0.22803742189174994,-0.061743341184881374
-7.974800778261468,1.6557001139576615,-2.3184888242787314,1.9545350884381507,-1.5912747871697739,-0.36708629198386356,-4.920389874980106,-5.39341145084057,-3.5240549137332913,31.105578553225115,-1.7501017003375736,-3.3950025172160028,-0.07577422498849365,0.18390554779350352,-0.13974900540703797,0.9304473767074481,-0.20358647279669417,-0.2301797712530962,22.128528212191938,-2.82405829297843,-11.798870085350417,63.34504343920207,24.809353750005098,7.828015550319009,-5.253286042301766,-0.8530649393402189,-0.559379856845569,6.0316372033353876,-1.6041573740792971,0.3868971116945903,0.9939766411294927,0.9725614171668586,-0.7777548619811798,-1.7008370432459485,0.476815888813497,-0.6163145635603713,0.04399502700392357,-0.11983378131381044,0.1510218596746415,-0.3424194764515058,0.06878203536176655,-0.029705156379121
-10.567442868393877,-0.4540693690356269,-0.34661403156399084,0.461250137536358,-0.22844669100950787,0.27322619633427,-1.7472184494706577,-5.38187567863568,0.22985797845836994,19.311481058505063,-3.738353261107951,-0.8461894932196066,-0.42751136263242295,-0.10970122661441709,-0.007442156388038363,0.5944351422216136,0.08280581758871473,0.14167023997329886,20.289740450303295,-8.911575535535391,-1.000621676258931,41.31870660560684,28.59592840698696,-0.8251529995468769,3.6215265972504853,0.49418349783551696,1.4207360610717459,4.6902561607167295,-4.487449675403562,-1.4607284523393507,-1.272293498726588,-1.1975198533753169,1.587171883476876,-0.5132387165622354,-0.310439295078167,-0.33796467955183407,-0.21161096166545224,-0.15714810537738286,0.32410301858974033,-0.21173010474359644,-0.23923722723926452,-0.057334402538813334
-8.766827238132583,-0.5175076818708386,-0.36891227027097817,-1.1800988710543514,1.8167951999970253,-0.025057575666099494,-21.081455053587995,-6.055472071123377,-6.883495354082136,20.088255529941982,2.6541665736068656,0.11603014872787187,-0.12987049979696239,-0.15248651838862054,0.022695951876709128,0.3898764491525011,0.11523846195671367,0.10599385553891716,-3.9880363018893896,0.9583195407503053,-10.91530488688737,61.29513747602071,13.438286681452679,3.0594040758057357,5.812371448123501,-0.5994356708611832,-1.7964254213262825,0.6989263358347235,-0.04391113336267771,1.9843223359730386,-0.27482947314970135,0.28736808507194606,-0.42656810059298356,-0.077807468096073,-1.3384233078237124,0.8140972572130735,-0.31784666726648286,0.18055125502643474,-0.14423488433489878,-0.1561121522416343,-0.32323080127862075,0.12348466139425664
-9.74237,-0.85762,0.02850999999999998,-3.3447100000000005,-1.0469600000000001,0.18425000000000002,-19.84386,-15.31397,-6.438649999999998,14.0611,-6.0337,-3.93919,-0.50502,-0.02865,-0.19405000000000003,0.65035,-0.07925,-0.04850000000000001,-12.471780000000003,-26.5084,-15.078719999999999,50.83383,34.89965,-1.50016,-0.8113299999999999,-0.9753100000000002,-0.9596000000000003,1.9264899999999998,0.9288700000000001,-0.6460599999999999,0.5365900000000001,0.9757200000000001,-0.4529600000000002,0.9402699999999999,1.3507199999999997,-0.5099800000000001,0.08767000000000003,0.20457000000000003,-0.054310000000000025,0.04461000000000001,0.26178,-0.15019
-9.909182937499157,2.9859545840898867,-3.9643325136762,2.5250455018308062,1.617816399028658,-0.31681662627499174,4.767454963678515,4.441173940899444,-0.012394999024364892,39.472189583617656,8.562626879622176,3.2763696014124357,-0.09594552795813184,0.10862453456318924,-0.024888691877432777,0.626420011293431,0.1499081445990556,-0.06625230697335523,52.028816925842186,20.699499462658707,1.117271744587947,41.889498513361566,-8.130168599572475,-3.032721525627508,1.6447105873206522,0.9577306060874572,2.790168713954148,-2.7883287506431484,-3.1201985866727333,-4.446658064676303,0.2611997592988888,-2.3345358445201914,1.7423462721451906,4.8894046666295905,1.8745562343874165,0.8445448434572481,-0.18985994471107115,-0.525913183763496,0.5186421907936781,0.42461700225538856,0.22212408432034342,-0.04438146905987687
-4.182191166229337,-1.6250472318624367,1.4214158827601107,1.1164482809820402,0.3797606651357325,-0.07718206181540949,7.480612491780376,-11.408739482890498,2.2471232175437894,18.327000169193727,-0.7958377337117976,-0.23276574361850205,-0.1265935967453947,-0.16748885556411008,0.11756292904091085,0.6469690260276634,-0.1305243663487348,-0.062010966060979576,25.122070061892025,-10.081705605956707,2.342153716515763,62.771614516466485,28.969401891198245,-12.422637643801433,7.468594429116516,0.5433628526493398,-2.4778507465767245,2.542674549339807,-0.16357805509814652,0.6764847950969205,3.5497935759892156,0.8271165782842853,-1.5680570233943065,6.430126551615468,0.8245316808052632,2.3581589263791796,0.39319503432829744,0.1374691087595878,-0.2481651592638688,0.9493188574775375,-0.004707279233155793,0.27751817537571444
-6.893753585891301,-3.288968757625921,3.006223124917051,-1.8949699519388745,0.2283278992558099,0.15799143163182414,4.912213447600632,-20.293565213261406,2.3289183192047282,14.593265144985217,-7.317394804788474,-6.027362548097644,0.04488016061979588,-0.15513803773965004,0.033767305563065196,0.7824585847654465,0.044456622215474334,0.18830465360673565,16.058069115083313,-33.48469203363784,-1.542804369583848,71.23814908111079,16.43507488091473,10.963489203489342,5.849600392905439,-0.06730296418498118,-0.06818476024783289,13.60045762444102,2.819728379273809,4.760572261017569,7.636673348732702,-1.4981778782159403,-1.1042983807551225,3.6182815564718935,1.145325927130237,1.0479736390133603,1.0025478432837542,-0.11668856493348387,-0.30654638679399454,0.7143591331865804,0.15524259803659438,0.17398792794540632
-11.048663487855915,-4.02961791027482,2.8695653094913465,-2.958580945338001,0.26925172360544075,0.08488356140384058,-4.236584214537602,-28.96916401087307,-4.826922900793878,10.547558117094885,3.8145870825809576,1.6845435707559595,-0.33898458721132985,-0.3243008690194521,0.10401766289699685,0.6059996723045808,-0.009056672387124886,-0.019002834471970632,1.65681124837912,-29.189348855169502,-2.692815292895597,61.2645331470262,13.12817342918255,-19.331461086226735,7.936425208789335,3.056514780161274,0.27342802638161884,8.460864020237333,-3.637201618228349,-1.8736770971184527,5.260058370515969,-1.0603677440555273,-0.9081081370110456,5.835462529056578,3.1973246505161135,0.9708048049549003,1.085179468422295,-0.2054941977306413,-0.2797324488927569,1.1028681375070066,0.34809327462381606,0.2510913013803216
-11.249227693348578,0.8464521007612125,-1.5915530982652615,-1.4968654243048352,-2.8804844624151005,0.20401283647527166,1.70546875465867,-10.486567664879892,3.1285932098752514,18.34157668516633,-12.51931241834608,-5.293185003838734,-0.23777023202748526,-0.0024630328664975694,-0.06356143903946912,0.84330411678565,-0.10008012448623528,-0.26270566178942395,22.722610101623665,-26.83597393460621,1.226792677990976,79.21367971984726,49.049836808593994,-2.1041188352764113,7.314634526755809,-1.1356193324469273,-2.1192283991243483,4.419950974841342,0.08024378424602518,-0.6958443356952153,3.126542959874015,0.7071449514083807,-0.5598214168052126,4.618350212773004,2.5365126010417125,0.6605839236067618,0.7000526133465778,-0.030408997614688817,0.12173503205200634,0.44604651723473326,0.24006207210849073,0.010509211169548964
-9.21491952906001,0.17347054468174736,-0.9147951156306074,-1.7175690425893078,4.035224532512523,0.08960105927836275,2.637638762305468,-12.61011423145591,1.5539374562515462,11.699263258922835,6.711075493664394,2.855954914843688,0.3287718145963354,-0.020750262527785873,-0.0008860081549284655,0.4932003749450894,0.23580933347952743,0.2231352947648872,12.362323551838172,-5.852215176688594,8.102282060966875,50.27361003520407,28.352113148749126,-3.4943548721316655,5.903719689033116,0.6285276317203827,-2.264002361571259,5.334705931606042,0.6615296837669211,0.5290281615682031,1.8606650059582241,1.2843973466030372,-1.4539024917952297,0.7565468535385093,1.0685315709516752,-0.37817575792640207,0.02615304756930792,0.44992499443490114,-0.39528408122588937,-0.1402066813964272,0.08769437829419968,-0.13773458608347008
-7.977179999999999,1.09455,-2.11787,-0.8123099999999999,0.7215000000000001,-0.09357,-25.824579999999997,-0.4360400000000002,-10.445720000000001,13.8781,5.260030000000001,1.4615100000000003,0.011220000000000022,0.06261,-0.06682,0.65298,-0.1022,-0.048579999999999984,-24.16444,6.05326,-14.54647,76.94508,-13.88645,8.86579,-1.14295,1.94096,1.6327200000000002,7.69599,0.12737999999999994,2.5883199999999995,5.70637,-1.3373899999999999,-0.59981,1.9389399999999999,0.10248999999999996,1.0381399999999998,0.61703,-0.05094999999999999,-0.17294000000000007,0.25370999999999994,-0.029889999999999993,0.15142
-7.36529150137205,2.416659190553706,-3.2365254630489217,-2.584976456414098,0.8325589657738577,0.043641156284686664,-8.027112833543828,4.598668907482948,-4.527461364233799,8.487820724443745,7.9509663205809815,3.7966211890982553,-0.3372111135138643,0.06701417934522012,-0.11603863148014795,0.6916288837948105,0.08265853791148986,-0.11311212854663502,-2.3158011437510146,15.778309891053668,-0.9721037461738125,57.533844139613116,18.346980841176364,-2.101553905755949,4.42551083721655,1.658449321033449,1.8430660447598672,6.802040465134501,-0.16292033386814977,-0.22272397983733314,1.4659352690766496,-1.685519742688068,0.8804922556197301,0.6027881382916978,2.1528388181992377,-0.5347000982907383,0.259687232070132,-0.27935381859217917,0.13885001525802085,0.024731882156029082,0.22774376403018942,0.02316344267674318
-12.504618769219311,1.5263585293828015,-2.7902205535228397,-1.4238867944788025,0.18897450287444795,0.025983589580897637,-27.392700978804875,-5.440584759637824,-8.48624560698157,10.493394486462783,-3.2677504375838597,-2.1051889971637423,-0.13292186548332807,0.11657987308096643,-0.1771965285656529,0.1840936026774011,-0.008067493413999427,-0.03629436375485046,-21.991726065116886,-8.327452871978005,-13.62088247791145,78.98993211659725,8.131637596734919,1.3566566151484947,5.733356474159072,4.2567901269206905,6.887806373373413,6.532862168269753,-3.871814829988164,-4.64635171786549,3.3467067385133036,-5.318717490630194,3.5173106957019074,-1.4126055507866078,3.8912493022473478,-3.2832565772127977,0.12488274654932971,-0.7222953888684263,0.5738408459935379,-0.25182360768116224,0.4253651146612748,-0.421838955205141
-9.734372306861257,1.7712425763186803,-2.461182648558993,0.09667398372249827,2.01928501252836,0.0794914758405092,-30.514902127077296,4.13263831188167,-5.57365067182271,16.51710510134987,3.5497517793119613,0.2971702011116353,-0.03580780253656654,-0.10435532135058757,-0.07808892819341297,0.7662565710238785,0.011593047810989058,0.15628639886369586,-22.019193496404007,9.120801617899135,-11.69448779550224,85.73988496375084,45.91803238793349,1.44446900419885,7.278454833773814,-3.222730389795404,-5.133155191027531,8.602631224434269,-2.424431856826844,-0.03955782668367805,-1.011882671785294,3.1344283595906974,-1.8484760448119333,1.4226822291151768,1.5311892874092716,-0.25507839297365376,-0.09885140140735457,0.545824813933682,-0.27804289140385646,0.03645226527608094,0.07265477023692216,-0.05154004629818371
-8.205345616438594,2.002344548788977,-2.13669208887908,2.0709125162363664,2.401602700182979,-0.04439425607681572,-14.740571186382475,0.1761622408277997,-3.22698973446172,26.4388130136974,12.84326610157946,5.015394473560862,-0.33965170676385065,0.29563706492656106,-0.051373864444216495,0.9614991273811113,0.04980443242431735,0.0344373665533955,10.03037282119981,21.303888994647515,-1.3664578585721978,34.43898570436712,31.44495171346424,-5.58720010185752,3.6374526205659374,-1.3567006320275057,-1.7795426285406049,4.760701462791171,-2.080592131269342,-1.4870244991603312,-2.2270024101176724,0.8714995693272731,-0.2378401529904309,-2.0042687588601793,1.2164082847588669,-1.5794038930992074,-0.34912095535186816,0.12402640148794983,-0.047990543880981465,-0.5377162550141154,-0.0384276246514727,-0.13488507379932413
-4.746637623078398,-1.3858328057017792,0.8614111881738516,0.8251767431826813,0.006209990066521565,-0.06382593198114707,8.880742341087304,-15.072909525346583,3.503706999319255,16.283339560459492,-0.14457952288053777,-1.62641693988222,0.09855159926374467,-0.16090125361724592,-0.07533588924426583,0.4672072028799253,0.07516905457389991,0.0727220911827878,30.214158860380795,-17.733158002090928,5.63990114297841,33.83683048144127,-13.165633878090603,10.199159164766698,2.608971433574281,3.0134436032134504,3.831887687301698,4.079038362999657,-1.568123740979745,-1.7139853946289245,1.9758027752464387,-3.1690667297326067,1.78908143952833,-1.5857533206869512,1.2353018633798991,-1.7437658468104502,-0.04960562630799607,-0.42698023245594713,0.21983066765845524,-0.0903672450874338,0.09373118148847805,-0.15398891423315547
-5.338140089402445,-1.7550798620041403,0.7014056627818116,1.9798324583588884,-0.10189429703707777,0.18282364840428866,6.713276225874386,-3.2652128963654743,0.9619950840130317,28.942630916734394,-8.719202996114571,-2.5391268097027986,0.17670485805586866,-0.4700828704398095,0.05574347855734918,0.7158971429175882,0.09139144599733971,0.06678408624576837,40.14079793596385,-11.556689050383934,-2.98692921345799,52.629515601779005,7.77468905029647,-0.6837321498825015,2.959789841606727,-2.4776719096351263,-3.5015218842488127,6.072327686454207,-0.8363452594159891,-0.3263287003501335,-2.6263890969525066,2.266077210703776,-0.9775727933813521,2.2457855511728977,2.4552008271726558,-0.18133597422564335,-0.4677242301803432,0.2101216813660764,0.06466956633979581,0.16354311002617447,0.2984028996490372,-0.063990244070327
-1.29028,-3.15954,2.34694,4.3308100000000005,0.28790000000000004,-0.39825,26.04065,-16.545720000000003,6.360850000000001,27.41279,-0.18612000000000006,-1.5384299999999995,0.18173,-0.15538,0.09349999999999999,0.8566399999999998,-0.15979000000000002,-0.15798999999999996,60.60672,-13.982039999999998,7.834339999999999,25.33125,18.86877,-20.62185,8.048170000000002,-2.8913600000000006,-3.8686999999999996,6.18368,0.7448,1.98913,-0.4434800000000003,1.8780299999999999,-1.0192600000000003,2.5435,0.3948900000000001,1.1011499999999999,-0.01902000000000001,0.34995,-0.0984,0.67444,0.14706000000000002,0.18941000000000002
-5.103475023044164,-3.4231282567536936,2.5594790879586444,0.8981805996356776,-0.16510027855103268,-0.16198210877557556,8.055686364615992,-19.329716891809472,6.383646079378826,18.229144709927468,3.363337810912536,-0.33805455694823816,0.19225184284093197,-0.31947331323111144,0.061188107502469516,0.3598583723119891,0.05282343119363524,-0.01628621949730854,30.431894003394188,-17.854261545900098,8.696067078836883,72.38043763343283,-17.03328534936986,8.783357363971268,2.531042425502623,1.7115127097730667,3.2307060908750675,1.6378752420692326,-0.5790305719294035,-0.5084668941944399,6.434554844492442,-3.1697360953361002,0.9135827433323997,3.3427362111020513,1.3240164509932262,0.4617433902440811,0.86667964952373,-0.5454008212736482,0.11360429890510264,0.6332856147394396,-0.05757919354104503,0.13646712577470643
-6.438856358793024,-1.9093716699264547,1.0707689039961488,0.0639397972358403,1.33336739302242,0.22148022450677746,-11.395017300888636,-10.75464131067969,-0.04963847220861437,15.138871094347405,1.104422174202431,-0.17547500367654198,-0.021236966622352766,-0.4066628259459423,0.08913105220125117,0.8315003425554981,0.18891437392282334,0.08961390464537666,4.6515426677935015,-13.332723393681267,-2.144969224533966,45.93854519235603,14.001447150575657,4.429875830108973,2.388428506835105,-0.5687837925647954,-1.6298073063965217,2.1443034734246225,-0.6260083725642962,0.3283387451189749,3.3475811777485367,0.3209168853024633,-1.379437642017603,1.8913763773381334,1.3339413701312948,0.6940475371043691,0.25404363317024115,0.04481677504999159,-0.1604308274174714,0.09787274719731098,0.12782832315117826,0.12168815451773896
-5.747243668997292,-2.883561630547477,1.6746718826474025,3.358659137860469,-1.5639536645140797,-0.42688325724129694,-7.37468453494168,-10.288020581780678,1.4416136077449107,25.016969671973424,-5.342530297363801,-2.5437191857914017,0.4556509368317505,-0.5377559245575889,0.08928176404657187,0.6444540148101564,-0.3048476842428189,-0.2238243894523068,23.004662563080405,-15.052460557756161,-3.163723708417161,24.278920098082754,30.26871650798162,4.737469568879262,2.71180365918225,-0.49667878651725594,-0.15868388840459965,5.0407629303253065,-0.46602908580371427,1.1465069559190695,5.6063682593663415,-0.86281935696775,-0.6852475980690733,2.659093992172169,0.8451101989646576,0.923905584630059,0.8622648962458717,-0.13222082569227447,-0.09975364188711701,0.34648946482991283,-0.07295305639448421,0.18373638916246826
-6.743758886791618,-2.679335756875951,1.3477495407295037,1.7662633128466338,0.509207274773625,0.06402766170656403,0.07633978445828177,-16.931410120373965,1.6842032817769743,21.295623503409196,-1.7657080123337479,-0.6937720643089035,0.31194146711023524,-0.2675778171402925,-0.041648406077321835,0.09134549105392092,0.053778669704432694,0.050489145668825376,26.85195336375058,-21.732763981049875,-0.11671554049916066,44.17935022103439,-2.772722833780137,-0.3100598697396516,4.416068518357822,1.5525272961394996,0.7017090615339567,6.35661183640067,-0.030620919196108157,-1.3563656821208496,8.375453495374362,-1.2380544498613273,-0.9189548866389978,2.0639626199125667,3.269403097072229,-1.189743295660388,1.527385749637251,0.059894212651077194,-0.36599477811257186,0.3885217231224569,0.3852797966431735,-0.15719198023060107
-4.53830365032265,1.3424377126581706,-1.1537041849244905,1.5129772394511234,1.866017893407768,0.09184078068766176,-13.8627376274213,7.440376174550845,-3.2716422866086665,15.361542540000155,8.998361116799096,1.286003405999454,0.09855375368532764,-0.0746521647146561,0.06532499814596514,0.8938057501044944,0.11664322229145907,0.14955235932847927,-1.1829192131476518,21.0837893839683,-3.8786388933593194,50.847499722900416,19.913140719036992,0.0968069711067148,4.656827017209219,-1.8935510976688406,-1.7060262075288368,-0.3613432819683172,1.1782130940915743,-0.7614032852547612,2.5296903910669872,-0.02738677897255032,-0.7134993067765709,0.284265330392495,1.341313112008196,-0.6671649664101433,0.4605663164744457,-0.16800411356645684,-0.0037349046194411657,-0.10870629835386794,0.46454407278395643,-0.3469353275265159
-5.7162620633305155,1.652562027519387,-1.0003862441096254,2.73016033240359,-1.0987846443050375,-0.49704122277415924,-17.583808522937563,-3.4565862105120795,0.07629079976342781,22.111311611755344,1.7429011453828331,-0.5480568219985267,0.22705590662142267,0.09155306861586182,-0.006935122762289086,0.9343865985550497,-0.23666302305710252,-0.2992924892360961,3.185770257041796,-4.328905560469897,-1.8387816553118008,54.900678186532055,5.34983137546657,1.6853512098504597,3.9874592733987173,-0.7147365264167462,-1.9734310939773307,-0.6528444083946661,0.022326097900380357,0.8173885988445371,0.4802880995740745,1.1040611184692335,-0.7801169532621067,0.7256585056495685,-0.2615003824788751,0.9787439549725425,-0.6150024673864908,0.10850427904484602,0.14099111933003466,-0.015111565491168601,-0.09757677933792205,0.18292735833886617
-6.466259999999999,1.18437,-1.32655,0.8276600000000002,2.87722,0.09066,-5.115749999999999,-9.616830000000002,-1.4098100000000002,16.228249999999996,6.12151,-0.54526,0.023219999999999994,0.021339999999999998,-0.09955,0.5715700000000001,0.13131,0.08037999999999995,12.179899999999996,-3.3550000000000018,-3.1552500000000006,24.678399999999996,-0.03765999999999996,-1.23117,8.538340000000002,2.28885,0.41327999999999987,5.466030000000001,-0.6961999999999999,0.8403200000000004,0.33105,-0.42436,0.2193799999999999,-0.8286399999999998,-0.08956000000000011,-0.3767599999999999,0.30347999999999997,0.22706,-0.24195,-0.08341999999999998,-0.28702000000000005,0.13907000000000003
-4.396502696395609,1.9032534538191777,-1.659908790947057,0.3049948555147168,1.6871435461708595,0.15279285567534096,-4.053242182157836,6.886451216925449,-4.050104416177007,14.331572615629856,1.7422752143371663,-1.4115429972662907,0.15529545814131498,0.031513336537692456,0.01958224121878124,0.36017090370021987,0.23795310918192228,0.17341317674583498,10.172433572037688,13.84283996351881,-6.1151905869565315,53.17852271578817,-0.39860411903259935,-1.6215679585804623,-2.60784174270166,2.8867372791182344,3.128232862974713,-3.526279190060689,-3.543979448889223,-4.008483066439762,1.5883534959017973,-1.5511916706893312,1.316857493511377,-0.4442407413011306,1.9971751053517839,-1.7605135596354389,0.04775923355453995,-0.3411534126881481,0.3437090244676497,-0.34167209903678497,0.2902711245798544,-0.47441019303803006
-4.739734374031187,1.434693474104122,-1.0449322964814638,5.89053073995071,-3.171983920755656,-0.6852405968642987,-16.955651868195567,-0.4474022868499711,-1.2772393158982427,25.233983005737688,-15.800249733081007,-5.549913321210697,0.4845783358846046,-0.15542080762182114,-0.02615452343281383,1.085368562639189,-0.15778664838507875,-0.2745119467476216,4.256499716402026,-24.825338257213122,-10.428235408605863,36.74674684186348,12.326259158599607,7.571564621372874,2.2281520668279935,0.3231421040320739,0.2053886080097025,5.654378161413615,0.7281275814905592,1.0462913437575978,1.4032643562928182,-0.383800092426421,0.12015696510045498,0.5505882937033176,0.9553406277310574,-0.27247395945296854,-0.03429948069206987,-0.10628963117924826,0.11803331422540252,0.12161258659792892,0.17197335735139008,-0.04538468725829687
-6.201967613552456,1.8799898616776192,-1.5139098585451223,-0.47548723947464905,2.8855301534522195,0.48895857792060227,-1.2684786790106375,3.210998779907415,-0.6115893093029553,8.896149417800633,8.712156616501147,3.4765541885726963,0.35657355056612,-0.18231909056985596,-0.13912610730710304,0.9124906555381068,-0.07545112283216818,0.04652185831626897,8.668883084615285,14.724088379396262,7.914462942893611,61.10183664962153,8.452060370694126,4.650391086768889,4.8520976278212835,0.2463584947459519,-1.1601318074993838,5.090972307336913,2.1522730400209835,1.0695720316241588,-0.2556895224081317,0.5880892537140723,-0.6715334730691401,0.4743826349238284,1.185890237446518,-0.35562573189006214,-0.1822722584630307,0.43423183154276823,-0.327226162179804,0.035883256634843444,0.2793623390159097,-0.12016081836340758
-3.3381094650062857,-1.0291829620533033,0.37902119657842653,-1.8871345358688458,2.306763709074168,0.20998723137877776,1.108196224826604,-4.131118379802547,2.0219398580071357,1.0193337654103087,12.577242377048352,-0.022651417770456407,0.2831542027117832,-0.31313073884575576,-0.05698119505076442,0.693543070844762,0.17469094404817806,0.342294628345185,1.6322705606274748,14.292107282420876,5.375618453320598,36.43210176285877,18.635091428825437,-3.5858427037097242,4.834184013020243,-0.3514675745000772,-0.48942578756597055,6.487078335390313,0.1403425517634758,0.9712886734243262,0.09449936055556403,0.3504511592571522,0.1016707980176432,1.6157802318565266,1.3745725149671362,0.01071488861080469,-0.3909814577531438,0.2741855143467465,0.025356194433506354,0.2419378983402239,0.11855695733478054,0.02834282458807763
-3.7758059456416593,-3.85825831024829,1.740465416114261,1.2566129934441195,0.7854631627652393,-0.07023096324925286,-10.282289251859948,-28.73812990418462,1.2354233671871475,10.739551993935486,-0.14082771804306943,-0.2571090455804055,0.5171024558178222,-0.2431907372646318,0.11974196611408865,0.1208365766378154,0.08860335387584198,-0.11849153107102893,0.8134404102971229,-45.16268275918938,1.6937138181675442,24.978871953748722,20.09096016475641,-20.56252838014255,3.75939374262472,-1.0757747293538338,-1.6254966950494827,-0.3561102729485648,-4.05580015487459,-1.804242337314554,-2.557657728823428,0.8645419768372996,-0.22325270889447507,4.0784779745808555,2.165051467455146,0.974190086993358,-0.31506444193634414,-0.06571905714220533,0.051390064670894166,0.6150569546255733,0.11584632570026768,0.22374932552509388
-4.68381844912849,-2.045013107068451,0.651397007244285,-2.5418505082216645,-0.13875307913403012,0.24572748528574645,-4.279570278381661,-5.774279187058563,-0.29625968317853857,10.992388360086885,0.6633265353641055,1.8700330379362442,0.5451868461049024,-0.45696191876478964,-0.018892176360598027,0.13786521937325072,-0.09296656639147177,-0.276788382174018,11.872285841857709,-7.004140733244631,6.176664650937443,65.58680419920363,-10.357323236171492,15.198090407372195,2.878666722499634,2.148457637408959,4.0403443489351805,1.1629411268928491,-0.9910297981674031,-1.2265962002854003,1.1777143321112518,-3.5658229044085883,2.237050323282698,5.226223211756123,2.9422367648857786,0.9021730992781583,-0.04474247610372305,-0.644228164383888,0.32996512952177953,0.6242707447054546,0.3091647697073806,0.040196523979635364
-7.195459999999998,-2.7335900000000004,1.71293,3.8971800000000005,1.1667600000000002,-0.019239999999999965,-28.107349999999997,-11.878229999999999,4.07511,18.00081,2.7405199999999996,0.23739000000000032,0.19026000000000004,-0.3402600000000001,0.016499999999999994,1.16087,0.02232000000000002,0.10953,-14.570409999999999,-11.942509999999999,1.2153000000000005,50.27797999999999,7.081520000000001,14.651880000000004,-3.3284100000000003,1.7258700000000002,3.1121100000000004,6.581209999999999,0.40349000000000035,2.15664,3.9946199999999994,-2.72988,0.84247,1.2018199999999999,0.39369999999999994,0.59973,0.3455500000000001,-0.45962000000000003,0.12636,0.07236999999999999,0.027340000000000003,0.07259000000000002
-3.565603604350116,-0.08541921079441582,0.08387021259213501,4.428926652998605,-0.025247103348794254,-0.38987949613965334,-5.050008654584691,-1.1282005837847384,0.9700252778651957,23.53179441752229,0.7026452275337451,-1.7846813952487484,0.28239968623479306,-0.37110329569714245,0.09419081245696304,0.9010490043391944,-0.16767885519848524,0.008766952501660978,21.48771596232828,1.9035802506561295,-2.6250664208282735,57.18872122596469,16.720141692904512,-16.43022653150884,6.332093905906254,-2.3416509608252514,-3.905915266158492,-0.45123610398232994,-2.184964102806065,-1.0931732673089452,1.3235815515507399,2.29587563256722,-1.8793614452913925,2.548918900101243,1.7179821874807917,0.7570654613135767,-0.09712506305272199,0.5688720493682159,-0.23342851555819483,0.4576444556316214,0.12589543792619765,0.2790953274315769
-3.244060029231185,-2.4407585653367243,0.7991686505569023,-2.9427564825644046,2.532908467776941,0.8551013623700158,-6.94499287905971,-11.252532530676325,0.8672055379371152,-1.0825956219892472,9.127228024094288,4.705236621816499,0.6334028293203617,-0.45315383964461914,-0.053687715487996585,0.27261165339514315,0.10316235286732789,0.14985255975486428,-12.42032752133371,-3.0673991316737585,12.519252600730825,30.922245823188106,12.726850854440904,6.442685965043392,8.760592819780346,0.6065692619608106,1.4602920704320161,7.03046759734792,1.1187691835975253,1.3555450157133295,4.9995861568528,-2.400715578121537,0.9334109568087711,1.7803042930204933,1.4250343507268064,-0.11815840730564509,0.6423202297809798,-0.3470271782321839,0.20438967885376458,0.19340268897927373,0.2888084023635428,-0.14773361600328025
-6.253460633589148,-2.227044493220392,0.7932831504834967,0.5277882894798093,0.3768851003257199,0.10854428235222226,-19.41623247886031,-15.500059473287724,1.3931516491374623,13.103491579493245,0.027101765961285364,0.5822426640618842,0.3872784059584602,-0.3055928661370802,-0.06322964938017694,0.5573451061165362,-0.019452247371153978,-0.13124664537641317,-5.3390021774511585,-22.002185889990226,-0.006032079081549714,33.18107115713709,13.419742325563163,7.214248208436811,3.6289082885298924,-0.0078324055423954,-0.9299417857134865,3.8764971448293903,-1.9589664279457148,-0.05404495851078868,3.9035743028356484,0.02152804751140137,-0.9172516001403109,0.7166560809187771,0.9753101513345691,-0.2604855214907148,0.5149024839735709,0.10564771443431076,-0.11473432757905898,-0.0422449602798134,0.0511350088339347,-0.06631817353853066
-3.886804873646255,1.0588888619924623,-0.3389225405399641,2.6038649674432426,1.6417974278195746,-0.3397034282832862,-4.840827877879853,2.034125447329998,1.1280322837211136,21.130859525485576,5.530114476823776,-3.7549065293116692,0.34845399753974116,-0.3202841985908463,-0.024466878699435403,0.9677283801897576,0.04050038137269738,0.07937669225085364,16.71459833105608,6.879429056882076,-3.079567355570331,41.916206693905366,0.8871836606417596,-4.3566814138093,9.968612189956184,-0.9692073270286067,-2.016701860949606,4.560047765494071,-0.8735887624155564,-0.20587572974160656,7.248758808597831,-0.5433449055556677,-1.5195329635238397,0.6370769808167634,1.3441057829883938,-0.544479753549547,1.5754376779589383,-0.0009520908667532586,-0.2659053066186199,0.2584755021749009,0.03816092990397332,0.07133571874012831
-3.8807251536088323,2.181287949360926,-0.6275793760489088,2.60358603832857,0.6310177443902841,-0.30627110181594575,-10.013338876064743,2.968765694738501,-0.19550500403668541,18.01721989875681,4.969122108637991,-1.4296811719003168,0.49588226604300856,-0.14099348571673684,0.17954674483581157,0.8389170374527284,0.0255045715729219,0.010407351111812473,6.169133427690486,8.514775185672,1.5123066993285084,36.53922249881136,-7.980400727798247,-3.8631284145926275,7.657787723693489,-1.4513945126430647,-2.3566210683000204,6.22619377821014,-1.8461041231374309,0.9400719881706848,3.75184770439167,-0.34462771215772864,-1.4417128164549555,0.2571030587434622,0.45984078408378,-0.30144518354471284,0.8038734790346433,-0.12378514172350409,-0.2446777090231292,-0.2713529817402984,-0.08065042276000758,-0.1342700579614685
-1.8739792280734475,-2.5124848658295806,0.6945373029408445,5.581569760898506,3.423007267933145,0.10856702796220866,-8.06663699488539,-10.901904645894545,0.13121320079227716,31.255877310251222,9.228180455093382,2.6599707257536744,0.45300928433678567,-0.40786011526566884,0.016026413884509805,0.6016458012151407,0.17428798502272494,-0.002280823937692432,24.8968811889973,1.4124922009688943,0.544242146736746,40.26366259000038,4.3633438636607895,-3.44085980238753,3.8817574282161122,-0.706936726734209,-2.0441982355618156,1.7678871329773798,-1.373684200588754,-0.4624715088408346,-0.7253438560766242,0.8506899461924855,-1.0315473759367035,0.0684191171348031,0.6079505848294038,-0.4500745782820552,-0.5890130090685274,0.31812768189147217,-0.2863504156537248,-0.0851581690637093,0.012428368374992654,-0.08902498663019562
-2.6781099999999998,-1.32559,0.44367,0.6138100000000002,5.58488,0.9875700000000001,-11.342349999999996,-2.08156,-0.2021099999999999,8.29295,18.41028,7.072150000000001,0.56383,-0.36149000000000003,0.039369999999999995,0.37344999999999995,0.08652,0.11992999999999998,-6.992469999999997,18.043400000000002,10.01589,72.96919,21.24825,0.65327,2.825249999999999,-0.73633,1.8209099999999994,-0.23279999999999978,-3.639650000000001,-2.6021200000000007,4.19166,-2.6109600000000004,1.02315,-0.17026,1.9394099999999999,-1.15184,0.3526699999999999,-0.48006999999999994,0.30494,-0.09058999999999999,0.21087000000000003,-0.1339
-6.69553443002998,-0.6061647626981352,0.35711271159861646,3.498605032729915,0.7698814143293734,-0.6050283062689217,-14.179785210598016,-2.744045126750975,2.250884737712137,27.27716856203691,11.128178702666135,-1.344899670014696,0.42264960077964864,-0.4317442967587227,-0.14049473585520877,1.1704795767707008,-0.056803869489830065,-0.1168940180539328,18.7830364570536,9.306368927920014,3.2702541017433324,-4.984981209025417,-27.710135825545812,28.758388037328313,4.2150669748267475,2.0876190200186273,3.1417486197131934,11.201416620741478,1.4054112113988322,3.7121172084341034,2.6113580166470025,-2.8985252010112093,1.8214063632264539,-0.9367652464026799,-0.2926790343921148,-0.24014057261169713,0.2252971450332142,-0.558678093737999,0.407399005630935,-0.11126106797483985,-0.09421910974035848,0.038094363889962526
-1.8107751375842651,-0.4861653725914738,0.17294414679348094,4.468897743007357,0.18280870438915334,-0.2212879770164753,2.1382781532323403,-5.629863726952505,1.8390499352739509,32.30790408395071,1.598198634904714,-1.4896195513953583,0.25976314015990093,-0.2172491454670788,-0.06604929601730608,0.6608048627120495,0.1194638102506651,0.11578943533966579,45.84873995319519,-1.0221764346074764,-0.4989734956204654,-11.723696480685717,8.509094359807273,-22.375009791269182,12.12687175054162,-2.0164475871804988,-6.080048239066413,1.8126634228129341,-0.16807755959085824,-1.406083180711888,-3.9625427662150825,4.630373600477539,-2.487711759435594,3.3008681806302804,2.6566173739975087,-0.11068077096375684,-0.7586190039593856,1.2403326915199289,-0.702757044309275,0.39267619816311394,0.3718250016082956,-0.14670537757840338
-2.0170490963730523,-2.3428018574407865,0.6232861125396345,2.496391032422303,1.7922565781734558,0.24477295180120542,-10.823339280960925,-12.643445918649883,0.8643090756045273,23.368847569763556,1.7486385648952085,-0.3905197344103717,0.6132175084458186,-0.4129301474824892,0.02235053806818788,0.426133913494033,-0.11074959358606243,-0.03186784863456299,13.572065743778811,-19.219476611372208,-2.555550006430927,53.39830059350465,16.678682204800143,3.52294426381689,0.24895683129480978,1.176644170711863,0.7752175479838329,1.1469476902339106,-0.552361039892597,0.15562705017946513,4.336630752215319,-0.9110892090602447,-0.38488914584955936,1.797962563513508,0.822232838566057,0.677408564874164,0.4377713130207772,0.1572466494998512,-0.08158040453486898,0.2995289181066081,0.09215460355415563,0.14418048973510308
-3.7871926189217398,2.714912284734851,-0.5548089395721824,-1.2240948085823184,0.8725575922838944,0.222043006102387,-8.925996821150262,7.294678249397636,0.0008526298696019327,12.311540553959206,5.204202101555895,1.0668684208599815,0.39776468606615667,-0.15805449477135639,0.05325778142775148,0.22748759225814347,-0.12701035537480818,-0.21016214460426877,6.9049025701988525,7.897195571077874,2.279613228323497,55.140066475627094,-17.99112364720501,29.19822028051974,-1.2949557465652939,5.430269469811545,10.902838670962602,4.859914907385176,-0.5845229270270632,1.2123173245956456,5.236918311434309,-9.13948988002873,5.278136031271897,2.8377950496221445,1.3430553083965835,1.0632910462157648,0.7270487074702489,-1.6417229677451919,0.9029535688174767,0.36201244476961075,0.12151588825802614,0.19787656335662204
-2.628763983661238,2.191971802709093,-0.42036043697519526,-3.756735591338846,-0.903003876728249,0.2511083735716364,-0.5364671241556018,12.162206178258861,-0.951200950835934,-0.7655530795507872,7.79941788283958,2.53278920407672,0.7113567249027676,-0.33870687988547066,0.12419109943054565,0.13255844298444192,-0.04582394404438121,0.058720583518646535,1.9048781346894161,27.60269070763405,7.8855577197509685,-8.77284343676558,-8.670791968668967,-11.106416032085338,8.74836235994198,-0.5941962636786935,-6.278075015972161,4.23900706847694,1.7315525226082649,0.15567907063191389,-6.095328810587248,5.8600617274202405,-2.5995966733679743,4.491409847610055,2.6161494093938917,0.5097362793980171,-0.7751207295275183,1.0140635256972448,-0.5050608202504024,0.8348862791458376,0.5059806435145329,-0.05460997700940801
1.3832176029384367,1.2437109896135075,-0.5607191136088772,1.74155190577671,0.26924486467106656,-0.02255761554089401,15.190413050888331,8.67816717331848,-3.2294064524924697,23.390429583490693,-2.1928537577249028,-3.79085617648539,0.4135546068313737,-0.07110290896465857,0.1581577735866715,0.27435678541132,0.10406912463865113,0.11887435527341966,55.94691803602404,10.479653909608972,-3.294281636658317,13.362410463136237,-19.533377918117203,-9.053028008733309,2.1966267832605446,1.5060723935527895,-0.3929131687858394,0.06632987580452926,-2.423781919723117,-0.8975031636506845,-0.14299506727164565,0.37487369485012867,-0.511010626215789,1.6326594351783303,0.8879415996888244,0.40339183453261096,-0.5159860911242176,0.39002789849635733,-0.20745577202129575,0.1320278806824055,-0.0058042345589688,0.07387886004037582
-1.9037399999999998,-1.1388199999999997,-0.008929999999999992,-1.4738600000000002,0.12272000000000005,0.2918899999999999,-4.05011,-2.90213,-0.9297700000000002,23.938049999999997,3.3888,-0.95414,0.6079000000000001,-0.3921799999999999,-0.18615999999999994,0.42750000000000005,-0.15583000000000002,-0.09480999999999998,28.35016,2.6836400000000005,-3.615500000000001,31.3354,-9.59834,1.9180699999999993,1.7943800000000003,-0.040749999999999814,1.0502400000000003,5.4486099999999995,0.2596200000000001,1.40672,-1.2687700000000002,-0.55338,1.1749900000000002,0.40224999999999994,0.4103100000000002,0.10378000000000004,-0.16196,-0.26293,0.3226,-0.06844,-0.21056,0.14721
-2.422318299433885,1.673242185155561,-0.2708093596476184,-3.0975372293175316,-1.0018294093675297,0.0441950314781173,-6.650970496347574,3.6767801271399603,1.0900222645855189,15.849019367214062,4.160404718721131,-0.6698126968764859,0.5954451928498902,-0.35184671323054795,-0.03981295670408246,0.1278829084544304,-0.36734041939648626,-0.2244775828506617,18.573329653047942,2.5972281941365383,1.3947055485955804,13.192244902896583,0.8625716629419349,14.62793312624535,4.493749079764501,0.939920549354079,1.9181186216960944,9.898440046368597,1.7682519727730255,1.5849274001780909,1.4568725932399094,-2.309393679358449,1.070661694632112,-0.0016563602948341028,1.708537697580567,-1.3324622718554409,-0.0374055169859918,-0.37669180350595405,0.18319239442010823,0.06350093573712705,0.32692381298305717,-0.26422183115814757
-3.068139055480658,1.087971100553213,-0.10625435261772642,-1.6170789794670084,0.7630103836730089,0.21595076141054276,-5.1511060902140855,0.7353677675639184,0.5278054526483467,6.996629076662586,-1.6343489378904745,-2.808695365281382,0.3057143798404666,-0.17038595934642875,0.028174543230795008,0.02863156040130465,0.0634241355232431,-0.05012178248924128,7.677262585386617,-4.701174361401444,-1.8033624130611756,5.874755445855056,-1.4354312067466435,-4.492446631688499,9.646037265071566,0.5484528818919445,2.1867015327610715,0.043002545431862285,-0.7190451322004245,-0.5153066724893794,3.0428206665297375,-2.650265213387739,1.4920689531296414,2.0033099555544385,1.2104793801273044,0.4953814817831373,0.4564733003458583,-0.271652267065131,0.16406721418386394,0.27842150962922396,0.19180964190386385,0.05108754706867449
-2.775920765583307,-0.873829192189338,0.05568371064620261,-4.536090690523242,1.3665892676225486,0.8304214259278517,-1.141370594961877,-0.5662598460750798,-1.0219004868673136,8.755164342820885,1.0915277775019205,-0.67756305100286,0.3102650221424754,-0.28873989705996744,-0.10150800095320472,-0.2922921004405749,0.25479672821407134,0.040247347526386125,10.774671527798304,-0.6825422334614235,0.7535084648937654,4.350929595224677,-28.09953354036207,12.328984923088901,3.332113459295097,3.7186552046799375,6.212152282517246,3.1392332040988795,-1.4639392672462508,0.10363437860256527,2.3401093021596555,-4.6178501808685555,3.5053121523160833,-1.6635119410333568,0.27241016117226613,-0.9720576180195877,0.3994273612896571,-0.8722117246373917,0.6491678927259501,-0.4902962438106364,-0.02422178272850948,-0.1751041067551584
-0.23629915648304392,-1.018983719280633,0.3132357812812768,-1.7192066182235868,3.0043198149309123,0.6981207179493073,-5.677366969393336,-3.525663548443397,1.121814046181294,18.057543096120646,10.973623401747906,-0.32148299143403763,0.7795044766130796,-0.34883508271950603,0.01668991533040776,0.2799902184650318,0.22420740736182426,0.4325375915707554,19.47936162353347,7.942039018265687,-1.6136078247250394,34.963478557646226,-10.560691395997097,8.980987443662727,4.853782644624087,-0.6689357393207439,-1.249477701706512,6.485371607119264,2.9358538521174604,2.0807397363853655,3.482644969009982,-0.7745680915059636,-1.0768851397587527,-2.3206658908828883,-0.06691615098936257,-1.0608643990710427,0.4488682914130699,-0.11496546453096312,-0.19633364624532482,-0.364786208039668,-0.06383247763726468,-0.07475392307567996
-1.1539121434188826,0.6814469752544308,-0.2675009225741094,1.43581522722615,5.477801676044766,0.7391686060043866,2.8370631199740486,5.349020853977566,-2.529990155961242,9.703776009737163,11.621432810190372,4.211831856992167,0.5752482655444773,-0.2978254045359204,0.1401560245248806,0.32337621859163995,0.5492245411976872,0.43518604602066796,14.97625579100628,17.172195066237464,6.766973027602322,-15.083451728542663,-9.141635722286287,3.37059982696698,2.4672115553447007,1.447339556127059,-1.5534598828584978,7.322299415413885,-0.6691167381169323,2.471147318274581,1.8933539022326642,0.4071700132988442,-1.7856798885487615,0.5682830083535801,-0.2661032857232838,0.4607270778712495,-0.009942894598084659,0.3167595903828308,-0.4779675648111346,0.20753793100626494,-0.08993328886525438,0.14902495525415588
-2.843289420571241,2.341055680558366,-0.46278942541560664,2.800270117981226,1.7054639084364929,-0.46266352057697835,-4.043238738810072,2.0423620059318575,0.2664082537009126,17.063245480442255,4.446784744221772,1.1072188399884115,0.11135288040844642,-0.1689919429738164,-0.013658031273246201,0.7233514639918942,-0.04079173118019447,-0.4089426930637616,18.406236076351888,0.6615146907568377,2.174454237528332,27.875985524695814,-19.73642229943768,1.1759790552132663,10.226480079890997,1.37972969131754,2.218663670765264,-0.8558787094354161,-3.1813621608986185,-1.8920357445050713,4.314525321729272,-3.3258951420303684,1.3429014224022575,3.5431321176417083,1.8727193557229087,0.5505237087447604,0.8584920651789707,-0.45183043862173633,0.13186474716058613,0.57384710371119,0.2274016863129098,0.0696864962459406
-2.3013499999999993,-1.4224499999999995,0.5110300000000001,1.1961500000000003,-0.5912199999999999,-0.4725800000000001,-7.257669999999999,-8.70813,2.59938,29.88239,1.2504499999999992,-4.10264,0.53989,-0.22510000000000005,-0.06859,0.49547,-0.26154,-0.1835,36.49614,-12.745620000000002,-7.48103,6.2522600000000015,-17.19571,-9.63789,6.98234,-3.8882,-4.95544,0.8494799999999993,0.32986,0.7655399999999997,0.6163699999999999,2.7423000000000006,-1.9452,0.5542200000000002,-0.4711000000000001,0.54462,0.30227999999999994,0.32548000000000005,-0.12969999999999998,0.005220000000000016,-0.2317,0.14068999999999998
-1.9495383953349792,-1.6539974737213703,0.4299309007942415,0.7822946487344754,-0.03101629404150254,-0.7100904419314219,-5.554382789306078,-9.450658038453934,1.4918902117842063,-3.132831931889304,8.110887388383865,3.196353233599472,0.5551800309549827,-0.18680824521576758,-0.06555647341544973,0.6663089098200375,-0.3425126248578164,-0.5775723626357668,-14.147772943010663,-5.438925031332369,9.811596510587417,-8.452897013520682,-13.741488836954641,7.323019684446512,7.29752869364701,2.439900337886455,3.4876834864498183,8.53631057553985,-0.6035164261058579,1.9938364794774026,5.270762850232109,-3.861233600802094,1.448829883770662,0.2387446841179529,0.4221877252994988,-0.2224749022062,0.406086391375735,-0.09169632092255764,-0.033040647182405604,-0.12583161871811968,0.0848165343343887,-0.12298178091390943
0.5386022536366387,1.5386481506673177,-0.675377215735414,9.839783646770945,1.8247641519640139,-1.4207688489569852,3.8316987463646837,8.573634918588054,-4.0697209350094825,26.603768079027592,9.616497547345077,1.4244217696274468,0.6663115726310137,-0.3500286742586712,0.14951802227941952,1.7543419177381547,0.10593093929319686,-0.007875399543745689,36.50418867184554,23.024652643695575,2.425831490275926,12.730872340846505,-2.4616233094129063,9.406702082643594,6.486902901786595,-1.0168460967254884,-1.9410325624461708,5.447116211598935,1.7192013035289675,1.6067544956181659,0.7078817901203027,0.03975117400097327,-0.6987219815660305,2.5300219248014497,1.095653891476892,0.719594047271792,-0.08784098200753347,-0.1527969823663102,0.011931854534297645,0.4077826603235298,0.09207344436257434,0.1728374227706749
-0.9419868499718689,2.161727948055917,-0.5011134297246066,8.321188349449743,4.446668682400549,-0.7514629644830779,10.201016376318618,9.297918930077529,-0.6478267503060828,31.78404484693972,14.634081564504362,2.9337883364950463,0.4310231189643528,-0.29185478640244483,0.013774429775113683,1.2923330703062894,0.3739245853636131,0.5299850195028395,60.65155126367197,23.958992786853255,7.754267065043303,-10.675463567782813,3.0433759302485646,2.4696321776935757,3.792185203452403,-0.08475015344802686,-3.9732268451407413,6.218229203234046,-3.6393896733159585,0.6684252240805063,-0.5796550004667479,3.148752253707303,-1.9730195781572235,0.8344470131477981,0.14436723957650616,-0.09054591067871125,0.18452568200686081,0.3399746651983826,-0.1942460704039805,0.10922834045301781,-0.1330279356052174,0.001496210566746871
-3.0211752644772596,-0.16923044670420664,0.3533865972477426,4.95303765087279,3.396822153966249,-0.6136350052612334,-7.615920252231789,-0.781231393303277,1.9277635400705144,29.45004434669188,6.324891339062537,-0.495058804547984,0.6327787317194234,-0.24394863671757913,-0.002259063967148549,1.0755277059704205,0.0839991052777968,0.05845069059100858,24.062914833048488,2.0618054979179967,-0.09313018734940204,5.279716744426136,-18.498865539154576,-8.989666708115612,8.80368347103985,1.3971381557806588,-1.9851622639544246,3.34858499191677,-0.2020002500650855,0.18060079693864975,1.8570886581097903,0.7750214762706397,-1.3179625824253898,3.749145299869744,1.4933272559949553,0.6734265789453994,0.08942236809808783,0.5234610799819666,-0.414631662493726,0.5292211474797411,0.19403703310339526,0.022524339255634712
-2.970874983329841,-0.8457465710198124,0.04595272213637999,3.753750839965463,3.528825739573803,-0.6610762777456051,-10.39448070498026,-4.826802639551384,-1.0788781680274493,39.12222146994448,7.379024037464587,-2.782579735787679,0.3888052796672634,-0.30140456797458487,-0.0321297234174222,0.34872320887028374,0.22880703236709407,0.10864587470033085,36.29647153494529,5.7065405034632075,-9.405460402793713,17.884829535836516,-30.96931266063115,6.7133966712930615,4.718885683351542,0.9208020166513864,4.697538305359099,6.605927683547942,1.1707805908071496,-0.2779285525387768,1.4146945619604276,-5.203356306846829,2.8912266859519233,2.6066690249653717,3.1884083938633734,-0.5517090550604585,0.061502335946833755,-0.8556140582091555,0.4129627306376569,0.2863678352923935,0.44002034415473806,-0.07909908300384272
-0.3230709838136935,0.40742121005061005,-0.3193196829216516,-2.4418837169654295,3.1061901396548817,0.42086667184335214,2.9721373170386847,2.2374604613248312,-0.6493898721855718,16.547616495992894,14.728482846787088,4.556042647796582,0.549175714803268,-0.3949353195919342,-0.10269874137946187,0.47975311398495735,0.08156095919409936,-0.0754938925563942,31.61234075403021,20.023562865160965,7.4831369224790985,17.854964351522597,-5.09819813530093,-2.565907198787595,4.088557578528614,-0.5767534905052394,-0.7647549012067076,4.37671479516415,-1.7131720863102116,-0.6015593584816649,-1.6039156391877076,0.7597593539300109,0.3284217727199659,0.12700157666111897,1.6636563398179771,-0.8099166184757433,-0.1539303491325557,0.11507658682721099,0.06054231073676637,-0.0811090714866107,0.16599221702369235,-0.059987453264363694
-2.1727099999999995,0.8306900000000002,-0.05278000000000002,-2.45193,2.24957,0.7318499999999999,-4.509589999999999,5.3464,0.11545999999999997,14.070739999999999,7.533190000000001,5.64763,0.30613,-0.16260999999999995,0.014010000000000007,0.15377999999999994,0.006620000000000011,-0.1187,11.75784,16.72092,8.015189999999999,18.08611,-2.8085099999999996,1.0310599999999996,8.90993,-0.03877000000000011,-0.13898000000000055,6.948039999999999,-2.0986499999999997,-0.19369999999999996,1.7430199999999996,-1.0678399999999995,0.3997999999999997,0.71221,1.21564,-0.9248099999999999,0.19502,-0.16539,0.13476,0.14246999999999999,-0.03329000000000001,-0.07488999999999998
-3.3279921746261167,-0.5418606774387922,0.3718494302823537,3.2787801694845204,1.3229995769645306,-0.7436260253107901,-8.799648435362414,-7.094629884345752,1.978052698453276,17.37117796812584,10.608210451580822,0.17470818795101928,0.5924988136658109,-0.1681518042687183,0.009560040800240168,1.0104535497924187,-0.2467278581229907,-0.0781948849258057,8.14503391644937,3.866200440804285,4.678561341749951,3.6226643672889876,-19.02712022838958,11.783841852897993,10.095425774336373,2.1111563314755153,3.4484943007623845,7.04435891056772,-0.8610761470789842,0.3048136651998993,0.8088790685131271,-4.149527233315766,2.188301510346028,0.6058273699957898,1.4314664913616468,-0.8636282586598768,-0.15822092512773703,-0.5607055022390757,0.29092070256193897,0.10039076737735442,0.17375528887811328,-0.1480672264483013
0.4115150049207033,-0.040804409677867595,0.2509134881020247,2.445583039007154,3.31827587074253,0.07527222488692746,5.62076965288175,0.007472007229792028,1.2230662413444784,12.263326850123459,22.76645684981235,9.51759895654901,0.7988010275386812,-0.41756189784664804,0.2430509809896587,0.9730846565700566,0.005551062352503552,0.15303402162380028,20.565864227458945,25.984482644522593,20.542085315222433,30.90544651778289,-32.54443766139134,16.602668756580726,0.06617328288570971,1.108471379234497,3.192049948512843,2.90977002322353,-1.0241071715850774,1.442352653189187,0.19725457841921756,-2.5324294260360065,1.595944416682424,1.0416788094914864,0.03787750930856081,1.1527024050210413,0.019182081865595495,-0.3044761593803029,0.16758949954554808,-0.08118379128819433,-0.17848120159973294,0.2901186443494573
-5.277530346876588,0.4936255450665228,-0.38597946784940407,1.9677831648823145,-1.2150508152729211,0.126282016428116,-9.527740799330232,2.8137373085119415,-1.356241457445094,31.860221660256325,-10.362099322849582,-3.1501783565682593,0.09329062670083271,-0.3151980872519409,-0.2473209311245492,0.6673356981364525,0.07173122881470524,0.01974442605668461,35.26682917291891,-6.717323070934058,-8.470030189250492,10.450585828992937,-6.671934463054954,-5.118328161626037,5.750672097084504,-1.9466554811723231,-2.59796810739309,5.3793538023806295,-0.021874067674128226,0.782589983240189,0.0835057118378756,0.9903053331315609,-0.6849241621068907,0.9701053535584204,1.0713943541458755,-0.17672553837467372,-0.006790221262261443,0.08598942965991463,-0.047147758311946265,0.09302540522913931,0.08828822618623051,-0.017254166053065678
-3.9657628186644867,-0.11180434804943412,0.2784093582653041,1.9819913025893297,-1.260231574505405,-0.956929843516825,-13.699470764999685,-3.8168017392133033,2.0164542692083183,30.651819067416252,-8.18488371457906,-9.742024904617926,0.5201248402225028,-0.21285449750027632,-0.04738188079306119,0.7876196838066096,-0.2243669752939568,-0.32786166190033855,20.453791577025914,-15.054221746141286,-14.796664268485884,17.165756201770467,13.208831220789904,-0.2384784260627557,6.175348255600014,1.5975217408095517,0.2961737375374818,5.963606397105837,-0.9097131026647888,0.2702485438401389,1.4074227373995023,-0.8308950237820819,-0.14667389860245436,2.081680461335542,1.6398801641195406,-0.12155746963047619,0.13172079217127022,0.018600326681229823,-0.0964498035644097,0.43172564055080587,0.22357663123980906,-0.01471036087137099
-0.2651067642652774,0.6155519284578231,-0.12520160639281921,-0.7765568660546734,5.199815442744838,0.34443014068573513,0.9975075045052765,0.7852823224038201,-0.33533134715956614,15.847160653490244,16.57297716748173,3.2585447267648973,0.5647297758493965,-0.17778405961889737,0.15517958935097154,0.3393505610309533,0.1895363402031969,0.17086065929248112,19.580722512327863,19.014992664466323,6.49267764496325,8.168185908078216,-35.358959618490914,17.781555450735645,2.2462773342779796,2.70030720865299,4.087312995879043,8.283710344806634,0.03680821146868113,2.5110333343394284,4.064070098625362,-3.863530354291519,1.0313931205884321,1.8984690984222263,0.172905799188982,0.5308236678184184,0.4583165756573178,-0.4402360922429933,0.13412812189032114,0.42229847633396894,-0.033605624760976574,0.09642456088805516
1.8001044760138347,0.636538997612352,-0.570497147980036,-0.22403420011919495,5.0296645761276695,0.2769510262220539,8.202788565904678,4.475166033447289,-2.56217031923896,13.744117744081624,13.41608576628051,2.8296322977233954,0.7113484923291786,-0.3368916208105841,0.04426118547565194,0.42320530027123776,0.22464742559715034,0.13303175081853472,27.042048595685394,21.426264141584745,4.386416512105742,13.549197022313715,-14.918930299771604,1.5225236002723304,7.57076738838943,-2.4669877666624,-1.449437321325222,6.734928468346317,-1.1956846242082886,0.9461418370580356,2.7474421937303815,-1.6123429254341706,-0.5594788351858634,1.6978819590995435,1.0070258700643295,0.11204925204174643,0.36640155935405816,-0.44668272952784494,-0.04483149621877146,0.13506035568658026,-0.02031901369488832,0.02459557835712874
-4.31811,-0.05484,-0.20522,4.65585,1.11144,-0.18051,0.56538,-2.41326,-1.65954,32.62151,1.63634,1.38606,0.41705,-0.33879,0.03925,0.6841,0.09547,-0.01908,42.71687,-0.73373,1.37513,18.20157,-0.03109,5.91117,3.47721,0.24393,-0.57286,2.74714,-1.01503,0.01817,1.85242,0.2189,-0.47223,1.18901,0.74234,0.03736,0.06546,0.36867,-0.08787,0.11726,0.12939,-0.07247
,,,,,,,,,,,,,,,,,,,,,,,,,,,,,,,,,,,,,,,,,
,,,,,,,,,,,,,,,,,,,,,,,,,,,,,,,,,,,,,,,,,
,,,,,,,,,,,,,,,,,,,,,,,,,,,,,,,,,,,,,,,,,
,,,,,,,,,,,,,,,,,,,,,,,,,,,,,,,,,,,,,,,,,
,,,,,,,,,,,,,,,,,,,,,,,,,,,,,,,,,,,,,,,,,
,,,,,,,,,,,,,,,,,,,,,,,,,,,,,,,,,,,,,,,,,
,,,,,,,,,,,,,,,,,,,,,,,,,,,,,,,,,,,,,,,,,
,,,,,,,,,,,,,,,,,,,,,,,,,,,,,,,,,,,,,,,,,
,,,,,,,,,,,,,,,,,,,,,,,,,,,,,,,,,,,,,,,,,
,,,,,,,,,,,,,,,,,,,,,,,,,,,,,,,,,,,,,,,,,
,,,,,,,,,,,,,,,,,,,,,,,,,,,,,,,,,,,,,,,,,
,,,,,,,,,,,,,,,,,,,,,,,,,,,,,,,,,,,,,,,,,
,,,,,,,,,,,,,,,,,,,,,,,,,,,,,,,,,,,,,,,,,
,,,,,,,,,,,,,,,,,,,,,,,,,,,,,,,,,,,,,,,,,
,,,,,,,,,,,,,,,,,,,,,,,,,,,,,,,,,,,,,,,,,
,,,,,,,,,,,,,,,,,,,,,,,,,,,,,,,,,,,,,,,,,
,,,,,,,,,,,,,,,,,,,,,,,,,,,,,,,,,,,,,,,,,
,,,,,,,,,,,,,,,,,,,,,,,,,,,,,,,,,,,,,,,,,
,,,,,,,,,,,,,,,,,,,,,,,,,,,,,,,,,,,,,,,,,
,,,,,,,,,,,,,,,,,,,,,,,,,,,,,,,,,,,,,,,,,
,,,,,,,,,,,,,,,,,,,,,,,,,,,,,,,,,,,,,,,,,
,,,,,,,,,,,,,,,,,,,,,,,,,,,,,,,,,,,,,,,,,
,,,,,,,,,,,,,,,,,,,,,,,,,,,,,,,,,,,,,,,,,
,,,,,,,,,,,,,,,,,,,,,,,,,,,,,,,,,,,,,,,,,
,,,,,,,,,,,,,,,,,,,,,,,,,,,,,,,,,,,,,,,,,
,,,,,,,,,,,,,,,,,,,,,,,,,,,,,,,,,,,,,,,,,
,,,,,,,,,,,,,,,,,,,,,,,,,,,,,,,,,,,,,,,,,
,,,,,,,,,,,,,,,,,,,,,,,,,,,,,,,,,,,,,,,,,
,,,,,,,,,,,,,,,,,,,,,,,,,,,,,,,,,,,,,,,,,
,,,,,,,,,,,,,,,,,,,,,,,,,,,,,,,,,,,,,,,,,
,,,,,,,,,,,,,,,,,,,,,,,,,,,,,,,,,,,,,,,,,
,,,,,,,,,,,,,,,,,,,,,,,,,,,,,,,,,,,,,,,,,
,,,,,,,,,,,,,,,,,,,,,,,,,,,,,,,,,,,,,,,,,
,,,,,,,,,,,,,,,,,,,,,,,,,,,,,,,,,,,,,,,,,
,,,,,,,,,,,,,,,,,,,,,,,,,,,,,,,,,,,,,,,,,
,,,,,,,,,,,,,,,,,,,,,,,,,,,,,,,,,,,,,,,,,
,,,,,,,,,,,,,,,,,,,,,,,,,,,,,,,,,,,,,,,,,
,,,,,,,,,,,,,,,,,,,,,,,,,,,,,,,,,,,,,,,,,
,,,,,,,,,,,,,,,,,,,,,,,,,,,,,,,,,,,,,,,,,
,,,,,,,,,,,,,,,,,,,,,,,,,,,,,,,,,,,,,,,,,
,,,,,,,,,,,,,,,,,,,,,,,,,,,,,,,,,,,,,,,,,
,,,,,,,,,,,,,,,,,,,,,,,,,,,,,,,,,,,,,,,,,
,,,,,,,,,,,,,,,,,,,,,,,,,,,,,,,,,,,,,,,,,
,,,,,,,,,,,,,,,,,,,,,,,,,,,,,,,,,,,,,,,,,
,,,,,,,,,,,,,,,,,,,,,,,,,,,,,,,,,,,,,,,,,
,,,,,,,,,,,,,,,,,,,,,,,,,,,,,,,,,,,,,,,,,
,,,,,,,,,,,,,,,,,,,,,,,,,,,,,,,,,,,,,,,,,
,,,,,,,,,,,,,,,,,,,,,,,,,,,,,,,,,,,,,,,,,
,,,,,,,,,,,,,,,,,,,,,,,,,,,,,,,,,,,,,,,,,
,,,,,,,,,,,,,,,,,,,,,,,,,,,,,,,,,,,,,,,,,
,,,,,,,,,,,,,,,,,,,,,,,,,,,,,,,,,,,,,,,,,
,,,,,,,,,,,,,,,,,,,,,,,,,,,,,,,,,,,,,,,,,
,,,,,,,,,,,,,,,,,,,,,,,,,,,,,,,,,,,,,,,,,
,,,,,,,,,,,,,,,,,,,,,,,,,,,,,,,,,,,,,,,,,
,,,,,,,,,,,,,,,,,,,,,,,,,,,,,,,,,,,,,,,,,
,,,,,,,,,,,,,,,,,,,,,,,,,,,,,,,,,,,,,,,,,
,,,,,,,,,,,,,,,,,,,,,,,,,,,,,,,,,,,,,,,,,
,,,,,,,,,,,,,,,,,,,,,,,,,,,,,,,,,,,,,,,,,
,,,,,,,,,,,,,,,,,,,,,,,,,,,,,,,,,,,,,,,,,
,,,,,,,,,,,,,,,,,,,,,,,,,,,,,,,,,,,,,,,,,
,,,,,,,,,,,,,,,,,,,,,,,,,,,,,,,,,,,,,,,,,
,,,,,,,,,,,,,,,,,,,,,,,,,,,,,,,,,,,,,,,,,
,,,,,,,,,,,,,,,,,,,,,,,,,,,,,,,,,,,,,,,,,
,,,,,,,,,,,,,,,,,,,,,,,,,,,,,,,,,,,,,,,,,
,,,,,,,,,,,,,,,,,,,,,,,,,,,,,,,,,,,,,,,,,
,,,,,,,,,,,,,,,,,,,,,,,,,,,,,,,,,,,,,,,,,
,,,,,,,,,,,,,,,,,,,,,,,,,,,,,,,,,,,,,,,,,
,,,,,,,,,,,,,,,,,,,,,,,,,,,,,,,,,,,,,,,,,
,,,,,,,,,,,,,,,,,,,,,,,,,,,,,,,,,,,,,,,,,
,,,,,,,,,,,,,,,,,,,,,,,,,,,,,,,,,,,,,,,,,
,,,,,,,,,,,,,,,,,,,,,,,,,,,,,,,,,,,,,,,,,
,,,,,,,,,,,,,,,,,,,,,,,,,,,,,,,,,,,,,,,,,
,,,,,,,,,,,,,,,,,,,,,,,,,,,,,,,,,,,,,,,,,
,,,,,,,,,,,,,,,,,,,,,,,,,,,,,,,,,,,,,,,,,
,,,,,,,,,,,,,,,,,,,,,,,,,,,,,,,,,,,,,,,,,
,,,,,,,,,,,,,,,,,,,,,,,,,,,,,,,,,,,,,,,,,
,,,,,,,,,,,,,,,,,,,,,,,,,,,,,,,,,,,,,,,,,
,,,,,,,,,,,,,,,,,,,,,,,,,,,,,,,,,,,,,,,,,
,,,,,,,,,,,,,,,,,,,,,,,,,,,,,,,,,,,,,,,,,
,,,,,,,,,,,,,,,,,,,,,,,,,,,,,,,,,,,,,,,,,
,,,,,,,,,,,,,,,,,,,,,,,,,,,,,,,,,,,,,,,,,
,,,,,,,,,,,,,,,,,,,,,,,,,,,,,,,,,,,,,,,,,
,,,,,,,,,,,,,,,,,,,,,,,,,,,,,,,,,,,,,,,,,
,,,,,,,,,,,,,,,,,,,,,,,,,,,,,,,,,,,,,,,,,
,,,,,,,,,,,,,,,,,,,,,,,,,,,,,,,,,,,,,,,,,
,,,,,,,,,,,,,,,,,,,,,,,,,,,,,,,,,,,,,,,,,
,,,,,,,,,,,,,,,,,,,,,,,,,,,,,,,,,,,,,,,,,
,,,,,,,,,,,,,,,,,,,,,,,,,,,,,,,,,,,,,,,,,
,,,,,,,,,,,,,,,,,,,,,,,,,,,,,,,,,,,,,,,,,
,,,,,,,,,,,,,,,,,,,,,,,,,,,,,,,,,,,,,,,,,
,,,,,,,,,,,,,,,,,,,,,,,,,,,,,,,,,,,,,,,,,
,,,,,,,,,,,,,,,,,,,,,,,,,,,,,,,,,,,,,,,,,
,,,,,,,,,,,,,,,,,,,,,,,,,,,,,,,,,,,,,,,,,
,,,,,,,,,,,,,,,,,,,,,,,,,,,,,,,,,,,,,,,,,
,,,,,,,,,,,,,,,,,,,,,,,,,,,,,,,,,,,,,,,,,
,,,,,,,,,,,,,,,,,,,,,,,,,,,,,,,,,,,,,,,,,
,,,,,,,,,,,,,,,,,,,,,,,,,,,,,,,,,,,,,,,,,
,,,,,,,,,,,,,,,,,,,,,,,,,,,,,,,,,,,,,,,,,
,,,,,,,,,,,,,,,,,,,,,,,,,,,,,,,,,,,,,,,,,
,,,,,,,,,,,,,,,,,,,,,,,,,,,,,,,,,,,,,,,,,
,,,,,,,,,,,,,,,,,,,,,,,,,,,,,,,,,,,,,,,,,
,,,,,,,,,,,,,,,,,,,,,,,,,,,,,,,,,,,,,,,,,
,,,,,,,,,,,,,,,,,,,,,,,,,,,,,,,,,,,,,,,,,
,,,,,,,,,,,,,,,,,,,,,,,,,,,,,,,,,,,,,,,,,
,,,,,,,,,,,,,,,,,,,,,,,,,,,,,,,,,,,,,,,,,
,,,,,,,,,,,,,,,,,,,,,,,,,,,,,,,,,,,,,,,,,
,,,,,,,,,,,,,,,,,,,,,,,,,,,,,,,,,,,,,,,,,
,,,,,,,,,,,,,,,,,,,,,,,,,,,,,,,,,,,,,,,,,
,,,,,,,,,,,,,,,,,,,,,,,,,,,,,,,,,,,,,,,,,
,,,,,,,,,,,,,,,,,,,,,,,,,,,,,,,,,,,,,,,,,
,,,,,,,,,,,,,,,,,,,,,,,,,,,,,,,,,,,,,,,,,
,,,,,,,,,,,,,,,,,,,,,,,,,,,,,,,,,,,,,,,,,
,,,,,,,,,,,,,,,,,,,,,,,,,,,,,,,,,,,,,,,,,
,,,,,,,,,,,,,,,,,,,,,,,,,,,,,,,,,,,,,,,,,
,,,,,,,,,,,,,,,,,,,,,,,,,,,,,,,,,,,,,,,,,
,,,,,,,,,,,,,,,,,,,,,,,,,,,,,,,,,,,,,,,,,
