PaulMeinheit/Bachelor_Muay_Thai/processed_Data/N1/roundhouse/sliced/JointMoments/sliced0.csv
Unnamed: 0_level_0,R_KNEE_MOMENT,R_KNEE_MOMENT,R_KNEE_MOMENT,L_KNEE_MOMENT,L_KNEE_MOMENT,L_KNEE_MOMENT,R_HIP_MOMENT,R_HIP_MOMENT,R_HIP_MOMENT,L_HIP_MOMENT,L_HIP_MOMENT,L_HIP_MOMENT,R_ANKLE_MOMENT,R_ANKLE_MOMENT,R_ANKLE_MOMENT,L_ANKLE_MOMENT,L_ANKLE_MOMENT,L_ANKLE_MOMENT,WAIST_JOINT_MOMENT,WAIST_JOINT_MOMENT,WAIST_JOINT_MOMENT,NECK_MOMENT,NECK_MOMENT,NECK_MOMENT,L_SHOULDER_MOMENT,L_SHOULDER_MOMENT,L_SHOULDER_MOMENT,R_SHOULDER_MOMENT,R_SHOULDER_MOMENT,R_SHOULDER_MOMENT,L_ELBOW_MOMENT,L_ELBOW_MOMENT,L_ELBOW_MOMENT,R_ELBOW_MOMENT,R_ELBOW_MOMENT,R_ELBOW_MOMENT,L_WRIST_MOMENT,L_WRIST_MOMENT,L_WRIST_MOMENT,R_WRIST_MOMENT,R_WRIST_MOMENT,R_WRIST_MOMENT
ITEM,X,Y,Z,X,Y,Z,X,Y,Z,X,Y,Z,X,Y,Z,X,Y,Z,X,Y,Z,X,Y,Z,X,Y,Z,X,Y,Z,X,Y,Z,X,Y,Z,X,Y,Z,X,Y,Z
445,-10.10192,-1.98714,1.0228,3.5545,-2.59487,-0.14863,-25.34836,-7.66787,-2.95593,15.24271,-10.90545,-2.14921,-0.21496,-0.44078,-0.17833,0.768,0.02437,-0.00336,-11.07874,-26.45887,-12.23199,51.31485,40.24725,-9.641,0.49681,0.50652,-2.25691,2.11048,-1.63042,-1.85741,-1.76565,3.27388,-0.66999,2.39676,2.7032,0.52801,-0.3158,0.8071,-0.10849,0.38906,0.42954,0.11758
446,-8.80471,1.07633,-1.07931,1.13551,-0.31467,0.27415,-18.56254,7.83796,-3.04245,12.30595,-2.56026,0.36466,-0.25443,-0.27583,-0.0846,0.63174,0.09772,0.17587,-3.44819,9.62434,-7.05979,39.83888,36.87476,-0.07198,0.8369,0.30258,-1.97954,3.72655,-1.49681,-0.83972,-1.03454,2.87767,-0.42751,2.18161,2.09186,0.51268,-0.10463,0.55747,0.01218,0.3801,0.29752,0.12344
447,-7.71547,2.37896,-1.97274,0.25807,1.38653,0.32873,-17.60695,14.30526,-3.70136,13.85327,6.71387,2.00848,-0.21927,-0.16785,-0.0144,0.56936,0.00466,0.14028,-1.07668,35.90453,-6.24411,41.614,20.88474,7.109,3.62569,-0.83429,-0.58997,3.87586,-2.22507,-0.93068,1.12974,0.14156,0.04751,1.8409,1.35499,0.23563,0.20366,-0.05734,0.1082,0.31503,0.07964,0.05288
448,-7.79329,1.50812,-1.3419,0.65279,1.36537,-0.00695,-21.38269,6.45858,-4.3613,12.31965,7.72297,0.84507,-0.14632,-0.12895,0.01647,0.6055,-0.13953,-0.04785,-10.33485,25.88156,-9.11657,49.70932,5.62548,8.40711,5.13733,-1.59234,1.16047,3.73208,-2.32069,-0.70448,2.70725,-2.83971,0.44171,1.61696,0.63318,0.12042,0.3733,-0.58931,0.08915,0.27631,-0.0782,0.00977
449,-8.57948,0.42662,-0.43451,1.18474,0.4901,-0.3576,-23.14054,-8.11713,-4.04204,5.47887,0.75314,-2.10827,-0.11672,0.00446,0.01781,0.75992,-0.16598,-0.16465,-23.43815,-9.94022,-11.61902,57.34875,0.51811,4.25582,5.13126,-1.32768,2.38859,3.95974,-1.29923,0.03879,3.1377,-4.48018,0.52631,1.58066,0.57795,0.2767,0.36678,-0.81962,-0.00216,0.2392,-0.03802,0.03051
450,-8.59089,0.53315,-0.22708,0.95458,-0.06772,-0.37939,-19.31843,-16.44517,-2.41945,-1.998,-5.58129,-3.63856,-0.14998,0.24683,0.0093,0.91551,-0.06281,-0.10848,-29.08862,-34.46476,-8.98782,56.52254,7.23151,0.92474,4.98178,-0.68056,2.23262,5.01707,0.06653,0.73187,2.72235,-4.08462,0.28915,1.27126,1.27903,0.2396,0.22148,-0.71726,-0.05354,0.15163,0.17263,0.03024
451,-7.14843,1.37193,-0.62612,-0.39324,0.14685,-0.08188,-11.70588,-11.92369,-0.42371,-6.36431,-3.74592,-1.82173,-0.14923,0.34554,0.03272,0.83412,0.07309,0.02361,-24.5424,-23.27539,0.28603,37.98969,22.25331,2.45362,5.31325,-0.54677,0.67284,6.60603,0.51773,1.0315,1.90096,-2.08242,-0.10505,0.30611,1.77992,-0.31189,0.02937,-0.34552,-0.03515,0.01192,0.34247,-0.07018
452,-5.08012,1.76567,-0.99423,-1.5995,0.67636,0.17832,-4.56015,-2.47925,0.24402,-3.71452,2.69293,0.96169,0.00253,0.17981,0.1038,0.56083,0.14216,0.06838,-10.79045,3.26927,7.75714,16.7428,37.05928,2.90673,5.79861,-0.65798,-0.86877,6.68995,-0.66201,0.39062,1.10578,0.0595,-0.35572,-0.47312,1.6164,-0.84032,-0.06721,0.10845,-0.00625,-0.08912,0.32311,-0.18352
453,-3.07107,1.5396,-1.04334,-0.14991,1.02461,0.12694,0.31249,0.20211,-0.96953,9.20034,5.68106,1.52911,0.33564,-0.00154,0.20683,0.49074,0.11052,-0.02072,12.48302,11.40154,4.40187,20.91909,38.61542,-4.54202,5.97364,-0.63996,-1.29027,4.62042,-2.44277,-0.98147,0.36642,1.15797,-0.23347,0.08492,1.37267,-0.59217,-0.04521,0.37608,0.01638,-0.03414,0.17943,-0.14005
454,-1.19595,1.16867,-0.81583,3.18538,0.86673,-0.08995,3.13695,-4.33296,-2.50602,22.75828,3.52903,0.33476,0.72674,0.01336,0.31861,0.67802,0.02501,-0.13151,32.41839,-0.78012,-5.0784,45.40572,23.24968,-15.90402,5.89126,-1.08923,-1.28511,2.81545,-2.93871,-1.70809,-0.43909,1.34845,0.07427,1.67197,1.60696,0.29497,-0.01799,0.35304,0.05854,0.19428,0.08505,0.07253
455,-0.68009,0.86721,-0.50715,4.03144,0.24061,-0.12736,1.15491,-8.02496,-2.91447,21.9711,-0.50306,-0.50499,0.89399,0.11795,0.355,0.71682,-0.01778,-0.10683,27.67724,-12.94218,-10.37519,61.00457,7.36466,-20.621,5.61064,-1.96024,-1.31762,2.50536,-2.0955,-1.51248,-0.53787,0.79641,0.22002,2.99435,2.17775,1.03372,-0.00047,0.10649,0.09753,0.43882,0.1349,0.26941
456,-3.25086,0.79982,-0.53425,0.52466,0.17969,0.17563,-8.49655,-6.2871,-2.68878,6.32652,-2.87662,-0.13377,0.64116,0.13511,0.20753,0.44957,0.0751,0.10002,-4.18695,-13.50491,-8.36438,57.56604,7.89815,-12.54861,4.40119,-2.00439,-0.73587,2.45926,-1.54807,-1.35174,1.16261,-0.69284,0.01701,3.04465,2.3659,1.05699,0.10543,-0.22112,0.06624,0.45408,0.22342,0.26782
457,-7.24095,0.75847,-0.80511,-3.34625,1.07778,0.58156,-20.36793,-1.63008,-2.27675,-7.72455,-1.80912,1.01438,0.21223,-0.00924,-0.06097,0.25842,0.24482,0.32966,-35.73909,-4.12747,-2.48314,45.65583,19.60929,3.51123,2.53088,-1.07803,0.02231,2.82269,-1.68011,-1.14751,3.89906,-2.13664,-0.5656,1.59591,1.73278,0.30402,0.29559,-0.38113,-0.06763,0.18396,0.19686,0.06053
458,-8.72829,0.3657,-0.75778,-2.83016,1.62058,0.63517,-24.45963,1.63313,-1.08902,-4.19656,1.5856,1.61116,0.05655,-0.26086,-0.2202,0.47832,0.25992,0.36102,-35.25815,8.18212,1.20529,35.53106,27.09613,13.6464,2.71514,-0.43259,-0.1227,4.94066,-1.58477,-0.15898,4.90212,-2.08274,-1.07823,-0.15352,0.80417,-0.57852,0.40747,-0.22243,-0.21758,-0.08297,0.08799,-0.15173
459,-7.28683,-0.14003,-0.40733,1.3132,0.64157,0.17956,-17.28326,0.78428,0.44702,12.69806,3.5454,0.47011,0.23217,-0.44404,-0.15823,0.87276,0.01713,0.15359,-3.32376,11.35136,-0.48012,29.89738,26.23312,9.31957,6.01432,-0.30667,-0.24254,7.5014,-1.21666,0.80011,3.06672,-1.195,-0.73561,-0.59597,0.60427,-0.85082,0.36419,-0.02156,-0.22043,-0.08762,0.07139,-0.19368
460,-6.32929,-0.55805,-0.18049,4.6308,-1.39023,-0.45453,-6.80761,-4.93025,0.51916,23.84679,1.21215,-1.83358,0.38701,-0.44316,-0.01569,1.0278,-0.27741,-0.14369,25.51863,-2.70658,-5.00507,31.75731,20.08997,-2.66373,8.48052,-0.02346,1.18144,6.88404,-1.15781,0.13242,0.76668,-1.43176,0.50129,0.50549,1.39399,-0.48407,0.28696,-0.1836,-0.00726,0.06583,0.1919,-0.12272
461,-7.46546,-1.01424,-0.18583,4.87496,-2.63821,-0.79666,-4.26862,-12.6762,-1.39122,21.44345,-2.95285,-3.34526,0.25657,-0.30463,0.01487,0.90643,-0.34288,-0.34488,25.08513,-23.27037,-8.84237,42.98976,13.4707,-11.02972,6.58859,-0.25655,2.57144,2.81776,-1.39924,-1.80159,0.23862,-2.40974,1.48299,2.16102,2.39556,0.11204,0.24699,-0.53844,0.25709,0.17885,0.31973,-0.05994
462,-8.03789,-1.27545,-0.22734,3.03182,-1.90957,-0.63351,-8.22789,-17.32651,-3.12637,14.49644,-4.96777,-2.93102,-0.00763,-0.12728,-0.06011,0.67883,-0.13962,-0.33502,8.21282,-32.13342,-9.5323,48.37677,16.18032,-12.10353,3.31412,-2.08499,0.88661,0.79106,-1.75959,-2.60429,0.91802,-1.79063,1.06823,2.76406,2.58548,0.42982,0.17317,-0.52498,0.30749,0.19113,0.30584,-0.01589
463,-6.00413,-1.1168,-0.16262,0.7255,0.06115,-0.09529,-8.28653,-16.46281,-2.91035,10.66153,-4.31713,-1.09601,-0.10373,-0.00175,-0.10162,0.36925,0.13201,-0.11959,0.26976,-25.82282,-5.67448,32.74282,28.25754,-8.19124,3.32062,-3.89263,-2.88323,3.94118,-2.09521,-1.18655,1.10279,0.5793,-0.37982,1.66314,1.77752,0.23471,-0.02136,-0.01762,0.09386,0.16172,0.16698,0.03601
464,-3.60907,-0.57938,-0.22566,-0.67896,1.80298,0.42161,-3.04829,-11.70129,-1.75087,9.85116,-1.73872,0.68952,0.00775,0.00865,-0.08213,0.03955,0.26367,0.15522,5.03609,-13.74522,0.02201,14.2007,32.15971,-3.7838,5.12158,-2.96387,-4.66308,6.95337,-1.89788,0.41118,0.18573,2.51821,-1.46137,0.66119,1.02477,0.02424,-0.32424,0.57698,-0.17938,0.24347,0.10889,0.09713
465,-3.39337,0.28346,-0.61224,-0.01261,2.24228,0.4795,-0.88346,-6.38129,-0.97088,11.72435,1.62797,0.78289,0.21273,-0.07721,-0.06523,0.08389,0.19078,0.27886,11.32958,-4.42017,1.70943,18.61184,18.87122,-2.14384,4.63112,-0.19394,-3.27106,5.11747,-1.09672,0.26265,-0.55166,2.59562,-1.48004,1.24606,1.10816,0.23041,-0.45447,0.76475,-0.28243,0.43307,0.20667,0.13823
466,-3.93665,1.20909,-1.00626,2.36457,0.87438,0.04057,-5.05898,-1.96059,-0.78599,16.07892,2.76969,-0.79794,0.47791,-0.14765,-0.02714,0.69467,-0.00619,0.14982,13.16004,1.03594,-2.71399,37.83881,1.9486,-1.33945,3.33593,0.84174,-0.57822,2.31169,-0.58485,-0.68936,0.52105,0.42146,-0.62584,1.78797,1.48085,0.28222,-0.11036,0.23281,-0.13741,0.42412,0.27689,0.08077
467,-3.35821,1.1534,-0.86063,4.10674,-1.028,-0.35413,-9.59125,0.81215,-1.45314,19.33495,1.55288,-1.59305,0.65992,-0.1662,0.05487,1.23184,-0.12965,-0.07048,12.31469,5.15119,-7.93484,49.80554,-1.64853,0.3589,5.21742,-0.89292,1.43949,2.89289,-1.07117,-1.04313,2.87646,-2.89971,0.44244,0.6409,1.45298,-0.30065,0.50123,-0.66208,0.09128,0.05374,0.1754,-0.08185
468,-3.10855,-0.62651,-0.01392,3.24037,-1.24053,-0.29887,-9.94071,-1.1878,-1.83303,16.18611,1.00443,-0.6463,0.56229,-0.26157,0.08163,1.08176,-0.06546,-0.14275,7.79107,3.50316,-7.03732,53.10562,10.47281,-0.81989,8.51813,-2.94447,1.18439,4.3547,-2.04633,-1.15811,4.57303,-4.14683,0.59705,-0.71279,1.27606,-0.83533,0.8966,-0.93503,0.11173,-0.33168,0.03218,-0.20292
469,-4.45347,-2.4822,0.86227,0.69521,0.51534,-0.06617,-7.52128,-7.54948,0.41503,6.67474,1.41085,-0.48845,0.35271,-0.45596,0.01322,0.67623,0.06227,-0.04055,-1.67175,-8.53792,-0.363,54.05444,24.84313,-6.75711,8.2296,-3.05579,-0.96946,3.57468,-2.38235,-1.50764,4.01229,-1.93012,-0.29054,-0.14426,1.43842,-0.53179,0.72588,-0.3058,-0.07223,-0.2888,0.05638,-0.15735
470,-5.2108,-1.67712,0.67203,-1.28658,2.11145,-0.00758,-3.13715,-8.97232,3.60263,-1.12807,0.04064,-2.23654,0.33508,-0.4845,-0.028,0.58444,0.10132,0.0723,-5.93357,-18.10548,4.65358,49.01727,29.59619,-13.53833,4.48376,-1.49476,-2.82892,2.08955,-1.76039,-1.58169,1.59154,1.31196,-1.14833,1.94084,1.86042,0.36558,0.13749,0.42547,-0.19927,0.13841,0.21697,0.01649
471,-4.53973,0.68188,-0.37233,-1.02931,1.30495,-0.10556,-1.1061,-2.5588,3.06931,2.69527,-5.0878,-3.72516,0.37077,-0.27791,-0.03721,0.67335,0.04124,0.0346,2.80108,-14.72645,1.51168,37.84708,29.30495,-16.63552,1.88314,-0.02018,-3.12803,2.29515,-1.0657,-1.26512,-0.2715,2.74584,-1.31396,3.43453,2.25055,0.96209,-0.29273,0.61372,-0.16858,0.52142,0.3294,0.17334
472,-3.50054,1.33852,-0.91067,1.27548,-1.77466,-0.29271,-5.15813,1.29399,-0.62238,16.25148,-11.63253,-3.77127,0.32066,-0.0898,-0.06568,0.73682,-0.0898,-0.16796,15.87515,-10.50068,-6.9076,30.04702,27.38149,-11.68488,2.27607,0.43523,-1.78516,4.38423,-1.18699,-0.93228,0.04786,1.60367,-0.83709,2.83166,2.31928,0.65057,-0.29042,0.35078,-0.0651,0.52952,0.30895,0.17986
473,-2.59046,0.10137,-0.49332,3.36808,-3.92045,-0.46597,-9.64001,-3.27627,-2.60886,26.03085,-11.92097,-2.93568,0.35815,-0.07517,-0.03623,0.79793,-0.19453,-0.32073,21.82286,-12.85984,-11.03764,30.03274,13.77293,1.76784,3.36809,0.55568,0.53561,6.43613,-1.82344,-0.41375,1.52004,-0.78772,-0.14004,0.49699,1.57638,-0.24431,-0.12964,0.05717,-0.00102,0.17113,0.16559,0.03303
474,-2.72316,-1.56773,0.26988,2.57577,-2.00985,-0.2821,-8.20923,-11.15096,-1.45317,21.00791,-1.29956,-0.74204,0.43033,-0.20583,0.02748,0.65105,-0.08754,-0.17472,16.2919,-11.75582,-5.16649,33.21636,-9.79447,13.38194,3.73673,0.59854,1.8977,5.97902,-1.87837,0.48619,2.21378,-2.20475,0.18184,-1.12814,0.11303,-0.62424,-0.07027,-0.02677,-0.02841,-0.17365,-0.03623,-0.10033
475,-3.26126,-2.7256,0.80949,-0.92087,2.19467,0.26787,-1.22102,-16.33875,0.77099,4.36244,10.78382,2.36844,0.43206,-0.35715,0.04664,0.19965,0.17946,0.14344,4.09676,-7.39049,6.53014,31.31126,-20.32743,12.9274,4.36076,-0.17741,1.22525,4.1008,-0.75241,1.46619,1.89374,-2.06893,0.0669,-0.12152,-0.77374,-0.00187,0.02451,-0.07789,-0.07911,-0.09722,-0.12906,-0.06532
476,-2.91257,-3.01064,1.06176,-2.41351,4.24514,0.56079,5.15191,-18.29864,3.10164,-5.47684,12.32993,3.41606,0.51372,-0.45739,0.04187,0.07577,0.29999,0.27839,-0.6249,-11.19259,14.38345,21.69802,-4.67258,4.47474,5.53104,-1.26146,0.15122,4.8155,0.77723,2.23742,1.55607,-1.70246,0.0455,1.95599,-0.17221,0.73071,0.29225,-0.3007,-0.0551,0.26271,-0.02614,0.06896
477,-1.61967,-2.10589,0.98792,0.63856,2.61731,0.22694,8.00678,-16.32413,5.12953,2.18754,3.90337,0.82863,0.72179,-0.44963,0.07974,0.67284,0.14272,0.14378,11.20073,-19.78828,13.54013,16.19103,20.01763,-2.76142,5.94359,-1.2895,0.19965,7.47466,0.81259,1.78513,1.2998,-1.65395,0.34199,2.4566,1.30109,0.59933,0.49096,-0.52838,0.04827,0.40512,0.15347,0.11057
478,-0.87164,-0.31854,0.47878,4.21772,-0.43076,-0.27689,6.5903,-9.14721,4.87789,15.74978,-6.04774,-2.88048,0.78873,-0.28212,0.14113,1.26824,-0.0974,-0.03696,25.95617,-20.95243,6.16851,24.80776,27.91576,-7.44716,5.20388,-0.57346,0.15901,6.57868,-1.62155,-1.0904,0.49672,-0.83164,0.49313,1.5536,2.55853,-0.06362,0.33648,-0.43034,0.14899,0.20214,0.25938,0.02471
479,-2.01849,0.81864,-0.14878,3.3752,-1.82691,-0.3029,-0.4765,-1.76082,1.74305,17.91678,-10.53398,-4.04862,0.57247,-0.10235,0.12091,1.08939,-0.18271,-0.07134,22.27257,-15.59692,-1.65901,38.59938,15.69496,-10.19065,4.05056,-0.46604,-1.35607,1.47777,-4.64042,-4.49311,-0.64146,1.1433,0.07655,0.94173,2.76772,-0.29211,-0.10231,0.04021,0.15261,-0.05515,0.20807,-0.04247
480,-4.37726,-0.24343,-0.21298,-0.9298,-0.41235,0.15856,-9.57651,-3.25288,-1.1775,7.83246,-6.08526,-1.71201,0.30509,-0.17501,-0.02315,0.48344,-0.06809,0.03816,1.63822,-13.53529,-3.24735,46.09435,3.83826,-8.25638,2.98206,-0.99033,-3.03582,-2.02798,-5.13339,-4.94829,-0.70106,2.55418,-0.68446,1.04409,1.9349,0.01402,-0.40222,0.52426,0.01935,-0.11779,0.1018,-0.03309
481,-5.76499,-3.19119,0.57124,-3.41077,1.74583,0.51939,-13.50948,-14.97913,-0.7225,0.50008,3.62587,1.58775,0.26814,-0.49202,-0.16433,0.29576,0.09685,0.14472,-12.53195,-17.45503,1.85938,43.61409,9.54173,-3.86786,2.97045,-1.12883,-2.9831,-0.54674,-2.59304,-2.71287,0.81156,1.95655,-1.16181,1.40724,1.4701,0.07939,-0.24772,0.62898,-0.16225,0.06045,0.25687,-0.08529
482,-4.68089,-5.50405,1.55903,-1.4035,1.69784,0.33683,-10.38228,-25.86098,2.36861,5.6609,8.61012,2.5225,0.48627,-0.74458,-0.13495,0.66638,0.12353,0.0965,-5.96742,-21.41628,6.75525,28.92975,23.84791,-3.48232,5.28552,-0.82726,-1.70945,3.87817,0.51016,-0.61685,2.33824,0.21321,-0.99782,1.82583,2.25434,-0.37926,0.19161,0.30054,-0.23157,0.3732,0.69086,-0.2308
483,-2.6755,-4.69505,1.68046,2.09008,-0.08596,-0.11856,-6.44021,-23.59141,4.44167,14.52697,5.31047,1.12219,0.69413,-0.68581,0.03247,0.98594,-0.00063,-0.07283,7.38312,-17.62881,7.00946,11.77274,22.15114,-5.7459,8.47658,-0.71768,-0.67962,8.15354,1.92779,0.85493,1.81756,-0.99009,-0.2854,2.28266,2.77019,-0.47885,0.34851,-0.17229,-0.10934,0.63835,0.83083,-0.20472
484,-2.88848,-1.2875,0.68251,2.80924,-0.38346,-0.191,-7.69352,-8.86452,2.99796,15.03503,1.83777,0.87997,0.55623,-0.35026,0.12436,0.79775,-0.08536,-0.15224,8.358,-2.3141,5.27662,11.09401,-2.2108,-3.0834,9.05401,-0.46367,0.08459,9.70322,1.34965,2.37729,-0.26722,-1.19625,0.51159,2.10965,1.4305,0.271,0.00056,-0.37825,0.09902,0.5599,0.27917,0.08945
485,-5.41517,1.74122,-0.56645,1.12144,1.72842,0.25039,-11.85758,5.39193,-0.86407,11.4748,4.45595,3.47152,0.05785,0.01738,0.047,0.34153,0.02186,-0.03274,2.49527,16.58862,4.18274,24.58452,-26.55889,3.77916,6.61405,0.2738,1.32794,7.0854,-0.30419,2.58999,-1.19888,-1.3866,1.02907,0.82784,-0.41729,0.88796,-0.37331,-0.26931,0.22079,0.00315,-0.44003,0.29511
486,-6.86132,2.06335,-1.0033,0.26698,3.79533,0.6613,-12.87434,7.97334,-3.63347,13.71057,8.96632,5.87717,-0.35814,0.13408,-0.06841,0.1467,0.25155,0.15035,4.50077,23.67776,2.81163,32.97605,-25.56099,4.79646,3.6858,0.68989,2.80851,2.3288,-1.56127,0.83488,-0.36021,-2.18154,1.37033,0.23332,-0.66976,0.9019,-0.3949,-0.18396,0.25509,-0.4475,-0.59552,0.22404
487,-5.47255,-0.11622,-0.34464,1.37451,3.95351,0.47084,-11.55289,-0.16968,-2.67799,19.11727,10.85003,4.46341,-0.22005,-0.11163,-0.10052,0.47697,0.3649,0.20317,8.60845,15.94755,1.02609,33.45875,-1.23904,-2.4698,1.49327,0.44446,3.44761,-0.27974,-1.47237,-0.98787,0.47833,-2.71858,1.54507,1.59451,0.60952,0.8205,-0.2501,-0.24232,0.28038,-0.22068,-0.17323,0.0817
488,-3.15613,-2.20164,0.64075,3.71921,2.49056,-0.40869,-12.97154,-7.96989,1.06796,22.22021,10.88395,-0.69421,0.44277,-0.51101,-0.04753,1.21579,0.16608,0.03623,5.19543,6.20117,-0.59108,35.52519,18.61474,-6.68388,0.70895,0.25873,2.60188,1.69026,-0.75348,-1.34266,0.7379,-2.06182,1.18336,3.10411,2.14379,0.67484,-0.13837,-0.2292,0.256,0.38199,0.37125,0.04108
489,-1.81628,-2.41965,1.13657,5.83877,1.14371,-1.30527,-14.33693,-9.19369,4.48375,26.8303,11.58651,-5.36272,1.07116,-0.70893,0.0511,1.7912,-0.16352,-0.19597,8.10615,4.27423,-1.79392,36.79342,13.97694,-0.43778,2.82318,-0.00381,0.46701,6.08165,-1.05012,-0.58028,1.28709,-0.6157,0.2529,2.32997,2.38445,0.1105,0.05055,-0.07836,0.12481,0.6011,0.51137,0.03257
490,-1.94351,-2.31463,1.27192,5.21767,2.146,-1.20284,-10.42628,-10.25697,5.8739,33.82695,15.55743,-4.42732,1.09949,-0.60152,0.0875,1.52639,-0.17475,-0.17086,27.26815,7.77519,-0.05718,32.89769,-1.66644,5.43646,7.25472,-1.42654,-2.19095,7.69766,-2.7833,-0.21326,2.03382,0.61492,-0.64908,-0.24697,0.98098,-0.64802,0.30256,0.05084,-0.02918,0.14171,0.11258,-0.05875
491,-2.85235,-2.64125,1.1881,1.47456,4.11281,-0.11506,-4.11521,-12.85106,4.91611,33.76622,17.59833,1.19289,0.62312,-0.35553,0.03715,0.60719,0.11596,0.06128,41.55883,9.22204,4.71517,29.17198,-3.6638,-0.5827,10.72858,-3.48876,-3.57279,4.7434,-4.35049,-1.09163,1.82809,0.66364,-0.71915,-1.44344,-0.21173,-0.83248,0.31939,0.00905,-0.05021,-0.37953,-0.29039,-0.15295
492,-3.33225,-1.89374,0.64071,-1.60313,3.72875,0.79664,-2.6975,-10.75242,1.91422,24.02977,10.9758,5.30022,0.24433,-0.18339,0.02194,-0.00644,0.28787,0.14992,30.42833,4.01916,7.42646,22.6731,8.60495,-9.40845,10.76077,-3.76342,-1.91516,2.15664,-3.70994,-2.19512,0.17916,-0.90804,0.28514,-0.14088,0.8274,-0.52544,-0.01134,-0.24455,0.07388,-0.26787,-0.05638,-0.16034
493,-3.62187,-0.00472,-0.20403,-0.71202,1.90401,0.78584,-9.71309,-4.04371,-1.7355,17.15969,2.33224,4.8673,0.23925,-0.19209,0.05745,0.13403,0.24141,0.06231,5.94404,-1.87858,3.99949,8.38882,15.66472,-6.53295,7.93502,-1.37855,1.22871,4.63329,-0.88065,-1.62468,-1.52326,-2.66195,1.19614,1.6451,3.18916,-0.3341,-0.31906,-0.48629,0.1137,0.36131,0.62765,-0.08012
494,-4.41596,1.63779,-0.85827,2.61976,1.26758,0.11324,-19.69131,3.39446,-4.21745,21.7046,1.00849,1.64539,0.38785,-0.30446,0.03993,0.56797,0.09355,-0.04144,-6.0972,3.47868,-4.33049,-0.13887,5.18671,3.7114,4.51502,1.45436,1.9025,8.41793,1.92986,0.53065,-1.15893,-2.18331,0.47521,1.90483,3.929,-0.27902,-0.21268,-0.33566,-0.11786,0.73287,0.92752,0.02917
495,-4.59497,2.35017,-1.02539,5.09105,1.78853,-0.6236,-21.38296,9.07138,-4.25142,31.08603,5.10422,-1.712,0.48306,-0.35135,-0.02209,0.83076,-0.12174,-0.13615,3.94825,18.28481,-11.3477,10.10156,-18.31231,8.56544,2.86443,2.29646,-0.24885,7.38236,2.84076,2.34622,1.68655,-0.06186,-1.24017,0.81679,1.90411,-0.00997,0.25855,0.06636,-0.39112,0.43085,0.47883,0.0924
496,-3.23774,2.0746,-0.70642,5.50767,1.7263,-0.9815,-10.62907,9.10375,-1.92113,35.7347,7.06568,-3.52703,0.49011,-0.26712,-0.03536,0.89149,-0.30555,-0.22362,26.91001,23.85115,-10.75434,25.50475,-37.67396,7.52818,4.1638,1.03842,-1.62084,3.8559,1.55472,2.51607,4.94616,0.54514,-1.73695,0.0706,-0.55627,0.31059,0.7194,0.12042,-0.32099,-0.03988,-0.15059,0.07171
497,-1.91479,0.61441,-0.0858,4.12581,-0.17299,-0.83925,3.21878,1.41245,1.07985,33.15662,3.18277,-3.82174,0.40779,-0.18177,-0.01974,0.7553,-0.33738,-0.26179,46.34222,8.24984,-3.52719,25.05753,-32.78324,5.61591,7.15027,-0.87624,-1.38677,3.63112,-1.21473,0.9717,6.22459,-0.51868,-0.93523,0.25572,-0.75749,0.10152,0.86169,-0.18301,-0.0223,-0.16481,-0.29928,-0.0414
498,-1.94376,-1.17626,0.42093,1.93518,-2.74916,-0.46045,9.29908,-7.19484,2.51914,25.11103,-2.80465,-3.65902,0.32642,-0.21121,-0.02924,0.49868,-0.22628,-0.22419,49.63473,-13.19823,2.87672,14.70654,-5.33584,1.73605,9.22852,-1.84569,-1.38259,5.87618,-3.90884,-1.16715,5.76683,-1.05324,-0.5754,0.65325,0.75637,-0.4982,0.79785,-0.3236,0.05505,-0.06179,-0.05881,-0.16365
499,-1.81408,-1.45382,0.38377,0.33988,-2.83411,-0.15498,8.84399,-6.8771,1.58778,14.77234,-2.93724,-2.65846,0.38752,-0.28122,-0.0193,0.44538,-0.01991,-0.09158,38.68019,-12.89196,4.35663,12.70502,15.50377,-4.79378,8.3295,-1.0044,-0.94944,6.4342,-4.61916,-2.08682,4.78348,-1.02281,-0.65674,0.99387,1.62197,-0.65255,0.68819,-0.20834,-0.08942,0.0646,0.09302,-0.15939
500,-0.13785,0.06478,-0.10295,-1.20911,-0.05931,0.15593,9.17243,1.63085,-0.19033,4.39641,3.1543,0.02605,0.5597,-0.28419,0.04051,0.54347,0.19217,0.08228,23.96155,9.05178,4.05917,14.74317,9.43182,-8.12917,5.41403,0.61596,0.68028,5.6166,-2.77959,-0.76559,3.71361,-1.42214,-0.29727,1.27771,1.07484,-0.11716,0.53857,-0.12129,-0.15439,0.21993,0.03138,-0.00082
501,1.54687,1.47273,-0.42287,-4.12809,1.88245,0.60376,12.00665,7.70674,-0.48636,-5.95507,6.42237,2.62449,0.6839,-0.25375,0.09397,0.3182,0.23296,0.15272,11.82489,22.14277,6.36217,9.31293,-9.65913,-4.59279,4.51886,0.90271,1.30252,5.90078,-0.05421,1.76596,3.0254,-1.70126,-0.04481,1.24709,0.1536,0.5513,0.45435,-0.11837,-0.16216,0.3439,-0.06252,0.19408
502,1.40726,1.09428,-0.23058,-6.32301,1.4083,0.85931,14.23868,5.64358,0.82865,-12.57049,4.04021,2.97607,0.69912,-0.31181,0.06942,-0.10758,0.09878,0.09742,6.7525,12.29838,10.6788,8.38417,-16.72076,0.53927,7.34704,-0.43934,-0.45336,6.25053,1.26148,3.07365,3.42781,-1.20104,-0.68457,0.81337,-0.16857,0.78342,0.60057,-0.10227,-0.29532,0.23138,-0.102,0.26178
503,-0.12766,-0.0652,-0.00384,-4.95131,0.60595,0.63136,11.87373,1.6314,1.097,-9.76139,1.67022,1.68252,0.6301,-0.42614,-0.02576,-0.15007,-0.00417,0.02365,8.89224,-1.27537,10.9808,22.0314,-10.24039,0.44246,10.57193,-1.33103,-2.19396,4.22628,0.6874,1.82044,4.57259,-0.7125,-1.47479,0.6639,0.26493,0.58028,0.84967,-0.11935,-0.43337,-0.04532,-0.07919,0.15657
504,-1.35875,0.32388,-0.30253,-2.05223,0.62692,0.29565,5.96177,2.58687,-0.87157,0.4551,1.10876,0.34075,0.52566,-0.3928,-0.07043,0.18637,0.01063,-0.00211,14.18325,-1.91486,4.85514,29.99655,-8.6944,-3.27026,10.85652,-0.89083,-2.08419,1.74544,-0.32241,-0.39396,4.88589,-0.64379,-1.41651,1.37077,1.08939,0.26367,0.82133,-0.15442,-0.34259,-0.11357,0.06601,-0.02661
505,-1.35786,1.97563,-0.76895,-1.22613,0.53337,0.32942,3.23575,5.46829,-2.45602,8.89032,-0.69108,-0.78965,0.47752,-0.20869,0.0079,0.53374,0.05692,0.03329,19.93618,2.63569,-0.97393,13.20776,-18.53961,-0.57792,8.65163,-0.76022,-1.95084,4.52559,-0.56878,-0.38214,3.82774,-0.01904,-1.03137,1.64912,1.62721,-0.22035,0.45562,-0.03716,-0.12538,0.06511,0.26736,-0.17144
506,-1.09982,2.30433,-0.65219,-2.29922,-0.66831,0.5842,3.39328,4.98476,-1.50437,9.56733,-5.01632,-2.24067,0.52316,-0.11621,0.09858,0.8007,0.01902,0.08593,19.67606,-0.28371,-1.69892,-12.42319,-26.24248,11.48662,6.46333,-1.73023,-3.08286,12.30713,-0.3963,2.35784,2.79276,1.11004,-1.1889,0.20358,1.25551,-0.84196,0.18945,0.13049,-0.05831,0.18919,0.27405,-0.18365
507,-2.00667,0.83041,-0.02112,-3.62108,-2.25636,0.69862,-1.81537,2.67404,0.59462,3.74762,-8.58983,-3.29121,0.56199,-0.17859,0.07838,0.86402,-0.12918,0.06137,5.16993,-8.13306,-0.63001,-16.28278,-22.26119,17.75778,6.29527,-2.18057,-3.23048,14.84289,-0.71942,3.87747,2.74119,0.81863,-1.34605,-1.25064,0.37602,-0.97524,0.30776,0.00651,-0.15875,0.16925,0.0681,-0.06544
508,-3.93,-0.43365,0.43661,-5.32137,-2.25937,0.72003,-14.35714,0.67272,1.72326,-6.15642,-6.96154,-2.26237,0.47974,-0.23368,-0.01835,0.47334,-0.22779,-0.03113,-23.55399,-12.68023,-0.30984,9.10261,-13.72796,5.9987,7.44688,-0.95983,-0.66911,6.22487,-1.43825,1.16048,3.10724,-1.51706,-0.66301,-0.22123,0.16835,-0.25208,0.54741,-0.35429,-0.21452,0.16573,-0.0444,0.05498
509,-5.64402,-0.82579,0.49914,-7.22252,-0.7774,0.83916,-24.98175,-3.48003,1.65629,-17.00405,-2.17964,0.26231,0.2996,-0.24458,-0.102,-0.15981,-0.14141,-0.05853,-51.12452,-15.48292,1.2936,40.84993,-11.36143,-10.17363,6.35068,0.81606,2.48933,-4.45151,-1.39515,-2.70913,2.90898,-3.49171,0.4384,2.28091,0.85573,0.71362,0.48233,-0.51597,-0.07089,0.22648,0.06838,0.09729
510,-5.97633,-1.29813,0.41087,-6.8747,0.19612,0.91839,-23.07718,-8.30213,0.79114,-18.84225,-0.21201,1.66065,0.17042,-0.32047,-0.13505,-0.41305,0.04042,0.05527,-50.40596,-17.00454,3.9952,49.84035,-15.63264,-11.1229,2.66781,1.63165,2.96126,-4.81746,-0.08994,-2.68594,1.64155,-2.52153,0.89546,3.17104,1.54151,0.97145,0.0891,-0.2619,0.16973,0.22937,0.23159,0.08452
511,-4.11246,-1.64615,0.22389,-3.32787,0.00436,0.72275,-8.54237,-7.05976,-0.75715,-5.09857,-1.13553,1.34965,0.24426,-0.45477,-0.08392,-0.15036,0.11427,0.20152,-12.84284,-9.10619,4.4163,28.03058,-19.29365,0.87803,1.91103,0.92245,0.75316,5.4091,1.58004,1.52747,-0.19665,0.18629,0.60625,1.87063,1.52237,0.45326,-0.22963,0.07239,0.28138,0.15327,0.27285,0.04751
512,-1.24485,-0.83583,-0.1089,0.4876,-0.13861,0.32164,6.55432,-0.04139,-2.00362,14.70447,0.84936,1.42637,0.46755,-0.49684,0.03229,0.13672,0.02019,0.22133,32.10016,8.07552,2.96028,-3.51192,-19.34699,10.86841,6.20853,-0.68512,-0.97884,15.06219,2.38292,5.6227,-1.079,0.93804,0.28891,0.43639,0.85823,-0.04501,-0.13501,0.07912,0.13949,0.11824,0.17058,0.01948
513,-0.06332,0.71843,-0.3694,2.4751,0.78466,-0.11684,10.46843,4.29678,-1.65008,27.39948,7.41593,2.39765,0.62692,-0.37218,0.10156,0.24878,-0.07732,0.11503,51.49347,19.29579,2.33217,-15.042,-18.49645,10.3936,9.54064,-1.65214,-0.69168,14.60188,1.63025,5.44878,-0.65456,-0.59015,0.20692,0.48337,0.29077,-0.04107,0.14545,-0.09287,-0.10406,0.19707,0.05389,0.01531
514,-0.73762,1.69311,-0.36519,4.07001,1.33308,-0.6322,5.09603,3.17367,-0.1937,32.11063,10.47972,1.27847,0.66287,-0.19326,0.09231,0.52028,-0.08653,-0.056,47.64412,13.27538,0.79928,-1.81407,-16.38302,0.22964,8.48505,-1.33788,0.12675,5.47513,-0.85419,0.70647,-0.37261,-1.60661,0.2327,1.63381,0.59814,0.10631,0.21568,-0.2637,-0.15613,0.29319,0.06346,-0.01266
515,-1.47618,1.41964,-0.13768,6.12135,0.00253,-1.14163,-0.7131,0.35185,0.8941,35.36562,4.79799,-2.7739,0.6611,-0.13324,0.07643,1.03577,-0.06644,-0.24306,42.60207,-2.28151,-3.39287,7.71775,-10.87098,-11.51976,6.83791,-0.7786,-0.19654,-2.72164,-3.97749,-4.53992,-1.69485,-0.55424,0.41176,2.34483,1.52469,-0.05207,-0.03113,-0.41651,0.05427,0.26157,0.15049,-0.08118
516,-1.54016,0.81423,0.06161,6.51785,-1.41724,-1.21845,-3.94642,-1.26404,1.12925,37.49878,-2.05232,-5.56093,0.65192,-0.16678,0.10782,1.32427,-0.04332,-0.32959,41.84799,-10.24364,-6.69354,-3.63696,-6.6348,-13.69473,6.56497,-0.98942,-1.03732,-2.93964,-5.17283,-5.38645,-4.1553,1.3303,0.9238,1.80678,1.7833,-0.25309,-0.50812,-0.3796,0.37273,0.12185,0.12704,-0.08598
517,-1.49989,0.88458,0.0199,4.03491,0.02419,-0.66419,-6.64101,-0.94513,0.74057,34.50519,0.4286,-3.25452,0.56757,-0.16548,0.12776,1.06084,0.02268,-0.20508,35.49707,-1.36661,-4.9255,-7.772,-9.96833,-4.19792,6.16756,-1.83045,-0.42583,2.84585,-3.38416,-1.45778,-5.34587,1.33661,1.73644,0.82992,0.83539,0.0103,-0.87327,-0.17779,0.57467,0.04814,-0.05577,0.05532
518,-1.97341,1.07579,-0.15995,1.14328,3.78492,0.00234,-8.35058,1.01885,-0.08054,29.8289,11.74878,2.14148,0.41157,-0.16719,0.04561,0.61661,0.12593,0.04199,26.31182,19.20617,0.39365,16.90731,-19.15112,7.22203,6.56616,-2.74554,2.03681,8.45632,-0.99057,2.80644,-4.77455,-1.42057,2.65802,0.48505,-0.22416,0.52417,-0.88668,-0.23337,0.60843,0.12684,-0.22162,0.23331
519,-2.63347,0.60131,-0.21142,0.97078,6.52068,0.03595,-6.3543,2.44993,-0.70224,32.72471,22.54045,5.30476,0.32612,-0.24706,-0.08581,0.52662,0.1617,0.13736,30.72295,36.40871,4.01911,36.5098,-27.67299,11.64327,7.83645,-2.75592,4.34741,10.49152,-0.43347,3.77711,-4.7793,-3.84226,3.32664,0.42077,-0.22044,0.48153,-0.8267,-0.49628,0.57228,0.17621,-0.16465,0.22101
520,-2.70495,-0.48365,0.00496,3.20834,7.34225,-0.51051,-1.02484,-0.23191,-0.29123,44.52122,27.48051,4.99231,0.34477,-0.33602,-0.14107,0.59318,0.1287,0.01369,52.17243,38.88756,4.61535,14.41014,-30.40683,8.34852,7.19576,-0.91515,4.48908,8.88606,-1.21042,1.60597,-5.86759,-2.63947,3.12214,-0.32139,0.97666,-0.49274,-0.95799,-0.28273,0.43532,-0.00389,0.18411,-0.07963
521,-2.16432,-1.59075,0.3004,4.95916,8.06845,-0.80407,3.7728,-5.41387,0.42995,54.45224,27.62032,4.51013,0.34905,-0.36234,-0.10787,0.30567,0.22564,-0.06224,71.88288,31.23576,4.73448,-28.71436,-27.41672,3.12909,4.70436,1.46061,2.90148,5.94789,-1.40421,-0.89535,-5.75292,0.42986,1.99376,-1.44452,2.39788,-1.63376,-1.0795,0.44985,0.18435,-0.24476,0.61188,-0.42822
522,-2.01645,-1.88713,0.33399,4.98149,9.05982,-0.48899,3.18076,-6.19272,-0.07471,53.89159,24.25918,5.19308,0.34226,-0.37588,-0.06834,-0.04227,0.51665,0.05227,70.80938,25.54343,4.08357,-43.64605,-23.91538,2.70112,3.48941,1.92962,1.42192,4.78607,-0.04208,-0.64145,-3.2552,1.34602,0.75008,-1.72703,2.47146,-1.69655,-0.84839,0.85908,-0.02529,-0.22594,0.70337,-0.44264
523,-2.74555,-1.07023,0.10631,4.32479,9.21459,-0.06433,-3.51962,-1.5908,-1.28823,46.86459,19.18718,5.17946,0.43584,-0.39317,-0.04956,0.14275,0.7695,0.18778,53.01261,24.02231,1.02597,-14.62942,-21.85627,5.56296,3.81335,0.86632,0.73148,5.24247,1.77465,2.00663,0.13362,0.06023,-0.0639,-0.35203,0.821,-0.38141,-0.27941,0.61782,-0.10289,0.08062,0.31791,-0.08969
524,-3.28319,0.14823,-0.09436,4.51674,8.47619,-0.08308,-11.27402,1.73109,-1.62578,42.5383,16.2272,4.00594,0.5825,-0.32653,-0.01177,0.69553,0.75365,0.17093,37.74664,20.8921,-2.91611,27.45099,-16.80819,3.20648,3.33829,-6e-05,-0.12994,4.81994,1.61187,3.2502,2.87721,-0.7943,-0.74624,2.60289,-0.86514,1.33019,0.3428,0.23326,-0.13262,0.49345,-0.19544,0.29498
525,-2.94764,1.22829,-0.24333,5.9319,6.97457,-0.53848,-14.97383,1.28952,-1.33569,43.78585,15.51117,2.95922,0.60768,-0.17321,0.0457,1.07166,0.46779,0.0083,35.07606,14.46934,-5.70196,41.3546,-8.32005,-4.24554,1.60838,-1.14902,-1.74832,3.64825,-1.03234,1.53402,5.1816,-1.05131,-1.50588,5.01395,-1.1167,2.05554,0.85636,-0.08535,-0.16375,0.70662,-0.44626,0.41639
526,-2.43527,1.98227,-0.42432,6.36064,5.42243,-0.80343,-11.63802,0.5843,-1.14716,45.51725,16.29188,3.57135,0.46939,-0.09064,0.06231,1.0491,0.20507,-0.11002,42.07576,13.51855,-3.86601,20.39305,-4.12675,-5.27595,-0.05659,-2.84702,-3.05396,3.46407,-3.32309,-0.38028,7.98658,-2.34077,-2.21307,3.82142,-0.41773,1.26461,1.31834,-0.5385,-0.18532,0.39186,-0.3633,0.24263
527,-2.01686,2.34543,-0.49015,3.24521,4.14624,-0.44504,-1.6272,2.51088,-0.22672,40.43188,17.74977,4.82065,0.34599,-0.1434,0.04135,0.74159,0.12168,-0.07471,49.72344,24.38258,3.88697,-6.09333,-11.11409,5.13914,-0.28969,-2.6302,-2.90057,4.08347,-2.97157,-0.4294,11.39765,-4.28725,-3.11642,-0.48822,0.39442,-0.2952,1.82555,-0.9103,-0.32959,-0.29396,-0.0695,-0.06088
528,-1.51691,2.26805,-0.27071,-0.98611,2.36702,-0.01773,7.38902,5.98974,1.92843,28.82028,16.30167,3.08936,0.44225,-0.24744,0.04138,0.59198,0.03214,-0.0022,48.01854,35.70969,10.18392,-16.27618,-26.61986,16.57408,2.04892,0.15241,-2.31165,4.31929,-1.40625,0.11697,13.83467,-4.68272,-4.37716,-3.86814,1.11884,-1.43156,2.25998,-0.76669,-0.68317,-0.76242,0.23566,-0.28618
529,-0.59474,1.31253,0.09956,-2.36308,0.61232,0.01155,9.91931,7.24468,3.40828,15.32722,10.12868,-1.28182,0.72268,-0.36376,0.05686,0.83033,-0.06576,0.03204,33.96473,30.34769,8.81751,-12.21011,-39.6041,17.30397,6.12094,1.6971,-1.98076,3.6816,-1.07839,-0.08698,12.96846,-3.81533,-4.64168,-3.63086,1.2502,-1.43323,2.20789,-0.46399,-0.87013,-0.67356,0.31946,-0.30897
530,0.63023,-0.21856,0.24139,-1.87368,0.28473,0.11391,8.63862,4.84291,2.16347,3.13408,2.88791,-2.88871,0.86405,-0.43889,0.03938,0.88604,0.00233,0.06833,15.82628,10.64316,3.76512,2.15032,-40.46152,6.24026,8.04412,-0.27176,-1.14575,2.82491,-1.8349,-0.72504,8.37944,-3.51479,-2.78396,-0.20637,0.79505,-0.48269,1.37944,-0.54906,-0.51717,-0.10546,0.19497,-0.15093
531,1.07611,-0.42582,-0.07244,-0.51257,0.6302,0.25104,6.93684,2.69194,-0.63625,1.34348,-1.78803,-0.87575,0.6952,-0.34904,0.01407,0.47078,0.06689,0.06232,11.56255,-4.86073,-0.26813,19.26511,-29.72553,-8.42621,6.48189,-3.09129,-0.54854,3.20645,-1.992,-0.98064,2.21854,-2.5201,-0.25145,4.00381,0.67719,0.60408,0.08317,-0.50229,0.048,0.6034,0.10851,0.05714
532,0.18565,0.55366,-0.43087,1.13056,1.44526,0.14372,5.1785,1.61441,-1.89085,9.66827,-0.91917,1.46267,0.43689,-0.20666,-0.01626,0.09983,0.03858,0.04007,20.25581,-6.47953,-0.33165,18.99315,-17.05717,-12.90811,5.96384,-4.0669,-0.18125,5.80024,-1.26568,-0.0994,-3.1146,-0.24332,1.5057,5.56472,1.00792,1.00875,-0.97478,0.03874,0.3754,0.92495,0.13955,0.17357
533,-2.18416,0.83483,-0.35497,1.92164,2.43853,-0.03721,0.15691,-1.05384,-0.97222,15.98423,2.93362,1.67788,0.27958,-0.21255,-0.08394,0.29725,0.04837,0.07505,20.51506,-3.33578,2.09856,-2.99897,-9.1643,-2.39632,8.77345,-3.3608,1.17245,9.24194,-0.79361,1.62261,-6.83598,1.42253,2.62283,3.01526,1.09604,0.50044,-1.44849,0.52339,0.4497,0.59441,0.16707,0.14223
534,-5.28601,-0.0409,0.07576,1.87974,2.63019,-0.05607,-7.40159,-5.3567,0.40195,14.24131,5.53823,1.03056,0.20785,-0.32324,-0.14707,0.80904,0.1668,0.17613,6.7295,-3.90091,4.34471,-17.29359,-11.52861,9.91726,11.10664,-1.87288,2.82525,9.81714,-1.41923,2.01568,-8.03984,1.62144,2.96307,-0.46049,0.94724,-0.31447,-1.33393,0.57067,0.37614,0.03292,0.11784,0.02792
535,-6.87247,-0.55409,0.34675,1.80255,2.01227,0.06998,-10.87242,-6.28567,0.79299,9.42572,6.64108,2.09121,0.2237,-0.34637,-0.11334,1.04292,0.32779,0.29053,-4.74231,-2.60346,6.24068,-5.84918,-32.40593,10.58967,10.35514,-0.42335,3.3515,6.03597,-2.67406,-0.11984,-6.56485,0.98503,2.33615,-0.97725,1.01842,-0.68328,-0.84156,0.35727,0.20428,-0.19802,0.04316,-0.07417
536,-5.65157,0.36467,0.11969,3.21838,1.61582,-0.07082,-8.37635,-0.96158,0.08847,10.52159,7.18345,3.72431,0.35945,-0.25965,-0.00952,1.09128,0.39815,0.30528,-0.71312,4.92105,6.02394,11.08755,-57.89294,2.4492,8.44138,0.10457,2.91121,2.03576,-3.05483,-2.18558,-4.55485,0.44125,1.55655,0.42833,1.15727,-0.61971,-0.40027,0.19526,0.05759,-0.14479,0.03681,-0.1426
537,-2.76165,2.14179,-0.44549,6.37629,2.15834,-0.71206,-4.00926,6.4325,-0.71356,18.31867,6.28156,2.31345,0.56289,-0.19258,0.05146,1.36887,0.34205,0.18165,14.31694,10.66995,1.46423,14.12296,-53.93635,-2.60182,7.50334,-0.38247,3.3497,3.04241,-1.83555,-0.84709,-4.12392,-0.37903,1.73521,0.45929,0.78949,-0.42525,-0.34362,0.06371,0.12488,-0.11492,0.08011,-0.13929
538,0.01956,2.92554,-0.76614,9.02743,2.6053,-1.40213,0.9143,8.22485,-0.48732,24.68579,2.35538,-2.33345,0.69187,-0.20438,0.04044,1.6846,0.20689,0.02364,29.57248,4.35487,-4.32988,8.14615,-16.09026,1.06188,7.36806,-0.97849,5.569,7.98833,-0.3492,2.73898,-5.15809,-2.14414,2.83763,-0.72271,0.11426,-0.13157,-0.61502,-0.17005,0.38553,-0.08033,0.0857,-0.02537
539,1.35203,0.84348,-0.25574,8.25783,2.27483,-1.40406,5.7912,-1.3583,0.87936,22.5029,-0.5609,-4.53991,0.61281,-0.25395,0.00394,1.41867,0.08644,-0.01998,35.84005,-11.83203,-3.30097,2.20572,17.42598,8.93008,6.28193,-0.87279,7.54926,9.7134,-0.21475,4.12014,-5.81589,-3.87506,3.54584,-0.65297,-0.30208,0.25931,-0.86581,-0.43199,0.5691,0.07756,0.01776,0.11097
540,0.18844,-3.16372,0.85009,3.29137,2.20713,-0.52027,4.24928,-17.59233,2.06008,11.00152,3.87895,-0.10208,0.40336,-0.31665,-0.03138,0.56928,0.05538,0.05344,22.41954,-22.26879,6.7036,-0.99974,15.40565,13.89562,3.27414,-0.20367,6.78301,5.01198,-1.06221,1.79598,-4.34365,-4.36482,2.72842,1.25,-0.38938,0.61053,-0.77768,-0.63297,0.47183,0.3061,-0.06528,0.15291
541,-2.81467,-4.95066,1.38175,-2.63159,2.38291,0.51584,-5.73563,-23.80593,1.41609,-1.19729,11.91146,6.30821,0.31178,-0.37528,-0.03218,-0.11556,0.00465,0.05296,-4.30044,-14.20888,15.0486,-1.21223,-12.2207,13.44069,0.25863,0.48338,3.46482,-0.17082,-1.15495,-0.66468,-0.83313,-3.55176,0.68999,2.91592,-0.37713,0.72339,-0.3423,-0.68929,0.15686,0.42906,-0.08545,0.09806
542,-4.74414,-2.49778,0.70158,-4.76326,1.72811,0.77409,-12.43227,-11.67487,-0.82038,-1.02825,13.10997,7.23747,0.41456,-0.38539,0.02402,-0.24935,-0.14467,-0.10188,-12.76538,4.10338,10.79744,-1.7222,-40.46465,10.10329,-0.29926,1.06849,0.13495,0.12267,-0.06361,-0.33175,2.96099,-2.28979,-1.29525,2.59882,-0.27273,0.46741,0.16819,-0.51788,-0.14033,0.33268,-0.0514,0.01593
543,-3.85381,1.393,-0.4426,-2.00661,0.9078,0.21511,-5.95913,6.06087,-2.39458,13.01569,6.213,2.45185,0.53161,-0.33313,0.07654,-0.11869,-0.17188,-0.20685,12.41242,13.21119,-1.95536,-7.80466,-59.49473,8.20582,0.99585,1.52264,-0.89787,3.66051,0.73336,1.262,5.43564,-2.01418,-2.22177,0.8794,-0.05855,0.00552,0.55327,-0.27847,-0.26547,0.07839,-0.04706,-0.03515
544,-1.68869,3.48047,-1.05354,1.10651,1.12249,-0.22636,6.69804,12.92682,-1.77478,24.5043,-0.44092,-2.40884,0.53813,-0.25977,0.07514,-0.02489,0.05819,-0.09863,41.53053,7.18005,-9.20815,-17.77874,-63.3814,8.34416,1.51729,1.38587,0.22776,4.90472,0.22786,1.89247,5.97409,-3.11357,-1.93992,-0.70721,-0.18484,-0.16699,0.7828,-0.25144,-0.23476,-0.20968,-0.12988,-0.02416
545,-0.54233,3.32269,-0.93528,-0.54912,1.38749,0.22816,12.09764,7.30117,-0.07545,19.06109,-2.32187,-3.58983,0.51588,-0.21509,0.06801,-0.06243,0.23937,0.07736,39.48426,-4.13587,-4.80388,-20.90788,-43.56267,6.09766,0.78714,0.64026,1.24947,2.57719,-0.92704,1.16939,4.95649,-3.82533,-1.17804,-1.07201,-0.52886,0.10423,0.84738,-0.36231,-0.16182,-0.35577,-0.18562,0.02976
546,-0.70035,2.27715,-0.51189,-5.51468,0.86007,1.22376,8.34413,-0.15996,0.81005,5.36788,-0.48309,-1.30343,0.53548,-0.16282,0.11525,-0.15341,0.13941,0.15982,16.41533,-6.39616,5.18006,-10.89856,-13.42396,-0.19041,1.13207,-0.06035,0.22908,-0.23856,-1.99744,-0.76078,3.54125,-2.26315,-0.9658,0.19261,0.05138,0.30029,0.7505,-0.22167,-0.18488,-0.17277,-0.01068,0.06135
547,-1.12484,0.85288,-0.01636,-8.67737,0.45372,1.89774,3.77054,-3.82927,1.17153,-0.90686,2.34243,1.61774,0.54604,-0.10214,0.13145,-0.18673,-0.05677,0.17513,3.59634,-0.34355,12.22526,5.13902,-3.88977,-3.94554,3.65456,-0.74157,-2.04764,-0.13184,-2.75385,-2.83297,2.25132,0.59476,-1.25694,1.97978,1.77586,-0.0535,0.48466,0.17641,-0.2711,0.22542,0.38086,0.0081
548,-1.61586,-1.31438,0.59313,-7.63497,0.51625,1.69473,2.38471,-7.60007,2.28844,4.24705,2.43206,1.64256,0.50553,-0.17615,-0.01945,-0.139,-0.15901,0.10439,9.67811,-2.30802,11.18086,16.82606,-22.57395,1.31734,6.28005,-1.68943,-2.8219,3.16608,-2.66771,-2.85466,0.71899,1.82925,-0.99969,2.24146,2.91014,-0.6806,0.08685,0.37904,-0.22096,0.43822,0.65219,-0.11565
549,-1.99287,-3.02156,0.9782,-4.73873,0.104,0.87981,2.3987,-12.08433,3.35756,13.38308,-1.31745,-1.21018,0.49951,-0.40689,-0.21511,-0.14131,-0.21201,-0.13149,21.28105,-15.63307,3.0517,18.6037,-47.76841,11.16305,6.63053,-2.15284,-1.16663,5.96831,-1.47244,-0.39311,-0.81244,0.76224,0.03364,0.49559,1.92452,-0.86913,-0.23568,0.25507,-0.00965,0.23611,0.48474,-0.19417
550,-1.98815,-2.72494,0.75402,-3.80338,-0.90478,0.31159,1.49027,-13.19835,2.56544,17.02983,-4.03764,-2.82137,0.57639,-0.59198,-0.21978,-0.27955,-0.30558,-0.44734,23.96937,-24.28467,-4.50653,5.94142,-59.69774,16.58263,4.55001,-1.25058,1.40402,5.27498,-0.02883,2.4267,-1.53778,-0.96319,0.95894,-2.00003,-0.36095,-0.4262,-0.31991,0.05408,0.17471,-0.26952,-0.00434,-0.1423
551,-2.20113,-0.81929,0.09915,-4.64808,-1.40248,0.29355,0.34859,-9.59104,0.16025,15.47231,-1.36567,-1.01305,0.59552,-0.55543,-0.05273,-0.33792,-0.42207,-0.63515,20.51222,-18.08859,-4.76183,-16.51031,-54.00555,16.4537,1.74843,0.74927,3.65622,2.5438,0.5802,3.63471,-1.39025,-2.54424,1.15973,-3.96722,-1.83029,0.10781,-0.26478,-0.12793,0.20481,-0.79499,-0.37251,-0.01975
552,-2.73509,1.16913,-0.51058,-3.89767,-0.55605,0.40421,2.52777,-3.31287,-1.62291,17.60343,3.95608,1.88743,0.44394,-0.34388,0.07818,-0.07584,-0.409,-0.54013,26.6286,-4.28972,1.30291,-27.55253,-38.89883,15.45795,0.37609,2.2157,4.48737,0.77505,0.35906,3.03648,-0.7069,-3.54884,0.68487,-4.12568,-1.59609,0.31896,-0.16929,-0.26449,0.09425,-0.95909,-0.36916,0.0661
553,-2.91616,2.35806,-0.80084,-1.26638,1.17616,0.51308,7.63019,2.98247,-1.32813,26.39733,6.42764,3.17514,0.24782,-0.14705,0.08555,0.32528,-0.1731,-0.17008,45.07043,6.59339,7.35664,-13.78353,-30.7075,16.782,1.64714,1.74858,3.15102,1.69866,0.05164,1.8136,0.00762,-3.01016,0.03636,-1.9592,-0.43861,0.25604,-0.07615,-0.21247,-0.03664,-0.56458,-0.11381,0.06891
554,-2.81814,2.61903,-0.76641,0.60365,2.50663,0.71703,10.53176,5.93553,0.21778,35.6743,5.46228,2.63448,0.21493,-0.11189,0.0438,0.55725,0.10051,0.24261,62.37434,11.24573,8.86655,10.71191,-35.96534,19.26514,4.52981,0.42593,1.49189,4.73035,0.07496,0.97569,0.10363,-1.56554,-0.08514,0.96275,0.73781,-0.02986,-0.08991,-0.0246,-0.02052,0.10954,0.17668,0.00224
555,-2.56174,2.09743,-0.53743,2.01283,1.75642,0.44326,10.50033,2.50076,1.44949,40.00217,2.25751,0.29119,0.39249,-0.21034,0.03884,0.74226,0.10883,0.35394,69.80164,6.49367,6.03792,25.81473,-44.92017,17.83642,6.29205,0.02024,1.6328,5.96254,0.27438,0.36311,-0.31153,-1.2058,0.4606,2.52494,1.24409,-0.327,-0.20992,-0.00213,0.17115,0.55804,0.30607,-0.06371
556,-1.45397,0.8063,-0.10286,5.44811,-1.89388,-0.82652,11.7319,-6.89146,2.38868,37.80869,-5.00945,-4.32487,0.65718,-0.3146,0.0838,1.14217,-0.1834,0.06488,66.91502,-12.86378,2.24597,26.04203,-48.86579,12.26219,5.2034,0.12282,2.8027,2.4525,-0.14811,-0.4901,-0.88008,-2.17177,1.16221,1.69884,0.70766,-0.36226,-0.34427,-0.26852,0.38881,0.4076,0.17452,-0.08501
557,0.09233,-1.0405,0.57664,10.25386,-5.76632,-2.29867,13.54939,-14.96956,3.73184,32.51514,-14.05806,-8.99063,0.79329,-0.36548,0.10195,1.58426,-0.45701,-0.28255,57.49003,-35.68082,0.36618,12.64998,-48.38209,11.74514,2.69703,-0.03357,3.27026,-2.73473,-1.84692,-1.37877,-1.36389,-2.99951,1.4323,-0.80663,-0.2246,-0.29116,-0.35704,-0.61488,0.43913,-0.21242,-0.09491,-0.09196
558,0.13695,-1.88872,0.94637,12.1942,-5.69855,-2.54871,9.83795,-10.89787,4.16013,30.1322,-16.09632,-9.16017,0.6483,-0.33968,0.03349,1.60917,-0.41332,-0.28783,47.25986,-34.31318,-0.20853,-11.0176,-49.07116,21.06066,1.61055,0.47344,2.88448,-4.31098,-3.44218,-1.61771,-0.92502,-2.98923,0.90894,-2.30386,-0.56816,-0.28174,-0.07021,-0.73553,0.207,-0.60317,-0.24783,-0.08354
559,-2.26064,-0.38794,0.41254,7.89938,-1.09443,-1.11472,-2.64407,4.60448,1.82609,28.33565,-5.75221,-2.88247,0.33427,-0.21862,-0.0547,1.06684,-0.06557,0.03812,30.96043,-1.29061,-0.43106,-31.18347,-55.61156,30.45658,1.75657,2.20937,2.106,-1.68578,-2.42343,-0.78897,0.90571,-2.27418,-0.26146,-0.92586,-0.33908,-0.11799,0.39977,-0.46562,-0.17218,-0.33851,-0.14171,-0.04745
560,-5.18917,1.94698,-0.48812,-0.87986,4.16782,0.92809,-15.84709,14.74809,-1.48244,19.43182,9.50081,4.91271,0.17398,-0.1113,-0.05577,0.35252,0.30872,0.32126,4.26685,30.50481,1.24437,-32.68918,-65.62011,30.14431,0.84792,3.76202,1.23738,1.69833,0.73461,0.56628,2.92728,-1.49225,-1.35476,1.59124,-0.16812,0.26287,0.61819,0.00491,-0.38637,0.1376,0.10731,-0.03737
561,-6.47525,2.55651,-0.7274,-7.85983,6.1021,1.9278,-18.3319,8.49504,-2.01901,4.80582,16.60157,6.84061,0.31583,-0.19597,-0.00128,0.04452,0.40863,0.27014,-18.77805,28.64435,5.25927,-20.27094,-71.03295,24.17406,0.17179,3.06779,0.90668,4.07966,2.30483,1.7054,3.27132,-1.9297,-1.58803,2.19801,-0.25858,0.53951,0.37836,0.20529,-0.31072,0.21164,0.23132,-0.05626
562,-6.31834,1.1449,-0.18392,-9.25963,5.2523,1.56421,-12.00149,-5.01013,0.12994,-7.87797,15.80213,4.34676,0.5495,-0.44713,-0.00255,0.21897,0.24227,0.00454,-27.15966,7.69239,10.86143,-9.65152,-65.43354,22.36094,3.23026,-0.21584,1.38614,6.24402,0.72683,3.13435,1.75217,-3.9913,-0.81061,0.22692,-0.76795,0.88341,-0.03815,-0.13194,-0.07824,-0.13995,0.06126,0.03169
563,-5.83639,-0.77804,0.54163,-7.53912,5.17058,1.05834,-6.79937,-12.53013,1.70757,-14.9349,19.10915,6.06368,0.59677,-0.60217,-0.03752,0.39585,0.12078,-0.13874,-25.95815,2.94252,19.3127,-0.38856,-50.48933,28.04343,7.7712,-2.75456,2.53988,7.52902,-1.30718,4.7407,0.00948,-6.0406,0.36801,-2.03369,-1.53474,1.58246,-0.26636,-0.68889,0.16836,-0.47294,-0.22751,0.2525
564,-5.38353,-2.01465,1.12547,-5.66734,6.5401,1.02792,-5.85487,-13.29015,2.15179,-15.72561,28.07972,12.60933,0.49182,-0.53109,0.00809,0.40747,0.17005,-0.09929,-22.03538,14.68416,29.71909,16.74695,-38.0048,37.12664,7.33261,-1.18073,4.43143,6.01517,-1.65331,4.58512,-0.85039,-6.69611,1.32155,-1.99064,-1.70404,1.9626,-0.28993,-1.05944,0.40213,-0.42726,-0.31447,0.38428
565,-5.59385,-2.26192,1.54316,-3.4816,7.63724,0.9518,-9.27331,-11.67607,3.39693,-9.74919,32.98623,15.66773,0.44631,-0.44773,0.08246,0.56376,0.28218,-0.0141,-20.11257,20.95599,35.08663,33.91555,-40.43481,42.05772,2.43343,1.87402,6.11504,3.17691,-1.82386,2.29332,-0.92377,-6.72672,1.75819,0.40234,-1.02784,1.37564,-0.20424,-1.28605,0.54197,-0.06145,-0.17103,0.28203
566,-6.98944,-1.68873,1.5652,-1.11115,7.64399,0.65497,-17.9045,-7.97557,4.62823,1.96982,28.80806,11.83518,0.48068,-0.52717,0.04263,0.78337,0.37044,0.09624,-21.12707,17.45727,28.37222,36.16402,-55.32846,36.82411,0.4167,1.58484,5.33104,3.03369,-3.37543,0.3662,-0.49593,-6.05193,1.45645,3.06085,-0.35323,0.3714,0.01692,-1.2316,0.40106,0.33116,-0.00235,0.05499
567,-8.73029,-0.58711,0.94681,0.2887,7.2407,0.50191,-28.01036,-1.25145,2.75546,15.72974,21.75109,6.77989,0.44548,-0.60875,-0.06549,0.69236,0.40307,0.22761,-19.94909,18.22285,12.02059,26.38391,-63.07169,25.20147,3.16855,-1.59781,1.39518,6.76826,-4.78328,0.79142,0.44823,-3.0911,0.36291,4.23824,-0.41302,0.02901,0.31718,-0.48711,-0.03167,0.57436,0.07007,-0.11603
568,-8.48174,0.48389,0.05219,1.17117,7.82457,0.46933,-30.18238,7.24664,-1.50844,25.1425,22.40162,6.118,0.36518,-0.53719,-0.05855,0.50692,0.39387,0.2965,-12.30596,35.31825,-0.51732,18.69231,-48.442,23.20271,4.92047,-3.40532,-2.05201,12.28048,-4.29379,3.33534,1.72816,-0.0222,-0.83879,3.3956,-1.18692,0.94488,0.50283,0.42854,-0.40076,0.55702,-0.00782,-0.06282
569,-5.98595,0.48266,-0.15276,1.92785,8.05302,0.29237,-22.28561,11.04713,-3.31809,24.61569,26.97038,7.60747,0.34932,-0.41183,0.07683,0.60472,0.29298,0.20178,-3.82394,51.1665,-0.08881,17.62295,-22.18946,41.51637,2.74112,-2.02951,-0.4696,17.00594,-2.58709,6.56009,2.20687,-1.58742,-0.75536,0.79848,-2.12794,2.74391,0.33071,0.34389,-0.24395,0.11505,-0.25697,0.28799
570,-4.98064,-0.99634,0.73949,1.77361,6.1325,0.17436,-14.26166,3.00258,-0.40152,18.13546,22.70728,6.51455,0.30525,-0.34703,0.15662,0.80508,0.15827,0.08031,0.73768,36.49157,7.81001,17.8894,-8.60335,65.82229,1.19857,-0.49939,3.82247,19.60583,-1.33702,8.64054,2.0623,-6.98984,0.3098,-1.91189,-2.54984,4.11737,0.03155,-0.80629,0.22753,-0.55581,-0.48995,0.68344
571,-6.09682,-2.15049,1.55024,0.74657,3.05419,0.33104,-8.16645,-9.93822,3.83068,14.57381,8.98252,2.51548,0.26441,-0.3118,0.13676,0.84597,0.13798,0.11761,10.69641,0.6706,13.06205,10.30961,-13.15375,71.59505,3.38336,-1.5276,3.61457,21.92643,-1.57421,9.13689,2.84765,-8.8158,0.091,-1.86479,-2.62541,4.46972,0.11228,-1.58738,0.28121,-0.72406,-0.55508,0.77988
572,-5.99099,-1.79081,1.2858,0.98594,-0.26706,0.20055,2.14661,-14.64995,5.26662,18.82498,-5.99443,-3.06393,0.40179,-0.3414,0.08251,0.90123,0.12561,0.12174,34.0915,-24.87768,10.23945,-9.68329,-16.16411,57.40928,4.75755,-3.0574,-1.83333,27.66694,-3.98851,9.44134,3.82786,-3.4245,-1.70688,1.43134,-2.85636,4.29141,0.41094,-0.91378,-0.15113,-0.13831,-0.53945,0.57361
573,-2.95095,-0.89964,0.45432,3.75061,-3.88008,-0.65031,16.8161,-9.68433,3.58001,28.68717,-18.32279,-9.44551,0.66889,-0.43454,0.03612,1.09845,-0.06305,-0.13563,62.37633,-33.32971,0.56754,-22.88219,-3.74066,43.82315,1.96142,-2.37145,-5.57379,36.65641,-8.62801,10.08954,4.93125,2.2926,-3.29434,5.30581,-2.74562,3.52865,0.7411,0.28129,-0.59327,0.66786,-0.5169,0.34757
574,0.66119,-0.24816,-0.12789,6.74855,-5.35666,-1.46272,25.94191,-3.66383,1.30328,35.2856,-23.49948,-13.53634,0.79906,-0.39839,0.03078,1.20794,-0.20822,-0.36623,73.25346,-34.25751,-8.29778,-11.35925,11.97883,40.78566,-0.38372,-0.63848,-3.96144,44.42916,-12.77487,10.41762,6.23109,2.21827,-3.35829,7.55464,-1.85332,2.27299,0.99721,0.69077,-0.67789,1.27085,-0.49856,0.37891
575,1.95891,-0.37398,-0.00939,6.49872,-3.17935,-1.33767,21.64752,-3.80002,0.76257,31.25739,-17.34249,-12.21313,0.65526,-0.19764,0.02063,1.00823,-0.08225,-0.23792,54.88298,-29.64643,-9.98262,6.22032,12.81855,41.563,0.86997,-1.17293,-1.97767,48.09745,-11.76601,10.48896,5.37245,0.06066,-2.27659,7.68595,-1.0172,1.96418,0.70117,0.49276,-0.40098,1.40057,-0.53021,0.69953
576,1.3861,-1.30011,0.54007,2.48075,-0.65846,-0.47248,9.52159,-6.96412,1.08542,18.29225,-5.80294,-6.53444,0.4094,-0.06117,-0.03822,0.5775,0.08437,0.06316,21.08094,-15.6592,-6.35665,8.81231,-8.06714,44.6921,0.88972,-4.25923,-2.73857,47.34853,-4.31926,10.74587,2.17662,-0.35758,-1.05848,7.60124,-1.17622,3.5739,-0.08541,0.08853,0.05146,1.19664,-0.67123,1.07152
577,0.73608,-1.09257,0.34042,-2.94978,-0.84842,0.46451,0.10811,-4.81254,-0.32653,1.04919,0.39982,-0.02607,0.34568,-0.09031,-0.03742,0.15604,0.03597,0.22405,-11.215,2.79905,-1.42079,8.48255,-35.21896,50.98604,-4.08258,-6.76523,-4.22127,42.27592,4.06741,10.35043,-0.46048,1.19678,-0.71825,9.56365,-1.21771,5.01935,-0.61303,-0.18152,0.32009,1.32019,-0.72988,1.12788
578,0.07463,0.78956,-0.77417,-6.36421,-2.61655,0.99735,-3.51495,-0.14222,-2.63352,-13.15038,-2.55254,3.69181,0.51847,-0.1814,0.07702,-0.03691,-0.15314,0.19514,-32.48879,7.47946,3.09178,19.25888,-40.91777,51.08163,-9.18611,-7.00069,-5.78912,36.00098,8.01474,8.64777,-2.04598,4.68402,-1.19819,12.94698,0.37182,4.52956,-0.67378,0.15238,0.16578,1.93088,-0.45203,0.88136
579,-0.85756,2.13489,-1.51601,-4.55873,-3.28818,0.76715,-2.65806,-1.35577,-3.07833,-10.17221,-8.3733,2.58436,0.69545,-0.19729,0.17526,0.1275,-0.28687,0.0459,-27.20836,-6.23591,3.66574,33.33448,-26.1459,37.0854,-7.28452,-5.82519,-6.66057,32.60601,10.10821,7.34316,-2.93964,6.42637,-1.26541,16.53927,2.87214,3.97089,-0.40003,0.55075,-0.1621,2.64527,0.0108,0.70317
580,-1.75847,1.79916,-1.32989,1.10859,-1.31462,-0.01085,0.02491,-5.97323,-2.07367,11.3719,-5.15591,-0.59951,0.64318,-0.09967,0.12986,0.5098,-0.23538,-0.12627,4.30248,-13.36693,-1.67999,33.35061,-14.31813,11.98062,0.11785,-3.99523,-4.81474,29.57529,14.88972,7.42789,-2.68008,3.45664,0.02531,19.19743,4.68806,4.66536,-0.08491,0.36429,-0.15317,3.05651,0.45398,0.51658
581,-3.26467,1.31117,-1.15832,4.27259,2.60159,-0.54471,-2.96772,-5.10782,-2.34317,27.96063,10.84842,-1.08252,0.38731,0.02524,-0.02153,0.764,-0.01142,-0.21512,24.11142,5.21914,-9.66713,16.22,-8.03459,-13.26,5.77684,-2.90736,-1.34277,21.54749,20.82481,8.40693,-1.44916,-1.38231,1.9918,18.11503,4.35796,5.82307,-0.08252,-0.20991,0.33411,2.69576,0.68556,0.20008
582,-5.64546,1.71052,-1.57355,1.78979,5.23748,-0.55974,-14.58094,1.52089,-4.52065,21.29528,24.73145,0.17287,0.186,0.04829,-0.13258,0.69814,0.20926,-0.23081,4.59248,29.24885,-17.03374,4.93975,4.23512,-28.1243,6.87709,-4.44893,-0.10063,9.31516,21.86263,8.747,1.51456,-4.09995,1.95565,12.87226,2.15964,5.9171,-0.05237,-0.71049,0.69787,1.58775,0.56086,-0.06199
583,-7.36032,1.6704,-1.71795,-1.60202,5.03926,-0.45611,-24.62675,4.94578,-6.15553,6.99687,22.56749,-1.10282,0.15639,-0.05789,-0.14262,0.47643,0.32173,-0.21289,-24.83644,31.18636,-22.12632,22.17369,15.95586,-31.03415,7.45117,-7.62535,-2.53907,-1.6822,14.91612,5.47579,7.6419,-4.44857,-1.78873,7.80215,1.0707,4.26524,0.69536,-0.95665,0.25223,0.49453,0.37308,-0.18762
584,-7.77398,-0.07735,-0.75152,-0.80026,4.15488,-0.40944,-25.03139,-2.00674,-4.93207,8.84416,11.80529,-3.92744,0.1131,-0.20842,-0.13567,0.41641,0.35027,-0.14726,-25.37459,13.2907,-21.85543,57.91088,20.78407,-27.88329,11.24773,-9.57206,-6.90545,-8.53331,4.34413,-0.77638,14.44845,-3.82393,-6.9173,5.44245,1.68075,2.48761,1.93888,-0.96914,-0.77424,-0.10721,0.22734,-0.15807
585,-8.44279,-2.44556,0.67201,2.22044,4.24025,-0.19017,-21.55128,-15.29484,-2.06008,21.2501,7.10001,-3.51526,-0.08882,-0.34044,-0.19702,0.54263,0.30942,-0.04082,-7.59659,-4.83571,-14.43774,83.39017,29.63361,-28.20871,15.5334,-9.04193,-10.04328,-11.88918,-2.83395,-4.65583,14.38912,-2.53065,-7.99598,5.18112,1.31454,2.49727,2.28118,-0.73515,-1.25506,-0.10837,-0.07563,0.01445
586,-9.60573,-3.38012,1.29777,3.36224,4.90509,0.28204,-19.77717,-23.94552,-0.30905,26.62656,11.24371,0.90044,-0.29601,-0.38711,-0.27341,0.62054,0.27928,0.11019,4.03205,-10.39844,-4.17561,79.0087,38.5096,-40.48603,15.57238,-5.80141,-9.15944,-13.68273,-4.72369,-3.83581,3.79409,-1.19425,-2.18285,6.25636,-0.64047,4.02666,0.82606,-0.33879,-0.52753,0.41372,-0.36273,0.21607
587,-9.16284,-2.70053,1.11287,2.68213,4.94207,0.70379,-15.29023,-24.04519,0.56773,25.69106,14.7757,4.39748,-0.29617,-0.30711,-0.25869,0.58607,0.30909,0.2763,16.37501,-9.33589,1.66756,44.15233,23.31393,-61.7893,10.92506,-1.01778,-5.58013,-16.04854,-4.65673,-2.14702,-9.64441,-0.20301,5.46792,7.55015,-2.17103,5.48462,-1.26615,0.09911,0.56878,1.01647,-0.3406,0.37416
588,-6.10923,-1.94522,1.10212,1.95187,3.91754,0.85475,-4.32473,-20.47048,2.60053,26.33382,10.73623,3.75974,-0.08604,-0.20583,-0.13225,0.54652,0.31787,0.37982,38.87367,-13.22522,2.83307,5.51724,-14.41854,-73.78166,5.91971,2.41059,-2.51405,-20.99906,-5.34925,-3.23058,-14.06718,0.16391,8.01898,7.5959,-2.51661,6.07192,-1.8582,0.31509,0.95092,1.19884,-0.18726,0.52123
589,-3.21233,-2.0838,1.66321,1.52529,2.32647,0.79758,4.39485,-17.23243,5.08876,25.98242,2.0894,1.09306,0.15254,-0.22689,0.04691,0.55594,0.24732,0.36985,50.60495,-22.61555,4.41193,-0.36311,-35.955,-64.71012,5.01579,3.38086,-1.82661,-29.10271,-6.6431,-6.65288,-8.02896,0.00346,5.14923,5.78119,-2.81703,5.72111,-0.5957,0.19013,0.60532,0.74606,-0.2261,0.55237
590,-3.61695,-2.82405,2.37058,1.84172,0.30286,0.46522,2.18237,-12.77507,5.76019,23.54088,-5.15017,-1.19755,0.26891,-0.38263,0.20292,0.6271,0.09956,0.22153,39.59698,-27.65253,6.13537,29.96483,-16.74652,-50.21945,7.33008,3.79803,-4.09367,-37.46206,-7.79711,-11.21655,-0.85234,0.90354,0.69343,3.61879,-3.02537,4.60528,0.76299,0.11995,-0.05568,0.0609,-0.30454,0.33914
591,-5.81506,-3.07797,2.53007,3.74658,-2.1657,-0.24639,-2.02942,-3.99351,4.95469,26.03238,-8.33594,-3.17177,0.32815,-0.51795,0.3033,0.75438,-0.11934,-0.03606,33.75551,-19.16563,4.90997,54.46545,20.45953,-51.60207,7.92475,5.73688,-5.33362,-41.98301,-8.40106,-17.05181,0.60488,1.47398,-1.06308,2.63727,-1.62217,3.05041,0.77113,0.15345,-0.33089,-0.23526,-0.04618,0.01324
592,-6.31587,-2.47766,2.03004,6.24306,-5.18156,-1.07303,3.8707,4.74007,4.99553,32.6791,-12.70605,-6.22451,0.47473,-0.54863,0.33762,0.86811,-0.36605,-0.2877,51.89287,-10.33924,1.79735,37.14714,45.08792,-65.34853,4.85728,8.2402,-2.80783,-41.23607,-7.7234,-22.99972,-1.63095,-0.07369,0.36963,1.98203,1.48784,1.09229,-0.17492,0.01311,-0.05128,-0.12895,0.54829,-0.22982
593,-5.45243,-1.97194,1.55562,6.91449,-8.61454,-1.5566,13.11066,5.62712,6.10369,34.23573,-24.1394,-10.64274,0.59341,-0.58556,0.26757,0.80479,-0.57001,-0.43206,69.61687,-22.27652,-1.01936,-2.6471,52.35315,-69.86007,2.21469,9.08362,-0.55125,-35.94355,-5.25516,-24.87087,-2.48836,-1.51788,1.21531,0.90081,4.27013,-0.8292,-0.77776,-0.12405,0.02536,0.0454,1.07815,-0.34905
594,-5.43545,-2.0153,1.43336,5.27023,-10.416,-1.48267,12.71436,0.65792,6.44686,30.18296,-34.43584,-13.39923,0.44433,-0.64834,0.09739,0.52445,-0.66512,-0.45128,63.3869,-42.41098,-2.92378,-21.28155,50.03682,-56.96611,3.99017,8.23691,-1.8803,-28.30242,-1.73934,-21.08143,-0.93889,-1.0075,-0.04926,-0.17033,5.46457,-2.15095,-0.56067,0.0303,-0.35046,0.05568,1.35352,-0.45534
595,-5.80979,-1.47734,0.97838,3.64743,-8.75815,-1.07417,5.37195,-1.47598,5.47461,29.1463,-31.44408,-11.9116,0.10745,-0.51561,-0.06411,0.38471,-0.60745,-0.37998,46.25116,-41.21387,-3.88686,-2.93664,44.06082,-41.32459,7.76544,7.55422,-3.8779,-21.91393,0.442,-16.29861,1.1211,-0.06656,-1.12278,-0.84462,5.45169,-2.64412,0.07811,0.25264,-0.61665,-0.142,1.415,-0.57412
596,-5.42234,0.35457,-0.31733,3.88219,-5.26396,-0.73177,1.09763,1.50926,3.86666,33.51795,-19.02918,-8.54781,-0.16415,-0.11287,-0.12753,0.69467,-0.39724,-0.25759,38.64289,-19.22136,-5.02373,36.37069,40.06568,-39.45496,7.9401,7.67603,-3.50106,-18.38406,-0.49299,-16.06061,2.13564,0.19172,-0.99863,-0.85077,5.37954,-2.41206,0.55188,0.30422,-0.55238,-0.38033,1.3349,-0.61713
597,-5.10136,2.13244,-1.81664,4.9692,-2.54386,-0.60854,1.38425,5.35354,1.31923,36.59811,-9.1934,-7.00248,-0.25701,0.19464,-0.11105,1.10974,-0.1012,-0.10973,39.69079,0.58201,-8.25911,65.59999,39.33935,-46.92184,4.15489,7.13895,-2.12305,-15.36618,-3.00077,-18.90668,2.08998,0.53406,-1.14882,-0.39057,5.69131,-2.03928,0.58512,0.28791,-0.50039,-0.49126,1.17293,-0.57486
598,-5.13832,2.8289,-2.96916,4.72276,-0.56084,-0.50634,3.44002,8.1496,-2.84875,34.01126,-3.21855,-6.60152,-0.09061,0.13523,-0.05532,1.06804,0.15539,0.02912,41.49715,10.10998,-13.4712,62.62267,34.87333,-43.16042,0.99257,5.14994,-1.28994,-9.77956,-3.85026,-17.72353,1.64491,0.79055,-1.45209,-0.24998,5.27935,-1.8241,0.35453,0.21731,-0.45183,-0.43177,0.87641,-0.43236
599,-4.96781,3.15189,-3.91928,2.87839,1.98401,-0.18778,5.02462,8.96846,-7.31159,30.10065,4.48101,-4.2013,0.25633,-0.02728,-0.01091,0.61162,0.28384,0.1422,42.31213,14.49043,-17.32181,39.08449,26.1425,-20.97264,1.48834,3.34221,-0.38647,-1.81977,-2.11699,-10.07601,1.19486,-0.16937,-0.24501,-0.55308,3.53045,-1.35958,0.17468,-0.02361,-0.06354,-0.21974,0.46255,-0.15281
600,-5.36475,3.23661,-4.24518,1.06668,5.0138,0.32955,2.9854,4.39174,-9.00111,29.64947,14.34301,0.6947,0.41448,0.00889,-0.05093,0.22775,0.32991,0.27323,38.90112,15.56714,-15.48546,24.41214,22.60613,3.43473,5.05186,3.39664,0.32846,5.21486,0.09293,-1.00697,1.28165,-1.7173,1.78835,-0.40186,1.27269,-0.35793,0.19955,-0.28894,0.45973,0.0659,0.07904,0.13428
601,-6.23024,2.76516,-3.60933,0.09616,6.79048,0.64871,-4.18418,-2.33936,-7.08996,28.05109,21.78046,5.06812,0.14849,0.18388,-0.16308,0.25259,0.36477,0.36779,22.7944,18.89263,-8.42566,24.62693,23.99493,11.79716,8.96054,4.56555,-0.45235,8.83694,0.58105,4.56707,2.09206,-2.13412,2.27415,0.66022,-0.80453,0.88733,0.35635,-0.32938,0.56488,0.28611,-0.24444,0.25999
602,-6.55962,2.32767,-2.88242,0.29048,6.30138,0.36049,-15.11429,-3.01142,-4.56737,21.91593,23.86974,5.77085,-0.32322,0.29653,-0.24749,0.65412,0.38665,0.27214,-3.95401,29.7168,-3.6339,24.49483,18.87115,1.42395,9.85138,4.97401,-2.29667,9.48035,-1.01278,6.063,2.22383,-1.15833,0.8561,1.64695,-2.65118,1.87429,0.3708,-0.16907,0.20344,0.29087,-0.62691,0.27599
603,-6.27663,2.26568,-2.70706,1.77079,4.83212,-0.28191,-22.18925,1.40203,-3.78709,17.84004,20.94094,2.96486,-0.41733,0.27661,-0.21945,0.98099,0.36723,0.02373,-17.96624,36.79594,-5.61676,26.46324,8.70043,-14.44626,6.00139,4.10378,-2.92737,9.02964,-3.15096,4.93067,0.57992,-0.00531,-0.54956,1.9703,-3.53709,2.34827,0.0676,-0.01974,-0.1501,0.1846,-0.92774,0.31516
604,-6.49611,1.38265,-2.03517,1.86511,3.17977,-0.55074,-21.12082,0.21969,-3.91927,16.55539,12.95313,-0.35346,0.00681,0.12201,-0.10929,0.80171,0.24879,-0.1724,-12.55488,21.69287,-9.93348,49.66337,14.39906,-17.63077,-0.28772,2.74375,-1.07264,8.89128,-3.75031,2.95164,-0.67224,0.39456,-0.7328,2.30248,-2.68914,2.26562,-0.23649,0.02259,-0.1681,0.21303,-0.85127,0.34176
605,-8.81287,-1.16027,0.00293,-0.934,1.48398,-0.16395,-20.69447,-10.84432,-3.72519,12.02455,3.25375,-1.46696,0.30835,-0.14474,-0.03126,0.37727,0.09867,-0.14755,-12.2132,-9.59069,-11.03365,86.9306,46.37503,-4.44582,-4.23935,1.61096,1.59186,9.99467,-2.3132,1.59612,0.97115,0.33203,-0.48154,3.07623,-0.64079,1.73218,-0.12882,0.06617,-0.0282,0.38841,-0.43653,0.25948
606,-12.9024,-3.43544,1.71263,-3.89686,-0.07991,0.32136,-28.70417,-20.3854,-3.87849,5.04317,-2.56966,-0.81215,0.11082,-0.33331,-0.03809,0.19427,-0.01352,-0.00509,-30.57411,-27.44759,-9.57633,104.22392,82.40429,9.77739,-3.1803,0.968,2.412,12.15526,-0.42858,0.89066,4.27124,0.37941,-0.77582,3.73827,1.36201,1.00328,0.33146,0.18666,-0.04565,0.49532,-0.01015,0.10471
607,-15.85667,-3.63051,1.52534,-4.00182,-0.82237,0.33618,-39.424,-18.68741,-5.13679,3.58375,-1.41932,-0.07989,-0.19403,-0.34829,-0.0622,0.34389,-0.07553,0.04109,-49.00293,-17.34735,-9.52348,90.58349,92.19688,11.70006,1.1707,0.75368,1.21687,13.35723,0.11867,0.17341,6.37326,0.27951,-1.18271,3.82757,2.32984,0.54579,0.81794,0.22859,-0.16037,0.43225,0.16591,0.01527
608,-15.18262,-2.60532,0.52849,-1.87453,0.54453,0.02459,-41.96705,-11.44197,-6.093,8.77052,6.6622,1.33308,-0.17052,-0.31516,-0.01646,0.64694,0.01166,0.02212,-48.63538,5.72028,-9.9802,67.59879,73.7069,2.91013,5.17189,0.81938,0.00785,12.5618,-0.48966,-0.1469,6.64095,-0.45965,-0.84532,3.54262,2.10677,0.62741,1.14883,0.05052,-0.1137,0.32501,0.12788,0.03832
609,-11.97062,-1.9409,0.3859,-0.4955,3.02836,-0.17908,-34.17291,-8.84163,-4.80303,12.3338,16.70872,4.53018,0.12607,-0.27991,0.09552,0.83112,0.18634,0.0241,-36.06569,20.04406,-6.00715,51.75512,49.80898,-9.09938,6.27143,0.80786,-0.47652,12.30594,-0.64009,0.87826,5.08863,-1.14677,-0.10283,3.00039,1.4591,0.78694,1.0565,-0.17776,0.06144,0.26375,0.09702,0.06492
610,-9.40202,-2.2109,1.33401,-0.57471,4.10777,-0.13964,-23.63735,-12.65588,-1.98549,11.50672,22.53306,8.34499,0.35544,-0.21375,0.21029,0.79684,0.25047,0.01554,-25.23182,20.18435,2.15928,43.34791,35.88916,-16.75995,4.4688,0.73286,-1.01545,14.74024,0.23184,2.80524,1.51712,-0.81302,0.25672,2.15959,1.19322,0.45592,0.35445,-0.21095,0.14093,0.19481,0.16647,-0.00462
611,-9.22832,-3.0038,2.40273,-0.64165,2.95502,-0.0147,-19.53669,-17.49811,-0.47742,10.88783,21.10299,9.65793,0.14747,-0.18033,0.22623,0.76157,0.19079,-0.02515,-21.52399,12.44983,6.66174,42.14227,31.74726,-12.93562,2.01488,0.89153,-1.46107,17.69599,1.17153,4.10105,-1.81644,0.04324,0.24849,1.68403,1.37881,-0.03707,-0.44011,-0.08201,0.11136,0.15659,0.23828,-0.09884
612,-10.5354,-3.14183,2.25896,-0.08256,0.74927,0.02593,-22.10258,-18.52329,-1.37732,12.96622,12.22509,5.7023,-0.45828,-0.19729,0.06907,0.90896,0.11958,-0.06141,-21.23913,-0.63369,1.63726,51.98484,38.86586,0.91576,0.71674,0.85553,-0.94551,17.93146,1.31383,4.06891,-1.85849,0.29484,0.18213,2.21373,1.53284,0.01409,-0.58598,0.00039,0.09829,0.27798,0.21328,-0.08257
613,-11.60935,-1.8723,0.50385,0.03655,-0.997,0.01443,-23.84212,-15.42932,-3.2413,15.15032,-0.46401,-1.94803,-0.848,-0.15941,-0.1608,1.01956,0.06534,-0.05613,-19.20167,-17.54672,-8.40173,73.885,55.4924,13.66705,0.51881,0.12259,-0.03857,15.7247,0.69242,3.49429,0.99944,-0.00493,-0.2505,3.0627,1.21522,0.59506,-0.075,-0.00264,0.02029,0.47487,0.06688,0.05071
614,-11.60211,-0.23401,-1.43028,-1.22727,-1.42036,0.11049,-20.47328,-10.77468,-4.34827,14.99141,-8.77832,-6.97546,-0.68326,-0.07241,-0.26557,0.83095,0.02703,0.00067,-14.21609,-27.02104,-13.3269,95.96717,67.28047,14.45026,1.34465,-0.98135,-0.43759,13.96582,-0.20438,2.89806,3.86074,0.07805,-1.50289,3.22703,0.79437,1.02371,0.51106,0.03844,-0.27858,0.50994,-0.12209,0.18752
615,-10.47284,0.52361,-2.20699,-2.56548,-0.42191,0.26189,-13.01477,-4.94538,-4.13511,15.5145,-6.67864,-5.45663,-0.28074,-0.04883,-0.1886,0.49719,0.04953,0.07278,-2.78697,-16.30052,-9.41081,98.43634,65.48575,2.36222,4.11344,-1.73154,-2.39634,13.87826,-1.02534,1.8742,5.21426,0.68861,-2.88151,2.78791,0.93053,0.88988,0.80915,0.11492,-0.5722,0.36107,-0.21008,0.22806
616,-8.89521,0.7694,-2.32971,-1.83204,1.11344,0.21485,-4.54122,2.39086,-3.28876,20.14074,2.30032,-0.60801,0.07046,-0.04023,-0.05319,0.33102,0.12408,0.08649,15.95881,9.02503,-2.81338,80.49634,58.0178,-9.61052,7.48674,-1.24945,-3.91293,14.22657,-1.50557,0.66658,5.32481,1.16932,-3.08413,2.53308,1.43835,0.48975,0.7923,0.13738,-0.49683,0.26682,-0.14685,0.16491
617,-7.81657,0.97988,-2.37176,0.21039,1.84455,-0.0203,0.47762,6.27039,-2.61021,22.39281,8.88916,2.4502,0.28063,0.02546,0.01292,0.39195,0.16823,0.02828,25.79931,25.45804,0.28186,66.85692,56.28957,-7.91098,7.39996,1.28192,-2.84102,13.99173,-1.32852,0.14821,4.69205,0.93576,-1.78194,2.67945,1.79157,0.1927,0.53706,0.12681,-0.13522,0.32867,0.01108,0.04927
618,-7.26179,0.45177,-1.59451,0.17159,1.52332,-0.10317,-0.32788,-0.02458,-1.93686,12.05116,9.13044,3.11051,0.23769,0.01803,0.00444,0.49158,0.12983,-0.033,9.38334,16.53589,1.29697,74.91902,62.2393,2.4829,3.69823,5.32096,0.41489,13.12814,-0.56515,0.16935,4.1111,-0.30897,0.23285,2.86078,2.1448,0.05602,0.36062,0.06221,0.18241,0.38471,0.22339,-0.04952
619,-6.92749,-0.75047,-0.11402,-2.47218,0.6704,0.08853,-4.04994,-12.96294,-1.23173,-4.39366,5.10476,2.76233,-0.02166,-0.0933,-0.03505,0.51321,0.01188,-0.07074,-18.2987,-9.75131,2.74744,91.50179,68.07937,5.23398,1.2331,8.47939,2.88812,11.72601,0.13207,-0.22469,3.78222,-1.96444,1.73549,3.09585,2.85852,0.14753,0.43736,-0.07711,0.26549,0.34413,0.45161,-0.06542
620,-7.60267,-1.16947,0.26305,-4.38082,-0.30746,0.34029,-4.41286,-18.78347,-1.1061,-8.56034,-0.43942,1.29879,-0.22458,-0.15447,-0.08192,0.53077,-0.09401,-0.07379,-22.00684,-28.6346,3.82805,94.80285,67.59252,-4.02146,2.36455,8.46132,2.15596,10.04919,0.16192,-1.24195,3.50158,-2.28724,1.37425,3.4512,3.54767,0.41254,0.60906,-0.09914,0.00962,0.27481,0.56014,-0.00717
621,-8.96529,-0.25156,-1.07039,-3.58146,-0.55654,0.44131,2.12219,-10.43106,-1.30542,3.32896,-2.73304,-0.0826,-0.13144,-0.12213,-0.10256,0.58612,-0.06375,0.00169,6.01415,-20.40704,4.64835,82.38148,61.17101,-14.10611,4.61009,5.64274,-0.81591,8.83199,-0.34264,-2.13965,3.79512,-0.6133,-0.77176,3.55637,3.53301,0.47549,0.78325,0.10732,-0.41359,0.25957,0.42415,0.04094
622,-9.25493,1.27932,-2.88115,-1.31331,0.62682,0.29131,9.31117,5.04979,-1.24795,18.4409,3.01908,1.15532,0.11231,-0.03178,-0.08854,0.65423,0.069,0.09161,35.57784,12.62083,5.23287,66.86101,49.44671,-13.48333,5.49106,2.99685,-2.38212,8.79813,-0.63751,-2.19145,4.64724,0.93731,-2.05697,3.29548,2.89848,0.17846,0.88207,0.26992,-0.45336,0.37184,0.17327,0.03538
623,-9.43452,2.43507,-3.99028,0.77358,2.06165,-0.06636,6.12373,15.44155,-1.30713,27.81219,12.71578,4.03521,0.02938,0.07495,-0.09346,0.79531,0.1355,0.04155,38.81202,44.64577,3.10189,55.89358,35.29607,-3.6539,5.50857,2.69914,-0.81206,10.06262,-0.34837,-1.54159,4.67327,0.25009,-0.51541,2.94273,2.4336,-0.18173,0.70716,0.11998,0.0705,0.58379,0.08886,0.01704
624,-10.41351,2.08454,-3.4058,2.06512,2.19733,-0.37175,-3.88376,13.39082,-0.83524,32.01248,16.92756,5.05063,-0.39513,0.06415,-0.11402,0.9963,0.09907,-0.11258,25.54557,48.94125,-0.106,49.47024,29.3177,3.2594,6.15018,3.84121,1.45813,11.38174,-0.02065,-1.03928,3.49094,-1.73064,1.96145,2.70737,2.51124,-0.21258,0.35114,-0.15654,0.53246,0.72371,0.20478,0.05389
625,-9.57928,0.15854,-1.05647,2.4748,1.89311,-0.36558,-4.94389,2.58701,1.37196,32.30896,14.44357,3.94361,-0.47564,-0.11849,-0.04365,1.0131,0.11117,-0.12792,23.59125,28.3099,1.95766,49.19428,37.07581,0.62871,5.89108,3.84802,1.92081,10.37237,-0.23991,-1.40255,2.40536,-2.61286,2.3864,2.48303,2.72939,0.05106,0.14125,-0.22974,0.39979,0.62137,0.31735,0.11793
626,-6.42653,-2.04368,1.61609,1.85133,2.75764,-0.08977,3.53653,-9.10598,3.72776,28.60052,11.70273,3.26951,-0.0109,-0.31728,0.11201,0.71876,0.22143,0.06514,34.03217,5.26222,8.33853,55.51302,47.50366,-6.51704,2.26719,1.74541,0.87192,6.47729,-0.86348,-2.50023,2.30887,-1.43804,0.40978,1.83338,2.59276,0.11608,0.17834,-0.05923,-0.09576,0.26379,0.30727,0.09241
627,-4.60166,-3.18889,2.96877,0.40212,4.14357,0.15348,6.37704,-17.65248,3.53422,24.7051,11.80166,3.53137,0.27216,-0.3241,0.1666,0.40165,0.27684,0.24316,36.86346,-6.62719,9.15126,62.70073,47.20105,-11.93256,-1.27749,-0.16288,-0.24207,2.32221,-1.45165,-3.18206,2.32429,0.26172,-1.39725,0.81498,1.86953,-0.10279,0.27747,0.11943,-0.37459,-0.11343,0.19609,-0.0191
628,-5.75063,-2.74224,2.38874,-0.7593,4.35655,0.16469,0.13761,-18.67405,1.26543,25.35091,12.80346,3.44136,0.0017,-0.14158,0.0662,0.38387,0.22373,0.25184,29.21979,-2.94482,1.94856,62.76213,36.93226,-14.68239,0.9481,0.91307,-0.67545,0.3509,-1.55223,-2.85224,0.94017,0.40703,-0.69655,-0.09136,0.99785,-0.39888,0.2057,0.13995,-0.21583,-0.29344,0.10596,-0.12959
629,-7.41456,-1.34939,0.72436,-0.37009,3.22278,0.05791,-2.70799,-9.94031,-0.18207,28.38588,11.82207,2.65974,-0.2598,-0.0172,-0.00138,0.58747,0.18644,0.18008,26.04405,11.453,-2.98435,54.00703,26.00614,-13.14065,6.86742,3.88657,-0.37848,0.52206,-0.94686,-1.96295,-0.88272,-0.81063,1.51725,-0.70079,0.57,-0.71188,0.08183,0.05525,0.13208,-0.30935,0.09587,-0.19648
630,-7.95244,-0.37286,-0.44048,1.33428,1.22377,-0.00427,2.50011,-0.21003,0.34707,28.52861,5.96851,0.96512,-0.07726,-0.08519,0.0582,0.69297,0.14347,0.08152,31.49354,15.24427,-0.52617,44.10205,21.78121,-5.25312,8.7928,4.93839,0.60377,1.77472,-0.29402,-1.25579,-1.03945,-1.86439,2.81573,-0.89738,0.55775,-0.88239,0.08257,-0.09042,0.40696,-0.26594,0.0687,-0.19703
631,-8.18858,-0.69703,-0.13319,2.56168,-1.18878,-0.03348,7.97014,-0.77812,1.86982,25.83676,-2.90017,-1.53075,0.19103,-0.2315,0.12064,0.61465,-0.01898,-0.08061,37.28767,-3.18942,3.24243,43.00049,25.9284,4.48956,4.73842,2.8075,1.56944,2.90808,-0.6518,-1.43158,0.4939,-2.03259,2.28657,-0.54087,0.61357,-0.69958,0.14282,-0.26611,0.47072,-0.19789,-0.04914,-0.12227
632,-8.17389,-1.82629,1.12638,2.26738,-2.48705,-0.07706,10.35519,-9.55604,3.60689,24.39828,-6.35413,-2.69904,0.10732,-0.33228,0.09319,0.57734,-0.18927,-0.21269,41.54157,-23.21506,4.67707,49.2208,33.14689,7.73678,0.22797,0.11762,1.28182,2.67944,-2.00244,-2.52353,1.93413,-1.3727,0.64073,0.03339,0.56408,-0.30533,0.19779,-0.32692,0.26098,-0.14462,-0.18438,-0.0273
633,-7.30665,-2.47661,1.94257,1.40251,-1.47257,-0.11532,10.77671,-15.64401,4.73314,26.6863,-0.05504,-0.78881,-0.18999,-0.35436,0.02306,0.70455,-0.19257,-0.18887,45.77348,-21.67783,4.82342,49.92289,36.89202,3.53407,-0.78741,-0.8211,-0.3587,1.48257,-2.80474,-3.23231,1.73995,-0.09362,-0.89944,0.31619,0.50777,-0.05982,0.18936,-0.15893,-0.07691,-0.12873,-0.18194,0.00554
634,-6.03587,-1.9646,1.52912,1.32732,0.7442,-0.10836,8.45992,-13.33212,4.20267,30.85806,8.40445,1.97121,-0.31076,-0.27812,-0.01538,0.84322,-0.04648,-0.04285,46.62205,-4.14167,3.41686,39.02579,35.87061,-0.02866,0.04675,-0.9531,-1.9043,1.28876,-1.7397,-1.95206,0.46506,1.27527,-1.56817,0.17376,0.41199,-0.0532,0.08515,0.11758,-0.25037,-0.11242,-0.00678,-0.03371
635,-5.24123,-0.93381,0.47704,1.81194,1.87743,-0.04337,4.81324,-6.44051,2.35805,31.34182,8.21944,1.48651,-0.14132,-0.15508,0.00598,0.80441,0.13048,0.09621,40.68668,6.86058,0.40353,28.12096,30.7851,2.54559,0.02272,-1.31723,-1.66144,2.40167,0.28021,0.75036,0.34529,1.63105,-1.22606,-0.3003,0.0232,-0.11925,-0.00241,0.25058,-0.14434,-0.09427,0.14779,-0.07697
636,-5.36842,-0.46261,-0.15513,1.41982,0.89164,0.02355,3.63571,-2.32853,0.70564,25.29396,-0.41588,-2.31783,0.13489,-0.11174,0.0678,0.5898,0.21444,0.11522,29.89557,2.46756,-2.35236,31.93424,20.62712,7.96991,-0.99432,-0.86972,0.55106,2.95029,1.24338,2.34457,1.86029,0.33085,-0.11705,-0.83074,-0.5055,-0.17686,0.01757,0.11417,0.08008,-0.12559,0.09981,-0.08177
637,-6.35048,-0.7385,-0.1307,-0.37908,-0.69501,0.02686,6.21503,-4.24039,0.10966,15.5046,-6.03472,-4.6328,0.26548,-0.17016,0.10364,0.41576,0.16524,0.02414,19.55597,-5.81394,-1.98003,45.12475,8.34039,9.54818,-0.79217,0.61865,2.21841,2.41517,0.88289,1.81812,2.23318,-1.31225,0.90878,-0.76042,-0.56128,-0.20441,0.0174,-0.12922,0.17659,-0.17035,-0.04615,-0.07814
638,-7.52195,-1.083,0.03531,-1.79936,-1.00118,-0.03802,9.71681,-9.8553,0.09478,7.93335,-2.65408,-2.88291,0.14141,-0.19287,0.05591,0.5214,0.0805,-0.06216,14.92904,-9.22632,1.52849,50.48746,2.13752,4.92326,2.78314,1.86536,0.93327,2.47464,0.4847,0.50669,-0.0701,-1.51873,0.95671,0.43228,0.20121,-0.08162,-0.07507,-0.1925,0.04347,-0.07909,-0.05162,-0.08127
639,-7.90084,-0.927,-0.05651,-0.53571,-0.64725,-0.14719,8.45615,-13.95281,-0.39114,10.79919,2.00639,-0.84858,-0.11632,-0.08186,-0.03881,0.851,0.03234,-0.10613,19.22709,-11.10562,1.526,46.60837,5.57732,-1.20792,6.78431,1.83272,-1.8695,3.42599,0.3795,-0.60789,-2.0315,-0.31634,-0.01682,2.19881,1.38813,0.25794,-0.09884,-0.04641,-0.16629,0.18988,0.11174,-0.03563
640,-7.04246,-0.53347,-0.2106,2.56161,-0.79838,-0.22076,2.2197,-12.39461,-1.19533,25.01638,0.66855,-2.09833,-0.28863,0.02425,-0.06907,1.05985,0.02132,-0.11856,30.82971,-11.70878,-5.03735,44.2398,16.46276,-4.48123,4.82334,0.63211,-2.60704,3.2228,-0.27727,-1.65588,-0.24256,0.85143,-1.16821,3.29346,2.07292,0.71455,0.07236,0.0779,-0.22045,0.45268,0.2358,0.0927
641,-6.12417,-0.48293,-0.14978,3.82552,-0.52467,-0.17427,-1.09495,-6.87047,-0.97569,36.84824,-1.99645,-4.02707,-0.25861,-0.05819,0.00082,0.90269,0.05374,-0.05695,41.41208,-6.90508,-9.69421,43.92184,29.95547,-7.5613,-2.26386,-0.17735,-0.25459,1.6632,-1.40136,-2.49959,3.59831,0.83107,-1.38875,3.31382,1.95385,1.02962,0.27388,0.0342,-0.07054,0.51665,0.21313,0.20752
642,-7.1154,-0.54946,-0.22814,1.9244,1.12335,-0.0756,0.86269,-2.95171,0.33207,36.20892,1.25098,-2.65599,-0.0982,-0.19879,0.05746,0.46188,0.08901,0.06675,42.76653,1.09995,-6.5646,40.05843,36.30005,-11.83201,-6.03577,0.53973,2.39296,1.90254,-1.72811,-2.37336,5.13678,-0.049,-0.49309,3.1705,1.69875,1.062,0.25371,-0.05665,0.11065,0.44201,0.14745,0.19925
643,-9.45908,-0.50517,-0.4478,-0.50989,2.65752,-0.02023,2.42135,-3.30032,1.67569,30.61378,7.25296,0.60596,-0.0109,-0.21175,0.01627,0.0501,0.07071,0.15144,37.37181,5.51323,-0.63051,35.45527,29.68331,-9.91861,-2.79784,1.68041,2.98187,5.18,-0.89968,-0.74752,4.029,-0.868,0.62969,3.70191,1.50175,1.15836,0.1655,-0.06622,0.16513,0.44655,0.06672,0.14903
644,-10.13279,-0.87491,-0.06711,-0.9478,1.94101,0.02667,2.04097,-6.45636,2.75013,28.82328,6.94375,1.28524,-0.11408,-0.22372,-0.04991,0.03548,0.01386,0.12121,33.14598,1.89473,2.90597,34.69093,18.59965,1.91827,2.60042,1.4781,1.98577,8.14547,0.14774,1.58291,3.23183,-1.18227,1.02667,4.52719,1.00819,1.60657,0.32834,-0.05733,0.11562,0.59054,-0.02799,0.18552
645,-7.86985,-1.23791,0.51181,0.4538,-0.63266,0.08341,2.49747,-9.36174,3.1927,27.78313,-0.42204,-1.19551,-0.19097,-0.27308,-0.06661,0.52956,-0.0596,-0.01689,30.53919,-7.65115,3.83855,34.18664,12.88905,13.55108,5.90871,0.47985,0.38003,8.16386,0.70424,2.88528,3.55581,-0.81814,0.46823,4.68843,0.53948,1.93903,0.59738,-0.06341,0.03774,0.72751,-0.00164,0.24969
646,-4.79342,-0.66327,0.19017,2.09603,-2.53682,0.07742,3.1948,-9.60237,2.08341,24.46529,-6.44486,-3.30668,0.0185,-0.19396,-0.05505,1.12818,-0.13205,-0.17511,27.0085,-15.12339,1.77019,31.21561,13.12221,12.51924,7.62897,0.53274,-1.40263,6.65074,0.75006,2.23764,3.11466,0.0698,-0.45058,3.8625,0.7734,1.52683,0.55951,-0.01951,-0.03779,0.75118,0.20465,0.21184
647,-4.32744,-0.11082,-0.3974,2.32759,-2.20064,0.02835,-0.46928,-7.51488,-0.41805,22.49877,-5.81742,-3.04955,0.1864,-0.10517,-0.04149,1.27851,-0.08849,-0.20512,21.4268,-14.63425,-4.02322,35.9185,19.81401,0.75928,7.86134,1.63796,-2.19597,5.31398,0.41208,0.47092,1.83599,0.66921,-0.8644,2.70763,1.46297,0.67303,0.27431,0.04607,-0.06913,0.68516,0.39231,0.10421
648,-7.30218,-0.92435,0.07498,0.76573,-0.56875,0.03457,-8.77487,-6.13805,-2.64878,22.62405,-1.69484,-1.85766,-0.1084,-0.19986,-0.03081,0.9349,0.12566,-0.0658,12.59813,-9.63878,-9.87986,57.84005,33.73145,-9.46141,5.92257,2.44157,-0.98533,4.00761,-0.2842,-1.31004,2.26735,0.33588,-0.50056,2.16905,2.00867,0.19076,0.2437,0.03944,-0.0403,0.54473,0.36274,0.04071
649,-10.55452,-1.78652,0.64238,-1.06159,0.59002,0.0547,-12.83593,-6.25942,-3.50367,22.87681,1.85306,-1.04064,-0.46753,-0.25783,-0.03235,0.52252,0.31225,0.08181,9.00299,-4.7266,-10.797,79.33046,44.5699,-12.34515,4.0624,2.38978,0.55996,3.33937,-1.16263,-2.37655,4.4222,-0.2366,-0.12228,2.12276,2.15585,0.19444,0.53869,0.00161,-0.02955,0.29181,0.15132,0.02028
650,-11.00727,-0.93116,-0.31344,-1.91028,1.20088,-0.00919,-7.94958,-5.59144,-3.71331,23.71179,5.63197,0.18573,-0.37419,-0.09535,-0.03442,0.37781,0.30856,0.13788,17.9233,2.33897,-7.23211,72.88623,42.3385,-10.77487,4.51615,1.87461,0.10558,5.04672,-1.58736,-1.64359,5.30546,0.00587,-0.51792,1.76315,1.65416,0.30785,0.72455,0.03053,-0.10531,0.03599,-0.08375,0.0201
651,-9.52194,0.62371,-1.87654,-2.1245,1.7318,-0.10705,-3.77242,-3.76132,-4.15766,23.56398,8.67201,1.42881,-0.08085,0.05013,-0.00784,0.49216,0.19302,0.14755,23.03384,9.87223,-3.83966,45.02438,35.92445,-8.44702,5.91954,1.58026,-1.24405,8.51504,-1.18475,0.58774,4.26257,0.55559,-1.06633,1.07402,0.88211,0.39386,0.65815,0.06393,-0.17111,-0.00684,-0.16501,0.0807
652,-8.62432,0.71276,-1.85312,-1.76263,1.39356,-0.1274,-6.78532,-4.63503,-3.89455,20.93617,6.35847,0.49463,0.0295,-0.02744,0.05632,0.68863,0.07569,0.09016,12.03391,7.48023,-3.01725,30.23528,38.75087,-6.40014,5.9419,1.69819,-1.08687,10.82229,-0.56752,1.93862,3.52827,0.34872,-0.82074,0.50008,0.88573,0.36531,0.57697,0.00389,-0.11404,0.10771,-0.02102,0.16883
653,-8.76371,-0.49358,-0.37774,-0.48707,-0.02256,-0.10263,-9.63132,-10.22772,-2.23158,18.39479,-0.04241,-2.16374,-0.00872,-0.1543,0.08707,0.85938,-0.01419,-0.08706,0.61538,-6.94149,-3.69133,46.24389,44.77756,-0.84064,4.49635,2.12359,0.39184,11.24311,-0.304,1.44832,3.94666,-0.36609,-0.0542,-0.3186,1.70085,-0.12979,0.54322,-0.09864,0.02085,0.06031,0.19589,0.1346
654,-9.30145,-0.97913,0.21851,0.10914,-0.63651,-0.14643,-8.85617,-15.08939,-1.15333,14.90322,-2.25517,-2.60064,-0.10148,-0.13152,0.00208,0.93643,-0.03802,-0.24892,-3.51065,-18.1459,-3.42983,77.63925,37.67825,12.68144,3.00586,3.04634,1.5173,11.89344,0.02724,1.00571,4.16619,-0.69132,0.39153,-1.73665,2.16842,-1.10989,0.38123,-0.10676,0.0842,-0.22139,0.28541,-0.06026
655,-10.20798,-0.44192,-0.60013,-2.09703,0.64439,-0.16759,-10.28709,-14.00055,-2.34114,6.62632,2.41711,0.92457,-0.21379,-0.07541,-0.12317,0.8217,0.03017,-0.18186,-13.09211,-14.27561,-0.08914,97.59042,19.2979,26.64217,1.82303,3.85946,1.48834,13.1466,0.49954,1.45778,3.53217,-0.37731,0.10032,-2.83559,1.96755,-1.92293,0.10148,0.04335,-0.05595,-0.47859,0.24924,-0.2695
656,-11.07569,-0.68898,-0.62608,-5.44054,1.84642,0.03811,-14.27064,-11.86251,-4.32205,-0.5173,6.38622,4.55571,-0.20517,-0.16772,-0.11462,0.55499,0.11495,0.06545,-24.91436,-6.9124,3.80565,90.73585,12.63254,24.39274,1.58662,3.4361,0.52085,12.73662,0.25663,1.06356,3.06425,0.13318,-0.66645,-2.80167,1.98953,-2.1001,0.00818,0.23762,-0.33306,-0.59066,0.2276,-0.3833
657,-11.17806,-2.03714,0.85758,-6.10214,0.75572,0.37168,-14.93353,-13.66291,-4.73711,4.11132,3.39383,3.74766,-0.02713,-0.33187,0.04471,0.36065,0.10318,0.19769,-19.13321,-10.47795,2.51424,64.78111,32.26075,4.33485,5.34187,2.17591,-1.08925,10.34958,-0.53405,-0.33838,3.64047,0.51182,-1.2964,-2.11099,2.39348,-1.77357,0.31584,0.31612,-0.49567,-0.61841,0.23885,-0.38574
658,-10.55968,-3.0033,2.20804,-3.97328,-1.5698,0.50069,-11.46648,-16.24727,-2.88497,17.82204,-2.51263,-0.4273,0.04443,-0.39372,0.16569,0.38819,0.01483,0.09273,3.28039,-19.40501,-3.20919,46.00115,61.71352,-12.11422,12.24367,1.27661,-2.34433,8.67537,-0.47931,-0.48541,4.26769,0.5236,-1.06906,-1.63678,2.41769,-1.3254,0.76031,0.16656,-0.30233,-0.54957,0.21371,-0.28746
659,-9.65446,-3.048,2.60621,-2.36519,-2.32825,0.33617,-6.60219,-16.40341,0.41508,26.2654,-4.01068,-3.09035,-0.15091,-0.33025,0.12555,0.50686,-0.01647,-0.04457,20.63053,-21.73001,-5.02556,53.01922,71.9442,-7.40674,14.35641,0.556,-2.06724,9.42205,0.56781,1.1928,3.23637,0.16756,-0.02994,-1.64293,1.84933,-1.09435,0.78829,-0.13136,0.16769,-0.35693,0.14668,-0.15052
660,-9.13856,-2.78802,2.4695,-2.4202,-1.08323,0.106,-0.07695,-14.74058,3.52019,23.17677,-1.1882,-2.44196,-0.30357,-0.25946,0.04007,0.53498,0.03225,-0.05049,24.98174,-17.20237,1.33595,74.74515,58.26137,8.95151,8.94519,-0.30777,-0.72272,11.23703,1.09063,2.52732,1.67388,-0.13156,0.75982,-1.93507,1.32642,-1.2234,0.44559,-0.28678,0.47141,-0.17062,0.11008,-0.08535
661,-9.86917,-2.54545,1.97132,-2.36465,0.35059,0.00468,5.46761,-13.424,4.13961,16.22501,1.20711,-0.54261,-0.20284,-0.25885,0.04106,0.55966,0.0689,0.00642,23.6212,-14.12528,8.6884,82.57477,40.97462,14.35068,3.45661,-0.3972,0.31741,11.60426,-0.11843,1.66261,1.45173,-0.25069,0.76994,-2.3193,1.32212,-1.53397,0.18163,-0.22368,0.39332,-0.1661,0.13112,-0.12848
662,-11.55651,-2.41781,1.38269,-1.57074,1.1294,0.01966,2.61976,-15.91521,1.27815,14.90544,2.10432,0.90396,-0.06386,-0.29266,0.07822,0.72356,0.09448,0.05738,18.4747,-17.96884,7.1309,68.14364,34.36668,2.10202,3.19329,0.91547,0.65279,9.6622,-2.60585,-0.98369,1.93316,-0.4198,0.49709,-2.3821,1.74791,-1.58917,0.05975,-0.10603,0.16347,-0.28538,0.14979,-0.17567
663,-12.36944,-2.2813,0.96855,-1.52213,1.88719,0.02347,-8.08177,-21.23672,-2.83119,19.06914,3.65604,1.88839,-0.00101,-0.27658,0.05842,0.84488,0.16872,0.12136,8.28456,-22.94877,-2.05665,56.25932,34.25523,-13.33061,5.5961,2.85667,0.89386,6.96038,-4.38652,-3.0648,2.10566,-0.77248,0.4879,-1.64787,2.1126,-1.10833,0.00817,-0.06492,0.02809,-0.31529,0.11808,-0.13038
664,-10.83942,-1.78648,0.53158,-2.63598,2.80292,-0.063,-14.33463,-22.95472,-4.78208,21.1126,6.50616,2.93014,0.14227,-0.20189,-0.00093,0.6604,0.23155,0.16456,0.44843,-19.96734,-7.78229,69.83263,32.87267,-17.06694,6.76173,3.77483,0.96185,5.82661,-3.83167,-2.43022,2.18395,-0.88302,0.47972,-0.35146,1.87492,-0.33038,0.0824,-0.07312,-0.00258,-0.20117,0.05547,-0.0425
665,-8.22564,-0.75344,-0.37513,-3.28091,3.1547,-0.16008,-8.03952,-16.91832,-3.66644,19.72021,9.13095,4.03443,0.28868,-0.13262,-0.03839,0.31041,0.20395,0.14426,7.38369,-8.19581,-4.18677,98.4787,28.91286,-6.74219,5.45548,2.79294,0.78851,7.14818,-1.41189,0.56678,2.81025,-0.63859,0.28794,0.63648,1.14143,0.18993,0.28283,-0.0802,0.00943,-0.06028,0.04212,-0.0154
666,-7.09675,0.38825,-1.57215,-2.82998,2.42446,-0.13662,3.55237,-6.85186,-1.37638,20.16672,9.31101,4.03677,0.19013,-0.10286,-0.03432,0.2249,0.14071,0.09745,27.03322,4.00832,2.77223,115.50462,28.04639,11.10804,2.59521,1.0093,1.01096,9.41112,0.92302,3.29744,3.89709,-0.54947,0.26105,0.78108,0.71131,0.14689,0.46266,-0.06624,0.02128,0.00488,0.14502,-0.06837
667,-8.43906,0.82647,-2.20906,-2.77085,0.79706,-0.01744,5.57803,-1.0818,-0.68571,19.05222,5.98125,2.10107,-0.0461,-0.09409,-0.00649,0.57334,0.09664,0.03155,31.84113,5.98622,4.77621,106.74263,40.10177,22.89079,1.05654,0.38177,0.9361,9.4703,1.41086,3.07417,4.23523,-0.24428,0.0545,0.56283,1.22347,-0.17452,0.43561,0.08195,-0.08143,0.0093,0.32296,-0.12803
668,-10.77447,0.17882,-1.78777,-3.71356,-1.05275,0.07001,-5.80211,-3.74503,-2.52089,8.89497,1.07284,-0.33205,-0.10201,-0.12949,0.02207,1.03017,0.033,-0.08397,3.84725,-3.94325,1.82624,77.18466,63.43591,15.4396,3.11658,1.37812,-0.68375,5.47905,-0.2922,-0.38166,2.86238,0.98806,-0.86078,0.71527,2.18982,-0.27078,0.15897,0.37334,-0.2919,0.01158,0.41152,-0.12779
669,-11.59841,-0.89945,-0.84957,-3.95287,-2.34776,0.08474,-18.37468,-9.92318,-4.71575,-2.21158,-2.37887,-1.49899,0.02638,-0.23592,0.02326,1.15459,-0.06307,-0.19888,-30.38064,-14.74738,-1.37568,47.61414,76.88241,-5.9392,6.93932,2.48764,-2.44971,0.49958,-2.76908,-4.17557,1.00174,2.08761,-1.54429,1.14808,2.63546,-0.05386,-0.12602,0.4934,-0.32264,0.00974,0.30604,-0.07851
670,-10.49625,-0.84809,-0.82687,-1.93457,-2.3904,0.02967,-21.03975,-10.73258,-4.95972,1.70647,-2.94074,-1.51443,0.08232,-0.25179,-0.0431,0.89889,-0.13019,-0.23619,-33.60828,-14.41397,-3.73656,39.32494,62.82653,-19.40456,8.40549,2.34372,-1.96652,0.24545,-4.07856,-5.02642,0.79432,1.48986,-0.83446,1.42287,2.58731,0.22871,-0.13173,0.22292,-0.03967,-0.01061,0.12387,-0.0101
671,-9.23559,0.64446,-1.97833,1.20894,-1.06164,-0.06619,-14.99568,-5.96229,-3.43007,19.77785,-1.26241,-1.23233,-0.01614,-0.02092,-0.15288,0.60514,-0.09223,-0.1878,-5.13753,-6.30477,-6.12829,47.9151,31.89128,-14.06535,6.61251,1.44102,0.15521,5.33418,-3.40809,-2.64343,2.08758,-0.19881,0.49693,1.62219,2.58716,0.50594,0.12363,-0.17171,0.24642,0.01559,0.0437,0.08051
672,-8.27834,1.80865,-2.67118,2.54077,0.60851,-0.06607,-5.88282,-3.44764,-1.66647,34.89141,0.86535,-0.7728,-0.1095,0.27906,-0.1974,0.55348,0.07297,-0.07177,28.71358,-2.43534,-7.09829,49.55583,13.41288,-1.70212,5.26017,1.10961,1.41386,10.04113,-1.38137,0.70347,2.67082,-1.37495,1.0733,1.89553,2.41901,0.79219,0.3708,-0.36392,0.26129,0.1662,0.08492,0.18346
673,-6.80784,1.2135,-1.82227,0.6318,1.45615,0.08445,2.28155,-6.06137,-0.79225,34.33309,2.75613,0.22183,-0.04785,0.31426,-0.12379,0.63711,0.25795,0.08689,44.53927,-5.1355,-4.70666,40.94762,19.94785,5.13887,6.55591,1.75393,1.43973,9.98792,0.82297,2.77571,1.99572,-1.90462,1.02226,1.98862,1.81457,0.89525,0.4732,-0.4134,0.13482,0.38416,0.17297,0.24369
674,-5.74113,-0.19571,-0.65526,-3.01683,1.3813,0.22943,6.64299,-7.53554,-0.85685,20.65806,4.67471,1.50897,0.16609,0.023,-0.00828,0.57709,0.29934,0.21201,35.88132,-5.53897,0.74729,44.24551,35.53583,7.43563,7.29177,2.25344,1.05886,6.51145,2.19755,2.69861,1.83513,-1.82262,0.68966,2.15609,1.48181,0.85558,0.49485,-0.41703,0.04682,0.56165,0.28715,0.2361
675,-6.58766,-0.52146,-0.80804,-5.59425,1.20213,0.21832,5.88384,-2.1896,-1.11802,6.33112,6.46324,2.414,0.35154,-0.29972,0.04709,0.36319,0.20048,0.24703,14.02501,4.30836,6.70391,61.18391,41.39461,6.28531,5.03403,1.55522,-0.02286,2.83106,1.92847,0.83025,2.68943,-0.48676,-0.1904,2.9878,1.97367,1.02266,0.43202,-0.24606,-0.02516,0.6462,0.40889,0.18797
676,-7.9886,0.24311,-1.66082,-4.66459,1.33973,0.06578,1.18858,5.50066,-0.80238,3.6656,6.92286,2.11226,0.31116,-0.35859,0.02407,0.28083,0.09645,0.19835,-0.18553,18.26106,8.55326,64.07164,36.24536,-1.42532,2.77012,0.42652,-1.58676,0.71585,-0.00157,-1.36135,3.09803,1.46236,-1.13943,3.67679,2.37884,1.22011,0.26439,0.09837,-0.08593,0.55387,0.42581,0.09705
677,-7.35796,0.70718,-1.62634,-0.19948,1.55437,-0.13167,-3.05557,7.71838,0.29898,14.70307,6.08066,0.51778,0.05719,-0.14703,-0.02073,0.52132,0.06701,0.11286,7.04854,24.00715,4.22561,46.83817,27.10014,-10.22784,3.13,0.08409,-2.27892,1.5617,-1.82751,-1.51058,2.64994,2.39326,-1.27736,2.77391,1.5718,0.92445,0.15436,0.34882,-0.07599,0.27333,0.25579,-0.01529
678,-5.12603,0.39509,-0.68778,3.96823,1.68831,-0.28165,-2.43014,2.63227,1.61081,27.03009,6.21177,-0.87177,-0.13729,0.11361,-0.01319,0.88364,0.09924,0.05904,26.51425,17.56522,-1.40735,36.75849,17.39903,-11.05712,4.64939,0.59444,-1.56441,5.92296,-1.6448,1.03196,2.52072,1.84107,-0.71024,0.70982,0.33256,0.23566,0.27201,0.34033,-0.03302,0.02158,0.04834,-0.03706
679,-4.41045,-0.2758,0.10459,4.39793,1.1957,-0.32148,-0.38007,-7.66171,1.82094,29.93482,6.22011,-1.55821,-0.04454,0.1664,0.06755,1.04565,0.11013,0.02564,36.00784,-0.60582,-4.6876,44.96021,13.15794,-8.29935,5.80228,1.36118,-0.50408,10.20342,-0.41921,2.97033,3.19409,0.74844,-0.28402,-0.11793,0.64335,-0.0381,0.50057,0.19779,-0.06973,0.06205,0.05225,0.10367
680,-6.38927,-1.43675,0.63077,2.59613,-0.75742,-0.22297,-3.16098,-19.56505,0.63807,28.6188,0.57608,-3.28659,0.2009,-0.07689,0.14292,0.97154,0.03629,-0.05973,30.99226,-27.24986,-7.92849,50.61229,22.48187,-10.74021,6.14209,1.31473,-0.39393,9.09581,-0.45175,1.18041,3.49134,0.10227,-0.43858,1.70666,2.69693,0.72142,0.51381,0.07411,-0.18432,0.39645,0.2932,0.31715
681,-8.41664,-3.20458,1.4693,1.42248,-3.35894,-0.00603,-6.57776,-26.37202,0.02618,28.25755,-10.22962,-5.74005,0.33945,-0.41024,0.12667,0.77604,-0.05676,-0.15342,24.95719,-47.83789,-9.54883,40.56911,39.09275,-12.47135,4.55431,0.09994,-0.98295,3.3334,-1.39102,-2.2213,2.39735,-0.01221,-0.77265,3.85996,4.13205,1.64322,0.20844,0.0019,-0.2572,0.62833,0.49492,0.39067
682,-7.7374,-4.10504,2.06478,0.8871,-4.2711,0.21811,-2.647,-22.09114,1.25512,23.54181,-16.52482,-5.80866,0.25113,-0.48851,0.023,0.5523,-0.06584,-0.14509,23.98225,-45.42493,-4.63389,29.18521,44.45793,-6.42,1.75338,-0.54058,-1.26907,-0.67602,-1.57404,-3.10436,0.56579,0.25059,-0.88905,3.16346,3.061,1.28164,-0.15948,0.06256,-0.26721,0.38507,0.34716,0.20118
683,-5.33223,-2.54985,1.20713,0.57173,-3.07557,0.27197,4.16431,-8.99365,2.2439,16.02992,-13.68383,-3.52829,-0.04043,-0.21887,-0.08785,0.45918,-0.03059,-0.0823,23.79449,-23.06821,2.08,29.70915,33.88071,-3.44036,1.72157,0.59773,-1.48242,-0.18963,-1.34561,-1.70799,-0.72466,1.04415,-0.93198,0.65011,0.81873,0.00943,-0.2872,0.28906,-0.25137,-0.08146,-0.0346,-0.09326
684,-4.22554,0.28294,-0.66393,1.14549,-1.23768,0.11338,3.38616,3.25883,0.86429,15.3928,-6.41184,-1.73264,-0.29653,0.07516,-0.11385,0.52755,-0.02926,-0.06903,21.39343,0.04093,1.90836,33.85533,21.68633,-11.48226,5.94231,1.63663,-2.35601,1.92846,-1.38658,-1.02023,-0.98033,2.05248,-0.97479,-0.47692,0.22481,-0.78991,-0.09013,0.43687,-0.14021,-0.23402,-0.13917,-0.24808
685,-5.3818,1.43638,-1.60311,1.94803,0.93171,-0.08366,-5.28513,5.20329,-1.31519,20.3449,2.41267,-0.45077,-0.28002,0.05036,-0.04921,0.56326,-0.0033,-0.05453,14.79374,10.73988,-2.79056,31.38848,19.93181,-16.65189,9.94467,0.61205,-3.00879,3.76027,-1.01233,-1.20683,-0.09612,2.07897,-0.64683,0.10628,1.48964,-0.87816,0.34978,0.18978,0.12583,-0.02997,0.18729,-0.23971
686,-6.3619,0.06394,-0.71855,1.27918,2.69751,-0.1721,-10.32967,-3.6793,-0.89749,20.30469,10.55976,1.22146,0.00463,-0.20928,0.03525,0.51769,0.08087,-0.00415,6.59042,8.78321,-2.47082,27.47089,27.0381,-6.67792,9.50354,-1.05743,-1.8061,5.683,-0.01699,-0.42776,2.30534,0.4324,0.14077,0.61828,2.35429,-0.73372,0.92983,-0.36563,0.36341,0.16922,0.50113,-0.17217
687,-4.67819,-1.63925,0.72869,-0.23165,2.04962,-0.21334,-2.4478,-12.3587,2.41239,14.30168,12.41039,1.96625,0.37773,-0.34793,0.09253,0.57009,0.11102,-0.03045,8.48385,3.01083,5.13966,28.66138,32.24505,9.62052,5.11958,-0.88771,0.89308,7.33664,0.88993,1.40502,4.87151,-1.72394,0.77516,0.17484,1.75735,-0.5915,1.22846,-0.73409,0.33289,0.14205,0.46341,-0.09512
688,-1.77365,-1.50886,0.99764,-0.12673,-0.57221,-0.29746,11.93474,-10.81965,4.69783,12.38493,6.60074,0.74475,0.60688,-0.20681,0.13756,0.69659,0.02489,-0.17664,25.59433,0.32804,10.91808,34.93381,28.18294,17.85993,-0.17161,0.93287,3.0677,7.15869,1.19145,2.52286,4.89032,-2.65934,0.85031,-0.97392,0.63868,-0.62364,0.75361,-0.62023,0.10893,-0.08631,0.20513,-0.04816
689,-1.49708,-0.05825,0.00103,1.73407,-1.98662,-0.31154,16.8774,-3.1875,2.9847,18.82217,-0.92444,-1.3033,0.54074,0.02911,0.19112,0.68422,-0.03851,-0.26613,42.84563,-2.92887,6.5242,46.65951,24.18629,13.08382,-2.85358,2.32808,3.08451,4.27288,0.42096,1.37527,2.99275,-1.76487,0.34731,-1.83455,0.20772,-0.78558,-0.05996,-0.13659,-0.14743,-0.33013,0.01024,-0.06203
690,-4.90975,0.82364,-0.94387,2.80002,-0.77755,-0.08704,6.13967,-0.2479,-0.76921,25.86719,-3.62147,-2.07869,0.24843,0.15811,0.22776,0.57923,0.05493,-0.12407,41.19716,-9.15816,-3.4676,55.68524,33.79744,-1.68492,-2.03609,2.07438,1.1323,0.5715,-1.56471,-1.6226,1.25005,0.12087,-0.43973,-1.19284,0.98341,-0.6141,-0.51958,0.41095,-0.32128,-0.30533,0.04827,-0.05941
691,-8.50379,0.49888,-0.95949,2.1057,0.82832,0.24169,-9.33854,-4.50712,-2.60101,25.97962,-1.37668,-0.89317,0.00708,0.1908,0.20957,0.60071,0.1849,0.12194,22.20324,-12.30462,-8.08401,51.30821,48.32965,-14.00357,-0.19622,1.19938,-0.25107,-0.44355,-3.38999,-3.8894,0.16381,1.19644,-0.59845,0.65956,2.36337,-0.02312,-0.59707,0.66462,-0.29703,0.04197,0.27007,0.03282
692,-8.93505,-0.59991,-0.22645,1.46104,0.7746,0.3792,-15.95085,-10.215,-1.33769,20.91152,0.95825,0.72312,-0.01786,0.09143,0.09094,0.75295,0.18929,0.22323,3.72931,-9.92289,-4.23098,43.62218,46.98142,-9.49559,0.46758,1.3439,1.10005,1.78027,-3.04723,-3.14653,0.67948,0.46417,0.4024,1.86009,2.84158,0.41818,-0.36242,0.51903,-0.04928,0.3464,0.39984,0.12523
693,-7.02194,-1.61454,0.41951,1.43977,0.00944,0.24567,-12.11515,-12.60725,1.28838,15.88381,1.72984,1.05045,0.04018,-0.17926,-0.14677,0.85987,0.09889,0.14725,-1.93575,-7.2613,2.13987,46.95806,28.6152,6.08631,0.00329,1.74938,3.29721,3.99954,-0.66058,-0.36995,1.97768,-1.02271,1.5943,1.35319,1.8497,0.30834,-0.0187,0.10423,0.26708,0.24428,0.24528,0.08104
694,-5.23361,-1.5656,0.31899,1.17604,0.07327,-0.04845,-5.58085,-11.44013,3.27169,15.1179,3.7309,0.05279,0.06094,-0.41386,-0.38402,0.85207,-0.00308,0.01177,5.76926,-6.69241,4.34639,54.6836,11.27243,12.71079,0.39142,0.74497,2.54335,4.01631,1.29113,1.42984,1.60199,-1.3752,1.43034,0.0145,0.58459,-0.17692,0.10363,-0.30698,0.36811,-0.15152,-0.02708,-0.08398
695,-4.63256,-1.02343,-0.05814,0.85027,0.46618,-0.30302,-3.34766,-9.44769,3.42457,18.22711,6.41111,-1.01858,0.0936,-0.48271,-0.44688,0.74701,-0.07822,-0.09413,16.43347,-6.49959,1.61277,52.14912,9.19838,6.00923,2.46606,-0.95831,-0.86253,3.01896,0.91122,0.93581,0.15207,-0.42015,-0.04071,-0.77416,0.17315,-0.63772,0.1404,-0.4763,0.17061,-0.4264,-0.16541,-0.23161
696,-4.69,-1.94556,0.43671,0.13357,0.34394,-0.25573,-5.57742,-10.63509,1.72946,17.19492,5.91033,-0.76585,0.16739,-0.54564,-0.31988,0.4874,-0.06637,-0.10023,14.73532,-8.37618,-0.95248,38.3791,25.67671,-3.02174,3.72279,-1.8757,-3.66044,2.4343,-1.26397,-0.79303,-0.92077,0.85222,-1.38758,-0.62643,0.40135,-0.80593,0.135,-0.35434,-0.08821,-0.40411,-0.17683,-0.27444
697,-3.80018,-3.93574,1.59142,-1.69065,-0.04062,0.06747,-6.0731,-13.57764,-0.50625,8.76609,1.7827,0.43556,0.29669,-0.63166,-0.12537,0.14811,0.02464,-0.01442,2.4734,-12.491,-0.2942,28.58731,49.87408,-8.15102,2.91212,-1.99884,-4.56882,2.12822,-3.25427,-2.21736,-1.8492,1.95715,-1.78209,-0.01594,0.74966,-0.62027,-0.09842,-0.04114,-0.16848,-0.23508,-0.15429,-0.2122
698,-2.63369,-3.89628,1.65129,-2.21012,0.08612,0.2386,-4.23748,-10.79023,-1.93072,4.48242,-0.6684,0.65133,0.40071,-0.51723,0.01066,0.15618,0.09787,0.06429,-3.43091,-9.41839,0.17288,36.8914,55.87821,-8.32014,1.89502,-1.60706,-3.92787,1.86854,-3.56754,-2.53894,-2.06761,2.39306,-1.42736,0.49927,1.17646,-0.24122,-0.34617,0.26765,-0.13116,-0.06652,-0.06117,-0.07783
699,-2.97827,-1.41382,0.38805,0.51674,0.95728,0.06197,-3.83067,-2.72275,-1.46946,10.84542,2.40397,-0.34668,0.39309,-0.22803,0.03736,0.6599,0.11019,0.08247,2.69818,3.46399,-0.42166,55.48668,30.50313,-1.95285,1.1147,-0.28404,-1.11893,1.89191,-2.40311,-1.99449,-0.52285,1.06357,-0.39322,0.74533,1.73607,0.06261,-0.33159,0.33089,-0.0851,0.08199,0.14852,0.05786
700,-3.69297,0.64463,-0.57453,3.75713,1.27042,-0.1877,-3.05498,1.75382,0.67107,19.24523,5.00555,-1.35942,0.36757,-0.04905,0.01277,1.12366,0.0681,0.02571,14.18748,10.44967,0.5195,59.49947,-0.21893,6.22052,-0.3747,1.73311,3.05451,2.25325,-1.12326,-1.28919,1.88199,-1.4709,0.96008,1.02903,2.20085,0.25788,-0.16361,0.17196,-0.05353,0.20417,0.37724,0.11872
701,-4.14085,0.69664,-0.47976,4.75742,0.61519,-0.2447,-3.46479,-1.74252,2.29135,24.55132,2.72524,-1.64118,0.31799,-0.04812,0.00014,1.11004,0.01489,-0.07763,22.95535,1.92859,0.932,38.43544,-2.38949,5.87046,-0.98454,2.65239,4.49865,3.17052,-0.63184,-0.6259,2.48342,-2.45148,1.40355,1.45608,2.20342,0.41308,-0.07702,0.0479,-0.04666,0.25785,0.44335,0.09566
702,-5.08405,-0.19649,-0.01995,4.20642,0.38982,-0.13352,-8.39559,-8.42595,1.87126,28.23169,1.02876,-1.02438,0.19626,-0.06804,0.00967,0.82932,0.01429,-0.12724,24.20255,-9.93723,-1.17184,13.58116,21.24821,-4.31133,2.08317,1.49508,0.99181,4.40772,-0.75197,0.03146,0.16387,-0.75323,0.35705,1.74039,1.69802,0.48011,-0.10298,-0.01779,-0.0279,0.27539,0.30659,0.05749
703,-6.78158,-0.3152,-0.20625,3.31023,0.58944,0.0044,-15.07428,-9.10193,-0.59286,28.0794,1.81759,-0.38958,0.06205,-0.05005,0.02968,0.62939,0.05901,-0.05227,16.58794,-11.53137,-4.07287,13.0415,46.15002,-14.29953,7.41835,-0.20396,-3.76704,3.92997,-0.92912,0.03384,-2.67638,1.30725,-1.04309,1.92987,1.24406,0.52522,-0.16536,-0.19432,0.048,0.34045,0.16393,0.06626
704,-8.72268,0.27575,-0.97064,2.18801,0.33268,0.13936,-18.48646,-2.79528,-3.78927,22.83629,1.15965,-0.6199,-0.016,-0.10884,0.03765,0.52961,0.13543,0.1259,5.39399,-5.74233,-6.14917,37.17745,58.84235,-15.87745,9.59083,-1.03204,-4.8764,0.91911,-0.95066,-1.016,-2.82451,1.42371,-1.29331,2.34922,1.44267,0.74491,-0.21179,-0.38744,0.13757,0.40392,0.17176,0.10896
705,-10.26182,0.04519,-1.23306,1.08197,-0.16441,0.24891,-18.83058,0.09292,-5.48006,17.57439,-1.10241,-1.21616,-0.05753,-0.28128,0.00693,0.45647,0.22709,0.26987,-1.78787,-3.72905,-7.36547,59.44574,55.80588,-10.98734,7.17355,-1.18757,-2.21017,-1.25932,-1.10542,-2.17147,-0.48968,0.10885,-0.24082,2.83841,2.24798,1.03337,-0.19927,-0.34811,0.18791,0.34832,0.26114,0.13661
706,-10.73069,-1.33701,-0.52774,0.18842,-0.4259,0.22876,-20.39157,-6.5068,-4.64854,15.58179,-1.47884,-1.0411,-0.08323,-0.39364,-0.05262,0.45892,0.25157,0.22,-5.56187,-7.73061,-7.94088,61.54029,37.00581,-5.83062,3.8556,-0.74786,0.89876,0.12329,-1.92989,-2.69367,2.08281,-0.70182,0.95245,2.8983,3.11986,0.98487,-0.00022,-0.04514,0.20407,0.21809,0.33024,0.12405
707,-9.06848,-2.15612,0.28493,-0.32852,-0.41787,0.06687,-22.95462,-13.29002,-2.64455,14.59859,0.41363,-0.21631,0.01028,-0.29829,-0.07845,0.54401,0.17802,0.01258,-9.51627,-9.59786,-7.87901,49.28521,11.89585,-2.75669,1.37306,0.35887,2.26658,2.66428,-3.43141,-3.01602,3.20402,-0.28296,1.30665,2.40408,3.43075,0.51383,0.18593,0.30349,0.19331,0.13828,0.34527,0.07152
708,-5.1369,-1.0082,0.25332,0.2245,-0.14065,-0.11006,-20.42737,-9.78428,-0.90544,12.35842,1.70172,0.05622,0.2766,-0.07275,-0.02469,0.67284,0.06918,-0.14984,-10.90066,-4.78461,-5.81087,36.95486,-2.72553,-0.21348,-0.1746,1.37274,2.34857,2.80366,-4.54177,-3.17629,2.99956,0.06593,1.03623,1.78163,2.76293,0.10529,0.15414,0.33267,0.16522,0.12654,0.27542,0.00329
709,-1.57248,1.01955,-0.33851,1.92887,0.41525,-0.19065,-12.62648,-2.13447,0.71337,11.04252,1.58684,-0.59975,0.4918,0.11318,0.06465,0.83296,-0.01905,-0.14838,-6.27246,-0.2909,-1.29608,36.14904,5.00865,2.50985,0.5968,0.9487,1.85136,1.02388,-4.02515,-2.37694,3.59905,-0.6862,0.63898,1.41521,1.32798,0.1766,0.34349,-0.08173,0.14464,0.14035,0.11871,-0.02158
710,-1.49047,1.78393,-0.57606,3.46733,0.92687,-0.18718,-9.2977,-2.05909,1.99394,14.79959,1.19307,-1.85265,0.45771,0.15725,0.11346,0.90809,-0.05397,-0.03762,1.29468,-4.79093,0.4473,49.13684,31.40543,1.42966,4.51019,-0.84812,-0.69057,0.96945,-1.80002,-0.39601,5.78627,-0.61158,-0.70237,1.17776,0.22173,0.44158,0.98858,-0.33033,-0.04987,0.16719,-0.00856,0.03077
711,-4.24354,1.24909,-0.49528,3.45072,0.68481,-0.21247,-15.09595,-5.17667,1.2877,21.39607,0.34206,-3.33892,0.34001,0.06771,0.11507,0.78654,-0.03963,0.03716,4.90224,-11.10348,-5.10898,57.70142,53.63678,-7.1552,10.55827,-2.14382,-5.38963,4.49436,0.82188,1.88924,6.69092,1.64771,-3.04599,0.85892,0.38528,0.3828,1.352,0.034,-0.44578,0.19353,0.01693,0.10766
712,-6.66267,0.72857,-0.63263,2.67699,-0.37343,-0.3272,-21.96771,-0.88706,-1.52903,24.98337,-0.5675,-3.98944,0.34349,-0.10123,0.08181,0.64448,-0.01239,-0.01573,4.06871,-4.28161,-12.60351,42.85999,47.93282,-14.83564,15.44676,-1.54032,-7.86507,9.22392,2.04053,3.19552,5.63182,3.50817,-4.07747,0.28764,1.34527,-0.17258,1.15015,0.48036,-0.5989,0.13206,0.15237,0.09234
713,-7.58013,-0.11216,-0.54983,2.67431,-1.19607,-0.41166,-22.6785,4.493,-3.37632,23.97782,-0.03447,-2.7848,0.38052,-0.3331,-0.01117,0.70378,-0.00377,-0.1388,2.83461,7.51677,-13.03845,19.0046,17.98582,-5.78958,13.3668,0.47019,-3.47905,11.49252,1.30572,2.96258,5.92122,1.78285,-1.71088,-0.59768,1.90236,-0.98926,1.01095,0.30475,-0.15376,-0.05365,0.23893,-0.05011
714,-7.80411,-2.10812,0.3778,1.85024,-0.99744,-0.22298,-19.34075,-2.13003,-1.72378,18.01006,1.41088,-0.31992,0.31492,-0.56671,-0.13754,0.76917,-0.01519,-0.16231,-0.84206,0.93801,-5.36997,18.99093,-3.29032,16.9954,3.86215,2.36701,4.78448,9.98496,0.12905,1.88174,8.33435,-2.0709,2.13424,-0.8383,1.75375,-1.2762,1.09882,-0.21801,0.4517,-0.12633,0.21477,-0.14633
715,-7.21558,-3.69497,1.32955,-1.74849,-0.06899,0.28183,-14.63588,-15.20274,1.5289,8.64495,1.97725,1.49419,0.22934,-0.63368,-0.1852,0.5502,0.01345,0.02506,-5.88272,-19.50006,3.17228,42.79483,8.34449,29.34718,-3.68796,2.85567,7.16544,6.52035,0.2576,1.03626,9.46756,-2.79164,2.56401,0.56048,1.623,-0.50763,0.89906,-0.08645,0.32602,0.15241,0.20279,-0.03785
716,-5.41975,-2.91724,1.10746,-5.19332,0.79872,0.67316,-8.69809,-19.07288,2.54966,2.768,1.04235,1.078,0.27847,-0.47327,-0.10393,0.24927,0.11149,0.26803,-4.49304,-28.10373,5.51245,56.61863,38.59887,19.63688,-1.41477,1.70614,1.50418,3.69833,1.03205,0.52645,7.05515,0.20983,-0.65303,2.1352,1.80187,0.34803,0.37219,0.57866,-0.40904,0.4712,0.26484,0.10129
717,-3.86177,-1.16683,0.2314,-4.00628,1.23088,0.52477,-4.83007,-14.73839,0.87125,5.05425,0.00028,-0.7582,0.40747,-0.25206,-0.0045,0.27003,0.20514,0.28289,1.71056,-22.06421,2.31579,49.00951,61.72082,-1.61379,8.76265,-0.39914,-5.01212,2.11235,0.06604,-0.50868,4.14607,2.67756,-3.25005,1.78335,1.83017,0.09498,0.46286,0.72625,-0.75434,0.34016,0.2899,0.01368
718,-3.98775,-1.23914,0.14397,0.5146,1.06712,-0.01005,-4.58716,-14.99333,-0.36579,10.11586,0.62719,-1.38672,0.44345,-0.14897,-0.00518,0.56704,0.18051,0.00155,4.51533,-19.2543,1.15533,41.38346,67.89352,-19.32186,17.55621,-2.50855,-7.44586,1.38827,-2.52748,-1.7214,3.2248,2.70681,-3.20093,0.4549,1.49375,-0.60837,1.16948,0.13767,-0.36634,-0.06804,0.20621,-0.1942
719,-4.76322,-2.8514,0.9238,3.01604,-0.05561,-0.48561,-3.82177,-20.64877,0.96248,10.13992,1.9243,-0.29324,0.40938,-0.19106,-0.06546,0.7797,-0.00298,-0.37071,4.29393,-24.82725,5.57407,50.42374,55.85346,-20.46923,15.25528,-2.86007,-5.526,1.97548,-3.69768,-1.55913,2.75025,1.56227,-1.68493,0.44021,1.14492,-0.47297,1.18984,-0.37596,0.14196,-0.21795,0.10139,-0.24119
