PaulMeinheit/Bachelor_Muay_Thai/processed_Data/N1/roundhouse/sliced/JointMoments/sliced1.csv
Unnamed: 0_level_0,R_KNEE_MOMENT,R_KNEE_MOMENT,R_KNEE_MOMENT,L_KNEE_MOMENT,L_KNEE_MOMENT,L_KNEE_MOMENT,R_HIP_MOMENT,R_HIP_MOMENT,R_HIP_MOMENT,L_HIP_MOMENT,L_HIP_MOMENT,L_HIP_MOMENT,R_ANKLE_MOMENT,R_ANKLE_MOMENT,R_ANKLE_MOMENT,L_ANKLE_MOMENT,L_ANKLE_MOMENT,L_ANKLE_MOMENT,WAIST_JOINT_MOMENT,WAIST_JOINT_MOMENT,WAIST_JOINT_MOMENT,NECK_MOMENT,NECK_MOMENT,NECK_MOMENT,L_SHOULDER_MOMENT,L_SHOULDER_MOMENT,L_SHOULDER_MOMENT,R_SHOULDER_MOMENT,R_SHOULDER_MOMENT,R_SHOULDER_MOMENT,L_ELBOW_MOMENT,L_ELBOW_MOMENT,L_ELBOW_MOMENT,R_ELBOW_MOMENT,R_ELBOW_MOMENT,R_ELBOW_MOMENT,L_WRIST_MOMENT,L_WRIST_MOMENT,L_WRIST_MOMENT,R_WRIST_MOMENT,R_WRIST_MOMENT,R_WRIST_MOMENT
ITEM,X,Y,Z,X,Y,Z,X,Y,Z,X,Y,Z,X,Y,Z,X,Y,Z,X,Y,Z,X,Y,Z,X,Y,Z,X,Y,Z,X,Y,Z,X,Y,Z,X,Y,Z,X,Y,Z
915,-0.00762,-1.71148,0.34674,-0.18789,0.40811,0.01644,12.55635,0.15478,0.49727,11.55557,4.1151,2.99375,0.71826,-0.42006,-0.04899,-0.06396,-0.10832,-0.09257,30.87696,1.21623,8.85653,-45.90867,-34.00771,10.82164,1.58163,1.79714,1.70936,6.14561,1.439,2.81287,-2.43725,0.42821,0.55501,0.16581,-0.31586,0.18196,-0.35235,0.467,-0.15445,0.07036,-0.07428,0.04741
916,-0.26707,-0.13272,0.03216,0.95699,-0.81014,-0.41407,8.71881,-1.67725,1.02779,24.96597,1.78906,-0.99302,0.82214,-0.44265,0.04938,0.31176,-0.28154,-0.26664,44.39898,-4.44201,1.88017,-21.59122,-19.37227,-1.51563,-0.36179,1.75995,-1.95031,5.098,2.66658,2.3527,-0.03994,2.87979,-1.15368,2.87528,0.4535,0.87799,0.01854,0.71873,-0.3067,0.58744,0.11692,0.17185
917,-1.37795,1.07796,-0.40943,0.99081,-1.8653,-0.66114,3.23561,-3.87671,-0.42445,28.86835,-0.6825,-3.25476,0.58846,-0.32185,0.08918,0.50582,-0.45332,-0.47105,44.50275,-7.44864,-4.45691,8.98488,-11.422,-11.71908,-1.0953,1.33103,-3.47324,4.40421,2.09962,1.85967,2.02946,2.94609,-2.02219,4.34111,0.52325,1.35386,0.20822,0.55645,-0.27034,0.805,0.1337,0.24678
918,-1.88572,1.96172,-0.78048,-1.93421,-1.22493,-0.14623,2.73414,0.29485,-1.79846,22.38733,-0.6518,-3.06393,0.35435,-0.19279,0.06362,0.21368,-0.41084,-0.41009,36.85719,2.5126,-5.79897,22.73438,-19.11448,-12.13852,0.04473,1.38361,-1.87242,5.44412,-0.07771,1.94339,4.21848,0.47799,-2.00918,3.48595,-0.18737,1.34047,0.42257,0.13772,-0.18468,0.55157,-0.09156,0.26291
919,-1.38683,2.67857,-0.82451,-6.26263,0.20945,0.79811,3.69725,8.22246,-0.89327,12.23443,1.38526,-1.7521,0.44232,-0.14992,0.04885,-0.31842,-0.30896,-0.16414,24.45301,15.80028,-2.68239,16.05921,-29.14202,-2.03834,2.85898,1.95468,1.8171,6.50863,-2.34163,1.79055,6.59232,-3.36522,-1.41729,1.51149,-0.65087,0.8447,0.83666,-0.36618,-0.1538,0.13952,-0.27441,0.20253
920,-1.22606,2.56902,-0.5091,-7.589,1.10451,1.23525,1.26185,10.59171,1.35828,9.22527,5.56089,1.2098,0.6468,-0.20945,0.02931,-0.51221,-0.35944,-0.03787,15.03921,20.08321,3.57037,5.12182,-28.83809,11.52032,5.33941,2.29281,4.30633,4.35894,-2.34006,0.70121,8.71974,-6.20716,-1.22992,0.12017,-0.2871,0.09611,1.29452,-0.6971,-0.24995,-0.09773,-0.16298,0.03049
921,-2.79753,0.94522,0.04185,-5.45502,2.11988,1.1733,-5.42426,2.54134,2.56844,15.75984,11.59805,5.91715,0.52507,-0.2873,-0.06338,-0.33538,-0.32545,-0.01496,12.71891,13.86022,10.3094,4.48489,-23.41112,17.78498,5.98899,1.00387,3.42505,0.47918,-0.478,-0.69521,9.62688,-6.77737,-1.69586,-0.13481,0.4774,-0.56096,1.49468,-0.83446,-0.37115,-0.12032,0.12252,-0.18563
922,-4.80828,-0.70314,0.41166,-3.99249,3.20254,1.29966,-11.65863,-6.453,1.77605,22.44767,14.43088,8.34194,0.20667,-0.26618,-0.13285,-0.0995,0.01163,0.09707,13.51392,6.78415,11.6376,8.22858,-26.19527,13.64826,5.26299,-1.51609,0.67128,0.12848,0.24684,-0.98488,9.01865,-5.83871,-2.1126,-0.04323,0.90403,-0.81425,1.39363,-0.93419,-0.36186,-0.11049,0.26683,-0.27536
923,-4.60353,-0.79294,0.28887,-5.8275,3.33203,1.7766,-8.36857,-6.03374,0.11479,20.58603,10.94292,5.7115,0.16278,-0.1898,-0.07386,0.00903,0.41977,0.28909,17.44888,6.96791,6.95342,2.97888,-40.05154,8.34189,4.35777,-2.43056,-0.6646,4.0093,-0.62829,0.4915,7.71591,-4.73058,-1.99777,-0.82182,0.5641,-0.65861,1.17325,-0.96774,-0.24181,-0.24542,0.12959,-0.17636
924,-2.29238,0.43567,-0.19992,-8.62283,2.7152,2.11524,5.33306,0.79452,-1.03087,13.76229,4.58882,0.69297,0.39922,-0.14657,0.06674,-0.01895,0.5265,0.39174,28.01518,9.84531,1.93149,-9.33181,-48.33866,11.04891,4.07104,-0.66127,0.34503,7.26551,-0.85654,2.37914,6.65371,-4.01606,-1.58628,-2.75013,-0.0884,-0.62854,1.00888,-0.80031,-0.16687,-0.50408,-0.08097,-0.07025
925,-0.75053,1.75742,-0.64677,-9.08684,3.37251,2.19426,16.22603,4.51149,-1.32444,11.52019,2.02556,-1.37207,0.52156,-0.11078,0.17374,-0.1736,0.41558,0.41699,39.28373,8.44171,0.98884,-16.54539,-37.13002,18.08479,4.71104,0.79267,1.12689,6.69027,-0.17019,2.56237,5.73581,-3.2181,-1.27342,-3.90981,-0.18604,-0.92985,0.91216,-0.45501,-0.19583,-0.59211,-0.08353,-0.11392
926,-1.42299,2.07402,-0.70917,-7.53763,6.05452,2.36162,14.03788,2.10434,-0.88809,15.78102,5.32844,0.95324,0.41006,-0.09428,0.15264,-0.45637,0.4722,0.53703,41.34413,4.77364,3.51305,-14.39178,-21.46902,19.97334,4.89505,-0.68744,-0.268,3.8656,-0.37346,0.82,3.93967,-1.75416,-0.94212,-2.22825,0.35628,-0.92918,0.68422,-0.11239,-0.19557,-0.31357,0.09978,-0.18975
927,-2.32811,1.00931,-0.34016,-6.04826,7.3012,2.28151,6.43633,-2.82913,0.45706,19.77428,8.22257,2.59842,0.43568,-0.24544,0.00953,-0.57886,0.52972,0.59693,36.20264,1.41249,5.9657,-7.15608,-22.43102,16.27249,2.87217,-3.16738,-1.93914,1.85902,-1.50844,-0.7151,1.38596,-0.38184,-0.35494,1.02484,0.7137,-0.2133,0.25259,0.01581,-0.06943,0.08804,0.22684,-0.1202
928,-1.43869,-0.7186,0.16515,-3.38848,4.42033,1.15246,5.66023,-7.1536,2.11453,22.79049,5.62295,-0.46369,0.77131,-0.53904,-0.1354,-0.10202,0.16911,0.28601,38.00666,-3.86242,5.27003,-3.11365,-34.20896,13.75472,0.34495,-3.03539,-0.98458,1.60713,-1.65795,-0.61047,-0.4994,-0.53238,0.37179,2.53559,0.66263,0.50545,-0.18725,-0.10744,0.10341,0.22136,0.22694,0.02271
929,0.32724,-1.70772,0.35995,3.38907,0.56371,-0.78312,10.30448,-8.82919,2.19924,33.54744,1.6582,-4.46219,0.92754,-0.6264,-0.17422,0.86215,-0.32851,-0.19803,55.00137,-7.68482,1.1913,-8.80953,-42.83942,15.01731,0.3838,-0.16561,2.28889,2.16514,-0.21402,0.434,-1.42979,-1.92685,1.1529,1.55699,0.56733,0.55887,-0.53368,-0.24506,0.2569,0.06227,0.15212,0.10448
930,0.64592,-0.96928,0.07023,10.80115,-1.90314,-2.23451,10.37271,-5.32124,0.41832,49.29955,-1.27149,-4.98777,0.57969,-0.34418,-0.0886,1.51261,-0.52875,-0.47339,72.60817,-4.52286,-3.74332,-18.99785,-50.17624,16.48134,3.17561,2.19768,4.69979,2.67584,1.01313,1.25157,-2.10177,-2.63265,1.84066,0.54869,0.19691,0.42134,-0.78015,-0.15152,0.38405,-0.02551,-0.05472,0.16587
931,-2.04884,0.36185,-0.12275,12.81392,-4.21494,-2.46155,0.09448,-0.93429,-0.39139,55.94518,-5.83438,-4.21459,0.14903,-0.08915,0.02684,1.48462,-0.51466,-0.48843,68.36184,-2.77012,-6.77072,-20.60732,-59.43183,15.75357,7.52578,1.72075,4.4574,3.44001,0.03244,1.13206,-2.27824,-2.22224,2.06233,1.21705,-0.36721,0.48894,-0.73686,0.03125,0.40414,0.18273,-0.32851,0.22844
932,-6.38697,0.21643,0.39661,9.58905,-5.85969,-1.83798,-14.93285,-3.76252,1.44079,47.01495,-9.5625,-4.62951,0.08886,-0.21828,0.0572,1.19686,-0.45442,-0.33415,40.29553,-12.86135,-6.03514,-7.84487,-61.02294,16.05399,11.58576,-0.38956,3.27859,5.15202,-2.47995,0.53957,-1.62392,-2.3326,1.87247,1.9434,-0.43785,0.32833,-0.35577,-0.07496,0.30383,0.37975,-0.39158,0.18953
933,-8.49888,-0.76801,1.00446,6.86574,-5.88812,-1.35352,-21.78501,-9.87896,3.37665,32.81797,-8.88265,-5.09127,0.33829,-0.48548,0.02751,1.12491,-0.39881,-0.14542,14.73097,-25.55335,-3.04592,12.35751,-46.58637,19.37557,11.21288,-1.03908,3.19657,6.15388,-3.31254,0.56298,-0.83886,-3.21634,1.62903,0.63592,0.01249,-0.19745,-0.00963,-0.40332,0.22044,0.17623,-0.11424,-0.00066
934,-6.96709,-0.71108,0.7941,8.04063,-4.06476,-1.39595,-17.22682,-8.9654,2.6934,27.61992,-3.41223,-3.44962,0.59729,-0.54386,-0.00144,1.28461,-0.30386,-0.00994,12.82355,-22.76414,-0.5841,25.33419,-27.49941,22.75257,3.85978,1.17835,3.98124,3.61093,-0.80658,0.80975,-0.38138,-3.3906,1.33005,-1.61537,0.54598,-0.66451,0.00594,-0.52048,0.22958,-0.26761,0.32259,-0.26055
935,-4.24986,0.19595,0.04254,9.80327,-1.22887,-1.34619,-11.58487,-1.28873,-0.18089,31.36378,1.69213,-0.43981,0.67103,-0.40293,-0.01423,1.31434,-0.17752,0.03041,22.94794,-7.90487,-0.77726,21.15321,-27.6554,26.17834,-5.65875,4.7354,4.43162,-0.59911,2.09446,0.66912,0.46363,-2.53864,0.73297,-2.7844,0.65696,-0.695,-0.0817,-0.31979,0.22221,-0.58535,0.53349,-0.38508
936,-3.40911,0.29916,-0.26233,6.7068,1.09795,-0.52252,-12.8748,3.37602,-2.96401,31.09704,2.42979,2.29713,0.53809,-0.25914,-0.01362,0.92789,-0.08346,-0.02537,21.3459,2.50285,-1.77749,6.24908,-53.20621,30.52561,-8.32195,6.40879,3.91352,-1.53208,1.65456,0.88894,1.94416,-1.80388,-0.03468,-2.67659,-0.01823,-0.14424,0.07082,-0.08516,0.09308,-0.62902,0.29378,-0.22
937,-4.63464,-0.67656,0.16464,-1.36322,3.0363,0.80019,-14.41332,0.66827,-3.14777,19.584,4.70458,5.02393,0.33613,-0.24308,-0.00855,0.29387,0.02768,-0.06272,8.82651,8.28885,2.82844,-3.91007,-76.65161,28.57805,-1.39104,4.24177,2.59438,0.46071,-1.00847,1.71992,2.44995,-1.73878,-0.37499,-2.02488,-1.15285,0.72194,0.3043,-0.01527,-0.07751,-0.46464,-0.15191,0.09015
938,-5.92472,-0.65102,0.51422,-8.12739,5.70416,1.556,-7.57362,-2.81903,0.27073,5.92384,14.51149,6.83527,0.24036,-0.28516,0.03088,-0.07322,0.2257,0.0196,5.25886,19.4001,13.41258,-4.48914,-65.75727,16.12027,8.35982,0.08815,1.51719,1.35385,-2.09439,2.30109,0.76629,-2.16491,0.03879,-1.33463,-1.95212,1.31418,0.23601,-0.10318,-0.14665,-0.30867,-0.38751,0.23298
939,-5.70532,1.27758,0.22226,-8.86263,8.98015,1.29612,2.82179,-1.2788,5.02037,0.79396,27.50958,6.33177,0.34396,-0.2856,0.12202,0.07131,0.44085,0.18555,12.64381,34.05092,21.93653,-4.77572,-27.35839,4.33876,12.98601,-2.0461,1.59887,1.66488,-1.19615,2.31365,-1.3276,-2.905,0.67413,-0.45641,-1.94475,1.37262,-0.03029,-0.2794,-0.09937,-0.23364,-0.35634,0.18236
940,-5.16515,2.10852,0.03134,-5.29842,11.79373,0.74611,4.41526,0.733,6.98658,4.20641,36.63311,6.01698,0.50477,-0.37261,0.11492,0.45349,0.56148,0.35454,13.5434,42.505,23.52372,-11.15042,-0.92531,5.62602,10.63461,-0.56999,2.05887,4.40487,-1.12808,2.0144,-1.17508,-3.02868,0.64801,0.78951,-1.1375,0.99459,-0.08306,-0.35451,-0.04414,-0.09459,-0.28398,0.17223
941,-5.3804,0.36481,0.33928,-0.35401,12.09464,0.40135,-1.75091,0.37446,4.16189,14.3625,37.72089,7.9075,0.53635,-0.56047,-0.01554,0.78493,0.49241,0.38532,11.14377,42.82166,19.46389,-15.623,-7.60338,17.26602,4.54527,2.16577,1.57548,7.74299,-3.08926,1.23511,0.79333,-1.63528,-0.05215,1.81152,0.08895,0.24899,0.05449,-0.17405,-0.02267,0.12784,-0.25343,0.24944
942,-3.70209,-1.75259,0.63515,3.73558,9.02164,0.16399,-0.37949,-0.12112,-0.47195,25.71255,30.93688,9.98347,0.56693,-0.62295,-0.02732,0.93369,0.25882,0.20447,22.0858,36.71811,14.99765,-7.28853,-27.39301,27.73344,-0.88317,3.31713,0.07831,7.26655,-5.15631,-0.02028,2.2113,0.62458,-0.82139,2.29467,0.99973,-0.47391,0.10435,0.16023,-0.03869,0.30907,-0.17072,0.25061
943,-1.07871,-2.66514,0.8189,4.59698,5.5598,0.14405,5.34496,-2.80745,-2.37245,28.97099,22.60922,10.39893,0.61693,-0.50642,0.09037,0.84485,0.10988,0.02556,32.34515,23.52661,13.65371,7.41896,-33.17845,31.5041,-2.34604,2.59442,-0.78685,3.83029,-5.08113,-0.81084,2.06846,1.54694,-1.0433,2.47911,1.16054,-0.64842,0.05869,0.30457,-0.0777,0.35977,0.00566,0.10721
944,-1.44359,-2.1313,0.88349,2.49484,3.85632,0.32865,1.82996,-8.59023,-0.59984,23.86405,16.18875,8.38426,0.55361,-0.35117,0.14845,0.69247,0.14742,-0.00318,24.27438,5.19544,13.06089,12.64212,-23.17574,30.50475,0.69867,1.47025,0.46133,2.68724,-3.12201,-0.37157,1.45543,-0.48349,-0.435,2.22499,0.85745,-0.43298,0.11514,0.04609,-0.06834,0.22138,0.18149,-0.09582
945,-4.83824,-0.86762,0.69385,-0.14786,2.67853,0.40375,-6.44452,-13.63656,2.61723,17.79961,9.03356,3.8192,0.4134,-0.29887,0.06593,0.63816,0.19285,0.01042,11.85721,-13.64314,10.7463,8.32745,-11.48363,25.77807,4.78682,0.7338,2.40978,5.41327,-1.68305,0.69357,1.64866,-3.59785,0.3495,1.63062,0.51348,-0.38988,0.32851,-0.34448,-0.02525,-0.08375,0.21434,-0.25613
946,-8.11833,-0.28408,0.48513,-1.24487,1.35319,0.30114,-5.89308,-15.16971,4.90414,17.16284,1.13752,-1.03952,0.29679,-0.36942,-0.09798,0.60917,0.16825,0.01585,19.2104,-26.03857,8.60636,6.65958,-8.79655,18.26358,5.96804,-0.37841,2.24041,8.61928,-2.10008,1.56358,2.01121,-4.21389,0.46785,1.5529,0.06328,-0.36463,0.49273,-0.4926,-0.02496,-0.31477,0.02188,-0.245
947,-7.99965,-0.70434,0.56585,-0.12719,1.12985,0.21455,5.49264,-13.25087,5.74024,20.98889,-2.00053,-2.76545,0.31883,-0.43729,-0.15184,0.60527,0.17415,0.09613,43.76048,-22.92505,10.11456,11.50051,-15.14806,15.34452,4.4983,-2.14118,-0.11236,10.33226,-3.21156,2.36151,1.62021,-2.15606,-0.01139,2.36397,-0.46603,0.12279,0.44307,-0.43633,-0.04262,-0.20882,-0.23525,-0.04857
948,-4.23618,-1.08233,0.81316,1.46469,1.72186,0.19495,15.79676,-9.02291,5.82794,18.71737,0.74019,-1.1405,0.52854,-0.40048,0.01341,0.73823,0.1632,0.2024,51.41082,-6.86455,14.34142,16.10777,-21.74189,25.97488,3.14179,-2.80821,-1.52202,12.88216,-3.88467,3.86122,1.54557,-0.98022,-0.49548,2.9857,-0.7443,0.95539,0.2883,-0.40316,-0.01997,0.10231,-0.3193,0.17963
949,-0.42487,-0.44236,0.63255,0.90571,1.36164,0.22025,17.14011,-2.90036,4.75097,4.79458,3.56653,1.12276,0.68867,-0.26625,0.22098,0.87366,0.02409,0.20135,26.66073,8.74598,16.42051,12.97527,-23.09797,44.4679,3.7119,-1.48032,-0.45988,18.37831,-4.99924,6.14396,2.86309,-2.23001,-0.74019,2.88458,-0.57185,1.4808,0.21577,-0.32619,-0.01244,0.36713,-0.22551,0.31856
950,1.20349,0.89712,-0.17318,-0.88954,0.04371,0.23914,16.8769,4.24027,2.17952,-6.61494,3.12144,1.73277,0.59471,-0.10706,0.28043,0.86444,-0.11413,0.12412,4.51657,17.50094,13.45645,2.83347,-20.95308,50.13537,6.74191,-0.40566,0.9459,24.38149,-7.27335,7.7051,4.53998,-4.09292,-0.7288,3.01515,0.10085,0.85499,0.31914,-0.19068,-0.05914,0.52789,-0.05907,0.28021
951,1.07647,0.70009,-0.38331,-1.32654,-0.76465,0.17822,18.41631,6.16745,0.36717,-2.01609,0.58842,0.04769,0.4346,-0.1313,0.18595,0.76825,-0.07202,0.08829,9.9525,15.26526,6.99708,-4.97275,-12.72334,32.72312,9.76337,-1.50439,0.38783,27.91809,-8.80734,7.7822,4.62282,-4.41354,-0.49849,4.12264,0.92664,-0.44755,0.45848,-0.201,-0.08159,0.62517,0.07875,0.16161
952,-0.43443,-1.77284,0.73853,-1.60986,-1.29471,0.13116,14.34534,-1.59857,0.64904,7.97635,-5.40271,-3.03789,0.4744,-0.3642,0.05422,0.45141,0.00157,0.0295,18.82022,-5.83053,0.97865,-9.9926,3.45501,9.06948,9.37663,-3.57636,-2.04484,31.1776,-6.8397,8.28442,2.25974,-2.10702,-0.13881,5.80716,1.23469,-0.28745,0.36184,-0.25005,-0.00919,0.74888,0.05988,0.30917
953,-2.52447,-3.45544,1.62657,-2.38723,-2.68752,0.08669,5.41029,-12.34296,0.95676,11.88143,-14.84542,-5.75321,0.62365,-0.44748,-0.00512,0.00588,-0.11613,-0.14474,15.97182,-36.41276,-2.59109,-20.55596,14.00982,5.16872,5.72173,-4.84317,-4.69106,37.58614,-1.10948,10.74244,-0.80409,1.6545,0.10648,7.63875,0.88014,1.96702,0.05198,-0.10503,0.13002,1.03799,-0.13911,0.76297
954,-3.46573,-1.84352,0.66989,-0.86553,-4.56605,-0.16903,1.14248,-15.67121,-0.06689,14.36625,-21.16182,-7.19934,0.60194,-0.233,-0.01355,0.02997,-0.31775,-0.28903,16.55471,-50.19535,-5.36019,-28.05544,4.85427,25.45546,1.05863,-4.9271,-5.4274,44.51098,5.29364,12.78223,-1.69135,3.59706,-0.097,10.2299,0.70858,3.61332,-0.15834,-0.00669,0.25025,1.62125,-0.28296,0.94755
955,-2.74743,1.07705,-1.15037,2.15993,-5.29739,-0.52756,2.00857,-10.74879,-1.19748,15.55691,-18.80009,-7.516,0.36496,-0.04705,-0.05144,0.57958,-0.36091,-0.21974,17.55798,-37.48195,-8.61044,-12.8839,-16.20833,47.19845,-3.39424,-4.40782,-3.80963,44.82117,8.57298,11.16418,0.21096,2.47376,-0.95319,13.06869,1.44404,2.50917,-0.02441,-0.20774,0.17707,2.23319,-0.13805,0.47187
956,-1.80349,1.70206,-1.61233,1.92043,-4.02097,-0.6166,1.46924,-5.99778,-1.56123,8.83992,-10.38431,-6.86414,0.14136,-0.07933,-0.10456,0.88819,-0.25446,-0.05604,3.05966,-16.12487,-10.62573,23.11008,-30.85517,46.43673,-6.89793,-3.73647,-1.6442,36.08101,7.45616,6.85673,1.70425,1.00806,-1.63492,14.70529,2.73528,0.57377,0.18164,-0.3394,-0.04003,2.50842,0.20383,-0.1339
957,-2.17861,0.03612,-0.56287,-1.15066,-1.49496,-0.4825,-1.04325,-5.88163,-2.02298,2.78011,-2.29287,-5.5188,0.14221,-0.09713,-0.09435,0.61428,-0.16027,-0.07789,-11.22253,-4.64551,-10.92207,59.28582,-27.87273,22.09933,-5.30076,-2.64836,-0.63468,24.38616,3.71186,3.15626,0.48791,0.63649,-0.97136,15.43863,4.03493,0.31807,0.05952,-0.10938,-0.12298,2.54023,0.53416,-0.24702
958,-4.34227,-1.03255,0.21072,-0.69477,1.32284,-0.48394,-6.23134,-8.15492,-3.15086,13.73262,3.53178,-3.66145,0.29653,0.05013,-0.0266,0.383,-0.05205,-0.26933,-1.99475,-5.04782,-12.91041,76.65759,-5.2654,-7.20467,4.23878,-1.15149,-0.85809,17.43095,1.02164,1.66735,-1.80178,-0.51286,1.09004,16.3823,5.09112,1.61272,-0.3552,0.12868,0.08999,2.54216,0.73372,0.02612
959,-7.38173,-0.62641,0.03803,4.68197,3.58,-0.62818,-17.04079,-11.17463,-3.74408,36.96107,9.10214,-1.08494,0.34237,0.13263,-0.00339,0.73346,0.14267,-0.36188,18.90537,-8.41872,-17.05363,65.1333,20.46215,-20.59953,13.10262,0.18621,-0.22829,17.15971,2.66744,2.65225,-3.08684,-3.03916,3.5823,17.76897,5.50654,3.51369,-0.72433,-0.00113,0.52631,2.60683,0.73589,0.30447
960,-8.89643,-0.4773,-0.04426,8.64793,4.95593,-0.53602,-25.87602,-13.45903,-2.54368,49.96766,16.50574,2.5354,0.1252,-0.07576,-0.08519,1.31554,0.3312,-0.18544,27.44983,-1.29923,-16.15615,33.67355,25.7009,-12.15992,9.74366,0.56699,2.6717,18.72103,7.88774,6.08626,-2.4272,-4.71005,4.5973,17.93633,4.45603,5.78118,-0.57003,-0.39789,0.80945,2.5741,0.4916,0.51072
961,-7.86202,-1.24971,0.32975,7.11567,6.32575,-0.0199,-22.10792,-11.53276,-0.83219,42.90752,25.90817,6.99502,-0.15572,-0.46306,-0.19029,1.44899,0.42977,0.18341,21.60762,21.74294,-6.30637,12.69545,19.00872,0.29713,-0.9581,-1.16302,4.86923,15.22558,11.42673,9.90939,1.17645,-4.27916,2.48615,14.52948,1.47247,7.73963,0.31773,-0.7393,0.57393,2.0476,0.04181,0.69593
962,-5.54392,-1.40747,0.14035,2.75079,6.74949,0.48197,-9.36954,-4.54537,-1.24929,25.69708,30.34198,9.7992,-0.08314,-0.68157,-0.1707,0.94389,0.36189,0.43003,11.9479,43.0088,3.40707,27.19146,28.39776,-6.22653,-4.19734,-4.30868,2.31634,6.0793,8.66154,9.30224,6.82332,-2.73169,-1.95851,8.77316,-1.32637,7.32714,1.35911,-0.77333,-0.08385,1.09967,-0.26932,0.66746
963,-4.75489,-0.89773,-0.36302,-0.36264,3.58315,0.38804,-3.35403,-2.62988,-3.62392,10.8106,20.42157,7.39552,0.23139,-0.56441,-0.05091,0.29502,0.03593,0.25483,-0.30241,30.83066,2.18771,60.2448,47.61265,-30.09437,2.57449,-6.25004,-3.63659,-3.21581,1.62724,2.75705,9.0767,-0.96289,-4.89458,4.5717,-1.34329,4.42781,1.46452,-0.47237,-0.51851,0.32189,-0.17149,0.34253
964,-7.33198,-0.94565,-0.05993,-1.30494,-1.22141,-0.09386,-10.22742,-12.63816,-5.36547,3.64219,2.43852,1.26408,0.26207,-0.24829,0.02222,0.11275,-0.30596,-0.14994,-14.54779,-11.21574,-6.06652,65.52139,45.33445,-50.4694,10.48719,-5.90649,-7.23979,-9.24723,-4.15917,-4.62276,3.16533,-0.17083,-2.20143,2.96176,0.02998,1.81928,0.26696,-0.28513,-0.05634,-0.06491,0.02664,0.00704
965,-10.4353,-0.87306,0.36989,-1.49977,-3.02599,-0.28639,-19.75183,-20.70886,-5.24471,4.9668,-8.04054,-3.25455,0.08475,0.05656,0.03784,0.33982,-0.2895,-0.30461,-20.06804,-36.80352,-10.68116,31.83355,20.11622,-57.98181,12.8434,-4.23694,-7.50125,-13.24197,-6.73643,-8.32406,-7.15845,0.6023,3.38966,2.46736,0.05341,1.19995,-1.27573,-0.16975,0.69597,-0.20988,-0.07168,-0.06173
966,-10.57104,0.09752,-0.07406,-1.40146,-1.85009,-0.08285,-25.38296,-14.01899,-4.36445,13.32065,-8.79096,-4.49244,0.09441,0.18518,0.06318,0.52191,-0.01317,-0.12591,-13.8013,-25.08355,-11.8132,0.5516,-1.63806,-58.02957,9.41956,-2.8172,-7.89919,-18.33019,-7.29902,-8.91975,-12.92962,3.64759,4.66577,2.15102,-1.6103,2.00301,-1.90641,0.35613,0.50861,-0.21603,-0.41709,0.10719
967,-8.51114,1.08424,-0.89685,0.00664,-0.61799,0.1132,-29.64163,-0.65149,-4.31962,23.6155,-7.19618,-4.32388,0.16857,0.10053,0.06291,0.59991,0.12492,0.0901,-6.28632,-3.20651,-15.11729,9.18275,-4.72505,-54.89124,5.38997,-1.6886,-8.02151,-25.77868,-7.31517,-9.08375,-9.00317,5.73125,0.87783,1.63095,-3.75843,2.8541,-1.01974,0.82412,-0.43274,-0.24222,-0.72534,0.25594
968,-7.17809,1.03906,-1.08642,2.60097,0.33385,0.12823,-31.91869,5.17337,-5.11143,29.41308,-3.55786,-2.87033,-0.0085,-0.08396,-0.01693,0.75497,0.05624,0.17861,-3.33397,5.97948,-17.76967,45.14095,7.58103,-50.52185,4.34934,-0.36218,-6.12802,-32.93935,-7.42564,-10.42818,-0.10686,3.76072,-2.86494,1.03394,-5.0184,2.91382,0.54543,0.72033,-1.03186,-0.36045,-0.78755,0.20707
969,-8.01678,0.09044,-0.4301,4.26861,1.68853,0.10805,-29.66289,1.77917,-5.23826,29.20234,3.12651,-0.05367,-0.38601,-0.22464,-0.12352,0.90698,0.02381,0.19006,-0.65335,6.53357,-14.39329,71.42304,24.29532,-45.70945,4.56325,0.50858,-3.55382,-36.29272,-7.03506,-12.67618,4.81671,0.57186,-3.54206,1.23908,-4.44581,2.47009,1.30425,0.31252,-0.97108,-0.3582,-0.55944,0.0566
970,-10.20162,-0.77436,0.44453,3.62701,2.16134,0.12723,-25.0428,-2.44582,-3.26985,27.73462,5.49775,1.22075,-0.66272,-0.27901,-0.15194,0.86133,0.0804,0.13822,6.36077,3.80603,-7.53287,73.8487,34.37006,-38.81923,4.73242,1.18617,-1.49062,-35.45093,-5.19939,-14.40017,3.05172,-1.2816,-1.17292,2.53272,-2.18921,2.20003,0.88889,-0.02835,-0.46085,-0.06161,-0.12929,0.00046
971,-11.03659,-0.81588,0.84907,1.69317,1.19501,0.13831,-19.30375,-1.51498,0.88895,28.08348,0.80136,-0.19992,-0.58255,-0.29413,-0.04287,0.65138,0.07963,0.00956,17.57512,-0.71595,-0.99012,61.3614,36.00904,-32.26353,6.43368,2.56864,-0.56078,-31.97923,-2.24579,-15.2852,-0.88062,-1.90291,1.93122,3.76838,0.99511,1.94572,0.08286,-0.14223,0.09839,0.32129,0.41097,0.0288
972,-9.14534,-0.39461,0.80264,0.26284,0.83894,0.14711,-12.68682,1.98851,4.7182,28.48503,-1.21368,-0.81237,-0.17814,-0.31757,0.13868,0.4905,0.0469,-0.07778,26.89177,0.01514,4.55685,45.20699,35.70536,-31.41726,10.04141,4.50731,-0.73309,-26.45786,0.40769,-16.735,-1.6892,-2.35997,3.24651,3.92584,4.70496,1.00983,-0.20874,-0.13067,0.33902,0.46105,1.03712,-0.04122
973,-7.70884,0.07609,0.40642,0.30581,1.96009,0.13293,-11.37784,2.63896,4.27903,29.81555,4.6451,1.11876,0.22948,-0.29887,0.22756,0.42344,0.05987,-0.04626,27.25498,6.90473,4.84187,35.91682,39.35208,-35.14331,11.64377,6.08883,-0.87892,-19.01222,1.73039,-18.93293,1.48468,-2.68448,2.08829,3.0756,8.231,-0.62947,0.20176,-0.1138,0.21013,0.28049,1.59401,-0.266
974,-9.59499,0.80639,-0.57615,1.87741,2.75642,0.0513,-18.64807,1.27913,-0.29392,35.91657,9.85707,2.21882,0.36732,-0.24435,0.16444,0.41751,0.0494,0.03418,21.92648,11.10733,-3.33088,40.69289,46.45119,-35.41871,6.83257,6.70851,-0.48807,-11.32094,1.94547,-19.24715,5.21793,-1.51087,-0.75998,1.55599,9.96089,-2.22882,0.66967,0.02592,-0.14711,-0.06508,1.77546,-0.49064
975,-12.13398,1.3703,-1.5871,3.84256,2.03741,-0.00726,-24.65197,2.17871,-3.47006,44.31929,6.25067,-0.54917,0.17838,-0.33032,0.06763,0.61135,0.00405,0.12335,22.61758,8.61106,-13.18599,55.87207,48.40146,-24.78797,-2.1825,6.84815,0.61764,-5.85138,2.09766,-15.29316,6.07143,0.53438,-2.82179,-0.15793,8.89148,-2.95677,0.56503,0.24555,-0.35263,-0.33043,1.51395,-0.53116
976,-11.17342,1.67655,-2.18366,4.40809,0.27463,-0.00905,-18.01867,5.60453,-2.21984,46.98536,-4.01196,-6.0347,-0.09042,-0.41932,0.01893,0.93501,-0.00747,0.18414,33.60484,2.92396,-17.18566,74.89186,39.46134,-5.69967,-7.72464,6.85798,1.77357,-3.3116,2.14523,-8.92823,4.28375,1.43787,-2.60515,-1.10653,5.91994,-2.40934,0.11127,0.3258,-0.24422,-0.34572,1.04532,-0.3572
977,-7.95944,2.12185,-2.62554,2.84076,-1.52976,-0.04952,-4.09792,6.21414,-0.78772,39.64687,-13.5675,-10.94097,-0.1057,-0.21825,-0.02328,0.99904,0.05391,0.15428,41.132,-5.96055,-17.68319,95.72718,28.49152,7.25399,-4.70507,6.36711,2.00894,-1.66727,0.83297,-5.3783,3.104,0.2349,-1.0166,-0.57849,3.53694,-1.20957,0.07272,0.15605,-0.04929,-0.15557,0.68189,-0.14813
978,-7.13003,2.40546,-2.96784,0.09105,-2.35949,-0.15247,1.37346,0.95466,-3.65423,25.3463,-16.58816,-12.57804,0.06505,0.13033,-0.08829,0.69295,0.16145,0.04831,28.75311,-17.07666,-19.63768,109.52695,29.24611,1.17097,4.2616,5.67419,1.5963,1.98018,-1.80278,-6.54068,4.08682,-2.36413,0.72238,0.56947,3.40465,-0.75281,0.60422,-0.14956,0.06169,-0.02249,0.55814,-0.12202
979,-9.26222,2.348,-3.14375,-1.77865,-2.36543,-0.31193,-5.08701,-6.32152,-8.57768,12.27534,-12.80745,-10.41777,0.05334,0.37179,-0.1683,0.39991,0.11712,-0.12956,3.16974,-24.39242,-21.97037,100.94712,41.47062,-18.17762,10.75687,5.94419,1.64473,7.89551,-3.9552,-7.46217,5.28618,-4.40114,2.01448,0.84662,3.79793,-1.16637,1.03382,-0.3573,0.13849,-0.10291,0.42519,-0.21954
980,-11.34754,2.07105,-3.01835,-1.52404,-2.39845,-0.43627,-11.95494,-11.79158,-10.53637,7.23905,-7.58314,-6.5785,-0.19189,0.44269,-0.23703,0.4289,-0.15175,-0.32596,-11.81054,-28.22081,-20.958,71.83732,54.69641,-33.36844,9.04315,6.96865,2.22598,12.77221,-4.59072,-4.1044,5.05554,-4.29336,2.15571,0.38588,2.30925,-1.04141,0.91544,-0.32785,0.17588,-0.19922,0.04977,-0.18076
981,-11.60352,1.53873,-2.53461,-0.40796,-2.37552,-0.34546,-8.43633,-14.49896,-8.33604,9.02439,-5.63982,-3.89676,-0.2499,0.34088,-0.24164,0.63008,-0.33382,-0.36541,-3.70367,-31.32321,-15.30512,45.64909,58.9861,-34.19064,2.45705,6.15857,1.72806,14.22721,-4.61978,0.66054,3.93911,-2.07438,0.59533,0.58242,-0.27774,0.17787,0.50291,-0.09124,0.03271,-0.0282,-0.38851,0.06562
982,-10.34694,0.94763,-2.03455,-0.72271,-1.77558,-0.06805,2.53942,-14.28134,-4.7609,9.97496,-5.33596,-2.74761,-0.01887,0.14906,-0.20256,0.76099,-0.20437,-0.19744,12.46541,-27.98739,-6.8078,42.33537,48.34906,-21.13914,-1.27236,2.56477,-0.17612,14.31299,-4.76041,3.22935,2.6021,0.36257,-1.28878,1.90009,-1.75714,1.51656,0.1485,0.13212,-0.16364,0.40923,-0.60558,0.33084
983,-8.50802,0.67529,-1.81914,-2.49644,-0.79055,0.13127,9.21234,-13.25667,-2.85919,6.75209,-2.42474,-1.57624,0.07427,0.02519,-0.19045,0.77647,0.03348,0.00267,14.6177,-16.39431,-0.23871,61.98326,35.46076,-4.9228,1.00871,-0.74851,-1.85452,15.46652,-4.64392,3.43975,1.27296,1.2495,-1.63955,3.31084,-1.35923,1.9303,-0.0554,0.20224,-0.19353,0.76217,-0.51188,0.40404
984,-7.00254,0.61253,-1.64376,-3.21084,0.20252,0.097,7.51717,-14.66809,-3.23983,6.31036,3.45806,0.06822,-0.10454,0.02565,-0.18112,0.72183,0.13953,0.09872,7.4743,-6.74972,0.18449,89.34102,42.9803,1.11309,6.51253,-1.02822,-2.33729,16.54282,-4.42561,2.30882,1.49742,0.56496,-0.84019,3.89672,-0.06071,1.50712,0.12038,0.18665,-0.14921,0.72523,-0.26284,0.2829
985,-6.60163,-0.12441,-0.68406,-1.40472,0.82417,-0.07465,3.16711,-19.59773,-3.89504,15.1605,8.13498,0.9799,-0.22815,0.03678,-0.11647,0.65037,0.12476,0.10665,11.18848,-7.55285,-3.96474,103.96608,67.591,-4.62485,11.30544,0.4132,-2.19882,16.30132,-4.52369,0.97286,4.14865,-0.70262,-0.41768,4.00128,0.87301,1.04268,0.79896,0.13031,-0.19022,0.47984,-0.07328,0.12592
986,-7.43284,-1.97357,1.39817,1.58304,0.46629,-0.21248,0.45191,-25.74,-2.43361,28.52736,7.49618,0.38369,-0.16637,-0.05995,-0.01854,0.64198,0.05508,0.05063,26.31742,-15.52552,-6.9657,95.37161,80.53034,-11.93339,13.17635,0.70555,-2.19211,15.59796,-4.39753,0.96859,6.58747,-1.51819,-0.66783,4.27679,0.84,1.04984,1.38762,0.01451,-0.24316,0.42105,-0.0527,0.06326
987,-8.36807,-3.78074,3.41188,3.12794,-0.15932,-0.24062,2.08776,-27.27423,1.60677,34.23496,4.49456,0.14114,-0.08704,-0.25646,0.07047,0.70456,-0.0432,-0.06147,38.26684,-17.76665,-2.86782,77.16393,66.99008,-11.09766,11.10278,-0.4717,-1.96248,14.7271,-3.48741,2.65037,5.9685,-1.50631,-0.72217,4.36879,-0.01546,1.39578,1.24308,-0.12444,-0.14095,0.53837,-0.2024,0.11164
988,-7.93384,-3.92077,3.67828,2.17624,0.64375,-0.23432,10.46567,-19.77852,6.063,28.18887,5.93001,2.04091,0.02131,-0.43137,0.14743,0.72959,-0.10125,-0.16056,43.13655,-5.32458,8.05826,69.83415,43.64448,-3.13555,5.99262,-1.55648,-1.23499,13.20191,-2.21209,4.38429,3.1608,-0.92968,-0.45088,3.57612,-0.8096,1.55777,0.55093,-0.18248,0.02475,0.49746,-0.38623,0.19318
989,-6.10188,-2.68665,2.46852,0.30468,2.23359,-0.25193,19.63215,-8.79248,7.95004,18.91124,9.97634,3.69911,0.19802,-0.4938,0.1926,0.67975,-0.07598,-0.16305,43.44821,9.72099,15.95443,72.44081,34.52419,2.08392,1.48702,-1.92748,-0.74697,11.43848,-1.26408,4.72276,1.05029,-0.24274,-0.50611,2.19608,-0.77186,1.28427,-0.01657,-0.12133,0.03498,0.20476,-0.42029,0.22076
990,-4.79099,-1.8068,1.53253,-0.47689,2.11422,-0.1817,18.27426,-4.24141,6.08777,14.94345,8.62409,2.46211,0.2135,-0.46905,0.1637,0.63777,-0.02918,-0.07556,35.31015,8.81034,12.80463,73.86266,41.53508,0.18924,0.09627,-1.76924,-0.74979,10.3772,-0.92103,3.97821,0.92228,0.18293,-0.83606,1.2351,-0.14932,0.84719,-0.06889,-0.0013,-0.08148,-0.07602,-0.2868,0.17302
991,-5.69795,-1.97376,1.61831,0.09999,0.18745,0.03834,5.83012,-8.3715,2.05195,17.24201,2.2721,0.54593,0.0496,-0.39893,0.08422,0.60472,-0.02714,0.01309,20.31736,-5.66938,3.52526,72.8231,48.6683,-3.029,0.75027,-1.03311,-0.75867,10.03139,-0.99244,3.06352,1.85099,0.35759,-0.95562,1.11415,0.37864,0.50375,0.26532,0.11388,-0.16416,-0.1053,-0.10059,0.07636
992,-7.94638,-2.53813,2.18205,0.95305,-1.14916,0.24462,-6.07245,-16.38978,-1.15276,21.1615,-1.14325,1.12164,-0.03789,-0.30056,0.03261,0.56356,-0.04705,0.03371,9.40952,-18.45848,-1.271,69.02215,49.65682,-4.19108,2.09004,-0.15569,-0.91404,9.50521,-1.03397,2.07527,2.25989,0.56632,-0.86899,1.37746,0.77749,0.15121,0.51913,0.18759,-0.16213,0.08111,0.11046,-0.03878
993,-9.26912,-2.63594,2.41298,1.12625,-0.46078,0.26596,-8.98881,-22.69761,-1.97353,21.69501,1.71907,3.23703,-0.00665,-0.20875,0.05173,0.57872,-0.01976,0.02642,8.25436,-22.96655,0.69138,61.56373,50.83804,-3.92764,3.77499,0.18636,-1.36512,8.33958,-0.77741,1.13287,1.8793,0.70155,-0.76112,1.41128,1.17973,-0.20312,0.44176,0.18758,-0.11012,0.27528,0.31105,-0.11097
994,-9.28649,-1.88301,1.81168,0.53486,1.46098,0.10847,-7.47204,-23.37683,-1.78865,20.0549,7.47056,4.14514,-0.0281,-0.13014,0.08951,0.65041,0.05901,0.0608,11.53901,-19.1921,1.95422,57.04948,49.77098,-0.20836,4.84008,0.7027,-0.78753,6.93155,-0.46847,0.90391,1.85081,-0.18108,-0.07054,1.09008,1.17386,-0.23995,0.26913,0.02297,0.05321,0.30651,0.3236,-0.07379
995,-9.40273,-0.72265,0.65029,-0.12907,3.06987,-0.09968,-10.24295,-17.6928,-2.34243,22.11098,12.06267,3.58698,-0.22568,-0.05859,0.04811,0.72772,0.1252,0.11492,12.70666,-5.84357,-2.17295,61.4229,39.71797,3.52823,4.53917,1.93727,0.98632,5.81042,-0.70949,1.00415,2.48954,-1.89338,1.07307,0.92248,0.68628,0.11302,0.21719,-0.23838,0.24324,0.18006,0.09993,0.03167
996,-9.74236,0.02231,-0.24238,-0.16713,3.31796,-0.17133,-16.22232,-9.28012,-3.32455,28.33256,12.21202,2.73424,-0.49976,-0.03763,-0.06018,0.78951,0.15134,0.13201,12.38664,10.11663,-7.52312,71.26543,27.37688,-0.40203,3.30893,2.27258,1.4254,5.44403,-1.62444,0.2176,2.82081,-2.30917,0.96541,1.4899,0.4992,0.51655,0.16525,-0.27631,0.16047,0.09266,-0.11397,0.09866
997,-9.15668,0.11737,-0.46911,0.00519,1.97516,0.01577,-16.2442,-2.81926,-3.40541,31.01932,6.14087,1.77421,-0.54264,-0.10465,-0.08851,0.73288,0.13986,0.09727,14.47443,14.07532,-8.29899,77.77471,25.38636,-7.60116,1.80347,0.75536,-0.40148,5.52047,-2.22974,-1.02071,2.26406,-0.68693,-0.71614,2.35343,0.92087,0.67784,-0.03114,-0.02051,-0.15177,0.15042,-0.09706,0.09179
998,-7.85179,0.15459,-0.51133,-0.34578,-0.01506,0.28327,-6.80649,0.59563,-1.86543,25.67761,-2.11592,0.64086,-0.22752,-0.20389,0.02007,0.48899,0.05144,0.01298,19.90628,4.85772,-3.7275,74.63564,37.6787,-8.02679,1.3127,-0.5649,-1.92333,4.84356,-1.6777,-1.22461,1.38178,0.81256,-1.72861,2.4711,1.23268,0.59591,-0.23628,0.19182,-0.2753,0.21497,0.06772,0.048
999,-7.35548,0.55813,-0.77597,-1.18216,-0.78326,0.29854,3.65565,1.07165,0.63377,16.62827,-4.71116,-0.15152,0.06694,-0.20331,0.10452,0.23681,-0.09395,-0.06933,22.62225,-3.57187,2.62907,64.16684,57.89118,-4.66955,3.34366,0.12544,-1.25491,3.09763,-0.7042,-0.86062,1.16449,0.35095,-0.69291,1.72075,1.12311,0.33834,-0.16475,0.15277,-0.08618,0.16813,0.17421,0.00338
1000,-7.87455,0.66212,-0.66716,-1.60443,0.16632,0.02177,4.73875,-3.00005,2.00592,11.14472,-0.39366,-0.62995,-0.04389,-0.09218,0.04317,0.25897,-0.17283,-0.07201,16.34083,-4.7922,5.61557,54.91489,71.53824,-5.43239,6.30141,1.69286,0.40002,1.44128,-0.35948,-1.46204,1.8314,-1.22035,0.94734,0.90977,1.22398,-0.0651,0.19773,-0.00415,0.11321,0.08566,0.20633,-0.02989
1001,-8.01542,-0.16034,0.23795,-0.90284,1.02552,-0.21043,-1.97388,-9.55055,0.87799,12.44699,3.45272,-1.26996,-0.28763,-0.07462,-0.02603,0.56119,-0.12382,-0.00837,7.94952,-5.35328,2.91857,52.33883,67.69475,-7.78168,5.62965,2.08454,1.02749,1.33754,-0.53169,-2.69722,2.51834,-1.74393,1.05646,0.66931,1.87528,-0.45768,0.46206,-0.06847,0.06955,0.09303,0.28488,-0.05177
1002,-7.23844,-1.06838,1.00904,-0.31739,0.62184,-0.08348,-4.75126,-11.90642,-0.92562,15.30808,2.05809,-1.36103,-0.16638,-0.22829,0.04003,0.82475,-0.00596,0.05536,8.77256,-8.66438,-0.20176,56.42664,52.71257,-5.90056,0.78106,1.04958,0.45509,2.84178,-0.84277,-3.38964,2.83513,-0.77107,-0.31645,0.95898,2.58211,-0.63699,0.4265,-0.02354,-0.09188,0.16968,0.39746,-0.06696
1003,-6.73464,-0.68103,0.49975,-0.38443,-0.20996,0.2228,-0.40283,-7.29308,-0.93711,17.58895,-1.33507,-0.13919,0.115,-0.28114,0.1119,0.89646,0.06948,0.05172,18.96097,-8.91413,0.36706,65.544,38.35698,-1.98847,-2.38183,0.12105,0.07885,4.23028,-1.36415,-3.60937,2.87502,-0.06672,-1.04498,1.35344,2.79528,-0.57,0.30438,-0.02874,-0.08108,0.16915,0.40293,-0.07946
1004,-7.11771,0.65274,-0.73421,0.62499,-0.51428,0.23632,4.29709,-1.52364,0.90717,25.43686,-2.45819,1.04259,0.02266,-0.09276,0.03899,0.89521,0.03623,-0.05714,33.90923,-4.28435,0.87645,75.92233,26.91931,-2.66642,-0.06453,0.51031,0.48927,4.35172,-1.91996,-3.48657,2.0586,-0.64404,-0.09007,1.4103,2.38456,-0.36881,0.20109,-0.14182,0.11107,0.00822,0.26214,-0.09387
1005,-7.74021,1.23282,-1.11546,2.55749,0.18589,-0.10618,6.97163,-1.67373,3.40971,36.45409,-0.3375,0.67746,-0.29768,0.07422,-0.07689,0.85302,-0.01304,-0.15536,48.50414,-1.18822,-0.08497,79.97039,18.67516,-9.13569,4.0258,1.64674,0.77111,3.92578,-2.06624,-2.4839,0.17778,-1.30502,1.14841,0.87806,1.52117,-0.1969,-0.0188,-0.21672,0.24408,-0.23228,0.09187,-0.11135
1006,-8.66123,0.78521,-0.55089,2.71654,1.53207,-0.37062,9.45622,-7.32554,5.42926,38.61584,2.56782,-0.89308,-0.36086,0.04174,-0.08511,0.72515,0.02059,-0.08439,53.83945,-4.72146,1.54369,71.17808,14.80446,-13.8821,5.11499,2.19098,0.4156,3.3935,-1.78838,-1.22272,-1.41015,-1.06275,1.31208,0.00033,0.73645,-0.22446,-0.31128,-0.16862,0.22135,-0.37468,0.03369,-0.1293
1007,-9.57264,-0.41797,0.64112,0.33556,2.15366,-0.22918,9.76638,-15.57766,5.89186,29.23167,2.58583,-2.26222,-0.14539,-0.16533,0.01024,0.58922,0.07499,0.10843,43.88272,-15.59146,5.65301,54.91682,15.92226,-9.94993,4.33173,1.38905,-0.29021,2.50639,-1.32682,-1.05615,-0.95325,-0.46805,0.57141,-0.48298,0.67049,-0.46076,-0.31373,-0.06606,0.10148,-0.29313,0.1415,-0.14397
1008,-9.47337,-1.85085,1.93993,-2.11747,1.15159,0.16126,2.93133,-20.67306,3.58931,17.76952,-0.75793,-2.33938,0.03931,-0.40523,0.10772,0.55639,0.05358,0.20747,21.01338,-23.83267,6.20184,49.5754,24.50182,1.66655,4.49625,-0.2868,-1.06098,2.1853,-0.61212,-1.27844,1.83477,-0.12822,-0.4855,-0.27048,1.15208,-0.65139,0.19822,0.0524,-0.09912,-0.06612,0.28936,-0.13191
1009,-8.32434,-1.92851,1.79147,-2.14532,-1.24304,0.3984,-6.14003,-15.76941,-0.54564,12.22448,-5.6322,-2.06622,0.06741,-0.44459,0.12454,0.63237,-0.05791,0.07125,0.99009,-19.92542,1.29711,66.37737,37.97046,14.03554,4.15574,-1.20518,-0.97287,2.91345,-0.08554,-0.83253,5.61148,-0.31602,-1.23755,0.1794,1.38048,-0.50561,0.9791,0.11305,-0.25955,0.0751,0.255,-0.05188
1010,-7.14126,-0.11159,-0.23418,-0.44876,-3.50333,0.30085,-5.65749,-4.81399,-3.17191,12.17164,-8.90639,-2.74408,-0.01815,-0.20733,0.04604,0.74438,-0.1803,-0.18256,0.05805,-10.21737,-3.65246,90.39083,45.91969,16.12834,1.90176,-0.36374,0.52095,3.20757,-1.26575,-1.57684,8.18555,-1.17854,-1.09725,0.73662,1.33083,-0.04377,1.49405,-0.01222,-0.19798,0.04433,0.03168,0.0811
1011,-6.96867,1.89805,-2.34152,-0.01663,-3.16296,0.04877,3.85525,1.15122,-2.63518,13.77695,-5.87634,-2.70045,-0.14264,0.07769,-0.07334,0.77949,-0.17084,-0.25966,13.71743,-2.52925,-3.58102,94.47991,41.06265,4.66896,1.02295,0.96584,1.56459,3.23796,-3.70155,-3.65171,8.26097,-1.98213,-0.60329,1.57655,1.39791,0.40724,1.47394,-0.23413,-0.04938,0.0297,-0.14522,0.17763
1012,-8.0046,2.71195,-3.17982,-1.81834,-0.00661,-0.08949,10.95893,0.25322,-0.65322,15.65971,2.25068,-0.48388,-0.15206,0.17996,-0.15272,0.64126,-0.02117,-0.0729,26.24492,3.93671,0.3856,69.79469,23.57096,-5.2135,3.92035,1.3086,0.92585,5.87435,-3.74998,-2.35816,6.24457,-2.13201,-0.26211,2.01618,1.18641,0.54636,1.05889,-0.36858,0.03173,0.14598,-0.13544,0.16708
1013,-9.28112,2.69842,-3.14659,-3.54157,2.85544,-0.04704,9.94205,-0.91031,0.57048,16.89995,6.69137,1.39609,-0.04968,0.13718,-0.14139,0.4198,0.09828,0.14732,28.97799,8.09222,3.43144,35.84237,6.13119,-3.46556,7.6791,1.06094,-0.07676,10.62966,-0.51619,3.08779,2.81022,-1.82119,0.33525,1.47775,0.49003,0.37493,0.38788,-0.35374,0.12492,0.25036,-0.00502,0.06933
1014,-9.33185,1.73896,-2.06415,-3.38659,2.90634,0.0752,4.22069,-3.14885,0.81231,13.85925,2.6525,0.1501,-0.0587,0.00309,-0.0395,0.37019,0.08824,0.18947,19.31042,1.09407,3.67377,23.67335,16.21687,-3.74482,9.50836,0.81062,-1.0368,12.58702,1.48895,5.51708,-0.98094,-0.92415,0.73859,1.1363,0.44731,0.10554,-0.35014,-0.17628,0.1552,0.27676,0.17371,-0.03922
1015,-8.13195,-0.22074,0.12617,-2.11464,0.88926,0.15504,-2.94168,-10.93834,0.04506,6.89941,-4.59022,-2.81076,-0.20856,-0.15204,0.06345,0.57249,6e-05,0.06174,-0.25796,-17.65296,1.78224,41.41898,56.21738,-13.24854,9.34178,0.15057,-2.68318,9.73039,-0.30488,1.3872,-3.29914,0.68558,0.00403,1.87348,1.60039,-0.14096,-0.79234,0.12684,-0.04446,0.2805,0.34734,-0.1098
1016,-6.91917,-1.69916,1.76996,-0.73364,-0.58357,0.10491,-8.3724,-18.37792,-1.46252,5.95786,-6.07019,-3.26265,-0.26966,-0.18874,0.07279,0.81221,-0.05119,-0.08174,-11.61111,-28.51132,-0.93794,62.03099,76.67178,-14.19783,6.7605,-0.72186,-4.01381,5.47728,-2.38278,-2.86546,-2.58728,2.08302,-1.44734,2.44054,2.29159,-0.21167,-0.65479,0.38821,-0.35299,0.24134,0.35216,-0.11189
1017,-6.41611,-1.76196,1.78888,0.46458,0.27844,-0.05367,-5.69304,-17.06733,-1.19862,17.97584,1.71546,0.90345,-0.14501,-0.15911,0.0451,0.82741,0.0237,-0.08531,5.632,-15.04721,-0.26032,61.39213,42.86953,2.47448,2.30554,-0.12051,-2.30689,4.08584,-1.6209,-1.63508,1.26069,1.26887,-1.71142,1.88089,1.43408,0.03505,0.02303,0.29628,-0.36915,0.16944,0.14423,-0.0247
1018,-6.8148,-1.17725,1.11546,0.68835,2.62636,-0.14898,5.26481,-11.20867,2.27629,33.65346,12.55051,6.71982,0.03196,-0.17241,0.07836,0.59543,0.15665,0.05768,40.48612,8.13451,6.63133,49.03751,-6.05874,17.29286,0.2653,2.01467,2.04193,6.9694,0.22215,2.2532,5.91469,-1.93028,-0.12759,1.47203,0.47781,0.47992,0.78842,-0.1958,0.00381,0.21646,-0.02456,0.10802
1019,-7.95977,-1.09965,1.08241,-0.89207,3.50721,-0.0098,12.79168,-11.35855,5.51684,37.04322,14.43288,8.06611,0.11199,-0.18856,0.12031,0.34793,0.17347,0.18142,55.44878,10.39628,12.7894,46.44234,-18.04041,13.45561,3.73995,2.717,3.78047,11.84169,0.73272,4.11411,8.07162,-4.06129,1.0029,2.73062,0.85123,0.9595,1.12116,-0.56777,0.25877,0.48245,0.05022,0.20011
1020,-8.94962,-1.60229,1.56641,-3.0057,1.612,0.23739,7.14415,-17.09201,3.77132,24.74913,3.67522,2.76666,0.05015,-0.16857,0.06364,0.31502,0.03475,0.12921,32.56256,-12.50437,8.24357,58.66358,3.81637,0.83725,7.8779,1.08566,1.15892,14.38127,0.09241,3.15795,7.03091,-2.9561,0.12865,4.85276,1.9949,1.24717,0.99491,-0.44295,0.08013,0.78856,0.26484,0.19054
1021,-8.65338,-1.4932,1.15016,-2.90372,-0.79004,0.25065,-3.06539,-17.50136,-1.58437,10.16023,-8.09956,-3.64639,-0.09517,-0.16071,-0.04837,0.55527,-0.12287,-0.06876,0.85434,-31.06878,-3.17872,74.52964,31.45524,-4.2733,5.35995,0.03208,-1.22513,12.59408,-0.85416,0.86217,4.99912,-0.61394,-1.30892,5.58838,2.59608,1.00855,0.75581,-0.09014,-0.22533,0.83395,0.36208,0.08621
1022,-7.38908,-0.42533,-0.25633,-0.15982,-1.28973,-0.0069,-2.51102,-10.50458,-3.87144,8.45658,-9.52105,-5.24565,-0.19328,-0.19664,-0.06944,0.89859,-0.15945,-0.20474,0.08667,-26.35341,-8.09551,80.29996,48.37754,0.44537,-1.89409,1.13364,-0.21157,9.2418,-1.75233,-0.8407,3.57933,0.24828,-1.36865,4.31413,2.1402,0.37442,0.54002,0.06357,-0.23973,0.59259,0.20329,-0.01734
1023,-7.10402,0.29483,-0.92781,2.04424,0.05581,-0.16347,6.47259,-6.93009,-0.7657,18.34254,-2.6478,-2.36046,-0.19657,-0.18825,0.01833,1.00915,-0.0375,-0.08963,25.81976,-12.9017,-2.86695,69.87624,47.20298,6.3791,-3.78537,2.29227,2.01627,7.76079,-2.2366,-0.83973,2.44303,-0.63451,0.03418,2.40536,1.14802,-0.11945,0.3201,-0.02417,0.02523,0.27623,-0.09311,-0.04079
1024,-8.08262,-0.52588,0.22988,0.96873,1.95418,0.00715,10.68493,-12.68802,3.35636,24.76939,5.17685,2.0522,-0.20178,-0.14555,0.10579,0.77315,0.1494,0.18911,42.08842,-7.916,6.11046,49.04367,34.49312,3.4465,4.67123,1.596,2.14744,7.50274,-2.30185,-0.34567,1.31399,-1.83041,1.53534,0.97513,0.57871,-0.35171,0.19855,-0.12057,0.21996,0.00185,-0.24789,-0.02961
1025,-8.74796,-1.9782,1.83276,-1.82175,2.94937,0.23021,6.52498,-19.73831,4.16018,20.53763,9.71374,5.6039,-0.25463,-0.16857,0.10774,0.47225,0.20777,0.29949,33.36808,-8.91419,12.28952,32.61538,24.60904,-8.04541,15.1258,0.47773,0.33624,6.01545,-2.24926,-1.03842,0.18947,-2.16598,1.98341,0.20873,0.93787,-0.55518,0.10152,-0.07863,0.15515,-0.18609,-0.09909,-0.05281
1026,-8.4928,-1.98629,1.63995,-2.62126,2.15588,0.11999,-1.32106,-19.3616,1.01435,16.12584,8.98393,5.48686,-0.23052,-0.17174,0.02193,0.40976,0.05474,0.08704,15.85712,-8.49617,9.4568,34.03523,18.50684,-13.97611,15.28908,0.59355,-1.08731,3.77577,-1.90239,-1.86444,-0.70416,-1.32834,1.11374,-0.05127,1.50469,-0.61196,-0.1158,0.00836,-0.01526,-0.23193,0.16489,-0.07153
1027,-7.93654,-0.27372,-0.35826,-0.74646,0.52013,-0.25388,-7.93331,-12.98943,-3.37852,21.49303,4.9038,1.58548,-0.10579,-0.04981,-0.08115,0.60144,-0.12825,-0.18951,9.13808,-4.86626,-2.41001,51.38514,13.04046,-5.71752,5.28861,0.56404,-1.44468,3.24296,-1.14297,-0.97826,-0.34481,0.14264,-0.42118,-0.4048,1.28257,-0.42739,-0.1948,-0.0004,-0.08018,-0.22086,0.24489,-0.03867
1028,-7.72695,1.37399,-2.08624,1.40523,-0.85887,-0.45086,-7.99927,-7.03641,-4.73056,29.91133,0.739,-2.30915,-0.03658,0.1199,-0.13395,0.85316,-0.19494,-0.26645,16.36344,-1.69142,-11.58471,64.54591,16.85629,5.73752,-3.73099,-0.46372,-1.09566,4.88336,-0.97368,0.37544,0.77487,1.03617,-1.1061,-1.25441,0.6612,-0.44062,-0.03676,-0.0851,0.03561,-0.28805,0.14356,-0.01572
1029,-8.3764,1.51222,-2.13263,1.9888,-1.99259,-0.22914,-2.29726,-4.98997,-2.14064,29.81994,-3.49924,-3.59163,-0.14494,0.1964,-0.13396,0.93536,-0.19421,-0.17666,25.10668,-5.0131,-9.96521,58.89272,31.2786,6.97529,-4.68069,-0.87223,-0.07127,6.63257,-2.36106,0.00917,0.83803,0.69853,-0.29993,-1.85115,0.40878,-0.75096,0.06704,-0.12955,0.23058,-0.3657,0.01244,-0.04766
1030,-9.80183,0.38126,-1.02767,1.19189,-1.72774,0.15065,0.48724,-5.4832,0.38613,22.70831,-5.55288,-2.4103,-0.36356,0.07332,-0.08274,0.77431,-0.08158,0.00356,24.42809,-10.37017,-3.54367,45.25025,37.29276,1.11153,0.02682,-0.10124,0.98561,6.34933,-4.1862,-1.28108,-0.34711,-0.35259,0.96033,-1.32229,0.16436,-0.73852,-0.03617,-0.12429,0.32306,-0.30968,-0.12936,-0.07585
1031,-10.65959,-0.66528,-0.20458,0.22691,0.4933,0.27045,-3.40983,-5.06826,-0.30088,18.94787,-2.41308,-0.24441,-0.4099,-0.17811,0.02499,0.52932,0.14731,0.18281,18.50121,-6.84863,-0.84154,41.90774,23.32641,-0.63183,4.73024,0.61358,1.43731,3.8466,-4.27231,-1.25928,-1.51092,-1.44998,1.69171,-0.22115,-0.54774,-0.12032,-0.28471,-0.17141,0.30799,-0.17667,-0.27911,-0.03912
1032,-9.87088,-0.71101,-0.28621,-0.34226,2.27714,0.09594,-11.59811,-3.83088,-3.56807,20.81747,2.34045,0.92372,-0.20443,-0.27356,0.09065,0.39488,0.24662,0.20838,10.82902,2.26971,-4.29861,51.75788,8.65559,2.52127,6.50115,0.26949,0.39706,1.22893,-2.2561,0.4211,-1.36431,-1.34812,1.11691,0.20685,-1.27849,0.60442,-0.43314,-0.11366,0.1429,-0.12982,-0.36259,0.05736
1033,-8.64266,-0.52747,-0.33059,-1.39834,1.58566,-0.02787,-22.6232,-6.85932,-7.35656,19.4231,2.23536,-0.17957,-0.14333,-0.12627,0.00203,0.39639,0.08224,0.08543,-7.16798,-0.61259,-12.09169,62.23529,15.68655,2.78468,5.54654,-0.73989,-2.1583,0.77976,0.28026,2.15624,-0.07596,0.61347,-0.68961,-0.13218,-1.27499,0.79526,-0.27916,0.23759,-0.19117,-0.15805,-0.30371,0.12646
1034,-8.65213,-0.96183,0.24394,-3.19126,-0.36636,0.08654,-28.79375,-13.97363,-8.94287,12.62494,-3.04623,-2.805,-0.39164,-0.00574,-0.15229,0.48978,-0.11307,-0.02563,-25.74676,-18.38708,-17.92404,60.92825,33.78029,-0.64211,2.77077,-1.30842,-3.33457,1.94587,1.63832,2.01528,0.84186,2.15671,-1.67684,-0.11374,-0.2427,0.26437,0.02229,0.48494,-0.34846,-0.10239,-0.06325,0.04974
1035,-9.74237,-0.85762,0.02851,-3.34471,-1.04696,0.18425,-19.84386,-15.31397,-6.43865,14.0611,-6.0337,-3.93919,-0.50502,-0.02865,-0.19405,0.65035,-0.07925,-0.0485,-12.47178,-26.5084,-15.07872,50.83383,34.89965,-1.50016,-0.81133,-0.97531,-0.9596,1.92649,0.92887,-0.64606,0.53659,0.97572,-0.45296,0.94027,1.35072,-0.50998,0.08767,0.20457,-0.05431,0.04461,0.26178,-0.15019
1036,-10.6848,0.9424,-1.97022,-0.64216,0.07964,0.00387,-3.27272,-6.2073,-2.21728,28.79013,-0.9722,-1.40203,-0.28881,-0.00179,-0.12149,0.73528,0.09374,-0.04639,28.77558,-7.93362,-6.14677,44.04941,13.73915,0.63862,-2.21804,-0.09685,2.42568,-0.35327,-1.24921,-3.75839,0.04685,-1.54849,1.41566,2.71082,2.29912,-0.51647,-0.09091,-0.31649,0.38705,0.18844,0.40521,-0.24451
1037,-10.16184,2.88841,-3.89599,2.28119,1.48539,-0.28842,4.52852,3.80058,-0.12208,39.36563,7.65023,2.80202,-0.10389,0.10204,-0.03664,0.64545,0.15609,-0.06384,51.8653,18.38306,0.55166,42.03441,-6.86693,-1.9735,0.93369,0.84124,3.00479,-2.64061,-3.00361,-4.55908,0.20034,-2.42725,1.83925,4.64012,1.98421,0.63663,-0.19333,-0.53616,0.53299,0.3874,0.25633,-0.08158
1038,-7.6291,2.21095,-2.904,2.856,1.81095,-0.35696,4.47236,2.58477,0.39291,33.20532,10.04489,4.39991,-0.11964,0.06301,0.04507,0.54593,0.05136,-0.07544,41.48196,21.61122,2.85977,43.49284,-3.54086,-10.91833,5.83126,1.3728,0.51713,-2.30599,-2.92859,-2.91635,0.91312,-0.98149,0.55162,6.08207,1.20209,1.95013,-0.06257,-0.29213,0.27807,0.67637,0.03439,0.17446
1039,-4.68283,-0.78859,0.49957,1.59542,0.78169,-0.15449,6.53835,-8.23766,1.74649,20.83629,2.37269,1.28044,-0.14146,-0.12092,0.11045,0.60779,-0.10222,-0.07147,27.04902,-1.74937,2.77266,56.85392,21.68717,-14.25482,7.68652,0.86828,-2.12032,1.12102,-0.95752,-0.19863,2.77166,0.66317,-1.2095,6.53789,0.84979,2.40121,0.27635,0.07541,-0.14872,0.91892,-0.02061,0.28182
1040,-3.96257,-3.08226,2.99123,-0.08541,-0.41646,0.09258,8.94705,-17.3064,3.25424,14.9929,-7.81134,-4.08486,-0.05697,-0.23073,0.10714,0.74441,-0.14301,-0.00883,23.15411,-27.69773,0.71353,76.31174,39.50611,-3.34148,6.23892,-0.29288,-2.41926,6.59629,1.82391,2.84728,5.62307,0.51556,-1.9679,5.70935,0.82457,2.02284,0.67684,0.16566,-0.39322,0.93146,0.06014,0.22974
1041,-5.81589,-3.38914,3.21131,-1.49553,-0.26647,0.17848,6.63353,-19.86311,3.08315,14.64134,-9.78481,-6.65021,0.03694,-0.18686,0.05039,0.79645,-0.02276,0.13285,19.04332,-35.55374,-1.39374,77.86807,27.38153,10.00669,5.40762,-0.52047,-0.78695,12.09842,3.21482,4.84263,7.52901,-0.95788,-1.44483,4.11115,0.94573,1.32443,0.9488,-0.02542,-0.3515,0.76214,0.13221,0.17306
1042,-8.24499,-3.29795,2.82119,-2.26533,0.9385,0.10674,2.65173,-21.63061,0.7134,13.93544,-2.39528,-3.88002,0.01095,-0.14158,0.03351,0.73814,0.10806,0.22193,11.65135,-29.08884,-1.22684,60.38344,3.6137,6.35839,6.8668,0.92725,0.57252,14.21614,1.38186,3.64423,7.21052,-1.87253,-0.78039,3.46211,1.59002,0.79465,1.03347,-0.19968,-0.27184,0.72807,0.19061,0.19706
1043,-10.08025,-3.92032,2.99761,-2.72572,1.13164,0.05633,-1.15585,-26.8942,-3.10875,11.41233,4.3053,0.7284,-0.17755,-0.24566,0.08584,0.63687,0.07602,0.11381,4.82982,-26.45546,-1.27988,53.40853,1.97018,-11.76627,8.13028,2.74472,0.60093,11.26541,-2.28257,-0.07313,5.8389,-1.51421,-0.80216,4.75695,2.68141,0.80034,1.06019,-0.21621,-0.30022,0.96749,0.2876,0.25131
1044,-11.69267,-3.66932,2.40301,-3.01288,-0.71212,0.12381,-6.32888,-28.5054,-5.22563,10.8489,1.19466,1.15143,-0.4461,-0.34553,0.09545,0.61422,-0.07906,-0.12472,0.81114,-31.67729,-3.9391,70.24106,23.93131,-21.03701,7.50332,2.75024,-0.06099,6.54753,-3.89572,-2.62071,4.93194,-0.70745,-0.92076,6.42306,3.41159,1.08447,1.08703,-0.19932,-0.21849,1.13362,0.37732,0.22761
1045,-12.24717,-1.15586,0.03747,-2.38643,-2.87505,0.20212,-5.87119,-19.14748,-1.84065,15.06513,-8.64649,-3.09317,-0.47853,-0.18859,0.00102,0.74387,-0.16325,-0.28663,8.7682,-32.39194,-3.89008,85.06416,44.23957,-11.63763,6.77202,0.52312,-1.11708,4.32275,-2.00145,-2.05133,4.08694,0.07712,-0.66462,6.13739,3.16496,1.02421,0.94228,-0.15768,0.0334,0.84963,0.34138,0.10808
1046,-10.70852,1.37936,-1.98512,-1.21354,-2.36701,0.19499,5.25086,-8.04613,4.91753,18.89154,-12.31749,-5.37029,-0.11396,0.05286,-0.07625,0.85625,-0.04887,-0.2176,27.80096,-23.72286,3.96881,73.68893,48.95458,0.44569,7.67692,-1.53605,-2.49837,4.61414,0.74168,-0.21134,2.70666,0.95735,-0.59378,3.87965,2.26319,0.47033,0.58522,0.04489,0.10754,0.28491,0.19813,-0.02455
1047,-9.34889,1.40326,-1.86187,-1.1234,1.20417,0.14697,11.43593,-7.53133,6.70637,16.04283,-3.61809,-1.67396,0.23569,0.07279,-0.05043,0.7195,0.1654,0.04143,31.02027,-12.61697,11.29338,52.74638,42.13408,0.56095,8.18655,-1.16515,-3.14681,5.1023,1.46455,0.54379,1.61021,1.55482,-1.05487,1.62259,1.49854,-0.16767,0.20114,0.33982,-0.14884,-0.0953,0.10739,-0.11392
1048,-9.2116,0.0052,-0.80293,-1.78091,4.28105,0.07718,0.19148,-13.19817,0.33183,11.26392,7.98031,3.38293,0.32977,-0.03112,0.00418,0.46403,0.22952,0.23655,8.29105,-4.94245,6.65747,51.55542,25.27293,-3.76738,5.2952,0.93873,-1.99352,5.40807,0.50359,0.55143,2.04395,1.15322,-1.48205,0.71473,0.99878,-0.36491,0.02342,0.44477,-0.41959,-0.12789,0.08424,-0.13468
1049,-8.82807,-0.12806,-0.93045,-1.51288,3.61498,-0.02722,-18.13219,-11.05342,-7.84547,11.79412,10.32448,3.95541,0.25115,-0.00833,-0.00681,0.43269,0.06663,0.16556,-16.99192,0.69841,-6.82771,67.57785,0.66336,0.37444,0.66278,2.32644,0.29447,6.42169,-0.13624,1.3111,4.13233,-0.22239,-1.25074,1.05606,0.45668,0.14088,0.23684,0.23546,-0.39599,0.04591,0.03099,-0.04101
1050,-7.97718,1.09455,-2.11787,-0.81231,0.7215,-0.09357,-25.82458,-0.43604,-10.44572,13.8781,5.26003,1.46151,0.01122,0.06261,-0.06682,0.65298,-0.1022,-0.04858,-24.16444,6.05326,-14.54647,76.94508,-13.88645,8.86579,-1.14295,1.94096,1.63272,7.69599,0.12738,2.58832,5.70637,-1.33739,-0.59981,1.93894,0.10249,1.03814,0.61703,-0.05095,-0.17294,0.25371,-0.02989,0.15142
1051,-7.03978,2.14242,-3.00297,-1.32821,-0.42966,-0.04768,-17.8771,6.98281,-7.35625,11.6554,3.8726,1.28928,-0.23288,0.05133,-0.10645,0.81804,-0.06975,-0.14906,-14.10198,11.78236,-9.42051,69.63924,-3.66086,8.56212,1.00373,1.06959,1.27755,7.93492,0.48452,2.61221,4.43719,-1.30265,-0.09784,2.20634,0.54457,1.23953,0.65727,-0.16428,-0.01449,0.30426,0.01816,0.25212
1052,-7.1564,2.4348,-3.24091,-2.48915,0.66936,0.0367,-8.41705,5.39923,-4.59695,8.62786,7.60355,3.58762,-0.33204,0.05914,-0.11505,0.72423,0.06879,-0.11896,-2.96274,15.86234,-1.4599,58.32555,16.53864,-0.83438,4.11034,1.46165,1.56701,6.97433,0.01177,0.25914,1.73523,-1.50033,0.68349,0.89627,1.9234,-0.21711,0.31398,-0.24893,0.1088,0.07423,0.19911,0.06913
1053,-9.51098,2.09495,-3.09767,-2.54533,1.19604,0.04921,-12.04906,-1.19017,-5.74521,9.17964,6.72578,3.23738,-0.32856,0.12959,-0.13129,0.44744,0.10093,-0.08979,-5.09791,10.03271,-2.87108,59.71171,19.66774,-5.82359,5.39266,3.24252,4.52697,6.00524,-1.67705,-3.13574,1.13046,-3.54374,2.38918,-1.13799,3.38516,-2.46465,0.03518,-0.54786,0.38037,-0.25552,0.37145,-0.26924
1054,-12.18913,1.60618,-2.84978,-1.65396,0.38907,0.0256,-24.42393,-5.43085,-8.17823,10.4792,-1.13614,-0.92993,-0.19919,0.14015,-0.16906,0.20931,0.01735,-0.05697,-18.30278,-4.85828,-11.50282,74.29581,9.28358,-0.72242,5.54866,4.42455,7.0579,6.2296,-3.5736,-4.76593,2.91117,-5.40076,3.60455,-1.68673,3.95465,-3.41707,0.08236,-0.76029,0.58603,-0.30848,0.43055,-0.43281
1055,-12.19997,1.4759,-2.66282,-1.00037,0.15537,0.04477,-31.68209,-3.2464,-8.18112,10.44899,-5.80761,-3.70036,0.03727,0.0176,-0.17685,0.2393,-0.04626,0.03537,-27.88028,-11.29361,-16.28947,88.2868,13.21862,5.12807,6.55108,2.62125,4.29533,7.52275,-3.93537,-3.37207,3.42992,-3.57731,2.32024,-0.19488,3.32699,-2.33397,0.1882,-0.40967,0.38416,-0.04567,0.36407,-0.3081
1056,-10.31198,1.64824,-2.50232,-0.39132,1.35285,0.07962,-31.19357,2.30363,-6.21641,13.42544,-0.52378,-1.55746,0.0755,-0.10936,-0.11403,0.58034,-0.01818,0.13543,-25.57058,0.95987,-13.61776,89.90433,36.2488,3.81522,7.49963,-1.61912,-2.59937,8.59168,-2.84872,-0.73712,0.61393,1.28795,-0.74175,1.33309,1.99621,-0.64082,0.02885,0.30375,-0.1018,0.10344,0.16758,-0.09841
1057,-9.36921,1.96852,-2.45366,0.91686,2.72626,0.05981,-29.33494,5.34479,-5.10919,21.4529,8.7676,2.76423,-0.24456,-0.02758,-0.03991,0.97938,0.04861,0.15433,-15.67493,18.96348,-9.24873,75.81284,53.63918,-2.17914,6.37379,-4.44719,-6.98028,8.06525,-2.12245,0.20366,-2.77955,4.53529,-2.64066,0.93122,1.16759,-0.20404,-0.26103,0.70548,-0.40528,-0.14842,-0.02743,-0.04121
1058,-9.04235,2.21773,-2.43227,2.09397,2.88852,-0.00962,-23.07963,3.47688,-4.4951,27.35085,13.30858,5.13852,-0.45391,0.2139,-0.0313,1.085,0.06548,0.08256,-0.608,25.29574,-5.0128,49.75935,46.01112,-6.19346,4.23601,-3.30913,-4.94706,5.94905,-2.17027,-0.84362,-3.30097,3.17428,-1.68792,-0.98044,1.1718,-1.05055,-0.38094,0.46035,-0.26263,-0.48818,-0.06956,-0.10654
1059,-7.25248,1.57204,-1.69451,1.74907,1.88769,-0.06376,-7.20345,-3.1669,-1.76316,23.9569,11.32762,4.25788,-0.1843,0.29394,-0.06894,0.81871,0.0371,0.01094,17.63955,15.17115,1.68079,25.61946,18.49759,-3.58265,3.52501,0.23663,0.69174,4.16043,-1.89562,-1.77065,-1.08986,-0.94971,0.86929,-2.51364,1.19125,-1.85374,-0.29301,-0.13209,0.11031,-0.49387,-0.00687,-0.14366
1060,-5.02388,-0.18281,-0.09716,0.80496,0.66746,-0.08322,7.13173,-11.76765,2.15299,16.94794,5.30015,0.95954,0.10941,0.07354,-0.08921,0.51907,0.0411,0.02506,28.91634,-4.92024,6.70171,21.77202,-6.87013,4.6611,3.4645,2.82514,4.15772,3.92655,-1.41895,-1.76708,1.34023,-3.49662,2.22651,-2.50643,1.04668,-1.96526,-0.12852,-0.47253,0.28361,-0.23977,0.05337,-0.14305
1061,-4.95648,-1.7116,1.07793,0.99429,-0.19881,-0.04277,7.93552,-15.09325,3.52366,17.36374,-2.33829,-2.44925,0.06917,-0.24789,-0.06283,0.48169,0.08965,0.09006,30.07445,-21.08317,4.23418,40.30056,-12.78791,11.53651,2.1515,2.69673,3.19682,4.13571,-1.70796,-1.71164,1.8756,-2.65914,1.41326,-1.07004,1.41085,-1.60857,-0.0438,-0.36562,0.17719,-0.05091,0.11429,-0.15892
1062,-6.01097,-1.97471,1.01778,1.75236,-0.54022,0.0886,3.5385,-9.43091,1.91919,24.65733,-8.32629,-3.57623,0.04602,-0.44849,0.00197,0.60637,0.11433,0.10697,32.12331,-21.52444,-1.81919,57.53743,-3.0246,9.61516,1.28134,0.26213,-0.17817,4.59393,-1.88147,-1.46573,-0.01112,-0.09414,-0.02598,0.94663,2.23553,-0.95593,-0.18954,-0.0825,0.07701,0.03694,0.2146,-0.14603
1063,-5.05231,-1.74553,0.69372,2.00496,0.01956,0.1842,7.99246,-2.73384,1.00391,29.19348,-8.32254,-2.29332,0.19803,-0.46028,0.06257,0.73298,0.08278,0.05597,41.85738,-9.81841,-2.63242,50.10869,9.48086,-2.92597,3.44121,-2.88221,-4.01186,6.37214,-0.58851,-0.06405,-3.00594,2.612,-1.10968,2.37958,2.40371,-0.04475,-0.50862,0.26121,0.06036,0.19271,0.30626,-0.04474
1064,-2.49365,-2.17583,1.23516,2.63394,0.74313,0.00911,19.56715,-5.6447,3.09551,28.17437,-3.577,-1.06236,0.2454,-0.31402,0.08905,0.84047,-0.01923,-0.04506,53.90692,-4.24233,2.85509,28.72192,18.99106,-17.93648,7.10634,-4.40807,-6.16041,7.78408,0.9131,1.71881,-3.87427,3.88836,-1.67929,2.65592,1.42587,0.79327,-0.55464,0.53158,-0.02539,0.4399,0.28175,0.10142
1065,-1.29028,-3.15954,2.34694,4.33081,0.2879,-0.39825,26.04065,-16.54572,6.36085,27.41279,-0.18612,-1.53843,0.18173,-0.15538,0.0935,0.85664,-0.15979,-0.15799,60.60672,-13.98204,7.83434,25.33125,18.86877,-20.62185,8.04817,-2.89136,-3.8687,6.18368,0.7448,1.98913,-0.44348,1.87803,-1.01926,2.5435,0.39489,1.10115,-0.01902,0.34995,-0.0984,0.67444,0.14706,0.18941
1066,-2.43911,-3.79604,2.98586,4.48909,-0.61694,-0.57349,21.62768,-23.44885,7.90607,26.17824,1.12464,-1.917,0.20735,-0.16343,0.0889,0.64749,-0.17916,-0.17278,54.54066,-23.68276,9.29264,47.82682,3.36618,-7.40071,5.33468,0.05626,1.00924,3.11456,-0.34577,0.71394,4.52853,-1.7479,0.4009,2.96655,0.43595,0.87338,0.66898,-0.19753,-0.01744,0.79279,0.00853,0.18291
1067,-4.7741,-3.52742,2.6659,1.43111,-0.3203,-0.23535,9.92275,-20.26991,6.73676,19.45028,3.06644,-0.591,0.20759,-0.3019,0.06556,0.3785,0.01553,-0.0413,33.91602,-19.19642,8.91472,70.75471,-15.44051,7.49452,2.71249,1.65717,3.26858,1.68472,-0.61578,-0.42163,6.49467,-3.22617,0.95462,3.36211,1.21122,0.50834,0.88714,-0.53883,0.10526,0.67285,-0.05876,0.14259
1068,-6.59649,-2.65219,1.80982,-1.48315,0.95174,0.23544,-2.37777,-13.83714,3.71142,12.34831,4.33998,0.79332,0.04499,-0.38014,0.04392,0.41019,0.24387,0.11329,11.90075,-11.09102,5.97608,71.14214,-16.47843,10.90085,2.30478,1.28341,1.59037,1.77528,-0.2989,-0.60495,4.98437,-1.85122,0.15306,2.81837,1.78486,0.29308,0.57579,-0.38137,0.07948,0.34382,0.00849,0.1052
1069,-6.70645,-1.97453,1.15274,-0.72864,1.48105,0.29546,-10.25015,-11.08872,0.57704,13.42996,2.23424,0.27674,-0.04561,-0.39294,0.07277,0.73408,0.24142,0.1212,4.01929,-12.15579,-0.30493,52.42223,5.58742,5.83318,2.42876,-0.11853,-1.10784,2.04178,-0.49376,0.02143,3.42683,0.02668,-1.11869,2.00732,1.57244,0.52277,0.26868,-0.02106,-0.10925,0.11478,0.1251,0.10593
1070,-5.6203,-2.01348,1.08332,2.25519,0.4647,-0.05766,-12.24144,-10.00767,-0.74919,20.19519,-1.96506,-1.45515,0.12287,-0.46668,0.12602,0.98942,-0.00167,-0.02966,9.69469,-15.39891,-5.41375,31.59722,32.39505,2.61345,2.26112,-1.44715,-2.12523,2.64109,-0.88527,1.1166,3.79638,0.43864,-1.63271,1.90745,0.645,1.15413,0.36589,0.08418,-0.22654,0.13622,0.06274,0.17678
1071,-5.34692,-2.5955,1.47111,3.6486,-1.14128,-0.38856,-9.54283,-9.33779,0.46029,24.59748,-4.92012,-2.52902,0.37767,-0.54321,0.11826,0.84613,-0.25422,-0.19173,19.15942,-14.58664,-4.83214,22.91552,37.31505,3.95706,2.49885,-1.23651,-0.99743,4.19365,-0.69267,1.47051,5.05569,-0.42865,-1.05315,2.42413,0.42648,1.23407,0.71227,-0.07514,-0.14532,0.281,-0.07352,0.21017
1072,-6.48967,-3.19529,1.88215,2.53809,-1.64804,-0.37192,-4.10618,-12.86797,2.64715,24.6022,-5.16713,-2.22104,0.50576,-0.49096,0.03837,0.33008,-0.29725,-0.216,27.31665,-17.49204,-0.7179,29.37047,16.34796,4.98184,3.03464,0.74748,0.86864,6.06987,-0.17736,0.40103,6.3932,-1.29831,-0.33343,2.83213,1.70704,0.29,1.05502,-0.14757,-0.08454,0.41516,-0.00094,0.11324
1073,-7.14613,-3.20452,1.79164,1.56116,-0.47509,-0.09339,0.21621,-17.74866,2.97361,22.72695,-3.40042,-1.23352,0.42882,-0.34789,-0.03416,0.00293,-0.09999,-0.07079,30.12338,-23.41356,1.07006,40.2477,-2.77256,2.21271,3.74567,2.0409,1.36368,6.81588,-0.00857,-0.95516,7.92512,-1.44078,-0.50853,2.52048,3.05037,-0.83355,1.38883,-0.0141,-0.24236,0.43991,0.24661,-0.05907
1074,-6.19244,-2.0104,0.84466,2.07043,1.18861,0.15064,-1.52555,-13.76923,0.24494,20.01149,-0.08691,-0.29208,0.21861,-0.21643,-0.02959,0.25811,0.15167,0.13512,22.04074,-16.3275,-1.60853,45.84726,1.79876,-1.855,4.98069,0.72587,-0.0204,5.53893,0.01745,-1.44653,8.17915,-1.03064,-1.17749,1.6498,3.14524,-1.2926,1.54761,0.07209,-0.41713,0.31646,0.46476,-0.22461
1075,-4.91997,0.09403,-0.52768,2.17532,2.06634,0.19989,-8.7655,-0.35948,-2.89344,16.6532,5.39943,0.72795,0.08452,-0.12871,0.03197,0.71219,0.22265,0.22633,6.81756,7.16209,-4.33761,47.93084,16.53998,-2.21231,5.66444,-1.39105,-1.40757,2.30231,0.60563,-1.15741,5.47227,-0.52075,-1.12518,0.6959,2.19503,-1.0879,1.13503,-0.06691,-0.27116,0.06394,0.52843,-0.3403
1076,-4.49616,1.69032,-1.27748,1.26509,1.56905,0.01703,-15.36739,8.96572,-2.96378,15.45325,9.67392,1.34807,0.12426,-0.04831,0.07188,0.92735,0.05045,0.08869,-2.75961,23.46985,-3.31175,52.63153,19.12134,1.14909,3.98571,-1.83685,-1.7336,-1.24779,1.31267,-0.59139,1.50436,0.21747,-0.5829,0.23182,1.03374,-0.45132,0.16553,-0.17532,0.09805,-0.15275,0.41808,-0.32206
1077,-4.76422,2.11137,-1.24564,1.41349,-0.10751,-0.31544,-17.71735,5.69748,-0.94462,18.68866,7.03691,0.60405,0.23006,0.05909,0.05652,0.94417,-0.17939,-0.17567,-1.0843,14.19594,-1.55227,58.78795,11.0297,3.09248,2.17715,-1.11755,-1.85346,-2.46904,0.97085,0.05721,-0.11963,1.05896,-0.5897,0.50398,0.2378,0.40571,-0.59577,-0.03228,0.26093,-0.14339,0.18099,-0.09952
1078,-5.91209,1.53458,-0.96276,2.93232,-1.11982,-0.50453,-17.36384,-5.02854,0.13717,22.39566,1.07657,-0.70462,0.21475,0.08771,-0.0208,0.93152,-0.23048,-0.30212,3.75337,-7.02899,-1.97929,52.93739,4.70919,1.30369,4.57532,-0.64895,-1.96338,-0.13368,-0.11987,0.95965,0.59339,1.04384,-0.78682,0.70885,-0.33903,1.02784,-0.57332,0.12634,0.10618,0.00412,-0.1454,0.22553
1079,-6.97834,0.84985,-0.89408,3.1187,0.17204,-0.33807,-13.44367,-12.36664,-0.16793,20.91248,0.73236,-1.11871,0.08011,0.02082,-0.10877,0.84998,-0.08869,-0.17833,6.62902,-15.01799,-2.83507,33.09002,1.81785,-0.94932,8.87693,0.28672,-1.33909,3.98861,-0.60624,1.70387,0.64536,0.31977,-0.47867,0.06971,-0.68215,0.80192,-0.1305,0.21008,-0.14964,0.04517,-0.39195,0.37203
1080,-6.46626,1.18437,-1.32655,0.82766,2.87722,0.09066,-5.11575,-9.61683,-1.40981,16.22825,6.12151,-0.54526,0.02322,0.02134,-0.09955,0.57157,0.13131,0.08038,12.1799,-3.355,-3.15525,24.6784,-0.03766,-1.23117,8.53834,2.28885,0.41328,5.46603,-0.6962,0.84032,0.33105,-0.42436,0.21938,-0.82864,-0.08956,-0.37676,0.30348,0.22706,-0.24195,-0.08342,-0.28702,0.13907
1081,-5.07149,1.88883,-1.77081,-1.20549,4.2139,0.41315,1.04825,-0.51198,-3.1012,13.44192,9.07186,0.00805,0.08835,0.07197,-0.01691,0.28602,0.29553,0.26187,17.44747,13.04129,-3.63244,38.92677,-0.40134,-1.6086,2.86114,3.58972,2.33147,1.70259,-1.76622,-1.83413,1.04341,-1.05577,0.8726,-1.1196,1.20248,-1.6173,0.45824,0.03516,-0.03879,-0.28568,0.06979,-0.28572
1082,-4.41817,1.94946,-1.70898,-0.10472,2.2003,0.22337,-2.80105,6.43907,-4.05207,13.94227,3.25147,-1.06768,0.14654,0.04495,0.02039,0.32627,0.2599,0.20089,11.69292,15.25741,-5.64524,52.65692,-0.44789,-1.85434,-2.26762,3.06091,3.12418,-3.18722,-3.40186,-3.92611,1.57625,-1.50591,1.28241,-0.57045,1.97115,-1.82633,0.11669,-0.29779,0.30197,-0.35399,0.28319,-0.47911
1083,-4.43432,1.52144,-1.27888,3.29794,-1.57391,-0.35636,-12.2923,6.34562,-3.28805,18.29536,-8.46404,-3.98453,0.24334,-0.07539,-0.00245,0.65027,0.06115,-0.03762,2.05025,-1.5913,-9.30741,48.6197,1.58179,1.57618,-2.28702,1.70376,2.59585,-2.51828,-3.27579,-3.08964,1.49319,-1.59456,1.28741,0.30137,1.7715,-1.09223,-0.26426,-0.48234,0.46732,-0.16992,0.24651,-0.32016
1084,-4.58895,1.34831,-1.01446,5.74049,-3.33943,-0.70121,-17.02457,1.02546,-1.61423,24.30567,-15.77973,-5.77907,0.43733,-0.158,-0.02275,1.00817,-0.12348,-0.24399,2.67865,-21.86142,-11.00353,37.93588,9.61303,6.76441,1.21922,0.56055,0.8579,3.8307,-0.32327,0.13537,1.46839,-0.7959,0.48549,0.59954,1.12046,-0.38348,-0.12816,-0.2475,0.23975,0.07824,0.17381,-0.08556
1085,-5.33746,1.80778,-1.28294,5.01395,-1.64144,-0.42096,-14.14795,-2.32841,-0.89705,24.3068,-11.42422,-3.38296,0.5383,-0.12101,-0.04209,1.17928,-0.19613,-0.27308,8.21459,-22.94333,-6.4231,39.88936,16.71835,7.70479,4.04716,-0.02851,-1.2435,8.41719,2.80484,2.50631,0.96545,0.63706,-0.7392,0.33882,0.72259,-0.16933,0.13213,0.26405,-0.19,0.15331,0.2025,-0.01458
1086,-6.17179,2.07052,-1.57989,1.36798,1.69118,0.24643,-5.49643,0.82796,-0.8809,14.50976,2.35537,1.7572,0.43168,-0.12987,-0.10559,1.03019,-0.13352,-0.07944,9.45615,1.30939,3.75129,55.2911,12.27082,5.30802,4.7524,0.09759,-1.62348,6.65354,2.88316,1.86128,-0.07477,0.94896,-0.96991,0.32318,0.95401,-0.27607,-0.04097,0.48093,-0.3703,0.06952,0.26655,-0.08495
1087,-5.8287,1.35573,-1.21551,-2.46173,3.80001,0.65896,3.18104,5.5431,0.06041,2.41532,15.15323,4.44597,0.27133,-0.27104,-0.16854,0.77496,0.00899,0.20716,6.94132,28.94325,11.3818,63.8649,5.20332,4.06283,5.02222,0.36445,-0.39449,3.70498,1.10763,0.19858,-0.1516,0.00292,-0.15445,0.76417,1.47812,-0.43142,-0.33984,0.32465,-0.20638,0.02726,0.27377,-0.14321
1088,-4.29682,-0.03658,-0.27426,-3.11029,3.2291,0.45603,4.16571,2.61348,1.51037,-1.27052,16.53991,2.13696,0.2395,-0.35019,-0.12856,0.69878,0.12581,0.35214,3.37973,29.28665,9.30059,50.30527,11.12796,1.05915,5.21381,0.05174,0.00729,5.03049,0.33205,0.32943,0.33485,-0.15924,0.26865,1.30248,1.58233,-0.2953,-0.4108,0.25182,-0.01408,0.13866,0.1963,-0.0719
1089,-2.82931,-1.83263,0.86735,-0.62254,1.69866,0.04723,-2.05336,-10.8377,2.20169,3.77036,8.84217,-1.25987,0.32937,-0.26318,0.00417,0.66477,0.2006,0.29713,0.55812,-1.15571,2.642,26.78562,23.63022,-8.2338,4.38488,-0.6715,-1.03231,6.89807,-0.23581,1.268,-0.39875,0.82208,-0.12403,1.90572,1.20867,0.3057,-0.37149,0.27964,0.02672,0.32263,0.06117,0.11231
1090,-2.88746,-3.50794,1.71808,1.58548,1.09543,-0.10537,-8.71217,-25.77913,1.98823,9.37573,2.15665,-1.51289,0.43825,-0.18669,0.10886,0.41721,0.19197,0.09235,-0.66672,-35.32063,0.4243,17.55716,26.23485,-18.81209,3.57402,-1.15831,-1.94311,3.77077,-2.39622,0.17671,-1.99325,1.36518,-0.4734,2.96976,1.34764,0.89616,-0.34072,0.13994,0.01122,0.49683,0.01574,0.24499
1091,-4.13767,-3.73051,1.59809,0.69547,0.58687,-0.03867,-9.87277,-27.40664,0.81091,10.81497,-0.67539,0.27955,0.54731,-0.28611,0.11029,0.00818,0.03343,-0.20101,2.3491,-44.51996,2.4121,30.3667,16.31193,-19.03561,3.94873,-0.90382,-1.20793,-1.74598,-4.42414,-2.54696,-2.51859,0.45363,0.01444,4.53667,2.57046,0.94099,-0.30239,-0.15629,0.08429,0.65716,0.17566,0.19357
1092,-4.73529,-2.52734,0.79555,-1.91297,-0.2643,0.10432,-5.34352,-14.69188,-0.6125,10.58085,-1.29739,1.46391,0.61148,-0.43724,0.04191,-0.15995,-0.12339,-0.37343,10.44648,-26.01538,4.52983,52.63531,0.67327,-3.57803,4.26077,0.40705,1.38184,-2.81049,-3.55876,-3.34351,-1.09003,-1.64442,1.26514,5.64572,3.53422,0.80038,-0.22173,-0.44828,0.24131,0.73168,0.34976,0.07087
1093,-4.71879,-2.08389,0.71251,-2.39746,-0.00933,0.2654,-4.9286,-5.21126,-0.05102,11.12731,1.18016,1.91384,0.52263,-0.45009,-0.02645,0.21891,-0.07432,-0.24238,10.87946,-4.9077,6.40085,66.53665,-11.35723,17.89146,2.45771,2.41827,4.40447,2.03837,-0.55916,-0.73924,1.56964,-3.81925,2.33415,5.01657,2.73334,0.92354,-0.00537,-0.67,0.33519,0.5897,0.28718,0.04077
1094,-5.75053,-2.91455,1.52107,0.32375,1.2128,0.28832,-16.26076,-8.29801,2.56246,12.96972,4.42221,1.85516,0.32255,-0.37131,-0.04194,0.83522,0.06739,0.02762,-4.43987,-2.74661,6.33015,62.74197,-8.5791,26.64027,-1.31265,3.34103,5.42674,7.11199,1.29095,2.1725,3.72756,-4.47552,2.22355,2.88058,1.07161,0.90959,0.27674,-0.73929,0.28673,0.27874,0.10354,0.05426
1095,-7.19546,-2.73359,1.71293,3.89718,1.16676,-0.01924,-28.10735,-11.87823,4.07511,18.00081,2.74052,0.23739,0.19026,-0.34026,0.0165,1.16087,0.02232,0.10953,-14.57041,-11.94251,1.2153,50.27798,7.08152,14.65188,-3.32841,1.72587,3.11211,6.58121,0.40349,2.15664,3.99462,-2.72988,0.84247,1.20182,0.3937,0.59973,0.34555,-0.45962,0.12636,0.07237,0.02734,0.07259
1096,-6.69079,-1.05039,0.85099,5.87064,-0.12371,-0.45491,-24.11633,-7.11739,3.00979,24.70098,-1.35526,-2.09273,0.18832,-0.36249,0.09163,1.14373,-0.1616,0.007,-0.27916,-12.00932,-4.76284,47.74957,18.42861,-5.6288,-0.35015,-1.07904,-1.08687,1.82496,-1.6966,0.07582,2.57253,0.37091,-0.94275,1.27935,0.89326,0.53998,0.11196,0.13392,-0.08676,0.15612,0.0491,0.17323
1097,-3.98133,-0.07544,0.12167,4.8467,-0.19356,-0.44896,-7.34558,-1.43721,1.17243,24.55207,-0.04647,-2.08426,0.26608,-0.37136,0.09988,0.94386,-0.18489,-0.00494,20.14795,0.06017,-3.52904,56.28204,17.42826,-16.24445,5.5535,-2.36287,-3.81978,-0.57185,-2.31034,-1.09952,1.34958,2.27043,-1.88388,2.39654,1.63306,0.74625,-0.0957,0.55702,-0.23074,0.42156,0.11078,0.27795
1098,-1.84523,-0.81253,0.19724,1.045,1.49036,0.17574,3.09876,-2.64424,0.32493,13.28449,6.29988,1.08214,0.40908,-0.37932,0.03615,0.5978,-0.00945,0.12748,17.11631,8.54381,4.88811,55.40126,12.64147,-11.16324,9.56397,-1.37545,-2.7214,2.27503,-0.64445,-0.2895,2.16562,1.09247,-1.10665,3.00673,1.97653,0.6003,0.08421,0.35579,-0.13318,0.56243,0.23459,0.18275
1099,-2.59669,-2.15028,0.67669,-2.5074,2.5968,0.79081,-3.14738,-9.23693,0.66195,0.65964,9.52492,4.2942,0.59314,-0.43619,-0.03899,0.30402,0.10645,0.17501,-6.23755,1.28699,11.94906,36.72728,12.11556,2.68807,9.45808,0.28839,0.6877,6.38851,1.03933,1.12762,4.47922,-1.79886,0.59125,2.18481,1.61058,0.03922,0.54087,-0.2213,0.1415,0.31591,0.2999,-0.07958
1100,-5.03967,-2.83685,0.9929,-2.72527,1.77167,0.76719,-16.42049,-15.32326,1.34798,-0.58386,6.12587,4.48704,0.66423,-0.4642,-0.07264,0.30273,0.04488,0.03376,-21.13177,-14.69204,10.72649,21.56919,14.59376,12.635,6.37392,0.89111,2.1931,7.18034,0.4455,1.36835,5.47904,-2.82427,1.11847,0.85213,1.01412,-0.3877,0.73944,-0.45221,0.25504,-0.09009,0.21705,-0.24632
1101,-6.37552,-2.58603,0.93349,-0.45395,0.50474,0.2944,-21.36505,-16.80721,1.51959,8.63436,1.0027,1.92583,0.49663,-0.36445,-0.06771,0.4848,-0.0293,-0.11897,-13.33795,-23.27634,3.16934,27.06539,14.90963,10.72882,3.68917,0.30266,0.22426,4.92178,-1.46299,0.37033,4.3247,-0.93306,-0.21239,0.53339,0.91441,-0.3698,0.55444,-0.09477,0.02847,-0.1518,0.09467,-0.15973
1102,-5.63235,-1.55978,0.53006,1.53996,0.65886,-0.06882,-14.49634,-12.04937,1.17402,17.9579,0.36549,-1.05713,0.26726,-0.25258,-0.06047,0.64577,0.02352,-0.09272,5.86177,-16.07312,-3.00384,40.61636,10.17748,2.05833,4.71104,-0.32437,-2.07245,2.98823,-2.06573,-0.40945,3.97416,0.7942,-1.59745,1.00601,1.07995,-0.138,0.61512,0.28624,-0.27079,0.15181,0.01217,0.0572
1103,-4.31041,0.00978,-0.02649,2.43676,1.60819,-0.23633,-6.29338,-3.01852,1.0524,21.61482,3.98791,-3.06117,0.25401,-0.28373,-0.05425,0.83453,0.07841,0.04265,17.36476,-0.19296,-4.0011,44.07796,3.57837,-3.54679,8.41416,-0.66393,-2.29207,3.46262,-1.18761,-0.38794,6.01283,0.21463,-1.7045,0.97726,1.24643,-0.27967,1.22419,0.19413,-0.32139,0.33582,0.01137,0.13119
1104,-3.77306,1.8099,-0.54481,2.58692,1.37597,-0.41117,-5.27855,4.94175,1.11372,19.94356,5.94342,-3.96853,0.43043,-0.32367,0.01539,1.04337,-0.00632,0.07793,13.69306,10.12379,-2.07745,40.00848,-0.72947,-4.32165,10.43218,-1.23454,-1.88082,5.43971,-0.91265,-0.03278,7.71102,-0.97931,-1.41824,0.36928,1.36741,-0.71696,1.71953,-0.14163,-0.22221,0.13722,0.05183,0.00272
1105,-3.9081,2.79492,-0.79818,2.32876,0.51579,-0.44222,-8.55128,6.65486,0.48923,17.01124,5.09258,-3.0889,0.53002,-0.21756,0.13694,1.01514,-0.05774,0.02441,5.65305,11.08584,0.35551,37.97348,-4.72711,-3.969,9.21618,-1.63114,-2.0891,6.58782,-1.65027,0.48833,6.35731,-0.98227,-1.44431,0.13908,1.03681,-0.67457,1.43706,-0.25479,-0.20154,-0.17018,0.00595,-0.12305
1106,-3.75562,1.62845,-0.47502,2.93456,0.8803,-0.24008,-10.16831,0.70576,-0.39097,19.51141,5.19978,-0.71799,0.47217,-0.13437,0.1777,0.7662,0.07321,0.01131,8.26563,7.12194,1.65646,35.63977,-8.81792,-3.75984,7.08339,-1.2981,-2.44761,5.86447,-1.75564,1.08009,2.60081,-0.02791,-1.42061,0.30368,0.22764,-0.15134,0.51245,-0.039,-0.26858,-0.2768,-0.11115,-0.12491
1107,-2.79134,-0.97305,0.25467,4.80021,2.26098,-0.05711,-9.24525,-7.63164,-0.35966,27.79526,7.01804,1.28355,0.4232,-0.25217,0.09731,0.62736,0.19539,0.01428,20.05717,2.35168,0.79622,33.31626,-6.33164,-3.08479,5.44733,-0.7536,-2.54005,3.9993,-1.07385,0.93148,-0.48524,0.88899,-1.28141,0.25095,-0.09475,0.00035,-0.34952,0.26003,-0.3336,-0.18644,-0.12093,-0.08273
1108,-1.74801,-2.62082,0.72608,5.51669,3.59873,0.15064,-7.88269,-10.89657,0.18359,30.94835,9.66873,2.93106,0.46231,-0.42506,0.00832,0.59229,0.16357,-0.00361,24.59562,1.7832,0.76399,42.53523,6.69147,-3.67945,3.61982,-0.74348,-1.88958,1.34921,-1.55859,-0.78713,-0.53791,0.74222,-0.96199,0.04637,0.78996,-0.55338,-0.57599,0.30033,-0.26467,-0.07338,0.04152,-0.09463
1109,-1.40336,-2.25855,0.6393,3.44484,4.74734,0.59111,-7.55793,-7.16879,0.06025,21.29682,13.61047,5.32607,0.53121,-0.43194,0.01418,0.44839,0.09405,0.0297,12.77117,8.68271,4.82584,63.28046,21.83305,-5.27497,2.34433,-1.0894,-0.25976,-1.18167,-3.37383,-2.92984,1.89782,-0.72731,-0.16351,0.00464,2.00548,-1.17058,-0.16911,-0.02355,-0.01149,-0.04971,0.217,-0.14371
1110,-2.67811,-1.32559,0.44367,0.61381,5.58488,0.98757,-11.34235,-2.08156,-0.20211,8.29295,18.41028,7.07215,0.56383,-0.36149,0.03937,0.37345,0.08652,0.11993,-6.99247,18.0434,10.01589,72.96919,21.24825,0.65327,2.82525,-0.73633,1.82091,-0.2328,-3.63965,-2.60212,4.19166,-2.61096,1.02315,-0.17026,1.93941,-1.15184,0.35267,-0.48007,0.30494,-0.09059,0.21087,-0.1339
1111,-5.35259,-0.97431,0.43555,0.30871,4.65947,0.662,-16.96181,-0.82288,0.58307,9.01402,19.53867,5.10889,0.53186,-0.39012,-0.02768,0.66453,0.05703,0.09803,-11.04348,20.30659,10.1675,49.99258,-1.35426,17.6583,3.70017,0.74196,3.43601,5.55527,-1.21075,0.75477,4.55158,-3.69525,1.96508,-0.83719,0.55583,-0.66629,0.52017,-0.74714,0.50083,-0.14151,0.02874,-0.04096
1112,-6.75887,-0.68201,0.38079,3.04103,1.31611,-0.44351,-15.29232,-2.50095,2.06851,24.84248,12.63406,-0.51251,0.43915,-0.43557,-0.13131,1.12468,-0.04372,-0.0898,13.8867,11.17811,4.26776,1.81574,-25.85065,29.03671,4.06671,2.04163,3.37965,10.92325,1.22663,3.59143,2.97265,-3.1516,1.93966,-1.04568,-0.31266,-0.2762,0.28338,-0.61867,0.44264,-0.12607,-0.09628,0.03588
1113,-5.06547,-0.11029,0.1789,5.49726,-1.63918,-1.18463,-5.08039,-3.71515,2.8266,37.32582,2.55812,-4.66777,0.32108,-0.3478,-0.14855,1.22139,-0.07518,-0.18622,44.82031,-0.52932,-1.30421,-32.90014,-25.79982,15.20664,6.36382,1.31574,0.34645,9.63175,1.44336,2.69824,-0.10496,-0.436,0.49719,0.50407,0.59545,-0.11952,-0.19965,0.02481,0.05113,0.05078,0.03565,-0.00608
1114,-2.334,-0.2019,0.12299,5.00524,-0.677,-0.56097,2.1232,-4.83369,2.18076,34.74876,0.50108,-2.77879,0.25178,-0.22506,-0.08572,0.80885,0.07084,0.02711,49.8255,-1.9057,-1.16097,-22.07102,0.0198,-15.34816,11.12344,-1.30907,-4.81524,3.4085,0.1786,-0.62295,-3.43889,3.64738,-1.87424,2.84977,2.32854,-0.11348,-0.68729,1.00071,-0.55533,0.32564,0.31494,-0.12619
1115,-1.24643,-1.51967,0.39179,3.11791,2.2641,0.51825,-1.37782,-8.62435,1.04311,26.31152,4.8676,1.33378,0.34667,-0.26532,-0.02634,0.37976,0.17604,0.27073,31.04324,-0.95092,0.64672,18.45078,24.46482,-29.53429,12.15288,-2.84829,-7.46813,-0.56005,-0.69467,-2.28631,-3.55748,5.6997,-3.35391,3.63679,2.79825,-0.01883,-0.68551,1.52807,-0.8743,0.48781,0.40729,-0.13054
1116,-1.71608,-2.55427,0.65248,2.49142,2.52785,0.52889,-9.01299,-12.69407,0.73586,23.29547,3.98014,0.95456,0.55909,-0.39956,0.00809,0.36715,0.00463,0.12488,15.35817,-12.88374,-1.28584,47.90596,23.89017,-10.34836,4.69523,-0.65285,-3.06874,0.20094,-0.61616,-0.80927,1.53833,2.19075,-1.95627,2.43309,1.48488,0.42683,0.05108,0.81285,-0.4453,0.39547,0.20337,0.05472
1117,-2.39913,-1.35144,0.41437,2.29232,0.7648,-0.11898,-11.37605,-9.941,1.00811,23.12557,-0.80084,-1.95804,0.6135,-0.36781,0.04194,0.4711,-0.22895,-0.22871,14.0629,-23.15587,-3.42611,56.80662,4.50337,20.74431,-4.5851,3.63981,6.26796,2.39569,-0.59304,1.17554,7.31813,-5.39334,2.10033,1.29177,0.2498,0.97483,0.8468,-0.79093,0.42803,0.18567,-0.01442,0.23181
1118,-3.17259,1.48468,-0.25173,0.44646,0.48784,-0.08927,-9.54369,0.93021,0.55101,18.01019,1.14577,-1.10492,0.45746,-0.1971,0.06223,0.33883,-0.21365,-0.30889,12.76612,-8.19955,-0.76959,59.09044,-13.03034,33.40135,-5.2381,5.83965,11.9138,4.02737,-0.83409,1.51828,7.76619,-10.07055,5.29934,1.92582,0.61707,1.17108,0.96955,-1.79009,0.95979,0.20461,0.00913,0.24786
1119,-4.15747,3.19942,-0.67464,-2.45925,1.01346,0.44377,-8.56269,10.85018,-0.38068,7.60677,8.17976,2.69685,0.40544,-0.17321,0.04522,0.1642,-0.06692,-0.11331,1.40466,19.18629,4.56443,47.37432,-19.13575,22.20369,2.46166,4.49391,8.24665,5.35545,-0.11146,0.94532,2.54779,-6.78159,4.29712,3.52888,1.9034,0.9242,0.44722,-1.21802,0.69571,0.51299,0.22667,0.14554
1120,-3.93837,2.91303,-0.59029,-4.1564,0.09047,0.51769,-5.75241,13.4745,-0.79989,-0.54387,10.47776,4.02766,0.58936,-0.29477,0.06542,0.12306,-0.02874,0.03795,-5.41077,31.39793,7.86908,13.88802,-14.79468,1.27244,8.79401,1.35643,-1.11159,5.4421,1.44445,0.51924,-3.74958,1.48182,0.03406,4.49295,2.64939,0.61817,-0.32006,0.24464,-0.0762,0.79864,0.44392,0.01531
1121,-1.93719,1.93354,-0.37646,-3.22519,-1.148,0.13088,2.13742,11.46351,-1.09692,0.7009,6.12009,1.56793,0.727,-0.33103,0.15055,0.13949,-0.0459,0.05881,7.76602,24.45511,7.25168,-14.07228,-6.84631,-14.36022,7.85663,-1.04297,-7.28212,3.55272,1.48972,-0.04087,-6.26041,6.64308,-3.19073,4.33182,2.49935,0.4829,-0.89242,1.16589,-0.59552,0.80204,0.49788,-0.07066
1122,0.42952,1.47048,-0.42903,-0.36203,-0.81648,-0.10278,11.56979,9.87746,-2.21894,11.63244,0.14258,-2.0387,0.59811,-0.19809,0.20487,0.1838,0.02259,0.08002,35.8229,13.67102,2.32859,-9.01626,-8.62533,-16.16269,3.65736,-0.52741,-5.35702,1.08456,-0.68631,-0.80269,-3.65599,4.66225,-2.70989,3.14276,1.77225,0.4103,-0.90247,0.97605,-0.52148,0.50169,0.30479,-0.04785
1123,1.3884,1.15639,-0.56415,1.92465,0.43508,0.00657,15.06988,8.25352,-3.30002,25.00147,-2.1902,-3.87112,0.3936,-0.06186,0.14101,0.29411,0.11081,0.12162,57.75482,10.38635,-4.04727,17.16872,-21.23787,-7.69434,2.18161,1.77408,0.328,0.07004,-2.56189,-0.82833,0.28139,-0.22646,-0.1522,1.3921,0.74526,0.40861,-0.44294,0.29543,-0.15198,0.07584,-0.0581,0.09858
1124,0.21892,-0.01586,-0.35058,1.36405,0.92308,0.21843,8.09297,2.80658,-2.64201,29.97343,0.33964,-2.86713,0.41373,-0.14636,-0.02915,0.42855,0.05378,0.06946,53.38964,9.35026,-6.14626,34.39329,-24.08091,-0.74382,2.66225,1.88682,2.54131,1.68993,-1.94242,0.2283,0.81749,-1.9436,1.35577,0.28106,0.09253,0.42626,-0.09236,-0.15285,0.16582,-0.15743,-0.30599,0.23015
1125,-1.90374,-1.13882,-0.00893,-1.47386,0.12272,0.29189,-4.05011,-2.90213,-0.92977,23.93805,3.3888,-0.95414,0.6079,-0.39218,-0.18616,0.4275,-0.15583,-0.09481,28.35016,2.68364,-3.6155,31.3354,-9.59834,1.91807,1.79438,-0.04075,1.05024,5.44861,0.25962,1.40672,-1.26877,-0.55338,1.17499,0.40225,0.41031,0.10378,-0.16196,-0.26293,0.3226,-0.06844,-0.21056,0.14721
1126,-2.93027,-0.49098,-0.02257,-3.66051,-0.8924,0.21647,-10.06187,-1.93496,0.18908,16.74151,4.32063,-0.11992,0.6972,-0.50577,-0.19953,0.25227,-0.3412,-0.22861,12.15724,-1.86431,-0.41386,19.59315,1.99182,7.64284,1.00543,-0.31824,0.50388,9.16211,1.76865,1.83497,-1.48547,-0.26215,0.83164,0.48768,1.242,-0.75367,-0.27745,-0.29312,0.32169,0.05185,0.10111,-0.12112
1127,-2.51548,1.42854,-0.24902,-3.31395,-1.04855,0.068,-7.28972,3.13916,0.97102,15.72903,4.27314,-0.51895,0.61271,-0.37926,-0.06359,0.12903,-0.37488,-0.23236,17.20347,1.9686,1.34712,13.42175,1.21775,14.39676,3.80747,0.85247,1.77183,10.13221,1.83879,1.64582,1.04391,-2.05339,1.03867,0.02193,1.70083,-1.34474,-0.08694,-0.37099,0.20459,0.05947,0.31543,-0.2684
1128,-2.14669,2.42192,-0.2835,-1.65234,-0.46526,-0.05111,-3.9959,4.48208,1.62323,15.41514,2.61659,-1.84095,0.49126,-0.20826,0.07078,0.16828,-0.26117,-0.15625,22.82262,3.34963,0.56714,12.94421,0.21812,10.22701,8.73235,0.7617,2.15285,6.61419,1.06388,0.99404,3.32931,-3.16653,1.14643,0.42202,1.53681,-0.7278,0.28205,-0.3513,0.07448,0.14229,0.31025,-0.13382
1129,-2.80454,1.50291,-0.13508,-1.29528,0.48849,0.10627,-4.85155,1.44331,1.00526,9.31796,-0.76148,-2.82967,0.354,-0.16596,0.05521,0.10232,-0.01796,-0.07087,12.14786,-3.08905,-1.53055,8.49588,0.19332,-2.23,10.26523,0.32717,1.93277,1.09266,-0.27602,-0.19814,3.37603,-2.75296,1.2902,1.77391,1.25838,0.3503,0.46904,-0.26508,0.1053,0.276,0.21572,0.03812
1130,-3.53509,0.13315,-0.0762,-2.93489,1.28533,0.53941,-4.82022,0.02296,-0.80563,2.62944,-2.82701,-2.20593,0.20039,-0.19457,-0.04776,-0.20727,0.23929,-0.01003,-0.4739,-6.12817,-1.47259,-0.9492,-9.49679,-4.44687,6.83329,1.78135,3.59212,-0.71052,-1.68327,-0.94745,2.10204,-2.85631,2.31528,1.75952,1.06783,0.37271,0.3573,-0.39515,0.37752,0.15361,0.13468,0.00614
1131,-3.21664,-0.64865,-0.0204,-4.48895,1.41122,0.83078,-1.93182,0.12324,-1.47101,4.95492,-0.9487,-0.9713,0.21876,-0.25039,-0.10144,-0.3703,0.30164,0.02258,4.36007,-2.42511,0.35053,-1.49008,-24.46586,7.35776,3.49854,3.6196,5.97796,1.9098,-1.92407,-0.36173,1.88928,-4.18493,3.46821,-0.56102,0.55554,-0.59681,0.3214,-0.75482,0.63839,-0.30013,0.02572,-0.13674
1132,-2.04746,-1.08136,0.18139,-4.03319,1.36787,0.74278,-1.29231,-2.06609,-0.0274,14.29706,4.28177,-0.5901,0.47347,-0.33851,-0.08571,-0.08935,0.16514,0.08421,19.08317,1.1635,0.5572,16.31842,-28.4205,15.99352,4.03596,3.04964,5.38501,4.3157,-0.40136,0.7134,3.1325,-4.60933,2.93325,-2.71388,-0.02735,-1.27587,0.53608,-0.90046,0.54229,-0.64673,-0.07338,-0.18794
1133,-0.78887,-1.12364,0.32336,-2.46716,2.01535,0.60523,-4.37555,-4.01346,1.2939,19.08604,9.08697,-0.73199,0.7158,-0.36745,-0.02958,0.24603,0.11201,0.26405,22.98331,4.50371,-1.16827,35.37858,-18.05933,12.87998,5.32639,0.54148,1.3352,5.46072,1.96092,1.55164,3.83382,-2.55783,0.50011,-2.84161,-0.11255,-1.25333,0.60045,-0.49814,0.09558,-0.5506,-0.07923,-0.12715
1134,0.02814,-0.86687,0.25573,-1.21795,3.90883,0.82156,-5.51778,-2.26158,0.52885,16.24712,11.92888,0.33317,0.79491,-0.32983,0.05659,0.24812,0.35266,0.55543,16.38792,11.03115,-1.20754,27.84242,-6.24161,6.3299,4.01584,-1.12868,-2.76553,7.37351,3.18834,2.49519,2.95358,0.45235,-2.04586,-1.83046,-0.0894,-0.84284,0.27536,0.1619,-0.38447,-0.21546,-0.06191,-0.03042
1135,-0.15202,-0.16119,-0.01856,0.16679,5.55928,0.98118,-0.8838,2.53774,-1.59279,11.83664,12.55534,2.67068,0.73566,-0.30513,0.13879,0.19451,0.59478,0.6496,13.97288,16.9537,2.66264,-1.97423,-4.35851,3.16301,2.13595,-0.28934,-3.57435,8.50953,1.69506,3.06132,1.75434,1.63209,-2.80022,-0.59064,-0.35548,-0.09993,-0.06838,0.49122,-0.59151,0.05673,-0.1003,0.08526
1136,-1.65916,1.07504,-0.362,1.89446,5.16131,0.57333,3.56448,5.97998,-2.60113,9.14706,11.02674,4.62013,0.48617,-0.28959,0.12513,0.40393,0.48254,0.29875,15.06173,16.27355,8.15231,-15.4162,-11.65884,3.83556,3.11998,2.14708,-0.37586,6.42266,-1.64028,1.97381,2.24271,-0.45695,-1.11885,1.09343,-0.08065,0.62329,0.0952,0.17033,-0.38138,0.268,-0.0619,0.16018
1137,-3.03898,2.3191,-0.57208,2.79044,3.35254,-0.08306,1.09797,5.41551,-1.47046,9.83039,8.15859,4.27415,0.16818,-0.22234,0.03621,0.66899,0.1611,-0.2094,13.50858,9.62525,8.8071,5.04132,-18.8288,4.93202,7.08331,3.23551,3.14308,2.35542,-3.78618,-0.41291,4.04685,-3.50382,1.21028,2.86855,1.12765,0.74832,0.63738,-0.39073,0.01695,0.48323,0.12663,0.12338
1138,-2.71236,2.19201,-0.41152,2.77512,1.45772,-0.50139,-4.77003,1.26663,0.54933,18.8846,3.78991,0.40584,0.12841,-0.16648,-0.01812,0.71705,-0.06292,-0.41278,20.32556,-0.96614,0.67079,30.25124,-19.4882,0.05263,10.52024,0.86141,1.66322,-1.2696,-2.9012,-1.9938,4.14347,-2.96063,1.14944,3.53545,1.89069,0.52503,0.85159,-0.41163,0.1221,0.5712,0.22461,0.06663
1139,-1.82332,0.22694,0.11525,2.43141,0.06085,-0.59235,-7.2206,-4.74242,2.06768,31.72629,0.28361,-4.06732,0.37634,-0.2019,-0.03531,0.61039,-0.16049,-0.28182,37.61049,-10.78031,-8.51172,28.57291,-16.98238,-8.73266,10.04926,-2.99951,-3.48072,-2.35364,-0.56414,-1.33915,1.76701,1.02066,-1.08069,2.51002,1.03264,0.52869,0.53794,0.08398,-0.0696,0.38283,0.03367,0.1069
1140,-2.30135,-1.42245,0.51103,1.19615,-0.59122,-0.47258,-7.25767,-8.70813,2.59938,29.88239,1.25045,-4.10264,0.53989,-0.2251,-0.06859,0.49547,-0.26154,-0.1835,36.49614,-12.74562,-7.48103,6.25226,-17.19571,-9.63789,6.98234,-3.8882,-4.95544,0.84948,0.32986,0.76554,0.61637,2.7423,-1.9452,0.55422,-0.4711,0.54462,0.30228,0.32548,-0.1297,0.00522,-0.2317,0.14069
1141,-3.15491,-1.69996,0.55678,-0.33856,-0.4038,-0.39864,-7.60416,-10.08672,2.5138,10.86866,5.62454,0.08543,0.51326,-0.17881,-0.10668,0.4364,-0.35823,-0.33778,7.8284,-9.35675,2.43626,-9.7871,-18.39426,-0.88507,5.75312,-0.75607,-0.73661,6.19038,-0.49518,2.23666,2.94043,-0.23486,-0.29283,-0.66248,-0.80525,0.16018,0.45003,0.11662,-0.03373,-0.26178,-0.22506,0.0249
1142,-2.22113,-1.67476,0.45722,0.39998,-0.05506,-0.64995,-6.025,-9.80602,1.7203,-2.77932,8.09685,3.08899,0.53931,-0.17784,-0.07725,0.60994,-0.35406,-0.56126,-13.5802,-6.06962,9.53069,-9.46092,-14.7009,6.73399,7.09889,2.28197,3.28262,8.58103,-0.72251,2.09241,5.20257,-3.63759,1.36292,0.00584,0.24119,-0.22055,0.44167,-0.07837,-0.02676,-0.16934,0.04477,-0.11672
1143,-0.22772,-1.11053,0.1364,4.20775,0.17155,-1.10278,-1.91054,-4.73891,-0.54063,3.39652,7.3712,2.5162,0.67063,-0.27011,0.02972,1.13242,-0.21561,-0.52502,-3.6545,1.37487,8.00781,0.22655,-7.45385,8.76934,7.82932,1.7935,2.56043,6.98193,0.67521,1.45013,4.24035,-3.50146,1.08267,1.8243,1.25068,0.08592,0.10801,-0.12529,-0.06254,0.19815,0.23694,-0.06041
1144,0.5992,0.87538,-0.49886,8.8254,1.29507,-1.39618,2.57654,5.63128,-3.48588,21.54558,8.50932,1.39717,0.69427,-0.34407,0.13383,1.67106,0.02999,-0.14519,27.07842,17.77901,3.21333,11.0335,-3.04562,9.23105,6.94366,-0.54342,-1.02201,5.41589,1.80694,1.50799,1.48393,-0.78562,-0.33982,2.66438,1.24479,0.66682,-0.07936,-0.15478,-0.01085,0.41739,0.14963,0.13339
1145,0.05607,2.80978,-0.95219,11.18188,3.22695,-1.34848,6.86312,13.65127,-4.45873,35.54397,12.95451,2.07533,0.5584,-0.34108,0.14876,1.77449,0.27289,0.30763,55.97443,32.85489,2.44002,11.62395,-1.16395,9.34199,5.13559,-1.4339,-3.48646,6.17694,0.52423,1.72716,-0.76093,1.74486,-1.33571,1.70578,0.62786,0.55866,-0.04681,-0.08965,0.03886,0.2804,-0.05411,0.19625
1146,-0.69001,2.73513,-0.74527,9.75075,4.37997,-0.96152,10.01192,12.28202,-2.16951,35.35685,15.23883,2.98745,0.43821,-0.30751,0.06112,1.45246,0.38199,0.53034,64.47834,30.38576,6.12671,-3.28563,2.14194,5.70502,3.62883,-0.5764,-3.9911,6.73055,-2.5815,1.11927,-1.07363,2.97913,-1.79853,0.72757,0.17151,0.01323,0.10021,0.18339,-0.08541,0.10113,-0.14799,0.0662
1147,-1.30139,1.24046,-0.14388,6.3788,4.25891,-0.5227,8.51548,4.76335,1.20924,26.68143,12.75201,2.43084,0.46685,-0.27307,-0.03446,1.1387,0.31815,0.45255,50.80681,13.96844,8.73488,-16.46303,1.95717,-2.56816,4.92031,0.49883,-3.85439,5.04693,-4.16239,0.13606,0.3646,3.0594,-2.1529,1.4877,0.29251,-0.01834,0.27195,0.5335,-0.3482,0.20572,-0.06942,-0.05268
1148,-2.29183,0.08408,0.28416,4.70603,3.68973,-0.46637,-0.58483,-0.27924,2.48035,24.89676,8.55317,0.76973,0.59426,-0.25096,-0.03704,1.08945,0.15513,0.19494,30.87453,2.9411,4.96834,-7.29841,-9.03697,-9.06934,8.05025,1.19941,-3.09515,3.32063,-2.14821,-0.05883,1.69534,1.97192,-1.95147,3.19194,0.98062,0.49049,0.22602,0.6596,-0.48339,0.46374,0.10317,-0.0231
1149,-3.48222,-0.2515,0.33634,5.32285,3.26642,-0.73563,-12.07027,-0.71403,1.16733,34.05398,5.10212,-1.44586,0.6219,-0.24044,0.02436,1.00994,0.06648,-0.00251,22.48163,2.94323,-4.19226,14.18305,-25.12157,-6.93219,8.53672,1.43135,-0.78371,3.8534,1.05092,0.34815,1.77891,-0.38025,-0.58943,3.85255,1.90306,0.65014,-0.00904,0.3126,-0.29164,0.52265,0.25505,0.0433
1150,-3.68693,-0.50319,0.17806,5.19932,3.35173,-0.81502,-14.90399,-2.07041,-0.5544,41.27235,4.92008,-2.94834,0.47699,-0.25052,0.02974,0.62322,0.15445,0.03087,29.13183,5.28923,-10.28159,22.31056,-33.06902,1.83779,6.00962,1.18128,2.74528,5.74372,1.97762,0.19869,1.52624,-3.52223,1.59735,3.281,2.81561,0.0327,-0.04683,-0.41735,0.14078,0.3888,0.38107,-0.00189
1151,-2.56343,-0.93583,-0.00836,2.95827,3.54036,-0.56643,-7.90738,-5.69857,-1.13027,36.69638,8.65406,-2.38577,0.38186,-0.33084,-0.06349,0.28935,0.23745,0.12294,38.22609,5.99554,-8.00239,15.45422,-28.67008,7.42086,4.51371,0.8009,5.00264,6.67313,0.70444,-0.47,1.26023,-5.41888,3.1531,2.29874,3.21233,-0.74135,0.09446,-0.93475,0.47462,0.24437,0.44634,-0.10612
1152,-1.1112,-0.61144,-0.20348,-0.09855,3.2403,-0.12665,-0.26063,-4.42005,-0.93776,24.93968,12.75134,0.51372,0.48651,-0.4236,-0.13819,0.35788,0.15504,0.04324,37.69783,10.6081,-0.29363,12.03604,-16.71497,3.50059,4.59149,0.19522,3.12727,5.64692,-0.79584,-0.80293,-0.15459,-3.28432,2.41361,1.07191,2.64004,-1.00596,0.02384,-0.61053,0.38822,0.06803,0.35705,-0.13046
1153,-0.25792,0.58133,-0.32635,-2.74345,3.11047,0.51497,3.20933,3.45408,-0.59921,15.59213,14.83139,5.2295,0.5442,-0.37923,-0.08963,0.48245,0.07719,-0.08953,30.46699,21.6167,8.63314,19.18455,-3.43832,-3.23504,3.99426,-0.68458,-1.33995,4.26484,-1.83331,-0.53866,-1.717,1.33463,-0.00123,0.02385,1.50475,-0.76215,-0.17048,0.2199,0.00986,-0.09551,0.13067,-0.04475
1154,-0.52,1.28543,-0.25323,-3.70626,3.07809,0.9783,2.17951,8.8304,-0.24239,12.71282,13.07967,8.157,0.4019,-0.23529,0.00589,0.32405,0.08631,-0.12036,22.22982,27.05732,12.96978,25.34483,2.74309,-3.17231,4.57957,-0.88646,-2.88679,4.85667,-2.3588,-0.12135,-0.81468,2.52708,-1.04193,-0.03883,0.82394,-0.56538,-0.07478,0.45115,-0.1249,-0.0568,-0.06193,0.02288
1155,-2.17271,0.83069,-0.05278,-2.45193,2.24957,0.73185,-4.50959,5.3464,0.11546,14.07074,7.53319,5.64763,0.30613,-0.16261,0.01401,0.15378,0.00662,-0.1187,11.75784,16.72092,8.01519,18.08611,-2.80851,1.03106,8.90993,-0.03877,-0.13898,6.94804,-2.09865,-0.1937,1.74302,-1.06784,0.3998,0.71221,1.21564,-0.92481,0.19502,-0.16539,0.13476,0.14247,-0.03329,-0.07489
1156,-3.94927,0.01572,0.13461,0.21926,1.30619,-0.04123,-11.46789,-2.43936,0.69605,16.75423,4.45818,0.72596,0.37832,-0.14998,-0.03901,0.38304,-0.15424,-0.11826,4.84303,2.64591,0.77292,3.75801,-12.61255,4.36927,12.86103,1.04748,2.66544,7.99142,-1.33483,-0.45693,2.59088,-4.31757,1.99339,1.06118,1.88256,-1.41012,0.18161,-0.70026,0.35981,0.22161,0.14951,-0.23733
1157,-3.60504,-0.5007,0.3398,2.9805,1.22463,-0.694,-9.83232,-6.93666,1.79973,17.60087,9.26032,-0.21327,0.55684,-0.15958,-0.00779,0.93533,-0.24493,-0.08697,7.32008,2.44982,3.32092,2.20171,-18.4108,10.55508,10.85108,1.99487,3.40772,7.25887,-0.87698,0.14018,1.07949,-4.29936,2.21466,0.66898,1.56962,-1.01323,-0.11782,-0.602,0.30874,0.12073,0.19081,-0.18026
1158,-1.06713,-0.59942,0.51496,4.14066,2.33145,-0.73564,-0.72792,-5.77827,2.72476,14.53583,19.7146,4.39039,0.81321,-0.2627,0.15379,1.28738,-0.19764,-0.00121,13.48821,16.26326,14.99412,17.42905,-23.39938,18.68922,4.67963,2.48196,3.71194,5.37191,-0.95161,1.3195,-0.3529,-3.25685,2.0163,0.45295,0.45226,0.25665,-0.26842,-0.34391,0.20148,-0.01376,-0.00618,0.10197
1159,0.55019,-0.22095,0.37309,2.99199,3.34619,-0.1413,5.51238,-1.38698,1.8698,11.87435,24.19835,9.10515,0.86678,-0.39676,0.25846,1.09609,-0.04505,0.12166,18.84528,26.14398,21.40077,30.37004,-30.97005,18.74105,0.41221,1.62139,3.57705,3.2534,-1.06797,1.58026,-0.0638,-2.74645,1.77838,0.88319,-0.04195,1.12377,-0.06021,-0.30688,0.17684,-0.08274,-0.17292,0.28612
1160,-1.05649,0.39146,-0.1191,1.29906,2.48732,0.50638,2.72637,2.88147,-0.61767,16.21132,14.20068,8.06879,0.51258,-0.42456,0.11215,0.67742,0.11335,0.19756,25.72366,19.5849,13.53074,26.11617,-32.18438,8.70815,0.82424,-0.37927,1.48096,2.91908,-0.72969,0.9877,0.71742,-1.61544,0.87846,1.28437,0.4757,0.8482,0.15113,-0.24485,0.11754,-0.04268,-0.11863,0.2199
1161,-4.25536,0.57233,-0.42376,1.37419,-0.005,0.43308,-5.71854,3.73183,-1.78651,27.10321,-3.59114,0.85508,0.13854,-0.35745,-0.16831,0.58463,0.13361,0.11708,33.49739,1.60442,-2.10736,13.53615,-16.99556,-2.11912,4.22348,-1.85731,-1.66583,4.67354,-0.13276,0.78206,0.43087,0.3368,-0.33894,1.0706,0.97051,0.06734,0.07048,-0.01103,-0.00193,0.04978,0.03198,0.04441
1162,-5.91674,0.28996,-0.20368,2.80725,-2.50328,-0.39632,-13.68855,0.7583,-0.1778,36.35472,-16.38278,-8.01655,0.14899,-0.26289,-0.27979,0.81368,-0.05161,-0.13839,34.83337,-15.965,-15.03693,9.90528,6.84227,-7.14706,7.25939,-1.50981,-3.05566,5.87597,-0.10229,0.70701,-0.2363,1.37444,-0.8873,1.02301,1.19087,-0.33697,-0.07812,0.16729,-0.09281,0.1629,0.14857,-0.06551
1163,-5.02124,-0.09328,0.1998,2.94527,-2.65538,-1.02547,-16.01287,-3.05725,1.83298,35.59745,-15.17504,-11.61477,0.40978,-0.21657,-0.15569,0.90518,-0.22989,-0.34035,26.37441,-20.93316,-18.34496,15.33206,18.06855,-5.00084,7.45456,0.36109,-1.50231,5.72135,-0.68726,0.2862,0.39821,0.4042,-0.5817,1.71784,1.53629,-0.23909,0.00195,0.12673,-0.12293,0.33527,0.2161,-0.05079
1164,-3.16538,0.00892,0.24244,1.06666,0.21048,-0.73104,-10.66747,-3.47764,1.68018,26.22936,-1.53537,-6.97253,0.55751,-0.20878,0.02752,0.6487,-0.16853,-0.25851,17.3862,-7.60497,-10.25545,16.76905,4.72833,4.54508,4.86942,2.40233,1.74803,6.46302,-0.9077,0.50334,2.26928,-1.84988,0.23628,2.21001,1.56593,-0.02933,0.23652,-0.08397,-0.05408,0.48259,0.20696,0.01254
1165,-1.54639,0.51759,-0.01346,-0.4602,3.62295,-0.0068,-2.59531,-0.75356,0.25252,18.39541,12.07586,0.3803,0.53905,-0.17718,0.13788,0.36317,0.04998,0.00629,17.33601,11.46667,1.67527,11.15007,-22.17938,15.51469,2.29863,3.28881,4.1767,8.04413,-0.36227,1.75699,3.80543,-3.65196,0.98801,2.03255,0.80702,0.24634,0.4128,-0.3218,0.08185,0.49042,0.08668,0.06097
1166,0.29248,0.58169,-0.15114,-0.82116,5.58828,0.42064,1.90442,1.22578,-0.4727,15.16711,17.17817,3.68012,0.59512,-0.19159,0.14915,0.36604,0.2294,0.21466,20.21673,20.3966,7.18453,8.04562,-37.30625,16.89143,2.73392,2.17147,3.60113,8.13043,0.09508,2.62805,3.99084,-3.71188,0.91016,1.87908,0.02457,0.61883,0.46333,-0.47594,0.13463,0.38487,-0.07329,0.10774
1167,1.95638,0.43004,-0.28746,-0.88346,5.94261,0.43807,4.58085,2.74997,-1.15293,13.10687,16.06097,3.13222,0.72961,-0.28659,0.09192,0.47749,0.27818,0.24068,21.49944,21.3469,5.75521,11.78912,-28.86883,8.06416,5.82746,-0.51764,0.69156,7.15543,-0.3561,2.02778,3.32384,-2.60714,0.08055,1.87343,0.27256,0.57172,0.44397,-0.54289,0.0533,0.2397,-0.11066,0.10333
1168,1.57742,0.67033,-0.61276,0.0035,4.76907,0.24404,8.71281,4.59542,-2.8017,14.33992,12.77436,2.8485,0.69339,-0.33975,0.03915,0.40657,0.21133,0.11007,28.50452,21.03012,4.27718,13.43528,-13.03027,1.01393,7.60864,-2.6289,-1.66448,6.65462,-1.31546,0.78716,2.66799,-1.45251,-0.63051,1.6551,1.10233,0.03671,0.34699,-0.40736,-0.05906,0.12262,-0.00236,0.00889
1169,-1.23383,0.60691,-0.68149,2.40646,2.4832,0.01355,9.02399,2.86815,-3.632,22.59214,6.75396,2.98122,0.50796,-0.33064,0.02933,0.35964,0.12118,-0.02736,40.16083,12.86155,3.84284,11.40267,-5.77251,2.34158,5.87596,-2.10262,-1.85,5.43588,-1.64316,0.13146,2.23004,-0.40022,-0.78641,1.34652,1.22562,-0.21835,0.18048,0.02042,-0.11939,0.08568,0.09269,-0.078
1170,-4.31811,-0.05484,-0.20522,4.65585,1.11144,-0.18051,0.56538,-2.41326,-1.65954,32.62151,1.63634,1.38606,0.41705,-0.33879,0.03925,0.6841,0.09547,-0.01908,42.71687,-0.73373,1.37513,18.20157,-0.03109,5.91117,3.47721,0.24393,-0.57286,2.74714,-1.01503,0.01817,1.85242,0.2189,-0.47223,1.18901,0.74234,0.03736,0.06546,0.36867,-0.08787,0.11726,0.12939,-0.07247
