PaulMeinheit/Bachelor_Muay_Thai/processed_Data/E1/teep/scaled/JointPositions/scaled5.csv
Neck_Joint_Position,Neck_Joint_Position,Neck_Joint_Position,L_ANKLE_POSITION,L_ANKLE_POSITION,L_ANKLE_POSITION,R_ANKLE_POSITION,R_ANKLE_POSITION,R_ANKLE_POSITION,L_KNEE_POSITION,L_KNEE_POSITION,L_KNEE_POSITION,R_KNEE_POSITION,R_KNEE_POSITION,R_KNEE_POSITION,L_HIP_POSITION,L_HIP_POSITION,L_HIP_POSITION,R_HIP_POSITION,R_HIP_POSITION,R_HIP_POSITION,L_SHOULDER_POSITION,L_SHOULDER_POSITION,L_SHOULDER_POSITION,R_SHOULDER_POSITION,R_SHOULDER_POSITION,R_SHOULDER_POSITION,L_ELBOW_POSITION,L_ELBOW_POSITION,L_ELBOW_POSITION,R_ELBOW_POSITION,R_ELBOW_POSITION,R_ELBOW_POSITION,L_WRIST_POSITION,L_WRIST_POSITION,L_WRIST_POSITION,R_WRIST_POSITION,R_WRIST_POSITION,R_WRIST_POSITION
X,Y,Z,X,Y,Z,X,Y,Z,X,Y,Z,X,Y,Z,X,Y,Z,X,Y,Z,X,Y,Z,X,Y,Z,X,Y,Z,X,Y,Z,X,Y,Z,X,Y,Z
0.14311000000000001,0.08889,1.5357500000000002,0.09534000000000001,0.4818600000000001,0.11139000000000002,0.05509,-0.00751,0.07976000000000001,0.09363000000000003,0.4047700000000001,0.5317600000000001,0.14938,0.05278000000000001,0.48954000000000003,0.06365000000000001,0.19897000000000004,0.92419,0.20011000000000004,0.06784000000000001,0.9260700000000001,-0.013620000000000002,0.17433000000000004,1.4814300000000005,0.25154,-0.04404,1.46698,-0.050820000000000004,0.33507000000000003,1.23237,0.37923000000000007,0.09393000000000001,1.23992,0.05854000000000001,0.4101300000000001,1.4585800000000002,0.29042000000000007,0.21373000000000006,1.4610400000000001
0.14557937905450782,0.08940928519697448,1.5354544253333269,0.0951872253630829,0.48329998473543767,0.11445478177321752,0.05531488686196615,-0.00884835021600956,0.07928201748349445,0.09393591843839151,0.412558815345581,0.5359398051678445,0.14846103349201778,0.05103113990265661,0.48938958209681777,0.06272627671183507,0.1998848932995461,0.9245969024884955,0.19898166703283354,0.06852987049595537,0.9258450454947781,-0.013628773718596363,0.1762197629605023,1.4825895127232702,0.25324304467605946,-0.043231876804456164,1.4671447575756265,-0.050976347675178973,0.33805930916236593,1.234280551870654,0.3818489901342881,0.09454824226187526,1.2404952883804348,0.059706776038739834,0.412326007239756,1.4600994164513916,0.2917685374277231,0.21468174632394915,1.4609143235290607
0.14632195886559418,0.09037212565724906,1.5358610457257869,0.09505209598580058,0.4867640493089069,0.11878943505409548,0.05384901594579954,-0.009013573842835677,0.07911667556015675,0.0942357391195176,0.4226112885477161,0.5413399642867809,0.1474996957148634,0.05011969430862245,0.48922574179297373,0.060780455310300886,0.20119568813411548,0.9248834238464031,0.1975593113602408,0.07038554533571847,0.9256174434081009,-0.012666247599624326,0.1772680539556074,1.4831665628510544,0.25495893573139794,-0.04098108148073384,1.4670208532091857,-0.05171685172157921,0.3415433834775934,1.236718589126254,0.3845289723813483,0.09845244287350927,1.2419293240028397,0.06054334296499979,0.41489953066205554,1.4620654166123883,0.2919260064653303,0.21692051378820576,1.4622088235581883
0.14727573624257886,0.0927179686252653,1.5358060666245528,0.09438341617857988,0.4901314636192729,0.12347267401447873,0.05311406788148663,-0.009954026962451738,0.07928874235598538,0.09486049085645917,0.43312918476433876,0.5470440922066997,0.1456652564161297,0.04812026410966804,0.4897925012572714,0.05885072396473313,0.20360702683945367,0.9255586013075688,0.1957385643479208,0.07291032945575229,0.9259462602611723,-0.012213636076857468,0.18011701724937515,1.4841859042179841,0.2564189136091567,-0.03883827207227235,1.4669620005504451,-0.05143390828742509,0.3454737937869595,1.2384893723235666,0.38748471553412356,0.10308143348732693,1.2443138564011587,0.06097187602954793,0.41722918999441844,1.4642793605522246,0.29306200113372,0.22183600782846458,1.4636526960273526
0.14727717758049333,0.09640622455984034,1.5357309293589578,0.09407112344388957,0.49471998681531315,0.12891713655806683,0.05326337305844508,-0.01077831820190923,0.07940850436834852,0.09618979759783342,0.4459078908389472,0.5534986938800207,0.14378082250580704,0.04770162026091826,0.49029868811987853,0.057701387068302634,0.20700937901512617,0.9259132723541003,0.19469417895463734,0.07642103443669666,0.9261165332870712,-0.011594128957780257,0.1820769307841142,1.4845661563599273,0.257661905498924,-0.03353359286099683,1.4662733237520902,-0.051818048026378426,0.35053059283922783,1.2411518678157505,0.39023727033093036,0.11285973427027854,1.2474437943057002,0.061761340156568166,0.42155949704918166,1.466576666784679,0.29219960107831877,0.22790593068561213,1.4671851557573283
0.1481282034095025,0.09923915427216104,1.5361258911449498,0.09485406080434801,0.499643339810804,0.13355242577573223,0.052672753922706844,-0.010751917507850298,0.07918889470447041,0.09608532561066997,0.4578114057838603,0.5588852458916235,0.1413244432447628,0.048215333028203494,0.49042556279538496,0.05695770422337642,0.21113767037927156,0.9261390957005371,0.1941084234958349,0.08071965023225522,0.9257569410194826,-0.011717186019940803,0.1851893540518558,1.4851463141868195,0.25935598684541433,-0.029497826317058128,1.4654873678974063,-0.052586579067052525,0.3571156610949673,1.2442690764083606,0.393038405539409,0.12270372629601958,1.2513440561420606,0.06266151533717419,0.42738915204616684,1.4691017208263375,0.2920190897415828,0.233075196569363,1.4721235336414107
0.14892415495162575,0.10398458920173786,1.5363497777691257,0.09495147340178538,0.5042539092686231,0.13791455335935404,0.0522161566726685,-0.011160580517360656,0.07891004176541218,0.09599746275000094,0.469627913016142,0.5638967618956008,0.13813850379264309,0.04854328837982641,0.49061772614519755,0.055256917655979246,0.21691763020279728,0.9268366674919464,0.1924232548020246,0.08651627267050221,0.9253227722264814,-0.011297693601737201,0.19224087871009457,1.4862531708166702,0.25991997740318873,-0.02347566028381712,1.4674145840363784,-0.05326256987026509,0.3653673093468122,1.2464349177506584,0.39526850006172376,0.13174355218539632,1.2565059063874424,0.06254895127609814,0.43227104033420416,1.471999032640983,0.2909585356829647,0.23989552763683877,1.4768515230582293
0.15027493709220738,0.11022566588540259,1.5366001003771803,0.09547789195957262,0.5116900460576539,0.14133089271242313,0.05246393400939456,-0.011757840958954125,0.07936065476212724,0.0956098041687376,0.4820383086888324,0.5676838010689644,0.13491030228511308,0.0488747971462291,0.4916318976727843,0.0551970910017992,0.22496237939733368,0.9275855628571518,0.19206092685100942,0.09426496516221992,0.9252592286999561,-0.011075204272955656,0.19717751835346653,1.4860080513138467,0.2641508676383502,-0.01610316211492585,1.4657901762794157,-0.05308788335774111,0.3737593398849351,1.2487328588049385,0.3967889411720475,0.1476383568947101,1.2596599147066894,0.06177029278017311,0.4392442387073331,1.4751946136453729,0.28885998256099843,0.24930366435511225,1.4813501497429267
0.14900813611079697,0.11822287323006155,1.5353284569837211,0.09448325531540067,0.5187817599620052,0.1431175155725281,0.052301745520990484,-0.011254998094962856,0.07874646783406465,0.09644413001484238,0.494282279052855,0.5697883657091948,0.13263990184452257,0.05016283915619603,0.49132955050708627,0.054266706735275394,0.2336809145838393,0.9269481248778301,0.19125747450691993,0.10312720033170844,0.9238990563491346,-0.012020061296707569,0.2047213040052221,1.4859504614653685,0.26511865599598755,-0.005296755253987822,1.4650005733004186,-0.05480242965690636,0.3825744467489549,1.2497564952185478,0.3979150312355787,0.16303319668723756,1.2627070583452193,0.05971449509581113,0.44794457494634093,1.4764198184215893,0.28830840911120165,0.25968498157820824,1.485811616766841
0.148449080895392,0.12749822757567547,1.5342118636343087,0.09332346712570788,0.5272208216093554,0.1437966409774494,0.0520906299871518,-0.010841284508642348,0.07878235423836596,0.09718915364128826,0.5072652852077282,0.5706941694939442,0.12969154625561974,0.05225867984721938,0.49162887631691393,0.053334876336820373,0.24427997584695824,0.9259050738072993,0.18981048221333108,0.11318612314178264,0.9229449525687612,-0.012287505351929991,0.21263659190854403,1.486005562041692,0.2655416016421568,0.006313882614257196,1.4634960103573789,-0.055630448074714366,0.39373596472313455,1.2524009662068172,0.39945844785770723,0.17899736220687484,1.2656579041844762,0.057537200527012965,0.4579459882067054,1.4800803943786116,0.2869040003705709,0.2716028025071014,1.4890179313824436
0.15043862495011173,0.1370350928480649,1.5325822369104776,0.09174163051589072,0.5343954406616596,0.14349543276752957,0.05188514531144471,-0.010868775091014889,0.07829997615893242,0.09797898473810901,0.5197532793784279,0.5705838431785799,0.126525597210895,0.05543032707568783,0.49120047366054614,0.052344538011397664,0.2549452281637424,0.9242093780210988,0.18922138595235632,0.12426126680376373,0.9209533589400852,-0.013827829825938451,0.2211274635760352,1.4843084771146116,0.2659588459663453,0.020408129665083832,1.4607616881928494,-0.05534992362864868,0.4060836790860264,1.2534127400092692,0.40009736624444714,0.19821087849305796,1.2676602867600555,0.05516793669170685,0.46911490546402645,1.4827122848515557,0.2854868516436484,0.28812898671964093,1.4910583421526418
0.1476281925646002,0.147488474587198,1.5294681357304591,0.09121297436363089,0.540820659845953,0.14202166069002167,0.051320412899998606,-0.01152327895539695,0.07812007485278237,0.09967861368303405,0.5335530045917646,0.5692638861749761,0.12512888090697322,0.059286360530907585,0.49042136444341894,0.05256538171990293,0.26693541187726383,0.9213277598113747,0.19004731336613134,0.13689771209382376,0.9183375795048279,-0.013667419531969708,0.2322441007407114,1.4819245134790344,0.2663529827353588,0.03509678565638814,1.4562304917340407,-0.05740199885124764,0.4209234292589604,1.2544686690171314,0.40023725995461606,0.218397888732482,1.2681636659316795,0.051705438989719174,0.48051883607154466,1.4853605889078747,0.284236112792113,0.30537791324997093,1.4920193622947902
0.14783332384364598,0.16237815929382793,1.524922430820711,0.08837556094849687,0.5436498302519479,0.14123876078918846,0.0510098450708983,-0.010797685869371972,0.07743883431100412,0.10218667860823966,0.5501913912231527,0.5683453984035185,0.12511600158152977,0.06596464137292432,0.4886138888265617,0.05247260886898528,0.28044433573005223,0.9176620473365421,0.19155755942945155,0.15210921207265343,0.914664197263897,-0.014108801035882567,0.24344017062201434,1.479122337567207,0.2675582175330611,0.052201476157974866,1.4522741183956025,-0.05763834044646404,0.4354598424625586,1.254444783549909,0.4014789775213779,0.2403590741437278,1.2690969470776516,0.04831981022401028,0.4924919618796021,1.4874364856899127,0.28214777898881666,0.3236104667861727,1.492616151282398
0.14709060366383347,0.1778687492964607,1.5202794682715235,0.08654837188438265,0.5440053265678432,0.14062899418605823,0.05063862293316366,-0.009056990298452442,0.07766056742698206,0.10555646373556492,0.5683360180790006,0.5668957613827852,0.12747741202473598,0.07683116925582445,0.48652303688533866,0.05207840020649106,0.29510693994740866,0.912927348226929,0.19331576770753495,0.16912513404941862,0.9113802588707056,-0.01746070423879636,0.2531548445472316,1.4780528749721016,0.26906108179264526,0.07261662183121234,1.4451459242925058,-0.058033875781880205,0.44945952755359714,1.256546429143699,0.4041389457982918,0.2672458741710447,1.2697522721063643,0.04630310901682052,0.5061619782127341,1.4903496364460427,0.2802367514072122,0.3476413820541382,1.4918270961467293
0.14624896088819492,0.19520150376392553,1.5160562426160402,0.08636970978098177,0.5420004322031605,0.1394139550961894,0.05038371209783649,-0.007582383272220956,0.0776570288659636,0.10751220160282558,0.5873486930504555,0.5638569127301998,0.13173076263534178,0.09166082689590226,0.48261188754852247,0.0508000621870191,0.31107389653057665,0.906944734863644,0.19439493952726022,0.18777898326879192,0.907097431577544,-0.018089470311491707,0.26557360893637444,1.473930407321156,0.26933503064961467,0.09446050285608247,1.439421355100704,-0.06006753976493901,0.4701110466043911,1.2602648622341022,0.40883029467928395,0.29226556004121806,1.2711741523112439,0.04465621060960965,0.5217071175715554,1.4950802639231155,0.2793333501071356,0.37160588255972193,1.4904196196758843
0.14116217311603824,0.21187363103737566,1.5120130029792471,0.08773929401544639,0.5393452169335102,0.13837167586029028,0.05141831395831395,-0.0048462729104142505,0.07852019024047471,0.1102260597040469,0.6072867199889654,0.5597146014916643,0.13856961585507668,0.1099863822979766,0.4780979398547316,0.05090076887456806,0.3300201427675985,0.9015614342917696,0.19515326972094724,0.2075113902777848,0.9031264353424737,-0.02153893294238703,0.2839440924057876,1.4691030208468927,0.26737704998948614,0.11796843271954885,1.4327189664274034,-0.06441111395703224,0.498291527717222,1.2654732992552655,0.4149079663290463,0.3204356106115847,1.2773692619259855,0.041517967542484935,0.534825914090145,1.5025646688153749,0.2774669917899303,0.40260108286856355,1.4906572089957246
0.13981800095194025,0.2351020296045782,1.508080397278158,0.09041135255212403,0.5378408220177077,0.13490917412500367,0.05304766392078659,-0.00270933860455567,0.08130172494255511,0.11167213445255503,0.6259263442747627,0.5525751220503682,0.14487891519080157,0.13141789066138687,0.4737662445043442,0.050073857671977064,0.3522511361602255,0.8968973684514662,0.19557605091629765,0.23122486739415216,0.8989974011304035,-0.023078424459513802,0.30248241645783946,1.4674430255700002,0.26601633333374963,0.14368270176846995,1.4290694507486434,-0.07131314767910661,0.5259644382473702,1.275149935808606,0.4193507109960786,0.3497356889957973,1.2844220895958824,0.03708778792162222,0.5476004543677875,1.5129412647468639,0.27676285439040627,0.43468022903401926,1.4931886725913
0.13703745653544006,0.25815864590513543,1.5059040294104242,0.0907511700375711,0.5356415241060439,0.1310496079284669,0.05705487040627924,-0.00034620182214845395,0.08962476448690496,0.1133652294013313,0.6417222586238376,0.5444430743187746,0.155014395264917,0.15715637553414047,0.47178014755506253,0.0480985574213682,0.3784626236516146,0.8961330210300129,0.19550429324084292,0.259755253533394,0.8974445259635628,-0.02703974411134313,0.31932618800050544,1.4688773082465254,0.2666996468630532,0.17113826205384375,1.427511640208217,-0.08087672076917558,0.554084298876833,1.292144982960202,0.42666260801854006,0.3788699485163227,1.2927830239742173,0.03561895519772765,0.5616623876183388,1.5269549261326294,0.27859699548990385,0.4670318570901283,1.496342486189547
0.13525777519327267,0.28091323289007775,1.5076203454988404,0.08719585746956801,0.5333099499809945,0.12487455989407785,0.06633032599883501,0.005873432632882378,0.10440830066226382,0.11342504770357255,0.6518693075826183,0.5346475724753079,0.17179178147215216,0.19365802606762042,0.47056150192244867,0.046751587696964636,0.40716946828430445,0.899254201263607,0.19573074886522004,0.2904291190117877,0.898825883733611,-0.03146576990964493,0.3399359472697279,1.4719676202045455,0.2673150301732594,0.200277418992973,1.4292015239768994,-0.08801485229957985,0.5858538025359324,1.3120432623560492,0.4328669624783536,0.40795028972913283,1.3012995640478395,0.031502687010490714,0.5761143616578847,1.5452570662028458,0.2806889146332397,0.4990644428747053,1.500480269006067
0.13107514791075994,0.30586659426017854,1.5134250352174266,0.07972723014673991,0.5274857735082985,0.11700242401820161,0.08515786573939386,0.027879925097873067,0.1318033039934584,0.11155275956216225,0.6520721411862239,0.5245773009080682,0.20163751685605857,0.25740588373254153,0.46973698121963586,0.0447890669879734,0.43727164466037294,0.9075400687570644,0.19792312787766156,0.3260926198141783,0.9040469954085295,-0.03783028032084177,0.3619184135190947,1.4829079623825359,0.2638208046815821,0.22940600218685464,1.4376635169601855,-0.09428442850441879,0.6160873063217946,1.336416684660828,0.4372606264946199,0.4306336560333232,1.30991818829481,0.02489622745101667,0.5906583176134638,1.568604127868424,0.28478566783480525,0.5260435156283947,1.5068410738081224
0.12367682656632026,0.33339253465774027,1.5227922675648105,0.07674471043337144,0.5226473872241696,0.10876793043452278,0.10634857516180835,0.07689875416967806,0.17561437226452775,0.10399130638405213,0.6446154206308516,0.5174749772297607,0.23927487093549504,0.35028798026887453,0.4723315983147464,0.03900826204918937,0.46314542767833494,0.9175977299971194,0.19881989382874907,0.36202938539270796,0.9100272346712067,-0.04285366519232007,0.3853202772808229,1.4948916774202503,0.2611332906496647,0.259929109624169,1.4464466003398178,-0.1023619463989791,0.6451479563964734,1.3600098482038434,0.437036404392371,0.4553796249876402,1.3132166314871656,0.017769124070118294,0.6052019229621585,1.5896496258530302,0.28768494877676404,0.5512297740543094,1.5123175380647211
0.11671354816688725,0.3631926470970267,1.5325388738868893,0.08015849336080269,0.5178042217802941,0.10291488069425175,0.11806376216359672,0.15292206117768228,0.23581957324504288,0.0921702649224579,0.636621189685842,0.5132776185028356,0.2668648637001126,0.4616217417903743,0.48684372551642624,0.034965660839458006,0.48228630584437476,0.9257781052544521,0.20446996153380725,0.3984967584709735,0.9175114255321056,-0.04799441132302455,0.413237089667356,1.5076076519501607,0.25678473284064357,0.2879058690027817,1.4599439541898949,-0.10442251602474623,0.6774117000912261,1.3800455456870984,0.436754523697533,0.4669693516783579,1.3101386051278285,0.013437259111780054,0.6239444625043123,1.6081168996860824,0.29669754826782174,0.5719323086823944,1.5113740475793997
0.10926019029950472,0.39150656709429515,1.544020227820402,0.08089331602206687,0.5157590328997832,0.10214419132927971,0.13340677286649844,0.25594677623851514,0.30280336491807136,0.08102801318960512,0.6298551925094159,0.5140141280333362,0.2856278001008125,0.5840723197082407,0.5255367597971906,0.03410187111155823,0.49260716440699404,0.9337923006534086,0.2125690219657566,0.4296560406003447,0.9307200816575492,-0.0524551519198361,0.4395211508084497,1.5207791711352547,0.25157871857357184,0.31403785433344894,1.476402888285012,-0.1036889555078027,0.7077539913084544,1.3996554571434852,0.4332539072342652,0.4693689102477152,1.3038959687884952,0.018084400324835714,0.6481426151517636,1.624116004299967,0.30705029929494215,0.5974578772096102,1.5008651057222908
0.10432275929613517,0.41841926566247667,1.5557902518867894,0.08097417497226193,0.516409895221981,0.10358103818200533,0.1480886194286281,0.3758048224672074,0.3695072258174614,0.07348773193277046,0.6238278870352905,0.5171816520515835,0.2894105999569672,0.7067533757499089,0.5952313599898373,0.034661265003816985,0.4987801618623318,0.94156914942477,0.2183460157230656,0.45357077879234625,0.9476531713911264,-0.05638338015883338,0.4672217664274359,1.5317220201556805,0.24713584607478764,0.33820930613329936,1.4890320352199102,-0.0997685071023699,0.7385501003637271,1.4144794083418266,0.4284390575348694,0.4696637464959084,1.297349261675964,0.02556367528359688,0.6752370568715812,1.6359433348395231,0.32231500219176895,0.6265098998906611,1.485147436343311
0.10089131104079896,0.44717979424927934,1.5656715673973496,0.08151604272019833,0.5199883900107397,0.10685978457117737,0.1634878946403711,0.5023381541397143,0.430493259269722,0.06966261764783296,0.6217269116860343,0.5217907256938173,0.28287635624012963,0.8189622927785294,0.6872993497056377,0.03775210607665427,0.5061887973741531,0.9494433026786121,0.22485896487972837,0.48072291708468995,0.9622303219483174,-0.05591357731115996,0.49660448902966753,1.5395768282744147,0.24586645970183776,0.362093674274532,1.5010746973557632,-0.08986764902039765,0.7699927953948782,1.4240230080085892,0.42586884862859536,0.4740642843696711,1.2962484605107971,0.037128723713631503,0.70084086498945,1.6427710441285748,0.34163896816111333,0.6624484213584679,1.4652145873352937
0.09702283866371045,0.47366391609307695,1.5703106043830584,0.08457586895040844,0.5212484335220311,0.10991588876811215,0.17822372814573703,0.6345909315052637,0.4860698870128361,0.06802938215025696,0.6249395209527298,0.5242063952842204,0.2682467393789796,0.9040656661750662,0.8018690568561966,0.04062297511171826,0.5100667424846996,0.9523459240632246,0.2278199928079125,0.5038812109976676,0.9795536156549663,-0.05419594223584363,0.5223802268689302,1.5435470019455293,0.24576243425043975,0.3886139891983639,1.5103371349523687,-0.07996786054849278,0.7978736684685639,1.430927833870432,0.42863893453008156,0.4846752250803899,1.3000494153510607,0.04970665890290396,0.7257445543225288,1.6471449524412072,0.3680990584567457,0.7023074403683229,1.441832127588779
0.09221840825731467,0.49823840585685747,1.5687447948420215,0.08774458696342763,0.5244772464441446,0.11432251280547912,0.19296975769748126,0.7808468886245299,0.5484572806058646,0.06908411389389017,0.6386904766639449,0.5257389792242918,0.2435556443781265,0.9630996343302746,0.9288276005816362,0.04599810155494614,0.5203368193172927,0.9531836915018467,0.2306048804389304,0.5284442840527547,0.9941245919559946,-0.05666933439517263,0.5485900009443896,1.541114788869832,0.24668382714175682,0.4178974506725553,1.5177210218325943,-0.07194445058617198,0.8267129674641149,1.4331372169862262,0.4384183003838389,0.49741504365188544,1.308419390960734,0.05760754986851389,0.7496864309536198,1.6477251455859825,0.40353287625539147,0.7416051807090545,1.4098299162674082
0.08603232738061543,0.5241901168619073,1.5614817444096327,0.09368531092650258,0.5264844227635949,0.11728288740564258,0.20241737701374532,0.9398099427280535,0.6297052635410093,0.07066293816868356,0.6608156892303083,0.5223548467537608,0.21572379184675247,0.9884924458097077,1.0514907966773595,0.053894362783330416,0.5418610950227741,0.9499360248722664,0.2350646890636293,0.5518007553544616,1.0037887938537884,-0.058777417462941385,0.5757429373784061,1.5321989943994188,0.24734388009434963,0.4477433288306828,1.5211524769891152,-0.06263356161388746,0.8573020251401238,1.432414103888697,0.452999431464931,0.5103209420995581,1.3194533734009102,0.06588072474584641,0.7698692774342547,1.6436064265198982,0.451157317962676,0.7731156627822018,1.3649507188134373
0.07748369205623958,0.5433099832015518,1.5507484563376719,0.09948941654377218,0.5304317689886449,0.1223277591452789,0.20666381357792218,1.1044816579529433,0.7317689161091508,0.06653066308144522,0.6848174552709894,0.519491195439051,0.18938833417398315,0.9937804177345098,1.141523230498348,0.06657199171802909,0.5678610263228844,0.9479446883710441,0.2440384695358282,0.5767947375621458,1.013124195138685,-0.06629376198829122,0.5935666822029705,1.5199754999538024,0.2515295193121613,0.48100374159567716,1.5213072625967556,-0.06142096958431527,0.8782668504917628,1.4296083673739213,0.47028563543395974,0.5227521571904804,1.328185870625152,0.0655184814630132,0.7831636154951699,1.6384297533865777,0.495788115773639,0.7875028820940555,1.308459536753097
0.07140725765943289,0.5566269767357046,1.5429436097246017,0.10866796705390788,0.5328789433664911,0.1248954986814355,0.20759938892172386,1.263656988377108,0.8523748748092465,0.06282382468286273,0.7068303010483546,0.512577254348231,0.17635992140018011,1.0097135373865518,1.1914610656455598,0.07681009380130606,0.5981079978773449,0.9429667872077887,0.25076402716686214,0.6134676298415982,1.0159433536292504,-0.07190356873633053,0.5985016033762673,1.5121367820252316,0.25013408863440634,0.5035101770960315,1.5146953221358914,-0.0665806231234904,0.8849742635127793,1.4275599513436008,0.47744982659214835,0.5274010670629676,1.3285477532498156,0.05997611056835737,0.7899512530639198,1.6366468681343131,0.5583578530710981,0.7667277725954319,1.2430762779621096
0.06559865383238946,0.5623424043825632,1.5379563881340872,0.11880645606212421,0.5338302144143137,0.12671695937415509,0.20166556594387663,1.4191285552730328,0.9843104454182031,0.06406659202609019,0.7193148960496876,0.5078438992797748,0.17083563425298687,1.056333901025182,1.2031341258594728,0.08104627705079441,0.6315602815200773,0.9428837427685985,0.25062706895242753,0.6645289065651897,1.0201872019720746,-0.07947479670039226,0.5915912649988646,1.5045011990610204,0.2534874194446735,0.5191295682145967,1.5077210465284987,-0.07913561820789741,0.8802947892667835,1.4277004998456533,0.47415422001286106,0.5195810628115805,1.3122681661342972,0.054006617984114005,0.7866271784982511,1.6332936054460043,0.6081597853154264,0.7052184974157564,1.175471808571026
0.06438988840832753,0.5545031945927865,1.5339639018173716,0.12203563394062474,0.5351497322189873,0.12793074295386672,0.1951031470196923,1.5245849797644446,1.0485056716233063,0.06725164235056418,0.7250367855693252,0.5068865600872371,0.1750386816292493,1.1252190469981582,1.1918773686258421,0.07938893698896593,0.6765946442790598,0.948204736958066,0.24469431323913984,0.7233045901921267,1.0276776931982328,-0.08690113874864953,0.5742884483253828,1.4948066292931368,0.2567785519373183,0.5186469457706587,1.5004145842981564,-0.099834081281026,0.8655959212200888,1.4298495571205778,0.4609466651330132,0.48650200428461476,1.2902324125775892,0.04606225152211442,0.7748639363708663,1.6279613440738592,0.6239723883257667,0.6080033352882602,1.1176235282776605
0.06830112681202465,0.5383282251342197,1.5290920217392496,0.11895853639236177,0.5410728506713275,0.13056469545631202,0.2044898628101864,1.5778298481311772,1.0509960154347695,0.06861581031951376,0.7308914890613161,0.5101536092995176,0.1734291362753457,1.1745824509268707,1.180920282858716,0.07701273596819333,0.713813567436744,0.953884198891659,0.24132261412793818,0.7666114509782529,1.0315684016275877,-0.08648028604326144,0.5545693562142915,1.4855820676562674,0.2642246005822907,0.5087028311873186,1.490873406453653,-0.11919153803297663,0.8470032995301344,1.4340412435856136,0.4424568493123335,0.4396958599881974,1.2664429459890527,0.041419999642158555,0.7594962741845287,1.6219548710968505,0.6119477556416459,0.514042015931453,1.0744125238576505
0.0729587542984616,0.5268971077623771,1.5241289427171816,0.11505270491928388,0.5486158878704968,0.13345006694101605,0.22543176088249436,1.6116881132997254,1.0485621499761684,0.06964883701113773,0.7355708217639356,0.515087382562598,0.17534295603214028,1.2053531671094522,1.1618139637207436,0.07136219267776092,0.729384536613469,0.9591769819284756,0.23637264497826238,0.7907471721439504,1.0286576695054561,-0.08237869134777491,0.5407692304005363,1.477853845357284,0.2691702262153346,0.4898542381237031,1.4821925101018893,-0.12869049011912143,0.8334125017939206,1.439648890681884,0.4173511353525503,0.386576102585137,1.2492466851600335,0.04377054432638122,0.746701656831707,1.6171357529530492,0.5824105484610421,0.4268652185171769,1.0436576876407475
0.07526716026364094,0.5154731819406451,1.523912760945027,0.1133690238304016,0.5548093227984687,0.1350576929080891,0.24975076270746469,1.6366666480798073,1.0505363324548698,0.06548042162796747,0.7311352336247209,0.5214167096144113,0.1949886192326883,1.2221185291613517,1.1253903040371045,0.06503356231402824,0.725791007976996,0.9655211818100515,0.22889346975761635,0.7939173183457515,1.0313236952547404,-0.08071465145551636,0.5265552775822249,1.476390138247036,0.2689213788774262,0.4656935006162447,1.4787858598192882,-0.13120616045672734,0.8186948529549547,1.439635789178871,0.3838272818376641,0.34504553235845903,1.235612568326374,0.04661778182383478,0.7329420023531107,1.612233873939124,0.5413239128803509,0.35793014815920143,1.020762067838166
0.07658622908529401,0.496927097672035,1.52934196020852,0.11380026176074033,0.5512891627488707,0.13433797762774585,0.272344522581881,1.6395330994923827,1.0416366888419917,0.06062162472955231,0.7112793480302061,0.5270642161975592,0.23126908284004324,1.219166825792547,1.0869533965370572,0.05885832434136172,0.7108991896322757,0.9711854922443941,0.22297830546214653,0.782970801997973,1.031945846758718,-0.07998395206004323,0.5105537510787956,1.4800367828619032,0.26874546922406667,0.4457047177360243,1.4807403591965713,-0.12629655658768235,0.8022523562680928,1.4351604088413423,0.35802737746295765,0.32607176680495115,1.2265590493677356,0.05002799400868091,0.7182782103826677,1.6101479801377903,0.49734708631746205,0.31564694738216076,0.9993756989042435
0.0759638554044405,0.48063377526535656,1.5369656345683835,0.11112727087433363,0.5435508955293221,0.13168937210858095,0.3093794655525396,1.6125667305134013,0.9896014487892424,0.059606154178379,0.6887499929712413,0.5303395122157054,0.25869603535456415,1.1957767100747885,1.054115313071399,0.054300750154583764,0.6907368579289866,0.9744395607051127,0.22183896592098507,0.7582095912294902,1.0309981616802362,-0.07927917179587979,0.49209634482273007,1.4846359186762903,0.2661854835779579,0.42918193638226976,1.484511014894316,-0.12101753432681593,0.7824367683295129,1.4280288763963913,0.3432218913815331,0.3234844934842876,1.2203366579675967,0.051660181415511874,0.7045620433573185,1.6093590068244872,0.4675193544743464,0.3046105867386199,0.985121651410609
0.07309855847595077,0.46648046637841,1.545338272380739,0.10778671699525261,0.5364405115166049,0.12667733837384987,0.3603486570765533,1.5560481992257182,0.8825918374620222,0.06591056771489856,0.6704337059941223,0.5303504750061047,0.2771200032833311,1.1642850669966198,1.0241706957810832,0.049591367841288016,0.6700624206085303,0.9741780917263705,0.22273761722038565,0.7279339328306978,1.024109120540767,-0.08213234742115601,0.4781814790668767,1.4941468355448781,0.263518907059311,0.41828666214073495,1.4847240063262424,-0.11764459328670174,0.7661284270615072,1.4229200472653856,0.33774065382526025,0.330023073523196,1.2134343302218502,0.048789578003267955,0.6912770109900307,1.61123716397204,0.45528864385620393,0.3225433682049488,0.974151109051466
0.0712531871469584,0.4513486532115469,1.5524677317777777,0.10939120134266421,0.5286222451420086,0.12198447140156188,0.4032111386565854,1.4555836378108273,0.7448975219531268,0.07462951054637951,0.6545905364823598,0.5289000970364998,0.2974835394934151,1.127106178315008,0.99263296536722,0.04877951289571373,0.6451055615277287,0.9721732852356628,0.22616640998225782,0.6938696859849195,1.0166546613804854,-0.0848247485629457,0.4670240846429765,1.5035364899319,0.2611546764886453,0.40961354884790213,1.4819136795344103,-0.12037977820486924,0.7527064429710767,1.4237278769423056,0.3414212695989742,0.3441489943863173,1.20593919359045,0.04387554445599737,0.6809779947282876,1.6151445795456498,0.45848730869842336,0.3637198816430259,0.9670973284824711
0.07098791951956805,0.4398601393148904,1.5570609868699572,0.11137710814716308,0.5225456562046199,0.11665960089071609,0.4266900600345053,1.312403427410725,0.6088785993429561,0.08128973240780801,0.6419553015230599,0.5259205999666353,0.3177722725731722,1.0830109856533021,0.9494180184217802,0.049712045775948045,0.622359182116908,0.968495315767793,0.23119892293107092,0.6561952184766913,1.010192634587033,-0.08896984009527807,0.4562197334123497,1.5074484616254409,0.2585199862054177,0.4019539224216173,1.480351164039034,-0.12348969607962955,0.7406380271538958,1.4228229817593956,0.3519185760484222,0.364604746375337,1.2032634252548877,0.03792796351163467,0.6715877015947478,1.6176000871692153,0.4685516055111082,0.4207831330045054,0.9700892222259889
0.07185965232350433,0.42938507145137406,1.5591078998904753,0.11013897947593955,0.5180105892661849,0.11152014631938957,0.4385272539508715,1.1406491624020956,0.48742991620107984,0.08436688672208377,0.6288543309322885,0.5234765905714192,0.3386740036081128,1.0353444990208447,0.8866662233354405,0.049543268125212425,0.6034998606520543,0.9655119123974544,0.23396957352634512,0.6243076268033947,1.0025901335197842,-0.08968203689424738,0.445184965374081,1.5133763993271403,0.25744583922369857,0.39350890129132,1.4759338379280265,-0.12917087567239918,0.7275069159356374,1.4240388337947538,0.3599656798419831,0.3916106454971616,1.1995702771149892,0.03368206727648927,0.6632688313610982,1.6192692664803132,0.4790587794146079,0.4901398810012581,0.9822264180475465
0.07287841970702935,0.4204036608443614,1.558976808046956,0.10353672835352162,0.5143154406275421,0.106767799649293,0.4272246183110646,0.9533921940934995,0.3936186029045621,0.08365000103794003,0.6184664480895542,0.5207929261597802,0.35667425100461314,0.9729491091426531,0.8120557238880189,0.045767054312901845,0.5859376160997084,0.9621049982341305,0.23244164214477273,0.5918095448974879,0.9927640718451982,-0.08797909071745395,0.43665055287203036,1.5148760188801063,0.25563585156988594,0.38146593201503315,1.4711657341610676,-0.1328682583602054,0.7180785071809798,1.4252815591350443,0.36644827948571895,0.41360454409901204,1.199900622494737,0.032399948187915355,0.6589876006065528,1.6201115966576998,0.4839354290577192,0.5583592049709794,1.0091828115003736
0.07460036762869347,0.410015857075801,1.5575444342338314,0.09669725368414454,0.5124749184172835,0.10253000627285554,0.40377363733754773,0.7683628553017845,0.32640226202678385,0.07994990833400686,0.6097546034524278,0.5183540566448093,0.36617335922666444,0.9000973540454216,0.7284993207458701,0.04447776916752233,0.5688928797607814,0.9591824252780244,0.23243596137045547,0.5660043092645569,0.9811956739767613,-0.08639861986118344,0.42760472499871954,1.5160536440176002,0.254155967755234,0.37386639275026223,1.4683906487573974,-0.1362735447997432,0.707638372044523,1.4247114910051024,0.37132626519414474,0.43351442510761806,1.2045653098928097,0.03198443643826061,0.6531604166997294,1.618330138867218,0.47923348265577126,0.6180333585250493,1.0450637442525603
0.08039653598936983,0.40225546999378586,1.5541783840021823,0.09130758765355917,0.5125704135159602,0.10051008066800553,0.3709514005780764,0.5909444344593293,0.28384792623448185,0.07692913825095055,0.6089644474082485,0.5166360442123847,0.3699496558259724,0.8045767222182598,0.6510065649038149,0.04286924324390587,0.5557533336266344,0.9562559060901762,0.230688783207858,0.5396410564853578,0.9731463513660176,-0.08290695500333237,0.41986203644612075,1.5150809675893693,0.25357030343528253,0.3652235091934113,1.4680720143742172,-0.13483937686574274,0.6987395882472545,1.421404735434243,0.3735830980129594,0.4524765554216792,1.2133686834919994,0.035202887888137566,0.6488488975646035,1.6146914150151097,0.4689098597461186,0.6702437220662425,1.0924292849159174
0.08607282260827173,0.39352978742238004,1.5513964238069236,0.08841555589756796,0.5121418360513451,0.09759632189314925,0.32441282638609925,0.4373914290204559,0.2582576913052398,0.08106139355703983,0.6067930040239576,0.5143046584757875,0.36288735825323715,0.7000168898423524,0.589916005856545,0.03995070078920704,0.5410186759939969,0.9516162731994587,0.22650400276949637,0.5111606811350498,0.9628624474615558,-0.07641387970530827,0.41510996919217374,1.512520786442119,0.25600163092859296,0.35472825401178043,1.4664054428683528,-0.13187058934887483,0.6919963521219471,1.4149979394705743,0.3753321617395908,0.46612777839776504,1.2209513674805645,0.03792664556223284,0.6450711651237001,1.6092427900594524,0.45039053752927005,0.7108860575190177,1.1461808074230382
0.09521913619764165,0.3883696980190701,1.5492599179064552,0.08745532747783455,0.5083303656144759,0.09468219581349534,0.2751270576970959,0.30752271393644354,0.2440204728139843,0.08840722996818054,0.6022566764576445,0.5116148782098439,0.34601442202457017,0.596306601503694,0.5473814208381582,0.04150097043431265,0.525010588095909,0.9464545181775118,0.22471010639326505,0.4779763032658843,0.9531349834234402,-0.07010525303145443,0.4100283333019906,1.5107684983309784,0.2611682471728436,0.3446252803122968,1.4657180398791794,-0.1264655412318244,0.6847181654034504,1.4077359417662438,0.3786281715126222,0.4695698612476031,1.2259633573857105,0.04217504877118845,0.6413418154765773,1.6038095361355702,0.4248472987443026,0.7314894928775396,1.2061815608666697
0.10330174407375314,0.3828392336622161,1.5488587911283576,0.0870905393375909,0.5091474364222288,0.09362929336715048,0.22068430375726125,0.20825598206536444,0.2267140824767138,0.09891882161463221,0.598907294094266,0.5113106114009773,0.32286273748820576,0.49736754455077115,0.5206910166837304,0.042642499280500366,0.5123994778180668,0.9432882852134441,0.2186790268281914,0.442906543807798,0.9444079595359709,-0.061351550925137575,0.4084228061604623,1.5113153332787244,0.26727952524293885,0.3334093627048135,1.4650417386301577,-0.11898743408897043,0.6781769404954057,1.396609921432935,0.3883862186756444,0.4671021465343497,1.2319105142971034,0.04702720936417674,0.6379365360136158,1.5955669169847857,0.4009863495854398,0.7318014343053145,1.262047687756749
0.11302258970807706,0.3789828605072963,1.5496194553875995,0.08682154386637583,0.5098453055884801,0.09514286887257789,0.17624885838806018,0.13687440659806316,0.19833713045803109,0.1111345397253808,0.5954753221355613,0.5131554106302972,0.29423576606063034,0.4054581959636193,0.5055704985994438,0.04573475012767502,0.4951267159697932,0.9408309390930536,0.21185627652293962,0.40449774051901727,0.9375038773196198,-0.05274846428120906,0.40924553069348657,1.512908808783915,0.2698073371108787,0.3179694834019964,1.4648483926471443,-0.10987996184768035,0.6717680997170355,1.3822796911295765,0.3951951760661754,0.45980237576009464,1.2388934953862518,0.05247317402330463,0.6370092128390741,1.5852501841829623,0.377642649892417,0.7143523427368268,1.3164989960390083
0.12238225601536902,0.3720807018275945,1.550135017443142,0.08578734535863085,0.5129222431511504,0.09910163151942732,0.1410050287176312,0.09474115569358556,0.16555368844459753,0.1220650831819439,0.5906905401500419,0.5177872348136365,0.2595889640228329,0.33042561319018776,0.49847939803576,0.0495191173419095,0.471331439326367,0.9393780814571646,0.20602767329850133,0.36505695045657316,0.9335525244462608,-0.0431911661179199,0.4110540783785566,1.5150419247787947,0.2751013460296021,0.30044905092745583,1.4651895615113553,-0.10056823886857653,0.6627683661512523,1.3647255402132465,0.40468278952641384,0.4458293523539844,1.2439044571579552,0.05961013766423376,0.6360260442338135,1.5706280967639215,0.3663519360382471,0.6841614785861494,1.3572899835338121
0.13368281538432436,0.3622129748251455,1.5488146895286392,0.0827307400592678,0.5154745795253577,0.10256474262003952,0.10710029974036236,0.06922981724952029,0.14020573443744697,0.132045955015554,0.5821198082861152,0.5218343346494025,0.22282229050751198,0.27042980134478445,0.4959840133623773,0.05130708902551331,0.4506318182152048,0.938297555837856,0.19539973137951416,0.3281253954700283,0.9310378907609546,-0.030386463668268266,0.4146781479935511,1.5151510505129604,0.2789479829142164,0.2769894788024711,1.4648299041127748,-0.08602690770170524,0.6539676803277895,1.3451808044255438,0.4113798371039821,0.42606599248217747,1.247733888932099,0.06750597941853735,0.63532531280637,1.5569490888373096,0.35865388002717125,0.6476099664554303,1.3865457395011258
0.1446674229500037,0.3482162137152229,1.5465735413186195,0.08160138915121866,0.5173535962079426,0.10517153674590927,0.081628961789985,0.05770350593988673,0.11870360498562715,0.14076352803165068,0.5715759473586691,0.5249553744478845,0.19208719804613333,0.22517603174511072,0.4931386020632394,0.05326010647140659,0.42800303781942006,0.9360339672989099,0.18384176769833804,0.29124116312352666,0.9277871213386362,-0.013046003564605752,0.4181840819635406,1.510562849326738,0.27930851673585394,0.24666516793280033,1.4626545733466911,-0.07259413667782756,0.6444592286322531,1.3248276191770105,0.4150967650567519,0.4019913983768104,1.2521107085249177,0.0783294477504447,0.6318028115250416,1.538904983942061,0.3512116519461966,0.6071610248848301,1.4100821428645671
0.15779231104320668,0.3349304584401384,1.5421204406821345,0.08270203384187932,0.517909320601461,0.10687422529388552,0.07103636555478351,0.0515747579173467,0.10337228202501453,0.1471311559992184,0.5606252338310973,0.5272016284928696,0.17658615407809564,0.19503259573760695,0.48902564940127724,0.0514560155688549,0.40398056954443284,0.9316306563263993,0.17375743101437796,0.259742680864895,0.9239591479953001,0.0006532003339603055,0.41640229106253623,1.5057743269537582,0.280910727341257,0.21900010342683884,1.4623899195866046,-0.06046624779168144,0.6292058156694634,1.3052135353409062,0.4199016619032646,0.3707699926326983,1.2513425548775936,0.09001142506783012,0.6260993971596038,1.5199530391907563,0.3512458081069363,0.5624859212806864,1.4235701279579127
0.16809691900674228,0.31974467551234964,1.5389859272841255,0.0825666913813578,0.5174628239248794,0.10702741279835733,0.06782250792817109,0.04563781840117011,0.09533582532769308,0.1461786041647498,0.5479514484959221,0.5285496374598232,0.17111075697629322,0.1735249230345649,0.4870291615172142,0.04819131452152818,0.3817866864241802,0.9286052290674084,0.16584861917980673,0.23366194473259425,0.9225886070739413,0.01451433215062051,0.4084013376225989,1.4993073269241652,0.28004608665409325,0.19274456169339552,1.4625144736988402,-0.0439869795007713,0.6115997150395385,1.2882798015327774,0.42430471549440635,0.3343130326256835,1.2479438543462864,0.10527126954462221,0.6219372388891211,1.5036364761028282,0.35202310961667255,0.5159333361642715,1.4293768971108778
0.1793016322102576,0.3050430789150805,1.5358337501063033,0.08368155548711678,0.5158084466721924,0.10741029591175992,0.06714802693024569,0.04062397490716254,0.09130495204561967,0.14179995857544342,0.5328662251489731,0.530480536369647,0.17029264409633954,0.15746535980409404,0.48647998694467476,0.04615727679874205,0.36120186711513325,0.9287753843385893,0.15860202660825298,0.20906657657597183,0.9230053210105809,0.02759247187489936,0.3999524995856277,1.493294317827975,0.278171143321113,0.16555773664632967,1.463831586733823,-0.02842837857375091,0.5922592486123126,1.2716478272000311,0.4243577303391969,0.29623928560923746,1.243724308285625,0.11871405169734606,0.6122370028985423,1.4877942407372422,0.3538899002717309,0.4743309486840581,1.429333914604249
0.1861315869664853,0.28870667176194864,1.5349470347616565,0.08498730621869952,0.514802387232276,0.10755049654730763,0.06625595205932842,0.04020244629683596,0.0898472509050016,0.1343297985995086,0.5169694753585399,0.5320767918616565,0.1717259135295347,0.14706663849411528,0.4872290403463486,0.04413793544128058,0.3427879574938425,0.9305428192281516,0.1538721564858365,0.18869576782881178,0.9246084079885912,0.036516853276030214,0.3880110223872865,1.4910220347257086,0.2755723878381504,0.14277827035708243,1.4656039043175106,-0.015080809188413478,0.5705370104949883,1.260219873407866,0.4220097022709772,0.2616991645393625,1.2390893780341412,0.13064836356074602,0.6018237139670829,1.4759820588583987,0.3574706011001127,0.43659533602503076,1.4298288337033616
0.19057173802525856,0.27166691135734455,1.5354498852617176,0.08740611532092898,0.5125695673836261,0.10668316727152703,0.06554517147649266,0.04169676417593376,0.08872498553932301,0.1265056273186583,0.5022421272382891,0.5321511568595004,0.17104872338885937,0.13940207113059955,0.4884436244699098,0.04437231576345904,0.32617331968976393,0.9315351214036545,0.15145770286181934,0.17018841309770907,0.9266472865666331,0.04203315624778499,0.374469967396749,1.4907932695261827,0.27285711456075995,0.12093416200609576,1.4663728934770932,-0.004842603189762801,0.5476254906622662,1.2519074922895388,0.4198344628305638,0.22914743028083467,1.2349037583160798,0.141708581485477,0.587763874693592,1.4656286221694947,0.35899407153940144,0.39931732385568186,1.431039530896719
0.19290296999979714,0.25537732517899175,1.536096597279406,0.089399394311297,0.5099402948938943,0.10542397584578528,0.06405643228046497,0.04104136479404949,0.08670734728048807,0.12042275576188993,0.4873747300406034,0.5310782193049361,0.16926798351231115,0.1315649705293795,0.4881840030277858,0.044894348575206,0.3116219817625557,0.9319040253879857,0.14998687161144492,0.1542914100805688,0.9268909730834725,0.04600597536920399,0.3621783144565926,1.490918481531844,0.2681031603996821,0.10131521950618307,1.4672047954608498,0.0019056798637658663,0.5257334735215813,1.244845505654861,0.41633121286425034,0.20104383767302808,1.2327238859167169,0.14614223624110542,0.5721310869621001,1.4588733087729926,0.3591615923669199,0.36846082698083027,1.4323100062624432
0.19476992419781294,0.2383066230482676,1.5374595741480759,0.0904632546980728,0.5075306489998929,0.10442816570240793,0.06346872838798615,0.039471961072993805,0.08531512724048378,0.1159532988179251,0.4733746521415508,0.529686770957171,0.16646360304539728,0.12514761500035387,0.4884320193723821,0.04471978954902623,0.2992404085975678,0.9320016589844776,0.14988135884609427,0.14194019926424564,0.9275145552150803,0.04741351468857543,0.34690522884637076,1.490731866625182,0.2626079545700069,0.08402529655574685,1.468389359037349,0.005738946150628468,0.505783707169954,1.2411933531915507,0.41209522810549515,0.1785067230013501,1.2325514474089425,0.14958612839606766,0.5568319690760647,1.454426630032854,0.3569845890483332,0.34283545489519784,1.4352533571396497
0.1936447875709466,0.22277887808395555,1.5380091666144442,0.09157020140012603,0.5050602738012965,0.10393986209226401,0.06350343646708781,0.03736776699221576,0.08450380323265828,0.11069889247956548,0.46151066241388766,0.5286630246910523,0.16447641405118602,0.11711129614991313,0.4893423447378959,0.046161872595471096,0.28785173824847393,0.9323169772733569,0.150282684386695,0.12984808055962596,0.9286501081914209,0.0484482916859626,0.3337974599089269,1.4904031767030077,0.2591925504074965,0.06772221201731038,1.4692351136867607,0.008330676801303024,0.4880784402936419,1.2377404950775774,0.407193496350445,0.16205906559218036,1.2324064661576783,0.1533242931151093,0.5419439563321944,1.4494893913037081,0.35284973078432075,0.32225474279492067,1.4385925570735758
0.19191216258899735,0.21003556994217334,1.5381957469150853,0.0909083065851925,0.5043870693975946,0.10419557457721164,0.06259173416655352,0.03717294728501282,0.08327643348427588,0.10595858110954676,0.4508631896218135,0.5279435615107051,0.1616694558563834,0.11101676278740491,0.48969576341568133,0.04693007889659497,0.2784005317008493,0.9329454415532497,0.1513864413276205,0.12061329626150721,0.9291876075935664,0.04859262683172921,0.32219875138812293,1.490204373091773,0.2560147314504633,0.0517264260139622,1.4685729848838984,0.00952797675786676,0.4744458214658321,1.2361626872406177,0.40255454923747297,0.1485477252842727,1.23183181575115,0.15576884718381306,0.5291409165867589,1.4468374849704884,0.34855664921375373,0.3048273692130665,1.4411044767978427
0.19062087526254085,0.1957340422793563,1.5378622771730959,0.09066561491188835,0.504551668922468,0.10417664530713752,0.06312684853826236,0.03556318298706917,0.08253177550146086,0.10223212016534974,0.4423936407528115,0.5268553707007708,0.16047080808279757,0.10423109678034491,0.4902849913134364,0.04889770751462964,0.2695215749639863,0.9324701801321005,0.15312100755682945,0.11156403599735419,0.929885145678625,0.048613354573047135,0.31022974931677216,1.4908309477842983,0.2516442512503519,0.03883913339019475,1.4670157724674906,0.007466378866891869,0.45833726432853295,1.2346706627515427,0.39851841803336346,0.13888464125014996,1.2318278632676467,0.1542474867763677,0.5151399973582584,1.4444192234664746,0.343295005466704,0.2898209766827188,1.444659449712067
0.18691994388771166,0.181429886450915,1.5384029603326255,0.09013848779559627,0.5035458360166248,0.10371066838878443,0.06298540150937759,0.034206212970164004,0.08200180183845651,0.09904833134037405,0.4351365364310411,0.5254880090297834,0.15865734776265952,0.09879672710464134,0.49081412475284714,0.0497068814189085,0.2610272076733208,0.9310809687306606,0.15444858449009857,0.1033940071595665,0.9304872247479993,0.04545632659029635,0.2994613343103362,1.4912177913692684,0.24807446697032862,0.027286085940776174,1.4669927684201325,0.0053329846553862425,0.4449321702923037,1.2333813994842204,0.39382188997518625,0.12847852964355025,1.2315995282352907,0.15126473047625558,0.5026410421630397,1.4434696727583556,0.3375939899947774,0.27607130475054564,1.4465045811394486
0.18405488473319337,0.16955093250929923,1.5390992514968909,0.09018799980447334,0.5020347291570502,0.10366828939365276,0.06282405896603098,0.03313605406923635,0.08159362174375405,0.0972883699595626,0.4279077504245566,0.5245168349694654,0.15584678146723405,0.09369461603689849,0.49162813726537513,0.0512569499281405,0.25360841688644103,0.9304131636371129,0.15669288821374935,0.0964361877569588,0.9313385432959306,0.04117003146072666,0.2864168869599719,1.4921986269329297,0.2439770840495873,0.016000589783634167,1.4661255832772808,0.0011199577804629443,0.4316697783681432,1.2342355398679294,0.38855254627436303,0.12114637511705353,1.231748630884879,0.14859421767711228,0.4904252379622144,1.442960851737001,0.33054893255048634,0.26486274148128913,1.4487965658095305
0.18158664540668001,0.15929526084928722,1.5383510483653235,0.09023890815941082,0.501575674068867,0.10394174704072043,0.062232260408222426,0.03350516013466229,0.08120234401899934,0.0965722186737379,0.42137979340900333,0.523681364919692,0.15379583921657713,0.08846789700041208,0.4923553556390896,0.053109111518562284,0.24658121395706134,0.929646988218479,0.15878593491511717,0.08957868228959562,0.9320435251236274,0.03832118642660272,0.275557478357364,1.4900790500488967,0.24205942026973812,0.004003769873371115,1.4657612687921064,-0.0028333592774914262,0.42216932323933287,1.23306412000012,0.3812912031133868,0.11347200411395938,1.230128486338049,0.14380977555891644,0.48193526809964493,1.4420828317112862,0.3264281869515515,0.25477539734855886,1.4495730773795008
0.17834316193574462,0.14831658108290982,1.5396831902989785,0.09140194238156443,0.5008533646480059,0.10491774240591922,0.061708227087847164,0.03308794022341646,0.08066712006317882,0.09656793598837692,0.41627177604299187,0.5238199456289182,0.15066143846014535,0.08380901237195572,0.4929339876801814,0.054496354127295935,0.2411933119076503,0.9298103937730251,0.1604781908388776,0.0844082588040436,0.9325477213378588,0.033455011163015656,0.26603178479168965,1.4898503223233668,0.23944665432222684,-0.0029879892931012676,1.4662510106406685,-0.00632961536990865,0.4112913110375814,1.231845397750875,0.3751389242592424,0.10514122616372658,1.2279487262527744,0.13731576116777316,0.4744571771037737,1.441943023661405,0.32052524148364614,0.24299538658315065,1.4496352073502536
0.17344577553494772,0.14145018509079638,1.5402840458565288,0.09314760833506688,0.4994377573959733,0.1057979584645932,0.06157260682564142,0.03264898928813965,0.08029748233318647,0.09714279622639302,0.41150898693482163,0.5240181500131453,0.1481335936348899,0.07912712390677747,0.49358066694060104,0.055385761683828576,0.2362568475077699,0.9299684046640837,0.16189215611334937,0.0798216257516501,0.9330788733441128,0.02701722796048873,0.2577730119911341,1.490146695280507,0.2370684118037876,-0.010222292346072479,1.4661269269466617,-0.011123720588314246,0.40231531744735965,1.2314997088118236,0.36819409629226,0.09809564876107833,1.225358069656363,0.1321860510085325,0.46807808045372673,1.441020193037107,0.31801029346315374,0.2337160354324121,1.4494582194958427
0.1698438935371218,0.13255528320623072,1.5413018709954263,0.09550333296381668,0.49888882419478986,0.10609072974251084,0.061247023014792346,0.032724342803796276,0.08020389255302919,0.09709097962423201,0.4066750515589645,0.523405620117634,0.14577045983825382,0.07583754466677467,0.49426679615814023,0.05655136398029154,0.23154516963238173,0.9295365689474951,0.16409154442601853,0.07584852381067791,0.9336069343074316,0.023891448752144273,0.25101819252260976,1.4899842711628415,0.23472035492164384,-0.01627165495873786,1.4661023920984062,-0.015746014140636984,0.3936546435322131,1.2305083239029173,0.36309607879673284,0.09216525179555199,1.2239186405478608,0.1264553920746368,0.46181914673886226,1.4400177211162333,0.3132972270246248,0.2279650724116673,1.4479967336493722
0.16736758641661098,0.12547165987827127,1.5418543542499843,0.09734266437180791,0.49815031073498384,0.10629657685392291,0.06123011630132742,0.03249936272396045,0.0804786778954593,0.09632726885376533,0.4026275138987485,0.5228650551013525,0.14345218846563057,0.07207881885812431,0.4953506184662526,0.056756699724493,0.22666973380133448,0.9287303231363908,0.16661452515940006,0.07266590623824816,0.9344628646782462,0.019191043719517593,0.24294853461532565,1.488900152699376,0.2340877966302532,-0.021525028955345513,1.4670257714721897,-0.018864598510756878,0.386390568363191,1.2296237107033,0.359521669455544,0.08623011466854949,1.22300512319022,0.12151613970200441,0.457409316880118,1.4394171999435623,0.3081204385715378,0.22107666366041626,1.447289186439018
0.16286496719159896,0.1183159292170007,1.5424099393406638,0.09757688526204085,0.4988977922334856,0.10649623837191857,0.06114842402517497,0.032029436312454376,0.08013603216274903,0.09613741871863436,0.40053855248973436,0.522407057388986,0.14152570521506502,0.06826969464470788,0.49566898675989496,0.05717781158362143,0.22274445202064155,0.9275337652913672,0.16841620536646404,0.06978036936367936,0.9345650568483048,0.015372614904180477,0.23607742265167952,1.4884179734225418,0.2341563078783725,-0.025879427608052445,1.467544038310871,-0.023896506792811464,0.3801022785623006,1.2296447231475864,0.3570704786729618,0.082490081518658,1.2225196710973134,0.11603996237331801,0.4540141646515549,1.4387454490250966,0.3047852111507995,0.21419040920598453,1.4484630980331397
0.16126384263780405,0.11664232510778284,1.5410170311835432,0.09674745704416254,0.4988832008196179,0.10644936901539495,0.06061149933440764,0.03175176784537434,0.07983329117712801,0.09561128810175532,0.3982124867268104,0.521806613862935,0.14066968749769854,0.06598115281405803,0.4956019572807576,0.05812098420368614,0.21993673294681132,0.9268515000694814,0.1693657469673843,0.06699543523998379,0.9343863159211334,0.013951798948540572,0.23224720485715405,1.4872084664543308,0.23367071407704565,-0.03124994501606989,1.466685877619096,-0.026529133730227396,0.3753621895015491,1.2281184363390163,0.35513224503598195,0.07961521086752273,1.2220509383006979,0.11160150506511302,0.4497569419992311,1.438232203806437,0.3022579462240077,0.21073495156647504,1.4481948481257885
0.15952987133461222,0.112528029306675,1.5404389010681998,0.09596702457787427,0.4999871485034897,0.10703374866305825,0.06073044949208027,0.031259888053471616,0.07978034755899187,0.09464679527637872,0.39627024075917555,0.5216343761824295,0.14058477779695322,0.06392640479059472,0.49572104574151976,0.05825683760451624,0.21696497662040018,0.9263411979607394,0.17071880569884654,0.0649547411984245,0.9344056451507398,0.011218095354957616,0.22661922710361285,1.4867626782461878,0.2329868122610834,-0.033232185236307714,1.4658536669842754,-0.029379864338844156,0.36916033234267326,1.2273835681305014,0.35429571908326163,0.07806683270815559,1.2213275153643695,0.10695660355024372,0.44708381453291723,1.4373891022094014,0.2998811609910539,0.2071958184486416,1.44824580188132
0.15644631224693062,0.11002851778783988,1.5405279948699877,0.09541729390641286,0.49993086115319096,0.10707076011959082,0.06127829489128553,0.031693568560043364,0.07984111904161637,0.09373524602616354,0.3945979858879248,0.5212741376972098,0.1411687717809098,0.06344498234531697,0.49584215059890846,0.05827858748873512,0.21468820478881312,0.9257830944414385,0.1711859101646511,0.06304755346758935,0.9345440476491168,0.009290360148870427,0.2216684935735223,1.4857631651161178,0.2320658270122476,-0.036850302370807296,1.46538631249128,-0.032094545515309464,0.3653938817451779,1.2271486181554043,0.3547543007741225,0.07654231957366207,1.2225240867184783,0.10272522102158327,0.4444763092446502,1.4377148300907203,0.2974422603167186,0.20469675698945727,1.4492922225193263
0.1558773048721039,0.10752648865299047,1.540256580648041,0.09436756213805642,0.5001377275261077,0.10746585256532105,0.061558146942332186,0.031205542910859523,0.07964677646262226,0.09273828640540954,0.3922312650031622,0.5210046409456831,0.14171282144453337,0.06287168324839347,0.49561116380934517,0.05868591892333996,0.2125562638524841,0.9257367330115962,0.17192810408598838,0.06115868551881035,0.9342879913033223,0.007006809867110071,0.21840258108917954,1.485199624290946,0.23165359343183461,-0.038399841974633496,1.4659922495329867,-0.03407789883835425,0.36079353147306925,1.2258097808640216,0.3539915427026246,0.0772653334718985,1.2240327253395085,0.0981030860756321,0.4412730619057239,1.437510665878269,0.29476837942856166,0.20410898774556432,1.45104473703698
0.1541411379352816,0.1055416195719917,1.5400398969791775,0.0938597174503425,0.5012630899813825,0.10819662624077417,0.06150925701413721,0.03152852615267414,0.07932515504645848,0.09124147027332068,0.3910153647599387,0.5211151492392917,0.14132421672396683,0.06218034245637242,0.4954229566166323,0.058484769984750475,0.21157443646273447,0.926059924884031,0.17248466520569766,0.060701347810032724,0.934037691548901,0.006270883711293172,0.21653616822987806,1.4843778790151445,0.2318443454715537,-0.040921154452092115,1.4658143952783247,-0.03504664825502386,0.3597276193381456,1.2254710549909924,0.3549393728738007,0.07942049934965828,1.2265286327104117,0.09515605977805834,0.43878687783425174,1.4389164815112019,0.2927756422858959,0.20347788001317,1.4542913563681137
0.15381642175188034,0.10428248898334436,1.5404154204074167,0.09456041935432255,0.5015809989520833,0.10839270108555929,0.061304055630481726,0.03183465732487346,0.07974177277791349,0.09101068616414486,0.38958936823915363,0.5208269656234077,0.14087403868234313,0.06205101290899659,0.4959159334067072,0.05926518336591108,0.2111314848790799,0.9262848543161692,0.17302624793633337,0.06009281929426701,0.9344629604707988,0.004617340037595649,0.21405903650409064,1.4849331058701714,0.23170376051508232,-0.04152999296308285,1.4664635957547723,-0.0358209013478734,0.35708361491159935,1.2257821079442153,0.35568125402350886,0.07988054255327456,1.2281785935273921,0.09217170681161364,0.4374449050383592,1.4400845804826694,0.29055740675606295,0.20135368360015723,1.4565102739720162
0.15199094295789192,0.10422248648375354,1.5402693615374248,0.09415934796027232,0.5022741063140433,0.10894663906438086,0.06119979938118266,0.03143773214729058,0.07997931558691507,0.09094130934027969,0.3889343863355118,0.5210146740865886,0.14080626023245793,0.06180621890479293,0.49614018395900433,0.0592631051998491,0.20977256544496525,0.9261735153505901,0.17444415600787305,0.0598263959497223,0.9345680467396581,0.0036050881585608942,0.21237588138021185,1.4852943679880648,0.2335897950967756,-0.04155602448181611,1.4663081303230603,-0.03683831275161637,0.355616869955584,1.2262667011153192,0.35677603605427843,0.08210338084053898,1.2287628859996245,0.09053751364611438,0.4355109712875441,1.441104493910722,0.2889796909245294,0.2004509766574017,1.4579594569338687
0.15097282309893764,0.10435186904126628,1.5401685551012891,0.09353499901528958,0.5016654642356094,0.1089471912678367,0.06159154454709897,0.03176882266343031,0.08036338891754749,0.09070138600491928,0.38851530994026073,0.5210748644798362,0.14114295214172945,0.06205875042160009,0.49654137121901754,0.060290229665002186,0.20956273950604032,0.9264124228515357,0.1758559664624856,0.05991190535800066,0.9348839935011819,0.0020471168897445266,0.211280373059928,1.4849092653589429,0.23454806070254702,-0.0419397455391926,1.4655517350818295,-0.03675352321838747,0.35578398699323555,1.2263389707350139,0.3582445406622296,0.08414159374748842,1.2295446547366984,0.08997401778252093,0.43596850931228276,1.4414514380848433,0.2896671087791836,0.20119928964613717,1.4591768805480827
0.15112157052700395,0.10378025619527469,1.5396515553740628,0.09343142484210354,0.5026047921518969,0.10901689608537979,0.060969243800125375,0.0313919787923523,0.08033726458800168,0.09035915079812834,0.3892044216027486,0.5210723640311886,0.14232621841925097,0.061849314991454005,0.4961513171682887,0.060780556021927445,0.20935922054161557,0.9260896038160256,0.17640278275582738,0.05975296612383599,0.9345436340043491,0.0010580955630603264,0.2116823343824137,1.4852995761175545,0.235212065968958,-0.04163932945203322,1.4669688576296704,-0.03751536798442772,0.35589788946953144,1.2265363371516387,0.35894428104763204,0.0851622908427109,1.2313760663365096,0.08873092211776984,0.4355357139492427,1.442138987907377,0.28807888244990254,0.20175642743397168,1.4605330674997041
0.15182706040567875,0.1035897113452114,1.539553190307963,0.09206885013736596,0.5028609444687134,0.10880037024277071,0.06077602985797854,0.031892617277910526,0.08013204923378602,0.08985325722457606,0.3895260289601488,0.5208823824810136,0.14228710649249277,0.06214684933331348,0.49593738140892163,0.06141406208272468,0.20923135976869311,0.9257712607343673,0.1781613073178598,0.060496342832734994,0.9341873707323483,0.0015063297498532611,0.21050667666543424,1.484108032723036,0.2360651894270458,-0.04067587229621605,1.467373121499308,-0.03816763277890725,0.35503824502996717,1.2256735646977432,0.3594136662319549,0.0862373495138144,1.2316448145440684,0.08720615072955752,0.43451114325629603,1.4418517469973957,0.28773552084760684,0.20254737035973086,1.460694388920317
0.15204297875265335,0.10256563435357849,1.5403166235638914,0.0910206781517955,0.5036302563506776,0.10885294896474011,0.0605209236612191,0.03264255254603428,0.08025565946446876,0.08975018630175764,0.3899869410963962,0.5208552230180217,0.1441415396609959,0.0632820275553889,0.4956047662231152,0.062152846794806815,0.20973165063432286,0.9258202395379784,0.17967648502136646,0.0615884261832778,0.9338867033266788,0.0011450594312447783,0.21035729151638008,1.4839609764006658,0.23605152451924452,-0.039890308533367114,1.4669726094255,-0.0387917755385169,0.3552516823781723,1.2257838213285377,0.360212851122334,0.08784312787555275,1.2321103764299113,0.08610496788112675,0.4354020632165182,1.4419849268679015,0.2876506048227807,0.2024745612519668,1.4617308981503816
0.15234988423747153,0.10329421498982003,1.5398333914387798,0.09078261870200642,0.5040274760997673,0.10821569581676374,0.06071888131610871,0.032311023153601334,0.08011010802125848,0.09012354384264855,0.39068207385084436,0.5202941842826627,0.1451639770245999,0.0643902867121001,0.49518175697004463,0.06309738670802599,0.2102092230388555,0.9252024663805032,0.1816890716336808,0.06292068441045247,0.9333823372480696,0.0018165373259720944,0.2106389985830291,1.4838564194470354,0.23633173759165538,-0.03940593209499521,1.4666148059611162,-0.03930712474060344,0.3545640427756281,1.2253166146464414,0.36183522578654775,0.08889818687020255,1.2327881180339604,0.08526837562301307,0.4352253276866613,1.4415066613825136,0.28720161503449054,0.20352579978615856,1.461738065571762
0.15186917263393002,0.10431853496589365,1.539453562971422,0.09066712453079503,0.505204649322585,0.10800048684345645,0.06093282005797019,0.03228768514313501,0.08015020175675527,0.09060889290057303,0.3905620082689641,0.5197245498487112,0.14614668014846938,0.06590237663720581,0.4949567707661497,0.06441101561081285,0.21178131862448257,0.9254391379206718,0.1827418959620735,0.06427040079795156,0.9331461701414666,0.0016859161864500858,0.21090662876936747,1.4841359296454129,0.23768716943232707,-0.038888712292636095,1.4664460028936008,-0.04029899085430721,0.3543896545184971,1.2254887220522863,0.3625688246755248,0.09183429686243039,1.2336184044181442,0.0842187814985868,0.4369864961609529,1.4409875180011233,0.28730716522711863,0.20452806301132542,1.4633239192513032
0.15181745580809158,0.1049170551747201,1.5390834487879668,0.09062595161215001,0.5050834656941454,0.10701585041745786,0.060570742191266055,0.032933630168880706,0.08010782841357615,0.09065243766605752,0.39235601605512715,0.5192634516130579,0.14736428662302967,0.06685250446536714,0.4945512637074317,0.06536453962272172,0.212906874794719,0.9247397417124736,0.18484284417541139,0.06631946461831424,0.9326767607450721,0.001694586713799324,0.21010115788342582,1.4842691071705905,0.24036243170143742,-0.0378099501514287,1.465944712238371,-0.041347093820655725,0.35411769572569146,1.2260906956015567,0.36405312980849397,0.0944404344673959,1.2333376113217838,0.08365415938471125,0.4372842596364556,1.4410879008675173,0.2865122304271646,0.2040576235945995,1.4637819446484044
0.15261581494346724,0.10380690386323833,1.5398022732255003,0.08997897027011012,0.5049817416349547,0.10722109970170368,0.06068013434944313,0.03323442638309495,0.08030503735574632,0.09122315555952018,0.3933800212364684,0.5197715180245249,0.14744914889741262,0.06750489765950102,0.49472807006458724,0.06647284753550471,0.21385040085093757,0.9252445783413515,0.18676475303057807,0.06791683208636289,0.9326904131299021,0.0019633871918464585,0.2093490676088102,1.483226874641098,0.24201367660903172,-0.03624398138172865,1.4666307414818929,-0.041347769045356746,0.35383475701412553,1.2253593032522163,0.36631878302477117,0.09623439602687874,1.234486028964744,0.08214428090350656,0.43783031513493653,1.4409075921643533,0.28588704658257574,0.20637705439682444,1.463683925035016
0.15354392171145578,0.10562883912188019,1.5394573849686721,0.09059057312047106,0.5047195531336119,0.1073309227645683,0.06101200217083298,0.03328109250326851,0.07990365292723917,0.09271117932614797,0.3949962598470961,0.5203866849190741,0.14758234062462405,0.06858260368889516,0.4942830452527752,0.06686288738722042,0.21483042481524112,0.9255103304236474,0.1877483729138902,0.06935486151993045,0.9321582454087709,0.00204076753345849,0.20931535226966494,1.4832071678974217,0.2450571496014902,-0.033402395963098616,1.4669349183090177,-0.04152522930514207,0.35398304432822375,1.2254890475216498,0.36965329003295855,0.09813709828835777,1.2344187706937118,0.08197194056599454,0.4380430798536967,1.4409996146402306,0.28735829879688657,0.20562286699015223,1.4642089360281088
0.15420133169622863,0.10667465322704654,1.5394138242017301,0.09028129242973648,0.5053320448784108,0.10702214641820888,0.06143780789382484,0.03253161625914832,0.08039178910820179,0.09325082143934767,0.39612949839067607,0.5202122920537188,0.1480020947475003,0.07064068203151133,0.49452118754112256,0.06825927291252307,0.21559099453420671,0.9252137810089147,0.18945871816222767,0.07038504140010803,0.9322846646036871,0.0028366518187804713,0.21003543535598101,1.4829786761067518,0.24722320339381945,-0.032811796772447305,1.4665284589140648,-0.040592134558690554,0.3554642991585483,1.2256635127740816,0.3712446422072375,0.10159676909677548,1.2353468011000455,0.08163994504042611,0.44011702009633175,1.4416639025059679,0.28532333747825606,0.20658593062352532,1.4649779435419346
0.1553339460931295,0.1065467056207122,1.5397357839706423,0.09003940197390524,0.5052524717355253,0.106818676014152,0.06150299203965244,0.032842444931218406,0.07996512447078068,0.09393538382090696,0.3967943673870921,0.5201992456066394,0.14826448937428488,0.07170231536929492,0.4939814026040839,0.0694089011272743,0.21684258331404682,0.9254929019506463,0.1906639790587243,0.07165103782183557,0.9316559438842497,0.003817412686137821,0.21029132137602763,1.4832951224500683,0.24865543600879148,-0.03159529701044732,1.4675828162345061,-0.04140543680467949,0.3559185286261839,1.2263978039210586,0.37304551406030556,0.10255663210289415,1.2364488138923635,0.08140551627166426,0.4410726852767985,1.4418844104540756,0.28539193932635293,0.20827885386395284,1.4650790223754744
0.15701679868327398,0.10816319963797287,1.539084629560669,0.09072191978745359,0.5050262521171899,0.10665298272568391,0.06190321831079665,0.03360034253667103,0.08039584505872309,0.09410755061723323,0.39816808487450245,0.520450059090762,0.14884157040490587,0.0726352472128496,0.4943658394203909,0.07086733381012443,0.21765493804007874,0.9255771820536252,0.19346132087966592,0.07360076277065676,0.9318090247918326,0.003528592890726587,0.21000554520339,1.4835014894258605,0.2505703444630129,-0.030224954203201107,1.4668227369761762,-0.04069564362686556,0.3562869838465158,1.2268097299388157,0.37431597927524746,0.10486281716914617,1.2358877006379536,0.08144823324063699,0.4416990864996835,1.442563818084245,0.2880786434021942,0.20782396805840497,1.4663051461823597
0.15776934218586183,0.10812748232962412,1.539784314745562,0.09056164988997999,0.505896516883224,0.1069447852543426,0.06219818688011596,0.033257143618238984,0.08010056790053555,0.09409851750394102,0.3986040600153606,0.5206245059849636,0.1496989651436145,0.073447286810349,0.49383391179691766,0.07214693269954559,0.21842597394532384,0.925968052819485,0.1954596502493672,0.07494327705764903,0.9311665497381248,0.003905263569951018,0.2098878593353953,1.4831381536202415,0.2538047425510125,-0.02933728845204131,1.4675329852730417,-0.03859886111418045,0.3581809195661287,1.2273068924709547,0.3776665925870939,0.10756676438573069,1.23772700660223,0.08227000545337232,0.44233469626553296,1.4442656276080572,0.28858955808852477,0.21076842472987561,1.466958077631212
0.1580238639495134,0.10971039157321805,1.5397264339164918,0.08990902847749999,0.505324867405735,0.10657988839917153,0.062214346745921245,0.03320409534994454,0.08048902101682091,0.0940900273648165,0.39913144458048383,0.5205416503124871,0.14982329030281705,0.07400629887195127,0.49414349765272225,0.07331560794518394,0.21884274925689595,0.9259062017793427,0.1973371111476947,0.07596160812402146,0.9312916067128629,0.00527889707800771,0.2099816606471685,1.4829567172053604,0.25533549100024355,-0.028948468876568934,1.4666963432003315,-0.03807499986551972,0.35843530557565134,1.227356577042053,0.38001102275520227,0.10910075643168746,1.2380146031792407,0.08285070919354734,0.4431569798225783,1.444074851372333,0.28962426107057293,0.21175171619304428,1.4669777684304075
0.15994460233728658,0.10948881223082614,1.5398188860254998,0.08969047257093918,0.5049462825607022,0.10638877546855502,0.06200055607127767,0.033862162645521304,0.08062274295429767,0.09451453732581488,0.3995804426331705,0.5205553924515851,0.1502901486495797,0.07408121768859623,0.49418427079889976,0.07380034150587664,0.21936670239620057,0.9259455816751629,0.1977694810945312,0.0764454833193172,0.9313282780023264,0.005565027607418884,0.20912242848609686,1.4837349991677096,0.256421504541814,-0.027206631886468702,1.4659417186936599,-0.03837956781619183,0.3581298534722123,1.2285698437646901,0.3821667726664807,0.11108575501562012,1.2380089219973385,0.08319654095176976,0.44377897022655427,1.4445480690272328,0.2902675307712908,0.21264028240417818,1.466854959476384
0.16058420247036378,0.11010776346322243,1.540016096549686,0.08953132770330617,0.5053991732779836,0.10639793029753507,0.062094466534654925,0.03365112157876571,0.08041805042419492,0.09472964967360989,0.39993427938677484,0.5205318203444916,0.15030332361104684,0.0750884219020785,0.4938752379924014,0.07482117759932956,0.2197917748662133,0.9260063405026895,0.1984696189621354,0.07659042954793743,0.9309545026631189,0.007985742271851209,0.20944114413194212,1.4845279128880091,0.2583790410546418,-0.026139314425554325,1.4670494672432102,-0.03868940643068604,0.3576307936518125,1.2293690720197121,0.38366616081051536,0.11192729698684108,1.2387230571818462,0.0835170815863035,0.44353896800305564,1.4448869846213386,0.2924929014190423,0.2158381444058415,1.4668083414003574
0.16227485032995415,0.11047827477332169,1.5398144188769354,0.0900556503126037,0.5055941861636299,0.10630789610294286,0.06223819620759876,0.03364687363717025,0.08025658942691566,0.09518391364543613,0.399958936189921,0.5204006260246392,0.15049714222329572,0.07540232157534514,0.4936761649157404,0.0756178364558328,0.22049717521035353,0.9261893256068661,0.20012258955071996,0.07801143311843736,0.9305823965065574,0.007779284251634835,0.20938552247316602,1.4832937907904278,0.26015829120046385,-0.02612230878629831,1.4657439035538478,-0.03610304327665534,0.3587303894978679,1.2283177512970147,0.3848983953464904,0.11272088896610337,1.237593218938551,0.08353344017389668,0.44346083856520246,1.4457401950342579,0.2934523811262498,0.2173169021246851,1.4652509193202687
0.16338273219339566,0.110448313390112,1.5399521046646893,0.09002891976600791,0.5056898168271274,0.10610693883695117,0.06239001955522502,0.033972189262284784,0.08041906719783243,0.09508152053176544,0.3989802751180401,0.5199270258176661,0.15126556833463561,0.07519058127086099,0.4937601234071541,0.07648159703235632,0.22042003191841292,0.9261568260486606,0.20113059292659138,0.07806933124562485,0.9306396688515626,0.00832276513939261,0.20760578123207973,1.4833593715686482,0.26135141030828335,-0.026064686847480745,1.4664044146794635,-0.03713504034022063,0.35779408640689475,1.2291461402431478,0.3865336671362309,0.11165912037818712,1.2378180427436352,0.08341165560251755,0.4428156234232935,1.4459574232395351,0.29380342833708595,0.21950676558507848,1.4634337762599732
0.16444530826951279,0.10995498145038188,1.5399755613597843,0.09016807596495267,0.5052194807382008,0.10619588034564047,0.06236909695675272,0.033794830873128,0.08052577729807604,0.09512563779936664,0.39924714947659834,0.5202030483542124,0.15288962206282675,0.0750023573381888,0.4935095677591505,0.07641916511908772,0.22030889208433568,0.9262635810091244,0.20114721052845114,0.07801487976511776,0.9305603751064102,0.010606690319933172,0.20824369161513076,1.4841999694491046,0.2628841262727716,-0.02586900889832886,1.4665600416868898,-0.03781816333512728,0.3569095557536633,1.2296442009457624,0.38709030163175495,0.11135198769729021,1.2371322259845827,0.08332772846980303,0.44200835484758483,1.446091353331741,0.2961877196959107,0.2209881444365445,1.4626274308088953
0.16529591866362234,0.10981548736206259,1.5399129020000932,0.08992273412737219,0.5048740961619183,0.10585507181454062,0.06251817624559056,0.03333742246885621,0.08076652107893188,0.09538953222034485,0.39934813222848065,0.5199687856609235,0.1537472070093741,0.07545530891808408,0.4935050088412212,0.07679094277080989,0.22016796476757683,0.9259307797953714,0.20146266180877453,0.07784883326328046,0.9306231236608885,0.011175916737087642,0.20836576437851534,1.4840552035147856,0.26385469811048146,-0.026804640576142173,1.466281930213175,-0.036951403844247784,0.3573859600703352,1.2296514039972273,0.3888052547712574,0.10942069544173717,1.2366660402463125,0.08274265436665648,0.44349439981195016,1.446503732860216,0.2996018713352017,0.22138654175289765,1.4617008663770306
0.16634463684251033,0.1098361335822726,1.5392350716998133,0.09046345482047413,0.5038601561042713,0.1052395914989287,0.06276397903745944,0.034106661425692616,0.08068983739465663,0.09558595400935958,0.39833995268898764,0.5193629496908346,0.15484014594874848,0.07592352585731162,0.4932692087821795,0.07724416453310139,0.2203578473714485,0.9258629892802107,0.20180280660986838,0.07794448283758094,0.9304698484547272,0.011585041626908012,0.20869096275272125,1.4842817952123502,0.26316122092481636,-0.026581954426666797,1.46575541421191,-0.03770714672040691,0.35682714774476376,1.2295783958025197,0.39020417490173465,0.10780624218843496,1.2362066306131407,0.0826870054883681,0.4433336777711464,1.4458812878291132,0.30309196641832026,0.22500184006414808,1.4593849870575606
0.16678536951848988,0.10925986628531778,1.5393919676367653,0.09045040674843106,0.5034255957070114,0.10503754818324956,0.06235799085200562,0.033955650053283715,0.0807200736470848,0.09530458550465074,0.39898198490569003,0.5194410414835782,0.1560362359642103,0.07698106284318522,0.492813331869755,0.07723347284323055,0.2196315225532702,0.9253492737437412,0.20276859020608795,0.07806344336780534,0.9300451053655766,0.011637719836117636,0.20824344388538357,1.4840075967602795,0.2642612902697001,-0.026850383190365396,1.4656134474387217,-0.036273320213850505,0.3577679849799768,1.2298574983293213,0.39072325670477165,0.10639799861636354,1.2350720406937779,0.0839679442012174,0.4441845245408596,1.4462843241825252,0.3073672116314746,0.22721975186513424,1.4577533247832695
0.1678931630373503,0.10971081937756225,1.5385928011736207,0.09043344564815328,0.503709657739446,0.10494750030451311,0.06291799295241467,0.033561302431161184,0.08043072989628038,0.09550170759094323,0.3989412832586299,0.5192592351517068,0.15738590117182497,0.07785898874318346,0.492212892840481,0.07858531703781613,0.22011497569775085,0.9254441881987532,0.20361317863951928,0.07808871912309039,0.9295016112848232,0.011386295215927968,0.20793090778759396,1.4837348771977898,0.2662075378637912,-0.02734460210446781,1.4660123457150402,-0.03386377671194123,0.3582015004739887,1.2295331194756327,0.3920847595084235,0.10573161618397592,1.2350571426238826,0.08431238567370963,0.44487893509045895,1.4469951989406837,0.3089958325216983,0.22897647969335083,1.456498440007407
0.16871696276670534,0.10997291171168568,1.5375091988119491,0.09112153595119046,0.5033523104822611,0.10471988544846511,0.06308418467289932,0.0334989294692908,0.08038591817795934,0.096122776197225,0.3986874683395697,0.5190625614507871,0.1576813374861068,0.07917459360540784,0.4919869392847878,0.07923744164199006,0.21961148521455842,0.9251457511333825,0.20405144476577755,0.07739674770094417,0.9292542577893325,0.012179048637195827,0.20792509148656182,1.4840594591964218,0.26454015195988995,-0.02775383833616727,1.4669824655553758,-0.0331326797378988,0.35816231309939817,1.2298462481578623,0.39151477886538505,0.10219626032172564,1.234853385668628,0.0851882378989782,0.44475139944127456,1.4472647091408535,0.31151980866600537,0.22911761928052343,1.4553634997257248
0.16968029654962097,0.10945926210073444,1.5376163826271882,0.09113915000521587,0.5034698067650614,0.1051792949031464,0.06319035251339497,0.03360843380441732,0.08064901860554857,0.09741962898549902,0.39912092825137896,0.5195837472614222,0.15893325936478392,0.07983007937516796,0.4919256982246669,0.08004221299741054,0.21974360544377913,0.9255144907611885,0.2059452230429472,0.07847751461211265,0.9291225327932373,0.011127746950391166,0.20718364182792992,1.4841294458786631,0.2662842388026008,-0.027794828200093893,1.4670907770329231,-0.03301482990060237,0.35684174415927356,1.2293666746150866,0.39308834581781193,0.10187737609682052,1.234717486371374,0.08403892954857567,0.4432710415318772,1.4475307411879157,0.31162492195462715,0.22784875834859997,1.455231492131157
0.16987151874072515,0.10779401550263303,1.5376403247411117,0.09080123189835158,0.5033057698809267,0.10534121765207173,0.06258714586098324,0.03341451134927439,0.08051447568424862,0.09724960408121648,0.39894514018141386,0.5197413521726695,0.15914005903157255,0.07911838442605136,0.4916563191110937,0.08015543423553678,0.21939272404373833,0.9255952616493237,0.20601116077728968,0.07806997925082802,0.9288683510847098,0.01232000746286297,0.2057855704483145,1.4841350749312887,0.26647472966525665,-0.02885779800984227,1.4674301677565673,-0.03319619950250583,0.35579617556116033,1.2298326201618652,0.39298397897954945,0.10181546035904057,1.2354591490507623,0.0842847444838276,0.4423683377182449,1.447702868449716,0.31170472074782474,0.22723626658123514,1.456345012804721
0.16959152362492905,0.1065861379099932,1.5375417708361123,0.09052682357972122,0.5032255200997495,0.10539180631333316,0.06229834918695779,0.03342102951245085,0.08070037842022419,0.09729821152437186,0.3987122743714129,0.5197485389342829,0.15966285086755863,0.07855212932495384,0.4917237371148021,0.0799695497719858,0.21848802840610396,0.925297834438179,0.20617790154999988,0.0774870772042015,0.9289724240033365,0.01224700715712526,0.20340971911713332,1.4844260142106216,0.265759331649693,-0.029137519499201684,1.467707697285745,-0.03329480623459617,0.3550517528359697,1.2310962641270817,0.3944844359690049,0.10140972792382366,1.2368791276391116,0.08570358260316432,0.44186744349048135,1.4480471366099956,0.31076600118281816,0.22533736929105957,1.4577045401018809
0.16858674893737433,0.10524530873966519,1.5380612634708886,0.09093675301380831,0.5034667469731,0.10596621273616295,0.06268239623622834,0.0330840168792557,0.08113399717486569,0.09674130116408287,0.398417700532027,0.520198041192593,0.1593784269403372,0.07812856261824193,0.4923200616452007,0.0808202901499573,0.21885494703479128,0.926099660494124,0.20643387662426405,0.07732901114250153,0.9295134225971282,0.013614378423332836,0.20288322705145387,1.484450930342954,0.2657293634222896,-0.031125654566065097,1.4674190468899975,-0.034054642090192454,0.3540946881216597,1.231258221212317,0.3952107218058295,0.10056662467194098,1.2376739636043783,0.08532012257792905,0.4407052594953297,1.448075317893777,0.30997894046617247,0.22439375051559846,1.4579732046451053
0.16984927552767157,0.10446120084633417,1.537887618368118,0.09142219006458309,0.5030687085661072,0.10583940840634032,0.06299869997881641,0.0330817545549219,0.08071675554663221,0.09759565517021816,0.39855065717179455,0.5201945650946682,0.1596218279848259,0.0778312442510145,0.49194637068488534,0.08200687068081607,0.21862085015894753,0.9259508548157731,0.20760833028961426,0.07706952690969612,0.929045362426096,0.01401301290447786,0.20125568814626127,1.4840252862827557,0.26714438960961034,-0.03116675692447778,1.4664405018985287,-0.033071973763215495,0.3542945645980491,1.2318100645694738,0.3968291204960687,0.102570967140973,1.2379899516272685,0.08553802502009214,0.44055925743558355,1.4491926879655548,0.309806257302966,0.22176242901005808,1.4601461787100805
0.1690141327209917,0.10354266883638806,1.5379903172133915,0.09057061059078388,0.5032296380367517,0.10607837230647366,0.06265653077357336,0.03381446231158938,0.08068767255006357,0.09759328076586707,0.4004248721293214,0.5208593816993323,0.16012499357852045,0.07761776800105176,0.4918241075946844,0.0818780495667126,0.21810718827294412,0.925538867138777,0.20837787188487145,0.07737672052216704,0.9288950660928249,0.014222089091061419,0.20169234263333352,1.4845738134526738,0.26770074272900457,-0.03238335916642613,1.4661411381181353,-0.03272235058522256,0.35429301148550285,1.232071927225257,0.39816552466707317,0.10293136058958871,1.2390708138098354,0.08534989122513173,0.43969769971293565,1.4500838008407697,0.30950340856688663,0.2193395341756203,1.4620477721890528
0.16904712380425405,0.10266119373892783,1.5379013843519784,0.09070874808946751,0.5032698968086298,0.10618057993848119,0.06297915857921092,0.033322174198860605,0.08075050103331403,0.0975501280727942,0.4007379569394997,0.5210200921213884,0.15982082986782958,0.07746096873185902,0.4919902697692823,0.08227780152739224,0.21807960930676729,0.9255706776398184,0.20878914273766744,0.07734084288197587,0.9289804491711787,0.014880350111946446,0.20187199661321006,1.4848692046809104,0.26772015199870575,-0.03313223097805549,1.4652502262131573,-0.03135261198419287,0.3543701769253122,1.2321785406036816,0.39800880193414095,0.10387898869468676,1.2390901724436467,0.0855889567266723,0.43931888814584474,1.4509782177635748,0.30912159921714627,0.2180143304652289,1.4631485803754258
0.16878665786979233,0.10169224227252774,1.5380451714821728,0.09103546880229224,0.5039911219090135,0.10617876713151937,0.06291395770834804,0.03260946500029999,0.0807840761739531,0.0970434145935805,0.40239466468288104,0.5212669094442954,0.1598033656322012,0.07775219263051586,0.491910833806322,0.0826366576444054,0.21793032266446247,0.9250305992451534,0.20882095927207744,0.07692146464266067,0.9288971100901128,0.014597500593930172,0.2011042678087505,1.4848970485184647,0.2673793959833535,-0.03323505109785085,1.4663942979644677,-0.03159412924797691,0.3538629537292312,1.2323596045985854,0.39931288995242503,0.10201152199611135,1.2401288963301074,0.08548644688784582,0.43879008722724094,1.45109028974233,0.3082773678775013,0.21593445050004,1.4634310708182023
0.16841579813532875,0.10054189101987057,1.538129838750259,0.0907907893244502,0.504543085606486,0.10650014538941176,0.06288937460140595,0.033013837090147984,0.0809191057949897,0.09719311260884747,0.4026525107749601,0.5215139228466091,0.16028605062274381,0.07758551126336066,0.4919858838896923,0.08264102274531986,0.21851866702880463,0.9254129768050707,0.20841403382326257,0.07713338366263861,0.9290684899473882,0.014591985473517127,0.19976776196605814,1.484357663751204,0.26760432337477463,-0.034188540042276554,1.4653404910941488,-0.030551865311800926,0.35448402907905047,1.2328227309315443,0.4001196154235269,0.10296908131340754,1.2405719942641715,0.08651184726675923,0.4385447401961764,1.451900590737159,0.30823992326946964,0.21553426063182213,1.4642226140389747
0.16913269671934372,0.10076423972890879,1.5373811565683764,0.09204690961437817,0.5049028610020538,0.10733058854991703,0.06289939865577092,0.03309589720521404,0.08086407963024758,0.09760623787448765,0.40307099732553914,0.5223644322648766,0.1594236110351316,0.07807250097316434,0.4920908633116314,0.08306904792208276,0.21789376928910126,0.9257938856957619,0.209564239894402,0.07714150541086486,0.9289442965128841,0.014599841043747428,0.19930250368376437,1.485024865716599,0.2682681409186077,-0.03360455398718965,1.4648044357159746,-0.030151148489929263,0.354208908215941,1.233532042955472,0.39929833472637055,0.10364048514411775,1.2392193213236198,0.08720637733070334,0.43824313400642484,1.4524601687433218,0.3086886581955925,0.2138411500569789,1.464556874787687
0.1709119665596771,0.10193390804517735,1.5367969643076713,0.0920460998043513,0.504986007699705,0.10765265318720715,0.06267665379774685,0.032995482491544464,0.08099346620009532,0.09745363935982794,0.40438409323288677,0.5229960071272112,0.15986477847130529,0.0780744008224779,0.4920578990337251,0.08329428900951087,0.21775985116874474,0.9257618633437158,0.20974460543980056,0.0769673468828409,0.928942355849978,0.01507940112670226,0.19825704244249986,1.4842435528675226,0.268137761033029,-0.03308259264717774,1.4654370195592272,-0.029857773602081587,0.35422902672699264,1.2334393053724668,0.39831576382829753,0.10307681094488977,1.2387053890951527,0.08669683391167808,0.4376078159011081,1.4530502487659585,0.30820482195455656,0.21349346110773892,1.4641361674299214
0.17031289473834144,0.1007012477509386,1.5373192277426395,0.0918883192884553,0.505250609846746,0.10801989766164725,0.06279885396982408,0.03301623738602018,0.0808751788469492,0.09728138418741593,0.40475223402118415,0.5233934509368169,0.1593445381137143,0.07695984161888988,0.49221342201088014,0.08322084636303448,0.21762669842429355,0.9259336023228031,0.20985177428568905,0.07699173163325086,0.9290252974609184,0.014340112738612078,0.1987001593908707,1.484586292218322,0.2682382849937508,-0.0349717403584967,1.4652712779548405,-0.030310465358799474,0.35424116234001063,1.2334663694814263,0.3974103987448111,0.10358123460007267,1.2394177717404795,0.08587109443631101,0.4374573963695886,1.4533418810988539,0.3072225809735774,0.21413668295502103,1.4647473387988907
0.16912272770517192,0.09974381108917757,1.5374960783553488,0.09197650833859425,0.5047624073765956,0.10820919328157934,0.0626135799831793,0.03252470342428752,0.08095317425644094,0.09622052580269812,0.40651994976427935,0.5241296855537626,0.16017892249697938,0.07666746676156509,0.4920300783338926,0.08276695097218806,0.2172630068812816,0.9256961023641005,0.21053227428022264,0.07765123161384435,0.928855092184433,0.013791036463861853,0.19750914733231667,1.484796664308793,0.2684722200447736,-0.0341614331334535,1.4648980140813732,-0.029766437063467585,0.3541377686945466,1.2341600483772073,0.3966547666061264,0.10487674019599262,1.2387748456993202,0.08617339562506604,0.43716288085408334,1.4542302085916081,0.30727165804009826,0.21389007180577846,1.4651769968464645
0.16955135557395984,0.09977589921391747,1.5370863071973682,0.09205814089115881,0.5048378009072771,0.1092213149276969,0.06267479082154312,0.03272490319384491,0.08111712163152424,0.09692540243476272,0.407102506159497,0.5252510932308972,0.16037902828537343,0.07749493747009974,0.49208878715332594,0.08234415115331127,0.21736886150882212,0.9265431756866446,0.21015413319567985,0.07779586823634925,0.9289822201249279,0.013951377192912905,0.19619985374286533,1.4848610051277373,0.26819759561946493,-0.035340161806629335,1.4647472000760484,-0.030797320764661667,0.3537916092524171,1.2350446225553464,0.39625538548025707,0.1047505748893516,1.239199240760584,0.08536214126813699,0.437548373135551,1.4547209279447033,0.30673842111102606,0.2143265911451919,1.4652686618577797
0.1690930223713174,0.09877170234514149,1.5375995752261715,0.09235777552278773,0.5052143809553481,0.10914489212506585,0.06274386262165955,0.03268840130116959,0.08105191985923835,0.09653164769973384,0.4078453297531322,0.5252743426008143,0.16009707711486493,0.07737041185798525,0.4921174285145944,0.08252520007574199,0.2170634777415425,0.9260983278926476,0.21117823142974296,0.07826801812122378,0.9288572831180735,0.014241068478483889,0.19637941017022426,1.484703294606179,0.26893616154284755,-0.034821590083546815,1.465705731369365,-0.03109653252261008,0.3539142358448399,1.2349555302702497,0.3956467599592677,0.10488434447479517,1.2391706282241974,0.08533550645050314,0.4370214298351489,1.4547333901748185,0.3060279699762633,0.21455859663249338,1.4651531674827964
0.16885471082200684,0.09906834807901055,1.5375210673521325,0.0922661544944851,0.5055543718610329,0.1091724825156479,0.06268694804563552,0.03268661459006707,0.08127405770026162,0.09670676731053258,0.4096549370631345,0.5256363163662777,0.1594375863851849,0.07623540154103366,0.49260543297524195,0.08166108705605128,0.2184409571636625,0.9262156957176219,0.209455968582948,0.07887819217579106,0.9294618265810858,0.013974909402529026,0.1964940860023935,1.484645402921256,0.26807296926155244,-0.03499062052869715,1.465037627663273,-0.03247319749862737,0.35355171976717925,1.2348017675372513,0.3952169388787159,0.10497226196648077,1.2389008908730283,0.08353665972052375,0.43706627405173937,1.4546494789948523,0.30638757654128085,0.21436377340184953,1.4653344160503101
0.16785188370829773,0.09981365984675589,1.5365854682869182,0.0923018350414156,0.5061958478554897,0.11013741076928656,0.06213203007885331,0.03232642282043062,0.08055941100642074,0.09669292051678754,0.41236831339414615,0.5270813694614379,0.1590364037089358,0.07546045652008647,0.4918917972774711,0.0796473729540758,0.21901810457300785,0.9265513868507349,0.20725003745626722,0.07925845055944794,0.9289467213566716,0.01473713454235593,0.19719676435675967,1.485249379865925,0.2642383914732584,-0.03691036313410042,1.4639188439494037,-0.03391442774568696,0.3535013108014121,1.2353564428865846,0.3951101177446763,0.1044186676059517,1.240779366590602,0.08217398699217975,0.4371408431981864,1.4551136699513147,0.3055730701275163,0.2149421058578929,1.4663798014790328
0.16881171714823193,0.09938277302546449,1.5367840087204743,0.09222108515491347,0.5065797392811019,0.11213337406876255,0.06211414019452727,0.03160196098810217,0.08117668352983384,0.09747014263286695,0.41607912358665494,0.5297942028523016,0.158074940201897,0.07452300450181439,0.49276275749809423,0.07977233830566856,0.21881293376516156,0.9273191496032874,0.2088796640231241,0.0804428575078068,0.9295017406753457,0.014140722619943116,0.19675307159800617,1.4853113667839244,0.26819067661133095,-0.03589782900686294,1.4650013859377125,-0.03425050112835081,0.3537014067264692,1.2357635072683906,0.3957582114300508,0.10486330005101224,1.2396043867118487,0.08126765080231618,0.43809144216200613,1.4555228124471549,0.30590690668414605,0.21482038549117613,1.465364450047752
0.16829817199292732,0.09980103183172664,1.5365606161639644,0.0929572507522754,0.5066780760059996,0.11378844637678749,0.0619484610273207,0.03129115538266506,0.08105289283952422,0.09748144463938038,0.42076598499258183,0.5324197104559069,0.15654263786742365,0.07287809887327336,0.4930916506891375,0.07736383150724162,0.21926510960483137,0.9277039042873083,0.20597612291665737,0.08043390463408716,0.9299565395805712,0.013324710029024087,0.19620121204564767,1.4852787990700769,0.26696588453421494,-0.033941373113110414,1.4649662301949817,-0.03577302122182878,0.35425273717211514,1.2365713467651716,0.3963292841838775,0.10680670136050847,1.2405757143816505,0.07979610223941493,0.439476056841839,1.455993525695616,0.30597702120079806,0.21599314085404148,1.4665050303942193
0.16882,0.09965,1.53716,0.09313,0.50731,0.116,0.06197,0.03101,0.08103,0.09758,0.4279,0.53592,0.1559,0.07147,0.49333,0.0764,0.22043,0.92805,0.20485,0.08145,0.9302,0.01282,0.19653,1.48516,0.26514,-0.0331,1.46469,-0.03696,0.35503,1.23688,0.39503,0.10945,1.24175,0.07841,0.44092,1.45614,0.30511,0.21928,1.46755
,,,,,,,,,,,,,,,,,,,,,,,,,,,,,,,,,,,,,,
,,,,,,,,,,,,,,,,,,,,,,,,,,,,,,,,,,,,,,
,,,,,,,,,,,,,,,,,,,,,,,,,,,,,,,,,,,,,,
,,,,,,,,,,,,,,,,,,,,,,,,,,,,,,,,,,,,,,
,,,,,,,,,,,,,,,,,,,,,,,,,,,,,,,,,,,,,,
,,,,,,,,,,,,,,,,,,,,,,,,,,,,,,,,,,,,,,
,,,,,,,,,,,,,,,,,,,,,,,,,,,,,,,,,,,,,,
,,,,,,,,,,,,,,,,,,,,,,,,,,,,,,,,,,,,,,
,,,,,,,,,,,,,,,,,,,,,,,,,,,,,,,,,,,,,,
,,,,,,,,,,,,,,,,,,,,,,,,,,,,,,,,,,,,,,
,,,,,,,,,,,,,,,,,,,,,,,,,,,,,,,,,,,,,,
,,,,,,,,,,,,,,,,,,,,,,,,,,,,,,,,,,,,,,
,,,,,,,,,,,,,,,,,,,,,,,,,,,,,,,,,,,,,,
,,,,,,,,,,,,,,,,,,,,,,,,,,,,,,,,,,,,,,
,,,,,,,,,,,,,,,,,,,,,,,,,,,,,,,,,,,,,,
,,,,,,,,,,,,,,,,,,,,,,,,,,,,,,,,,,,,,,
,,,,,,,,,,,,,,,,,,,,,,,,,,,,,,,,,,,,,,
,,,,,,,,,,,,,,,,,,,,,,,,,,,,,,,,,,,,,,
,,,,,,,,,,,,,,,,,,,,,,,,,,,,,,,,,,,,,,
,,,,,,,,,,,,,,,,,,,,,,,,,,,,,,,,,,,,,,
,,,,,,,,,,,,,,,,,,,,,,,,,,,,,,,,,,,,,,
,,,,,,,,,,,,,,,,,,,,,,,,,,,,,,,,,,,,,,
,,,,,,,,,,,,,,,,,,,,,,,,,,,,,,,,,,,,,,
,,,,,,,,,,,,,,,,,,,,,,,,,,,,,,,,,,,,,,
,,,,,,,,,,,,,,,,,,,,,,,,,,,,,,,,,,,,,,
,,,,,,,,,,,,,,,,,,,,,,,,,,,,,,,,,,,,,,
,,,,,,,,,,,,,,,,,,,,,,,,,,,,,,,,,,,,,,
,,,,,,,,,,,,,,,,,,,,,,,,,,,,,,,,,,,,,,
,,,,,,,,,,,,,,,,,,,,,,,,,,,,,,,,,,,,,,
,,,,,,,,,,,,,,,,,,,,,,,,,,,,,,,,,,,,,,
,,,,,,,,,,,,,,,,,,,,,,,,,,,,,,,,,,,,,,
,,,,,,,,,,,,,,,,,,,,,,,,,,,,,,,,,,,,,,
,,,,,,,,,,,,,,,,,,,,,,,,,,,,,,,,,,,,,,
,,,,,,,,,,,,,,,,,,,,,,,,,,,,,,,,,,,,,,
,,,,,,,,,,,,,,,,,,,,,,,,,,,,,,,,,,,,,,
,,,,,,,,,,,,,,,,,,,,,,,,,,,,,,,,,,,,,,
,,,,,,,,,,,,,,,,,,,,,,,,,,,,,,,,,,,,,,
,,,,,,,,,,,,,,,,,,,,,,,,,,,,,,,,,,,,,,
,,,,,,,,,,,,,,,,,,,,,,,,,,,,,,,,,,,,,,
,,,,,,,,,,,,,,,,,,,,,,,,,,,,,,,,,,,,,,
,,,,,,,,,,,,,,,,,,,,,,,,,,,,,,,,,,,,,,
,,,,,,,,,,,,,,,,,,,,,,,,,,,,,,,,,,,,,,
,,,,,,,,,,,,,,,,,,,,,,,,,,,,,,,,,,,,,,
,,,,,,,,,,,,,,,,,,,,,,,,,,,,,,,,,,,,,,
,,,,,,,,,,,,,,,,,,,,,,,,,,,,,,,,,,,,,,
,,,,,,,,,,,,,,,,,,,,,,,,,,,,,,,,,,,,,,
,,,,,,,,,,,,,,,,,,,,,,,,,,,,,,,,,,,,,,
,,,,,,,,,,,,,,,,,,,,,,,,,,,,,,,,,,,,,,
,,,,,,,,,,,,,,,,,,,,,,,,,,,,,,,,,,,,,,
,,,,,,,,,,,,,,,,,,,,,,,,,,,,,,,,,,,,,,
,,,,,,,,,,,,,,,,,,,,,,,,,,,,,,,,,,,,,,
,,,,,,,,,,,,,,,,,,,,,,,,,,,,,,,,,,,,,,
,,,,,,,,,,,,,,,,,,,,,,,,,,,,,,,,,,,,,,
,,,,,,,,,,,,,,,,,,,,,,,,,,,,,,,,,,,,,,
,,,,,,,,,,,,,,,,,,,,,,,,,,,,,,,,,,,,,,
,,,,,,,,,,,,,,,,,,,,,,,,,,,,,,,,,,,,,,
,,,,,,,,,,,,,,,,,,,,,,,,,,,,,,,,,,,,,,
,,,,,,,,,,,,,,,,,,,,,,,,,,,,,,,,,,,,,,
,,,,,,,,,,,,,,,,,,,,,,,,,,,,,,,,,,,,,,
,,,,,,,,,,,,,,,,,,,,,,,,,,,,,,,,,,,,,,
,,,,,,,,,,,,,,,,,,,,,,,,,,,,,,,,,,,,,,
,,,,,,,,,,,,,,,,,,,,,,,,,,,,,,,,,,,,,,
,,,,,,,,,,,,,,,,,,,,,,,,,,,,,,,,,,,,,,
,,,,,,,,,,,,,,,,,,,,,,,,,,,,,,,,,,,,,,
,,,,,,,,,,,,,,,,,,,,,,,,,,,,,,,,,,,,,,
,,,,,,,,,,,,,,,,,,,,,,,,,,,,,,,,,,,,,,
,,,,,,,,,,,,,,,,,,,,,,,,,,,,,,,,,,,,,,
,,,,,,,,,,,,,,,,,,,,,,,,,,,,,,,,,,,,,,
,,,,,,,,,,,,,,,,,,,,,,,,,,,,,,,,,,,,,,
,,,,,,,,,,,,,,,,,,,,,,,,,,,,,,,,,,,,,,
,,,,,,,,,,,,,,,,,,,,,,,,,,,,,,,,,,,,,,
,,,,,,,,,,,,,,,,,,,,,,,,,,,,,,,,,,,,,,
,,,,,,,,,,,,,,,,,,,,,,,,,,,,,,,,,,,,,,
,,,,,,,,,,,,,,,,,,,,,,,,,,,,,,,,,,,,,,
,,,,,,,,,,,,,,,,,,,,,,,,,,,,,,,,,,,,,,
,,,,,,,,,,,,,,,,,,,,,,,,,,,,,,,,,,,,,,
,,,,,,,,,,,,,,,,,,,,,,,,,,,,,,,,,,,,,,
,,,,,,,,,,,,,,,,,,,,,,,,,,,,,,,,,,,,,,
,,,,,,,,,,,,,,,,,,,,,,,,,,,,,,,,,,,,,,
,,,,,,,,,,,,,,,,,,,,,,,,,,,,,,,,,,,,,,
,,,,,,,,,,,,,,,,,,,,,,,,,,,,,,,,,,,,,,
,,,,,,,,,,,,,,,,,,,,,,,,,,,,,,,,,,,,,,
,,,,,,,,,,,,,,,,,,,,,,,,,,,,,,,,,,,,,,
,,,,,,,,,,,,,,,,,,,,,,,,,,,,,,,,,,,,,,
,,,,,,,,,,,,,,,,,,,,,,,,,,,,,,,,,,,,,,
,,,,,,,,,,,,,,,,,,,,,,,,,,,,,,,,,,,,,,
,,,,,,,,,,,,,,,,,,,,,,,,,,,,,,,,,,,,,,
,,,,,,,,,,,,,,,,,,,,,,,,,,,,,,,,,,,,,,
,,,,,,,,,,,,,,,,,,,,,,,,,,,,,,,,,,,,,,
,,,,,,,,,,,,,,,,,,,,,,,,,,,,,,,,,,,,,,
,,,,,,,,,,,,,,,,,,,,,,,,,,,,,,,,,,,,,,
,,,,,,,,,,,,,,,,,,,,,,,,,,,,,,,,,,,,,,
,,,,,,,,,,,,,,,,,,,,,,,,,,,,,,,,,,,,,,
,,,,,,,,,,,,,,,,,,,,,,,,,,,,,,,,,,,,,,
,,,,,,,,,,,,,,,,,,,,,,,,,,,,,,,,,,,,,,
,,,,,,,,,,,,,,,,,,,,,,,,,,,,,,,,,,,,,,
,,,,,,,,,,,,,,,,,,,,,,,,,,,,,,,,,,,,,,
,,,,,,,,,,,,,,,,,,,,,,,,,,,,,,,,,,,,,,
,,,,,,,,,,,,,,,,,,,,,,,,,,,,,,,,,,,,,,
,,,,,,,,,,,,,,,,,,,,,,,,,,,,,,,,,,,,,,
,,,,,,,,,,,,,,,,,,,,,,,,,,,,,,,,,,,,,,
,,,,,,,,,,,,,,,,,,,,,,,,,,,,,,,,,,,,,,
,,,,,,,,,,,,,,,,,,,,,,,,,,,,,,,,,,,,,,
,,,,,,,,,,,,,,,,,,,,,,,,,,,,,,,,,,,,,,
,,,,,,,,,,,,,,,,,,,,,,,,,,,,,,,,,,,,,,
,,,,,,,,,,,,,,,,,,,,,,,,,,,,,,,,,,,,,,
,,,,,,,,,,,,,,,,,,,,,,,,,,,,,,,,,,,,,,
,,,,,,,,,,,,,,,,,,,,,,,,,,,,,,,,,,,,,,
,,,,,,,,,,,,,,,,,,,,,,,,,,,,,,,,,,,,,,
,,,,,,,,,,,,,,,,,,,,,,,,,,,,,,,,,,,,,,
,,,,,,,,,,,,,,,,,,,,,,,,,,,,,,,,,,,,,,
,,,,,,,,,,,,,,,,,,,,,,,,,,,,,,,,,,,,,,
,,,,,,,,,,,,,,,,,,,,,,,,,,,,,,,,,,,,,,
,,,,,,,,,,,,,,,,,,,,,,,,,,,,,,,,,,,,,,
,,,,,,,,,,,,,,,,,,,,,,,,,,,,,,,,,,,,,,
,,,,,,,,,,,,,,,,,,,,,,,,,,,,,,,,,,,,,,
,,,,,,,,,,,,,,,,,,,,,,,,,,,,,,,,,,,,,,
,,,,,,,,,,,,,,,,,,,,,,,,,,,,,,,,,,,,,,
,,,,,,,,,,,,,,,,,,,,,,,,,,,,,,,,,,,,,,
,,,,,,,,,,,,,,,,,,,,,,,,,,,,,,,,,,,,,,
,,,,,,,,,,,,,,,,,,,,,,,,,,,,,,,,,,,,,,
,,,,,,,,,,,,,,,,,,,,,,,,,,,,,,,,,,,,,,
,,,,,,,,,,,,,,,,,,,,,,,,,,,,,,,,,,,,,,
,,,,,,,,,,,,,,,,,,,,,,,,,,,,,,,,,,,,,,
,,,,,,,,,,,,,,,,,,,,,,,,,,,,,,,,,,,,,,
,,,,,,,,,,,,,,,,,,,,,,,,,,,,,,,,,,,,,,
,,,,,,,,,,,,,,,,,,,,,,,,,,,,,,,,,,,,,,
,,,,,,,,,,,,,,,,,,,,,,,,,,,,,,,,,,,,,,
,,,,,,,,,,,,,,,,,,,,,,,,,,,,,,,,,,,,,,
,,,,,,,,,,,,,,,,,,,,,,,,,,,,,,,,,,,,,,
,,,,,,,,,,,,,,,,,,,,,,,,,,,,,,,,,,,,,,
,,,,,,,,,,,,,,,,,,,,,,,,,,,,,,,,,,,,,,
,,,,,,,,,,,,,,,,,,,,,,,,,,,,,,,,,,,,,,
,,,,,,,,,,,,,,,,,,,,,,,,,,,,,,,,,,,,,,
,,,,,,,,,,,,,,,,,,,,,,,,,,,,,,,,,,,,,,
,,,,,,,,,,,,,,,,,,,,,,,,,,,,,,,,,,,,,,
,,,,,,,,,,,,,,,,,,,,,,,,,,,,,,,,,,,,,,
,,,,,,,,,,,,,,,,,,,,,,,,,,,,,,,,,,,,,,
,,,,,,,,,,,,,,,,,,,,,,,,,,,,,,,,,,,,,,
,,,,,,,,,,,,,,,,,,,,,,,,,,,,,,,,,,,,,,
,,,,,,,,,,,,,,,,,,,,,,,,,,,,,,,,,,,,,,
,,,,,,,,,,,,,,,,,,,,,,,,,,,,,,,,,,,,,,
,,,,,,,,,,,,,,,,,,,,,,,,,,,,,,,,,,,,,,
,,,,,,,,,,,,,,,,,,,,,,,,,,,,,,,,,,,,,,
,,,,,,,,,,,,,,,,,,,,,,,,,,,,,,,,,,,,,,
,,,,,,,,,,,,,,,,,,,,,,,,,,,,,,,,,,,,,,
,,,,,,,,,,,,,,,,,,,,,,,,,,,,,,,,,,,,,,
,,,,,,,,,,,,,,,,,,,,,,,,,,,,,,,,,,,,,,
,,,,,,,,,,,,,,,,,,,,,,,,,,,,,,,,,,,,,,
,,,,,,,,,,,,,,,,,,,,,,,,,,,,,,,,,,,,,,
,,,,,,,,,,,,,,,,,,,,,,,,,,,,,,,,,,,,,,
,,,,,,,,,,,,,,,,,,,,,,,,,,,,,,,,,,,,,,
,,,,,,,,,,,,,,,,,,,,,,,,,,,,,,,,,,,,,,
,,,,,,,,,,,,,,,,,,,,,,,,,,,,,,,,,,,,,,
,,,,,,,,,,,,,,,,,,,,,,,,,,,,,,,,,,,,,,
,,,,,,,,,,,,,,,,,,,,,,,,,,,,,,,,,,,,,,
,,,,,,,,,,,,,,,,,,,,,,,,,,,,,,,,,,,,,,
,,,,,,,,,,,,,,,,,,,,,,,,,,,,,,,,,,,,,,
,,,,,,,,,,,,,,,,,,,,,,,,,,,,,,,,,,,,,,
,,,,,,,,,,,,,,,,,,,,,,,,,,,,,,,,,,,,,,
,,,,,,,,,,,,,,,,,,,,,,,,,,,,,,,,,,,,,,
,,,,,,,,,,,,,,,,,,,,,,,,,,,,,,,,,,,,,,
,,,,,,,,,,,,,,,,,,,,,,,,,,,,,,,,,,,,,,
,,,,,,,,,,,,,,,,,,,,,,,,,,,,,,,,,,,,,,
,,,,,,,,,,,,,,,,,,,,,,,,,,,,,,,,,,,,,,
,,,,,,,,,,,,,,,,,,,,,,,,,,,,,,,,,,,,,,
,,,,,,,,,,,,,,,,,,,,,,,,,,,,,,,,,,,,,,
,,,,,,,,,,,,,,,,,,,,,,,,,,,,,,,,,,,,,,
,,,,,,,,,,,,,,,,,,,,,,,,,,,,,,,,,,,,,,
,,,,,,,,,,,,,,,,,,,,,,,,,,,,,,,,,,,,,,
,,,,,,,,,,,,,,,,,,,,,,,,,,,,,,,,,,,,,,
,,,,,,,,,,,,,,,,,,,,,,,,,,,,,,,,,,,,,,
,,,,,,,,,,,,,,,,,,,,,,,,,,,,,,,,,,,,,,
,,,,,,,,,,,,,,,,,,,,,,,,,,,,,,,,,,,,,,
,,,,,,,,,,,,,,,,,,,,,,,,,,,,,,,,,,,,,,
,,,,,,,,,,,,,,,,,,,,,,,,,,,,,,,,,,,,,,
,,,,,,,,,,,,,,,,,,,,,,,,,,,,,,,,,,,,,,
,,,,,,,,,,,,,,,,,,,,,,,,,,,,,,,,,,,,,,
,,,,,,,,,,,,,,,,,,,,,,,,,,,,,,,,,,,,,,
,,,,,,,,,,,,,,,,,,,,,,,,,,,,,,,,,,,,,,
,,,,,,,,,,,,,,,,,,,,,,,,,,,,,,,,,,,,,,
,,,,,,,,,,,,,,,,,,,,,,,,,,,,,,,,,,,,,,
,,,,,,,,,,,,,,,,,,,,,,,,,,,,,,,,,,,,,,
,,,,,,,,,,,,,,,,,,,,,,,,,,,,,,,,,,,,,,
,,,,,,,,,,,,,,,,,,,,,,,,,,,,,,,,,,,,,,
,,,,,,,,,,,,,,,,,,,,,,,,,,,,,,,,,,,,,,
,,,,,,,,,,,,,,,,,,,,,,,,,,,,,,,,,,,,,,
,,,,,,,,,,,,,,,,,,,,,,,,,,,,,,,,,,,,,,
,,,,,,,,,,,,,,,,,,,,,,,,,,,,,,,,,,,,,,
,,,,,,,,,,,,,,,,,,,,,,,,,,,,,,,,,,,,,,
,,,,,,,,,,,,,,,,,,,,,,,,,,,,,,,,,,,,,,
,,,,,,,,,,,,,,,,,,,,,,,,,,,,,,,,,,,,,,
,,,,,,,,,,,,,,,,,,,,,,,,,,,,,,,,,,,,,,
,,,,,,,,,,,,,,,,,,,,,,,,,,,,,,,,,,,,,,
,,,,,,,,,,,,,,,,,,,,,,,,,,,,,,,,,,,,,,
,,,,,,,,,,,,,,,,,,,,,,,,,,,,,,,,,,,,,,
,,,,,,,,,,,,,,,,,,,,,,,,,,,,,,,,,,,,,,
,,,,,,,,,,,,,,,,,,,,,,,,,,,,,,,,,,,,,,
,,,,,,,,,,,,,,,,,,,,,,,,,,,,,,,,,,,,,,
,,,,,,,,,,,,,,,,,,,,,,,,,,,,,,,,,,,,,,
,,,,,,,,,,,,,,,,,,,,,,,,,,,,,,,,,,,,,,
,,,,,,,,,,,,,,,,,,,,,,,,,,,,,,,,,,,,,,
,,,,,,,,,,,,,,,,,,,,,,,,,,,,,,,,,,,,,,
,,,,,,,,,,,,,,,,,,,,,,,,,,,,,,,,,,,,,,
,,,,,,,,,,,,,,,,,,,,,,,,,,,,,,,,,,,,,,
,,,,,,,,,,,,,,,,,,,,,,,,,,,,,,,,,,,,,,
,,,,,,,,,,,,,,,,,,,,,,,,,,,,,,,,,,,,,,
,,,,,,,,,,,,,,,,,,,,,,,,,,,,,,,,,,,,,,
,,,,,,,,,,,,,,,,,,,,,,,,,,,,,,,,,,,,,,
,,,,,,,,,,,,,,,,,,,,,,,,,,,,,,,,,,,,,,
,,,,,,,,,,,,,,,,,,,,,,,,,,,,,,,,,,,,,,
,,,,,,,,,,,,,,,,,,,,,,,,,,,,,,,,,,,,,,
,,,,,,,,,,,,,,,,,,,,,,,,,,,,,,,,,,,,,,
,,,,,,,,,,,,,,,,,,,,,,,,,,,,,,,,,,,,,,
,,,,,,,,,,,,,,,,,,,,,,,,,,,,,,,,,,,,,,
,,,,,,,,,,,,,,,,,,,,,,,,,,,,,,,,,,,,,,
,,,,,,,,,,,,,,,,,,,,,,,,,,,,,,,,,,,,,,
,,,,,,,,,,,,,,,,,,,,,,,,,,,,,,,,,,,,,,
,,,,,,,,,,,,,,,,,,,,,,,,,,,,,,,,,,,,,,
,,,,,,,,,,,,,,,,,,,,,,,,,,,,,,,,,,,,,,
