PaulMeinheit/Bachelor_Muay_Thai/processed_Data/E1/teep/scaled/JointPositions/scaled2.csv
Neck_Joint_Position,Neck_Joint_Position,Neck_Joint_Position,L_ANKLE_POSITION,L_ANKLE_POSITION,L_ANKLE_POSITION,R_ANKLE_POSITION,R_ANKLE_POSITION,R_ANKLE_POSITION,L_KNEE_POSITION,L_KNEE_POSITION,L_KNEE_POSITION,R_KNEE_POSITION,R_KNEE_POSITION,R_KNEE_POSITION,L_HIP_POSITION,L_HIP_POSITION,L_HIP_POSITION,R_HIP_POSITION,R_HIP_POSITION,R_HIP_POSITION,L_SHOULDER_POSITION,L_SHOULDER_POSITION,L_SHOULDER_POSITION,R_SHOULDER_POSITION,R_SHOULDER_POSITION,R_SHOULDER_POSITION,L_ELBOW_POSITION,L_ELBOW_POSITION,L_ELBOW_POSITION,R_ELBOW_POSITION,R_ELBOW_POSITION,R_ELBOW_POSITION,L_WRIST_POSITION,L_WRIST_POSITION,L_WRIST_POSITION,R_WRIST_POSITION,R_WRIST_POSITION,R_WRIST_POSITION
X,Y,Z,X,Y,Z,X,Y,Z,X,Y,Z,X,Y,Z,X,Y,Z,X,Y,Z,X,Y,Z,X,Y,Z,X,Y,Z,X,Y,Z,X,Y,Z,X,Y,Z
0.15901,0.1286,1.53128,0.08096000000000002,0.45892,0.10337000000000002,0.04961,-0.06101000000000001,0.07995,0.10008000000000002,0.3919800000000001,0.5250500000000001,0.13698000000000002,0.009600000000000001,0.4896200000000001,0.06138999999999999,0.19858000000000006,0.9229800000000001,0.18990000000000004,0.05963000000000001,0.9232700000000001,-0.0003,0.20458000000000004,1.47801,0.26803000000000005,-0.009770000000000001,1.4762300000000004,-0.049350000000000005,0.3272700000000001,1.2100700000000004,0.39310000000000006,0.11770000000000003,1.2417100000000003,0.07576000000000001,0.42128000000000004,1.42049,0.3127400000000001,0.2592900000000001,1.4529500000000002
0.15801629202420833,0.12180461166349292,1.5320023107797962,0.08338553965275679,0.461182774443345,0.10828629092731165,0.04989295112207817,-0.06169666645143436,0.08000515445794897,0.10264993079222655,0.39795588122796943,0.5305371970139158,0.1376914867488139,0.008753127632271537,0.48961116577961883,0.060338961103001826,0.1962301246399277,0.9239405963506605,0.18875144777345987,0.057184949801518246,0.9236637205113347,-0.0004886613686418407,0.20043572271263044,1.4800754661705282,0.2658505139495223,-0.017108161449117892,1.4746751157676337,-0.04788858733996581,0.3301103080666492,1.2151517379058177,0.3951045100257577,0.11855097552446282,1.2471156370345267,0.07644901438872895,0.4153833351605508,1.4297055355025063,0.3115298086348475,0.2560890828016261,1.4597886152919648
0.15898813170780465,0.11692028475391678,1.531950702784279,0.08616643117075384,0.4632595287858019,0.11409911832083057,0.04984378405815592,-0.062232066139036986,0.08029886660508881,0.10593985125429982,0.40627800500474204,0.537203016824908,0.13912365209847435,0.008948197180357787,0.48946094158268894,0.05951337215707107,0.19521215695082672,0.925212914729233,0.1884920565836631,0.05671111322445841,0.9237868623614091,-0.001089095785996783,0.19471398301800918,1.48233732302823,0.26781767453524047,-0.021998626244637894,1.4736985245305598,-0.04400247523278445,0.33482184909504126,1.22200621417925,0.3964743516365782,0.12249606322040774,1.25129300329592,0.07834112787432247,0.4128279700857218,1.4404372843968112,0.30974770132627755,0.2532264515172784,1.4669833479050207
0.15972462463854056,0.1147021797932325,1.5307869104875105,0.08906675630000192,0.4680582835880294,0.12067046120738449,0.049837010293079166,-0.06209972511637432,0.08033085427376184,0.10756686284093397,0.41749888494734183,0.544647945270578,0.13876578787942592,0.00975075110808201,0.48945080006587927,0.058712915468912795,0.19513026322655752,0.9259841426229808,0.1877993053102639,0.05672557634397358,0.9239027582622767,-0.0009211405376139652,0.19055993512573696,1.4850519527894157,0.2679256295916433,-0.02562493430199042,1.47357842467736,-0.041946779278331944,0.33626617027183375,1.2275004847872417,0.3981576969605825,0.12498480253113144,1.2562075015254877,0.07949187466437001,0.40999462521601254,1.447912621163441,0.3091575834872145,0.25319745220576684,1.4724759421759972
0.1608177098751595,0.11381476227857709,1.530904539600476,0.08983674064623681,0.4741573060123765,0.12843844559025347,0.049478337467698016,-0.061362142564110905,0.08016559383298165,0.1104232126592585,0.43000743386424317,0.5530378602844218,0.1380823163363746,0.010034042047227076,0.48943809523697923,0.05725331751764401,0.19684905529355146,0.9272841954542292,0.1866404465669592,0.05876914603711457,0.9237387121227254,-0.00028564415319259765,0.18759927953410752,1.4869713012890313,0.270468776151873,-0.025273072671515413,1.4701882564433395,-0.03994691375860971,0.34067358914217355,1.2335051874535685,0.4021192237553163,0.1335001147723655,1.2595935291181553,0.08156518189607631,0.4096485655180781,1.455406083476803,0.3101469128491768,0.25416555853018713,1.4789331816629165
0.1623622240420923,0.11463815263131029,1.5310237869953154,0.09116167932685929,0.4824712729211191,0.13584759370036367,0.049788711867542704,-0.06223883632597539,0.0804202296727452,0.11302745124537324,0.4433684188782168,0.5608785653810235,0.13713198490214215,0.01094087520740933,0.4896454891632326,0.05705852753600163,0.19909354340183383,0.9275519619653503,0.18782416401803967,0.06233086189701514,0.923398450826824,-0.001178844053567679,0.1864340418637065,1.4866529475540604,0.27159546425963615,-0.023430260203053693,1.4700153955300466,-0.037884089279247385,0.34639980438646806,1.2370317882836541,0.4035591467612777,0.13917546201204037,1.2625518617913134,0.08021943521502305,0.40984382651001316,1.4624123032844285,0.3111921251606455,0.25629817628516766,1.483641227669612
0.1615903811500593,0.11603246869803314,1.5308052765765086,0.09291295375800891,0.49032147620534117,0.14156459559455167,0.048768222544140746,-0.060456794724370155,0.08010796681557542,0.11295402458759086,0.456633356002851,0.567145136577605,0.13566976186515914,0.011392954863533976,0.48966305736418697,0.05692594344338728,0.20437778136975948,0.9283731635171306,0.18746608854576743,0.06745334067244323,0.9227101416162681,-0.002194310974850347,0.18885630024820704,1.48779977125221,0.27052997242862026,-0.020756593730231164,1.4687620558353487,-0.03725985192648118,0.35363842406824153,1.2410950776339214,0.4061923604464585,0.14720393686002425,1.2680688807759934,0.0813361796714264,0.40975978196434315,1.4681383572440232,0.3087436054355151,0.26069807804833856,1.488871505859996
0.160769135849007,0.12065948963368131,1.52971315262465,0.09410258775749593,0.5002293737314918,0.14636340829220637,0.04870672726161286,-0.05978181553336145,0.08021959303932114,0.11182784420120344,0.4696599989094213,0.5722815383135748,0.13427372238563925,0.014046132517034373,0.48970261013244465,0.05624167852087749,0.2102921131406659,0.9285001839952212,0.18744447413977303,0.0740321369537014,0.9220557631971007,-0.002635781970081371,0.19193494706817088,1.488317010646315,0.27007386326735733,-0.016160447166116886,1.4667492194958935,-0.03561064044976032,0.3605813185925405,1.2439516141228164,0.4072987474187246,0.1568623713583664,1.2714930087489116,0.08114120009318103,0.4119152258734759,1.4730821698242365,0.3064522152480383,0.265706271059366,1.4931117788097377
0.16192176171049735,0.12525443532860997,1.5284338704155676,0.09469758070444405,0.5120180459203002,0.14886031605306416,0.04824394458682162,-0.05915731740943788,0.08029198436912151,0.11170342337762798,0.48211965873907325,0.5748610751039079,0.13192026152109776,0.01660604325322102,0.48981385498015584,0.057124849660000275,0.21775967082375713,0.9275427555521001,0.18883217209275638,0.08200487235135048,0.9209070610351495,-0.0030892666236330382,0.19557139776920354,1.487642153266289,0.27019992280332517,-0.009841064909419469,1.4663361830204489,-0.0355828868053822,0.36783120722552687,1.2457417433041649,0.40733995981968624,0.16703337544456964,1.2744894055045677,0.08117680773184156,0.4148240957615683,1.475793343701573,0.30366987880139545,0.27325361865388315,1.4960842058980957
0.15867280921443078,0.1280004085397463,1.528438548751184,0.09299362993525112,0.5255803339153,0.1487807777433635,0.04823212151128846,-0.05940795748009003,0.07988535694153631,0.11006274351889739,0.49395693707965255,0.5746538189833457,0.12902809772618626,0.019162114647533136,0.48945004638735506,0.057851431108385934,0.2268635812872578,0.9256387219493715,0.18909382298523725,0.09064545527514054,0.9191443123711787,-0.006080986843465112,0.20019699706541091,1.486003763294556,0.2691198386800225,-0.0033088163220728216,1.4646122152408332,-0.034408653284026536,0.37618103858549246,1.2462678188955811,0.40695097323259694,0.17752584620774392,1.2770225348721909,0.07936141193954227,0.42139224522527624,1.4781635591992635,0.29982481079459256,0.2824852915269141,1.4975539654008267
0.15852899030478745,0.13427185049317697,1.5265745324008764,0.09216098100333,0.5402801406944151,0.14726582375279063,0.04807593543476567,-0.05910088524026798,0.07975663144602847,0.1094820185394557,0.5060817339058303,0.5729297901296219,0.1275668769026049,0.023103780863156727,0.48887684020484296,0.05876442461601223,0.23767558008591427,0.9231209200463357,0.19037990440301014,0.10180298813300033,0.9169084747918999,-0.0077417544739919264,0.207322352503499,1.4834873957724557,0.2696610220624294,0.006578858707180667,1.461417982571245,-0.0326631628131949,0.3870105838253908,1.246130663735416,0.4063004745929326,0.1918097713067769,1.2772645446481536,0.08040108306780556,0.4276986174474223,1.4792105527778383,0.2968680350182066,0.29168759000468236,1.4990344924461771
0.1557630659242501,0.14377899672360867,1.5238200948524567,0.09165271495433108,0.5511287720712631,0.14463757452913648,0.04755144055635324,-0.05908295898753818,0.07951009912822032,0.10861278374237159,0.5196774326154441,0.5705267273381115,0.12801017681589721,0.029045006204122814,0.48720292644774826,0.059669424993378975,0.2501819723675878,0.9201397609986977,0.1913569757744824,0.11437974863643338,0.9138864909571525,-0.009604116316685882,0.21632025233252655,1.4820702522886529,0.27105919502812664,0.019310122695553947,1.457492824738145,-0.030157419571319084,0.3984478898446505,1.246159501855158,0.40656276902201116,0.2073019163843475,1.2753068949699733,0.0791918699857504,0.43691123809625004,1.4813847116816197,0.2947272778911081,0.3038856408639795,1.4973375727171763
0.15427877215513316,0.15804584376668274,1.5187407078217423,0.08934249505462584,0.5581034048632737,0.1409450730871342,0.04721060457660072,-0.05810853899495208,0.07936511475474185,0.10870522756687892,0.5330563260626766,0.567151332200142,0.12779928236139707,0.03557796442950355,0.48578726990387017,0.05963047859433436,0.26231548849066527,0.9157827750871561,0.1925496384514041,0.1276698438454833,0.9108565464519591,-0.011408879821385533,0.22562843446562836,1.4794856065179318,0.2703954380462633,0.033520114793819146,1.4521058294018787,-0.027533689570252255,0.4118925288214759,1.246481751393112,0.4046386087474116,0.22545779911973274,1.2731319019536382,0.07846853401103633,0.44721464759465707,1.483715776026719,0.2906307114797629,0.31799906696921104,1.4957797285706615
0.1531146559636291,0.17140699084622052,1.5139554587548874,0.08682284349220795,0.5607032604428116,0.13696572207500396,0.0475881890127561,-0.056992985644270765,0.07907149764671662,0.11033678971609717,0.5483496748531348,0.5635194277674578,0.1293994069676597,0.045707660602108416,0.48306263201853705,0.05950593976266799,0.27631871341253494,0.9108971332838728,0.19478281388263022,0.14401635213302394,0.9066446365062936,-0.012585598205490763,0.23385111725039984,1.4749631460741681,0.27259560758329326,0.051482107656223394,1.4471392968498131,-0.024030172145044458,0.42833709334584513,1.248496036568281,0.4003415258862398,0.2490681948536479,1.269563116927452,0.07900304692264158,0.4577886735957661,1.4878308973680983,0.28473494965979873,0.3314272696172035,1.4953607481611138
0.15115120870434356,0.18819393955729194,1.508660059375579,0.08432281039916467,0.5591444591114272,0.13379149117883327,0.04789658643025171,-0.056525318072525976,0.07959889304925857,0.1124843674611996,0.5663364909083948,0.5601941194222472,0.13317212351916616,0.05666673474386647,0.4800566598037967,0.0583484589503722,0.29209309189539834,0.9053186859797402,0.1946445020790015,0.16079989938304262,0.9028239349392503,-0.013564007817521337,0.24491358514172107,1.4705698360877504,0.2731102839499509,0.0704900995050477,1.440988629399126,-0.02267561228844045,0.45050735100919337,1.2540145815819996,0.3908364782319444,0.2769584148642973,1.26662497464291,0.07917044673155248,0.4677491325883205,1.4950424293276672,0.2770391023079003,0.34987427005155936,1.4965463427427346
0.14757341745777172,0.2059829506781398,1.5037556836035595,0.08462996797850443,0.5534472738226286,0.12996128856602773,0.04774361092178356,-0.05470128383873457,0.08027735346843358,0.11297719663005633,0.5860246305202051,0.5551539425338513,0.13779182829025774,0.06922157155510743,0.47648360108511006,0.05681763711784992,0.31039769160769026,0.8988484404964714,0.19458252492059858,0.18062347780845084,0.8980497660956938,-0.016722831088895447,0.2593889839327906,1.46553689085461,0.27535639078208135,0.09304895183217798,1.4337843056113018,-0.02308091051177171,0.4776985466262662,1.261706493552374,0.3810311837721498,0.312508463090603,1.2677626330543952,0.07502537992407406,0.4769093103115306,1.5048921197832326,0.2670606955017377,0.37011583035746465,1.501905347454013
0.14521374608187945,0.2241148598449661,1.4988975459264056,0.08574773172247806,0.5484902197110908,0.12618673104160028,0.04927016757249991,-0.05413613425503299,0.08282580681279204,0.11337608480950696,0.6061516939865293,0.5487619104043236,0.14268170246359238,0.08535679231622567,0.4730420034140934,0.055969245866910024,0.33224750194027847,0.8936264077198119,0.1956589533626952,0.20454591095042807,0.8929716777910828,-0.01925706832130988,0.274006450669494,1.4633193476809194,0.27556832716517216,0.117265439329832,1.4274312320771414,-0.027530110069134084,0.5045338510644952,1.2734861828767219,0.37174636769589015,0.34654310660645604,1.2690736868535482,0.07071492376009145,0.4883244464626061,1.516079060301773,0.25841803636207983,0.3932045985972596,1.505955177859619
0.1450470993368858,0.24627087988908164,1.494174381836572,0.08686373465176131,0.544960615351852,0.12172599269992108,0.053482675921086575,-0.05368419979864411,0.0884974233251,0.11253137600885063,0.6256899363565612,0.5406285755179434,0.14782855436170908,0.10283255764592975,0.4719742883226979,0.05552568662960118,0.35788967631536917,0.8903270627446479,0.1968580543742189,0.23201573464173902,0.8894220651034148,-0.022516352886224594,0.2933032857429714,1.4602364981086475,0.27438242310088024,0.14219910470631744,1.4232732931365035,-0.03321846997686434,0.5372424849130705,1.2881121600906797,0.36316361739430125,0.37895164465990927,1.2717471573595203,0.06726108964317798,0.499712954546235,1.5274050088412765,0.2508064405286522,0.4125177735011074,1.511283142238163
0.14099440128120003,0.2707909794984508,1.4916135552162044,0.08579974666485184,0.5444778250568817,0.11373395999889659,0.05896351316798423,-0.05059371934951388,0.09821745169476669,0.10946309973389406,0.6414326211025035,0.5293076884137634,0.1568333955619372,0.12841543452433563,0.4708119562935751,0.05362591832209044,0.3864669803073303,0.8886557807778532,0.19726338878965874,0.2632205243241117,0.8874017363752454,-0.025592300659761452,0.3128353998631336,1.4613606989022396,0.27474903004642526,0.17155441034220165,1.4216051313380529,-0.04102126569452642,0.568158587277755,1.3070349270697519,0.3547047592104059,0.41430216245536394,1.274718023070844,0.06519338280339954,0.513168966386283,1.5403901017460857,0.24371695860328974,0.43417344270662384,1.5164242873327385
0.13488538660139726,0.29459164782018943,1.493131657524154,0.07591433425011501,0.5396900624984845,0.10362784991611014,0.06986658539608778,-0.03793091646910334,0.11641169772859113,0.10701623710487726,0.648785486958008,0.5156867289290364,0.17983952848564078,0.17069532175538407,0.46973375874855566,0.05368361022050025,0.4182029994739274,0.8915006650956743,0.19922977029167446,0.2972154588996286,0.890410206647417,-0.031201240914285406,0.33644859368075863,1.4639913943474658,0.270135408734909,0.2011880298358096,1.4234992407749008,-0.05077145309944607,0.6040901792648442,1.3327086194540192,0.34872967370477076,0.4464464553253085,1.2800846893640423,0.05927113975253765,0.5265940464366837,1.5577667304645493,0.23567832659353463,0.4576255537585581,1.5213786849972823
0.12888008955407687,0.3189585264333313,1.4994135342363004,0.06778698948117948,0.5335651554984806,0.0949285811299983,0.08715751454789944,-0.005438194662611713,0.14318715128673312,0.09889584984208612,0.6494404333029519,0.5051225942925128,0.21364731485807628,0.23875433741004828,0.46694550641998767,0.05114443091086223,0.447821953801418,0.8979650304586093,0.20204179154209148,0.3335867699882697,0.8961611781538258,-0.03715657286860031,0.3625864523814195,1.4708617704819926,0.26402594987823413,0.22818333289846432,1.433470129529263,-0.056029942269070494,0.6387229224177868,1.3584336888027864,0.3467082815673764,0.4674318336538676,1.2824196287503073,0.05367529850830129,0.5443785572189355,1.577126191554988,0.2339201728674529,0.47871154549871486,1.5238339798828324
0.11870164115236721,0.3448182351785255,1.508934524284316,0.07117207570925203,0.5322255148094768,0.08967165918529577,0.10147042131333144,0.050118890762580824,0.18638127314424927,0.08949125923061522,0.6490386278626908,0.5003830302173,0.25044038164183213,0.3336333529724329,0.46545168640977164,0.046283363332716966,0.4719873781405036,0.9053968388672584,0.20461261678867057,0.3683684618937886,0.9014008647481241,-0.04140985251365429,0.39255098851294523,1.4807945672904719,0.25926264135406074,0.2577152644785093,1.4458702320440782,-0.06420977808096084,0.674186609993773,1.3837794263963341,0.35118860345747793,0.4803103147184109,1.2758818293045948,0.052009272674232165,0.569031104349939,1.5940260304985858,0.23868966552718696,0.503389295070147,1.516594992407718
0.10968540436695273,0.3722941005492307,1.5186069349036584,0.0742969302705232,0.5321169083590562,0.08936500798804917,0.11534692418528393,0.13213633890442023,0.2496212372114599,0.08147403456680534,0.6477855824900877,0.5007388525437849,0.28716546680325444,0.4483463927015033,0.4753202355757524,0.04386139688587543,0.4870040452153764,0.913032869094442,0.21117402339145128,0.3988441317298065,0.9055953006471157,-0.05006890662589505,0.4230153647350525,1.4917617641896268,0.24919451604201753,0.28735574688896726,1.4580025958079657,-0.06393772480291567,0.708559183568428,1.4050545648865347,0.3595396590197175,0.47341550163941826,1.2577407642517433,0.054880582872105295,0.5943227587803268,1.609000981656628,0.2535325661679385,0.5359350076873767,1.494357933180336
0.10373882465375894,0.39991421492507956,1.528195050921129,0.07321179695709187,0.5329615442545513,0.09165974794743387,0.1345973859555881,0.2397121138853741,0.3209609116436726,0.07263316573571989,0.6456981216140142,0.5039063839946037,0.30506960642435066,0.5780034119581455,0.5131776663105381,0.040420995087100474,0.49408932717842985,0.9201130106417804,0.2158578498644357,0.42325231585556705,0.9149849106192494,-0.05448995013776236,0.45280484340913085,1.5042938533113344,0.23954851863094156,0.31363722869743804,1.4659702109486137,-0.0641515408238041,0.7397293629852438,1.4216943448936517,0.36357202817895706,0.4500077409556443,1.2359311988496668,0.06258255136972059,0.626748373739942,1.6215408495453738,0.2825760417488512,0.5788789803704287,1.4549458410368812
0.09685058701737179,0.42921850661283767,1.535648971130593,0.0748970759036743,0.5351572611179274,0.09357477351852249,0.15799484427155663,0.3572071335855541,0.3925772659761743,0.06762907730632803,0.6437520664634425,0.506866406664986,0.3103008226989559,0.705335042828509,0.5824725219067405,0.03982984003106378,0.5007741240037157,0.9264378759134845,0.22075525259843154,0.44521108696575074,0.9255092710927643,-0.05709201483905509,0.4876559827723177,1.5118472799340805,0.23961755778985985,0.3420805235722054,1.4737427897783175,-0.05305166994871892,0.7763179997303977,1.4349938987511959,0.36939056255823166,0.4254116560530757,1.2225283466928478,0.07307191298254158,0.6573223510991532,1.6317015159063468,0.33254902301139977,0.626699545463697,1.3935662951372347
0.09609517173801238,0.4592725340632062,1.5412345157207832,0.07963316519010491,0.5376485399448123,0.09617305572599637,0.1794212695910819,0.48497287336843703,0.45337993476251437,0.0683759612595018,0.6441298856492644,0.5099252936362281,0.30239111353200276,0.8196930245998307,0.6842300466552826,0.03930661449654533,0.503374073325598,0.9301610010923254,0.2253669229991978,0.4698927468024286,0.9393033794750867,-0.05727723681662771,0.5204367442225176,1.5165603180240044,0.24312420240553587,0.3694927532527016,1.484832241134554,-0.04045373619840768,0.8091754559106571,1.4417829614359565,0.3774258147021944,0.40701619231731295,1.22512717238213,0.08467450552757755,0.6872984716844917,1.637366435843433,0.3986629072050813,0.6602999966777581,1.3059079655934314
0.09857426309678917,0.4896460118492276,1.5405492642336938,0.08806550283202129,0.5408575075796501,0.10309077026142693,0.2034741390985273,0.6205382260832368,0.5081099276840289,0.07161488513024576,0.6585048726730242,0.5136378966710355,0.28500713801285865,0.9030838354708837,0.8146492221371249,0.03974838192193777,0.5081762383434106,0.9303379207171127,0.22647269783604762,0.4908098820551832,0.9559124942621627,-0.05589399506901426,0.548183697875363,1.5152103663882108,0.24640665551681165,0.3977898662370536,1.4908190191294612,-0.027552433605586804,0.8367172614455207,1.443157420455895,0.40191056343655013,0.414786417016989,1.2409751451583164,0.0985976335333441,0.7126980491651369,1.6367334334373491,0.4773429727024571,0.6683190717598424,1.2068960102834378
0.09853174027961394,0.514771801458492,1.5317095331815052,0.09951942031876594,0.5463315569829503,0.11219533843260716,0.22652159840403804,0.7713562172215986,0.5665178049575925,0.0754628100179457,0.6817492067416832,0.5168399112328179,0.2524749072523713,0.9525703282758623,0.9498356660464279,0.03987291049383724,0.5176209866941393,0.9279984247487154,0.22388900290540684,0.5143459105229516,0.9721429183085971,-0.050849714253614696,0.5710149772204547,1.509197452520785,0.2584616486365577,0.4320711825554673,1.4854394440338865,-0.018121181211635924,0.8603893608663695,1.4426024577425147,0.4359903749180243,0.44287728705468754,1.2503677817223875,0.10620820096004371,0.7357504220438817,1.6369581621623772,0.5564376597077229,0.6411439123095029,1.1187811862296606
0.10098784178834727,0.5352070163920863,1.518048583814539,0.11407487405631013,0.5497582168486791,0.12046771903838746,0.24514947699979053,0.9454983471922532,0.6495772925705041,0.07839209939118709,0.7087199918924088,0.5155805061794513,0.21857190009917296,0.9700144264781152,1.0728294371860914,0.0453983153342563,0.5387102995147404,0.9245587899208162,0.22589307344947537,0.5399511053645359,0.9814735903395886,-0.04856879150754965,0.5903076113740644,1.5012114572059605,0.2791373491702172,0.4671084831729329,1.4698946948736946,-0.009318005384992603,0.8805266470520001,1.4422189531737453,0.46889842543729043,0.47037538429058645,1.2443474438969593,0.11190912352496349,0.7499481239555723,1.634624643434779,0.6193830039172525,0.5836396846023502,1.0555136773271199
0.10403829010891567,0.5518439338731477,1.510443332849045,0.12738359892975762,0.5512286840104443,0.12277183711669352,0.2529544039111933,1.1255140054131811,0.7703625992502219,0.07397052322558907,0.7305915800455387,0.5070097097369545,0.1881196838042614,0.9709547958204342,1.1606888968613511,0.054429916316273814,0.5706392605781105,0.9208718798377282,0.2320425617005276,0.5697146623295579,0.9862508861240439,-0.050367302907690224,0.5973367837624205,1.5001047697993677,0.2864208168505668,0.4921661757005393,1.4514517799950661,-0.010417454467389816,0.8875432966210562,1.4415525875584547,0.4836814854070636,0.4779115264451593,1.232873289108699,0.1151113586043335,0.7569450158103749,1.631155617549875,0.6546333919727881,0.5078013995085369,1.0303536812609317
0.1083131675281741,0.561130421172755,1.5060998171984126,0.13621914501387836,0.5524440580444517,0.12502242450015924,0.24172104049069895,1.2963369423890931,0.9114368973559976,0.06673369924244318,0.7490370067665487,0.49808814812291274,0.1662961731880238,0.9936852636484754,1.1998204941651978,0.0623113030083773,0.606661073611173,0.9187585846462735,0.23870717249532247,0.6159195535698732,0.9867226499938012,-0.050359401513871145,0.5926593912121183,1.4975981591801684,0.28703592339412104,0.5079256529201721,1.4397922751097758,-0.017924260131975383,0.8845122477110626,1.4426926337007364,0.47784669236486066,0.4530544151415414,1.2219177764713927,0.11439130794126569,0.7557214646861319,1.6288888915314823,0.6509560692041156,0.42982891223308844,1.0203617940251537
0.11478605703779915,0.5548380357249059,1.5054702515326834,0.14061216087991685,0.5587322831093633,0.12952485906108896,0.21767001984513906,1.4550675567946234,1.0581374075893375,0.06168699131435264,0.7661020437355538,0.4948032242026521,0.1613707008560908,1.0566998903485258,1.1944724054771623,0.06333366464767254,0.6443901445414952,0.9219292087394603,0.23555243563134845,0.6716267657064862,0.9955454161265996,-0.04877384137055188,0.5805092662817302,1.4937441589090257,0.29377240097361745,0.5072858775875326,1.4363793570391852,-0.03222281861241251,0.8752719325668297,1.448076712577745,0.465525679184758,0.4097774785573706,1.2175461741336866,0.11646510651272583,0.7553058900902669,1.6276966564422732,0.6276005909928748,0.35790852446535837,1.0121945757845694
0.12187931511635039,0.5356339098922364,1.505564338339922,0.14644105683864486,0.5705867759723269,0.1356938596810148,0.2162217706876296,1.5512837888057027,1.121096011158312,0.058330210575084786,0.7803237086751373,0.49750287620661054,0.1638694089071002,1.1325463542943501,1.1698182891473694,0.05730528115525128,0.6856964533385004,0.9314383216653634,0.22596669949944717,0.7295194199220487,1.0053018217644456,-0.04871269019962129,0.5605833265526639,1.4911727370217875,0.302484818496729,0.49013581081054347,1.4362912265269747,-0.04795362255390273,0.8570320146485692,1.4542260976291403,0.4429408099258933,0.358359404850257,1.2131349549929764,0.12023269627667031,0.7468381737790034,1.6225604537533773,0.5869512279843757,0.2945265536073993,0.9979177231571906
0.12618752813978776,0.5109856992566781,1.5011299285891173,0.14780137746672994,0.587151538424359,0.14220163842272174,0.23000331129260065,1.608193721092272,1.1093644909475366,0.057676226790958046,0.794905792048538,0.5046582894981047,0.16914234355131402,1.1893480581047737,1.1455767012071405,0.0512189885006348,0.7172839277669035,0.9419066026274027,0.21699476402891937,0.7722452431050708,1.0148474775064709,-0.04482491524298137,0.5369622655024358,1.4845694655901955,0.30604163154993325,0.4617297726708237,1.4341006218893018,-0.05569671253616926,0.8346860905662448,1.4624982515450893,0.4148098923603405,0.30741848451646103,1.207712658226282,0.12671875239651434,0.7258290719698861,1.6162559480107621,0.5420696365672253,0.23963161297091426,0.9833470206562104
0.13329005470223018,0.4902859393161437,1.49576916924027,0.14958592004568658,0.6037218809098629,0.14760208650054915,0.25358157173340523,1.6410158813258924,1.102698499457668,0.06038065533877343,0.8046614907939511,0.514099651760725,0.19224531855800267,1.2208630527442241,1.1153685607984238,0.04513834148348501,0.728346074878828,0.9513591743106671,0.20918785489149325,0.7916391828895702,1.0213741599096688,-0.039845282891970264,0.5160390229105399,1.478596758150016,0.3103091353443108,0.4396860379975876,1.4278555935461061,-0.0642245155780745,0.813632364395513,1.4692252586881323,0.3818734304815457,0.27407225553965353,1.19473582045678,0.1328248633433665,0.7055952380465843,1.6043733798447266,0.5008066042151723,0.1996160318646967,0.96792613969627
0.13490810437657283,0.47167300166791204,1.494419372040157,0.15239840278910147,0.6116414818823624,0.1486824532407562,0.2777603363243839,1.6421598507372477,1.1022526807934696,0.05979451327844053,0.8012773009207346,0.5203309560455455,0.23478382618244154,1.2196368379387912,1.0930375976515103,0.04081892293766185,0.7244951383055641,0.9573570179591359,0.20891692919483773,0.7872080411453114,1.0176189359531098,-0.035800600885260936,0.49892129736118423,1.4798036035678048,0.3085548612027963,0.4213659330932506,1.4157011643757245,-0.0668428639179075,0.7959490480873438,1.4722797376273569,0.3506406527310044,0.2623360600092557,1.1710879353252746,0.13734850503421386,0.6894231331425998,1.5976586499587464,0.46113373440489536,0.18279866542651668,0.9417533589009788
0.1349740006863914,0.4555318581790766,1.4955940260360234,0.14771808995726152,0.6019958979703901,0.14647342309336542,0.3201203468252371,1.6224260262762613,1.0827416514557022,0.062261168973903665,0.7871255322870702,0.5220800468382298,0.26655048775491746,1.2010229518054876,1.082485312712505,0.03755904757305097,0.7192639132542517,0.9603069576809198,0.212012609456227,0.7702530957108616,1.0130731668916662,-0.03789259469036423,0.4868336689382511,1.480770530438843,0.3014753028426227,0.40599987873416765,1.4033166371591617,-0.06565203993771376,0.784165414850122,1.472340337120246,0.33522197234757084,0.27003401029030594,1.1439565082246417,0.13813763450373737,0.6753333256463179,1.5963990093788119,0.4290777676967029,0.19129833105290406,0.9070540066990834
0.13384006570913118,0.44423019632995064,1.4990361190510173,0.1340303752699994,0.5844456846225007,0.13776225250718324,0.37885594100085557,1.584108142594054,1.0161850056276434,0.07038387353560323,0.7653522382658821,0.5197006923368115,0.2801495130954986,1.1754739329279777,1.0772168024476443,0.037637820945402516,0.7060655636997406,0.9586411995494593,0.21525639522297582,0.7456933793564128,1.01062457542645,-0.04278388089347712,0.4787491189853482,1.484248178599788,0.293326396863127,0.3906563186883412,1.3931761661258033,-0.06186590397951899,0.7767499794346677,1.4753668070089814,0.32354869584403345,0.2861157911619069,1.119225420628598,0.13867132740305288,0.6628880019796871,1.6002091345737506,0.40754142907720786,0.22675427912054305,0.8731493005163558
0.13574523006190176,0.4336581923121715,1.501805398873113,0.12374581383865321,0.5646910844063359,0.1265731111597592,0.4369018617185327,1.5080067580917895,0.9146834708517143,0.07836130590856524,0.7404897832565405,0.5134707537758197,0.29756014530827823,1.1394437698115145,1.0734060345413081,0.040037863237385035,0.6889934019788148,0.9529331979792336,0.22125170540638678,0.7122675999293768,1.0023391711358571,-0.04106030210549199,0.4766976272506464,1.4867801144503894,0.28559607956638833,0.379255737913275,1.3836579719618416,-0.05710947627288822,0.7749229480635169,1.4799776113325431,0.3146758700821745,0.30806911398255066,1.0990860114199295,0.13779319277481336,0.6526638626849978,1.605784138769452,0.3941276429873982,0.2788355649811582,0.8461799210421571
0.13611899179921808,0.4239437061934959,1.502387226467433,0.12311185739683998,0.5492833628896109,0.11458869374195532,0.4930789487521847,1.3996634323225459,0.7972916911124115,0.08879800669940988,0.7154208273089608,0.5068688252641643,0.3170590338686032,1.109358845243115,1.0526253959113874,0.04187739434250221,0.6715635373226083,0.9463250852059287,0.22421123467566412,0.6833390476632581,0.9956867747529778,-0.0407049103348736,0.4722196645436675,1.4913945852262407,0.28063230452140364,0.3711600130535636,1.3764330740826276,-0.054195686790524084,0.7705610461296215,1.4838306430203176,0.30520519189187284,0.32975586410596847,1.0856154323072171,0.13842374536090024,0.6456210167243346,1.610538180300161,0.3896619414324521,0.3410912374688573,0.8328876626132694
0.13372293124882945,0.415146141884855,1.5020700847873818,0.1279634348691148,0.5387561335377342,0.10296586788232942,0.5302267570526822,1.2630407112191522,0.6853591887734243,0.09804521941273012,0.693701297065094,0.5001496757556929,0.3351397325145681,1.0777042535986887,1.0140518169697295,0.04244695768761524,0.6501544955332564,0.9386358337679281,0.22547509594012902,0.6527536632877846,0.9867503922673769,-0.04029649854964087,0.465536428282356,1.493534569587658,0.2735472464383399,0.36182380429769534,1.371981074912169,-0.049808613290315794,0.7640361173761933,1.4860563066059715,0.29837958718972907,0.3537755419158636,1.0783690559168075,0.14080037754912972,0.6387182441043927,1.615395971961326,0.39124375817947915,0.4067930281846341,0.8340343705748817
0.13309247105617186,0.40981196495721656,1.502364966097952,0.1278953001117614,0.5305811437299426,0.09377292019622084,0.5435525590495889,1.1082115086905084,0.5805914111196457,0.10226376218133146,0.6771179772398673,0.4944385381484101,0.3590518985824605,1.0375971151367205,0.9566576712390319,0.04125393445063047,0.6301685955147733,0.9318486977308036,0.22551179526306817,0.618992036037584,0.9736276199652557,-0.042037209147674365,0.4625533702845548,1.4947308441534612,0.2676318413487259,0.35011045940050367,1.3700948536501674,-0.04162639421127242,0.7612263255524682,1.4883395328395026,0.29512760978763836,0.37366420422488994,1.077550228323175,0.14524783106093464,0.6296553979576139,1.616917907384209,0.3948741068715732,0.46747252783615006,0.8486816258154939
0.1303693913435623,0.40402971959108147,1.5030529827835315,0.11878893270525692,0.5285921120833005,0.0887270398318208,0.533024488268098,0.9394490039854836,0.4868284337748965,0.1018296139246921,0.6643448055193211,0.4936225327600416,0.37680549754779663,0.9949066864250139,0.8779400275933161,0.03674552439153103,0.6101434661386528,0.9296033047915491,0.22290423391720868,0.5908184370201203,0.9578158689480873,-0.04159285708582163,0.45958062979415665,1.4948633180625577,0.26003303358224467,0.34057735125823874,1.371012836047065,-0.03452718657145762,0.7581557431744946,1.487866484086726,0.2928125758114485,0.39224016726544436,1.0826596525633516,0.1484482208636163,0.6228866074230947,1.618203045441566,0.400729105682052,0.5225698491945374,0.876503875233815
0.1307880145512291,0.3980139195847856,1.5033055409917184,0.10984450283548726,0.5253963164205196,0.08184980639246255,0.502957246756305,0.7712273246825977,0.4120283677142289,0.09973088119006712,0.6482835185381535,0.4910585265845862,0.4009854699893006,0.9325251387823887,0.7915468854132864,0.038187831959022485,0.5922214573120179,0.9273176066978083,0.22382416643918118,0.5617488122635425,0.9480571516786082,-0.04024772610031905,0.45687027316888607,1.4953281428556284,0.25597514637510826,0.3306091292552412,1.3761443847615573,-0.02487219321288095,0.7550583224146267,1.4857761217483367,0.2954355261202612,0.40193270483361104,1.092859613664078,0.15391857133647868,0.6180213470643872,1.620017831492802,0.4100288376991665,0.5643928860775528,0.9150747515578077
0.13277893093815246,0.3918358424001302,1.5041481128183716,0.10831165185537396,0.5226618985463461,0.07792474201030777,0.4537403565048378,0.6170026025872363,0.3570953010475641,0.09942597223009064,0.634898072045794,0.4902168071645422,0.4121473325411662,0.8549911780533468,0.7064991899360288,0.039645787687107775,0.57970037111847,0.9268322815693172,0.2228853260115144,0.5343072423231569,0.9403814977022509,-0.038344780254587596,0.4560914564441272,1.4957683127203458,0.2557286420516428,0.3213477142992193,1.381545765383553,-0.012642182194009144,0.7533641624834541,1.4810011780447994,0.2974581159977652,0.4056828125944984,1.1021858630000152,0.15929160308937104,0.6120118661705829,1.6196530753792884,0.4194465430643015,0.5944166764162437,0.9585694449997222
0.13475762973020647,0.38312851907712153,1.5083930410819386,0.10846654388074055,0.5236118192524257,0.07916451260110588,0.39582326190669936,0.4821481856219551,0.3109990656800438,0.10218001928905693,0.629313371150403,0.49321842840232155,0.41278944641497906,0.7600434468323295,0.6318417060214777,0.04157323670416561,0.5658843543187867,0.9286056347787545,0.22132954131723034,0.5071623373710152,0.9363864689824825,-0.03361466173281727,0.45393502597518404,1.4992914886813988,0.2577548969438982,0.3117952815088602,1.3856190467055705,-0.001248524789526353,0.7498894635836459,1.4746214227995362,0.3001524393333204,0.39955483712332684,1.1074259318095272,0.16564640038016115,0.6061403272571838,1.6169017481051104,0.42775167375494916,0.610709670461105,1.0061219795108283
0.14118560669638522,0.3787302420131348,1.5127048579605678,0.10672511993026092,0.5232115512374053,0.08075045129564756,0.3366849585335816,0.366554133505953,0.2719988008423471,0.10559057364315479,0.625016779223236,0.49583152772005945,0.3958618843351449,0.6592812865289401,0.574093697285176,0.04501109017505879,0.5500018829395267,0.9293682188856607,0.2191123536825279,0.47582832691849314,0.9325072120463846,-0.026084222217703006,0.45106664316629164,1.5054810140319494,0.26114979716210324,0.300722854961779,1.3942538645232978,0.008565926911310622,0.7453599213197168,1.4675807771721603,0.30838937969016333,0.38915509569881823,1.1170627574122962,0.17225557236403594,0.6029673193693643,1.6148683494957627,0.4396245355943772,0.6137561802636555,1.0581909210275835
0.14964243259296212,0.37128350036470675,1.5185147501786906,0.10518348352751068,0.5220384360042923,0.08199188233355925,0.2848187550047574,0.2747117550578776,0.23708822971273474,0.11378381449439101,0.6178314337148626,0.4984115095410207,0.37588555779885147,0.5585512919806808,0.5397246202745699,0.04815273819708174,0.5336354332325289,0.9295261583186892,0.21303904188948547,0.44072316791667043,0.9308132180415682,-0.01437004648040717,0.4499612928439473,1.5106633520093966,0.2631880931937118,0.28415369211096503,1.403114020481596,0.018634098365820754,0.742362436680444,1.4591495652277688,0.3173360839758439,0.3667862149374062,1.1253828138150868,0.1810040602523126,0.6016175810001131,1.6094565389315176,0.4425214600687386,0.601610617155044,1.1074638134067782
0.16168363812790304,0.3656574733931111,1.5241609002011582,0.10542114485288202,0.5212226703170706,0.08294062303583048,0.23851925112649586,0.20618573359726086,0.19934759503838334,0.12248814883343163,0.6044380318241295,0.501798721644326,0.3485472803454964,0.465968976778374,0.5169234798999823,0.05378509446884366,0.5182604511581768,0.9320371954693585,0.2083743897647531,0.4090864213267248,0.9298013606962723,-0.0024775897642180596,0.4504107741602176,1.5186245083190308,0.26738787303864475,0.26989605008566725,1.4096570138129314,0.03538811454424023,0.7377851634705289,1.4463181493417279,0.32827267526297566,0.3399413963610371,1.1298744416200186,0.19165262495532542,0.5996851835518057,1.605301594313583,0.4465953850944794,0.5783661889676384,1.1468499490594368
0.1727034760941063,0.36295734897382315,1.5281172981817475,0.10889375953950015,0.5195490327540497,0.08302452983839115,0.20287473951449123,0.1578781859173354,0.16180555748026249,0.1328836509188641,0.5903767358663398,0.5038222013775222,0.31611795479662064,0.3848221219015126,0.5025752795832699,0.06003564049128244,0.4989744352442455,0.9322977282438839,0.20400660251199282,0.37620784696723136,0.9276818690307903,0.015842057912481198,0.4523550840226525,1.523492558000804,0.27009838006985804,0.2524379254704478,1.4171043455005308,0.051903092644824726,0.7333390284398186,1.428645235549716,0.33744769583192435,0.30168257384740566,1.1343805468581198,0.2041122606401576,0.601052334186647,1.5962627441388932,0.46137280078921716,0.5339754583732227,1.1769739820640148
0.18566440242273374,0.3529553245915465,1.5314561822581356,0.1114941000441001,0.5187092425829145,0.08463359640308898,0.1732814326956853,0.12378901675564095,0.1357211592600441,0.14158906379571062,0.5772000904705954,0.5069243365579131,0.28097791106040404,0.31792985934268264,0.49787817653161487,0.06806598275532234,0.4791522588863463,0.9338163542591656,0.19766982889289944,0.34129885293570633,0.9290032816832667,0.03438566072206915,0.4529707523867929,1.5267671723358183,0.27115643803672396,0.23338000843961298,1.4220614760291987,0.06946554850305245,0.7241798278276623,1.406508668509397,0.34612217927598604,0.25943969442923476,1.1381682227162964,0.22073018257099197,0.6012504566762703,1.5819320088708604,0.469614097181512,0.48734377760289316,1.2009493170731762
0.198715225750136,0.3441467869668742,1.5321657987014623,0.11434422969851898,0.5166533787653586,0.0857017248305227,0.1525013070120305,0.09855097543755295,0.11706591389544653,0.14895471561523788,0.5604900419088188,0.5094204565043186,0.24863593370126313,0.2653667798786343,0.4957299592503072,0.07533763999122366,0.4572007639746705,0.9350507292184651,0.19271752002209688,0.3088338031897934,0.9297059977125712,0.05597028072356393,0.45207260294787244,1.5257774828391044,0.273616491659801,0.2114230215494693,1.4239161960410782,0.08801414524220987,0.7117254421217086,1.381564378897405,0.3505084576036611,0.21318319706227576,1.1393530741414788,0.23674940665074123,0.5995360017967439,1.5660962568274894,0.476998861339884,0.43554117296914446,1.2147950789099613
0.21195490244189444,0.33096581510546935,1.5321332956434897,0.1156964311282571,0.513891873836694,0.0867853911161432,0.1428975277967212,0.0881847009087141,0.10255577437559897,0.15266569122745724,0.5441978935710667,0.5114887912813769,0.22819439686829932,0.22916187855853895,0.4940936467928524,0.07587290360350296,0.43126139537206387,0.9340974070944348,0.18692397840941477,0.2780803902279421,0.9291290673743409,0.07258258765172368,0.4487379225525455,1.5214249872687495,0.27458398498171555,0.1881859289525067,1.4266483586020402,0.10748603691663418,0.6954255560011032,1.3565801972829854,0.35192055913794995,0.16192575956931204,1.1434120543031496,0.2520955401230756,0.5929074381500269,1.5498290858262838,0.48558815507168324,0.37923319208221157,1.2211441220473374
0.22185363683295403,0.3165650592819507,1.5321397201982856,0.1162669790280538,0.5130170571749376,0.08605857539302647,0.13939646836368677,0.0842333317151874,0.09279116824141538,0.15283174255466853,0.5295414891863506,0.5115563417032961,0.21649873686385845,0.20260033046357184,0.4934078505403114,0.07734769813869581,0.40907530799184744,0.9323153535574316,0.18368253866404405,0.25253125690138184,0.9290457446758583,0.0851620363534465,0.442900142822077,1.5169375112132224,0.2769313212965956,0.16729156081819208,1.430505470467117,0.12606485953639804,0.6730178171618273,1.3308684188485629,0.34565401797756456,0.11197847448440536,1.14924003163823,0.2665869460661361,0.5796287856794242,1.5316103115863702,0.4913749775945476,0.32335468661028705,1.2214725582528936
0.23010418221118956,0.30088305326615605,1.5321069286264317,0.1169249234011486,0.5126289546710258,0.08680276027714538,0.13595191707917953,0.0827805031638099,0.0871335781357807,0.1511375162112295,0.5163822396884561,0.5127939782696549,0.21004936707794522,0.18320609412464706,0.4931779385188824,0.07968375800845842,0.38903395392994883,0.9322347126928536,0.18177321783816525,0.22968816296281977,0.9295219975913496,0.09717761988694859,0.4315058668909545,1.511501931751401,0.27633398068430887,0.14350249499198545,1.435239759310106,0.14028594751953172,0.6465312015137499,1.308638872172003,0.3370798666547442,0.07054884741977649,1.1561662767722618,0.27887563449165986,0.5638013015587823,1.515319185559517,0.4918460492823743,0.27769673245069815,1.2214866838373335
0.23536748423522952,0.2869191763316479,1.5330271472613848,0.11758731509749229,0.5119054838808105,0.08812081207396813,0.13398027568986043,0.08131034289550304,0.08462196790191306,0.14694193643975073,0.5060483433517133,0.5144581640907588,0.20700759334931407,0.16875653995434695,0.4938516328363054,0.08261904712715476,0.36887828620543506,0.9319514367649735,0.18202234884945917,0.2078205393227655,0.9311212197565201,0.10347320026222014,0.4184676779376491,1.5075184915806819,0.27801120092393344,0.1260243020539065,1.4405948817477232,0.14846108070852734,0.620166156195966,1.2917817316418996,0.3296482205208634,0.03790899499199665,1.164080249588491,0.2877653866425492,0.5485786475188459,1.502105015387424,0.4894531747918345,0.2426979263683,1.2245499236056219
0.23864948325582827,0.27247242348337686,1.5337699382812342,0.11933998598352019,0.5118515433137878,0.09106270579431278,0.13324395737310687,0.07829813309925852,0.08356151430038153,0.14401117736483202,0.4966283209448409,0.5174621799620513,0.20585579687753536,0.1543446501370194,0.4951435839069518,0.08626674413050542,0.3487801442600977,0.9322668468030577,0.18699416302299907,0.18854678807748568,0.9331176939006032,0.108672256085742,0.4015879764321353,1.5047452666932932,0.28192018483783676,0.1080045888159021,1.444808319185802,0.15187721061233922,0.5913376589220527,1.2780798870709231,0.3254176360498038,0.01332553259864685,1.1690655341196343,0.2903069208532492,0.531734592625829,1.4926713974807735,0.48450177402317246,0.2181557342205213,1.2312444022007796
0.24099919954114618,0.2574777455297441,1.5352388264601322,0.12231346529938412,0.5120997370905515,0.09457291438948577,0.13265416474686864,0.07597313304677586,0.08368101969496901,0.139875012591677,0.4884123492965828,0.5209390510737512,0.20464766536259715,0.14259435328367048,0.4969961615210261,0.09156295213745108,0.33218328662846636,0.9338705114436279,0.1927678670454514,0.17226533341982336,0.9355575912447571,0.1104824055018435,0.3855599761867866,1.5040080230147619,0.28396731778269824,0.09426897461990502,1.4478868198287551,0.15277023352299895,0.5642682852516943,1.2683825679237053,0.32323162824676244,-0.0025644241104373303,1.1722567836120372,0.289929049327046,0.5158625328113641,1.4865722616878627,0.47564066253447673,0.20578275539386998,1.239294671678208
0.24390560529615443,0.24143466857645574,1.5373501286419382,0.12527543818066555,0.512732642008281,0.09733112133082923,0.13176924455444924,0.07378006115248274,0.08420964417585455,0.13711469357621026,0.4807168760542036,0.5233574377027387,0.20251417436582997,0.1310838393362517,0.4991311682583353,0.09598342826771936,0.317713616121204,0.9344379514363433,0.19902426306540416,0.15899408023510095,0.9379500644038967,0.11085616933350803,0.370386135732633,1.5041438145077992,0.28585128565537105,0.07873538546426798,1.4511695372666145,0.15132469093174214,0.5403115327093767,1.2617875243063092,0.3228629166870528,-0.01146645547947303,1.1729773043850225,0.28708205575913615,0.5020296990982589,1.48285711546959,0.46705126096437,0.20005245645973832,1.2478179367032527
0.2442696959932083,0.22708324497633292,1.5393965657617954,0.1253240523146479,0.5134153505303706,0.1008744259677179,0.13151740711508147,0.07133266967127855,0.08393166891013622,0.1364749463080362,0.4735504155776577,0.5262493804401899,0.1981929111503096,0.12242761121675558,0.5003321749134371,0.10081139460694581,0.3062087550791892,0.9360976507339247,0.20441340657968432,0.14785393392251334,0.9392817367419284,0.11059286283923382,0.3569536675045589,1.5059588939180593,0.287340607776936,0.06600609456330792,1.4531403850851585,0.14653742960687444,0.5208766502976345,1.2588028811527425,0.3268337597362456,-0.014800666888774293,1.1724213499033591,0.28091211006005157,0.48897357880450854,1.4817181865095557,0.45987593886788064,0.20015325920945096,1.2573979290491573
0.24275724397375473,0.21466177089067512,1.5411202133527595,0.12442343045440334,0.5123173117486537,0.10328020935869846,0.1318907955908678,0.07095243842367129,0.08380178211951181,0.137444896606726,0.4669094600542825,0.5280517656631651,0.19472300626327674,0.11399014532628542,0.5017155601776211,0.1054917986095598,0.2956483723062078,0.9365858757923776,0.2099561568072076,0.13787388880213924,0.9405249043770073,0.1107271896227565,0.3412760679735468,1.5073051455525943,0.28980083762369735,0.0554516932445548,1.4537269007921387,0.1401165426573849,0.5033167853692749,1.2580562676030929,0.33402671442310716,-0.01321246284022124,1.170497711158626,0.2740182634022565,0.4800889802926119,1.482326599640116,0.4537025554733875,0.2030129419645828,1.270783515867786
0.24265699779976957,0.20267547635292477,1.5425836598553935,0.12433252052268799,0.5113140368841079,0.1051139554058852,0.13137271536205367,0.06943499238853866,0.082943350553709,0.13803265850401178,0.4604174285229715,0.5292318941132237,0.1919589659351658,0.10514209633498507,0.5018709305870658,0.10898076750363506,0.28567059983852783,0.9365132603817373,0.21592697125943272,0.1295576355688657,0.9402647082656235,0.10949052778099823,0.3250619479099314,1.507157879295772,0.2921497423967704,0.046422286984480074,1.4533199786189015,0.1320704429904323,0.4895442706488369,1.2588053524146732,0.34386369777367,-0.008566821709016207,1.168367785440091,0.26732579289246877,0.4702323616036981,1.4826306802858937,0.44690423075330105,0.20852215760890444,1.28406429768903
0.24107854715840496,0.1927976521807148,1.5435361864669241,0.12454642471059589,0.5108892719022297,0.10647985240809843,0.13161566414154593,0.06757750006486524,0.08229533719399244,0.14018564293133925,0.45429609468104404,0.5298147046953922,0.19073179176843422,0.09722435745560534,0.5019064383053679,0.11170813636844959,0.2768918582636805,0.9359801742562867,0.22231567226675528,0.1233611987141951,0.9397184263811669,0.10636231799894978,0.3118056755496907,1.5063025490208297,0.29582472631743845,0.03891412949154093,1.4526161421052615,0.12198726718025409,0.4776167931582376,1.2582789986208598,0.3565369421409248,-0.0013367689541991115,1.1669749322586298,0.2575700292921041,0.46207610316097725,1.4821984086000426,0.44149393863746644,0.2151144815264909,1.2976058584854162
0.2401696124752222,0.18460649273487073,1.5430455820852897,0.12564851471770408,0.5102775689586113,0.10672009426045909,0.13193335198976108,0.0661341833457488,0.08178009660791039,0.14159783814990687,0.44737882433805926,0.5291527304591374,0.1908296672471105,0.09189189227296046,0.501680692900234,0.11541161969276682,0.2685780941482741,0.9348674638520875,0.22772651692263574,0.11629845167341285,0.9391747877253673,0.1008757947583671,0.2994075949820177,1.5051000500647627,0.30253095526735646,0.031527800113052784,1.4543085330951542,0.11304791810280815,0.467150797896369,1.2582019014684647,0.36639952427489003,0.009784196647595483,1.1673577296769502,0.24807401450115174,0.4528503411283841,1.4825421810252852,0.43687938717654995,0.22300426283759547,1.3112383187345495
0.23956215350972032,0.17618658824548566,1.5427317919063859,0.1266431039632209,0.5099516753606332,0.10765670446772373,0.1317612599574108,0.06635821417945587,0.08162318711091537,0.14211355999031391,0.4417100347060334,0.5292766302384514,0.1931461939606149,0.08878234045871715,0.5013612801284397,0.11736643300648056,0.262081162121954,0.9347127255344915,0.23228105781874722,0.11174917894625853,0.9387293379161917,0.0969929987837758,0.2840256048074524,1.5037247200264954,0.307411478570105,0.027016972751905465,1.4550810207912876,0.10530669562884111,0.45513429113967074,1.2589799617242894,0.3777928708477418,0.024994897593078474,1.1688340209644241,0.23905259855592512,0.4453986774959137,1.4843315308632716,0.43113702759113903,0.2335495254649239,1.3262816014674035
0.23898015361679292,0.1685162239666616,1.5424374478568978,0.1274493362238111,0.5092159696601811,0.10804590223448447,0.1323916928239382,0.0663698218966211,0.08108636507170294,0.14416279719109612,0.43623043960376845,0.5288188849491939,0.19551832140107778,0.08741069427479585,0.5006416117168441,0.1194039768594397,0.2564463774274865,0.9341872620002352,0.2371515234125569,0.10831965305524122,0.9378868693141538,0.09406959797601318,0.27142717298108215,1.503785148470737,0.31235348376860966,0.02133865382081195,1.4548491866748472,0.09879668122021142,0.4441167221601814,1.2600562400958977,0.3878537869478911,0.03735855585227088,1.1703600975693156,0.23331724841564033,0.43919405281917395,1.4851098119053374,0.4260743669385115,0.24092007448703753,1.338382872353566
0.23923687863555174,0.1616088889683292,1.54285943659496,0.1292096108020735,0.5070983730029306,0.10829094267745357,0.13289252290604486,0.06637094193693244,0.08177384921526167,0.14440606795955613,0.4311944960229047,0.5286081963724439,0.19897117717609827,0.08772859246677889,0.5008523461055956,0.12061957369808707,0.25000761113085535,0.933398862195044,0.24281563876911152,0.10555092588188925,0.9380225929246566,0.09144688257149841,0.2610147836412803,1.503059202722769,0.31870319328903673,0.018857196627945518,1.45659943797631,0.09312425368266791,0.43449395658570744,1.259853928292682,0.39889079332071864,0.050960746893192355,1.1747684590393102,0.2254056302039356,0.432843100082617,1.4862789952815345,0.42090569563763613,0.2479681511878002,1.353192845130722
0.24006744341681982,0.15590211763372017,1.5425347373492748,0.12903581086770985,0.5049383390334348,0.1080066408132583,0.13276839967081314,0.06678272183989874,0.08204319492187026,0.1430161863668867,0.42528865672919164,0.5276729782209187,0.20216983453032872,0.088315406343326,0.500577540093845,0.12235360814114762,0.24574489269483757,0.9333716230281288,0.24713283114436158,0.1035044140945708,0.9377318085489793,0.08999234840209538,0.2546226248216322,1.501963658073405,0.3248871228896262,0.016584167311127482,1.4587383139403847,0.08989604389246217,0.42775439294916334,1.258507160523591,0.40657911322001783,0.06383137439710777,1.17947673203607,0.21861642694750383,0.42701268776990337,1.4869653626191421,0.41780997486660765,0.2524619621252017,1.3676854583953302
0.23988721782298852,0.15136309975345694,1.5434179285681735,0.12951367980615833,0.5040961631564924,0.10751850716897257,0.1331976662874505,0.06645086402497614,0.08189537649552665,0.14251971011310677,0.41899631523264497,0.5261406990989178,0.2051301603566684,0.088492170864158,0.4999682417954089,0.12371417498772294,0.24206368395125846,0.9330757581234286,0.25154264049133596,0.10254872485331644,0.9370082652504447,0.08707077312003549,0.24672463691577062,1.5027483227261182,0.3293890958033285,0.014661852074918186,1.4606144351395218,0.08491867623907659,0.41876663668848807,1.2585197590325568,0.41341010533173367,0.07552884841973556,1.1846950131355038,0.21194164674738444,0.4227604798153767,1.487897921874326,0.41482834376341027,0.2580172223974577,1.3791838802815652
0.23977258908485538,0.14884167334849713,1.5432317498664525,0.12916020017399807,0.5039099012812615,0.10714358146943306,0.1336017787527709,0.0670002360236541,0.08183290281120126,0.1406408688523598,0.41447140627172874,0.5249095602741386,0.20801243052012927,0.09025237642315545,0.4994164316035695,0.12564971784181372,0.23977048159967018,0.9329608951708885,0.25498098105657635,0.10162722402090373,0.93647262211657,0.0838606007404068,0.24012555365684607,1.5030330568804315,0.33068667036403565,0.012670079904847984,1.461900020449031,0.08076489568755847,0.4116127195007634,1.2584310073286473,0.4190818071934419,0.08653031179004558,1.1905684575051305,0.20583339315156238,0.41831081315812263,1.4888248731293008,0.40911646115790395,0.2625925784711424,1.3906489070571348
0.23888434879297016,0.14676021519320342,1.5430149700163815,0.12822522089060948,0.504489216416822,0.10680211417870865,0.13386448760433212,0.06726752226993636,0.08162074840729124,0.1402239972328866,0.41124100982919226,0.523710750963562,0.20989985705626776,0.09163513881665178,0.49884207810023207,0.12664269910910547,0.2372647300020844,0.9321269624960605,0.258408008866625,0.10144650367728261,0.9357741953229328,0.08331734533417613,0.23490184833332503,1.503891030409371,0.33554867837677915,0.011834966329277788,1.463526111345651,0.07668961538567565,0.40573654532808784,1.2589021108618508,0.42493613182659457,0.0970694394998151,1.195875513882034,0.20193294772000098,0.41663497061090465,1.4890321895649854,0.40347893681647207,0.2667698399901043,1.4005057022042546
0.23886613777613186,0.14533734170940102,1.5423885011440226,0.12638069083694167,0.505962296917291,0.10679022030417865,0.1342599205351234,0.06755380771803857,0.0818190992114835,0.13887042384014936,0.408905986695063,0.5228230168238128,0.21173883086764564,0.09270679626377033,0.4987276756942722,0.1278738427960917,0.2344988361510343,0.9311362370986545,0.2615861160699776,0.10062229075274659,0.9355438516886184,0.08231926424752281,0.2301574078475882,1.5027677656184688,0.33975690325131697,0.010730412200449731,1.4642731824838044,0.07409273784285392,0.4022874844741639,1.258731578162165,0.4284965227627021,0.10539642343408821,1.199596859902288,0.19956940520063954,0.41547304051785083,1.4886126462375475,0.3996275320494865,0.2679458774139175,1.409060004312318
0.238606422195962,0.14293138180336132,1.5428281699332036,0.12561552172320523,0.5071118760278294,0.10655551310115277,0.134290379543474,0.0673152993183853,0.0815570065364179,0.1382509786871337,0.4069052384474432,0.5218353300239744,0.21229230873382282,0.09312999935975112,0.4983291516599505,0.12843556981667276,0.23234034039621246,0.9301067999069919,0.2642381662846843,0.10059542611259226,0.9349100528051367,0.07992166255992678,0.22740261827868535,1.5008649378899814,0.34256428989444543,0.011985870366331471,1.465496888801713,0.07330004126842761,0.40042664978066733,1.257420133660133,0.43097944749415484,0.11346516107971863,1.2032373715779594,0.1949396943412831,0.4142352679187004,1.4893195189173272,0.3953093396789048,0.2709208800653935,1.4155250143736087
0.23844358897197368,0.14216142477915517,1.5426432256297207,0.12507215307606495,0.5066391992632002,0.10625479678738635,0.13473972843050666,0.06771253582403394,0.08147011218562103,0.13688470782050596,0.40526382816117057,0.5212679076634232,0.21346208411293074,0.0927526972641047,0.498155126939923,0.129412432040453,0.23139798619509055,0.9298880628716156,0.2660004267965295,0.10046780697928713,0.9346625261341315,0.0782361600897268,0.22523450955405003,1.5018202018437556,0.34674462258498007,0.013091510949780389,1.4664828072387242,0.07076823190283558,0.39738254186568933,1.2577841973092065,0.4330097635602623,0.12052924822856978,1.2058882285461792,0.19244700303029916,0.41196270149606123,1.4896167529097069,0.39307321288245,0.2722269667414731,1.4215800403445396
0.23871410234983426,0.14111360273926535,1.5428932453573696,0.124199060336587,0.5067743879248446,0.10550152462332908,0.13436633506935314,0.06814217655069967,0.08106140522657271,0.13523474470714714,0.40310323988423513,0.5199738693780394,0.21425687053491457,0.09283884915401683,0.4975454308212294,0.12992050790851123,0.23137735340632332,0.9295274761225454,0.2678421296001759,0.10184434396983356,0.9338949097217819,0.07719824067126978,0.22290848586492165,1.5013256051418555,0.34837403289081853,0.012783355279582076,1.4682473152109674,0.0685219019319795,0.394572898516302,1.2569840669494556,0.43462352799206666,0.1259418330989158,1.2100850848691933,0.18944059321892393,0.4099910656753133,1.489155537893629,0.3882882036953197,0.27538895190757534,1.4260757509721074
0.23877298423226392,0.1416593939191395,1.5426709347110465,0.12245090165044889,0.5070194681370169,0.10549885992132016,0.13400736333423136,0.06884508095927928,0.08100710364234677,0.13488261656308298,0.4028555989640595,0.5198054466858898,0.2136114794158801,0.09376814816951727,0.4975278858450056,0.1301400745017507,0.23206533678239952,0.9297556720087208,0.26800781136415375,0.10246380255686659,0.9337873374571327,0.07730002137822313,0.22209377829352028,1.5004996112909745,0.3491816402003601,0.013731812532248516,1.4687905162383623,0.06657712423789625,0.3954179382813271,1.2574220563856964,0.4363676207455824,0.13096963161451528,1.2127757023546275,0.18841568749853232,0.4099568483979785,1.48917697251806,0.3863181215196567,0.2772364923759845,1.430109098052829
0.23781884697733052,0.14235096041249742,1.5429328359361096,0.121722958909988,0.5069946695085739,0.10495960546556503,0.13454984778904563,0.06883556848159351,0.08086903971394376,0.13391389705224963,0.40201861446756737,0.5190766579039247,0.21460071504445952,0.09452747631157803,0.4972618862541426,0.13037966792484842,0.23194222241672602,0.9293395409407833,0.2692382336012483,0.10340309469877489,0.9334865455999906,0.0754493276355308,0.22066423052883294,1.500102487113817,0.35178247567939247,0.01722650697366888,1.4703624880253081,0.06581849100608908,0.3944717197179553,1.2573237962816075,0.4390665407553487,0.13584549842155194,1.215007350651068,0.18669670962183169,0.41149899265837847,1.4894028996513222,0.38268907395336726,0.27937288464606547,1.4326143124865047
0.23863245580606834,0.1432408883762368,1.5424631259095392,0.12121442147885403,0.5061620114721543,0.1046106985135706,0.1340682587928289,0.06913300484850742,0.08092443768927153,0.13270012973903308,0.40146696552129163,0.51881195124229,0.21523089368755244,0.09615599109501918,0.49701709151271023,0.1305817857810657,0.23306791779065125,0.9297774950103466,0.26948016441451667,0.1045559316186426,0.9332960129173026,0.07489147164633572,0.2212902121635288,1.5001406224554594,0.3515443749994377,0.017567120168486168,1.4717931359125174,0.06525071027374651,0.3955476890618982,1.2576758611232783,0.43919492873869903,0.14039935362063705,1.218564480212574,0.1861140486964235,0.41158840169619626,1.4898389153396268,0.3801165801372412,0.2829651515750237,1.4360772533467627
0.2376830636417769,0.14366481160382838,1.5432502676544277,0.12062536958580747,0.5070456200080816,0.10459151380164594,0.13439757908056094,0.06847347224618247,0.08151691905409363,0.13235434553441913,0.4017274697015246,0.5186314492316313,0.21602683259864527,0.09710951607349855,0.4974140586885553,0.13096268226425095,0.23360906021213432,0.929706467556424,0.26994164375404445,0.10519570519211516,0.9337405979866609,0.07356198396457876,0.22183439797889462,1.5000687235642147,0.3506805741840264,0.02024090529713473,1.4724722469666154,0.06388964658277554,0.39563841581015535,1.2572874737250561,0.4400817606354727,0.1440170282680919,1.220321183607084,0.18442494277066715,0.4130364177414256,1.4895256800188046,0.377948265545477,0.28383220561273254,1.438770432358179
0.23782994630048604,0.1454816031000499,1.5431300921078357,0.11911461937243148,0.5075301897637622,0.10431960871649577,0.13446657707032392,0.06836917113992345,0.08179437734191627,0.13206789725430146,0.4026974248669573,0.5184394889338084,0.21736294277390675,0.09913147128709193,0.497290164481648,0.13102872639401783,0.2348040935593915,0.9296152693654587,0.2702738188911635,0.10668808061041872,0.9337505218396329,0.07256556605130043,0.2224850280207723,1.4998244383156503,0.35105778470748417,0.02093651937195845,1.4735318979133185,0.06355497250185457,0.39683723438580387,1.2573965963505898,0.43928464122159017,0.1469970509294994,1.2220929816853952,0.1835262866816114,0.4140962506877979,1.4899394502901138,0.3763917717196652,0.2860168089565855,1.4408382023715136
0.2372190974344761,0.1458318411383584,1.5436541225395979,0.11716641314896474,0.5075759998906251,0.10405356870889391,0.13516110104654197,0.06817089250008587,0.08209941356893662,0.13188154294639473,0.4037580956708011,0.5183726806336422,0.21913326119572396,0.10078568867141485,0.49722811386095,0.131302169444286,0.23587645271221008,0.9295534649702406,0.27069915423553065,0.10793067298793234,0.9338558309183201,0.07217541050664675,0.22372672665790538,1.4987701151969188,0.3521446166545677,0.02112612671163935,1.4731316508670131,0.06282103202575355,0.3986605272885421,1.2567845505371078,0.4403546707522044,0.15171407271335044,1.2240148012559724,0.1814134121346031,0.41595495612396965,1.4900272936074914,0.37319226050391274,0.28779368571680203,1.4433351597595545
0.2363412411556039,0.14807766655164006,1.5434041483381176,0.11575116781842154,0.5086229266840105,0.10394170266605675,0.13572172571095145,0.0680647569060804,0.08230233750566515,0.13112903237871348,0.4049135176864665,0.5182609177089306,0.21997720404552468,0.10313760056644235,0.4971780611528565,0.13166621888211186,0.23738754221856076,0.9295935615558493,0.27144719762769726,0.10985131880574686,0.9338225314818962,0.07181540039972788,0.22398503549817575,1.498790972801091,0.350731179635673,0.023716469421607305,1.473965704942828,0.062180800540052004,0.4004132456778116,1.2578989956326934,0.44205362850086416,0.1565603895946311,1.2271752845943387,0.1803364632259997,0.4175107147569567,1.4913781612481698,0.37139430980863997,0.28994488389237794,1.4470540587920868
0.23536496760912068,0.1487097819535538,1.544163312610063,0.11495519898461179,0.5094077585683234,0.10369640335786301,0.1364856717138763,0.06813791481811664,0.08306900497193127,0.1303323115206351,0.40700877860514845,0.5183508424781804,0.22206701155860722,0.10558234077900315,0.49746451536630837,0.13224920196799442,0.23937074715748655,0.9296247011329275,0.27225678758809163,0.112101635256328,0.934265324790599,0.07019900077797613,0.22578139775213063,1.4985114437177804,0.35049506077576925,0.02548523000453991,1.4748686374091329,0.06155580789730479,0.40288087679520074,1.25807920163429,0.4438773064541913,0.15923091441704706,1.2293423817786446,0.17871372835106053,0.4193975265715521,1.492101577087664,0.36877011331792137,0.29143973419785,1.4484638839231239
0.23427266690174267,0.15077019199460265,1.544210008229805,0.11348971885198982,0.5099677434096304,0.10415184194236843,0.13664190799481166,0.06750876278296865,0.0837815527833089,0.12930730624020678,0.4095715267917287,0.519274817987407,0.224127633711507,0.10747829714217837,0.4975444416673929,0.1317491675081241,0.24048390657845264,0.9299574397999545,0.2728921288012708,0.11447680900367008,0.9344971852036472,0.0698216999373002,0.22700410039611754,1.4993496602415048,0.35085746465170176,0.026333879753380713,1.4752984657491746,0.05949945283275591,0.4039437067662759,1.25885838816875,0.44378349323592514,0.16351866326538847,1.2314926108002153,0.17711615989804702,0.42211484477061406,1.4925313058234855,0.366581385636797,0.29055015009677604,1.4529290724026436
0.23366729354068938,0.15337414586898895,1.5441270076748543,0.11267992862922908,0.5106704704879115,0.10494572808412427,0.13713247304333523,0.0677809242107299,0.08511762425907744,0.12870769504348342,0.41176005515215436,0.5204108371886915,0.22579922923166892,0.10915457136719177,0.4984806932789888,0.13135133670249008,0.2419571053411598,0.9308013736640728,0.2731510040762017,0.116701563902998,0.9355823021572974,0.06791496719024098,0.22856551849220325,1.5003292380116415,0.3498816766724536,0.028611465531160753,1.4773602204392178,0.05876389681214681,0.4051319277120195,1.2595290448132332,0.4435993462851246,0.1663317220658237,1.2341645211548313,0.17610733810546778,0.4236745179630691,1.4933083266516414,0.3642205064571155,0.29145161057425106,1.4559161198028707
0.23298745927914186,0.15503304124248488,1.5448933888403167,0.11266750764509367,0.5116448065029875,0.10572809597822098,0.13855520688841583,0.0661862452868654,0.08630067859071144,0.1285010860863991,0.413724388671695,0.5214441072691859,0.22731929215615745,0.11142541724078478,0.49923840525311136,0.13064554799427444,0.24337451097102047,0.9315988512125009,0.2733043734086471,0.11908477372550232,0.936488238996337,0.06688380192601637,0.23060711084241317,1.499967035065506,0.34819626907498247,0.03118511434809743,1.4790196794627042,0.05879619993920775,0.40745800274435656,1.2593316460795119,0.4435877435486225,0.16763718082234327,1.235760737131926,0.17503030127146915,0.42461663022804175,1.4937756078160902,0.3629462007775572,0.2906905500939485,1.4582157803774263
0.23175393103970332,0.15704355943778936,1.5454980975443333,0.11220996738355885,0.5123973383609443,0.10720268193410028,0.14016426342181673,0.06345529839819361,0.08778882418320486,0.12747297327348311,0.41513699565141754,0.5230948651193001,0.22997207062851668,0.11347452099743224,0.4999558094123491,0.1294043540851966,0.24446852239701322,0.9331213574534705,0.27303748961545754,0.12129197358942033,0.937497272324906,0.06600857334868065,0.23177970032406287,1.501041927041539,0.3464929771029798,0.032648478187492044,1.4806367016592878,0.05666396895172477,0.4078165111276729,1.2598527307892842,0.4426911117531263,0.17076527413689943,1.2386399036187954,0.17311345623108218,0.42626106304245004,1.4940809020205381,0.3598913625372656,0.2918793057887737,1.461361470147535
0.23004095136357808,0.15790062522004872,1.5468151903867302,0.11159481487847728,0.5137544249260072,0.10811212197781586,0.141261795475591,0.06267371929769448,0.08797193201330046,0.12710408464617728,0.4176894074347646,0.5242703218788165,0.23141257332055162,0.11509140924907033,0.49976700863023715,0.1292362498175072,0.24586699492568356,0.9338061157473372,0.27309892334108865,0.12292515077909072,0.9374383413922641,0.06496557242284352,0.23295474928582827,1.5021882749207864,0.3453047131508181,0.03372933944456798,1.4811451314247044,0.056140436326557,0.4080276691365853,1.2602835968285144,0.44115789454686755,0.17395482629103598,1.2402370520806385,0.17161885013877407,0.427241913131141,1.494932454713018,0.35764298275342676,0.2900942604661066,1.4653271627086388
0.22914141401777982,0.15924794925553537,1.547248003510472,0.11060595537173723,0.5144880548024542,0.10885028922081041,0.14110766809214748,0.06227709023968843,0.08805853085304181,0.12651473434868704,0.419082297131365,0.5251454546914005,0.231532927956142,0.11645075061652774,0.49957386106579493,0.12887672272812126,0.24665841222255105,0.9344362076679217,0.2724862008467901,0.12341779787251675,0.9373312493906321,0.06448037774354386,0.23580949094050282,1.5034622420607155,0.34378462217296035,0.03361813276254932,1.4824563251881042,0.055353595142141596,0.40983853043307483,1.260809963600953,0.43990287031820846,0.17458793557859908,1.2420766051721488,0.17104631077801713,0.4288781070132348,1.495370994750201,0.3550191371656562,0.2905558487472571,1.4667505357239468
0.22777306617999413,0.15983808610035935,1.5472184506250848,0.10971262671504665,0.5150388753902116,0.10946119403389833,0.14086538191208162,0.06311014924556309,0.08775597338819051,0.1266616693806024,0.42133148935948017,0.5260985158986687,0.2312924388709578,0.1181571884757851,0.4991423925348665,0.1277712017903452,0.24719806435600983,0.9346628352548924,0.27185879881297104,0.12449303237628802,0.936945934064289,0.06160658562891336,0.236650751956766,1.5038921167514083,0.3428721471404558,0.03527076824297528,1.4841166883128094,0.0547552121142928,0.4093354095979994,1.260216136410681,0.4400016819316679,0.1742089495143944,1.2429597474587217,0.17000329889830318,0.43082747734379573,1.4947823220679062,0.3521697215739869,0.29028936452115167,1.4664448381022073
0.22612707387226225,0.16062865980847518,1.5465716009759287,0.10910606646558434,0.515488865569018,0.10894947575738889,0.1399900639672496,0.06385607422993238,0.08699592262353202,0.1264838407697842,0.4234385639870978,0.5259368326938652,0.23102598712856362,0.11916176882851354,0.49821091579268184,0.12774621715074733,0.24731116317906934,0.93365484172656,0.27179926870906224,0.12456606607251437,0.9360103480790986,0.059976490752307245,0.23649288406436372,1.5025003387342304,0.3404884612577198,0.03671234730066729,1.4831787472920248,0.05434484406508383,0.4096759587829845,1.2591431499154686,0.4386018594918485,0.17640532157371247,1.2428541124236452,0.16800912591324454,0.4326832742055423,1.4943400940775216,0.3501570767205302,0.29027969425751904,1.467219425500691
0.2238090328887089,0.16129683079840929,1.545106148012106,0.10947827020464697,0.515270121382699,0.10787513477964004,0.13939587129692585,0.06402926453578507,0.08567709824290741,0.12622411511112203,0.4256531034899889,0.5254194373594134,0.2296971978688966,0.11807913241270747,0.49722667804439297,0.12674156113302598,0.2484346308178713,0.9326622279870648,0.2702581575513094,0.12506310043914007,0.9350159315933266,0.05916279484228099,0.2370449527861935,1.5008484873824786,0.3389687964700797,0.03651305615067534,1.4826632563956972,0.053297523259428874,0.41030047412774284,1.2575420499367642,0.4382792510636094,0.17636593470272235,1.2429365599509363,0.16593314342862772,0.43414733281235646,1.4931547430245242,0.34787276451654,0.2921464819785738,1.4655409895501867
0.2209473357708232,0.16291261561396286,1.5436398069755053,0.10957143916857254,0.514118936187232,0.1073560141925935,0.13903185702185505,0.06386541499558976,0.08442783788959482,0.12614249699264382,0.42736836250946086,0.5255137670005168,0.22816350750348519,0.11718447972793948,0.4963271037038938,0.1254382470605258,0.24936121535595668,0.9324124331319054,0.2684974466186356,0.12545377972999297,0.9341240113520216,0.057118237833973746,0.23814143830055645,1.4991106829277467,0.3381188730717836,0.03761171378372957,1.4812926667335689,0.05210139512760248,0.41143613019278674,1.25581127889445,0.43747334994849973,0.17574021366054896,1.2405832918050326,0.1640970366082233,0.43428007102796046,1.4918195800809704,0.3455158856720915,0.2911882925063023,1.462717719874022
0.21908906193724798,0.1620995324220441,1.543213275387636,0.10950651746946831,0.5132222603483427,0.1062097038234463,0.13793785709138187,0.06314266547800627,0.08322903946104222,0.1259518321958477,0.4314333941354007,0.5253714961518265,0.22400665805894365,0.1157654317148891,0.49586741033826964,0.12386378326773848,0.24975507353185497,0.9306388406649685,0.2671717917713676,0.12615121254398512,0.9333429185089497,0.05586310889608939,0.23841783656813098,1.497532836896658,0.33681503556622144,0.03718333746842458,1.4806227315858462,0.05045952653243426,0.4116819263512019,1.254230694217486,0.4359523723344051,0.17652548468035759,1.2405268724324505,0.1612062446028669,0.43424551512974974,1.4908456404347892,0.3432821765511304,0.2946064829029067,1.4609862090867616
0.2172258951165775,0.16185315514889995,1.5420670583244742,0.11010332470812918,0.5124862859726448,0.10662956333425162,0.13756508144173116,0.06269341209443882,0.08251031091727193,0.12565095935998363,0.4345133253513507,0.5265505210356642,0.22081734310318668,0.1120680539197077,0.4961303427021347,0.12296809998495628,0.24954508375688836,0.9303248442295327,0.2658990983198427,0.12551685380361724,0.9333296227646821,0.05366240677818202,0.2381890172936688,1.49640605202888,0.3361308826365537,0.036957779983810994,1.4804505338393126,0.04956509909515046,0.41130081331703167,1.2529655964247,0.43571090076139823,0.17500481721374275,1.2397867940367686,0.1588352189928936,0.4333210835562561,1.4903255562039668,0.3417487946190607,0.2947724008329893,1.458780064719043
0.21431386363373084,0.16186332202152307,1.5419934385702276,0.11041556418366825,0.5132540149738949,0.10763880547744831,0.13751858110664064,0.062312261156857875,0.08253614817580016,0.12548341958293913,0.43800652251861544,0.5280829963365521,0.2178594221410987,0.10971682931738441,0.49695655677407685,0.12126382944046023,0.24925982826178528,0.9300867216461635,0.2646645267734899,0.12580279729043606,0.933888254700761,0.051833886644760886,0.238041325507274,1.4957237422562195,0.3338895110896422,0.037213008474840735,1.4795976142479934,0.04794898651092287,0.4115885087700351,1.2525916498487994,0.43488813729681075,0.17417881705891408,1.238903248867908,0.15626133256056954,0.4329151107293934,1.4904615452194474,0.3394854371771351,0.2964703058503608,1.4558781872529503
0.21222840259923506,0.1617030185404523,1.5426473964919873,0.1096246690990659,0.5143305279317156,0.10873012574404298,0.13705375928559488,0.06254787976977291,0.08268113503033167,0.1256568171186993,0.44073959996318596,0.5294243144466161,0.21572362980639584,0.10695107459345689,0.49775676958529397,0.12066456208480981,0.2494847656707016,0.9302394733627166,0.26374013452457207,0.12565815439527286,0.9344545765641199,0.050065737319383075,0.2375593509377408,1.496117318628936,0.3318870601920155,0.036278435649619134,1.480261030435055,0.04462163215872965,0.4115771268785237,1.253357345535867,0.4327571126257032,0.17167574965744462,1.2386362306719019,0.15483383735603756,0.4328795442217476,1.4903473786290724,0.33866223992416483,0.2954302764919997,1.4553419104721144
0.21041029625615515,0.16223339879023965,1.5424666509859157,0.1100565799803734,0.5151934576137657,0.10961295547115069,0.13697863451728534,0.06310050264608201,0.08236147882560464,0.12492661744918403,0.4423959736535681,0.5304837345119081,0.21351288006028793,0.10465500759273748,0.498133079466297,0.11952274453689757,0.24891826338647993,0.9302300675022405,0.26266714431544136,0.1251733030991447,0.9346221455172825,0.04747530829554114,0.23809869866044375,1.495735154294523,0.3301232292547312,0.035427239041306756,1.4804512195607102,0.04336161571442148,0.4124378205631109,1.2531816792646246,0.43227511254493917,0.16999488865698056,1.2388862697286742,0.15252421229145724,0.43287063687242494,1.4907309655738379,0.3371683147566336,0.29413007120529483,1.4549419728940831
0.20903176682317426,0.16235741262854597,1.5422589466841479,0.1100123490758814,0.5156651941088195,0.11042848532557593,0.13672905286566137,0.06283694135889219,0.08265727718749964,0.1239800189521629,0.444871508865656,0.5316686276560242,0.21319924690508166,0.10505386665826077,0.49837737255551645,0.11864354830078534,0.24946750289686348,0.9304739228928501,0.26173117616002994,0.12566063926553664,0.9349259011825245,0.04661197397826593,0.23764571177007532,1.4950233446936785,0.3284100959613739,0.03499469015112388,1.4800415430031717,0.040830231643906555,0.41371776534371824,1.2537498929090096,0.43011739359311046,0.16969606650834,1.238374814760741,0.15087784317128725,0.43348926267358057,1.490951145276466,0.33528620519698693,0.2936280929924952,1.4546672770604177
0.2079812017389045,0.16132249631525547,1.5424382607135765,0.10977100757818722,0.5155915665060581,0.11090697560911489,0.13632479442782724,0.06272896882346282,0.0821949104485637,0.1225402356121796,0.44763399164028694,0.5326641264741321,0.21247646318285926,0.10529014808698205,0.49794254947033484,0.11712797255346098,0.2500271810488609,0.9303660676204494,0.2601725793910221,0.12617028439139957,0.934560863860016,0.04653483726619691,0.2382103308624034,1.4957269205037043,0.3262740241541774,0.034877967734590974,1.4808746038630047,0.039753729794645795,0.41391171665848076,1.2542182926282603,0.42955033922889746,0.16825824807434614,1.2391460517702348,0.14798350195227702,0.43397363807607997,1.4922323547621898,0.3347073775860682,0.29292796843042224,1.455000399313594
0.20582923691033297,0.16145798620006982,1.5420542985678556,0.1090664455719723,0.5167929314672401,0.11164744529059388,0.13549532563030486,0.06358997170244504,0.08222998147567084,0.12225555620489646,0.44768931037785764,0.5331989359332763,0.21249965280839017,0.10631766225244776,0.4977921260636876,0.11483251238989103,0.25007178407913433,0.9308838876547182,0.25754136289788754,0.12581693818423284,0.9347625785856605,0.04472231328533827,0.2369250218438423,1.4962091925128842,0.32484832290711874,0.03468518823593653,1.480744633528975,0.037487995236290914,0.4136151956654635,1.2554314389333994,0.42850166024546815,0.16747472574624234,1.238845530245177,0.14543944678378626,0.43460683780780757,1.4934853274014777,0.3342576733110687,0.2946873153026162,1.4534759814210143
0.20443128357242132,0.16158790994924885,1.5417399108615673,0.10838368897622888,0.5172375637029455,0.11154235411195497,0.13556753836135294,0.06308437497445876,0.08249939490219778,0.12179195559196201,0.4493332119868345,0.5332777130882425,0.21196727177717894,0.10726303290911013,0.4980250355036865,0.11350547533347721,0.2508324165014983,0.9305007792389368,0.2560678489324316,0.1264353054630061,0.9351068456837374,0.04342896287063821,0.23693236754010016,1.497217821169055,0.3234521880645681,0.03556159405628065,1.4808188638304505,0.03509169632566098,0.4124852874229421,1.2556417030232176,0.4278631429396086,0.16550152313599936,1.2376979754217243,0.14382110590149066,0.43538966532823586,1.4931710338164015,0.33423250100697643,0.29274261118806927,1.4525837612207337
0.20210929561529367,0.16038823653988454,1.5421173637785135,0.10821024827249502,0.5176321132960316,0.11210419889106658,0.1347683845603927,0.06399459400451066,0.08228135692463263,0.12052423832747283,0.450516362742492,0.53400842502819,0.21118541980003247,0.10771562782415588,0.49785091766289286,0.111492900914074,0.2507011797907429,0.9305465686087945,0.2541529218229041,0.12640403178634266,0.9350689151247915,0.04063810284839697,0.23649616748156532,1.4969102154056566,0.32185041583575014,0.03523098994015333,1.480339117800514,0.03364925268325143,0.41176833143377223,1.2550840862722772,0.4267566355456245,0.16385971034012287,1.2367368820109685,0.14224999805764385,0.43576300863562517,1.4925589405008848,0.33385047962974373,0.2932080380670606,1.4506689785896718
0.202913574008064,0.16041627014665777,1.541842077672274,0.10800625383754386,0.517676226759644,0.11253871560431147,0.13419536095391407,0.06437304140068535,0.08261407152322096,0.12007026211280897,0.4519993341429374,0.5346701202969193,0.21109457551512675,0.10834784321819206,0.498068415920337,0.11032285350200963,0.25007935954321225,0.9301311086998599,0.25354625637752737,0.12645687944768824,0.9353627905011899,0.04071549967244381,0.23668657014289676,1.496819123907416,0.3203292306998888,0.03483857617970018,1.4805302006302699,0.030891045649812092,0.41120477758590296,1.2545466976578423,0.42518156173810046,0.1611419642886691,1.2356928610071392,0.140151670643946,0.436240650022241,1.491611746796895,0.3358273557294358,0.2934930079856566,1.4493097108711819
0.20212947337613985,0.16051611300017327,1.5419262762100203,0.10727488063801119,0.5186092772402681,0.11315807130178737,0.13405598888262352,0.06452009669195674,0.08215839273099684,0.11848018488319646,0.45392612977899877,0.5354652462405537,0.21002025106620947,0.10707658788387688,0.4979371470918765,0.10915852886910649,0.2502087885320601,0.9300154190301028,0.25246444901620446,0.12668693198920322,0.9351678446999893,0.04104336690443602,0.23624555519012203,1.4965548818529322,0.3178999477244918,0.03342378794178407,1.4799086504429353,0.02947713730214946,0.41037954421539685,1.2540969538369737,0.42317996787204126,0.15923209737292313,1.2350005779024926,0.1396798591634282,0.43660718712512836,1.4905979223307142,0.33826147475272555,0.2932044667992715,1.4494108050584358
0.2008869725524324,0.1599884132461158,1.5424143286163974,0.1066469115902859,0.5191070222147648,0.11499346985113901,0.13366997209273473,0.06400167284353496,0.08218106417926686,0.11821515078600785,0.45650830039106477,0.5376131119325176,0.2088853816326181,0.10729910135566852,0.4980100964933303,0.10821832526060345,0.24983251079303545,0.9306043014806357,0.25133638976029316,0.1260811397685899,0.9352769073411918,0.04006122257536589,0.2380092747676845,1.497603216923755,0.3168647898234958,0.03277954430226653,1.4810451847165662,0.026993723466305096,0.4094819286899419,1.2533204035897496,0.42161338953510497,0.15608337854904158,1.2346359179128716,0.1388991669173323,0.437005191514147,1.4888756715649474,0.3377546584602698,0.292716330131572,1.4477782720351324
0.19979209805202064,0.1596863066467758,1.5428242785686808,0.1075067890747253,0.5203286271577711,0.11677598085856679,0.13359462395912117,0.0637717853288048,0.08224374003828243,0.11671069225770349,0.4598443802581143,0.5397566471198957,0.20685429105177255,0.1053796429926459,0.4986052887165959,0.1063742502761478,0.24926163600195433,0.9306566152935909,0.2485928549810983,0.12448666759599912,0.9359172843035098,0.04032405247047699,0.23768786415359486,1.497306674370439,0.31605400272444917,0.032428824503513504,1.4803699624782158,0.025044485855780247,0.40934803792054175,1.2532825984676481,0.41915100331273697,0.15393567991658605,1.2323775986025352,0.1379848769955207,0.4371280551748348,1.4883135870565098,0.33919174285481607,0.29145564839763943,1.4464372439772197
0.19950911850735345,0.16373023755755262,1.5416592579864112,0.10756083496093685,0.5233696011170513,0.12006525164411382,0.13305030578182242,0.06298934496774115,0.08210397036383833,0.11642970080609631,0.46351653219805894,0.5431393868921969,0.20584477831524645,0.10410592422503546,0.4985893549665476,0.10458678705731425,0.2491015160289381,0.9319098036879165,0.24639607682311337,0.12383108120323445,0.9359918881390384,0.04009095358942357,0.23723437258993502,1.4983174638598329,0.3160470045016016,0.032970437110354384,1.4803651767675539,0.022515688419843312,0.4078820861121801,1.2537372084742564,0.4194824299770935,0.15263753618404458,1.2316248858092413,0.13744251921088724,0.437835380169013,1.487532195256738,0.3392691772317282,0.2895311038462583,1.445992377015103
0.19910631880097276,0.16309515578282238,1.5417405689999422,0.10761953531293303,0.5268782747418522,0.12356886460483556,0.13317908816799137,0.06260059350031279,0.08252024765687328,0.1142553428556583,0.4675498760224834,0.54676919967991,0.20461612346596894,0.10287730833568533,0.49932113399605954,0.10320536294408246,0.24766492677812732,0.9324906555363168,0.24506582966776416,0.12245545146526822,0.9367412255156272,0.0403333756078283,0.23711913264144474,1.4988109183280196,0.3173109333729802,0.0329596395964453,1.481551951524683,0.021187510137472703,0.40688687507610566,1.2537297855002387,0.4184075224250654,0.15280987869811738,1.2319307298634008,0.13700774588398934,0.43764826851920896,1.4869794141557988,0.340614160844637,0.2887469254060841,1.447804973189538
0.20151494689428812,0.16365208132665712,1.5424240974917909,0.10735791443085833,0.5302902613374502,0.12725573911349672,0.13228877385757906,0.06243923496026694,0.08216940657098652,0.11362974426327269,0.4727215615025374,0.5506960728093473,0.2026916587932964,0.10179601071388727,0.4992400537366804,0.10104971319261025,0.24627614872942816,0.9325556109144023,0.24307063709466833,0.1212344010786217,0.93667509834601,0.04086761138231333,0.23745007025683923,1.498595967501431,0.31732018082762603,0.03228613942239546,1.4810825545940733,0.02011952655109339,0.4062492720680384,1.2529851839937745,0.4177980060563207,0.15215906479782412,1.231225083780375,0.13564819710505951,0.4378459938797936,1.4862744039570357,0.3410488973763267,0.28721560731494106,1.4480141521319296
0.2009451923380834,0.16399038056036708,1.5427214004886154,0.10766522449770355,0.5335107473998819,0.12996399204368336,0.13240883330060424,0.06173586037633805,0.08165245461570532,0.11349408853994088,0.47698739176643157,0.5535488283759933,0.20075113616236373,0.09931815076479197,0.49922272036144133,0.09964189815092771,0.24568163282708777,0.932439663869468,0.24133911960506738,0.12027623077190652,0.9365702811827226,0.03961312187774778,0.2378223445223264,1.4988813820403646,0.31577852842703025,0.03207011583996617,1.481261627987268,0.01880040209635335,0.4049470645280806,1.2521446077659741,0.41742390693742565,0.15012565803627925,1.2310112370405764,0.13455908644453812,0.43775440539053456,1.4851419587637562,0.3419782369161999,0.2857953513561622,1.447880312275481
0.20049394861249567,0.1645257711633805,1.5421414918806082,0.10746316927084107,0.535495599269543,0.13162623444645802,0.13277976522492793,0.061660874855208686,0.08168250733026676,0.11363475544193136,0.47946387958446957,0.5552820497558123,0.20006852218338583,0.09798190487065658,0.4995347710867775,0.09984799441072865,0.24532299355153833,0.9324307541257906,0.24122064427234524,0.11956383604861706,0.9368012597020469,0.038726149855458115,0.23814553587634613,1.498138132665388,0.3134318383382699,0.029656032338762402,1.4812702985861514,0.017238115765100037,0.40477528973122606,1.2511188899598684,0.41624706496311387,0.14751536275476335,1.231408455614417,0.13430968402983756,0.4379826482325437,1.4834066875064402,0.3408610649983233,0.28566537404241943,1.446735089372521
0.19760178349218538,0.16558009016976377,1.5429763349573913,0.10676925008128857,0.5364262750788885,0.13116181374145472,0.1336422616536925,0.06245900689380441,0.08112785841287293,0.11287379453026335,0.4803763157041394,0.5548186162658428,0.1979846448463494,0.09630413870246547,0.499658178000104,0.09785377067458494,0.2464588803432707,0.9320510545824592,0.2347503298525874,0.11587055158698517,0.9374041175590448,0.0376857580540669,0.2391800949374733,1.4970740374941265,0.30259168972405703,0.027210604749173,1.4796242851302264,0.015033386474302104,0.40346786636416015,1.2486019052333517,0.415456920270864,0.14424897904293613,1.2337360133646367,0.13291023306403926,0.43989494630893833,1.4799915626463531,0.34141344481381697,0.2844986835533797,1.4481664849990765
0.19580877137107336,0.16576179047544903,1.543705813995622,0.10729347929110289,0.5369000956857222,0.13154981543668354,0.13351636033176562,0.06196241405100178,0.08126646587599005,0.11360128179296922,0.4802195851870124,0.555113556155133,0.19773801206825933,0.0957190502754445,0.4998152087901045,0.09771693469604072,0.2458779322128163,0.9320480781682664,0.23479531777895593,0.11548781602427602,0.9375282595863864,0.038447473503611385,0.24001818265016459,1.4971096702846864,0.301299239585445,0.026911042015164702,1.4802043652354393,0.011301597152909008,0.40141398194085676,1.247181653610237,0.41479827207008385,0.1433470012110985,1.2343299762669337,0.1317677311589554,0.4418886101584728,1.4765637171378483,0.34215759608135204,0.28446554359037957,1.448665819577263
0.19466054427575763,0.16472072864744586,1.544496451405363,0.10755928084251382,0.5368611724738481,0.13131104409630703,0.1330585451667402,0.061432539710985105,0.08104176821947326,0.11430453925441353,0.4796521150536765,0.5547955742780812,0.1977975795029734,0.09535392849911908,0.49949887643816,0.09738268655392777,0.24536940182844708,0.9317244048142515,0.23359582907228427,0.11408104121249732,0.9373618821447517,0.0374846954767278,0.24237303621265432,1.4964532583596646,0.2986186282649283,0.026516438721132393,1.481128943757223,0.008908082074317007,0.4015567177911374,1.2452738100396918,0.4141085992197655,0.1406995531179253,1.2351189540553713,0.1320040074980598,0.4432700942819028,1.4730271529883268,0.3417930752766911,0.2831709711752948,1.4486708691177386
0.19409196346952798,0.16553487173517414,1.5453194855921621,0.10674550246991137,0.5354779592522528,0.13084539926891942,0.13376464972804986,0.06194747658720974,0.08104599893748062,0.1144584339477904,0.4783780403073691,0.5543278751347869,0.1978811702664603,0.09591518166033772,0.49959623301200623,0.09735441638783765,0.24527193164759473,0.9319865433535408,0.23293189624867403,0.11333635220006336,0.9375798236741097,0.037890594325301764,0.24294447960207557,1.4950095538641186,0.2961532122775632,0.02523228620557201,1.4815043472255667,0.007286371608766344,0.40180191232209994,1.2438603737008553,0.4152986821129835,0.13811100006504323,1.2366396526378736,0.13075503501033117,0.44478491953628835,1.471180974559136,0.3429082115768282,0.28145552639026195,1.449576600539289
0.19149908306853158,0.16597578055763762,1.5452881978356146,0.10633715573047477,0.5348075441159615,0.13007378873806433,0.13333890381233254,0.06175059817919177,0.08121246217037978,0.11397538879267022,0.47765887838298265,0.5535508274346358,0.1983271679360459,0.09499259000423874,0.4996884335322378,0.09768179520065237,0.24543363414849767,0.9317851337540934,0.23182436203669146,0.11204682519718492,0.9377995785838482,0.03758016001844969,0.2435817034241365,1.494522068428909,0.29369927631545617,0.026313371414311067,1.4818040018834056,0.005341829320380525,0.4011748664981422,1.2427894262022523,0.416551041177029,0.13835352086850694,1.238396443023667,0.12906104573299354,0.4475945403986886,1.469293682465778,0.3430251793694173,0.28177771699127746,1.450896353297597
0.19243895924114668,0.1655873805165421,1.545436446103389,0.10664875572031471,0.5349460730146144,0.13009639110323482,0.13361339973360625,0.06120123086515061,0.08116811232032574,0.1147096869429654,0.4762480088855737,0.5533536958996437,0.1987936520674944,0.09371635867686244,0.49967199929484374,0.0967717071978575,0.2449268339775957,0.9320679188829443,0.2309682931459772,0.11158442263894712,0.9378452411480992,0.0371435282739133,0.24406567579268845,1.493292675331299,0.29214921857986853,0.025874304459629845,1.48324746553709,0.0049051543131918875,0.402284894825459,1.2419418745658264,0.418277862318555,0.13842414172912637,1.2417652716681142,0.12765676012758476,0.4506716952752985,1.4685613051414164,0.3435905946721854,0.28199659175972985,1.4537512234093444
0.19227427974596645,0.16690802632577334,1.5461220613416757,0.1060444052264782,0.5348419751432294,0.12982039185310712,0.1336908762151464,0.06143074208125324,0.08120582478254981,0.1149084475333905,0.4764869950010324,0.5531171726735118,0.19819102280169099,0.09237857139487327,0.4999283288027508,0.09694847818443278,0.2463993833902527,0.9325748797778124,0.22958612456962676,0.11149132475935736,0.9381146767262603,0.03587390385090317,0.2459224463006374,1.4939006371371055,0.292280965052728,0.026998822677054418,1.4850578040108893,0.0046465027589872865,0.40202969610739975,1.2411104213271624,0.41931529377484367,0.14035057327623268,1.2444231071843432,0.12535698255629396,0.4531932345288244,1.4682167948627176,0.3430111921688165,0.28398330246198555,1.4557901336444012
0.19058,0.16711,1.54724,0.10599,0.53535,0.13105,0.13409,0.06087,0.08124,0.11551,0.47821,0.55449,0.19714,0.09189,0.50018,0.09606,0.24762,0.93357,0.22861,0.1126,0.93829,0.03472,0.2463,1.49343,0.29168,0.02892,1.4865,0.00508,0.40369,1.24124,0.42052,0.1431,1.24721,0.12378,0.45497,1.46938,0.34314,0.28646,1.45838
,,,,,,,,,,,,,,,,,,,,,,,,,,,,,,,,,,,,,,
,,,,,,,,,,,,,,,,,,,,,,,,,,,,,,,,,,,,,,
,,,,,,,,,,,,,,,,,,,,,,,,,,,,,,,,,,,,,,
,,,,,,,,,,,,,,,,,,,,,,,,,,,,,,,,,,,,,,
,,,,,,,,,,,,,,,,,,,,,,,,,,,,,,,,,,,,,,
,,,,,,,,,,,,,,,,,,,,,,,,,,,,,,,,,,,,,,
,,,,,,,,,,,,,,,,,,,,,,,,,,,,,,,,,,,,,,
,,,,,,,,,,,,,,,,,,,,,,,,,,,,,,,,,,,,,,
,,,,,,,,,,,,,,,,,,,,,,,,,,,,,,,,,,,,,,
,,,,,,,,,,,,,,,,,,,,,,,,,,,,,,,,,,,,,,
,,,,,,,,,,,,,,,,,,,,,,,,,,,,,,,,,,,,,,
,,,,,,,,,,,,,,,,,,,,,,,,,,,,,,,,,,,,,,
,,,,,,,,,,,,,,,,,,,,,,,,,,,,,,,,,,,,,,
,,,,,,,,,,,,,,,,,,,,,,,,,,,,,,,,,,,,,,
,,,,,,,,,,,,,,,,,,,,,,,,,,,,,,,,,,,,,,
,,,,,,,,,,,,,,,,,,,,,,,,,,,,,,,,,,,,,,
,,,,,,,,,,,,,,,,,,,,,,,,,,,,,,,,,,,,,,
,,,,,,,,,,,,,,,,,,,,,,,,,,,,,,,,,,,,,,
,,,,,,,,,,,,,,,,,,,,,,,,,,,,,,,,,,,,,,
,,,,,,,,,,,,,,,,,,,,,,,,,,,,,,,,,,,,,,
,,,,,,,,,,,,,,,,,,,,,,,,,,,,,,,,,,,,,,
,,,,,,,,,,,,,,,,,,,,,,,,,,,,,,,,,,,,,,
,,,,,,,,,,,,,,,,,,,,,,,,,,,,,,,,,,,,,,
,,,,,,,,,,,,,,,,,,,,,,,,,,,,,,,,,,,,,,
,,,,,,,,,,,,,,,,,,,,,,,,,,,,,,,,,,,,,,
,,,,,,,,,,,,,,,,,,,,,,,,,,,,,,,,,,,,,,
,,,,,,,,,,,,,,,,,,,,,,,,,,,,,,,,,,,,,,
,,,,,,,,,,,,,,,,,,,,,,,,,,,,,,,,,,,,,,
,,,,,,,,,,,,,,,,,,,,,,,,,,,,,,,,,,,,,,
,,,,,,,,,,,,,,,,,,,,,,,,,,,,,,,,,,,,,,
,,,,,,,,,,,,,,,,,,,,,,,,,,,,,,,,,,,,,,
,,,,,,,,,,,,,,,,,,,,,,,,,,,,,,,,,,,,,,
,,,,,,,,,,,,,,,,,,,,,,,,,,,,,,,,,,,,,,
,,,,,,,,,,,,,,,,,,,,,,,,,,,,,,,,,,,,,,
,,,,,,,,,,,,,,,,,,,,,,,,,,,,,,,,,,,,,,
,,,,,,,,,,,,,,,,,,,,,,,,,,,,,,,,,,,,,,
,,,,,,,,,,,,,,,,,,,,,,,,,,,,,,,,,,,,,,
,,,,,,,,,,,,,,,,,,,,,,,,,,,,,,,,,,,,,,
,,,,,,,,,,,,,,,,,,,,,,,,,,,,,,,,,,,,,,
,,,,,,,,,,,,,,,,,,,,,,,,,,,,,,,,,,,,,,
,,,,,,,,,,,,,,,,,,,,,,,,,,,,,,,,,,,,,,
,,,,,,,,,,,,,,,,,,,,,,,,,,,,,,,,,,,,,,
,,,,,,,,,,,,,,,,,,,,,,,,,,,,,,,,,,,,,,
,,,,,,,,,,,,,,,,,,,,,,,,,,,,,,,,,,,,,,
,,,,,,,,,,,,,,,,,,,,,,,,,,,,,,,,,,,,,,
,,,,,,,,,,,,,,,,,,,,,,,,,,,,,,,,,,,,,,
,,,,,,,,,,,,,,,,,,,,,,,,,,,,,,,,,,,,,,
,,,,,,,,,,,,,,,,,,,,,,,,,,,,,,,,,,,,,,
,,,,,,,,,,,,,,,,,,,,,,,,,,,,,,,,,,,,,,
,,,,,,,,,,,,,,,,,,,,,,,,,,,,,,,,,,,,,,
,,,,,,,,,,,,,,,,,,,,,,,,,,,,,,,,,,,,,,
,,,,,,,,,,,,,,,,,,,,,,,,,,,,,,,,,,,,,,
,,,,,,,,,,,,,,,,,,,,,,,,,,,,,,,,,,,,,,
,,,,,,,,,,,,,,,,,,,,,,,,,,,,,,,,,,,,,,
,,,,,,,,,,,,,,,,,,,,,,,,,,,,,,,,,,,,,,
,,,,,,,,,,,,,,,,,,,,,,,,,,,,,,,,,,,,,,
,,,,,,,,,,,,,,,,,,,,,,,,,,,,,,,,,,,,,,
,,,,,,,,,,,,,,,,,,,,,,,,,,,,,,,,,,,,,,
,,,,,,,,,,,,,,,,,,,,,,,,,,,,,,,,,,,,,,
,,,,,,,,,,,,,,,,,,,,,,,,,,,,,,,,,,,,,,
,,,,,,,,,,,,,,,,,,,,,,,,,,,,,,,,,,,,,,
,,,,,,,,,,,,,,,,,,,,,,,,,,,,,,,,,,,,,,
,,,,,,,,,,,,,,,,,,,,,,,,,,,,,,,,,,,,,,
,,,,,,,,,,,,,,,,,,,,,,,,,,,,,,,,,,,,,,
,,,,,,,,,,,,,,,,,,,,,,,,,,,,,,,,,,,,,,
,,,,,,,,,,,,,,,,,,,,,,,,,,,,,,,,,,,,,,
,,,,,,,,,,,,,,,,,,,,,,,,,,,,,,,,,,,,,,
,,,,,,,,,,,,,,,,,,,,,,,,,,,,,,,,,,,,,,
,,,,,,,,,,,,,,,,,,,,,,,,,,,,,,,,,,,,,,
,,,,,,,,,,,,,,,,,,,,,,,,,,,,,,,,,,,,,,
,,,,,,,,,,,,,,,,,,,,,,,,,,,,,,,,,,,,,,
,,,,,,,,,,,,,,,,,,,,,,,,,,,,,,,,,,,,,,
,,,,,,,,,,,,,,,,,,,,,,,,,,,,,,,,,,,,,,
,,,,,,,,,,,,,,,,,,,,,,,,,,,,,,,,,,,,,,
,,,,,,,,,,,,,,,,,,,,,,,,,,,,,,,,,,,,,,
,,,,,,,,,,,,,,,,,,,,,,,,,,,,,,,,,,,,,,
,,,,,,,,,,,,,,,,,,,,,,,,,,,,,,,,,,,,,,
,,,,,,,,,,,,,,,,,,,,,,,,,,,,,,,,,,,,,,
,,,,,,,,,,,,,,,,,,,,,,,,,,,,,,,,,,,,,,
,,,,,,,,,,,,,,,,,,,,,,,,,,,,,,,,,,,,,,
,,,,,,,,,,,,,,,,,,,,,,,,,,,,,,,,,,,,,,
,,,,,,,,,,,,,,,,,,,,,,,,,,,,,,,,,,,,,,
,,,,,,,,,,,,,,,,,,,,,,,,,,,,,,,,,,,,,,
,,,,,,,,,,,,,,,,,,,,,,,,,,,,,,,,,,,,,,
,,,,,,,,,,,,,,,,,,,,,,,,,,,,,,,,,,,,,,
,,,,,,,,,,,,,,,,,,,,,,,,,,,,,,,,,,,,,,
,,,,,,,,,,,,,,,,,,,,,,,,,,,,,,,,,,,,,,
,,,,,,,,,,,,,,,,,,,,,,,,,,,,,,,,,,,,,,
,,,,,,,,,,,,,,,,,,,,,,,,,,,,,,,,,,,,,,
,,,,,,,,,,,,,,,,,,,,,,,,,,,,,,,,,,,,,,
,,,,,,,,,,,,,,,,,,,,,,,,,,,,,,,,,,,,,,
,,,,,,,,,,,,,,,,,,,,,,,,,,,,,,,,,,,,,,
,,,,,,,,,,,,,,,,,,,,,,,,,,,,,,,,,,,,,,
,,,,,,,,,,,,,,,,,,,,,,,,,,,,,,,,,,,,,,
,,,,,,,,,,,,,,,,,,,,,,,,,,,,,,,,,,,,,,
,,,,,,,,,,,,,,,,,,,,,,,,,,,,,,,,,,,,,,
,,,,,,,,,,,,,,,,,,,,,,,,,,,,,,,,,,,,,,
,,,,,,,,,,,,,,,,,,,,,,,,,,,,,,,,,,,,,,
,,,,,,,,,,,,,,,,,,,,,,,,,,,,,,,,,,,,,,
,,,,,,,,,,,,,,,,,,,,,,,,,,,,,,,,,,,,,,
,,,,,,,,,,,,,,,,,,,,,,,,,,,,,,,,,,,,,,
,,,,,,,,,,,,,,,,,,,,,,,,,,,,,,,,,,,,,,
,,,,,,,,,,,,,,,,,,,,,,,,,,,,,,,,,,,,,,
,,,,,,,,,,,,,,,,,,,,,,,,,,,,,,,,,,,,,,
,,,,,,,,,,,,,,,,,,,,,,,,,,,,,,,,,,,,,,
,,,,,,,,,,,,,,,,,,,,,,,,,,,,,,,,,,,,,,
,,,,,,,,,,,,,,,,,,,,,,,,,,,,,,,,,,,,,,
,,,,,,,,,,,,,,,,,,,,,,,,,,,,,,,,,,,,,,
,,,,,,,,,,,,,,,,,,,,,,,,,,,,,,,,,,,,,,
,,,,,,,,,,,,,,,,,,,,,,,,,,,,,,,,,,,,,,
,,,,,,,,,,,,,,,,,,,,,,,,,,,,,,,,,,,,,,
,,,,,,,,,,,,,,,,,,,,,,,,,,,,,,,,,,,,,,
,,,,,,,,,,,,,,,,,,,,,,,,,,,,,,,,,,,,,,
,,,,,,,,,,,,,,,,,,,,,,,,,,,,,,,,,,,,,,
,,,,,,,,,,,,,,,,,,,,,,,,,,,,,,,,,,,,,,
,,,,,,,,,,,,,,,,,,,,,,,,,,,,,,,,,,,,,,
,,,,,,,,,,,,,,,,,,,,,,,,,,,,,,,,,,,,,,
,,,,,,,,,,,,,,,,,,,,,,,,,,,,,,,,,,,,,,
,,,,,,,,,,,,,,,,,,,,,,,,,,,,,,,,,,,,,,
,,,,,,,,,,,,,,,,,,,,,,,,,,,,,,,,,,,,,,
,,,,,,,,,,,,,,,,,,,,,,,,,,,,,,,,,,,,,,
,,,,,,,,,,,,,,,,,,,,,,,,,,,,,,,,,,,,,,
,,,,,,,,,,,,,,,,,,,,,,,,,,,,,,,,,,,,,,
,,,,,,,,,,,,,,,,,,,,,,,,,,,,,,,,,,,,,,
,,,,,,,,,,,,,,,,,,,,,,,,,,,,,,,,,,,,,,
,,,,,,,,,,,,,,,,,,,,,,,,,,,,,,,,,,,,,,
,,,,,,,,,,,,,,,,,,,,,,,,,,,,,,,,,,,,,,
,,,,,,,,,,,,,,,,,,,,,,,,,,,,,,,,,,,,,,
,,,,,,,,,,,,,,,,,,,,,,,,,,,,,,,,,,,,,,
,,,,,,,,,,,,,,,,,,,,,,,,,,,,,,,,,,,,,,
,,,,,,,,,,,,,,,,,,,,,,,,,,,,,,,,,,,,,,
,,,,,,,,,,,,,,,,,,,,,,,,,,,,,,,,,,,,,,
,,,,,,,,,,,,,,,,,,,,,,,,,,,,,,,,,,,,,,
,,,,,,,,,,,,,,,,,,,,,,,,,,,,,,,,,,,,,,
,,,,,,,,,,,,,,,,,,,,,,,,,,,,,,,,,,,,,,
,,,,,,,,,,,,,,,,,,,,,,,,,,,,,,,,,,,,,,
,,,,,,,,,,,,,,,,,,,,,,,,,,,,,,,,,,,,,,
,,,,,,,,,,,,,,,,,,,,,,,,,,,,,,,,,,,,,,
,,,,,,,,,,,,,,,,,,,,,,,,,,,,,,,,,,,,,,
,,,,,,,,,,,,,,,,,,,,,,,,,,,,,,,,,,,,,,
,,,,,,,,,,,,,,,,,,,,,,,,,,,,,,,,,,,,,,
,,,,,,,,,,,,,,,,,,,,,,,,,,,,,,,,,,,,,,
,,,,,,,,,,,,,,,,,,,,,,,,,,,,,,,,,,,,,,
,,,,,,,,,,,,,,,,,,,,,,,,,,,,,,,,,,,,,,
,,,,,,,,,,,,,,,,,,,,,,,,,,,,,,,,,,,,,,
,,,,,,,,,,,,,,,,,,,,,,,,,,,,,,,,,,,,,,
,,,,,,,,,,,,,,,,,,,,,,,,,,,,,,,,,,,,,,
,,,,,,,,,,,,,,,,,,,,,,,,,,,,,,,,,,,,,,
,,,,,,,,,,,,,,,,,,,,,,,,,,,,,,,,,,,,,,
,,,,,,,,,,,,,,,,,,,,,,,,,,,,,,,,,,,,,,
,,,,,,,,,,,,,,,,,,,,,,,,,,,,,,,,,,,,,,
,,,,,,,,,,,,,,,,,,,,,,,,,,,,,,,,,,,,,,
,,,,,,,,,,,,,,,,,,,,,,,,,,,,,,,,,,,,,,
,,,,,,,,,,,,,,,,,,,,,,,,,,,,,,,,,,,,,,
,,,,,,,,,,,,,,,,,,,,,,,,,,,,,,,,,,,,,,
,,,,,,,,,,,,,,,,,,,,,,,,,,,,,,,,,,,,,,
,,,,,,,,,,,,,,,,,,,,,,,,,,,,,,,,,,,,,,
,,,,,,,,,,,,,,,,,,,,,,,,,,,,,,,,,,,,,,
,,,,,,,,,,,,,,,,,,,,,,,,,,,,,,,,,,,,,,
,,,,,,,,,,,,,,,,,,,,,,,,,,,,,,,,,,,,,,
,,,,,,,,,,,,,,,,,,,,,,,,,,,,,,,,,,,,,,
,,,,,,,,,,,,,,,,,,,,,,,,,,,,,,,,,,,,,,
,,,,,,,,,,,,,,,,,,,,,,,,,,,,,,,,,,,,,,
,,,,,,,,,,,,,,,,,,,,,,,,,,,,,,,,,,,,,,
,,,,,,,,,,,,,,,,,,,,,,,,,,,,,,,,,,,,,,
,,,,,,,,,,,,,,,,,,,,,,,,,,,,,,,,,,,,,,
,,,,,,,,,,,,,,,,,,,,,,,,,,,,,,,,,,,,,,
,,,,,,,,,,,,,,,,,,,,,,,,,,,,,,,,,,,,,,
,,,,,,,,,,,,,,,,,,,,,,,,,,,,,,,,,,,,,,
,,,,,,,,,,,,,,,,,,,,,,,,,,,,,,,,,,,,,,
,,,,,,,,,,,,,,,,,,,,,,,,,,,,,,,,,,,,,,
,,,,,,,,,,,,,,,,,,,,,,,,,,,,,,,,,,,,,,
,,,,,,,,,,,,,,,,,,,,,,,,,,,,,,,,,,,,,,
,,,,,,,,,,,,,,,,,,,,,,,,,,,,,,,,,,,,,,
,,,,,,,,,,,,,,,,,,,,,,,,,,,,,,,,,,,,,,
,,,,,,,,,,,,,,,,,,,,,,,,,,,,,,,,,,,,,,
,,,,,,,,,,,,,,,,,,,,,,,,,,,,,,,,,,,,,,
,,,,,,,,,,,,,,,,,,,,,,,,,,,,,,,,,,,,,,
,,,,,,,,,,,,,,,,,,,,,,,,,,,,,,,,,,,,,,
,,,,,,,,,,,,,,,,,,,,,,,,,,,,,,,,,,,,,,
,,,,,,,,,,,,,,,,,,,,,,,,,,,,,,,,,,,,,,
,,,,,,,,,,,,,,,,,,,,,,,,,,,,,,,,,,,,,,
,,,,,,,,,,,,,,,,,,,,,,,,,,,,,,,,,,,,,,
,,,,,,,,,,,,,,,,,,,,,,,,,,,,,,,,,,,,,,
,,,,,,,,,,,,,,,,,,,,,,,,,,,,,,,,,,,,,,
,,,,,,,,,,,,,,,,,,,,,,,,,,,,,,,,,,,,,,
,,,,,,,,,,,,,,,,,,,,,,,,,,,,,,,,,,,,,,
,,,,,,,,,,,,,,,,,,,,,,,,,,,,,,,,,,,,,,
,,,,,,,,,,,,,,,,,,,,,,,,,,,,,,,,,,,,,,
,,,,,,,,,,,,,,,,,,,,,,,,,,,,,,,,,,,,,,
,,,,,,,,,,,,,,,,,,,,,,,,,,,,,,,,,,,,,,
,,,,,,,,,,,,,,,,,,,,,,,,,,,,,,,,,,,,,,
,,,,,,,,,,,,,,,,,,,,,,,,,,,,,,,,,,,,,,
,,,,,,,,,,,,,,,,,,,,,,,,,,,,,,,,,,,,,,
,,,,,,,,,,,,,,,,,,,,,,,,,,,,,,,,,,,,,,
,,,,,,,,,,,,,,,,,,,,,,,,,,,,,,,,,,,,,,
,,,,,,,,,,,,,,,,,,,,,,,,,,,,,,,,,,,,,,
,,,,,,,,,,,,,,,,,,,,,,,,,,,,,,,,,,,,,,
,,,,,,,,,,,,,,,,,,,,,,,,,,,,,,,,,,,,,,
,,,,,,,,,,,,,,,,,,,,,,,,,,,,,,,,,,,,,,
,,,,,,,,,,,,,,,,,,,,,,,,,,,,,,,,,,,,,,
,,,,,,,,,,,,,,,,,,,,,,,,,,,,,,,,,,,,,,
,,,,,,,,,,,,,,,,,,,,,,,,,,,,,,,,,,,,,,
,,,,,,,,,,,,,,,,,,,,,,,,,,,,,,,,,,,,,,
,,,,,,,,,,,,,,,,,,,,,,,,,,,,,,,,,,,,,,
,,,,,,,,,,,,,,,,,,,,,,,,,,,,,,,,,,,,,,
,,,,,,,,,,,,,,,,,,,,,,,,,,,,,,,,,,,,,,
,,,,,,,,,,,,,,,,,,,,,,,,,,,,,,,,,,,,,,
,,,,,,,,,,,,,,,,,,,,,,,,,,,,,,,,,,,,,,
,,,,,,,,,,,,,,,,,,,,,,,,,,,,,,,,,,,,,,
,,,,,,,,,,,,,,,,,,,,,,,,,,,,,,,,,,,,,,
,,,,,,,,,,,,,,,,,,,,,,,,,,,,,,,,,,,,,,
,,,,,,,,,,,,,,,,,,,,,,,,,,,,,,,,,,,,,,
,,,,,,,,,,,,,,,,,,,,,,,,,,,,,,,,,,,,,,
,,,,,,,,,,,,,,,,,,,,,,,,,,,,,,,,,,,,,,
,,,,,,,,,,,,,,,,,,,,,,,,,,,,,,,,,,,,,,
,,,,,,,,,,,,,,,,,,,,,,,,,,,,,,,,,,,,,,
,,,,,,,,,,,,,,,,,,,,,,,,,,,,,,,,,,,,,,
,,,,,,,,,,,,,,,,,,,,,,,,,,,,,,,,,,,,,,
,,,,,,,,,,,,,,,,,,,,,,,,,,,,,,,,,,,,,,
,,,,,,,,,,,,,,,,,,,,,,,,,,,,,,,,,,,,,,
,,,,,,,,,,,,,,,,,,,,,,,,,,,,,,,,,,,,,,
,,,,,,,,,,,,,,,,,,,,,,,,,,,,,,,,,,,,,,
,,,,,,,,,,,,,,,,,,,,,,,,,,,,,,,,,,,,,,
,,,,,,,,,,,,,,,,,,,,,,,,,,,,,,,,,,,,,,
,,,,,,,,,,,,,,,,,,,,,,,,,,,,,,,,,,,,,,
,,,,,,,,,,,,,,,,,,,,,,,,,,,,,,,,,,,,,,
,,,,,,,,,,,,,,,,,,,,,,,,,,,,,,,,,,,,,,
