PaulMeinheit/Bachelor_Muay_Thai/processed_Data/E1/teep/scaled/JointPositions/scaled4.csv
Neck_Joint_Position,Neck_Joint_Position,Neck_Joint_Position,L_ANKLE_POSITION,L_ANKLE_POSITION,L_ANKLE_POSITION,R_ANKLE_POSITION,R_ANKLE_POSITION,R_ANKLE_POSITION,L_KNEE_POSITION,L_KNEE_POSITION,L_KNEE_POSITION,R_KNEE_POSITION,R_KNEE_POSITION,R_KNEE_POSITION,L_HIP_POSITION,L_HIP_POSITION,L_HIP_POSITION,R_HIP_POSITION,R_HIP_POSITION,R_HIP_POSITION,L_SHOULDER_POSITION,L_SHOULDER_POSITION,L_SHOULDER_POSITION,R_SHOULDER_POSITION,R_SHOULDER_POSITION,R_SHOULDER_POSITION,L_ELBOW_POSITION,L_ELBOW_POSITION,L_ELBOW_POSITION,R_ELBOW_POSITION,R_ELBOW_POSITION,R_ELBOW_POSITION,L_WRIST_POSITION,L_WRIST_POSITION,L_WRIST_POSITION,R_WRIST_POSITION,R_WRIST_POSITION,R_WRIST_POSITION
X,Y,Z,X,Y,Z,X,Y,Z,X,Y,Z,X,Y,Z,X,Y,Z,X,Y,Z,X,Y,Z,X,Y,Z,X,Y,Z,X,Y,Z,X,Y,Z,X,Y,Z
0.14615000000000003,0.10377,1.5297800000000001,0.09920000000000002,0.52851,0.12028,0.03269,-0.0030600000000000007,0.07884000000000001,0.10077000000000003,0.45337000000000005,0.54101,0.13685000000000003,0.052700000000000004,0.48687,0.07001999999999999,0.22000000000000003,0.9176300000000001,0.19277000000000002,0.07602000000000002,0.9224,-0.004090000000000001,0.20659000000000002,1.4789500000000002,0.24116,-0.03736000000000001,1.45941,-0.03332000000000001,0.3730800000000002,1.2326200000000003,0.3693100000000001,0.08932999999999999,1.22613,0.07752000000000002,0.4254500000000001,1.46443,0.28495,0.20885000000000006,1.4491300000000003
0.14588521890711995,0.10640079862734281,1.5293487751540682,0.10067524067891669,0.529317549117449,0.12125498940341062,0.032506118351344655,-0.003002632155937173,0.07878907304612219,0.10151162194181909,0.4563433408660993,0.5423603878535312,0.13564842875507344,0.052877700803059646,0.4870663383743874,0.06951607243358758,0.22160171196575798,0.9180330539294131,0.19144563516182445,0.07691422546500838,0.9225674143474079,-0.003434950149837288,0.2088373815827392,1.4792553848223162,0.24038510308929326,-0.036516602075101476,1.4604376001866197,-0.03241190872495622,0.37586246655703165,1.2332651040922837,0.3702985347137654,0.08978311310808754,1.2279270472053188,0.07947243586982455,0.42874685898159093,1.4644622095613045,0.2854864877946506,0.2115016797469944,1.449564720417404
0.14594201508685525,0.1078011470667276,1.5298990951620295,0.10064500065487429,0.5305796897523016,0.12101048451439114,0.032559370035992345,-0.003066702728986413,0.07905956001168055,0.10178192474589354,0.4592875582880925,0.5423989773557735,0.13433206439075307,0.05262650835730953,0.4877081532429921,0.06968143414023083,0.22399218396617554,0.9177153765171467,0.19064449302299802,0.07852749610363224,0.9230333880360121,-0.003374099202210196,0.21153544822469128,1.4805828884913927,0.24003325044543578,-0.03450355963935609,1.4612606248309863,-0.03217430452679314,0.3773243739965344,1.2337348774887018,0.3716475379363874,0.09128975484422587,1.2294231654224372,0.07937929977462127,0.4313590104091766,1.4648203357703746,0.2868348930310682,0.2129632148591516,1.451093340105847
0.14656185905866956,0.10943535655473888,1.5309518131266824,0.09929841485486135,0.5313859987496026,0.12077725195948077,0.032806263014471516,-0.0038711968792064845,0.07926097690168164,0.10151413818013155,0.46175625474360904,0.5424495357928223,0.13433439745186443,0.0520181144767594,0.48794101914202703,0.06832188954160293,0.22684050567798156,0.9179011302053117,0.18967661379077203,0.08169904662962106,0.9231575787580154,-0.0026323950278370253,0.21461219674896306,1.4810718219436447,0.23990196101364225,-0.03201189197712992,1.4620211134804548,-0.032793685151417354,0.3799950688152109,1.2341213138573155,0.373193178093872,0.09286397225057194,1.2306447862482968,0.08030588432183713,0.43446767661512997,1.4643559663140766,0.287764533413616,0.21581796457904903,1.4513656194985365
0.14463086106587694,0.11345191460972219,1.5306360294099468,0.09887481989108163,0.5312392361075559,0.12128499426465421,0.03246577326773587,-0.003748501589941155,0.07921135549669442,0.10029245488983246,0.4658430722356882,0.5436284989111415,0.1330180599940315,0.05244912039373589,0.4880877666498872,0.06710545410007779,0.23046087412223445,0.918788437645413,0.1887749380152988,0.08554368952800358,0.9230046340019152,-0.0033498904625684123,0.21596971227723508,1.48104046752736,0.2398478083011724,-0.029244536398952,1.4625011819810783,-0.03187062416723641,0.38288781657130433,1.2349296120201054,0.3733776625131232,0.09535441917617757,1.231121904038398,0.08168978985477765,0.4384168637339684,1.4646790791631732,0.28588668505984793,0.2197077714550579,1.4502352366963132
0.14370549761685028,0.11691336438291548,1.5307278451613575,0.0964877606330362,0.5315991160936503,0.12343364414446555,0.03198071267354569,-0.0035906915494941195,0.07909436903941469,0.09900550182211389,0.4730339751379482,0.5467780729207337,0.1316202694252694,0.05381446069706935,0.48802630031808314,0.0654459776498283,0.23497853296695712,0.9202140576497091,0.18773878400539226,0.0905501224791584,0.9226003337175182,-0.002932242736821767,0.21987196585630236,1.4825253798782743,0.23965693363179025,-0.02417892908480679,1.4626106813579924,-0.03273238878841237,0.38518261113782376,1.2354760984206028,0.37327789321438265,0.09936872559654063,1.2307164946402573,0.08136092868160429,0.4434868621096951,1.4642734195927887,0.285359156767031,0.22245625301537567,1.4503799478159018
0.1438699966239462,0.12062451620962611,1.5310361688969487,0.0953224187571048,0.5338532246471406,0.12506373218047748,0.031516896599104026,-0.0032615435011944284,0.07886205205253684,0.09700200520725018,0.48084478335511777,0.5491422515990343,0.12856691120636066,0.05489423947688722,0.488305658411209,0.06474763276345818,0.2399833809177357,0.9208928930923788,0.18754934974542778,0.09596994694507413,0.9221198415236773,-0.0020125708171936105,0.2243473613327282,1.4824955635745707,0.24133250398052292,-0.01873828265871377,1.4635327959626243,-0.031760397439704796,0.3898231451455362,1.2355539300294442,0.3757173293514567,0.10432621434904456,1.231823293820428,0.08046531941973872,0.44754419145452795,1.4654199873734226,0.28384196317677474,0.22784039107586793,1.4496252390315743
0.1445897516264436,0.12418138533663399,1.5313178798360263,0.09500002749167386,0.5366487218770238,0.12740238998299475,0.03204018935272386,-0.00401209421462076,0.07880022346951512,0.09581953165440524,0.4897976218885641,0.5522099060006069,0.12529536045483405,0.05642590575222179,0.4888060701386145,0.06205420808756465,0.24478447342203574,0.9211008905587064,0.1865863728265644,0.10226271413620303,0.9218101628958056,-0.002934641047112825,0.22717949595402073,1.4826938799949012,0.24333668686905827,-0.011736982707801106,1.4626522186589126,-0.031565667859163836,0.394785639186838,1.237066884954806,0.3775836058496704,0.11262050954407815,1.2315479661442368,0.08082575471514186,0.45388165820725535,1.4665043870326027,0.28218519254824076,0.23359150493336212,1.449254672268082
0.14453070059779846,0.13023472069477726,1.5305883775200204,0.09357266902724402,0.5382864061634731,0.13000630570848132,0.031644148370658064,-0.004665350488490023,0.0781882730273704,0.09400175019276645,0.5008382643331,0.5557454389031867,0.12271949929645974,0.05839750910950395,0.48828371931647696,0.06043106873896581,0.25051273841058963,0.9210685744713771,0.18656901885132016,0.10940482486633936,0.9203438384862642,-0.004491701991684664,0.23086131109824376,1.4815985114479662,0.2448973166486582,-0.004072951829711488,1.4620583222876435,-0.031104440968423967,0.40201332119660665,1.238190518408811,0.3789324255349301,0.12069551613386541,1.2310636435516813,0.07933738324200577,0.45760265081730644,1.4694386425871697,0.2822188999243605,0.24160698992299848,1.4482306790978394
0.14512816541854845,0.13550051711167227,1.5295140173302375,0.09307211748018902,0.5408069069434294,0.1319839845180834,0.03177670941417053,-0.004086706353717782,0.07766958299763663,0.0928102119140499,0.5130003895287886,0.5584609818496625,0.12094660114242183,0.06197350733052991,0.48771543428794717,0.05831653721426913,0.2577808776564897,0.9203041529692797,0.18644371461213835,0.11849397036829758,0.9188432465104789,-0.005056815556187967,0.23405586920532478,1.479761249321378,0.24917429763691515,0.003932242321318732,1.4607072070564475,-0.03181245590343501,0.4106022861480799,1.2402589632630119,0.380152368062818,0.13399972328384002,1.2308788952451026,0.07770223798646708,0.4622514808726665,1.4728585842197417,0.2810449706675967,0.2510055943161651,1.4490984536164884
0.14755915621197382,0.14203771772058593,1.5279063951764391,0.09366062102952406,0.5436948289426583,0.13346819782144845,0.03166108776830781,-0.0035283900727047317,0.07808842803446477,0.09223456207572171,0.5248953161789823,0.5604324686724189,0.12026263905454093,0.06677745095955821,0.4875492763136407,0.056461412820708046,0.26654661134121255,0.9199127169886533,0.18636594744748858,0.1289073208012487,0.9178124030259152,-0.006105516620671981,0.2397347307964146,1.479072381880994,0.25256569985632016,0.014861506872313374,1.458003316875558,-0.03213116993033109,0.4209278360658292,1.242987483123345,0.3816809517356928,0.1497552295476537,1.229906361697215,0.07706875338460933,0.46674185727897394,1.4769650978034723,0.28095113116221504,0.2598741105497588,1.4509423632151197
0.1495841946209025,0.15030106023722625,1.5260426576008168,0.09322986081772014,0.5468827651198079,0.13558236494635809,0.03154195403140827,-0.0035814236818916202,0.07830019659844467,0.09272322857821103,0.5386814809568397,0.5628905223569889,0.11872903141428992,0.07208128935709213,0.48711045331892094,0.0540005351688425,0.2764042249397833,0.9192156693030743,0.18601711716264205,0.14081511142807113,0.9161822798252617,-0.008122024221264696,0.24625348480313627,1.4787019793591722,0.2563836713079943,0.02691517680849023,1.4554301661571494,-0.03363638389248194,0.4328680502168143,1.2468218847912569,0.3834746903826953,0.16743066015613392,1.2296064124066404,0.07597191449650703,0.47375996166353046,1.4815166079463915,0.2813460013544564,0.2730343227690855,1.4521963351798128
0.15071001303022102,0.1606886720151743,1.5244438260049988,0.09167618607910183,0.5493510707127661,0.13677697201035832,0.030744113690956407,-0.0023924520654044815,0.07778137794890606,0.09284869955036242,0.553735241526687,0.564139566751438,0.11718023135761653,0.07810292529791107,0.485824067589656,0.051220709214553434,0.28771801555296905,0.917344984657138,0.1853884948515782,0.15427627000474664,0.9134934686135271,-0.008134834761056899,0.256942965426683,1.4792103802865892,0.25966577809711766,0.0410623157458521,1.4508434399696999,-0.035240526117375146,0.44824789424451267,1.2513628289529395,0.3870758173845972,0.18841996576704478,1.2296084036144297,0.07399477120803782,0.48065100161431007,1.487549013086303,0.28079777519508325,0.28717028335667183,1.4534037006021936
0.1527296594340186,0.17604616130624767,1.51997528737882,0.09000872312928637,0.5523342112353182,0.13763044989307424,0.031177911846904847,-0.0016205452379748884,0.07757733498621903,0.09329747072214208,0.5705772592925125,0.5646122928737441,0.11636337300595678,0.08503261179314095,0.4846208616857419,0.050623924350849475,0.3009924403137113,0.9149738665825381,0.1859008195584483,0.16868987822919757,0.9106768599833498,-0.007235438445147474,0.2662621572267726,1.4787591489373928,0.26052854523938546,0.05278044415300567,1.4483837320427304,-0.03684034142389514,0.4635130807757066,1.2563494703812221,0.3847843441967818,0.2050086197941945,1.2286543959931953,0.0727052198404067,0.48851054453872483,1.4932921868478481,0.2800045998402049,0.30153202292498016,1.4541135557163103
0.1529333391247483,0.18914831237601734,1.5162108275953907,0.09042734236240724,0.556144074167083,0.13835769961406424,0.03036404916773715,-0.00019145483791735098,0.0773174363661399,0.09396736925976822,0.5888402539921309,0.5644706392168816,0.11660354831956954,0.09366438788401614,0.48253123852340146,0.04963821459691666,0.3154728735316906,0.9116862975903817,0.18617239838701455,0.1844840031853229,0.9071174134063994,-0.008539067373417364,0.27491996763222265,1.4754375296647506,0.26619225481528097,0.0695088495093662,1.444520508734492,-0.03823413407062641,0.4822235312852958,1.262383971501098,0.385310658719237,0.2277026375206286,1.2261598170387453,0.07167603877478806,0.4976177897079236,1.4999733553223031,0.2802038102510038,0.3196042872307482,1.4534007407716167
0.15484569506964932,0.20286477400384484,1.5128992713193858,0.08973871747927761,0.5589929628830371,0.139425057450011,0.03060765673774896,-0.00013954150770891733,0.07773662136655883,0.09363036015469811,0.6093195644498768,0.5638132994095184,0.11870925435900653,0.10477016895779136,0.47983812803581544,0.04896126170481753,0.3321892647088005,0.9079928365642776,0.18659369263522543,0.2023679758850669,0.903183817435882,-0.008937977431863973,0.28771701943919514,1.4727573706146877,0.2715124373800449,0.09234128331951567,1.436452456438663,-0.03874216016224519,0.5044896257575961,1.269372994510052,0.3885634118726653,0.26072226360777456,1.2246996024739234,0.07117235578329507,0.5062050758904055,1.5074469834240347,0.27880058597383517,0.33860211046419647,1.4549604571507333
0.15563900758412588,0.22021102373786175,1.5092634053914826,0.08828767192140112,0.5609182666776232,0.13917166205226336,0.03175413075769315,0.0012040526831227773,0.0786782676068237,0.09475419736225309,0.6279041645909539,0.5612315927837667,0.12145028951756032,0.1175796714428652,0.4772487951716907,0.04936333780999565,0.3506834853671701,0.9052353540171696,0.18749064909684798,0.22141933206589315,0.8993994537218789,-0.008403563613785777,0.30075482828073946,1.4711011921927368,0.27582384483160527,0.1119404601530731,1.431743781166456,-0.0395897354469355,0.527415753699152,1.279015679210392,0.39046348282931087,0.2874624742105054,1.2245298082127067,0.07141911319811989,0.5175043496761575,1.516374968115536,0.2771774522893013,0.3588756910546065,1.4551795678310113
0.15492162512174174,0.23717758484179124,1.506901232323868,0.08860142410452344,0.5622984200081284,0.1379534988640815,0.033423816272625244,0.002517994680669146,0.08185765857566005,0.09640533322258131,0.646001910735948,0.5569864518655836,0.12555615128453992,0.1342176631890046,0.4750707325158922,0.049563328004039835,0.37128941259879555,0.9028133557351842,0.18911744665391103,0.2436124669140946,0.8961963586699813,-0.009800708314401082,0.31374351475853485,1.4689305693167707,0.2776874994131251,0.13402873322846978,1.429253361130256,-0.04411757325917209,0.5513864764631029,1.2911806524435858,0.39197620072698347,0.31256522185875757,1.2244199321437925,0.06963072895058997,0.5269131488362234,1.5261895735808884,0.27660802437265286,0.38322901765657547,1.454265622757331
0.152470972989194,0.257915571037799,1.505747831438839,0.08865088131999276,0.5635352386177971,0.1378704507809886,0.03724348147795053,0.00334620407947762,0.08773437525292406,0.09836933839183809,0.6638113078102915,0.553210145274457,0.132184230466599,0.15361160038596122,0.4735585106613652,0.04862085559061781,0.3935134001515895,0.9020907714133538,0.19044954247640716,0.2684471796457797,0.8939948187139478,-0.01092843593050341,0.3276709109682909,1.4716204307024718,0.2812895140472254,0.16168153801234011,1.4257552914230562,-0.05377319696922166,0.5746927925244297,1.3091590032646185,0.3950790408345421,0.3430553738065581,1.223152469578021,0.06821042285261711,0.5380085076780138,1.5383758622487134,0.2771068379413861,0.4126557085716056,1.451997543754014
0.1517836039730616,0.2786501015213066,1.5070804583306858,0.09102022827662662,0.5632176121987493,0.1365419603414441,0.04408392057288519,0.009582616134268768,0.09899221448667966,0.10176358306508743,0.6778903304056365,0.5481180977347582,0.14611954378503142,0.1838199476110277,0.4727208500015614,0.04687324225491395,0.41913854923481364,0.9048842146491555,0.19134634498629965,0.2972702306787815,0.895145375317937,-0.014383174535761978,0.34252473344534906,1.4734941677272562,0.28397884557743963,0.19308714875385247,1.4266994715130048,-0.06304780809620936,0.6006824331174891,1.331250267408716,0.4010334206200307,0.3679516578859997,1.2202698578305469,0.06618123389416054,0.5484818566281496,1.5533768908691663,0.27863798553211383,0.4441784070376688,1.4446362539264963
0.14798294102053663,0.3009072479499054,1.511590365587409,0.09698447525926472,0.5603947688291926,0.1344407067318863,0.05879176786129162,0.025386470864127993,0.11961771476063118,0.10433867664285697,0.685521233873049,0.5430395417476205,0.17025081745354603,0.23379031198785796,0.47259863553084014,0.04340900184538359,0.4460552096578107,0.9120861663379303,0.19297632356556238,0.33061319250658217,0.9009235235716856,-0.018919966633637576,0.36183309049345663,1.4770255462011934,0.27969976897507864,0.22507521816505674,1.4293704721326363,-0.07161363536179631,0.63268048855024,1.3625241525068328,0.4092522405723552,0.3766045678956426,1.2122332686950565,0.06387590752058761,0.5586969937807891,1.5745048576524683,0.29147958567004184,0.4733310089337963,1.431103134662152
0.14320018840277024,0.3241893954760735,1.5225290940458338,0.10121728751852645,0.5565530212760014,0.13032633027384957,0.08475822039503376,0.061711864391770045,0.15044776367225032,0.09942651440956919,0.68536558519466,0.5378246626363831,0.20717043947138877,0.3067344539666831,0.47515036903679164,0.03888682835690612,0.4712304117474192,0.9221881547261979,0.19569098544297497,0.3658620692045681,0.9107278977274273,-0.022428375854907784,0.3790446291566641,1.4888451740404571,0.27711105436965044,0.25254202049924535,1.435321197483421,-0.07906070611001317,0.6566348466932278,1.3940729964914573,0.40998960199854867,0.3758938429874143,1.202899891945831,0.06488088275674317,0.5733045236905706,1.5968114317999307,0.31876395883152125,0.5097414495648952,1.4147748730874818
0.13948936489155586,0.35454535922305425,1.5330667022243092,0.10164332714214802,0.5537851658091472,0.12665947457711152,0.10648292768126914,0.11983850410920317,0.20012283709187537,0.09202942081003898,0.6798011262619975,0.5349382432378371,0.2473975976482027,0.4039658172332864,0.48272868796729945,0.03249174231116033,0.4893777392839127,0.9317335201654362,0.19829977246426933,0.39891587422012315,0.9196669837843181,-0.026696564286980168,0.4014668496990058,1.5060753112842757,0.27709850593146823,0.28478699046533384,1.443530126888734,-0.08129198362577375,0.6855007223386167,1.4313000499028705,0.408484291239057,0.37113633078816505,1.1941833532520447,0.07281519553878953,0.5897230773529929,1.6206237552242277,0.3521999868314345,0.554406541501093,1.3795926343806881
0.1374250293287237,0.3848836592472848,1.5442694597729072,0.10100127302731153,0.5526937132734266,0.125587548333428,0.1269319953732834,0.20524769108577068,0.2703332617482779,0.0797270161182329,0.6753328075669693,0.5344448803181538,0.2821162700559441,0.5220642728270529,0.5069745856551109,0.02822484786702268,0.5010348658378562,0.939688159533316,0.2027104191021267,0.4284767110182565,0.9292165458096903,-0.029621476007547266,0.4272245033220875,1.5232013575030774,0.2792715797828834,0.3131249458173018,1.4524749378575867,-0.0795169208557118,0.7159328313307844,1.4648491016232308,0.40540867853877127,0.3586230089616769,1.1899602419817725,0.08060302690178534,0.6081582720535773,1.6423664907526956,0.4027084982844445,0.5884136861094436,1.3253260942887717
0.13729874032225148,0.41345509213201864,1.5553745888429271,0.09917448424062172,0.5555393227916757,0.1270835402207957,0.1554241581067654,0.3084177854044892,0.3436788849772906,0.0685833105754713,0.6749256921271645,0.5363110697196225,0.2991159454108086,0.6441250482665565,0.5607143665135257,0.025738953010922994,0.5087142777938701,0.9459387199745155,0.2052090747456325,0.4486821012686261,0.943251582531966,-0.032481789172121016,0.4547286632690298,1.5407851294495583,0.2771164669738117,0.3342748448340327,1.4621309269142853,-0.07652027726887768,0.7459664501098604,1.490922639139545,0.4002397583438352,0.357899162831155,1.19535067480624,0.08794130814365188,0.6321664435538831,1.6605320798176537,0.46043693097286714,0.6108801705443875,1.2545475808883535
0.13960084923068886,0.44028911804629567,1.5638384319691672,0.09848529777250664,0.5604248797254864,0.13144144413058728,0.18647445022001327,0.42254812611165793,0.4179217050891574,0.06209878907429028,0.6734196835664935,0.5420148088065877,0.3035339116230563,0.7636268120355226,0.6424479349318779,0.021764608730349584,0.5123175068041781,0.9539315430569927,0.20631926050813806,0.47036086056630844,0.9553306388689772,-0.032998308066926094,0.48411238181967103,1.5545546918836595,0.27582957640356487,0.3546639116805824,1.475425736463771,-0.06752248768785422,0.7768038354905229,1.5057064430463136,0.40252849409091923,0.37161783452896185,1.2098065882376414,0.09854130223423033,0.660476736666108,1.6720093797967495,0.5048234644075412,0.6165150315711002,1.1835195770489986
0.1387566385804858,0.4660062766255914,1.5671926396530032,0.09800632970127272,0.5651584237925242,0.13411544126036126,0.21519640954603259,0.5422588718717474,0.48627178049486736,0.05892423767419542,0.6757743807927902,0.5450809737423973,0.2912649015583022,0.8630649412433964,0.7541239679197165,0.022452382603162496,0.5140070175096533,0.9571014202470742,0.20959794706795892,0.48921287907310446,0.9707281058155817,-0.031034600339879554,0.5132010308285014,1.5607133991607325,0.2767073388735607,0.3762648360534643,1.4837946720373676,-0.05690004996416994,0.8070997823210071,1.5137723827232237,0.41318949595074234,0.3879058410268801,1.2227812104618245,0.107939771418809,0.6880344328066738,1.6793466236443146,0.5331059238270089,0.6035385464706646,1.1215242294216172
0.13451155363885192,0.49113414385319576,1.563759291415881,0.09503333476387221,0.5676810680647136,0.1356696715881571,0.23689911482626616,0.6689297447644312,0.553570269636555,0.053397996156014864,0.6819231320368245,0.5453926309743239,0.2666288917713965,0.9382467077704079,0.8807374855053319,0.024212847034027308,0.5212271355011222,0.9584068112303957,0.2115999948912004,0.514397824608659,0.9840765507124665,-0.029943278053925635,0.540549400786347,1.5569171593811808,0.2795718666351252,0.402758189463364,1.4856797042002448,-0.046219937337508205,0.836082730950519,1.5164027800188582,0.4245483070534521,0.39781667058149944,1.229066725362223,0.11663977390827782,0.7137128201194143,1.681538998049983,0.551344552737895,0.5749275622972942,1.075156943819763
0.1295616014793789,0.5134355562208225,1.554971121293917,0.09248250240755376,0.563739458597416,0.13320780748050304,0.25001316272036006,0.8079337933025839,0.6199424970048163,0.047723437123618345,0.6881278160604022,0.5396318379156272,0.2322200516247797,0.9774887867801568,1.0090204495607389,0.02740870281660731,0.5326218370431692,0.9551627392055835,0.21185674216870465,0.5383981987334585,0.9971915989964162,-0.029388948717139058,0.566964098079089,1.547678815637582,0.2810257885050312,0.4303914596089034,1.4872530201203262,-0.03944721864383799,0.8637164262430922,1.5147622144231003,0.43391802610851005,0.40261009711671225,1.2367633780759826,0.11923480826583831,0.7358716107924334,1.679816582231007,0.5620902682032042,0.5328380603016568,1.042482910729845
0.12472779560405872,0.5368238350213628,1.543646029499874,0.09367700552126645,0.557633388059959,0.1296685691097255,0.2557933689467327,0.9616192823321664,0.7043465628513709,0.03783195926750775,0.6964514128247382,0.5300052017289956,0.197790914212333,0.9855827558297907,1.1244842922596765,0.03796449574172436,0.5570421857269524,0.9516884574687539,0.221068423981169,0.5647977093445495,0.9989595321683562,-0.03352929649840059,0.5883561158401344,1.5337534345361454,0.2822477871724954,0.4566981929903708,1.485626789165143,-0.03651113431739978,0.8865908931346921,1.5166116478979172,0.4392217882872215,0.3930088984369327,1.2443820125438214,0.12067372194281241,0.752089309192737,1.6777589068303507,0.5667000819626544,0.4842633918017466,1.0286167467705232
0.11681920673303314,0.5559407983508714,1.536258683278434,0.10096349123802165,0.5558215113012697,0.12722646365161122,0.24484630022282292,1.1206956558283325,0.8078007913660518,0.024198270101921646,0.708065657552222,0.519123385533388,0.17600084242838707,0.986385925852182,1.2048824132332823,0.05175690114274815,0.5854100526652137,0.9450904852594726,0.2310879342767687,0.5991078811484654,1.0040329435506519,-0.04307412742086368,0.6019379518350036,1.5188529383336475,0.2823230770895128,0.4769732685384185,1.484788957571788,-0.04201960853407637,0.9006171752362262,1.512720849282148,0.4329584382346864,0.369883299292994,1.255150140195681,0.11702686121509061,0.7665383367023727,1.6723769122881453,0.5635043115588363,0.4322076386994053,1.0310837183448422
0.1097276336914417,0.5679633230580463,1.5298535858502056,0.107196552274366,0.5577513560786204,0.12895170710136886,0.22301677343187057,1.2759433681972265,0.9254265613092381,0.012828987762857081,0.7212679194551578,0.5123756996172095,0.16670329674776255,0.9995506642249902,1.2430596191371757,0.06195054210167445,0.6147882284366302,0.9407472657292069,0.23819776506489482,0.6358765223346436,1.0064497167096225,-0.04852878843512903,0.602718752961754,1.5042933725821976,0.2837110829860464,0.48783361083122234,1.4871262044145814,-0.05716382860109621,0.9013349127052408,1.505512214067107,0.41926674846596007,0.34112000316178176,1.2703446241422687,0.1099498266066021,0.7774933405327819,1.66520270305211,0.5518328123742886,0.37924013955375585,1.042073480138804
0.10556889897627392,0.5619388819175744,1.5299438197264628,0.1048686273528692,0.5607172502411916,0.13098617403616847,0.2014939759712981,1.4243795948500084,1.0390010207439344,0.010378616577232155,0.7317016796433916,0.511110665468079,0.16864452314994996,1.0520759197305236,1.240893404291762,0.06472317412150706,0.6475565506771975,0.9437994748554106,0.23742906785017975,0.682398607359682,1.0129308888575042,-0.05036040470675112,0.5921202856728358,1.4953992005821397,0.2824233631824405,0.48360557553099287,1.4884780648797729,-0.07765166312735555,0.8896033116313153,1.493833003625816,0.4012104692124172,0.3084161099182074,1.2833157044805912,0.098300238917308,0.7797798964183378,1.654289725739912,0.535671589354969,0.3258290387427999,1.053641190133266
0.10608093389308515,0.5445926984242995,1.5324048554488836,0.09947004523155838,0.5666981044250712,0.1329297342850795,0.19234292095212935,1.5134144736545105,1.0878476745930905,0.01545380187271698,0.7417160399720991,0.5136803374581993,0.1671537057335074,1.113123340769551,1.2277940082382846,0.06435028248694932,0.6815502184128048,0.9509945127347899,0.23291924509945652,0.7301150771884372,1.0220299461884603,-0.050390406920312956,0.5724075676387825,1.4881336019239282,0.285286234764721,0.4694886977967861,1.490151325971573,-0.10157360258149249,0.8665858675377366,1.4790905353816302,0.3847074237032058,0.2803753531728869,1.2870682065936487,0.08240354658298213,0.7722393599968529,1.6403792316973316,0.5234801009958787,0.26992883475996243,1.0595425312702393
0.11130089397873784,0.5228029132866027,1.5333303722956646,0.09773065263054384,0.5746053125495368,0.13560619772714558,0.19339757916715003,1.5513177233918842,1.0895051958615822,0.02845552891580905,0.7513239151364504,0.518535572165548,0.15993338278729527,1.1500446038937908,1.2248233437682445,0.062442751641442286,0.7087094948769026,0.9593077620047581,0.23045896636351934,0.7638304823922525,1.026783935096589,-0.0482832628426003,0.5491616568754414,1.479079086396556,0.28890032973987756,0.4539945556978547,1.488706796468717,-0.11676995488770209,0.8397268919610451,1.467839468698796,0.3742679396173022,0.263428878260617,1.2806516213647485,0.07224148637618757,0.7563824851279036,1.629374663203995,0.5165750116570201,0.2202976582706924,1.0592497366249767
0.11694701561026581,0.5062459132124794,1.530541617122827,0.09818101797192674,0.5817423528929936,0.1389951705108047,0.20723265878775965,1.5746884851411804,1.092923496013748,0.04107300863107983,0.7581066316661723,0.5240918446959494,0.15489876824149162,1.1727213885725127,1.2199472179350404,0.05992377499979773,0.718327448637215,0.9660373723193667,0.22465375687603,0.779156467667604,1.0366596008581883,-0.04791620157899437,0.5273078007607422,1.4723196471941582,0.2915664557987182,0.4416520442558917,1.4810411667854908,-0.12597795730112632,0.8155145853217829,1.4629374297754891,0.3702705461091269,0.258093178804594,1.2642402005211792,0.06801804573740486,0.7392180298516134,1.6220171033251696,0.5154522128736204,0.18657630081946727,1.0522557059541249
0.11736677471128219,0.48921945997145966,1.5310558442968634,0.10493756534264376,0.5845627969359496,0.14047365164646378,0.21966938404075234,1.5944367027543533,1.1035265237988614,0.04753691681689203,0.7507073539405225,0.5300343831471895,0.15935542702227593,1.1849023218336763,1.1988690434875717,0.05726565786430097,0.7102238928064449,0.9722025495030562,0.2189524971588386,0.7777972443206811,1.0437182398488207,-0.05037730463482731,0.5057691399533244,1.4711819427028607,0.29516967331065636,0.4298036507244728,1.4742700077858109,-0.12965743927938297,0.7935291297737483,1.4586714045630178,0.3768796502469777,0.26242612796273934,1.2458001445951474,0.06735207195432485,0.7215890819329993,1.6160831182701283,0.5191713374807534,0.17770719473220986,1.0367289670211015
0.11697503282080149,0.4690253077909483,1.5354098358723374,0.11225832564749388,0.580848162832561,0.1388921366910722,0.23310350121368165,1.6028172101050253,1.1047521366491546,0.04881940661282913,0.7280488488786907,0.5350846332980475,0.1780678570320691,1.1859925178118962,1.1654268484075627,0.05303068086695793,0.6930876286658308,0.9778177171848548,0.21438469111553643,0.7641940592149156,1.0465796038266812,-0.053107192003960635,0.48487095240592953,1.476624543901671,0.2964121348254219,0.4130783815974446,1.4687430104634307,-0.12853673532168422,0.7731007184818028,1.4547519676812528,0.38773879728525945,0.27073096012056697,1.2273156438713624,0.06535390919632467,0.7018705093272901,1.6162955694715497,0.5253911054734646,0.19317232188245098,1.012446121639162
0.11159034086202396,0.4506271363605336,1.5410575012927037,0.1152812543716171,0.5687992960604106,0.13401411773073665,0.2545457062165637,1.5887541112687558,1.0692978468983911,0.04918478692206243,0.6985428474272579,0.5358297635395824,0.1989084756317922,1.1735927430130593,1.1399894637299248,0.047840442344847196,0.6740429832185603,0.9792781375592047,0.2104219521015046,0.7441472305677685,1.046183400323157,-0.055968343622096274,0.46728498491704473,1.4841806327647,0.2959136746618361,0.3984615709671326,1.4643880350697536,-0.12579555719259233,0.7563212199451828,1.4553205564433187,0.3960230500081332,0.28559930743671286,1.2111387075345168,0.06548856919432615,0.6834289782143537,1.6192199313774651,0.5346063212469848,0.2331474859297344,0.9893835280803932
0.10849096639936545,0.43244853828907814,1.5460657611330355,0.11362660960565266,0.556571147940028,0.12588009051963772,0.28696756924689587,1.538857944077836,0.9881765571940803,0.0534774090074158,0.6693643006556085,0.5337033036079731,0.21159606547301096,1.1446593800221034,1.1273883938711347,0.04359466333493524,0.6481699956829695,0.9772152292630254,0.20937231081584598,0.7135097851898148,1.0410105749013647,-0.05843677727094879,0.44798678590469354,1.4897635272143217,0.2934081763542279,0.3867213607571784,1.4636760642495361,-0.12598033933074324,0.7372017773825228,1.457524325584266,0.4019983321091463,0.30717708933674936,1.2014284801438844,0.06519470192726151,0.6664457505629411,1.6224818369593381,0.541017805721898,0.2932044364107925,0.9742527649959141
0.10670796285696488,0.41550826066059143,1.5500426563595076,0.11311737574260727,0.5460070120835431,0.11892897091525176,0.3183859852059564,1.4474883713497741,0.8699130110711352,0.060130222159095616,0.6460512654674819,0.5310469138074124,0.22276219293554955,1.1117586521361842,1.1119683889331407,0.04321254303637116,0.6228752828466821,0.974251597091684,0.2140355552067191,0.6792513923256547,1.0330961030720018,-0.06146813674128006,0.4295782163533132,1.4958850797266554,0.29292755356328815,0.38154116993764464,1.461406171098146,-0.1303713541125964,0.718366791199925,1.4626873098448714,0.4093503301005389,0.3434008811079652,1.1932955663210534,0.06182410711817704,0.6483004295131474,1.6267522717987764,0.5474537460699188,0.37365411657839703,0.9671381952814156
0.10605489456936394,0.40199070028778283,1.551009737777317,0.11894210661062196,0.5356622363982979,0.10976966984304438,0.3350371346011642,1.3189210602326324,0.7468381329992121,0.07050680079395201,0.6242164844162241,0.5250613885036779,0.23763655751236293,1.0804346491499084,1.0846046220276282,0.042694548288183934,0.5991327697853301,0.9676052294913124,0.21764266351717854,0.6455146094221542,1.0229300574622893,-0.06401912004974694,0.4130461375102177,1.497770152623139,0.29178002429773287,0.376149317307022,1.4567141041948226,-0.13423941361124567,0.701972113793587,1.4688723303157176,0.41364624021951424,0.384103208171164,1.1884300301646795,0.05992292415039388,0.6327901344807186,1.630982423174213,0.5488225061259149,0.45712743516180027,0.9704209100772442
0.10575444565017743,0.38888385882554377,1.5510877858929268,0.12710097938389292,0.5252539208564151,0.1009944272769477,0.3380808852447584,1.1601607334247632,0.6323763591301852,0.07986521350719485,0.6016076661145006,0.5188456276277539,0.25476254187582675,1.049225952171004,1.0338825247016634,0.039152643921769696,0.5738260236053381,0.960230153340399,0.21770101460872554,0.6116991760478132,1.0102784649023877,-0.06590247296327935,0.3971162306087612,1.4991236980894485,0.2890105703278858,0.37372250808572366,1.4509639446998888,-0.14327013143842515,0.6845825606015652,1.4741064551919463,0.4138710142449759,0.42153087425549035,1.1882546340566775,0.05457533931254877,0.618746177859101,1.6331369329596512,0.544522489094113,0.5436671165542913,0.9904087809640051
0.10673792657388996,0.37500145744265406,1.5484399746163588,0.12938899333017903,0.5188409131389258,0.09126665076269969,0.33004416392924485,0.9820415143537511,0.5408777251283502,0.07933996418547275,0.5810628545337069,0.5111308892564757,0.2693758678255274,1.016004222052665,0.9599369601252438,0.03735640228686324,0.5478278727012139,0.952020387054258,0.2183913855903813,0.5807648917558272,0.9963237159023587,-0.0643736875375551,0.3802742268040871,1.4975055388295297,0.2869568692496101,0.3691383122726875,1.4461269320548795,-0.1514268219057213,0.6655736420040163,1.4811090455343583,0.4128612812702016,0.45985960872309684,1.1955105112350948,0.05075977123911317,0.6037570546500175,1.6362367377256806,0.5299573379229233,0.6241639426048432,1.0210840719847325
0.10606688668501377,0.3628769721956046,1.5439155907239308,0.12719012806452368,0.5133015849167251,0.08228398132102863,0.31015558628706486,0.807082964000619,0.473223604245903,0.0758439101310523,0.564707581784133,0.503446981684481,0.2896827126430569,0.9718273684980545,0.8642384318608475,0.035190681154142985,0.5232338645219609,0.9437652155909785,0.2187360111389372,0.553284000013887,0.9788890468905389,-0.06298059591599056,0.3639012960604602,1.4956382392506156,0.28439909440025896,0.3651451182099892,1.442176203483723,-0.16087205499701232,0.6459552758554742,1.4852812292465787,0.4089489121340622,0.49281171824898856,1.207490976721604,0.045729370724600885,0.5889825919740672,1.636398181823039,0.5046248166884661,0.6959499721159949,1.063559223227534
0.10941103606230627,0.35188532428734254,1.5373366181830195,0.12848617905820695,0.5122173128532651,0.07758361915315304,0.2852647100712856,0.6405027860996371,0.42745734515845024,0.06912132586996754,0.5555782162588194,0.49859453969214645,0.3045633519597743,0.9054048139791414,0.7589683754396277,0.032541013333397886,0.5003931759048864,0.9377701616193942,0.21811423066876323,0.5263529913473645,0.9643984211381389,-0.060569061019635065,0.3478273785203849,1.491619635918072,0.2858351321155413,0.3614714367378343,1.4373184861125392,-0.16806257388363624,0.6265074390474192,1.4863302895189394,0.40105144247081975,0.5218954515776533,1.2184945424565594,0.04297672662646348,0.5765485766638849,1.6337491852382229,0.47294744264143773,0.7538424958084018,1.1082249925397496
0.11382828730623559,0.3429217471341563,1.5321194481983977,0.12725662056150783,0.5116962009605942,0.0781382552445475,0.263060855327691,0.4883071690484383,0.3908243071041736,0.06617357735327621,0.557343272520844,0.4986694353376508,0.3102530859745356,0.81273575285236,0.6609495532950759,0.027009335776924676,0.4835809860752583,0.9348784523645112,0.2151062943142424,0.496585711505865,0.9513881800208558,-0.05612029803794964,0.3332242288952984,1.4877987845895464,0.28888569184997276,0.3518964846201146,1.4352815980678209,-0.17635304436753033,0.6066963107098516,1.485659369402179,0.39063888279469056,0.5411688498840348,1.2335067718341566,0.038958379763914266,0.5641103249148623,1.6291618683694484,0.4320480578757618,0.7950426218002921,1.1630496210754495
0.11864127992517247,0.3347313417772713,1.5300174733575453,0.12526401842488671,0.5121587155205941,0.08114508036213547,0.2377891303835313,0.35891555368308353,0.3542109183950403,0.06382858852054958,0.5577366843369814,0.5016284659641911,0.3048646311820356,0.7072981019079967,0.5878432590347642,0.023388159513248474,0.46879975662374096,0.9348818671915256,0.2123504092612479,0.46910751916263477,0.9456961415273889,-0.049825752626770324,0.3197614586184605,1.4850269516977739,0.292954744008766,0.3436467069809796,1.437550828760178,-0.18132142136199828,0.5879985930936003,1.482237412358232,0.3850885017141582,0.5490601724393162,1.2472676193238441,0.03563147384245669,0.5496301434410988,1.624448315248047,0.39283460335364945,0.8145220248261905,1.2226865597453775
0.12392683771438545,0.3244017182913927,1.5293710179152478,0.12681598212534137,0.5117549325062413,0.08192446075664565,0.2087330588609117,0.24700494555784377,0.30925936107412594,0.06742093121998868,0.5523058103263311,0.5032111533590242,0.2897477430123082,0.5981517890203805,0.5341617486821747,0.02146224704345194,0.45245403924664734,0.9335275985892717,0.21039720940081816,0.4421780329998273,0.9375653967776197,-0.043507310890282626,0.30528943145320997,1.4851484224376001,0.2976538811054923,0.33150431491906934,1.4419088047515005,-0.18417279305113674,0.5685714674743112,1.4733838857017025,0.3795039975381659,0.5474532689069266,1.2587194375339572,0.03277450739948706,0.5401930768521843,1.6179342065844424,0.3565978408323761,0.8123578734100588,1.2795008947240334
0.12975027203824382,0.3130298307375085,1.5301382139558133,0.12655899904345047,0.5098335334936902,0.08125544201977032,0.17992403225900072,0.15922791396945596,0.2595475757014502,0.07218750150863466,0.5475643338022878,0.5034843653832266,0.2731273074140773,0.49380495596308693,0.5041276384943449,0.021623698077273826,0.44108757123079934,0.9316931970076198,0.20837471514401384,0.41033544360841295,0.9309700684077928,-0.03978931610702975,0.2951623394322675,1.484327723149797,0.30149774174377747,0.32131751209104004,1.444614557690777,-0.18240561327300076,0.5568104876004593,1.4630988300913852,0.376677689326534,0.5454777237978979,1.2685715558137203,0.03204675752975961,0.5318630292659746,1.6119459985890237,0.3211532722365895,0.797992841351479,1.3340335431508625
0.13596123861333967,0.3029581129787698,1.531140973704344,0.12709331565777438,0.5096909671311608,0.08228825735747342,0.15105223483021407,0.09535760987990193,0.20834934734244642,0.07445825424523274,0.541861037219051,0.505198688996118,0.24760545554327476,0.397920653131504,0.4904502706632314,0.023449958593160066,0.42769634395878214,0.9313651070603343,0.20633059701828485,0.37910302169098076,0.9278286473950987,-0.03448623388328727,0.2851033051768472,1.485629397037335,0.30715193461489976,0.3064549681896305,1.445460398504197,-0.1825482520546545,0.5417887417854393,1.4477280849559375,0.38234630623089566,0.5346194053507899,1.2746476358938799,0.028897317867777897,0.522679235322187,1.601647544737012,0.2967405117616585,0.7635905252142304,1.3812977055921598
0.14101956335021318,0.2905906846533414,1.5314896035304373,0.12735413728257453,0.5091013445315014,0.08346372287969776,0.12262646341218046,0.05827824201203623,0.1632261003604455,0.07691692469734965,0.5324750011797784,0.5072159826464171,0.22020853996220002,0.318118454817001,0.4848058822829076,0.025733174669850742,0.40973985891454645,0.9309759858169427,0.20589767568307382,0.35231889093939545,0.9229624548201328,-0.027500498501208392,0.27446252943222277,1.487993055550684,0.3101906999230239,0.28860530357631176,1.4436167991275604,-0.1809795338610585,0.5244091828300234,1.4312627329020458,0.3861834659608735,0.5201715248912097,1.2777893275753591,0.026158631023806136,0.5152363644456271,1.5918093813077354,0.278246116896944,0.7211284336249304,1.4159816404435381
0.14524903346000123,0.2787904004913687,1.5310227741371614,0.12763367319211213,0.5081900011389747,0.08294903968577941,0.09500838566611328,0.03598870925937661,0.13747275136368775,0.08112604404613136,0.5201517752823482,0.5076219799839654,0.19522514143084982,0.2591682401242459,0.4847450866936576,0.028202043603408278,0.39163187615296835,0.9294499200091898,0.20352739771189862,0.320960860372398,0.9200245349010286,-0.023081465406802254,0.2669349425746539,1.4893903861340125,0.31166952364381983,0.26758429775811,1.4422585608974487,-0.17515213359674905,0.5114652250525713,1.4098581674484119,0.3911845148660656,0.4983617079314684,1.2770011710661682,0.0247934901072409,0.510793193473503,1.5795258265550358,0.2717548612000127,0.67270756868376,1.4397046745163842
0.14949532705289378,0.2637040408555568,1.5310832100530791,0.12833945460568663,0.5067551291364369,0.08158394941543078,0.07382387986908058,0.02211875165837484,0.1194939603674199,0.08590768224048148,0.5060110959484613,0.5068565890595186,0.1754556794633147,0.2205343453162292,0.48109130640093134,0.028770403330421253,0.3712058204588992,0.9261633157217309,0.19875282073127162,0.28875815514211783,0.9148576974869016,-0.019337491636126778,0.2599115721761095,1.4887341600774695,0.3145556096688793,0.2421357367550998,1.4394238167592022,-0.16693320648453155,0.4996145482033505,1.38871036543115,0.39287123392378587,0.47201241009687966,1.2723491945118723,0.025201941599397506,0.5045083910179494,1.5671138057890137,0.26854058423145616,0.6245164669826591,1.4523891343182658
0.1533420866901843,0.25177809554253316,1.5288358184722428,0.12892342989662262,0.5040306012463458,0.08166594964526314,0.061365176199983176,0.01872717800563601,0.10378953412765768,0.08891716811467762,0.4971402657385802,0.5071175529004688,0.16419362441317034,0.1946827680623267,0.476497890896611,0.028014925160877602,0.35083198977153646,0.9220084911750809,0.19321195654718876,0.25920010181684694,0.91049476915759,-0.015817193150004818,0.2545839866037059,1.4881481914844101,0.3165897756018898,0.21674397812201648,1.4374969705546135,-0.15443997358156542,0.4886049896050235,1.364607173967326,0.39734275770554756,0.43995172809446387,1.2627131655996087,0.02811026439824041,0.5000331953420634,1.5525209258541877,0.27260739615604934,0.5754116420737708,1.4556518435296435
0.15453377942830898,0.23956803542588032,1.5263905897758308,0.12790554271255264,0.5040820256227673,0.08212862221719411,0.05653822139320479,0.014887004469828623,0.0940575173218512,0.08787544640728003,0.48664033386460337,0.5072808760471482,0.15958702041007364,0.17677192546328158,0.47302940864388954,0.027324379672610952,0.32722215945262345,0.9173681589577674,0.19016636505376797,0.23118105719676615,0.9083060863493482,-0.016967921661467024,0.24851778756654785,1.4864999267951802,0.3144829382333313,0.18866612780625694,1.4354962664375326,-0.13945057380740186,0.47739458525070905,1.3386471467943324,0.39990168856098623,0.4028248661262689,1.2518394950388045,0.03337773731893568,0.4898255414260906,1.5354711018397051,0.27823538548153764,0.5294471539796884,1.452570154855847
0.15634496725336516,0.22541879439173937,1.5241692270865839,0.12722373076323462,0.502741688957114,0.08218800758483809,0.05498731054322436,0.008875530031218402,0.08802330183243906,0.08761677942534693,0.47438365734193766,0.5067872074368587,0.16001021961860584,0.16214292612595213,0.4700384306369107,0.027259426313948603,0.30645499340824156,0.9134889240040656,0.189545320211152,0.20932617541024987,0.9062172950291615,-0.015882238155916512,0.24239671488518988,1.4814329643567328,0.31150838758246246,0.1615736046263009,1.4326192628291232,-0.1248100468085286,0.466210526550956,1.316247777751128,0.4023891729519236,0.364813054107598,1.23941441953033,0.040663865957257496,0.4804016586665018,1.5191821861829617,0.28478449458150473,0.4883149836834472,1.4444629714129085
0.15820997351170066,0.21118176559736368,1.5233273393508382,0.12672606724134053,0.5029207960136369,0.08332749967678742,0.05536395454793029,0.004241615591960819,0.08520688936739351,0.08742293207969365,0.46373342775693205,0.5070956912319261,0.16344286464982075,0.14809733915894222,0.4700156010268836,0.02900713916671109,0.2884252897905355,0.9109587769875199,0.19032807156544362,0.1895259920353901,0.9069511469090183,-0.01442736747077908,0.23866544427153596,1.477546945678224,0.30661691422766696,0.13620134314170215,1.432515325809087,-0.10783765383892435,0.4540866781553663,1.29284856197811,0.40525499708924423,0.32546890548887236,1.2291810136319319,0.04899189184246949,0.4741492644143761,1.5020568104605996,0.2910120360504766,0.4522364316486546,1.4341494839311828
0.15759978637701755,0.199230497916963,1.5225394152215357,0.12568238125735792,0.5027496513049405,0.08492455346509209,0.05537768330988449,0.0007560170726063761,0.08287751600018378,0.08582799616067471,0.4538981960270061,0.5076348687576102,0.1651262451498317,0.13511212901124323,0.47063162810308085,0.031156372343705444,0.27250195506841435,0.9093284006796916,0.19079182846874354,0.17083889955774448,0.9081550640120293,-0.014142526471270105,0.2326286049332419,1.4764874091148235,0.3007519104815661,0.11254876093041938,1.4327180290762032,-0.09285181832623668,0.4374139935669854,1.2737205673656953,0.40578797370874414,0.2847570999624172,1.2177702761434974,0.056495361262132296,0.4640517532168062,1.4876235232704174,0.29799912968767844,0.4151589943691323,1.4239476844172474
0.1571855958410383,0.1868337749684471,1.522558657649522,0.12540006885654198,0.5024819906155008,0.08680382381816795,0.05233082856117778,-2.6677906846166084e-06,0.07901361018354927,0.08677112362948988,0.44581345023012137,0.5086450879861124,0.1636292966479561,0.12199496342442906,0.47039929971785804,0.03364229870982661,0.2587757359277153,0.9079481535978149,0.1905902964230821,0.152987492741882,0.9081920040319721,-0.015247207627052757,0.22808721207110277,1.4747657040312938,0.29496587227504395,0.09049364787675855,1.4335170794396865,-0.08065322101565212,0.4228744286672767,1.2579095055481884,0.402985309311418,0.24979726773895986,1.2102496346829448,0.0622832469733906,0.4551756674284779,1.475375200815388,0.3030761746257489,0.3814942013191977,1.4195456575681742
0.15722042398896838,0.17449852876206648,1.522657077914215,0.12370005383317755,0.5027334913075944,0.08914540965748824,0.051934972801374,-0.002660970806736535,0.07759561423926642,0.08785905481893551,0.43843599040456543,0.5101427864937701,0.16297278623100675,0.11112051735625046,0.47151890924917794,0.036030864912326065,0.24608167230812641,0.9070915745225864,0.18939755800894661,0.13520194854484932,0.9097813648727918,-0.014093861481721122,0.2269169847951037,1.475617359826745,0.28805491214515455,0.0700122942986517,1.4329556547458715,-0.066915989115174,0.41242824326441924,1.2474903295457769,0.4015106396780577,0.21956006830118546,1.20567249769975,0.07004199297439799,0.45250292565890665,1.4674853616382686,0.30760563465605983,0.3514796665547096,1.4175924247475444
0.15762362826911522,0.16567767368140787,1.5232884005791045,0.12141413471474076,0.5026756403208035,0.0924573625752369,0.05219393440624075,-0.003917520273205844,0.07772351154183463,0.08865148076138442,0.4317823351266331,0.512647033604231,0.16303175569488404,0.10099424750819744,0.4741614956414062,0.03858988932741203,0.23468708913846212,0.907490459519813,0.18786390223581578,0.11845542733284657,0.9128288589563768,-0.012904861834752137,0.22747030679080743,1.4755512299586808,0.280967042537604,0.051200195758300066,1.4362349951223436,-0.056385150349851226,0.40145400386151114,1.236629479197212,0.397842054992467,0.19118878867347713,1.2046409349772897,0.07675281448360077,0.44538350885939687,1.4582370417424975,0.3095219652533608,0.3266892393878576,1.4167007973766423
0.1574033898352133,0.1552036225335421,1.5256325635158126,0.11997485168840609,0.5030468495691938,0.09595810270705174,0.052774678201252416,-0.004622816216796126,0.07713549386810394,0.09029481417768292,0.4253255426608785,0.5151672432068851,0.16197331580898056,0.090800222907294,0.4764192270143833,0.04226602820558952,0.22556233594163838,0.9089149217318024,0.186773924646894,0.10349795274903875,0.9152558938713834,-0.010176557631867094,0.2266213071420464,1.475131382955237,0.27426776670879893,0.034424760511498946,1.4402058284045283,-0.05020285449035926,0.3912565794533403,1.2290846318234825,0.39331195833817845,0.16542712669495385,1.204494347769886,0.08079795050154462,0.43914599009550154,1.4511455521575334,0.31201394141115674,0.30275651941237264,1.4181786949287323
0.15624924120985445,0.14716892941064239,1.5272192703279823,0.11885774923338704,0.5038635857520258,0.09927501127207222,0.052838347047262306,-0.005644932695095435,0.07762004271680469,0.09123905926165009,0.420491479629565,0.5175381174043368,0.16059803999556546,0.08217058547829845,0.4790225228370563,0.04491122553010841,0.2166123535561731,0.909371635979794,0.18612351838576086,0.09088178620985599,0.9179197323825125,-0.006738997978389078,0.2254457730872958,1.475288968744549,0.269488849554952,0.019949432029807514,1.4454460308753623,-0.0458823814756847,0.38039628505559975,1.2228969947152406,0.38822202248029786,0.1407703919355993,1.2042075924066609,0.08382427221406073,0.4326882515225925,1.444724794109287,0.3123723359663032,0.27841909344512306,1.419685211299688
0.15621861158206696,0.13855604743369976,1.528924434243232,0.11564129435657602,0.5041178212805719,0.10272969235671425,0.05161507362272426,-0.006541786854587638,0.07839700860474755,0.09236194269361901,0.41548553523982906,0.5201718092524853,0.1601967037832422,0.0753937761812705,0.48082758060350755,0.047110389811964054,0.20978040740057738,0.9111923432683943,0.18484562295139362,0.0802630202708829,0.919823860415789,-0.005488114880752999,0.22275298988777553,1.4756063304399358,0.2655096696433201,0.0075434193351412975,1.450309850984496,-0.04091484078949047,0.37104125822509554,1.218699623891586,0.38397245192238405,0.12165395006184956,1.2056895374731362,0.08816194946213624,0.427568863163734,1.4398527555516707,0.3125471502034409,0.25988836486972583,1.422304469793886
0.15584641830195375,0.1307628671682714,1.5306393055334546,0.11156692598062884,0.5049884953567038,0.10561868916271197,0.05195624309700378,-0.006492815003807852,0.07871224342052374,0.09443539714223623,0.41100890438541876,0.5221915707695765,0.16001435576261194,0.06960336869338027,0.4824225393710831,0.04933328454752252,0.20620927499319086,0.9137001086607546,0.18302632566721957,0.07247763600507297,0.9215328546847567,-0.0030445421001168223,0.21877688917886767,1.4753051510264001,0.25987915401489387,-0.004900970704813896,1.4543211025196179,-0.03891125992112665,0.35872705721322456,1.2138252845194186,0.3805719690303933,0.10405310613223424,1.208447157025246,0.090046411424305,0.4191344018924178,1.4340190419564294,0.31164817239031295,0.24174870344940355,1.4262110405362771
0.1546764151658834,0.12385246719503676,1.5325728325545092,0.10963739695924674,0.5043960439352397,0.1084862300006686,0.0527005279713313,-0.006143202715431175,0.07921172798254857,0.09440048194222499,0.40651869314902445,0.5242380849956174,0.1613259956966625,0.06690269284681054,0.4833335391220893,0.050446981074712106,0.20224274538037734,0.9161437346845082,0.18118045841329758,0.06553410678006141,0.9226054599269002,-0.0016657384136956413,0.21554104436934574,1.476045537660624,0.2557295854418319,-0.014841203336854077,1.455941386660301,-0.034992084048252624,0.3498974958575853,1.2113132064442091,0.37674874449647167,0.09409512371514885,1.2102119068425532,0.0934226716575102,0.4154609069844627,1.430343484210971,0.31045283486098096,0.22890072509455692,1.4305718168527088
0.15544249374476568,0.11942312059917906,1.5331462911673688,0.10675015340487029,0.5005073635245957,0.10949573504670397,0.053264667780841476,-0.00647981725059276,0.08000370343801008,0.0953818095624871,0.40189660131400956,0.5251882494727825,0.16198340453544285,0.06469339110091574,0.4844309003962939,0.05143891748492437,0.1989276718389435,0.9177837338213141,0.17949743784624464,0.05969894450252357,0.9237776744494833,0.0001848343050015337,0.2132176756209701,1.4751397063164189,0.2511010511152439,-0.02534875929817914,1.4601653408950965,-0.031299946041981476,0.34333306569757266,1.2080703728629658,0.3727876159840176,0.08015631798740185,1.213278285407766,0.09628843419395716,0.4113851788591831,1.426816845957861,0.3087753261227128,0.216488338836942,1.433384952808951
0.15581467969581383,0.1143001438364828,1.5341179938346647,0.10430627572162345,0.49423126431441183,0.1098149145998138,0.0535492039067194,-0.0063231170118514405,0.08030906728419562,0.09633749230603005,0.3976464129120605,0.5260668412292699,0.1615698923340391,0.06246137763051377,0.48533687508171236,0.05182299724956105,0.19580666262673824,0.9191750677395777,0.17855943837745483,0.055349324934587746,0.9246740397341178,0.0011843028711854965,0.208597720274328,1.4746434114869802,0.24862803516199392,-0.031181461362442972,1.462286001581277,-0.029002891945995618,0.33566611387507916,1.2059652880940177,0.37073131462058323,0.07327948103683174,1.2151522328318345,0.09871419541658472,0.4072855335622105,1.423507551325489,0.3065476505074645,0.2084303090957087,1.4359374892091903
0.1556508411716874,0.10966641738007676,1.5339279237452828,0.1019368121326908,0.4865595958566864,0.10921375837099219,0.053883919256800666,-0.0059822098141696905,0.08024747555030991,0.09790060206553519,0.3933258592346862,0.5262912865836491,0.1600652819597562,0.060576496384244026,0.48613928143613805,0.05292929742611017,0.19390816489198287,0.9205741924547293,0.17826266592234752,0.05217796411798907,0.9254001946544459,0.0019228500803078036,0.20594702203849657,1.4741609995891343,0.24624748460948012,-0.03646008443690457,1.4632277187788012,-0.02802520744906296,0.32968479543008017,1.2039017172113857,0.37066761997359005,0.06668843622194069,1.216706725218724,0.09955390066988512,0.4030272417817135,1.4209505683876607,0.30397285082496867,0.2013281384533342,1.4370540328701211
0.1560568083679868,0.10593068527579744,1.5345873211462482,0.1012877469631579,0.47786846942653544,0.10760021581384106,0.05363000333185791,-0.005303817850210988,0.07994431312523459,0.09945075996673168,0.3892553063315117,0.5256877715371313,0.15857625390694205,0.05865792341349876,0.48657011237310416,0.05412290226806639,0.1926272231379339,0.921341417657693,0.17875884026673142,0.050261272078028225,0.92575678358203,0.0030423545515224615,0.20273409257199537,1.4733647454235828,0.24524188196660487,-0.041812410428865465,1.4642777616636096,-0.02778542796373997,0.3271640511248584,1.2035352961509784,0.3679741795423234,0.06263603002476073,1.2174533634453912,0.09981136284503071,0.40069603865753584,1.4205011166606787,0.3000053035604672,0.19518284129729657,1.4386896990134428
0.15369156287856206,0.10317383249394262,1.5348094317500856,0.10174045368142101,0.4730736163664685,0.10602020821769968,0.05405999831127961,-0.006226446665504899,0.07976392988208614,0.10011885212471949,0.3835798374256802,0.5239206057617996,0.15677830508622873,0.05617813322297418,0.48720409466483544,0.054447193882550045,0.19186104624314804,0.9219377127670574,0.1788420086955519,0.049289222193619885,0.926312108156526,0.0030811298617233235,0.20125968359289945,1.473239652224418,0.2435493514362014,-0.04421293392539967,1.4643693934231037,-0.027789782485345093,0.3253060056834248,1.2032212389813135,0.3673377705863672,0.06253987608236379,1.2190691227401846,0.0993254695348563,0.3983081175642363,1.4206566226629056,0.2961403481947747,0.19146340885945914,1.4414163945389658
0.1525282335835766,0.09927255799384578,1.5359745589577118,0.10255641423510117,0.4730143930480239,0.10487427380224572,0.05381002660814059,-0.005602403771621788,0.08003621829144429,0.10002617987753402,0.37763413776241916,0.5214756062092452,0.15523177123104173,0.05492440137375173,0.48807225060661613,0.05583505063357574,0.19135245737104076,0.9222254651260167,0.17974505665370544,0.048367713198964865,0.9270647461749741,0.002872194037403477,0.1996323461991688,1.4736655864769306,0.2435991488684789,-0.046693147837184916,1.4647453265935118,-0.028722210634160344,0.3233783594128533,1.2035994063149194,0.3659885887079903,0.06248586309313324,1.2198038973358367,0.09883367180057556,0.3969263056856721,1.4205890215036419,0.2943330903041599,0.18919458731391103,1.4432868702935389
0.15254453779957663,0.09749190445234446,1.5364298242733696,0.10404350357345406,0.4733527889045716,0.10377634976724279,0.05396301018162807,-0.0063335150771754774,0.07998436000694278,0.09816857389263482,0.37333484966323893,0.5192495859775779,0.1537849887991573,0.05367800620023136,0.48849978535874405,0.05620328844312849,0.19005842104287554,0.9216212101397615,0.18138595318889808,0.0482265989046393,0.9273158647290712,0.0014518602009218075,0.19778914738471087,1.474718944308644,0.24425050821218286,-0.04874139774344739,1.4644766605857988,-0.028993647925201777,0.3233713245347086,1.205374030149905,0.365590447774082,0.06483454815720463,1.2210241194847098,0.0991033566036589,0.396999486609199,1.4220189228215416,0.29266211026048417,0.18947841358414189,1.4452465660262885
0.15205991686597567,0.09511622791473152,1.536940109652026,0.10316513707987723,0.4738422080258921,0.10333930382091133,0.05424103060198054,-0.0065672592945513605,0.08002078275988143,0.09500218647674648,0.36980293451796725,0.5177869821729245,0.1528082992611123,0.05442301454171851,0.4887013614847418,0.056790715853914875,0.18952955612084801,0.9218807258171892,0.18323306586268523,0.04881170992227139,0.9273310252495695,0.000715934801852481,0.1952422786509573,1.4751689219232595,0.24455073232419702,-0.04897756674497889,1.4636576603106441,-0.029902966060943323,0.3226810738252062,1.206703023185143,0.3652893324979755,0.06812852260829984,1.2215798929959494,0.0968631442462472,0.3971810448663209,1.4238352333525883,0.2907376336676819,0.18944775912302406,1.4470951162151953
0.15239600754838456,0.09510182478587507,1.5366462738408138,0.10059220466746027,0.4746293013200709,0.10239513894377945,0.054395320109951815,-0.005972048169816463,0.0799135290908465,0.09237342375120851,0.3675163951635494,0.5160530991445775,0.15215105127086723,0.05543549379464006,0.4887142728038708,0.05643633179322083,0.1899094263436663,0.9215412897137775,0.18375250103450494,0.049976927130293204,0.927268513597057,-0.0013519518167842315,0.19224285102435174,1.4744068979285705,0.24494656746365015,-0.04710933398645644,1.4622068060105893,-0.03075017432728801,0.3240069857033507,1.2079139781292798,0.365109014639558,0.07259744326581748,1.2211141414430133,0.09449089053885076,0.3981139484702112,1.4260558110311248,0.28986503972891586,0.1891106440748403,1.4489122895416626
0.1515302551592839,0.0958178751073604,1.5367400527946147,0.09764035635123007,0.47560829695991336,0.10156227857777005,0.05421389698735552,-0.005704686480987435,0.08006608992618938,0.08951660023887435,0.36493824753339477,0.5142892644267884,0.15217800840284004,0.0569006171781333,0.4886427871160951,0.056753144507566224,0.19077653016082635,0.9215332155934353,0.18474603838092468,0.05145627785734316,0.9271255119542289,-0.002672133102706349,0.192038729491359,1.4748941297916505,0.24662997231074305,-0.046243138929782324,1.4616683958252723,-0.03189663506498263,0.3248572680785654,1.2088996128878378,0.3649433347067839,0.07798005458837667,1.2219544286101358,0.09276636313817635,0.39981062575097437,1.427087441459266,0.28706188673986777,0.19203147602509044,1.4501098179195275
0.15085604427727733,0.09706196185940029,1.5357864741253784,0.09478353291343683,0.47633922555722297,0.10136964407356137,0.05427427750098274,-0.005059543993270282,0.0799446227636201,0.08785319522724057,0.36476667897684284,0.513878722846875,0.15280134589760072,0.057139621520265096,0.48844888892598876,0.05691486789066757,0.19119609115972705,0.9215214437900036,0.1853079551900035,0.052241054497826775,0.92693895501726,-0.0049872248777564675,0.1914396605470109,1.4759431526948645,0.24760199234603644,-0.04501187450287633,1.462254649545296,-0.033755656216075625,0.3258467555302111,1.2107054125319359,0.3640169662912865,0.08161054376283536,1.2228609252679208,0.09004236964075082,0.4000447353289467,1.4296355618972798,0.2852117574606711,0.1950641729879698,1.4509969913599656
0.14950074049476422,0.09651547743061739,1.5360897460013525,0.09396962083573183,0.47694821934662956,0.10134381162236288,0.05418845161587319,-0.005322940231618821,0.0800068306489737,0.08664848957654413,0.36534369219233603,0.5138348101322986,0.1532188265255044,0.05757763008131576,0.48828697263928567,0.0566530658573901,0.1917553170340503,0.9215366625465315,0.1862314405359358,0.053908999564964005,0.9267464720835221,-0.006629945121982255,0.19089019867301488,1.4751743369673151,0.24849598143265036,-0.04263303316388079,1.4616179404535607,-0.035618233205800355,0.3271081658678392,1.2108819069357242,0.36331155019325834,0.08780501998228371,1.2235060733835847,0.08639295816500914,0.40028716688540306,1.4311625527264455,0.2821492991405446,0.19891506751794422,1.451979712820377
0.14836340597399114,0.09847085914780927,1.5357030471394697,0.09326269906469871,0.47829385305594596,0.10157378163274636,0.05442695242762993,-0.005648599316553121,0.07992384768141962,0.08666088864308351,0.36632075685164117,0.5139816443457431,0.15195955868311142,0.057595846801812296,0.48850599657341615,0.05654982892593955,0.1928311401418171,0.9217190072658769,0.18634410478686705,0.055181967888685846,0.9268716849078261,-0.0076027404276943445,0.1903989802013576,1.4757187601650719,0.24940302158556446,-0.04082404867643704,1.4615099944386682,-0.03806071769788436,0.32695451227856404,1.2117704203737034,0.36319655700463616,0.09266444342588329,1.2246083232817642,0.08389963900055891,0.401500164364766,1.4316188035229265,0.27971945323743597,0.20203349700359677,1.453078889027776
0.14703182943406348,0.09888976684990786,1.5359713360937786,0.09422773367396453,0.47828517019164485,0.1021126107347522,0.054231643701825476,-0.005745944206603349,0.0796438862303957,0.08710868031032588,0.3682971119438674,0.5150353163810963,0.15114813296821986,0.05758777680143947,0.48835595660815906,0.05595189725372895,0.19347152595131167,0.922132322544236,0.18699816894657617,0.05699104172491253,0.9266127548286447,-0.00953281569630629,0.18918984635059025,1.475944929560756,0.2491913585260567,-0.03964548142663923,1.461549859783315,-0.04164696237854063,0.32570466800752673,1.2121718268950048,0.36293654244235474,0.09579850991176382,1.2257359085734312,0.08025080770117433,0.4015403449368933,1.43161342885865,0.27800854666913494,0.20462720052502884,1.4539298239125462
0.14579340969575913,0.09959881794126549,1.5364070471409559,0.09396451610102267,0.47898734683762106,0.10257560286254126,0.05324329220929551,-0.005144021795943179,0.07945005871325989,0.08843717419281394,0.3713544267218878,0.5161414677218991,0.14996523414015367,0.057314991285556706,0.4883472598170777,0.05555063532224376,0.19417557745928968,0.9220811005849261,0.18762630831544572,0.05869035463068706,0.9264491153256946,-0.010469036426691902,0.18988423152075604,1.4770998270985645,0.24995898323014848,-0.03792499692612972,1.4635761005095465,-0.0446040982454558,0.3253139188808207,1.2130106913472047,0.3631095097656392,0.0972958095737765,1.2273437693497409,0.07610806749009912,0.40363172555020443,1.432238723726402,0.2761882610978856,0.20820047611203407,1.4537821701382854
0.14571359974262849,0.10129217475990511,1.5362772617562421,0.09353405889905807,0.47996609947503255,0.10317868501807964,0.0531885307442751,-0.0053401696120575605,0.07927079200286145,0.08854991945550066,0.3740625422711713,0.5172008183062897,0.14907407578211967,0.0572042677639562,0.48835178309379124,0.05549102105136933,0.19521681025613083,0.9223871028600709,0.18802637323889884,0.060163916870963154,0.9263309922811108,-0.012785377861935525,0.1888319285060023,1.4774358608355027,0.25140427238618973,-0.03540084685218271,1.464644945832359,-0.0484848600747534,0.3237692543614362,1.2133099889831696,0.3628238101085388,0.09963665752386011,1.2274829524043132,0.071579561461637,0.4053968459292493,1.431672850416163,0.27465876093335423,0.20972525129073172,1.4538376053841464
0.14481309275146545,0.1018819258463525,1.5365586371694813,0.09257239223860435,0.4798567359819174,0.10349808125789678,0.053324891042156375,-0.006137611793146577,0.07924571344279514,0.08906656921093055,0.3779391872656338,0.5185368451576386,0.1486850021099546,0.057065719406084944,0.4883525683971687,0.05516092464430963,0.19476284673479535,0.9217083435242958,0.18884398941086902,0.06085578463631887,0.9262195965176161,-0.01411921087345794,0.18723381746592224,1.477141814095938,0.2526463524662528,-0.03162773304610206,1.462694205400474,-0.04965659481871959,0.32288078376176943,1.2133527346895692,0.3648737149641753,0.1053043275127188,1.227008496931158,0.06831751887336567,0.4060491117863598,1.4322885799940634,0.27465640917493217,0.210019936520983,1.455105565412718
0.14477480621405275,0.10263690400562357,1.5365585188770403,0.09275715480191939,0.47977229081347367,0.10383969610040154,0.0534085724781129,-0.006149903960568597,0.07924321504471371,0.0891665759812946,0.3811080189352539,0.5196667654120587,0.14863761279639423,0.05645478856687123,0.4884591229763703,0.05440527869809478,0.19566333779780848,0.9217285392602963,0.18884191316612534,0.06252903475547632,0.9263005201426796,-0.015440715905482042,0.1864491787189791,1.4769562471624054,0.2533271414185256,-0.029610750081242403,1.4632495318958656,-0.05184972171511373,0.32178835715018855,1.2131282575002498,0.36536604871662365,0.10818367604126303,1.227985357583771,0.0642953685690919,0.4079856499338355,1.431869812243212,0.2722205638979187,0.21422020282907286,1.4542828951132718
0.14428993423639455,0.10449077228559996,1.5368970361231717,0.09281434462222889,0.4797131026736531,0.10403366099388249,0.05345729409643904,-0.005675409050362865,0.07934621290683187,0.0896591017314749,0.38366216465758174,0.5204700557878509,0.14825091638842797,0.05664547340735488,0.4887175399130685,0.05480873291676398,0.19609016611041166,0.921541698217936,0.18964859975080828,0.06336101851246403,0.9264343774210582,-0.01664888245071297,0.1857988557658194,1.4763592934603842,0.2521433191582698,-0.028182517859349124,1.4634780002954464,-0.05398984211496356,0.3215399420007268,1.2128715386925317,0.36656088887487565,0.10915184619306657,1.2290865923721759,0.060741619600240125,0.4087008912024161,1.4319682637266098,0.2715627192627718,0.21678341902755974,1.4538525167978675
0.14276929356661758,0.10620974491439711,1.537021121317617,0.09208091096083446,0.4811230268163839,0.10466176346326747,0.05337596025420757,-0.005267307934574442,0.07897863736145919,0.08954027862390719,0.3877993448288152,0.5217309391315035,0.14748413447146996,0.057110614862103504,0.48849162063722174,0.05544783064874848,0.19773521328821575,0.9216904840234593,0.19100548462874936,0.06572327298401429,0.9259649950931969,-0.018589493059930812,0.1861646191165682,1.475638183036779,0.2513581070118797,-0.026510377815697043,1.4642046392790482,-0.05490439595145948,0.3218602221584103,1.2119782885080164,0.3664735011038336,0.11059862465639156,1.2300124810118058,0.05806267921715967,0.40931084301012527,1.4318752054108685,0.2709952821804679,0.21877401499091378,1.4543192076152993
0.14150084500672264,0.10669616185747623,1.5374712613865489,0.09204227249270097,0.4811570900164643,0.10495788021165758,0.05303455117550939,-0.006073469547422682,0.07962450727433328,0.08983416555695709,0.39046132864954197,0.5225931974500194,0.147995633917392,0.0577014842265688,0.4887208711920725,0.055933300076395354,0.19851770210799397,0.9216813031356016,0.192511813855592,0.06756715378046586,0.926078698015859,-0.02004731184559076,0.1856940733887609,1.4743187137065423,0.25181394130815704,-0.025270093129461303,1.4658300779832358,-0.05566953707558105,0.322545751534089,1.2111688704564696,0.36645113546943425,0.11053074784389208,1.2306493211823948,0.05463142026249249,0.4098253342275052,1.4324834493487857,0.2706038405282212,0.2207542898443266,1.4537891548914879
0.14124182832899768,0.10759313233600043,1.5375410685584694,0.09180068560993197,0.4807882769457137,0.1052151931290465,0.05272864861341216,-0.005614781171041949,0.07900380378757385,0.09017491246793374,0.39232175284918835,0.5233371797662871,0.14688832763211923,0.058566547214092914,0.4882345076477475,0.055544706272326064,0.1988068885967154,0.9215959164407916,0.19283574730575162,0.06860308112563188,0.925432566839124,-0.02079011603189293,0.1859577484661053,1.4735286613883014,0.2511232675922621,-0.023980356572724962,1.4664942899625664,-0.055790173778370006,0.3232036945970234,1.210493804294637,0.36700855403988153,0.11189665318747732,1.231969312829231,0.05202382386103103,0.41100173309119403,1.4328290597205235,0.269466486102,0.22375379114544297,1.4535560564712746
0.141176863605487,0.10858333643514462,1.5373986189956736,0.09273071724034991,0.4811427076840436,0.10550237442515695,0.05286237121831581,-0.0060540938207834846,0.07908578828602472,0.08993136645243187,0.3947415739010623,0.5240577352388947,0.1464849296030068,0.05939227091444259,0.48823648161164956,0.05583786064179367,0.20018208675892404,0.9218402870241156,0.19336378842559085,0.07018622250935444,0.9253150641016678,-0.02325338210990479,0.18465194231881316,1.4737149534485834,0.2522304516984673,-0.02223114949523985,1.4668413833292278,-0.057104002569447,0.3235990305425094,1.2114269723664453,0.3675616041041857,0.11464499042945349,1.2326280410349468,0.050799818001193944,0.4119293327461915,1.4335012983420352,0.26921077400651294,0.22704440441542664,1.4535917520565886
0.1412694842746366,0.11014391035679921,1.5374291834199096,0.0922604902881582,0.4816860672455696,0.10552844655595123,0.05299921376449036,-0.006328799123555947,0.07915976182852713,0.09026594927156958,0.39644490208232364,0.5243181575047708,0.1467562606743438,0.06033719250133063,0.48807103174741756,0.05544146127937928,0.20149177435862817,0.9218569788758307,0.19321067531493083,0.07176099080619618,0.925190729264798,-0.023684472084173215,0.1847118211800712,1.4740797601316882,0.25180872498007134,-0.021517030454591586,1.4677562011402951,-0.05913501117250899,0.32361213002544315,1.2119799365806663,0.3681647720755655,0.1152875757292186,1.234011974038097,0.04959297059744291,0.41217981197882353,1.4335619549252125,0.2695412446458189,0.22842682447063722,1.4544806183615142
0.13930045498769533,0.11067642263251805,1.5370334937893462,0.09221855878956653,0.48217396107923427,0.10573763456809124,0.053215064939052134,-0.00664062498605908,0.07929543442432467,0.09066191660193824,0.39734759378435536,0.5246146522708728,0.14724204724466253,0.060899434801562,0.48801414781796365,0.05522756593318822,0.2024027410392367,0.922101610274104,0.19334490502867122,0.07303833235682473,0.9251419346295576,-0.024154938616286144,0.18470085535342431,1.4736963614461145,0.2524665260587166,-0.020191837463545206,1.4679822588221274,-0.058655708522293404,0.3236428858956487,1.2114951839218375,0.3686164995333586,0.11528766216189199,1.2333544149503233,0.04918236129797576,0.4124999510830138,1.4334013099579506,0.2703532142040261,0.2285434697405788,1.4539284730373374
0.1396973051302579,0.11061603833172008,1.5370371055165668,0.09225802364407307,0.48229011639133396,0.1056123800988419,0.052911450304206374,-0.0057769624410447485,0.0791373331234041,0.09043067110050913,0.39863168268583127,0.5247260542850717,0.14801908683985293,0.061054875566926695,0.4877190302873859,0.05610543842529241,0.2028783082930938,0.9219179309235034,0.1944406884410866,0.07374033940015992,0.9247959049343825,-0.02356065714123157,0.1864238653460617,1.4732411717769691,0.2506246203507654,-0.019436730607055856,1.4685539149591016,-0.05869535404304749,0.32461573450133496,1.2107265727283167,0.36943968665177546,0.11404620418210148,1.2341142186872458,0.0481949736717816,0.41184787688502794,1.4337256777061438,0.27108637385068884,0.22849034277803085,1.4540292937756645
0.1393370912116553,0.10987417144517644,1.5373753065094162,0.09248026144190935,0.48219367857330336,0.10498969562313169,0.05326877089777174,-0.006080479651082191,0.07903420566338333,0.09064692749838173,0.39946476338282594,0.5242921619488198,0.1477857378387677,0.06130262422998067,0.4876581240519847,0.05637090532297491,0.20347771162070127,0.9213685075047569,0.19423551218220975,0.07385306786071755,0.9247458676941295,-0.02454310920399156,0.18650653083318866,1.4733170053250748,0.2500426623091596,-0.02016267133570844,1.468660446325492,-0.0594780094649653,0.3256854341014123,1.2112945931422916,0.370125935099351,0.11383069014503312,1.2351719175763067,0.046697033571282846,0.41229133583258326,1.4348735466594764,0.27101649630342445,0.22941680447691581,1.4541432324817538
0.13822736885684367,0.11030307077831741,1.5372914825735648,0.0919314065633137,0.4820852668148946,0.10449008137351008,0.052961980730343555,-0.005879922041368252,0.07918762376682421,0.09078446493174606,0.40005176703574097,0.5239206881350658,0.14845937767877349,0.061718801432593076,0.4875437427741752,0.05706088402276738,0.20437275015338202,0.9211953290840222,0.1946815404697913,0.0744930049818026,0.9246423886474752,-0.02385042411269731,0.18729106046543262,1.4725144414934943,0.2501617966802358,-0.020408248225044757,1.4681764559883401,-0.060266106191409076,0.3262807290616448,1.2105920698543697,0.36997532008918166,0.11252220859654181,1.2339325621696131,0.045534760087107905,0.4118562295567008,1.4347473649691336,0.27232816564386975,0.2297839605629375,1.4526755500995852
0.13742617001821125,0.10957484197687434,1.5377802622304095,0.09221713882876849,0.4820788417139346,0.10461819764318721,0.052999939967255744,-0.0056711789587113315,0.07885514708115592,0.09150760216866943,0.4003878031699106,0.5241222299082848,0.1490385226167389,0.06144901213105969,0.4871693935030967,0.057337449042786356,0.20446142038890194,0.9212363445720914,0.19508596393492436,0.074704724085809,0.9242705821290984,-0.024485977788041277,0.1871777179369766,1.4731834066586262,0.2500041862436391,-0.02037089661394936,1.4676687130287212,-0.060283958916831325,0.3265433431478048,1.211376203290005,0.3701341300125215,0.11347597596814986,1.234118125182905,0.045472625437004845,0.4121578262703041,1.4355425923635994,0.2727284341380746,0.23004437016031448,1.453332671151299
0.13720741548079346,0.10867835823744829,1.537355472230961,0.0921643414782891,0.4824020156207449,0.10472079757928625,0.0529508664062301,-0.005253717449010386,0.0789833969448138,0.09107989335440814,0.4005567450561614,0.5241937256790863,0.15002665601082024,0.060923538262452295,0.48720619586687686,0.05733976650066146,0.20370375186727988,0.9208837527880548,0.1956400396685784,0.07453491740810919,0.9243456242450439,-0.024729449347041226,0.18754570793681596,1.473250448615726,0.24908585776441122,-0.021777878272840605,1.468865768478062,-0.06075658042887264,0.3262543175899862,1.2111270203362297,0.3691760436091262,0.1112871697223196,1.234840491052556,0.04475110534213689,0.41189627597885353,1.43539881028126,0.27309616674381815,0.22968950335749905,1.453658784029082
0.1374837735168978,0.10814661081165598,1.537669732567955,0.09269703164397582,0.4819464837033697,0.10465986983164625,0.053040288348415426,-0.00582255186002818,0.07905348199369146,0.09086989334044752,0.4001739488974351,0.5241422883441859,0.14987999942008182,0.06048812594644158,0.48730785900931445,0.058555983458010684,0.20384944356526113,0.9212101217689306,0.196428751681117,0.07421470379654393,0.9243499735232046,-0.024894444341198904,0.18658326257779081,1.47393905949304,0.24955812248151077,-0.02235668536729371,1.4687321783729235,-0.06076816019715532,0.3261386134094283,1.2122451546832507,0.3700766526415744,0.11070088777672021,1.2349270418665395,0.04586687741481264,0.4131294331558808,1.435459387584054,0.27484391972092853,0.22925334372862013,1.4540335343078736
0.13744824475989825,0.10758178733292675,1.5374617891083564,0.092584495750196,0.4812267082026342,0.10418540814304066,0.05300991257288692,-0.005699355562385153,0.07881138957896362,0.09094779761315802,0.39960082169571676,0.5236986459654408,0.1497847143370866,0.06009536222372061,0.48717199563096264,0.058473950530674834,0.20333266057870414,0.9207925365552876,0.19648456509850876,0.07386294866281647,0.9241893467952628,-0.02535684695647412,0.186826029822622,1.4738263700715235,0.24929263890083567,-0.023250905749748817,1.469199672935497,-0.05959836476373373,0.32762840447359315,1.2125758609200639,0.37047652509406065,0.10981683874091558,1.2357513597568366,0.04562914200226277,0.4129463043258791,1.4371007848812485,0.27438805518065,0.22921118174972627,1.4540198128587436
0.13644673093147192,0.10622866184302418,1.537267153272657,0.0934424609660059,0.481533134176547,0.10401615380492976,0.05362313556088413,-0.005998543917604897,0.07892035249006892,0.09129540404298055,0.3993458627455731,0.5234188474672925,0.14975366866379594,0.05926764480982497,0.4875144024395589,0.05955164148187703,0.2034964641430535,0.920775345463538,0.19733691049890434,0.07379205202571798,0.9244106422729795,-0.024993302856300127,0.18582054030042533,1.473625566876372,0.24824506701217083,-0.024096494468056454,1.4685871809913953,-0.05880352163534133,0.32803211717289693,1.2130947420598188,0.3707336369847051,0.10816101425635197,1.2353558563493925,0.04586400540092224,0.41255302076925227,1.4381937704066245,0.2752535462267372,0.22794902480274648,1.4536801388793301
0.1367939455851978,0.106035357021297,1.537364022451389,0.09337584867208153,0.4809967626706283,0.10449039379213933,0.05368280643521452,-0.006110497377446494,0.07912220061246844,0.091619470618307,0.3993061064719252,0.5239871370119269,0.15008824165253848,0.05981519596775146,0.4875424989006394,0.05979305284281246,0.20225365463533715,0.9207427669828862,0.19799879673897053,0.07299144579639302,0.924451146327413,-0.024982178627495355,0.18584623886625132,1.4728934645530805,0.2485522764283985,-0.02369317284902947,1.4690363500922918,-0.057183095195679386,0.32919957747066475,1.212780718094597,0.37104194074448305,0.10692727465498553,1.2348908065571886,0.04572915402889461,0.4121336319401107,1.4392649160178441,0.27656967275482863,0.22750840035355685,1.4532183723914145
0.1370366810454826,0.10558422591398486,1.5363782373861101,0.09407825636051124,0.4805433372341747,0.10445377404356707,0.054151040463560146,-0.006124019704570248,0.07878123208714552,0.09198243356096547,0.39950844946108716,0.5240831172797387,0.1495274437218716,0.058975137334942335,0.48758288409238604,0.060353333850111324,0.20196388837991944,0.9206057801808487,0.19895161670906283,0.0731277282481214,0.9242882810875412,-0.024300824238365135,0.18480058816265857,1.4728309442802723,0.24969781499975688,-0.025371836209842572,1.4683402393992557,-0.05677864830486325,0.3295330579669877,1.2135150654801907,0.3718491198205242,0.1084195941642843,1.2358110292778068,0.04686257696264776,0.4126134366544064,1.439616368043985,0.2760399986723178,0.22719775230820322,1.45454288965408
0.13735283118736966,0.10477049101917679,1.5362587954861322,0.09416277441000777,0.4809513227741674,0.10439519007794604,0.05401441996682584,-0.006170531853185489,0.07902957222505284,0.09256143750098635,0.39897191213275196,0.5238446721230793,0.15011432733795427,0.05923628831641757,0.48761215877967257,0.061082745438989346,0.20174867288757267,0.920537602705882,0.19933664181407848,0.07254832292673674,0.9243651839863402,-0.025585287059569223,0.18386247077818677,1.4733638071037685,0.24945790444540883,-0.027389695845531158,1.4693343529425984,-0.056006642561404155,0.32980576099262304,1.2144740898152029,0.37190283677453445,0.10655558844833628,1.2370417493006232,0.0473582727930941,0.4123386826853333,1.4409050987393524,0.2772352283955754,0.22635467692352368,1.4557175987764766
0.136464982064655,0.10176946138098342,1.536440988214697,0.09390720746771973,0.4805668139198471,0.10486102307471777,0.053217036326174284,-0.005972835019423964,0.07931806657960704,0.09231305527794438,0.39804255376521563,0.5241981319491081,0.15028846216702957,0.05874359868242971,0.48777808992170235,0.06094088982268596,0.20130146224461584,0.9211431649789968,0.19872181058338897,0.07159190273666254,0.9246289699969963,-0.024225496354042576,0.18472711411821613,1.4735454878685903,0.24761113689717532,-0.027933015576662744,1.4690659313530023,-0.054502485950962305,0.3301044295189512,1.21431592896523,0.3729443815754771,0.10511074373470039,1.2377992199680203,0.04716029691257762,0.41092357884201086,1.4421329908638998,0.27774246814672815,0.2250887464425305,1.4561440119057607
0.13596594134532058,0.10106268808863332,1.5360043454215475,0.09475293802270109,0.48042729993146255,0.10472000369819436,0.05379382538916153,-0.005995174122921677,0.07879852856247899,0.09262813189764073,0.3975787672986286,0.5239980919279575,0.15006542670829967,0.05863544532885591,0.48745655075014444,0.06108355703148225,0.20088891449558824,0.9209480597939744,0.19901828692590134,0.07133609038938296,0.9242574730017543,-0.0236639504885002,0.1836697024761264,1.473821469715496,0.24728034595443518,-0.029001434654684948,1.4682790670483572,-0.05405855832231217,0.3308750222743767,1.2156476145193251,0.3734102895216446,0.10384985495132691,1.237333985379426,0.04927568858592542,0.41089272519022024,1.4429802748277534,0.27875253405371947,0.2238905163333578,1.4558747678992918
0.13635632374596837,0.10104433399009999,1.5356070116627971,0.09468005869155455,0.4798255836083816,0.10510194555962397,0.054077863997617596,-0.005489101646235561,0.07874407493294276,0.09281427932224878,0.39837191970577457,0.5246448787768394,0.1503685635274146,0.057809010684668045,0.48761303524620564,0.061944160789861966,0.20060603432206206,0.921118075031121,0.19980347156727904,0.07097395154654737,0.9243503847899589,-0.023105518491160184,0.18276943918281108,1.4741927411748779,0.24762590374536986,-0.03031118744754288,1.4685021887915595,-0.05542710898259391,0.3305515897963765,1.2165811281209693,0.37483484730949146,0.10327137995775058,1.238571521705171,0.05063582928937441,0.410489025281319,1.4426858482961458,0.27895722959396196,0.22304790583412706,1.4567295401018394
0.1372752375121279,0.09924218768279319,1.5360811462145578,0.09413742718004212,0.48029507509272573,0.1050398560728876,0.053650016452106174,-0.006034953630168982,0.07944010174163522,0.092330413795291,0.3976900047834512,0.5243607970656394,0.15000908728994153,0.05769316259449461,0.48821998796008564,0.06220701750250957,0.20052715782336492,0.9211899266205751,0.19994684873683374,0.07077682496968096,0.924901307535303,-0.022860213885745734,0.18104586099050454,1.4753040847769983,0.24889774877313423,-0.031274043390156325,1.4686716636250507,-0.056168978348001046,0.3293514737189901,1.2181206528507322,0.37565383936697466,0.10269324967297311,1.2387131879539972,0.0511616430965142,0.4104739861655181,1.4432047132582302,0.2795675144262586,0.22191884811000756,1.4570827418277612
0.13669341898913487,0.09742227266570978,1.5361452758886784,0.09377752665479275,0.4798984683170946,0.10507942475978826,0.054034621326789135,-0.006112350491455663,0.0792033584819406,0.09291455918694666,0.39699273436852556,0.5243495580391939,0.14997053219812426,0.05801297530055109,0.4880248616296176,0.06285550731774094,0.20034801216519138,0.9214391018887577,0.20008300181352437,0.07005293297004549,0.9247189135391933,-0.022210826118099554,0.18085269060318526,1.4746249941141432,0.24889477632426146,-0.03361336562483744,1.4689866867240218,-0.054707341719285756,0.33088999112173306,1.218340764818552,0.3755581397189244,0.10076530194391553,1.2392226498793224,0.05170681906446197,0.4102819065225485,1.4444753170553675,0.28032132518860853,0.22112035311549622,1.4573425486246445
0.13601888297023915,0.09506909141201024,1.536053568739736,0.09389875208361334,0.4812941248406594,0.1051838927339004,0.054251689762329615,-0.005504685784479604,0.0793132012214818,0.09259482059907616,0.39680448055501205,0.5241310312344238,0.15044373638750796,0.05783711495137648,0.48819763061729515,0.06309696851315719,0.20102140583281217,0.9216911448601365,0.20009604566766376,0.0704756097148661,0.9249243029224835,-0.022056825658699673,0.18067890201976225,1.4753632449669534,0.24794799680548563,-0.03456302403066101,1.4689112515168277,-0.05514908178012368,0.3304165980531841,1.2189849295191042,0.3757790513740234,0.09970586774005652,1.239726094119393,0.0519437986921319,0.40894374928350136,1.4451038409016943,0.2816643984943238,0.21987719809594714,1.4584347926292263
0.13723159964165751,0.09502337085274613,1.5358036135575504,0.09274547644602367,0.48104411202768116,0.10514366490833203,0.05406350177630037,-0.006027263758785068,0.0793680030758607,0.09296199140950928,0.39594493615259446,0.5239733985028767,0.15065421311221114,0.05760277114994004,0.48810793463788493,0.0638074867934137,0.2006580928410115,0.9218013035479423,0.20026314876265588,0.06953386536334574,0.9248590158275733,-0.02128776682350543,0.17971910205446726,1.4761742530115074,0.24877453313313702,-0.03595380483495988,1.46872410157967,-0.05439081253818344,0.3302237547567881,1.220243388980592,0.3765747917595529,0.09933000337466828,1.2401270513595313,0.052787929837086814,0.409853388519936,1.445934873792556,0.2822482396890841,0.21884579842121935,1.4591072505469003
0.13875383739313268,0.09501001309044405,1.5353750814253728,0.09291966504707695,0.4810681538641143,0.10534841222973484,0.05364364747809846,-0.005369502102046433,0.07943970543539053,0.09333208903349914,0.39570791608021105,0.5241167798312186,0.1506058352209974,0.05761704160395746,0.4881914483957911,0.06380791899335198,0.19939063163794318,0.9214116758440062,0.2009356053469938,0.06899195971095383,0.9248722546339307,-0.02072548402088197,0.178588163827118,1.4764082057426837,0.24902862535471643,-0.03681053956018073,1.4680063347158487,-0.05271082222849172,0.33024753017792013,1.221022785996765,0.37713467968199876,0.0989783897290942,1.2398793059453483,0.05443378272762027,0.40974319468102405,1.4467744802811406,0.28249846826942393,0.21693172876965652,1.45956613736372
0.13935224601788232,0.09288804046544792,1.5356245431794184,0.09316297544334569,0.48132998019912604,0.10504848171239968,0.05396999831953611,-0.0057242479622703355,0.07977707982363666,0.09305540042104433,0.3948233432662409,0.5235867573026433,0.15051592491733967,0.056838512311121185,0.4886987599321172,0.06492656987760402,0.19931096671502146,0.9213759079253121,0.201938913438874,0.06879165859045173,0.9252400362423561,-0.020345838406068854,0.17695081559868275,1.4760962938362252,0.25102602166778587,-0.03646801235228089,1.4676972531675185,-0.05203670876608622,0.32954622546711937,1.2212296717519144,0.3782684696060544,0.09963180359484557,1.2392625053794881,0.05422174688977072,0.4090255051130729,1.4474042178331432,0.28341063800839617,0.21637730097282407,1.4595025459997673
0.1394275454683589,0.09219045110580174,1.535882747299563,0.09304398043783922,0.4820354095133094,0.10505342830742824,0.05427228394995926,-0.004946056756776266,0.07986575830121334,0.09253717351000844,0.3952690174094133,0.5235358884854876,0.1505428222822774,0.0568097888202717,0.48896308237627534,0.06663547753873324,0.1999794665766048,0.9215920808522212,0.2030030616650907,0.06877905071345758,0.9253797974873359,-0.01914186785887765,0.1769687848877007,1.4773633880803496,0.25113885080160264,-0.03890038045540312,1.4671392987097476,-0.05051802246684672,0.33096504904377894,1.2233002243499103,0.37880809390921377,0.09879334652586995,1.2399126293052325,0.05626692003949167,0.4088991787285429,1.449765147493318,0.2844434178834331,0.21578842673189627,1.4602259025908346
0.1397342508451056,0.0917711912377395,1.5357108891195943,0.09332760110099005,0.4819483542145838,0.1051197161015027,0.05473986872092242,-0.005231514507995216,0.079819729464188,0.092101811522774,0.3945460807652779,0.5234666881260038,0.15061774878984058,0.056174207285485424,0.4890743978581519,0.06619620482798957,0.20029150099789086,0.9220216394083973,0.2018906032490165,0.06839618568289912,0.925628875585029,-0.01851651570640731,0.17760748244963243,1.4786225550154128,0.2511809914262959,-0.04177512504419955,1.4671678259637042,-0.050089349489899716,0.3319536475270101,1.2248011029182408,0.37810739439465213,0.09772476887110178,1.2406272352499657,0.05735116486229772,0.4084351869839619,1.451459081434695,0.2835020666631005,0.21600214042387805,1.4601578501127839
0.14115659818893622,0.09262403475086749,1.535435157441904,0.09394938524182617,0.48199663218766586,0.1053332642362066,0.05461849491682117,-0.005445597530358211,0.07958748791690157,0.09243853474542245,0.39368347889838223,0.5234920715495477,0.1508580352223351,0.05676235964901245,0.4886388752753172,0.0660403303522965,0.1997475914262431,0.9221648875511758,0.202073758744263,0.06818432930374164,0.9252176463749726,-0.0178072578444048,0.17654393152680353,1.4783202240764743,0.25153069028622055,-0.04261323532302359,1.4690557609939563,-0.049353245555315776,0.33219648098063825,1.2252931567619052,0.3791546941052403,0.0946581107110338,1.241545056143601,0.05747256272617324,0.4080361062794187,1.4524452952741094,0.28480586154416293,0.21383442760609367,1.4606932740858038
0.14108527473004334,0.08949028593900223,1.5359316859447971,0.09369942897574958,0.4820605852212205,0.10605500678207823,0.05475805019738918,-0.005384624600598093,0.07954584379324284,0.0927423030020754,0.3939339789994287,0.5242537991824118,0.1508852647104238,0.05575070453360401,0.48877020222866596,0.06643004589030381,0.1998835436718146,0.9228756593903141,0.20304655400891133,0.06890894822758632,0.9251975121107386,-0.016764427603530998,0.17720586093503038,1.4800938119512346,0.25189691586699364,-0.04375393028407329,1.4672613351763655,-0.050013907257233446,0.331285184530518,1.2263240983891992,0.3796074607884071,0.0951155354673696,1.2407728947160543,0.057093566323361426,0.4078063200252326,1.4531205175304718,0.2853376620212804,0.21334881154925192,1.4604667914546137
0.14154753563118258,0.08879729039644807,1.5361005987264362,0.09329767672328015,0.48141167147180824,0.10654295710200022,0.0545979204034987,-0.0060212538785575824,0.07952209973372582,0.09303173728845655,0.39457352380176286,0.5250083082640677,0.15004029215304138,0.05600980501876241,0.48878158783580955,0.06621976662794665,0.1996085992707831,0.9231552612425913,0.20263358395687142,0.06842209527687866,0.9251632932103157,-0.017037076438079016,0.17625755614338023,1.4800333372008831,0.2523180661826153,-0.04355475710236923,1.4667394609873983,-0.04925715106792002,0.33212460685807943,1.227226684031713,0.3797934749616963,0.09583029748999629,1.2404249346799305,0.05769099933734605,0.4073715489819427,1.45452986736376,0.28564068632683287,0.21286820076794893,1.460805706083027
0.14126599395045855,0.08794784340581525,1.536142676032904,0.09434370910344302,0.4805381862121809,0.1076152149031985,0.055304783194238816,-0.006511769679250853,0.07977759948741912,0.09336627828797806,0.3960892636055904,0.5265756431956772,0.15018987061162223,0.05533228036736412,0.48919360560660824,0.06583233975346334,0.1988072684844409,0.9235314858222587,0.20295492400650278,0.06836676688763534,0.9255450794050497,-0.015178923492199766,0.1754796484513465,1.480486739302752,0.2519258994039805,-0.042810152485035065,1.465927584291867,-0.049552845873177674,0.3325757216088586,1.228722230196216,0.3795675693986298,0.09571624043696944,1.2391928383490705,0.057992158313168,0.40829497739143616,1.4555839945745233,0.2883567962134564,0.2121207409184561,1.4611374427913433
0.1433072537584471,0.08943419829880829,1.5353452911534087,0.0947926170509773,0.4818217589631537,0.1090545396514753,0.05504939235697564,-0.006884096026879899,0.07946137415788217,0.09369608618542409,0.3996058150340923,0.5284569858462704,0.1497544822097363,0.054370272327139105,0.4890018224013819,0.06545906277294708,0.1991150554625483,0.9237532770463094,0.2019273034353341,0.06798606703576221,0.9254104536845121,-0.014054780006123745,0.1755982109306811,1.480957842335783,0.2530002052545679,-0.04412788324525452,1.466851478549807,-0.04959553902796471,0.3342033733224419,1.2303043003186178,0.37900794206933575,0.0938464281242988,1.2388613762603826,0.05928468990948389,0.4089217177334338,1.456858838256448,0.2894272306703879,0.21175439968095808,1.4606807990366757
0.14298,0.08913,1.53567,0.09565,0.48143,0.11053,0.05509,-0.00743,0.07979,0.09389,0.40343,0.53073,0.1496,0.05331,0.48946,0.06414,0.19891,0.92384,0.20063,0.06781,0.92597,-0.0134,0.17458,1.48133,0.25162,-0.04415,1.46695,-0.05048,0.33474,1.23189,0.37912,0.09373,1.23974,0.05876,0.40974,1.45818,0.29015,0.21323,1.46095
,,,,,,,,,,,,,,,,,,,,,,,,,,,,,,,,,,,,,,
,,,,,,,,,,,,,,,,,,,,,,,,,,,,,,,,,,,,,,
,,,,,,,,,,,,,,,,,,,,,,,,,,,,,,,,,,,,,,
,,,,,,,,,,,,,,,,,,,,,,,,,,,,,,,,,,,,,,
,,,,,,,,,,,,,,,,,,,,,,,,,,,,,,,,,,,,,,
,,,,,,,,,,,,,,,,,,,,,,,,,,,,,,,,,,,,,,
,,,,,,,,,,,,,,,,,,,,,,,,,,,,,,,,,,,,,,
,,,,,,,,,,,,,,,,,,,,,,,,,,,,,,,,,,,,,,
,,,,,,,,,,,,,,,,,,,,,,,,,,,,,,,,,,,,,,
,,,,,,,,,,,,,,,,,,,,,,,,,,,,,,,,,,,,,,
,,,,,,,,,,,,,,,,,,,,,,,,,,,,,,,,,,,,,,
,,,,,,,,,,,,,,,,,,,,,,,,,,,,,,,,,,,,,,
,,,,,,,,,,,,,,,,,,,,,,,,,,,,,,,,,,,,,,
,,,,,,,,,,,,,,,,,,,,,,,,,,,,,,,,,,,,,,
,,,,,,,,,,,,,,,,,,,,,,,,,,,,,,,,,,,,,,
,,,,,,,,,,,,,,,,,,,,,,,,,,,,,,,,,,,,,,
,,,,,,,,,,,,,,,,,,,,,,,,,,,,,,,,,,,,,,
,,,,,,,,,,,,,,,,,,,,,,,,,,,,,,,,,,,,,,
,,,,,,,,,,,,,,,,,,,,,,,,,,,,,,,,,,,,,,
,,,,,,,,,,,,,,,,,,,,,,,,,,,,,,,,,,,,,,
,,,,,,,,,,,,,,,,,,,,,,,,,,,,,,,,,,,,,,
,,,,,,,,,,,,,,,,,,,,,,,,,,,,,,,,,,,,,,
,,,,,,,,,,,,,,,,,,,,,,,,,,,,,,,,,,,,,,
,,,,,,,,,,,,,,,,,,,,,,,,,,,,,,,,,,,,,,
,,,,,,,,,,,,,,,,,,,,,,,,,,,,,,,,,,,,,,
,,,,,,,,,,,,,,,,,,,,,,,,,,,,,,,,,,,,,,
,,,,,,,,,,,,,,,,,,,,,,,,,,,,,,,,,,,,,,
,,,,,,,,,,,,,,,,,,,,,,,,,,,,,,,,,,,,,,
,,,,,,,,,,,,,,,,,,,,,,,,,,,,,,,,,,,,,,
,,,,,,,,,,,,,,,,,,,,,,,,,,,,,,,,,,,,,,
,,,,,,,,,,,,,,,,,,,,,,,,,,,,,,,,,,,,,,
,,,,,,,,,,,,,,,,,,,,,,,,,,,,,,,,,,,,,,
,,,,,,,,,,,,,,,,,,,,,,,,,,,,,,,,,,,,,,
,,,,,,,,,,,,,,,,,,,,,,,,,,,,,,,,,,,,,,
,,,,,,,,,,,,,,,,,,,,,,,,,,,,,,,,,,,,,,
,,,,,,,,,,,,,,,,,,,,,,,,,,,,,,,,,,,,,,
,,,,,,,,,,,,,,,,,,,,,,,,,,,,,,,,,,,,,,
,,,,,,,,,,,,,,,,,,,,,,,,,,,,,,,,,,,,,,
,,,,,,,,,,,,,,,,,,,,,,,,,,,,,,,,,,,,,,
,,,,,,,,,,,,,,,,,,,,,,,,,,,,,,,,,,,,,,
,,,,,,,,,,,,,,,,,,,,,,,,,,,,,,,,,,,,,,
,,,,,,,,,,,,,,,,,,,,,,,,,,,,,,,,,,,,,,
,,,,,,,,,,,,,,,,,,,,,,,,,,,,,,,,,,,,,,
,,,,,,,,,,,,,,,,,,,,,,,,,,,,,,,,,,,,,,
,,,,,,,,,,,,,,,,,,,,,,,,,,,,,,,,,,,,,,
,,,,,,,,,,,,,,,,,,,,,,,,,,,,,,,,,,,,,,
,,,,,,,,,,,,,,,,,,,,,,,,,,,,,,,,,,,,,,
,,,,,,,,,,,,,,,,,,,,,,,,,,,,,,,,,,,,,,
,,,,,,,,,,,,,,,,,,,,,,,,,,,,,,,,,,,,,,
,,,,,,,,,,,,,,,,,,,,,,,,,,,,,,,,,,,,,,
,,,,,,,,,,,,,,,,,,,,,,,,,,,,,,,,,,,,,,
,,,,,,,,,,,,,,,,,,,,,,,,,,,,,,,,,,,,,,
,,,,,,,,,,,,,,,,,,,,,,,,,,,,,,,,,,,,,,
,,,,,,,,,,,,,,,,,,,,,,,,,,,,,,,,,,,,,,
,,,,,,,,,,,,,,,,,,,,,,,,,,,,,,,,,,,,,,
,,,,,,,,,,,,,,,,,,,,,,,,,,,,,,,,,,,,,,
,,,,,,,,,,,,,,,,,,,,,,,,,,,,,,,,,,,,,,
,,,,,,,,,,,,,,,,,,,,,,,,,,,,,,,,,,,,,,
,,,,,,,,,,,,,,,,,,,,,,,,,,,,,,,,,,,,,,
,,,,,,,,,,,,,,,,,,,,,,,,,,,,,,,,,,,,,,
,,,,,,,,,,,,,,,,,,,,,,,,,,,,,,,,,,,,,,
,,,,,,,,,,,,,,,,,,,,,,,,,,,,,,,,,,,,,,
,,,,,,,,,,,,,,,,,,,,,,,,,,,,,,,,,,,,,,
,,,,,,,,,,,,,,,,,,,,,,,,,,,,,,,,,,,,,,
,,,,,,,,,,,,,,,,,,,,,,,,,,,,,,,,,,,,,,
,,,,,,,,,,,,,,,,,,,,,,,,,,,,,,,,,,,,,,
,,,,,,,,,,,,,,,,,,,,,,,,,,,,,,,,,,,,,,
,,,,,,,,,,,,,,,,,,,,,,,,,,,,,,,,,,,,,,
,,,,,,,,,,,,,,,,,,,,,,,,,,,,,,,,,,,,,,
,,,,,,,,,,,,,,,,,,,,,,,,,,,,,,,,,,,,,,
,,,,,,,,,,,,,,,,,,,,,,,,,,,,,,,,,,,,,,
,,,,,,,,,,,,,,,,,,,,,,,,,,,,,,,,,,,,,,
,,,,,,,,,,,,,,,,,,,,,,,,,,,,,,,,,,,,,,
,,,,,,,,,,,,,,,,,,,,,,,,,,,,,,,,,,,,,,
,,,,,,,,,,,,,,,,,,,,,,,,,,,,,,,,,,,,,,
,,,,,,,,,,,,,,,,,,,,,,,,,,,,,,,,,,,,,,
,,,,,,,,,,,,,,,,,,,,,,,,,,,,,,,,,,,,,,
,,,,,,,,,,,,,,,,,,,,,,,,,,,,,,,,,,,,,,
,,,,,,,,,,,,,,,,,,,,,,,,,,,,,,,,,,,,,,
,,,,,,,,,,,,,,,,,,,,,,,,,,,,,,,,,,,,,,
,,,,,,,,,,,,,,,,,,,,,,,,,,,,,,,,,,,,,,
,,,,,,,,,,,,,,,,,,,,,,,,,,,,,,,,,,,,,,
,,,,,,,,,,,,,,,,,,,,,,,,,,,,,,,,,,,,,,
,,,,,,,,,,,,,,,,,,,,,,,,,,,,,,,,,,,,,,
,,,,,,,,,,,,,,,,,,,,,,,,,,,,,,,,,,,,,,
,,,,,,,,,,,,,,,,,,,,,,,,,,,,,,,,,,,,,,
,,,,,,,,,,,,,,,,,,,,,,,,,,,,,,,,,,,,,,
,,,,,,,,,,,,,,,,,,,,,,,,,,,,,,,,,,,,,,
,,,,,,,,,,,,,,,,,,,,,,,,,,,,,,,,,,,,,,
,,,,,,,,,,,,,,,,,,,,,,,,,,,,,,,,,,,,,,
,,,,,,,,,,,,,,,,,,,,,,,,,,,,,,,,,,,,,,
,,,,,,,,,,,,,,,,,,,,,,,,,,,,,,,,,,,,,,
,,,,,,,,,,,,,,,,,,,,,,,,,,,,,,,,,,,,,,
,,,,,,,,,,,,,,,,,,,,,,,,,,,,,,,,,,,,,,
,,,,,,,,,,,,,,,,,,,,,,,,,,,,,,,,,,,,,,
,,,,,,,,,,,,,,,,,,,,,,,,,,,,,,,,,,,,,,
,,,,,,,,,,,,,,,,,,,,,,,,,,,,,,,,,,,,,,
,,,,,,,,,,,,,,,,,,,,,,,,,,,,,,,,,,,,,,
,,,,,,,,,,,,,,,,,,,,,,,,,,,,,,,,,,,,,,
,,,,,,,,,,,,,,,,,,,,,,,,,,,,,,,,,,,,,,
,,,,,,,,,,,,,,,,,,,,,,,,,,,,,,,,,,,,,,
,,,,,,,,,,,,,,,,,,,,,,,,,,,,,,,,,,,,,,
,,,,,,,,,,,,,,,,,,,,,,,,,,,,,,,,,,,,,,
,,,,,,,,,,,,,,,,,,,,,,,,,,,,,,,,,,,,,,
,,,,,,,,,,,,,,,,,,,,,,,,,,,,,,,,,,,,,,
,,,,,,,,,,,,,,,,,,,,,,,,,,,,,,,,,,,,,,
,,,,,,,,,,,,,,,,,,,,,,,,,,,,,,,,,,,,,,
,,,,,,,,,,,,,,,,,,,,,,,,,,,,,,,,,,,,,,
,,,,,,,,,,,,,,,,,,,,,,,,,,,,,,,,,,,,,,
,,,,,,,,,,,,,,,,,,,,,,,,,,,,,,,,,,,,,,
,,,,,,,,,,,,,,,,,,,,,,,,,,,,,,,,,,,,,,
,,,,,,,,,,,,,,,,,,,,,,,,,,,,,,,,,,,,,,
,,,,,,,,,,,,,,,,,,,,,,,,,,,,,,,,,,,,,,
,,,,,,,,,,,,,,,,,,,,,,,,,,,,,,,,,,,,,,
,,,,,,,,,,,,,,,,,,,,,,,,,,,,,,,,,,,,,,
,,,,,,,,,,,,,,,,,,,,,,,,,,,,,,,,,,,,,,
,,,,,,,,,,,,,,,,,,,,,,,,,,,,,,,,,,,,,,
,,,,,,,,,,,,,,,,,,,,,,,,,,,,,,,,,,,,,,
,,,,,,,,,,,,,,,,,,,,,,,,,,,,,,,,,,,,,,
,,,,,,,,,,,,,,,,,,,,,,,,,,,,,,,,,,,,,,
,,,,,,,,,,,,,,,,,,,,,,,,,,,,,,,,,,,,,,
,,,,,,,,,,,,,,,,,,,,,,,,,,,,,,,,,,,,,,
,,,,,,,,,,,,,,,,,,,,,,,,,,,,,,,,,,,,,,
,,,,,,,,,,,,,,,,,,,,,,,,,,,,,,,,,,,,,,
,,,,,,,,,,,,,,,,,,,,,,,,,,,,,,,,,,,,,,
,,,,,,,,,,,,,,,,,,,,,,,,,,,,,,,,,,,,,,
,,,,,,,,,,,,,,,,,,,,,,,,,,,,,,,,,,,,,,
,,,,,,,,,,,,,,,,,,,,,,,,,,,,,,,,,,,,,,
,,,,,,,,,,,,,,,,,,,,,,,,,,,,,,,,,,,,,,
,,,,,,,,,,,,,,,,,,,,,,,,,,,,,,,,,,,,,,
,,,,,,,,,,,,,,,,,,,,,,,,,,,,,,,,,,,,,,
,,,,,,,,,,,,,,,,,,,,,,,,,,,,,,,,,,,,,,
,,,,,,,,,,,,,,,,,,,,,,,,,,,,,,,,,,,,,,
,,,,,,,,,,,,,,,,,,,,,,,,,,,,,,,,,,,,,,
,,,,,,,,,,,,,,,,,,,,,,,,,,,,,,,,,,,,,,
,,,,,,,,,,,,,,,,,,,,,,,,,,,,,,,,,,,,,,
,,,,,,,,,,,,,,,,,,,,,,,,,,,,,,,,,,,,,,
,,,,,,,,,,,,,,,,,,,,,,,,,,,,,,,,,,,,,,
,,,,,,,,,,,,,,,,,,,,,,,,,,,,,,,,,,,,,,
,,,,,,,,,,,,,,,,,,,,,,,,,,,,,,,,,,,,,,
,,,,,,,,,,,,,,,,,,,,,,,,,,,,,,,,,,,,,,
,,,,,,,,,,,,,,,,,,,,,,,,,,,,,,,,,,,,,,
,,,,,,,,,,,,,,,,,,,,,,,,,,,,,,,,,,,,,,
,,,,,,,,,,,,,,,,,,,,,,,,,,,,,,,,,,,,,,
,,,,,,,,,,,,,,,,,,,,,,,,,,,,,,,,,,,,,,
,,,,,,,,,,,,,,,,,,,,,,,,,,,,,,,,,,,,,,
,,,,,,,,,,,,,,,,,,,,,,,,,,,,,,,,,,,,,,
,,,,,,,,,,,,,,,,,,,,,,,,,,,,,,,,,,,,,,
,,,,,,,,,,,,,,,,,,,,,,,,,,,,,,,,,,,,,,
,,,,,,,,,,,,,,,,,,,,,,,,,,,,,,,,,,,,,,
,,,,,,,,,,,,,,,,,,,,,,,,,,,,,,,,,,,,,,
,,,,,,,,,,,,,,,,,,,,,,,,,,,,,,,,,,,,,,
,,,,,,,,,,,,,,,,,,,,,,,,,,,,,,,,,,,,,,
,,,,,,,,,,,,,,,,,,,,,,,,,,,,,,,,,,,,,,
,,,,,,,,,,,,,,,,,,,,,,,,,,,,,,,,,,,,,,
,,,,,,,,,,,,,,,,,,,,,,,,,,,,,,,,,,,,,,
,,,,,,,,,,,,,,,,,,,,,,,,,,,,,,,,,,,,,,
,,,,,,,,,,,,,,,,,,,,,,,,,,,,,,,,,,,,,,
,,,,,,,,,,,,,,,,,,,,,,,,,,,,,,,,,,,,,,
,,,,,,,,,,,,,,,,,,,,,,,,,,,,,,,,,,,,,,
,,,,,,,,,,,,,,,,,,,,,,,,,,,,,,,,,,,,,,
,,,,,,,,,,,,,,,,,,,,,,,,,,,,,,,,,,,,,,
,,,,,,,,,,,,,,,,,,,,,,,,,,,,,,,,,,,,,,
,,,,,,,,,,,,,,,,,,,,,,,,,,,,,,,,,,,,,,
,,,,,,,,,,,,,,,,,,,,,,,,,,,,,,,,,,,,,,
,,,,,,,,,,,,,,,,,,,,,,,,,,,,,,,,,,,,,,
,,,,,,,,,,,,,,,,,,,,,,,,,,,,,,,,,,,,,,
,,,,,,,,,,,,,,,,,,,,,,,,,,,,,,,,,,,,,,
,,,,,,,,,,,,,,,,,,,,,,,,,,,,,,,,,,,,,,
,,,,,,,,,,,,,,,,,,,,,,,,,,,,,,,,,,,,,,
,,,,,,,,,,,,,,,,,,,,,,,,,,,,,,,,,,,,,,
,,,,,,,,,,,,,,,,,,,,,,,,,,,,,,,,,,,,,,
,,,,,,,,,,,,,,,,,,,,,,,,,,,,,,,,,,,,,,
,,,,,,,,,,,,,,,,,,,,,,,,,,,,,,,,,,,,,,
,,,,,,,,,,,,,,,,,,,,,,,,,,,,,,,,,,,,,,
,,,,,,,,,,,,,,,,,,,,,,,,,,,,,,,,,,,,,,
,,,,,,,,,,,,,,,,,,,,,,,,,,,,,,,,,,,,,,
,,,,,,,,,,,,,,,,,,,,,,,,,,,,,,,,,,,,,,
,,,,,,,,,,,,,,,,,,,,,,,,,,,,,,,,,,,,,,
,,,,,,,,,,,,,,,,,,,,,,,,,,,,,,,,,,,,,,
,,,,,,,,,,,,,,,,,,,,,,,,,,,,,,,,,,,,,,
,,,,,,,,,,,,,,,,,,,,,,,,,,,,,,,,,,,,,,
,,,,,,,,,,,,,,,,,,,,,,,,,,,,,,,,,,,,,,
,,,,,,,,,,,,,,,,,,,,,,,,,,,,,,,,,,,,,,
,,,,,,,,,,,,,,,,,,,,,,,,,,,,,,,,,,,,,,
,,,,,,,,,,,,,,,,,,,,,,,,,,,,,,,,,,,,,,
,,,,,,,,,,,,,,,,,,,,,,,,,,,,,,,,,,,,,,
,,,,,,,,,,,,,,,,,,,,,,,,,,,,,,,,,,,,,,
,,,,,,,,,,,,,,,,,,,,,,,,,,,,,,,,,,,,,,
,,,,,,,,,,,,,,,,,,,,,,,,,,,,,,,,,,,,,,
,,,,,,,,,,,,,,,,,,,,,,,,,,,,,,,,,,,,,,
,,,,,,,,,,,,,,,,,,,,,,,,,,,,,,,,,,,,,,
,,,,,,,,,,,,,,,,,,,,,,,,,,,,,,,,,,,,,,
,,,,,,,,,,,,,,,,,,,,,,,,,,,,,,,,,,,,,,
,,,,,,,,,,,,,,,,,,,,,,,,,,,,,,,,,,,,,,
,,,,,,,,,,,,,,,,,,,,,,,,,,,,,,,,,,,,,,
,,,,,,,,,,,,,,,,,,,,,,,,,,,,,,,,,,,,,,
,,,,,,,,,,,,,,,,,,,,,,,,,,,,,,,,,,,,,,
,,,,,,,,,,,,,,,,,,,,,,,,,,,,,,,,,,,,,,
,,,,,,,,,,,,,,,,,,,,,,,,,,,,,,,,,,,,,,
,,,,,,,,,,,,,,,,,,,,,,,,,,,,,,,,,,,,,,
,,,,,,,,,,,,,,,,,,,,,,,,,,,,,,,,,,,,,,
,,,,,,,,,,,,,,,,,,,,,,,,,,,,,,,,,,,,,,
,,,,,,,,,,,,,,,,,,,,,,,,,,,,,,,,,,,,,,
,,,,,,,,,,,,,,,,,,,,,,,,,,,,,,,,,,,,,,
,,,,,,,,,,,,,,,,,,,,,,,,,,,,,,,,,,,,,,
,,,,,,,,,,,,,,,,,,,,,,,,,,,,,,,,,,,,,,
,,,,,,,,,,,,,,,,,,,,,,,,,,,,,,,,,,,,,,
,,,,,,,,,,,,,,,,,,,,,,,,,,,,,,,,,,,,,,
,,,,,,,,,,,,,,,,,,,,,,,,,,,,,,,,,,,,,,
,,,,,,,,,,,,,,,,,,,,,,,,,,,,,,,,,,,,,,
,,,,,,,,,,,,,,,,,,,,,,,,,,,,,,,,,,,,,,
,,,,,,,,,,,,,,,,,,,,,,,,,,,,,,,,,,,,,,
,,,,,,,,,,,,,,,,,,,,,,,,,,,,,,,,,,,,,,
,,,,,,,,,,,,,,,,,,,,,,,,,,,,,,,,,,,,,,
