PaulMeinheit/Bachelor_Muay_Thai/processed_Data/E1/teep/scaled/JointPositions/scaled0.csv
Neck_Joint_Position,Neck_Joint_Position,Neck_Joint_Position,L_ANKLE_POSITION,L_ANKLE_POSITION,L_ANKLE_POSITION,R_ANKLE_POSITION,R_ANKLE_POSITION,R_ANKLE_POSITION,L_KNEE_POSITION,L_KNEE_POSITION,L_KNEE_POSITION,R_KNEE_POSITION,R_KNEE_POSITION,R_KNEE_POSITION,L_HIP_POSITION,L_HIP_POSITION,L_HIP_POSITION,R_HIP_POSITION,R_HIP_POSITION,R_HIP_POSITION,L_SHOULDER_POSITION,L_SHOULDER_POSITION,L_SHOULDER_POSITION,R_SHOULDER_POSITION,R_SHOULDER_POSITION,R_SHOULDER_POSITION,L_ELBOW_POSITION,L_ELBOW_POSITION,L_ELBOW_POSITION,R_ELBOW_POSITION,R_ELBOW_POSITION,R_ELBOW_POSITION,L_WRIST_POSITION,L_WRIST_POSITION,L_WRIST_POSITION,R_WRIST_POSITION,R_WRIST_POSITION,R_WRIST_POSITION
X,Y,Z,X,Y,Z,X,Y,Z,X,Y,Z,X,Y,Z,X,Y,Z,X,Y,Z,X,Y,Z,X,Y,Z,X,Y,Z,X,Y,Z,X,Y,Z,X,Y,Z
0.16247000000000003,0.17748000000000003,1.53905,0.09576000000000003,0.49798000000000003,0.08646,0.08190000000000001,0.01713,0.07913,0.11116000000000002,0.42938000000000004,0.50802,0.17198000000000002,0.08698,0.48835,0.09145000000000002,0.25853000000000004,0.9175000000000002,0.22772,0.12728000000000006,0.9226600000000001,-0.0006500000000000002,0.25237,1.47593,0.27332000000000006,0.043210000000000005,1.4411000000000005,-0.016990000000000005,0.38975000000000004,1.2111500000000002,0.30898,-0.016020000000000003,1.1545400000000001,0.12726000000000004,0.4170400000000001,1.42844,0.3855900000000001,0.07104000000000002,0.9143700000000001
0.16214019931148338,0.17991014794940088,1.5384119964376195,0.09497545495157851,0.4982531505891312,0.08692631455411712,0.08242367555497976,0.01709441806889326,0.07978448012796933,0.11137692466257665,0.43567451880994934,0.509389902691944,0.17300951081682397,0.08981286438804986,0.4883897380908595,0.0912657725654833,0.2606132941998598,0.9170744093318992,0.23065915375613844,0.1326822924808023,0.9222006461260542,-0.001947066742641052,0.2515813595065859,1.474894167529108,0.27469724629837866,0.04589335295432908,1.4410101637211692,-0.0244200814053346,0.38781854685961836,1.2099763478006718,0.3145910141835136,-0.012574429737854265,1.1548608186946874,0.11624763248403355,0.4245144428203818,1.4282193349916585,0.391067900087626,0.08636387200540968,0.9192867151104875
0.16141107253680212,0.18110977437273498,1.5370897538745023,0.09653119762913515,0.4988955024785799,0.08721851540018268,0.08174484628179185,0.017381353234557265,0.07960207438189403,0.11154829009139101,0.44218839403621407,0.5105589037177145,0.17325886725828865,0.09249172893262322,0.48756704986379545,0.09087927528772917,0.2634328760828804,0.916604358126214,0.23174000595806987,0.13710539738859423,0.9210949950769955,-0.005062333562736208,0.2471179753309955,1.4734789502004892,0.2784748691079375,0.05022084586223517,1.4417430294971092,-0.029759650495092008,0.3878737402741579,1.2111290491259405,0.32086983014761794,-0.008809606879287342,1.1560615410071848,0.106045927550319,0.4329188415617325,1.4308858840906196,0.3986183573028262,0.10212976165586574,0.9263305160676785
0.15964655051268087,0.18245676817920628,1.5362695187134427,0.0972486974713842,0.49888156830890384,0.08745564721667064,0.08196740214765198,0.01745667101584394,0.07949036934221412,0.11241350639755454,0.44772158687604835,0.5114953299434505,0.17280144609669895,0.09282897765052267,0.48756201079542233,0.0895678709621711,0.2659596748230804,0.9160871312031701,0.23299906871034273,0.1425408603705181,0.9203015285221885,-0.007321412051235955,0.24674684732599464,1.4715943882948923,0.280627371402997,0.05484313948076978,1.4412153311902753,-0.033712652020735416,0.3897375959569222,1.2106304527893104,0.32986471898812836,-0.001813113137038704,1.156155398657008,0.09236641376149922,0.43914946881810496,1.435190329995437,0.4087580050559849,0.12483209382568619,0.9350994598225185
0.1576053022339805,0.18449308007871554,1.5353641079973854,0.09581129148284606,0.49905515904855036,0.08701910759638731,0.0815890954303488,0.017365617802795382,0.07893566876999504,0.11407311083502537,0.4535438923901317,0.5115770881467971,0.1709869657139067,0.09389825151370713,0.4870957097558,0.08905904676180278,0.2693041997820262,0.9149265349410582,0.23367592208073534,0.14728530566651926,0.919038445722472,-0.00979565085068328,0.2434826357874533,1.4691429645677239,0.28383023464136103,0.06278567325361481,1.4427195089330747,-0.03915762727905085,0.391622924056239,1.2113778831994992,0.34118533866506723,0.012998388786361578,1.157898144026311,0.08138430991958116,0.4440095019466824,1.4382964948421089,0.42023509608680143,0.1518074116188067,0.9443153126949467
0.1566840285942567,0.18686430963899314,1.534516935205452,0.09654817832244629,0.4993517457103962,0.08675303269748735,0.08075964854841887,0.017839819557509705,0.07892148127269714,0.1158381534530982,0.4600041002383438,0.5118847599256777,0.16925771303309506,0.09466579516039282,0.48722637021662457,0.08880949075852894,0.27312030507303575,0.913881183395627,0.2344416817810362,0.15231818862194824,0.9182544373424929,-0.011788537998756385,0.24127626604165212,1.4666951944989073,0.28462353957836617,0.07004091053123154,1.4417312496509427,-0.046069313355178484,0.3944192149886303,1.2124967293805804,0.34964239471419567,0.022030638564259155,1.1582533399438795,0.07020423592237693,0.4486585548789501,1.4411987555891486,0.4295836999264751,0.18051547618120445,0.9591977921277676
0.1553696197134038,0.19092392148570833,1.534358924195034,0.09616407335831376,0.5006019078862902,0.08676528599722426,0.08062785790113555,0.017420477102852047,0.0792528080780805,0.11643653745509881,0.4679316786263488,0.5124170416962368,0.1679854075045805,0.09637272605115277,0.48740855892626994,0.08766263481202782,0.2767959322179879,0.9122852180241232,0.23423852533186773,0.1571798410175731,0.917832964083735,-0.014267887653714645,0.2428233798985755,1.4667381208551733,0.2859047037155661,0.07598106764190392,1.4424342781586346,-0.050449942962487206,0.3978190920197428,1.213921962608203,0.3580944996450772,0.03459598330639623,1.159638962545739,0.0638451609637046,0.4525631713529208,1.4434934239130668,0.4373693145630174,0.2111579861350489,0.976137168532287
0.15412888137825526,0.19490831934922603,1.5335694881280737,0.09795194114302612,0.5001903742675846,0.08687971580738216,0.08062919340775858,0.018747540361209243,0.07928308304347165,0.11803858364346838,0.474949368448064,0.51304155648382,0.1677863592109654,0.1001589181563775,0.4869889416676051,0.08623220884664096,0.2819166245184797,0.9117620894305579,0.23346244699124327,0.16311325600152343,0.9171950598221389,-0.01528441995859326,0.24599778593726931,1.4664330530885596,0.28721373240167114,0.08395375883312382,1.4449353503014226,-0.054363710990626715,0.4056242528811552,1.2169552120942293,0.3675128916113177,0.05048512931608898,1.163286648352447,0.05757754493150713,0.45902011121968683,1.4479953937171517,0.4438733493594445,0.24241541134068434,0.9945738081508563
0.15380649528202692,0.1999982303459016,1.533435489829893,0.098892668849734,0.5014080180513153,0.0873971515445373,0.0805457712941587,0.018715659268735366,0.07929959648181861,0.11855312895238666,0.48165435809672896,0.5138674455483813,0.16583727101546253,0.10579406203043495,0.4862273026916716,0.0860023071810153,0.288156024571684,0.9123094266216834,0.23604748156369013,0.17283742752601117,0.9151001768839223,-0.01647214153386184,0.25034851567819444,1.465854943511652,0.2885035663575898,0.09102484476462352,1.4464438941475564,-0.057002329163961335,0.4115466397353813,1.217622496451468,0.37549631874850653,0.06713101444568388,1.165814776563894,0.051805664505644874,0.46355395108979885,1.450472413383001,0.4480323848087122,0.27567955975359254,1.0162312112597898
0.1528849172714946,0.2059413198611265,1.5328469460928895,0.09867095310232767,0.5015533927371554,0.0872055541004023,0.08097358929784224,0.019648737835471785,0.07964010785309261,0.12047312838385141,0.4889583173166345,0.5138480708077157,0.16685393855563788,0.11235087270901348,0.4852016830992998,0.08432836187165053,0.2953552448178061,0.9119281156065104,0.23531766386426467,0.18125385234828015,0.9140609724786077,-0.018141647858067322,0.2539648708903816,1.4641778642584653,0.28805523747732625,0.09824916593225354,1.4468237403895574,-0.059679294473769226,0.42181935396159914,1.2205595836004834,0.37941501121027443,0.08135232699684426,1.167074694357924,0.04518398677807717,0.47100175194508337,1.4558318623141666,0.4503915855978376,0.3051776292988677,1.0406000851138832
0.150975048353925,0.21231523076102737,1.5326889464441127,0.09829648898640087,0.5018056210552497,0.08661789859879776,0.0814957323311392,0.02072116729288847,0.08095108878112842,0.11986512687698853,0.496588480929072,0.5134252543119798,0.16929602128128224,0.12131473899223764,0.4842120291881266,0.08164350103605102,0.30466542638883976,0.9121200078821854,0.2327032551941318,0.19065900034084585,0.9137823220427721,-0.02008573777309954,0.25653176860838267,1.4637447123457856,0.2881485914706031,0.10891344959093281,1.4467310804932705,-0.06397773294454209,0.4310245101198298,1.2252652938840634,0.38388876621556994,0.10050009123871834,1.1680614597468404,0.04243967501928434,0.4782896640040566,1.460228546972549,0.4494270272493328,0.3378762970162781,1.065643631244209
0.1505952234936763,0.22067856930349733,1.532160705519085,0.09739850463828968,0.5009466043538868,0.08510183299050955,0.08239331691793493,0.021728934858452658,0.08305557326083618,0.11934413131112058,0.5029140158152919,0.5119124009517314,0.1739816448008043,0.1321417257635134,0.48288973717856337,0.07889016767042147,0.3141843361827224,0.9119186388209676,0.23042464236516222,0.2007970898280018,0.9135390991337504,-0.021769328425290568,0.2638415350359052,1.462585361723631,0.28870773374936215,0.11820835716858147,1.4469647916531518,-0.06755751712442384,0.4444396915583178,1.2290586004309316,0.38836787974858544,0.12223908455069381,1.1695751770905445,0.03921989561129894,0.4853933596423289,1.4650445525073816,0.44750382696864693,0.3693962063736855,1.0886641734960367
0.14577616648330077,0.22939466440161266,1.5312403168914297,0.09727684408022975,0.49989553155933375,0.08305670346710611,0.08332884879525536,0.023301820023806624,0.08635788089125179,0.11699964615118347,0.508869254108566,0.509888194701178,0.17834661681357875,0.14377469946945223,0.48247131439641355,0.07651061498099528,0.32508896853167607,0.9121849816764087,0.22908361909348499,0.21309199027142636,0.9137222578875249,-0.023641143759943917,0.27121089339868637,1.4625573913094128,0.2879792029724777,0.1310321323038611,1.4459213066443946,-0.0730788440068467,0.4595298510655272,1.2359763390081597,0.3921294860988529,0.14424640031708028,1.1704711462808401,0.03594549918712002,0.4936373822650607,1.4720166523107316,0.4433838878329372,0.3984478175992544,1.108132012304511
0.14258241607648378,0.23922642009521108,1.531280607104751,0.0981508632154667,0.49958821293920197,0.08198735570398405,0.08622830579227878,0.023713878481891743,0.09168356914825027,0.11503887073692572,0.5167762443990098,0.5086864708749492,0.18496234993570043,0.15681267649520023,0.4828183758171815,0.0741790754661037,0.3379864147270959,0.9131869785255111,0.22876353462698323,0.22879651800895273,0.914393584315976,-0.02693029791874178,0.27982530354348234,1.4632814455136531,0.28591242949241646,0.14413290689174618,1.4445674313502885,-0.08091151052126798,0.47548891925750036,1.2440717844962648,0.39417109388587823,0.16544627223339095,1.1712111478791338,0.03024363764200715,0.5032710615353901,1.4799545977281263,0.43930092617606237,0.4240681924209798,1.1242055062183152
0.1378899879005105,0.24960616569339547,1.5328533264129267,0.09684590934852405,0.4996754043663364,0.08181924504725203,0.0917237847516453,0.024405518322387753,0.10011324915918933,0.11161949793399073,0.5239369873907228,0.5082573497207103,0.1952976331020878,0.17300906007831005,0.48435119195825177,0.07129645602097238,0.3511811380766555,0.915416933534768,0.22870310790729653,0.24609349936520472,0.9166695328551674,-0.03167646077710896,0.2899795302150266,1.4640689925475943,0.28450105746179183,0.15910194567688474,1.4452124425301727,-0.08569448340534254,0.49626500844851895,1.2548544518553124,0.39351887864689417,0.1905404685288079,1.173148952098115,0.024832309806285785,0.5115202483850723,1.4921637351760901,0.4334597214002157,0.45167407666177634,1.1364718031992012
0.13303499717481349,0.2620889224097954,1.5349246388483802,0.09721662555616754,0.4990779826102274,0.08121823954708336,0.09994594808731995,0.026783635863364314,0.11026890975713029,0.10814434894433085,0.5307514394697914,0.507290545780184,0.20833220086376197,0.19300241809869328,0.4858610538248232,0.0685143865673134,0.3654746594527522,0.9176106382269218,0.228678325866588,0.26464677198297704,0.9192318518932823,-0.036887331896043755,0.299936409687428,1.4673962682091266,0.28120559874071976,0.17591806065968385,1.4469632090196103,-0.09511032129089651,0.5150948844924266,1.268492901557688,0.3923969810703219,0.2158633760304602,1.1768984593396739,0.019318859521804184,0.5214458478100712,1.5043527768345006,0.4262894125113094,0.47857840974909444,1.145868412418639
0.12716049876330213,0.27565334256844154,1.5374375603417214,0.09559120942176484,0.49922194379055856,0.08064226114811864,0.11023164818693129,0.03453003319419472,0.12298400805373987,0.10419561018625587,0.5347798349594792,0.5064599843640281,0.22415002249621926,0.22151126669211701,0.48701004100064094,0.06388521807393018,0.38087357346117956,0.9211160852005936,0.22676532437738198,0.28447994584170055,0.922186904237137,-0.041866873934882545,0.3100466798221096,1.4713977868521042,0.2795477341072203,0.19523033996863334,1.4489359837399043,-0.10559183591655975,0.5342055918126449,1.2844747295957504,0.3886952864846978,0.2413765831022344,1.1790265973131844,0.014990379706330652,0.5334863448539334,1.517336947955061,0.4172182600391865,0.50505908838327,1.1509217449586324
0.1218,0.29092999999999997,1.5401099999999999,0.09505,0.5004,0.08142,0.12673999999999996,0.05147,0.13888,0.10138999999999998,0.5395899999999999,0.50695,0.24656,0.2638,0.48673999999999995,0.05793999999999999,0.39565999999999996,0.92486,0.22319,0.3034,0.9240499999999998,-0.04859999999999999,0.31952,1.4765299999999997,0.2752200000000001,0.21429999999999993,1.45188,-0.11557999999999999,0.55125,1.3002800000000003,0.38295999999999997,0.26345,1.18193,0.008820000000000001,0.54531,1.53105,0.41037,0.5271900000000002,1.15329
0.11560332837469695,0.305746544493719,1.542636346108111,0.09508914925891106,0.5009918969206493,0.08040382555402038,0.14679446418465725,0.08027209295153472,0.15689505543581223,0.09591302143129873,0.5397488098784915,0.5060225296817178,0.2729431624795191,0.318693555100647,0.4850646069008225,0.05059829406446747,0.4060303487741366,0.927119097390746,0.22060797859941722,0.3230229661736497,0.92163696321715,-0.055157549078856914,0.3292791972636075,1.4803939718640242,0.2713917907558817,0.2341723134852436,1.455327886313196,-0.12369588314770148,0.5693937561075244,1.3164066248938002,0.3766231835997025,0.28353431981416893,1.1844341153139888,0.0029618960012867826,0.5530886223630851,1.5454426601648235,0.4051262901530573,0.546823559513002,1.152795475666887
0.1093453415848927,0.31992626208586,1.5428785682107915,0.09442616968881437,0.5005733304012085,0.079274306186818,0.16888259863446178,0.12156885373977941,0.17933699755422403,0.09071602649342966,0.5427276146571852,0.5045557111677881,0.29561956158727615,0.38260449034936517,0.48958277838579517,0.04448093993559592,0.4134964993580047,0.9269432314203918,0.21911489827565633,0.34080743819263315,0.92057439922756,-0.061119104126258185,0.3393193576038749,1.4817485811691335,0.2675189113383863,0.25220528724049085,1.4564984534849876,-0.13189892257426591,0.5869273474791681,1.3303304421552418,0.3695382003108526,0.29935947194240364,1.1839922702672971,-0.0024302667080179016,0.5631499292164448,1.5571284355970416,0.39640357691892286,0.5623498225597053,1.1486350845923308
0.10236496504526511,0.336170678024997,1.5424174326077793,0.09363027465337459,0.5008754283081606,0.07988480926468061,0.18653992750570905,0.17365612776250638,0.2038784547731463,0.08566145757188705,0.5450841081289227,0.5049024454506875,0.3070501106171419,0.44999462356572645,0.5031426051441644,0.038976097563420777,0.4194963427653469,0.9283416984786722,0.2178345003829953,0.3577567533630369,0.9237296955275731,-0.06690929911450964,0.34977016847992054,1.4820073231717126,0.26406750262278256,0.2676096945621196,1.456534849944408,-0.1405857671347252,0.6048511522477422,1.3450735155641511,0.36298543216911316,0.3117929992054861,1.18238967093221,-0.007366253495013443,0.5712004343685357,1.5684199387358837,0.38901881053778453,0.5744157262017885,1.143907425419958
0.09795269626356541,0.34916349535695723,1.5434991535876328,0.09259689234565913,0.5004123278457555,0.08119823324159671,0.2040936772036672,0.23715534285940587,0.22911402090000044,0.08469072690328422,0.5490145943892611,0.5057389380919715,0.3123384011696059,0.5229397798394846,0.524169102483883,0.035141632390302956,0.4235474983305142,0.9288845268168727,0.2171090938600959,0.37155617086070813,0.9258758804602252,-0.07278473521122837,0.3594689002499903,1.4819410427851474,0.2587619124660336,0.27828972337959285,1.4581081084909895,-0.14586249364050322,0.6196938794978372,1.3547023398452878,0.35744338993171343,0.31933016223650845,1.1833931400291209,-0.00976932346766864,0.5781799986000966,1.5749731514786642,0.38393015197165653,0.580446561192783,1.13596868327544
0.09300784259654978,0.3573873902982396,1.5442090637297974,0.09131303830566444,0.5006491904965829,0.08079491859161934,0.22046129348700547,0.3115333202815138,0.2508572811901895,0.08269480885004492,0.5509728986829734,0.5051281480004675,0.31027229672318196,0.5939675233149169,0.5551785580184732,0.03306257764607167,0.4276092362778667,0.9288843126475593,0.21726398501205593,0.38418013283148594,0.9302606174570285,-0.0778705748638469,0.36651340128274773,1.4836011776514215,0.2547178416478574,0.2875978542214556,1.4604534083728238,-0.15047727496962562,0.6299859048797424,1.3629583671821068,0.35062132976781335,0.32273591568760135,1.1839404235795943,-0.011159783809242053,0.5848705577090372,1.5804859271033715,0.3836252933841392,0.5818404810699247,1.13004243415856
0.08844554663246645,0.3664230336575212,1.545151810549556,0.09190811091200086,0.5007434997317863,0.08023466852858303,0.23480387852264265,0.3940771247841364,0.27439122632817403,0.08509208870614952,0.5509645269069811,0.5046055050522363,0.304763496609763,0.6628271164358069,0.5958333644860977,0.03257550552415978,0.43172303295954734,0.929196340193628,0.21863843084595697,0.39768497467457636,0.9358908177811385,-0.08067651693086678,0.372212553182397,1.4852047370665415,0.2502590273796259,0.29396159747025896,1.4630485416428674,-0.15134839673487455,0.6389235836315776,1.370679355148674,0.3454281830864703,0.3244656852158022,1.1857224959965713,-0.010306507954379526,0.5916582048048902,1.586640204433659,0.38082207694344994,0.5812457956914373,1.1229626555608934
0.08506892708967133,0.3708964060917,1.546581967918272,0.09349818480961161,0.5006181005415109,0.08041366270305059,0.24436855783308642,0.480627000515078,0.302069670278567,0.08459952630487022,0.5514363866069687,0.5046700054343642,0.2975465110305941,0.72400832243136,0.6461463076413487,0.0321850445824165,0.4359076273673308,0.9302969073973448,0.21906723314179763,0.4083102774789358,0.9419892250899469,-0.0814603833742512,0.3772008966145554,1.4853359454747197,0.2466653073224106,0.2993151354407399,1.4656964713187843,-0.14889036430821156,0.646563968125131,1.3751295981694716,0.34212623842864165,0.32400059385440294,1.187903418096084,-0.009592732701121284,0.5971015246463497,1.591729058959399,0.3819189737024126,0.577321283834947,1.1145828246370175
0.08293406767747308,0.37515244471563053,1.5480140252862589,0.09530876412349315,0.5001046237897354,0.08004574047420257,0.24923885780301228,0.577022740809419,0.333400941969189,0.0845657395148108,0.5518307361134857,0.5041536618528354,0.2923613594401088,0.7757129176478902,0.7063801982521153,0.033329170184547424,0.44025952389194045,0.930981336149577,0.22019105437322178,0.41568665999621796,0.948318207608314,-0.0841667912135438,0.38070648017787534,1.4871687050251683,0.2453107792905646,0.3021104003037984,1.4673882201595674,-0.14990746043070924,0.6513180191046881,1.3790317720927838,0.3427426882364096,0.3220712830070667,1.1898943094566583,-0.0086169900954235,0.6013778650281246,1.5942182776015332,0.3863785326317287,0.5718589745306129,1.1072342641778323
0.07947623862191025,0.3796740010432251,1.5494369502850869,0.0956369563313439,0.49939034342225064,0.07877101322160394,0.25281376789718585,0.6788559330461913,0.3721054627248751,0.08376907190163617,0.5515795447493888,0.5027885750171927,0.2814926917027075,0.8235605815153759,0.7704648297349975,0.034879841125009754,0.4453618573550468,0.9312501920283509,0.22206845475499212,0.42806020263137556,0.9532324974301535,-0.08667097565156548,0.38454541394474107,1.4877704663024447,0.2432772429366135,0.30624952063984107,1.4700495800027176,-0.1482662143418841,0.6570563742122179,1.3819807294095465,0.3442006295686148,0.32217671174631024,1.193549902866387,-0.007401610919652286,0.6054586402673257,1.5970599739446847,0.39172108039032405,0.5671741031941919,1.0994900228076456
0.07732700345824343,0.38231774226557824,1.5500930629480927,0.09504130106914868,0.49924667642404674,0.077540051341803,0.2529344784525294,0.7807265420187446,0.41889014793330603,0.0834154067069891,0.5543269923750862,0.5011998087293001,0.27147281210673535,0.8595797049694311,0.835884615222818,0.037102223616171326,0.45184211549046144,0.9308596756130139,0.22393537567453878,0.4400304953740794,0.9586483110884012,-0.08840782300624961,0.3869879178367596,1.488427173354324,0.24223948843033957,0.31048464768543266,1.4707082138012961,-0.14783107382206825,0.6610190685339796,1.3853425576362413,0.34796708319473707,0.32312819151830524,1.1958390317700813,-0.005126965987567268,0.6097925348085546,1.599293828210563,0.39983328692329095,0.5635090016124734,1.0925847590687618
0.07688054546707823,0.3854433698648147,1.5503669033181364,0.09496255724707726,0.4996663594911651,0.07768416393049096,0.24671763750990824,0.8833395167991072,0.476084428725567,0.08877898741197672,0.5584177183362092,0.5009643688933648,0.2610416569625495,0.885800398728926,0.9006356505897165,0.038187881434676135,0.4623729640638018,0.9316244259078779,0.22463654786061515,0.45195881442363495,0.9623932929631315,-0.08842301586571892,0.39012225227994113,1.4866924820586793,0.2412226291514087,0.31271552103203853,1.4716153884130898,-0.14692309558664376,0.6650882084510238,1.3856127265867246,0.35157386663020457,0.3250277312356734,1.198561042635051,-0.003966804627802195,0.6130524673029667,1.599201806264882,0.4096306946429365,0.5591066053613538,1.084693062677473
0.07324540899449529,0.38944185521576713,1.5480289764597701,0.09633948740190676,0.4997671273154467,0.0762929309879606,0.23885336962664758,0.9769052052055336,0.5414901119167664,0.09229944333329375,0.5661731709403904,0.4984675517040215,0.24933473794594224,0.9028773132238247,0.9596521606216435,0.03931963195722004,0.4716202849681943,0.9291675263001389,0.22494960010563908,0.4638687337533451,0.9652854953578116,-0.09141588801347503,0.3929895222717265,1.4865571518353813,0.2415635355802219,0.31561471064746754,1.470168911110667,-0.14934984739020205,0.6685080911812468,1.3866660087755505,0.3577171570195736,0.32980594629872917,1.199613056095381,-0.002463067330115368,0.6164478704992734,1.597556374211697,0.4197094405703501,0.5597614319306123,1.0795841315332322
0.07277242398937411,0.3910429805635616,1.5453700425270167,0.09644360368319942,0.49963272127106,0.07592744192424353,0.2293879595343706,1.0613863193474682,0.6136415188697384,0.09337697175639377,0.5751506767775252,0.4965805419666011,0.23811101963103343,0.9151625218402816,1.0123857293239105,0.039724818013476965,0.48328465397954246,0.9277776732045863,0.22443384348069792,0.4778365948782132,0.9686878713429835,-0.09060022439953082,0.3946471053698849,1.483221514390765,0.24127977711493612,0.3174744609545484,1.4673517752743275,-0.14895020443664406,0.6714607924063172,1.3872388721500337,0.36398838251524596,0.3351205208527603,1.1999043879054203,3.7779655445016654e-05,0.6196615834791068,1.5967243401468578,0.43171293520216264,0.5601339356178036,1.0737568891591627
0.07061046028168347,0.39411306288237485,1.5413872694544923,0.09653922860565038,0.49945561057300253,0.07560664613393156,0.21888460448281752,1.131609933386425,0.6908333669199421,0.09390585217972727,0.5841635010135592,0.49450268947023407,0.22766739005721132,0.9232931677978574,1.0609413799474254,0.04213875876514307,0.49519431647406625,0.9265407098696327,0.2253683240935766,0.4922847117664371,0.9738835496458245,-0.09258487715250752,0.39651942390144573,1.4793254389026333,0.24252483511516046,0.3214533481939785,1.4631861939533801,-0.14858813628647097,0.6744169239270217,1.3850773119869804,0.3713616194598505,0.3405009948880471,1.198734623669432,0.001371783391687888,0.6199644867013848,1.5931929190670524,0.4443237543149038,0.5622644815048747,1.0697776950207547
0.06820769991370816,0.39584455591436396,1.537029019869104,0.09569235680649184,0.5003377837265368,0.07578045950264616,0.2079184445807106,1.184156619651092,0.7646648950302288,0.09179899160196844,0.595102042855496,0.49251155045058637,0.21447290061953506,0.9288406793022957,1.104097894660421,0.045091849739315494,0.507435357200335,0.9253874359191558,0.22713533596828397,0.5080244155319356,0.9771730122779393,-0.09379271986984748,0.3991148694995226,1.474818267453889,0.24066575765561826,0.3229898622305383,1.4587407515186546,-0.14993314148420056,0.6780275325361235,1.3837002768381244,0.37664480211804713,0.3510373537601618,1.1987025489244938,0.001175746641655034,0.6235903580312386,1.5909922764582871,0.4546570380672635,0.5688832594281679,1.0660792717916854
0.06710785511138283,0.39460633539914153,1.53235824032294,0.09459228593171255,0.5009080936066224,0.07640111913288196,0.19595362500656693,1.2269282718104426,0.8334963362871763,0.08799324040827865,0.6049710301974996,0.49086918030568655,0.20524881105838638,0.9322008196526244,1.139272280684647,0.04900578190922361,0.5197003741708939,0.9249926171563914,0.22987214188372687,0.5228361834428268,0.9806318561885001,-0.09553496651696283,0.39942404380427543,1.4703166328141533,0.2398615776743172,0.32907751228376086,1.4557902041833346,-0.14838247716103234,0.679870860065466,1.3819976469984077,0.37980953944595747,0.3599696588416663,1.198200473188235,0.004288230310909273,0.62647311650305,1.5884089083963278,0.46490824037675954,0.5729559788053278,1.0620809969606828
0.06550000000000002,0.39606999999999987,1.5262300000000002,0.09208,0.49987000000000004,0.07689,0.19402000000000003,1.2573600000000003,0.8934299999999998,0.08222000000000002,0.6132099999999999,0.48885,0.19522,0.9356000000000001,1.17077,0.052520000000000004,0.5319,0.9244700000000001,0.23173,0.53874,0.9849500000000001,-0.09701,0.40018999999999993,1.4638799999999998,0.23799,0.3301600000000001,1.45036,-0.14923,0.6817699999999999,1.3788300000000002,0.3832999999999999,0.36610000000000004,1.19642,0.005580000000000001,0.62768,1.5834600000000005,0.47697,0.5757499999999999,1.0607600000000001
0.06282331978162484,0.39438551033283215,1.5202928503386701,0.08903368339429088,0.49936017734464316,0.07759572536396285,0.18402544150210862,1.2797971434311208,0.9439905928319151,0.07837130234253725,0.6219023331055283,0.48689459055762446,0.18698370629208022,0.9381291144640396,1.1964027179607866,0.05511217226216444,0.5446157352631666,0.9236246028497275,0.23274541058403336,0.5534670459749134,0.9883394768912855,-0.098758473571741,0.4025641214777594,1.4575298706233546,0.23756977812172914,0.33123438532227956,1.4458870707539675,-0.14806483068344925,0.6858041014453757,1.3763243238283949,0.38648593682716836,0.36875746365908585,1.1942589310332483,0.0073517947284224856,0.6267162433907443,1.5791062438825574,0.483751171749244,0.5768485911319781,1.0587348622671746
0.06117246042479917,0.3968260814785969,1.5133446253299674,0.08799400524261032,0.49979314603305824,0.07808280010700591,0.1764190369319462,1.2997119073001921,0.9849159055079135,0.07426290699785526,0.6317197208622598,0.4843665024763984,0.17981614233668716,0.9416180455775247,1.2133979712236767,0.05681534048286844,0.5564811392211695,0.9217298300352631,0.2333211545131395,0.5671355127282613,0.9892138387839126,-0.10092898283220726,0.40284234519662526,1.4500707914002264,0.23777185818964536,0.3366274738394019,1.4422491766505061,-0.14736394827293472,0.6873690405387742,1.371745465580849,0.3895014976338504,0.37109959466603265,1.1918847990621124,0.008021779023056012,0.6265131122711487,1.5740254860661966,0.49425162514205073,0.5763872247744942,1.0576567650060582
0.05851767489339687,0.3976031470587725,1.507469985340289,0.08658500781374072,0.500201045328941,0.0779334925454066,0.17006272236227007,1.323224691081767,1.0166131781239063,0.07054456458188166,0.6406351694086115,0.48126498889569114,0.1752039119257632,0.9496325923613993,1.218741269729219,0.05895809523257738,0.5664329430589001,0.9190075475458204,0.234392398414717,0.5795162008636768,0.9888202851290939,-0.10187871597342613,0.40284495435032036,1.4414668884979864,0.23691547779070363,0.34027116099208427,1.437695820920744,-0.14635440206995473,0.6884398089091838,1.3659645430999479,0.39133590159018083,0.3714383925583481,1.1885411534177612,0.007357856370185479,0.6255956203291604,1.5689104668305927,0.5020559335148036,0.5745242440198164,1.0557635763036946
0.056440589049811384,0.3997922018787685,1.5011230185999112,0.08741608109122168,0.49965596076244395,0.07800020613784989,0.16439305265115306,1.348709019426339,1.0377906862731074,0.06835877185282184,0.647646906823236,0.47849027506696706,0.17132798776254168,0.9622886294264692,1.214087989608781,0.06012002561792834,0.5739562317433252,0.9163899241658783,0.23479383668978776,0.5909926541236528,0.9872283785950215,-0.10130602806875762,0.4023413823851307,1.4331182903714115,0.23795793644078367,0.34560711584954323,1.4329332316006331,-0.14711214686495394,0.6887145827595799,1.361451664392446,0.39480154109172666,0.3708860673650117,1.1846324752177637,0.008286816387921702,0.6259191477201035,1.563128142963117,0.5103816459855297,0.5708686514596326,1.0512938006601948
0.05658368802598011,0.4000881012686978,1.496732358102969,0.0872516005301579,0.5006421213469803,0.07805479284504974,0.16421247261388625,1.3745024629273868,1.047269102909945,0.06868234909132999,0.6533673820153213,0.4767921829283827,0.16897725848907083,0.9783340630181832,1.200497614515729,0.06100791316380668,0.5806584153408888,0.9148631478511003,0.23503060388241967,0.5997636910746345,0.9867729748016674,-0.10143079791037136,0.40241654782657765,1.4282306457200185,0.23969573777415418,0.3493238326353034,1.4291689326368289,-0.1480449207718554,0.6888098558034996,1.3571271054517529,0.3967984598162579,0.37177311852588596,1.1807486879978166,0.006854848201542276,0.6260018532721959,1.5591812583117115,0.5164157993199484,0.5661760586270314,1.0427976528179428
0.056439396549726385,0.39988581938790146,1.4944131510116772,0.08834537835801447,0.5009903132138014,0.07710674913077566,0.1655851700635935,1.3972286565663745,1.0416125271167784,0.07003124087488417,0.6557749534848953,0.4750537056085482,0.16731130714762513,0.9959567055783591,1.1810171964826888,0.06068531466392503,0.5838175151678361,0.9132223214867973,0.2343698455450293,0.6084839607809196,0.9842460512260446,-0.10066777433329073,0.4007932097795219,1.4248719538223151,0.2428679061665976,0.3558251342406833,1.4268485261748258,-0.15007439402127856,0.6866504783969121,1.3535075114806179,0.3978393326998202,0.37004173676676594,1.1764993215856112,0.004656370603637013,0.6253894467544482,1.5561673479782339,0.5195543956520294,0.5577829707209713,1.0313465638719732
0.05888311714909193,0.39818340951790704,1.494269839031832,0.09018963287584807,0.5018450356870147,0.07617509893315552,0.16558745099302657,1.415590527099749,1.0362874041152177,0.07227637339566524,0.6566657453263763,0.4741261446536263,0.16662736968820344,1.0095055600753902,1.1609628157449368,0.06032436234509472,0.5869150439390624,0.9125854757425933,0.23439690932605292,0.6136444670535144,0.9819136513622397,-0.09831710225844546,0.39849011057187894,1.4225908483832996,0.24301722164123202,0.3552164825820363,1.4252909915211116,-0.15244887918538455,0.6833903926306247,1.3508102147457488,0.3957267464733594,0.3687686535268743,1.1735159672972721,0.002678819623887989,0.6249852106479992,1.5540058859788264,0.5202469827577363,0.5471352405255763,1.0192061777405768
0.06181022981314207,0.3972646024664084,1.4961274137205902,0.09214959493528392,0.5011480824975297,0.07503504850387534,0.16726096135149884,1.4227323019278952,1.0346265139131317,0.07549712044295062,0.6540533651712878,0.4737817897117607,0.16934636779229875,1.0134320312300826,1.148287922689102,0.06043211455970045,0.5836126563207487,0.9120342751249776,0.23492755516206737,0.6128219741068858,0.9792741695736605,-0.09645395929106164,0.3968407949322291,1.4242619395175842,0.24538944051236783,0.35546648590561775,1.4253633274410376,-0.157825304460763,0.6800067343849391,1.3514653209433145,0.39371030580262645,0.3671345739565881,1.170890476872042,0.0005391234876748952,0.6248260021182817,1.5530647318104065,0.5206807384141807,0.535015453252458,1.0071109613691769
0.06456693124553224,0.39742331229017597,1.4989671064971373,0.09287015391374266,0.5009339573828694,0.0744253847025266,0.17362858965955977,1.4192340469392386,1.0329385926279453,0.07986773092082791,0.6492104386923394,0.475059117440805,0.17438592413816134,1.0095295681903076,1.1451626219136175,0.05969454059205753,0.5787288645494517,0.9131029395393435,0.23460111068759285,0.6065383961988131,0.9798508191427837,-0.09537100864594428,0.3944391058522824,1.4282826807208797,0.24836153738962324,0.35402996127490743,1.4267333567453564,-0.15972206484862542,0.676593719456279,1.3541492394717027,0.39315889132332676,0.3643686352384152,1.1701742989410326,0.000648621365759009,0.6246953432756431,1.5550282498121923,0.5172659530211042,0.5237756885300578,0.9960579158648076
0.0680362628551524,0.39867776305090563,1.503514498080032,0.09460129501590196,0.5010697781596635,0.07479572570082632,0.1876380610547049,1.4069969413057684,1.0238828446718977,0.08624585505008393,0.6422421704602056,0.4781026031781263,0.17870843429872474,1.0008929667115396,1.1482011686637756,0.05770027389276449,0.5707330282738057,0.9155145622322999,0.233093880640037,0.5977230459449006,0.9813244384721492,-0.09052591323198297,0.39162717112625706,1.4337245798888312,0.2508325202291048,0.35354372025072245,1.4297759733385456,-0.162356881439772,0.6711774730550284,1.3566727394039413,0.39089699087854995,0.36130333704689815,1.1705189365351054,0.00032982843396768476,0.6229896226990387,1.5566219150713811,0.5130320304983875,0.5119551028375791,0.9874361485738129
0.07232399886969036,0.3985988795579608,1.5091180808612208,0.09722919287053397,0.5016476913672686,0.07403496409266276,0.2017484281818925,1.379166176441944,0.9917314948490206,0.09169120199286984,0.6343353627155363,0.4802655119888466,0.18466983605610032,0.9880650594401696,1.1566410889370369,0.05803659000403652,0.56241539441171,0.9172367404455045,0.233455758650016,0.586571957810452,0.9840660566126003,-0.08733839951315953,0.3889671315206692,1.440834807954853,0.254072516942416,0.3503386740091798,1.4324607474570974,-0.16417771324717803,0.6662330053936094,1.3604389350450719,0.3888968991621065,0.3574834773658906,1.1704254182623715,0.001526394728826555,0.6228897059366937,1.559002992820835,0.5079125727667357,0.5010882828254616,0.9797795485615353
0.07764280225275917,0.39819303581690196,1.5155778602315506,0.09867481697478302,0.5006840009655174,0.07524814850921657,0.21493471699100125,1.3323189861759672,0.929404409333681,0.09536633921013792,0.6268838604605707,0.48355449992110366,0.19129793265292147,0.976789120030849,1.160679267325112,0.05743312981017783,0.5532298336590661,0.9198959501684206,0.23362550523564068,0.5758162269283272,0.9852174313328467,-0.08433055363839331,0.3866381675047894,1.4484693380573648,0.25917051927940155,0.34814892838714456,1.4358605290317903,-0.16512805184878498,0.6610443032419271,1.3623156782606365,0.3869857016117806,0.3540295585895128,1.1703028534685902,0.0004220575606101311,0.6211898852182055,1.5617372349311869,0.5019359834128719,0.49354360900484917,0.9742076796946102
0.08174278264756629,0.3958867731075426,1.52407732264054,0.09962300218731275,0.5011779377312688,0.07499758461379886,0.23166981190780014,1.2660533507899896,0.8530112854270063,0.09796309909694331,0.6175342449005955,0.4862373270141041,0.20117851164846967,0.9673827711559823,1.153534405150158,0.05655716146237328,0.5464273213945565,0.9226784677608809,0.23473684836043057,0.5629014485820432,0.9843505899263736,-0.07965638891813993,0.3833275093785713,1.456634422289325,0.2631617481530706,0.34529401153007816,1.4399378192153405,-0.17017823312588212,0.6519558832784941,1.36232292392999,0.3850020779961644,0.3510317251940896,1.1715769862318381,-0.0017787507609579771,0.6220173905467958,1.561095947638603,0.4956517329468508,0.4893509706917131,0.9721912434239949
0.08682453405172433,0.3935186126141383,1.5311790213834466,0.10090353303867294,0.5004767662275907,0.07459352346138187,0.24719809946467208,1.1838602201116364,0.7739722368790307,0.0990803481139765,0.6082944246827281,0.488156379371924,0.2152120908861727,0.9593863867871223,1.1331939429392135,0.05535154468768967,0.535977273251736,0.9241694950771298,0.23502354435854098,0.5466966440860417,0.9827023723440571,-0.0757636258410351,0.38071499981678814,1.4638779334426206,0.26726049748482683,0.34383774251704463,1.4432441070096287,-0.1765592074610335,0.6418306207521977,1.3594504731672252,0.3821887496379168,0.3487358196083219,1.171834417736996,-0.00764664867741663,0.6215479336513102,1.55900388620985,0.48895779983517024,0.48568404820365885,0.9694167537905694
0.0951612627352779,0.3901696903151769,1.53855245156928,0.0996298656967613,0.4978586161854725,0.07601337084528642,0.26074636873373547,1.0848801726927546,0.6927304853479055,0.10040286204374597,0.598376685402153,0.49140858817559574,0.22977079079248008,0.9530102128820211,1.0953470758622632,0.052451705404969885,0.5239641877731946,0.926633085045874,0.23442099305740863,0.529153274311378,0.9784039158549332,-0.07000949658760426,0.3775813622920058,1.4715968717593577,0.27341050045558174,0.3440698941848512,1.4466520029672938,-0.18628014466008927,0.626688799751482,1.354675761211237,0.3816162340134852,0.3479866604930564,1.172487371660262,-0.016530564904074053,0.6225550275180044,1.5545046546616157,0.48311661171588205,0.485920098562108,0.9680290418846385
0.10399590934783665,0.38594643516675337,1.542856296247606,0.09967835658333044,0.4970259209756964,0.07621521105621558,0.26809999836484366,0.9697821269054313,0.6145751308269849,0.10194363017174934,0.5883654503251261,0.49371777717607007,0.2482995763878431,0.947572977555503,1.0383190120652241,0.04811281739207011,0.5108071583563959,0.9276927061987476,0.23181085679471938,0.513004602967382,0.9731893360363758,-0.06671692375054125,0.3748051485333636,1.478725290707464,0.27622735747418875,0.3414148970682617,1.4468402383519021,-0.20037641075455653,0.6091368686109973,1.350382597875635,0.37966003942378607,0.34728998050231125,1.1708688610275144,-0.02919884002834614,0.6259158271104226,1.5483264997257422,0.47948479179645276,0.4897816456647464,0.9687202856333458
0.11292000000000002,0.38182,1.5466999999999995,0.10050000000000002,0.49751000000000006,0.07669000000000001,0.27351,0.8471900000000001,0.5455700000000001,0.09894,0.5817899999999999,0.49566999999999994,0.2659500000000001,0.9372400000000001,0.96065,0.04356,0.5020999999999999,0.9290800000000001,0.22852,0.4991899999999999,0.9691000000000001,-0.06331,0.37321,1.48359,0.28043,0.33984999999999993,1.4472100000000003,-0.21512,0.59083,1.34633,0.37534999999999996,0.34791,1.16825,-0.04285,0.62656,1.5407799999999996,0.4747500000000001,0.4948099999999999,0.9690799999999999
0.12018406842612626,0.37683448812708814,1.5501652674028088,0.10050773297567542,0.4988306864641968,0.07741076947024363,0.27283398546616416,0.7264505024754377,0.4873527454914877,0.09714022614790427,0.5747074775391574,0.4979889645239315,0.28775307558959023,0.9095532029505744,0.8703728965596244,0.03975076884952311,0.4928663530484349,0.930732003354597,0.2257884071095418,0.4845092800946817,0.9644789097324099,-0.059964745853917194,0.37257610466058444,1.4883859315204306,0.28332033440937643,0.33585016693293784,1.445420746844581,-0.2308764617621309,0.5696468080254538,1.3427862453771156,0.37361297110206404,0.3490003748019558,1.1651218399979981,-0.058584536689099735,0.6270119387039375,1.5319728554934213,0.47012932464169005,0.5033153283170664,0.9701894853780129
0.12779326152987056,0.3744819457359642,1.5513357464933684,0.10016141937715978,0.5010342217222276,0.0782306693257819,0.26957711392375827,0.608714035421349,0.4352451033890782,0.09282196124750622,0.5718556919517307,0.4996472598953366,0.30675665035941985,0.8598471672987472,0.7758386853996692,0.037721489496618,0.4872608118130542,0.9321452858252476,0.22385039939630183,0.47016155280354316,0.9619208685102293,-0.05315749569821236,0.37398446494872184,1.4914964118827931,0.2877872452519132,0.33219446832986543,1.4432752261050625,-0.2423947306130906,0.5501786478031256,1.3418603437956869,0.3707392313127773,0.3521366415944097,1.1611194677696288,-0.07199303274405107,0.627057947755472,1.5257549268386288,0.46509544286227306,0.5147012504761814,0.9719057253311968
0.13436495392341277,0.37050913733746393,1.551218855870844,0.09867959452031291,0.5019649197260436,0.07951035714301191,0.2651094748325989,0.5006219781549841,0.3866647597044758,0.0914567556552123,0.5733956991642805,0.5008236385063203,0.31811311198749864,0.7937507849108635,0.6895128088956625,0.03715419714622681,0.484352907145273,0.932534762534876,0.2229746483103133,0.45731912552746734,0.9561877936114183,-0.048047250795739016,0.3720386682181215,1.493284744912104,0.29250602999113323,0.32969671392099964,1.4404217530660177,-0.2526009154884899,0.5276622973323546,1.341018445414861,0.367991719910905,0.35487087731204314,1.1565938614799065,-0.08594474066308685,0.6225008761790815,1.5198939604767012,0.4602818557047729,0.5262539144384815,0.9742678448388744
0.1391471762427003,0.36757712090811384,1.5508359241864196,0.0980081934463082,0.5005560635492307,0.08001211430688535,0.2554064445701553,0.404795990435027,0.3381930074577484,0.09034726296882116,0.5742370842696087,0.5009225193347615,0.32316061192810047,0.715004378236239,0.6203839219260461,0.03976878929538415,0.48199416583497545,0.932417675896491,0.2243714560419376,0.446402443891352,0.9542202577673639,-0.04563592657103595,0.3707013982676847,1.4934776964840022,0.2964622151387111,0.3278069105842898,1.4384557497572639,-0.2585801866867861,0.512823064606714,1.339530805225463,0.3647446359391779,0.35512949378435366,1.153005319776757,-0.09567514097940517,0.6175213085381439,1.516348430200669,0.4521185991733624,0.5364505810107673,0.9780195491641616
0.14386573356295015,0.36245026249138773,1.5517521929803173,0.09803110944988437,0.5033002757249856,0.08150060377843657,0.24484867133824037,0.31595159944567325,0.2877910804210774,0.0915770162700372,0.5709644525957874,0.5034457265171539,0.3234852307048312,0.6284859561628343,0.564530145265942,0.037845897950315316,0.47798271283781324,0.9344018770063295,0.22233465470704805,0.43785766931512343,0.947659430268212,-0.04135077247410199,0.3673536559409842,1.49483787889096,0.298234171534679,0.3243257446007969,1.4362137647756166,-0.26108297951391274,0.49564197931650134,1.3382936206902574,0.36246060255788276,0.3556562446053348,1.150232110980752,-0.10276695876816484,0.6107955973683926,1.5127622939077934,0.4455458452804554,0.5472446152908751,0.9843318109565075
0.15099723471220344,0.3589205331350856,1.5511269471133966,0.09815497095358135,0.501673232256768,0.08092659374213451,0.2327367716419656,0.24153602018536177,0.23754402940674665,0.09569562748643992,0.5654179052546352,0.5035210185645802,0.31968055574423204,0.5372540510175895,0.5298460017231096,0.040677775393174416,0.4723929943764459,0.9343079566720881,0.22268069257868045,0.4211729135264096,0.9427233206014873,-0.03529109197520427,0.3635642022790502,1.49576450830235,0.3034354503889822,0.3202893849414483,1.4359125875518968,-0.2582370958657182,0.48076875598566426,1.3351262088277471,0.36048672362691875,0.3555529579269579,1.1488685492757107,-0.10244938676409232,0.6034449456821928,1.5067152209523034,0.4399807186393182,0.5562427236318535,0.9922357745115014
0.1561393237223624,0.3529443686254893,1.5524237745297331,0.09921671960562481,0.5015550323150754,0.08144611548608942,0.22140305474519845,0.1897514451012643,0.19238084457313945,0.09941243918981793,0.5596727075521508,0.5048587976787212,0.3076143637319178,0.45535444069801334,0.5124957700115456,0.04386439725890848,0.4672514901343324,0.9357049587066668,0.2219210303262771,0.4032862023677983,0.9406358856516979,-0.029371039379981433,0.36429913593353547,1.4993745212957785,0.3064631680725556,0.3110871493734612,1.4363367715560282,-0.2538015140316795,0.4668635223349509,1.3309765546106365,0.35847263315204014,0.3519215028292487,1.149073831050503,-0.09951242123237886,0.594019064804554,1.500656297890644,0.43268758673994884,0.5622925454897592,1.0028978030494233
0.16304722769276134,0.34507855283347,1.5550655357093555,0.10138287018467297,0.5018364831555334,0.08123396063539405,0.20909710719448393,0.15295652576429106,0.1574953644512019,0.10570693930503118,0.5521267959720559,0.5056250380417091,0.28769982005339967,0.382230192798969,0.5063609351560492,0.049539197109865964,0.45818690505826676,0.9360635545826743,0.22304219770848477,0.3827644514357648,0.9413039904916599,-0.023878607597268408,0.36150268535513796,1.5035970797733638,0.3126868001567012,0.30052899034234615,1.4375019681537662,-0.24525964454220786,0.45191334608733325,1.3245354598611836,0.35926209289451805,0.3417944732424819,1.149365946326791,-0.09427090429961132,0.5854696819873365,1.4922534148938644,0.4264609477226809,0.5642565671428488,1.0185188263937348
0.17043335280433966,0.33711047515382064,1.557516116363906,0.1015351352399625,0.500917474622842,0.08269493991169788,0.19525787073773165,0.12928295568197512,0.13863702084341373,0.10974027107250153,0.5396497547864635,0.5082406430359105,0.2715441681831265,0.32735395016808666,0.5066050302802255,0.05374610204899101,0.4448100695544436,0.9385061552616608,0.22209279239695962,0.35840375012575465,0.9424258367336704,-0.015838428029271517,0.3621441807369409,1.5081960425975622,0.3169506268624929,0.285459140749445,1.4389731057718549,-0.23153414115662915,0.4384452715575836,1.3161009900149974,0.3597446126775367,0.32841019279904565,1.1504952064293983,-0.08466830776906469,0.5781656309526164,1.482460602413838,0.4186062334224072,0.5620239751305608,1.0360781047053973
0.17750492712338023,0.32826134505016746,1.5587859111315323,0.10162779658441098,0.49923629519563395,0.0850602002541079,0.18166728459739928,0.11485321675569359,0.12476330058174535,0.11475400291326415,0.5295053973267236,0.5111746427467434,0.25449238130937035,0.2845748888616225,0.507311551566448,0.05900064866000051,0.42961260507921495,0.9403130738756155,0.22365418791383926,0.3363134408506336,0.9428909223065077,-0.008350410321387584,0.35959119499706677,1.5121953249055182,0.32185232236510736,0.26859846699777384,1.4404867758734248,-0.21324942477871958,0.4285017179821487,1.3060144794455328,0.3593844909886713,0.3083149629609232,1.1508233723218608,-0.06862786941971559,0.5731362170837482,1.4701227010497675,0.41069484678465235,0.553007089332641,1.0579635980112132
0.18439419301275503,0.3184984433954673,1.5595208175618287,0.10200856358728189,0.4977330315211636,0.0855783720867636,0.17209321217084783,0.10895724345871079,0.11335223769664615,0.11827176805599877,0.5170211866925359,0.5122185010807494,0.24184546389897324,0.2525931026149442,0.5069902679494831,0.06473203660163585,0.4142920246334899,0.9409780610586598,0.22535735666027765,0.31420517923296865,0.9420674988869258,0.00045947175259951703,0.3571366469058373,1.512753622296579,0.3277450396377997,0.25029814648836785,1.443511105711582,-0.19199570079334563,0.41856736113208626,1.2926738371229403,0.35916603941014125,0.28450522651943133,1.1524099051636834,-0.05342480863746645,0.5700752196492314,1.4557957435981774,0.4042554823025317,0.5368899101135846,1.0789376583419588
0.1886080004542604,0.30853103557521927,1.557681083386486,0.10349832441668382,0.4958306867955222,0.08592725491079324,0.1656513337566705,0.10622133452239622,0.10415710518581911,0.1186592479027314,0.5019464897041732,0.5129941605446593,0.23124219214569888,0.23004495782650153,0.5051756619035461,0.06144098034599347,0.39925122173478156,0.941295558532032,0.21348633075966078,0.28655327451705936,0.9408926233181281,0.007596106124686121,0.3548403849133946,1.5120114240017442,0.3212545445877276,0.22772210663795614,1.443147904097538,-0.17188690515074406,0.408443951807664,1.279295101743034,0.36062060446204836,0.25950776096969896,1.1527455637757393,-0.03678060423872861,0.5680219642791805,1.437554526322022,0.3992741666605816,0.5176138205614809,1.097816341297071
0.19171249732388027,0.29684670665590107,1.5560700824075526,0.10366893640526438,0.494327602713025,0.08588596638490172,0.16312392266334724,0.10073163718255478,0.0961457978958641,0.12075767069798218,0.4916895638467096,0.5129159724470246,0.2251685563884251,0.2135887349365808,0.5009501626732858,0.06371126389652333,0.38322514895644605,0.9398057299161863,0.21179539425795932,0.26537561244103164,0.9374026239569787,0.01613328447225248,0.34902828998425733,1.5066124102232947,0.321019668109876,0.20702019709533925,1.4435972234922012,-0.1527040618824338,0.4018393773975202,1.2658799824845188,0.3619301217993405,0.2315836817610455,1.1527109406300746,-0.01711489831215316,0.5661969372065959,1.4187401233494887,0.3993250183960188,0.49281225978067644,1.1140539969997116
0.19796024340964838,0.2847714150390094,1.5537053086303432,0.10398113404381608,0.4935382517501699,0.08520247342643204,0.16132827694579982,0.09605836929382784,0.09058155966341606,0.12207466059394788,0.4827180598103324,0.5120674629624344,0.220730691839915,0.1980559518139598,0.4986449617101351,0.06859673578779031,0.3674187742751791,0.93762085506875,0.21395111807094408,0.246216075662425,0.9356707665242895,0.023691838476348856,0.3468524202366192,1.5039162006054263,0.31985481877308314,0.18568143676972243,1.4448204245234284,-0.13078462725163695,0.39496221275112353,1.252778834610124,0.3637322283965035,0.20047802863975703,1.1537012578959687,0.008336390387239446,0.5622266448655663,1.399183172208403,0.3973189671360097,0.4635451955204352,1.1254612865212281
0.20178387075913898,0.27245778379840685,1.553085377782752,0.10418520832473352,0.49269035048842497,0.08408048957132341,0.15696920397297784,0.09427110931287962,0.08626964114437298,0.12291264323188467,0.4741026725749783,0.5106504392013138,0.21476183026140783,0.18445508956580017,0.4973418650962808,0.07187580497334134,0.35277658056615824,0.9348367651474289,0.21395032626207025,0.2277380855168994,0.9349293018542324,0.029163674997806584,0.34021169588564654,1.4988273753912305,0.3197105098654476,0.16472871447750248,1.4453779725077722,-0.11469885997089567,0.38728239240331686,1.2412766553731598,0.3647660539635425,0.16969638961985484,1.1541064905796397,0.031101504865398925,0.5551720005808739,1.3802725262007902,0.4012764733164358,0.4331886699178564,1.1348837251175468
0.20340939375744474,0.26052188517391067,1.5521184928824374,0.10485129710385939,0.4919866525153845,0.08386555715795488,0.15605382934120854,0.09171107225224998,0.08386041508859232,0.12234124458453333,0.46538802360504955,0.5100665593884465,0.2086319692240553,0.17242633507928265,0.4975787113062032,0.07503282772340533,0.3371329095327437,0.9326304329351286,0.21626027557527774,0.2111663634639468,0.9355248393919005,0.03460523231653662,0.33283464819998304,1.495383213957093,0.3200816642161159,0.1491873423570905,1.4463636733523264,-0.10283330864468371,0.3797461936829701,1.234320321969748,0.3648824241072114,0.13937523537550722,1.1551775037665026,0.052361851475216326,0.5459894232519197,1.3648715219984051,0.4015818730365241,0.40303755181142953,1.1387783961115658
0.20543999999999998,0.25045,1.5517399999999997,0.10575000000000001,0.49168000000000006,0.0841,0.15631999999999996,0.08981999999999998,0.08219,0.12260999999999998,0.45688,0.50974,0.20527000000000004,0.16063000000000002,0.49816999999999995,0.07851,0.32394999999999996,0.9312099999999999,0.21869,0.19688,0.93619,0.039850000000000003,0.32630000000000003,1.49443,0.3191299999999999,0.13458,1.44742,-0.09456000000000002,0.3742500000000001,1.23198,0.3642500000000001,0.11039000000000002,1.15712,0.07223999999999998,0.5385500000000001,1.3500700000000003,0.40254,0.37359,1.13735
0.2038620772480609,0.2405993045519296,1.552134071014705,0.10502304712236171,0.490268841874501,0.08451466694635947,0.1556681183473442,0.08823160865231346,0.08146059514235353,0.12212445231188539,0.44620384081353065,0.5092790352709754,0.20269938014346567,0.14799461476684264,0.4993932023154321,0.08246567686518201,0.311410422554799,0.9306046887425428,0.22196620413747,0.1836622401859157,0.9372374241376897,0.04041866588944024,0.31845445614912243,1.4951289642002246,0.31725393173687694,0.12206491149643789,1.447872547075909,-0.08858589655414839,0.36716766459918254,1.2301136873137613,0.36102874650564626,0.08245627082217155,1.159070079459182,0.08689709076862856,0.5295166695452711,1.33789249761068,0.4070633048827146,0.34413838804756136,1.1358940596433655
0.20466363294604656,0.23141806260279615,1.551530071406929,0.10554416197225824,0.4892785615665099,0.08475605138864777,0.15608749000379782,0.08692285212502533,0.0802869999951377,0.12113942796605129,0.43762080688977356,0.5087231192105102,0.19991427999424127,0.13759267475979067,0.4997647054618757,0.0855409904160449,0.3005741589738892,0.92967467539593,0.22408526608781176,0.17186476191967673,0.9374859934224183,0.042166822697973484,0.3128437174181057,1.4956743948696423,0.31434856097201885,0.1108852207054938,1.4494344501725096,-0.08627984977160759,0.36139291704085136,1.2303643223451224,0.35888874328382425,0.05698980137539359,1.163070472542817,0.09792275613986431,0.5207866299854281,1.3274552456286905,0.4103322744315626,0.3170177342912259,1.1336122841437046
0.20413974475523594,0.22544492814336412,1.5502657852858894,0.10594669184538563,0.48839118286445016,0.08381599327687847,0.1554170036004314,0.08489858526493714,0.07940881591301188,0.12157896497016707,0.43033704013102886,0.5069483131385236,0.19611406418261138,0.12732815579272475,0.5001130686317902,0.08854086786833705,0.29211974215589537,0.9277363110223256,0.2248376794628688,0.1611694277212627,0.9375867708162208,0.0411522523130044,0.30780185161073814,1.495044949247979,0.31173470038593354,0.09963112179915577,1.448818305024439,-0.08760673069743373,0.35609932774618663,1.229834156652564,0.35287112333334814,0.03165457158207834,1.1649513593983436,0.10696690043436935,0.5104645610689535,1.313963661369177,0.41473437757704196,0.28886651505259625,1.1310868350351393
0.20429389935067196,0.2190197498878796,1.5492894506541877,0.10577395417888284,0.4875820464526581,0.08326718327813741,0.15543108289802826,0.08294572528547808,0.07901501247453135,0.12223738492665659,0.42473555959730847,0.505684079554038,0.19479552484646329,0.11723156097769366,0.5005873318602384,0.09126910177201086,0.2847348245069434,0.9260325740448995,0.2244787928706485,0.15083409015443455,0.9380213194580653,0.04161319874719395,0.30333865984103164,1.4938110493871104,0.30869245146921026,0.08890418860213499,1.44670155346641,-0.08913322548142376,0.3514046153234538,1.229526029036377,0.3480032025597338,0.01253516949269126,1.164715026041979,0.11436280007517673,0.499596017452015,1.3029630207078728,0.41584748897019946,0.2678312284539285,1.1279530419632353
0.2056418823718028,0.21350329929630169,1.5474836469729263,0.1060795016477064,0.4861302850321799,0.08396448539391065,0.1552702691779181,0.08091895554219526,0.07900744736815495,0.12174935141169847,0.4193134359771774,0.5058024311281767,0.19378885893177575,0.10818938836263634,0.5011731408797064,0.09070182981181159,0.2774982170961378,0.9255411009123211,0.22227890838289943,0.142091391076311,0.9386590774316418,0.04344121387280345,0.30023990015980107,1.4917496633122,0.3033575271368525,0.0799814408849691,1.4459745117640133,-0.09057085954467506,0.3426748174448123,1.2281503445973698,0.34044756479225774,-0.002623219898482172,1.1654504486098305,0.11717685059499613,0.48936575940089133,1.2920682930316283,0.42271601009679594,0.24800434210736041,1.1261385442675684
0.20480715810480135,0.20881833754973234,1.5476846377498394,0.10542980213223835,0.4855657458708402,0.08362652056503095,0.1552951662461197,0.07996984197719273,0.07846414015168884,0.1223991822176005,0.41728741635791217,0.5051791857615282,0.19321047489281673,0.10269447113962718,0.5009518856661266,0.09636224859658478,0.27267515244201707,0.9243044600016807,0.23056901607720925,0.13988202845399117,0.9375035871019594,0.04360650830489708,0.2976227502789871,1.490544879790528,0.3070296819631806,0.07329254216726538,1.44577538399784,-0.08992698227971753,0.3345472474155891,1.2258670578539765,0.33319144827948144,-0.014576923545377216,1.1656241399827112,0.11757633713608952,0.48513575339562776,1.280914162390192,0.42231890407260764,0.23374885247000915,1.1266021575539713
0.20396529071803157,0.20496823237604656,1.5483195692713245,0.10557309220115522,0.4857937184998985,0.08461909102148028,0.15542484397975784,0.07883639584599517,0.0785908862042159,0.12410613005121648,0.414256430748565,0.5055701413636345,0.19318708442461377,0.09858442699810041,0.5012392017483245,0.09987949362669732,0.2694885467600544,0.9247457913262727,0.23483127146216717,0.13737634664512172,0.937264199448135,0.042804960183285945,0.2949910414353877,1.4906049813594773,0.3076707810238357,0.06919583350941741,1.446527519583183,-0.08980823598360602,0.3276278590822099,1.2249054856414616,0.32720376086375896,-0.021487199426966055,1.1667258995306014,0.11705246454973414,0.4811463215858134,1.273956498729392,0.4243197005507556,0.22407762656705216,1.1293487632060082
0.20135224126884557,0.2027303695590166,1.5488980751021983,0.104964603471047,0.48501471525773837,0.0853033061777538,0.15476863448711994,0.07884210329226041,0.07895152151759072,0.12255889596169398,0.41168947845297943,0.5059872281811617,0.19320446314843776,0.09690172371798364,0.5016214168135261,0.09551244630881776,0.2664624046851532,0.9248290669380348,0.22254162666218794,0.12690980378548555,0.939334360274823,0.04207941094656217,0.2918676568118188,1.4897814317276605,0.29596084330057415,0.06391109573339128,1.4474869401140604,-0.09003006676243655,0.323079238243978,1.2236611497470733,0.3211486282831996,-0.02461039757634008,1.167450642393237,0.11576472945377851,0.4785462337715737,1.2710631431579194,0.42394791710716717,0.2191254231403139,1.1334314063411317
0.1993964880406937,0.20140099247212478,1.5487959736303447,0.10608605562600074,0.48444633996736886,0.08548883439787228,0.15534633622055719,0.07802457463278994,0.07946704900960974,0.12258470441226481,0.4099829539118463,0.5060090393171501,0.19411160768074437,0.0959426824057454,0.5021041810253276,0.09558864745551605,0.26481969204773076,0.9248805610430421,0.21946272310780707,0.1225562668101667,0.9402893359749426,0.04109496732051268,0.2915199249380113,1.4888455896284474,0.28945095663175113,0.060120951751472244,1.4483321954284103,-0.08947541090714779,0.3197681468476504,1.2216399319708247,0.3144130391841893,-0.026535799039080016,1.1676829274679008,0.11454201351069085,0.4775363965504635,1.2690754647608555,0.422328277020114,0.2157051059568164,1.139304937606218
0.1964887306476055,0.2013047147700953,1.5489144069684149,0.10520913593703468,0.4842805804677725,0.08554912376510615,0.15516271719148975,0.07809502177100408,0.07925521336379701,0.12303417940476394,0.4093734566014766,0.5059406467898362,0.19398517113634675,0.09586385270214066,0.5018968810425667,0.09596741167353569,0.2635235198076572,0.9245643577243193,0.2193448084400348,0.12084871400264084,0.9401803748538439,0.039290988444685586,0.29276543721223447,1.4868990981843913,0.2830897547085477,0.0558046607275919,1.449603037579646,-0.08718890404516638,0.3238799923535303,1.218049761415432,0.3086948118618834,-0.025873248600251034,1.1675231624492854,0.11638147634754378,0.4808571440379086,1.2698520453410904,0.41895511649915856,0.21615944884688032,1.1477760057176445
0.19516046690073488,0.20153255518675453,1.5493231193164154,0.10494311119086511,0.4841385933031501,0.08545442352201059,0.15542782092541474,0.07782962293577517,0.07956941127343661,0.12338773569754427,0.4091545837278452,0.5058050929897276,0.19613448842949438,0.09565842847907625,0.5020358875248575,0.0951905323823134,0.26312949000206803,0.9242893738088003,0.21801074729527237,0.12004980712803251,0.9405292433672455,0.03761154686420516,0.29417194651704576,1.4858882199319565,0.2804876261827247,0.056877296782590805,1.4506678244847553,-0.08372572702890539,0.3308025496972283,1.2153634874676345,0.30334658522285596,-0.02351809688991228,1.1679831984479891,0.11927567741585285,0.4852870699790138,1.2761429890848208,0.4154528344725255,0.21793359412824118,1.1516811936994644
0.1929854679282878,0.20354820601706397,1.5489426170172642,0.10387929466928694,0.4848112832286541,0.08568911143532086,0.15487477605542915,0.07788354467964098,0.07942213243161549,0.12411880662419965,0.4108593080854288,0.5061339247005033,0.1964410274606225,0.09599127572195569,0.5017905370105837,0.09567410383284278,0.26338684339761687,0.9241104725104407,0.21759668193864612,0.11954372345039344,0.9403705808836397,0.035956933222719485,0.2963393604562018,1.484760891859677,0.2779059510432594,0.0581884379242415,1.4517831307203977,-0.08159415385474691,0.33681327491348073,1.2131193432328684,0.2996238159023598,-0.01967276431299289,1.1683128582524462,0.1201444955942157,0.48905648746395164,1.2830169159354228,0.4112900194574187,0.22219388195648543,1.155526552740021
0.1891564725447203,0.20689345621197175,1.5489223568634825,0.10493345130621899,0.48532406953885937,0.08501515913288962,0.15511136983916873,0.07813544203527889,0.07935009145285125,0.12549638392402868,0.41419595098337936,0.5059405622076926,0.19723729646841254,0.09818998139740327,0.5015747551998043,0.0959434267817395,0.26504715925294714,0.9232268016011855,0.21843607081101035,0.12175858859747835,0.9401528954739418,0.034641215057940725,0.2970989389155245,1.484121308337624,0.27427141269033867,0.06215646175240673,1.4531162572253935,-0.07588997613470169,0.3494215125239563,1.2115542471526748,0.29880544422709254,-0.014784540316957973,1.169613680630157,0.12549640746713173,0.4939783664033444,1.2970873504304148,0.4084733772632006,0.22801630349552038,1.1572978152861655
0.18581568938941975,0.20940171459767418,1.5501585216962959,0.1057322663214566,0.4843804807084492,0.08469226406957589,0.15451209923410028,0.07720518746328156,0.07939913876955175,0.126354145796626,0.4172369927578694,0.5062640911082549,0.1987230528957984,0.10063305108790835,0.5012425701538513,0.09562779519576203,0.26735228024811813,0.923214344243615,0.21927589821234167,0.12502837756544266,0.9398024232434925,0.03143982929360922,0.3016094795708442,1.4816985539074996,0.2730762749019449,0.0666821142611034,1.4547595908134912,-0.06854206588906994,0.37056495083836777,1.208759317265459,0.30002883286044596,-0.008661431980948422,1.1710521174474304,0.13178238220018554,0.500690439039026,1.3169377137521525,0.4043948789876574,0.2364179053034399,1.15779638559187
0.18332986692605105,0.21524034706523437,1.550663461222111,0.10617185008072368,0.4851098482599313,0.08435804817008158,0.154354396328582,0.07876883924432856,0.07962291175336221,0.12664358342146498,0.41965964510462817,0.5062056370268472,0.1996417840748275,0.10423704783839165,0.5012220072700357,0.0954915899527083,0.27139748389945734,0.9237010154251434,0.21839201893725751,0.1283693558562054,0.9398819112499674,0.030326123919103953,0.30659626876357987,1.4815015528893074,0.27177134715672324,0.07206383206677294,1.4548589542883164,-0.058604496021039156,0.38716501339030684,1.2079157708521524,0.3010196183319908,-0.0010379504613051824,1.1707888751744464,0.1342776464817979,0.504959512454912,1.340905952278309,0.4010763590348982,0.24586876813930467,1.1582768594629795
0.1812097356618653,0.22301181292262584,1.5513243025500887,0.10556784010125371,0.4854359896392545,0.08354087375068465,0.15458629923797693,0.07913874399073283,0.07963479404174995,0.1264069828039208,0.4243876516913845,0.5060286915381687,0.2011139054719734,0.1098544924233478,0.5007536978355591,0.09433092149458923,0.2773539418341035,0.9238842605824275,0.21730730985650534,0.13432960894709828,0.9394888776690259,0.028666468532134386,0.3159994109924069,1.4815297935762546,0.2696758047024875,0.08043548826463838,1.4556848414997292,-0.046824066946518826,0.4118168914515728,1.2088258521144797,0.30288416313654515,0.007406797063919017,1.1720415419073749,0.1416200004230903,0.5035292300542069,1.3664400697054955,0.3962191133730934,0.2568488248866515,1.1579258946120026
0.17776000000000003,0.23223,1.5516399999999997,0.10509999999999997,0.4860899999999999,0.08332,0.15445000000000003,0.08022000000000001,0.07972,0.12649999999999997,0.42885,0.50631,0.20209999999999995,0.11671000000000001,0.5002499999999999,0.09198,0.28396999999999994,0.9247299999999999,0.21644,0.1421,0.93901,0.026820000000000007,0.32522,1.48287,0.26969,0.08906000000000003,1.45777,-0.034449999999999995,0.43739,1.21285,0.3044700000000001,0.016199999999999996,1.17426,0.14797000000000002,0.5019899999999999,1.38981,0.39364,0.26692,1.15639
0.17769014727046287,0.2422692255073607,1.5521042098506397,0.1052751261817619,0.48661684291086055,0.08397887199360568,0.15449501814288388,0.08197092237151103,0.08097260420881343,0.12591675265898264,0.4333635500146813,0.5075291580729532,0.2048760061939004,0.12637673109254827,0.50042268611842,0.08957883699393995,0.29172234492515453,0.9268986548647785,0.21525980582340368,0.15076630247127076,0.9393403545522045,0.02394331356814298,0.3347379598138395,1.4855959226253808,0.27030487580078577,0.10201315175494298,1.459493152490522,-0.02021687644977357,0.461001352876738,1.2184840429378216,0.30579357985129013,0.02578888884612759,1.1769559641923375,0.1561129330094099,0.4982801416790136,1.4089572248248579,0.39174867825825255,0.27735945212245544,1.155636569199292
0.17292116540244803,0.25503740917670176,1.5539657028574636,0.10602824915652666,0.4891794757647078,0.08290964007309276,0.15492688716717443,0.08279492602716505,0.08063021645103781,0.1242667517106334,0.437030729738173,0.5067114301948608,0.20669263121205295,0.136280277137386,0.4988481844035124,0.08715621965793902,0.3012852372440624,0.9279581717286858,0.2142722041840995,0.16140271327807948,0.937788851451598,0.02270193279094595,0.3451662374661156,1.486386934920033,0.269851670015068,0.11310840435098332,1.4613004285877436,-0.006136162887696587,0.48659387490848477,1.2248236146077354,0.3045284372807278,0.035211151364036276,1.1791239651481271,0.16219262354819958,0.49781537927073793,1.4255882139789393,0.3870591220840558,0.2875989403573626,1.1542820313434252
0.1718567746105848,0.26925994449404395,1.552517916857381,0.10472162815381518,0.489985170015446,0.08230147734229805,0.15550380848005016,0.08553640946311547,0.08175995746642176,0.12128987651127864,0.4414561599762981,0.5065994485446252,0.20945804416521296,0.14819043068940094,0.4984291714168326,0.08564435876924996,0.3111806697823242,0.92969842961457,0.21425119080471547,0.1725420984589623,0.9374499840550634,0.02126183511669222,0.35770616381153575,1.486949852517547,0.26952667231095945,0.12592322651259175,1.4626110660630482,0.005725327478678687,0.5080330749013628,1.2292537255351605,0.30333023000377685,0.04423089702843837,1.1814095276015035,0.16464342466858825,0.49850457007259913,1.4376189715647494,0.38499227031333677,0.2964505257728142,1.1522937824940167
0.16801354858075662,0.2836334714087446,1.553716693632698,0.1050646010585826,0.4918613630910216,0.082195426351933,0.15632327351553832,0.08752594541135725,0.083353029232603,0.11872442795458553,0.4471519157700706,0.5070189012186008,0.21406996118746774,0.16229459922174913,0.4975037742110551,0.08193014122813431,0.3216441493368434,0.9314577529160432,0.21274666181817967,0.18495694509866323,0.9366409938956289,0.016561895364808937,0.3664481052717079,1.4888414281901785,0.2678813346931492,0.14009875080341855,1.4642900280465094,0.020293009869647775,0.5264662444241566,1.2365979985626843,0.3029030773869373,0.05379039210985152,1.1846162611193365,0.1705980458337954,0.5009793574981111,1.4499606839654777,0.38309393665666736,0.30576968660145715,1.1498671877229898
0.1657883103948999,0.2983535892975816,1.5539397240107278,0.1043344950884068,0.4928191217819339,0.08216991980088462,0.1575896122352831,0.09135663573331637,0.08518291754692355,0.11526084135633052,0.45121174644347983,0.507380066820359,0.21946962747187804,0.17637284019278762,0.4967581106281405,0.07867496916160348,0.33223378199102194,0.9337120251933314,0.20989090614578268,0.19585841314808894,0.935947103567168,0.014573932860633085,0.3802697881259188,1.491329928254874,0.2659059188384682,0.15361936840287008,1.4660973871368825,0.02971688116570439,0.5416452950959282,1.240376087704837,0.30147306519412487,0.06523622524232045,1.1871364570598235,0.17589645600182657,0.5069382296602152,1.4552956310523577,0.3807943427117071,0.3168959408955414,1.1483363946639573
0.16549740511303193,0.31284107370124475,1.5550427313692772,0.10359614481324866,0.49318527468691575,0.08246994738158106,0.15894143621175819,0.09405205886659068,0.08874250758731615,0.11206369996496683,0.4559458596079169,0.5081429316058113,0.22653577114780057,0.18936007984625008,0.4971524304855616,0.07516509633927355,0.3425757979863675,0.935980442441075,0.20694899172027942,0.2067196823622473,0.9360979535767778,0.012665139347210072,0.39509512500426597,1.4927673864964737,0.264792093690958,0.16738150385652475,1.4680662992137161,0.03705377840358252,0.5567002037299471,1.2426914804910467,0.3001939007067481,0.07582016358128972,1.1901201890171078,0.17996965332540846,0.5149860747748067,1.458559282336073,0.37871965873399793,0.32700846036164777,1.146880765385008
0.1646403039406331,0.32965301627786736,1.555670260087836,0.10256562010591774,0.49359037699579283,0.08277643474226196,0.16083421306513443,0.09695430610820145,0.09200501698878169,0.10909420670430962,0.4590950655658813,0.508714152955084,0.23289746348343024,0.2004001468585846,0.49765388603964167,0.07259939513259679,0.351691477130904,0.9381172477041899,0.2048245518537622,0.21629003705827796,0.9361941457951846,0.013866219061477194,0.4088162379771571,1.4927056581309506,0.26245609118321145,0.18168743748382465,1.4696477836330328,0.042743441012861746,0.5688189696792887,1.2420798365071466,0.2967292550291841,0.08714913307986928,1.1925517759426776,0.18306561997088003,0.526941568368193,1.45961233940618,0.37596274933783846,0.337409486977218,1.1454257668950667
0.16238953598983383,0.3461861344674433,1.5566469423828007,0.1010470893914181,0.49438493079562595,0.08224517087275555,0.16318971755591777,0.09893204753516607,0.09618529917504638,0.10725544697653815,0.4609600064445035,0.5082745159332503,0.23823430136363996,0.20752552376331793,0.4999517887467442,0.07055970554934143,0.35837538550024495,0.9388349854579815,0.20277129199697358,0.22295047164620138,0.9379707721118379,0.014849970935165583,0.42487652223160255,1.4942257047507097,0.2612831008470229,0.19610361742167268,1.4730288861052776,0.042431963607754995,0.5789330785107081,1.2397634903342643,0.2938208101944483,0.1000036134573056,1.1962672791333746,0.1845374388333471,0.5423079439655419,1.4570869594728566,0.37220892986117987,0.3491756150086169,1.142411227606911
0.16140747747158324,0.36265674806238013,1.5582854970298434,0.10120208887650446,0.49432043309816265,0.08217391889239196,0.1650487545439568,0.09946311836258509,0.1002904597363937,0.10526611918633244,0.4632570198320731,0.5084045705938205,0.24298396196268124,0.2121007436265531,0.5023949383442379,0.06767790033576274,0.3642467449667102,0.9397316898310317,0.20070475016705056,0.229620370734437,0.9397246817685523,0.014327421566253582,0.442548457605005,1.4935667780625264,0.2595866808753686,0.21220283250384042,1.4757896726110626,0.03892876997302949,0.5859636531957944,1.2326615334141675,0.29060160427914705,0.11069585436731796,1.2007927200756767,0.18440432814615917,0.5579244991395582,1.4490186749717364,0.37092795001583484,0.3573350085332807,1.1387701839989992
0.16233786650760362,0.3805497344541494,1.557911161453182,0.10112225938853711,0.49429171861625776,0.08206334033746793,0.1672488984242268,0.09935265026645732,0.10330403682231996,0.10231431330639508,0.46305782011759355,0.5083066609834481,0.2447871871666043,0.21268838515211924,0.5052993017647628,0.06368693031083023,0.3680505595061791,0.9404297365421013,0.19769385942590453,0.23439765618490443,0.9419530794928089,0.014969544164076067,0.457140962327929,1.491282860177637,0.25907012647926103,0.2284488001697195,1.4781164200162362,0.031222294206418887,0.589237381746753,1.223833749054136,0.2855157589928153,0.12132978550243995,1.2047655517535478,0.18392799438041377,0.573024685929356,1.4363866879612501,0.3713917304643936,0.36488636251821427,1.1381381042714451
0.1628493054628927,0.39643156269966073,1.5570037219684874,0.10122660176555143,0.4942874000297765,0.08182998994765771,0.16799278646858293,0.09791074909825392,0.1057863397592228,0.10114088692980729,0.4641496855987324,0.508151444948891,0.2475267887344592,0.21101679196502607,0.5074424540013684,0.061537861465022395,0.3711678412357963,0.940629312093702,0.19477653558864244,0.2367660113536652,0.9432294044296498,0.012782563549420081,0.4721018185803181,1.4864348395161742,0.2593780301975936,0.2451177851025484,1.4789893148629272,0.019560043787478654,0.5897116255487711,1.2119100595290893,0.28371260237007134,0.13111252869430692,1.2082428018040876,0.18268496637351278,0.5893675630725019,1.4172245089322042,0.37000408196918577,0.37336223594770157,1.1375457250433472
0.1637523773602494,0.4090415778451894,1.5563839838618967,0.0999940015099282,0.4936853833144981,0.08146025932878133,0.16822502457391766,0.09380769817240464,0.10854836227800121,0.10024649975263024,0.46527425918780424,0.507906153560733,0.24936696453441703,0.21002623120400202,0.5089963570372806,0.058568931674537805,0.37266828890208076,0.9402740034999367,0.19280266145627695,0.23929969084234148,0.9440815810609642,0.012865547290631038,0.48270582261697864,1.4815094172695786,0.2596887411523631,0.2565456177599959,1.4811670740585132,0.004212611645038941,0.5874953923883479,1.2018836127342736,0.2823049518318654,0.14210550192179264,1.2104498587407118,0.1814407680300426,0.6071437578713111,1.3941497724125083,0.3667329304471464,0.3838797624661341,1.1359438081694162
0.16456976527726927,0.4217955558827867,1.5537560957627004,0.0993541671682619,0.4946025573243482,0.08053834258971959,0.16554724619912553,0.08781047273321345,0.1101314423892006,0.10036047521976642,0.46786681717523304,0.5070844068030107,0.24767045651348332,0.20756699701632775,0.509332419193423,0.056643406140474216,0.3735125201688181,0.9388733547112105,0.19024395133782868,0.23955462795111077,0.944113085994331,0.012528092190146252,0.4922418280987085,1.4751972335570798,0.25984944243494573,0.2678875336942644,1.4832525301710389,-0.01477095084034995,0.5788436214509446,1.1905966408787436,0.28448283812445413,0.15189255053347375,1.2133829460594872,0.17648072938715345,0.6184499986228622,1.3655683442073456,0.36464675520889295,0.39387733730627505,1.1349696907603148
0.16518881476728717,0.4323013152718615,1.550510198618772,0.09950138341349107,0.49494251050626986,0.08045993433269864,0.1589776331641863,0.07801446867406936,0.11295623786300533,0.1010078506262258,0.47116103722015296,0.5071834472447954,0.24583002449967048,0.20471777906903885,0.509003297448871,0.055102988421264855,0.3734085328323825,0.9379818370527865,0.18795650710462283,0.2387295542590304,0.943569419006796,0.012990530777135655,0.5049532554605354,1.4688104238023878,0.26169985586041483,0.27856420427859624,1.484280113358872,-0.035480401960937505,0.5675562891850263,1.1807515900436143,0.2895794546324618,0.16117537750481478,1.2153281499630306,0.1680914349888387,0.6310165769800096,1.3333892343268356,0.36428758982595016,0.40484854001683906,1.1367430142699184
0.16502752381478455,0.4400319463231593,1.547441607948943,0.1012339232036051,0.49504099749155533,0.08022134417149968,0.14927400393143872,0.06566393662674827,0.11706322994425573,0.10302589086348433,0.4724456381799184,0.5070075408599738,0.24411204710662437,0.20043290946788556,0.5085857803165595,0.05513798691036644,0.37332270234262366,0.9372746237758426,0.18676428382548954,0.23744993849015528,0.942981939528819,0.014082003589753202,0.5073126972739118,1.4616869961484775,0.2677841769941288,0.28672100158451647,1.4845635803761381,-0.05693801985224113,0.5494156286063556,1.1745826153879089,0.2947320263827924,0.16963014318302397,1.2153884146198737,0.15147494474594908,0.6446002546163859,1.302118214810262,0.3641477834117149,0.4153279825843786,1.1382883092012548
0.16553237296407927,0.4448951475611098,1.5442086925483542,0.10116917435506663,0.49503328189826945,0.0796347597009067,0.1385046334651061,0.052897346490609204,0.12092663281119057,0.10421535897668718,0.4741304073344913,0.5065000290289988,0.24069023831432987,0.19497698233726704,0.5079864374903533,0.05417530724138988,0.3710829110611636,0.9356033808920805,0.18696496016087294,0.23638486740247214,0.9424499015081997,0.013935144031807343,0.5070579365035333,1.4576100387703206,0.2709659430801228,0.2910325613510958,1.4832510864438873,-0.07246975188987026,0.5303126854612069,1.1725795588326666,0.30271977442941683,0.17635550470534617,1.2135539257139385,0.13345625973757508,0.6520805486103813,1.2799783877892148,0.3657105000321077,0.42524308663219496,1.1413353683923821
0.16688999999999998,0.44612000000000007,1.5418500000000002,0.10139,0.49467000000000005,0.07939,0.12838,0.04031,0.12305000000000002,0.10506999999999998,0.47542,0.50632,0.23547,0.18718000000000004,0.5069899999999999,0.05500000000000001,0.37024999999999997,0.9349100000000001,0.18768999999999997,0.23544000000000004,0.9414300000000001,0.012569999999999998,0.5037500000000001,1.4544099999999998,0.27483,0.29213000000000006,1.4816400000000003,-0.08908000000000002,0.50816,1.1735300000000002,0.30927000000000004,0.18088000000000004,1.21084,0.11138,0.65276,1.26113,0.36581,0.43343,1.1464
0.16868587004371605,0.44379874562935645,1.5407616126714596,0.10179389374008607,0.494967105784923,0.07954829359297594,0.12057470311972762,0.029523116866479456,0.12189155027635486,0.1074624805864718,0.47527670032269903,0.5064352890240517,0.23031301013921485,0.17622254905240184,0.5051437864714922,0.054769053993054886,0.36671495539708726,0.9338592560820766,0.18802527930540858,0.2324143948768738,0.9392073724633057,0.009081735768296247,0.4979298879486158,1.45295527446012,0.2792071807467418,0.2926570447612362,1.4814993577915527,-0.10048542243730015,0.48762066117818004,1.1752226203462743,0.31817923222446987,0.18483999376171917,1.209929569714785,0.0909919522977985,0.649196684375614,1.2526440557363743,0.369324880786371,0.44034211700167053,1.1530465771922802
0.1704896227670878,0.43978104406295543,1.540284352612158,0.10232150333031552,0.4943509601825954,0.07884831271312619,0.11532806780591587,0.020734084519463264,0.11813542346574162,0.10989455773029796,0.474647773407364,0.5057135711592183,0.22308893658126253,0.1658142501303554,0.5025625386879538,0.05655952467274464,0.3624594924557087,0.9321182352203263,0.19074005472375438,0.22904683844658008,0.9365128402186631,0.007054034850045635,0.49057146371952115,1.4523330817414084,0.28260951169668697,0.29083931836854776,1.4822841774604094,-0.10761907165271838,0.46903811621531677,1.1773125920818728,0.3309976442074831,0.18925641054469838,1.2098245398280947,0.0726020213795149,0.645766538182683,1.2483849639842726,0.3730742939295852,0.4480031012543698,1.1607152053564653
0.17149254357464988,0.43374963346821005,1.539463696299331,0.10250793048274208,0.49442176016693345,0.07891275376246287,0.11302318534680478,0.014704860855360402,0.1121398344909447,0.11273461811718812,0.4748226198532928,0.5057220248205245,0.21457842314117215,0.15560150941816409,0.4998089677424527,0.058459038086203445,0.35704842290275596,0.9304970430064575,0.19394871081881815,0.22492621225558865,0.9335419101533989,0.006105009032107894,0.48004438966109164,1.4526426326433326,0.2867108296807816,0.28679396700286913,1.4823605524335974,-0.11308927523751194,0.4497810833650105,1.180395949096401,0.3445498513045078,0.19377308610951852,1.2086916957546825,0.05839412816169025,0.6365394707185595,1.2473135188970423,0.3782714926278776,0.4553139342332153,1.168814664834263
0.17217606448967188,0.4241697186950716,1.5395499707875697,0.1016994336155584,0.49469292950873645,0.07912987391255202,0.11224588823829218,0.010831276409446304,0.10733637436357844,0.11464653009108058,0.4727173834505259,0.5057496950007052,0.2061894691955121,0.14703233306487232,0.49859063644364676,0.06054406785326034,0.3499096648793227,0.9291197072642227,0.1973178250429985,0.21913031305613925,0.9322653687089215,0.007126423503039036,0.46645356585018855,1.4523587293576667,0.29125987310972556,0.28052055803433895,1.480825401168543,-0.11702889586506075,0.4319403515942698,1.1828386049221304,0.3580575419812455,0.19687287902465408,1.2061725821864313,0.04797912557636359,0.624771882519302,1.2488138713585895,0.3828875009665419,0.4609378152060921,1.1781660212685026
0.17572131614836323,0.41156688534379626,1.5397609433611144,0.1025803881385914,0.4950329915436949,0.07988973526167688,0.10997284036639833,0.006527833365160809,0.10386334437102027,0.11560507133732531,0.47026950478092566,0.5063616675271394,0.1995485411034666,0.13870008019503685,0.4975092775224544,0.06476912194206112,0.34031304669242796,0.9279997445812393,0.2048638937679256,0.21308316582391604,0.930866391140271,0.008897798814505442,0.45491726416732153,1.452349065417278,0.2983797528113183,0.2713148435289814,1.4802551587157309,-0.11740581010375986,0.4197083231857814,1.183926367432495,0.37030990401171093,0.19864472888398632,1.203777276877508,0.040381496912063795,0.6172015270767216,1.253663171326585,0.38757266463142503,0.46440195514524174,1.189340041706934
0.17757573592096498,0.3974462772559064,1.539558383812849,0.10474502892444477,0.4940906997190699,0.08061842005328662,0.10702216313392283,0.004399176653627133,0.10078288693155629,0.11793759174591828,0.4649997286221048,0.5068129172691642,0.19432543269450286,0.13122091577535366,0.49669100512059017,0.07055839195841335,0.33040958490392225,0.9274018910884385,0.21372580300505709,0.2066351400257246,0.9294643059786472,0.009322231869836013,0.437872209469131,1.4537567353269034,0.3068138540924255,0.2611933925641321,1.4790992056355703,-0.11499222916769768,0.40901355543357926,1.1836419068575796,0.3809093949297437,0.19883797780243012,1.2006863914467973,0.03771000838441955,0.6087770085504481,1.2581008812038874,0.3907308280442887,0.4653639969223888,1.201742677711234
0.17819165579361312,0.3820423072345508,1.5392189486797798,0.10384709350858355,0.49447138481113295,0.08106426893556126,0.10572165503096079,0.0032127982049581882,0.09873170879248423,0.11940543203538485,0.4605803166785059,0.506820433962994,0.1900865210623572,0.12370522363919825,0.4972496784983578,0.07304567032564521,0.32126429427857517,0.9259778616060361,0.21725965292206334,0.1987460409769238,0.9296645876597242,0.009946048078942947,0.41905834292106553,1.4549145789572366,0.3102298363958263,0.2486831803365837,1.4791899232514005,-0.11144009774579072,0.3998686308550824,1.1826216173975594,0.3895054913017711,0.19690040134223202,1.2000335030165854,0.03673046089625027,0.6003661361143058,1.2639422466313703,0.39288739535745065,0.46314840265757834,1.215264290696283
0.18001371724115928,0.36427250261189986,1.5401382510870123,0.10353466847722269,0.4940848746349242,0.0812133174745704,0.10337098864915167,0.0033232339365504757,0.0956890674565807,0.11926296638620473,0.45366526891373327,0.5063854589607728,0.18599327816251313,0.11606088066727309,0.49682848848211814,0.07553018566763005,0.31217339928957066,0.9251013779540541,0.22102705885971213,0.1911841827036137,0.9286734251359646,0.012654888930819992,0.40327570458058093,1.4551449729397108,0.3112107869254521,0.2341317440974649,1.4783110957654628,-0.10524035997740983,0.3890506714893396,1.1810166358332974,0.39823738004302967,0.19382681314335426,1.199574545691979,0.03982998836909118,0.5890609321235066,1.2688533718383446,0.393149825916636,0.45861654672883045,1.2310177907749411
0.1824288619703702,0.34644841433065254,1.539760307956869,0.10371430424325359,0.49372001282472394,0.08199347968916922,0.10277177722682561,0.0018176385249710576,0.09366475074828769,0.1180368239667189,0.4469301666459196,0.506564757581718,0.18429761551724355,0.10891545610370582,0.49657246979100983,0.07851657966946603,0.302405154400596,0.9246611575568282,0.22429082451271357,0.18174333540346657,0.9283784570258746,0.014101022538000984,0.38829895827579525,1.4569105505288442,0.31360692806935986,0.21645173318951896,1.477274947279747,-0.09798860952945652,0.38195607198686765,1.180066458200122,0.4059242234710508,0.19125724567022698,1.198459184812674,0.04632694707425771,0.579039585037018,1.2754444573162353,0.39232022924383375,0.4530571380014337,1.2475243847566413
0.18482177136859437,0.3285866234490184,1.5393776822511303,0.1046575151021041,0.4930578860907831,0.08219355749669252,0.10156679233199332,0.0011376488161174367,0.09108685271681545,0.1170195323417227,0.4390972571365777,0.505975521450128,0.1825233184665391,0.10235643877514955,0.4956202915566703,0.08157738773351254,0.2928756188792564,0.9238492693276238,0.22821261909490392,0.17325507796687234,0.9271771824031493,0.016545891674375993,0.37145614572316893,1.4593966576523314,0.31474981275397323,0.20070661825107655,1.4786339061714908,-0.08961697046161736,0.3769520837867793,1.1801997210060753,0.41228464192109837,0.19191645917888775,1.200599830940474,0.055860615917624645,0.5699431110872296,1.2819678088495925,0.3933745469930718,0.4498089253620056,1.265937942379016
0.18618736828329605,0.30951969580099736,1.5393797750422056,0.10360719891696409,0.4924247068791534,0.08149780757923458,0.1001671582021966,0.00013025502592677144,0.08846478173689333,0.11585413715452163,0.43104472636351804,0.5042769585133978,0.18014714666261966,0.09585379873840509,0.494530062657073,0.08482593554170417,0.28429595856186135,0.9223140843828279,0.23189634855141517,0.1652081310355178,0.9256530128826272,0.018682281946733707,0.3531256726275683,1.4601938976041688,0.3154606749918921,0.18406696227156868,1.4789113501052977,-0.08315830349054308,0.3655808883936977,1.17962358964524,0.418422186790875,0.1871914993415334,1.2027171998415604,0.061645913573478886,0.5554791489053698,1.2879611862708615,0.38933830480252685,0.4386781851388361,1.2866065922914633
0.18621194101048177,0.29107333229130194,1.538590858083071,0.10384315283702787,0.4920773329943274,0.08163826259767853,0.09849812485667889,0.0008618391270674068,0.08626616623330682,0.11491680682980435,0.4222688157272809,0.5031430650007542,0.1798214937099811,0.08986372507501449,0.493590649928332,0.08747015694585189,0.2762391033716635,0.9216776405680231,0.23494242343761604,0.15764297962033372,0.9245456100563387,0.020805838052316852,0.3394690147140112,1.459337059874674,0.31514820814262406,0.16450957268250546,1.4779568102116016,-0.07740186209081223,0.35604756786931213,1.1776808448071876,0.42319107243508924,0.18419665873143254,1.2044059108302296,0.06986712047849913,0.542148802074675,1.2892288999410837,0.3799039146679286,0.4267865923306852,1.3064178886478695
0.1836516947426456,0.27124275346919724,1.5397233384472857,0.10449857731939838,0.4923177074665535,0.08042954606250083,0.09741543189532884,0.0003737563130275096,0.08398670066162964,0.11254014519407966,0.41333437797280637,0.5003750091637257,0.17715098796154177,0.0850319653409364,0.4925556136774232,0.08716828000804239,0.26915204430894124,0.9196855220287344,0.23006860688134373,0.145164018193812,0.9249195282422364,0.021243104769324166,0.3209409806924328,1.4587065115790219,0.3083933150121073,0.1452983430001949,1.4784552864792433,-0.07463586421502921,0.3457156726721498,1.176851285061214,0.4280747884755754,0.17573524206618657,1.2107970604799727,0.07090784271783233,0.5275557710763492,1.2973302720216815,0.37695589802524027,0.4105594044319844,1.3264477559208232
0.1874382293581398,0.25371544146324543,1.5389747059433816,0.10320256104752028,0.4911083695520337,0.08028459108898806,0.09766157493809945,-0.00036086166672261676,0.08238608993632142,0.1104764353771904,0.40471451064913366,0.49878146822001446,0.17792473767704078,0.0792318627731443,0.4918599403971349,0.08911053162116024,0.26154449796325896,0.918659439305176,0.23046532847344744,0.1358321566245025,0.9247547048573928,0.023933825223511302,0.30692623336146135,1.4608846312982036,0.3076970188011945,0.12599003796826647,1.4807047640555582,-0.07000302401923789,0.33950981089387505,1.1791761408789794,0.42953263841777395,0.1713905509240783,1.2161517029358437,0.07764520549318335,0.5171389127687978,1.3033224030457986,0.3720943016855121,0.3947972208732816,1.3500257510090983
0.1871372342294631,0.23615251648119706,1.5397176725488082,0.10390007745559098,0.4914156576743981,0.0808377776051054,0.09761994229867894,-0.0019396034328078916,0.08156800216297523,0.10921261251256949,0.39675017863907647,0.4975651342889706,0.17799134206561734,0.07471666370868338,0.49158055031591924,0.0904217812356729,0.25490047439859237,0.918024465124734,0.2280395511147753,0.12517740628732887,0.925524854019249,0.02569710213531179,0.295170895535254,1.4618474315448533,0.30286854104915556,0.10608995119961101,1.4795775102301163,-0.07040049539075997,0.3270827413205042,1.1807915468823251,0.4324164719787792,0.16744157509313715,1.222004646256845,0.08059611845944734,0.5011858882692926,1.3059030845299138,0.3675609559972199,0.3769357207403888,1.3737744572675834
0.18869776824185933,0.2183574447727184,1.5390841407211244,0.10395611741099221,0.4905460882849108,0.08218207779389379,0.09685166589807817,-0.003130828230228185,0.08108660426960686,0.10900692573293617,0.3890073130091492,0.4972946548126958,0.17966641247258122,0.06976352899581903,0.4913012369815939,0.09227068278284624,0.24677739109257196,0.9177040870511793,0.2294674455486246,0.11664704085279355,0.9256695831511216,0.027047683940252518,0.2810935567174664,1.4639744925339497,0.30279055726010884,0.08866061019472168,1.4797788588499141,-0.06970561026700488,0.31581944351034186,1.1834681617362055,0.43449872407464696,0.1631354099339647,1.2267953872204564,0.08524007117116797,0.48589790240830844,1.3092811859037357,0.36171966521347454,0.35759974976979697,1.3941781848013863
0.19242,0.20194,1.53862,0.10496,0.49066,0.08455,0.09748,-0.00423,0.08138,0.10828,0.3827,0.49806,0.18165,0.06565,0.49185,0.09621,0.23639,0.91723,0.23848,0.11185,0.92542,0.02787,0.26775,1.46517,0.31187,0.0729,1.48201,-0.06685,0.30831,1.18476,0.43658,0.16206,1.23024,0.09191,0.47454,1.31098,0.35624,0.3381,1.41378
0.19307000000000005,0.19817000000000007,1.5386,0.10471000000000001,0.4909,0.08509000000000001,0.09792000000000001,-0.00415,0.08125,0.10805,0.3817200000000001,0.4982800000000001,0.18212000000000006,0.06470000000000002,0.49189000000000005,0.09634000000000001,0.23450000000000001,0.9171400000000002,0.23807000000000003,0.10936,0.9257400000000001,0.028390000000000002,0.26576,1.46524,0.3101300000000001,0.06874000000000001,1.4819100000000003,-0.0667,0.3066200000000001,1.1850000000000005,0.4366100000000001,0.16029,1.2318700000000002,0.09253,0.47196000000000005,1.3117800000000002,0.35477000000000003,0.3326800000000001,1.4181900000000005
0.19317992575997975,0.19563168582621746,1.5383725473426102,0.10446155091325816,0.4909242851960914,0.0852410181157854,0.09822654907374999,-0.00413613634165274,0.08095484298262334,0.10797838033764263,0.38127320751869537,0.4982991366900882,0.18228609763230907,0.0640676343647474,0.4917342231420552,0.09582613525834094,0.23334888897131953,0.916894443306809,0.2362512728445918,0.10678507989427881,0.9260278383898062,0.028941397678037144,0.26453267793928986,1.4652669519263823,0.3074825150511541,0.06542530973244366,1.4814841517472273,-0.0667920402416319,0.3051990857997594,1.1852202385071566,0.43651013356399043,0.15878133800081162,1.2334280205836763,0.09253565924308747,0.4699697970293025,1.3126120884080357,0.35359111404392846,0.3288770934847011,1.4213808943354707
0.193040501320221,0.19328819760346733,1.5379077990794139,0.1042473467005419,0.49091306896080733,0.08521142338413902,0.0984214301971098,-0.004341691219836201,0.08055232323671126,0.10796932227799853,0.38097052308863705,0.4981957893442643,0.18224354843385956,0.06344239020100526,0.49144069775084703,0.09497007874317381,0.23224102994006493,0.9164825356871033,0.233695176468933,0.10386875474175693,0.9262646206379617,0.02956659516782715,0.26314329511380635,1.465366589148447,0.3044865633661553,0.061969016305054456,1.480869588419139,-0.06691205409011658,0.303582160716348,1.1855397664430647,0.4364036075893304,0.1575600931789543,1.2352023245520896,0.0923569042565589,0.46796940872024817,1.3135045485207113,0.3523502556116356,0.325490790108607,1.4245869875629849
0.1928314944999244,0.1910211706263988,1.537320792361984,0.10410952242743371,0.4909510759103712,0.08521857353701727,0.09846520923789114,-0.004640364943615921,0.08014535747857664,0.10798519090778666,0.3806209696997035,0.4981004037562536,0.1820881328964397,0.06275784754753069,0.49113629665211256,0.094229732413887,0.23105378502194068,0.9160659230773167,0.2314682184027211,0.10112891249562397,0.9263938973706985,0.03013388226206137,0.2614321805030437,1.4656112661314316,0.30205096758902095,0.058447429503031306,1.4802447471322717,-0.06688839513877179,0.3019989192344083,1.1859865681167796,0.4363553559663199,0.1567866809114533,1.2369669167129846,0.09245346020615451,0.4660799322125732,1.3142556913399628,0.35106809856623544,0.32245482320239016,1.427780223148762
0.19271158327679985,0.18871455674898255,1.5367485136022216,0.10406082048758325,0.4910804716780678,0.08544760162743165,0.09836789206278199,-0.004890656821157889,0.07983299865425404,0.10800817803717622,0.3800956799547388,0.49814981337325553,0.18193553340259971,0.061977024009588544,0.4909274904485285,0.09396645392598255,0.22967591636446522,0.9157978944709556,0.2304673168934965,0.09899692457304111,0.9263932510448338,0.030525041314076837,0.25933838047667535,1.4660140923749776,0.300863320669398,0.05496376485949295,1.4797698038288543,-0.0666220130104663,0.30062060699371346,1.1865377379773383,0.4363868414941478,0.1564868319961525,1.2384862135534938,0.0931502474596938,0.46434556993720416,1.314722919207426,0.34976435159924635,0.31959449815335506,1.4308976256604158
0.19277635969630313,0.18627628019481357,1.5363436140338913,0.10406707116777907,0.49126132384052124,0.08599574171950193,0.09821884551954628,-0.0049665823517044665,0.07969017983741662,0.10805968946836852,0.37939046525850467,0.49846110215996575,0.18191690197159774,0.0611166397282738,0.4908746947367516,0.0943220263045842,0.22803798982639942,0.9157834391129807,0.2311389089289103,0.09768215067954103,0.9263011907943014,0.030663857878850835,0.2569833993857689,1.4664875231981866,0.3011286665831841,0.05166112677555183,1.479555690486639,-0.0661700735186427,0.2994771744575713,1.1870908712707688,0.4364475211833197,0.156442708065764,1.2395508620578954,0.09446413734371294,0.4626640775450721,1.3148880255207822,0.34846202446242064,0.31657888121156547,1.4338287807180912
0.19298541830304858,0.1837088307620112,1.536155822795048,0.10410616497913855,0.49140663774007454,0.08679615818529955,0.09808775237670214,-0.004935958368960854,0.07970659275692228,0.10818870488030385,0.3785985430827132,0.4990037447197125,0.1820753101208718,0.06021495233427035,0.4909786824210777,0.09516121347061272,0.2261825503353652,0.9159633598073316,0.23312932546145984,0.09702371176700479,0.9261730972189908,0.030570982835100315,0.254565554758096,1.466941207948702,0.3025161252477726,0.04865000976567358,1.4796213561067562,-0.06574632157684633,0.29839777137667844,1.187575322436168,0.4364919170625319,0.15636112462227394,1.2401597850965143,0.09602981561623246,0.46085918061017445,1.3148534056367307,0.3472077120160808,0.3132117411384413,1.4365194849101164
0.19318605606063285,0.18103182660978256,1.5361689646496617,0.10416560919451485,0.4914656825306696,0.0876754455421334,0.0980047896310269,-0.004908905836148874,0.07982246864758075,0.10844494052568465,0.3778544319802662,0.49965809505619335,0.18238421094400772,0.05933701183839271,0.4911659598063435,0.09619670916180181,0.22425338836452538,0.9162054465912498,0.2356319566982072,0.09665464393931628,0.9260543036198194,0.03037333900523671,0.25227287625981687,1.4673236650728436,0.3043921006249888,0.04591789285084416,1.4798996253250374,-0.06551834672221411,0.29721029720310926,1.1879814023744244,0.43648005804041645,0.15603221830445843,1.2404860683377543,0.09744673369135619,0.45885468683585534,1.3147773305781525,0.3460582399483682,0.3095176237807422,1.4389777843947118
0.1932041447049653,0.17826000922633864,1.5363112776659043,0.1042480697032142,0.49145300883125365,0.0884604336033444,0.0979557406816707,-0.004943078078243444,0.07995721399411922,0.10883894652731402,0.37726564406340457,0.5002852427589299,0.18278967836577226,0.058559169366532826,0.4913273224494529,0.0971373563765996,0.2224254880813514,0.9163863727766371,0.23781592016305997,0.09618290692849657,0.9259677745027726,0.030251662240507956,0.25021798101021175,1.4676290298320418,0.30608263291014787,0.04334057574268884,1.4802760935906565,-0.06552702129993486,0.295867583431619,1.1883558612969798,0.4363859790908426,0.155374814170975,1.2407788309954075,0.09848612784328309,0.4567301666767724,1.3147984934683357,0.34503926760364345,0.30570700842807236,1.4412432677791485
0.1929663776237691,0.17542061005657908,1.5364616360342065,0.10437229614222882,0.4914319130953372,0.08908429605301299,0.09788637371917197,-0.005014702253443167,0.08003732525149458,0.10930645047056016,0.3768549004802477,0.5007947369827594,0.1832468719193018,0.057938995227010105,0.49138446117316914,0.09782518833599445,0.22080589320340055,0.9164500277518312,0.23922940775699053,0.09536307193765933,0.9259136153451901,0.030352425821951426,0.24838290212566688,1.4678831027174652,0.30713888896411645,0.04075475505156597,1.4806430920630549,-0.06569639432655806,0.2944839409489047,1.1887751434374445,0.43620650430722946,0.15441390320044657,1.2412381105143777,0.09916211548832861,0.4546761093194595,1.3149784130943887,0.3441110965820776,0.30205657056207175,1.4433505385693464
0.19256275520568972,0.1725713312402163,1.5365373452068392,0.10451918975911637,0.4914370030753218,0.0895532832518149,0.09773749345702205,-0.005086991781645434,0.08004690408183308,0.10974288254165786,0.37660511794953505,0.5011874568374712,0.18369191019723455,0.057491859309660075,0.4913244260591006,0.09823740905274976,0.21937639271457285,0.9164020613659547,0.23985126950190708,0.09416769949366986,0.9258943975401102,0.030715595351351335,0.24660414294408278,1.4681067602854525,0.30746598993195606,0.03803434696243407,1.4809289774799304,-0.06592139629205895,0.2931765163523375,1.189286075373246,0.43592906979491536,0.15321336268049943,1.2419258494931393,0.09957159474586752,0.45281148183824516,1.3153651727235043,0.3432415745600725,0.29868943041005885,1.4453414946024068
0.19215256534976907,0.16979482657621825,1.536491399185971,0.10465093980985657,0.49146594174464475,0.08992365574776011,0.09748775604961737,-0.005167411946474575,0.08001257125473424,0.11008431912902075,0.37650213243668385,0.5015192828524766,0.18405782769148338,0.057149727681983356,0.49119502981779195,0.0984188118154867,0.21806761580505615,0.9162716769041396,0.2398392841599454,0.09265423033822287,0.9259179969562611,0.03125298139658638,0.2446660392669549,1.4683184687144877,0.3071366140943744,0.0351278822456449,1.4810727727079303,-0.06616806173455167,0.2919481872291575,1.1898981773362522,0.43557110978426594,0.1518402448374729,1.242797909936157,0.09975536687001263,0.4511052014261771,1.3160083153530915,0.3424266187506819,0.2955631932857405,1.4472530136563182
0.1918380896700755,0.1671496039266244,1.5363386199145694,0.10472586433065285,0.4915026866621674,0.09025618071543157,0.09718028442840458,-0.005299888844886081,0.07996822176610295,0.11034012297738544,0.3765537000784384,0.5018515970389343,0.1842942155349323,0.05679033729074382,0.4910680716201387,0.09841792158172916,0.2168452172027205,0.916099429013937,0.23930742894276186,0.09086421891278088,0.926005549624895,0.03181094978630782,0.24244173406651418,1.468539503994997,0.3062584938417605,0.032055892519473675,1.4810208091319033,-0.06647067630854975,0.29068155551549346,1.1905879328756748,0.43517786911685785,0.15034510344205912,1.2437754436127997,0.0996812888486055,0.4494030124925795,1.316942204943455,0.3416799403714801,0.29254294528548136,1.4491285445958864
