PaulMeinheit/Bachelor_Muay_Thai/processed_Data/N1/roundhouse/scaled/JointAngles/scaled3.csv
L_MTP_ANGLE,L_MTP_ANGLE,L_MTP_ANGLE,R_MTP_ANGLE,R_MTP_ANGLE,R_MTP_ANGLE,L_ANKLE_ANGLE,L_ANKLE_ANGLE,L_ANKLE_ANGLE,R_ANKLE_ANGLE,R_ANKLE_ANGLE,R_ANKLE_ANGLE,L_KNEE_ANGLE,L_KNEE_ANGLE,L_KNEE_ANGLE,R_KNEE_ANGLE,R_KNEE_ANGLE,R_KNEE_ANGLE,L_HIP_ANGLE,L_HIP_ANGLE,L_HIP_ANGLE,R_HIP_ANGLE,R_HIP_ANGLE,R_HIP_ANGLE,L_SHOULDER_ANGLE,L_SHOULDER_ANGLE,L_SHOULDER_ANGLE,R_SHOULDER_ANGLE,R_SHOULDER_ANGLE,R_SHOULDER_ANGLE,L_ELBOW_ANGLE,L_ELBOW_ANGLE,L_ELBOW_ANGLE,R_ELBOW_ANGLE,R_ELBOW_ANGLE,R_ELBOW_ANGLE,L_WRIST_ANGLE,L_WRIST_ANGLE,L_WRIST_ANGLE,R_WRIST_ANGLE,R_WRIST_ANGLE,R_WRIST_ANGLE,NECK_ANGLE,NECK_ANGLE,NECK_ANGLE,NECK_ANGLE_SHADOW,NECK_ANGLE_SHADOW,NECK_ANGLE_SHADOW,Trunk_Joint_Angle,Trunk_Joint_Angle,Trunk_Joint_Angle
X,Y,Z,X,Y,Z,X,Y,Z,X,Y,Z,X,Y,Z,X,Y,Z,X,Y,Z,X,Y,Z,X,Y,Z,X,Y,Z,X,Y,Z,X,Y,Z,X,Y,Z,X,Y,Z,X,Y,Z,X,Y,Z,X,Y,Z
-12.684210000000002,0.0,0.0,-5.0348,0.0,0.0,-14.988300000000004,-10.73374,7.208380000000003,18.48696,7.442920000000002,-8.977580000000001,-20.39726,0.43113000000000007,-0.00028000000000000003,-13.481270000000004,-1.8708100000000005,-0.00017000000000000007,35.56035000000001,12.533030000000002,2.579410000000001,1.6091500000000003,-1.9648100000000004,-13.375540000000003,35.3796,4.8708100000000005,-14.563120000000001,29.701940000000008,-9.876100000000001,21.664930000000002,124.80080000000002,0.005850000000000001,-83.68459000000001,133.33224,-0.00415,84.14862,5.4612,6.954770000000001,-0.0007000000000000001,-0.7381300000000002,1.1827400000000001,0.007100000000000001,-16.855600000000003,-0.5893300000000001,-1.16954,-38.58318,-0.11444000000000001,-1.3046000000000004,-1.0490100000000004,-2.4489600000000005,9.251120000000002
-11.514291497475762,0.0,0.0,-4.367032929703753,0.0,0.0,-17.253794686339578,-10.612891166396338,6.729610737658946,17.616528620050286,8.025492319664561,-8.471032844820282,-20.706010509405253,0.6488776060884069,0.00016892411225768444,-13.000432989012971,-1.4508268842623917,0.0003277955895748998,36.15118054012087,12.812832120195404,2.9781814682623624,1.6184830929481473,-1.9333516006187992,-13.643100287793688,35.25203216111932,5.031281549527666,-14.114157972670712,29.21670245362395,-10.389971885231825,21.471069519821228,123.85141934140674,-0.0012494123623217313,-81.69525248118842,134.4116540126941,-0.0006493589686517311,83.80077182717136,4.624418433620829,6.555207252679731,0.014046832160529033,-0.5794794790225284,1.6136291485071395,0.0005474687580519257,-16.730436128514395,-0.505595297122427,-1.7480313711525826,-38.45221459605881,0.17746608226795985,-1.810980774476633,-1.3678434319719504,-2.127665273909974,9.413049350667272
-13.223557378403843,0.0,0.0,-5.158949293386949,0.0,0.0,-18.90245220701442,-11.527653967431444,6.794518806218199,17.166391896916195,7.619669821124343,-8.301587429182641,-20.91889710223407,0.6630413925977551,-0.0004893379557421614,-12.71811031162707,-0.9027885806558104,5.8741102371225374e-05,36.43079042554842,13.22238436921525,3.143677654686501,1.636711493076212,-1.96829951695707,-13.17132955337731,35.52405640836102,5.26627130716495,-13.448830025758074,28.771263658973957,-11.145255191473723,21.143989414072074,122.59317117674782,-0.0032692346752384535,-82.35050820627035,134.76189157021636,-0.005252282078212776,81.84536321154081,7.549657180905347,6.888198433641237,0.014558286692570822,0.34878097016333026,0.9833573304626064,-0.0037669144841428956,-16.1925742079349,-0.266938252456064,-1.140763782054795,-37.92042863111955,0.17439183729064084,-1.1585257621563978,-1.8739247544870767,-2.099381717537822,9.897125556345722
-12.91715126531602,0.0,0.0,-5.287933350560488,0.0,0.0,-20.16044958979612,-11.328902571183368,5.533248131144392,16.704565695957214,6.412443917717774,-7.745972747185067,-21.744365073352707,0.6742011579058651,0.0005815752142040435,-12.729436179749193,-0.9670867518577817,2.6299988170295404e-05,37.05314808644418,13.489044563961675,3.8262269951915306,2.036449558183884,-1.8854496035183528,-13.52749299261445,34.98109732358395,5.452388859138263,-12.191367536375779,28.441785338869636,-11.900019122693516,20.791725472758703,122.45453162252838,-0.0006567578356067649,-81.11479912347569,135.686022124665,0.003634954527021931,80.80049062480138,8.367284939333352,7.507365905418643,-0.01141091024180265,0.03923268427332081,1.8564916219571856,0.00015918426755866252,-16.158491401066858,-0.6342260532203078,-0.5839779279442457,-37.890062052332034,-0.37292059701486235,-0.7773017153803057,-1.9719552984593332,-2.013719079298047,9.880563454519246
-14.712659580091467,0.0,0.0,-6.20336860693503,0.0,0.0,-19.74895855569832,-11.840441008297757,5.150798344977561,16.484141377701654,5.617625889518071,-8.166526897230044,-23.295187171587497,0.2249260821209912,0.0012212703958257543,-12.50867529548636,-1.0042705317831582,-5.169713758610461e-05,38.306558033256735,13.46966932425859,3.2368014597609456,2.6898379831347716,-1.667377594246984,-13.523863119780001,34.50897166924797,5.53638227718396,-11.847004516481054,28.766784321817966,-11.945174164842387,20.585888795138235,121.82893500017383,-0.0020086345133351565,-81.63038400594527,136.2418149924138,-0.0011571200090150714,79.44599018757603,7.401817437037103,5.632988459277087,0.01174793570264435,-0.24385622895149872,2.4435175424811413,-0.0019478732676423889,-16.190156733320077,-0.48700648177875244,-0.844304321287831,-37.92003408016263,-0.1397857610559646,-0.9646005777084343,-1.4870656843282493,-1.861693824066815,9.22732340113508
-13.648656642905195,0.0,0.0,-5.948438190264432,0.0,0.0,-18.853723096084533,-12.667278930439682,4.790092425419708,16.314782816732688,6.366543172947624,-8.73405890551718,-25.635975479419713,0.40303688372359076,-0.0020293325718965935,-12.163149819606579,-0.8339409873711923,0.00030790740626123543,39.442549543252596,12.709389603166843,3.336913359483213,3.086084866209527,-2.1177170339665747,-13.1700718579381,33.43757884611685,5.471732641219203,-11.993599680753299,29.378442704267414,-12.317388232393027,21.306576247657183,122.02340024924021,0.0009266390616500787,-83.41380677183696,136.0632076012254,0.0003942683023368649,80.61480828404804,4.1984735180420945,3.7880352672949824,0.003943457581869569,-1.322392613857882,1.3618836800702532,0.0006553967601548692,-16.183478010885217,-0.1985680915730754,-0.9760884837114765,-37.912558720229086,0.17694017311035326,-0.9802384769866218,-1.016671416180491,-1.8939804178289503,8.693825969162337
-12.073229956784461,0.0,0.0,-5.194839055945479,0.0,0.0,-16.78630882906479,-11.387321449765615,3.889585144140414,15.66516501422632,6.59737764777673,-8.250715520141668,-29.27543798961393,0.6468516909602217,0.0010506400041590507,-11.855122295391716,-0.8097858346636243,-0.0002693091544512686,40.67298939717156,12.678818117438528,3.020726770006974,3.208513718956197,-1.9641564502596025,-13.185513745118017,32.81385533926325,5.3437885579736,-12.063397442301419,28.240447479796217,-12.281374805823978,21.47955991568962,122.12400529373312,-0.0034318557159938316,-83.5652483159398,135.85081277017213,0.002335954543543846,81.59546107639716,3.135570440242381,5.783067679608693,-0.008147347672506727,-1.6587340159767134,-0.8572684961864294,-8.429048828466758e-05,-16.572597221159615,-0.4419920845203595,-0.11135313784580494,-38.30532073435975,-0.36934241460772943,-0.26709940584783903,-0.8320145826469134,-1.502574269254821,8.642409519068622
-11.998526124441613,0.0,0.0,-5.625129641316409,0.0,0.0,-15.238617228094963,-10.764480233086159,3.4327399379070522,15.29656587089075,6.270889360742179,-8.249441150660662,-32.11184924110081,0.8341893495138215,-0.0003338443549611763,-11.496014446351738,-0.7593005165546194,0.00037360090149515606,41.27103893684632,12.492550044796953,2.275151134488306,3.064242656055207,-1.7549849626072715,-13.408810595763008,32.78003406363551,5.3705867366566045,-11.293229908410327,28.536874647614557,-11.939924725008899,21.364950621352712,121.95061035845771,-0.0021093399765005944,-82.55209009726299,136.02564938568906,-0.001640858210077308,79.83499045347646,4.949406000446411,5.26808851153484,-0.012657316330251802,-0.939974592636443,1.4086120745670616,0.0045431245955958625,-15.826368671824367,-0.5568069830600925,0.7927479908584801,-37.55876269366334,-0.8107562957065335,0.5302359568036121,-0.7542753111164648,-1.2482926098369163,8.187171999057588
-7.081484420942327,0.0,0.0,-5.382741533672192,0.0,0.0,-15.519363103029857,-11.108027028999208,3.8027590032643555,14.95024614565865,5.897108615654966,-7.938193646665322,-33.586731047565344,1.0603313212542291,-2.0227670658580518e-07,-11.28382836746502,-0.5555025232608,1.756837232239813e-05,40.572259856952776,12.295219852048408,2.252652108121202,2.5726097372831225,-1.9697388009870846,-13.30478236337573,32.599383169940786,5.375878056630532,-11.143832066314319,29.011890255183662,-12.041851243681867,21.443845495335495,123.03719468068698,0.007125380229768458,-82.77481697768934,135.24115535571343,0.004621019506595939,81.03841910847667,6.450089326626718,4.012769405756339,0.0028577646744963954,-0.7124027329801434,1.123691082869381,0.0015051729961549586,-15.603597782742442,-0.003230811386880688,0.696763899765228,-37.33442406430162,-0.2609832671137989,0.6460524738421334,-1.1341728200057377,-1.2818823833690793,8.638475021572154
-6.8812442460294765,0.0,0.0,-4.786355654646258,0.0,0.0,-14.799374002783278,-11.488393286638262,5.072786953245015,14.367527068911787,6.62416503164076,-7.659103229739855,-34.49547670345181,0.9309343155997393,0.0003343742595767353,-10.924131009653527,-0.7413713863516804,0.0002725286675633003,39.88192258877214,12.222161739352144,2.1442319639270493,2.433960498384321,-2.0364776555059723,-13.266157581199217,32.50351652672454,5.337966296203223,-11.548178087636755,29.124428058305966,-12.12319047950241,22.33950464915554,124.20723935606958,-0.0015732043414198001,-83.28272306812634,134.10939101788145,0.0015213488201717739,85.5879543859464,4.845819878237057,4.056284694717451,0.011340801327783843,-2.665537154642234,0.4645088874349241,-0.00449413395446785,-15.38327085758308,-0.343347037330241,0.5903632726471137,-37.1153498277533,-0.5375317036073494,0.4212743826343243,-1.0912557311095303,-1.1937577586467107,8.877442962343634
-7.398916235585129,0.0,0.0,-3.987399619546191,0.0,0.0,-13.660892721870225,-10.595126670883474,4.370138394818286,13.944712185470559,6.162906321133283,-7.02145337887606,-35.05333890353828,1.2256131588591608,-0.0004997567083285425,-10.332949639290929,-0.6054936071767046,-1.8366587699915084e-05,39.51782181019976,12.265984469593562,2.4125710931134567,2.5718972271498197,-2.023896041501892,-13.33520829307132,32.82323958703525,5.4986935143417375,-10.761164009635687,29.043945573385596,-11.850986689937896,22.609011206369917,124.91763680234413,-0.0036332784923326046,-81.00043245818583,133.63087807862618,-0.001957507397132631,84.70599695387745,6.0394947573066835,1.5578122914664458,-0.03275666901577558,-2.874474801528469,1.3401047277741507,0.0017512123591962407,-15.082694642024187,-0.7303725679410022,1.1593906564246717,-36.81457058600848,-1.1077314644226635,0.8065819722961355,-0.15862560533766654,-1.03971603064977,8.80415258878629
-6.9613097640926656,0.0,0.0,-4.8157575305844516,0.0,0.0,-11.449165725053703,-10.591582113328455,3.7847839861309285,13.916999801697298,6.603770978491106,-6.27975603151871,-35.048925005530286,1.4727231193133703,0.0004140406121030209,-9.749901577601104,-0.5608552639616939,2.190098770838542e-05,38.63756924336856,12.559648622573205,2.4563820846990283,2.22252960456238,-1.7556187140322947,-13.546109144281354,32.713179471394724,6.144656195955647,-10.592319321138532,28.536245904312256,-11.70067339887208,22.33955332268437,125.14500652290583,-0.0015473900821382533,-79.43406064711687,133.8383084713405,-0.00038857526350000626,84.66398049393658,6.909992344435494,3.101264850942089,-0.048275478466732864,-1.7976786230011768,0.3559068774448583,-0.001609674993869127,-14.561083337289304,-0.32616226003090115,1.9271964501557233,-36.28403728646514,-1.016470763264794,1.6695841736236563,0.12759785677708757,-0.7812830000389616,9.01456982071372
-7.385600535229673,0.0,0.0,-5.560692512429661,0.0,0.0,-9.553863244212685,-10.527450187138138,3.9106069606275136,14.128948146308034,7.047991065414897,-6.134215501759756,-34.04332510237373,1.3487563527561404,-0.0006692029212546554,-9.416127692478758,-0.393323215973595,-5.772871206202283e-06,37.62728308000658,12.70305162420781,2.65715621713583,2.163300496207529,-1.8546681544418095,-13.265652503726871,32.43053762534867,6.454033657430201,-10.826370713929483,28.416467403132636,-11.861606270273871,21.821861716253736,125.88989467304773,0.0009632059361492738,-80.26122231461949,133.95135493148757,-0.0024400632195822184,84.38702639392636,8.014116496131903,3.394532072605264,-0.06018165200564191,-1.8255587917880602,-0.8361718105963958,-0.0011296711138708245,-14.513151494833583,-0.3055454155775766,1.3439506136844304,-36.24127874448893,-0.7814230491802349,1.1353429513080444,0.6843851531728875,-0.6499947711086528,9.380256798202758
-4.972175366225109,0.0,0.0,-4.343347717337246,0.0,0.0,-8.09399188822086,-10.321304361209831,4.838622116314195,13.668559657861563,7.4290311157459445,-5.109229572235814,-32.33861751128559,1.0933474390121103,0.00042993325836319376,-9.033965844578761,-0.3200645868742861,-3.0670749896860296e-05,36.49745544646588,12.95248004094238,2.4893509550032564,2.22038285064928,-1.767976608258536,-13.799003781916845,32.45318053041135,6.24534617946447,-10.494216233021971,28.01320157766882,-11.664549036543297,21.122481444131132,127.11778768782246,0.003818186953829629,-82.02881704967142,134.76480973944382,0.004992811572114758,82.72384791681586,11.62274077138131,1.5744726837608445,0.004971685078198315,-1.4974932852645013,0.29522275897372185,0.0015255571431567838,-14.144422456524762,-0.21359839110563686,1.28682218691194,-35.8725308606697,-0.6748658956074246,1.1163105762788712,1.417456802182714,-0.4247530966482002,9.737104404368678
-2.626357213967869,0.0,0.0,-5.64684951467017,0.0,0.0,-5.797418095206393,-9.888622680129227,7.137331321749921,13.692395729711238,7.595597969123858,-4.694410782287453,-30.733613395729815,0.9449541587321851,-0.001136016717060529,-8.546990435512301,-0.17554999674585137,9.277967818063617e-05,35.26368724739829,12.678750609467142,2.111071075398939,1.940950828763462,-1.8610109634622294,-13.838615345758305,32.2421863472333,6.460988440105349,-11.440706241419052,27.09425182082258,-11.725531768124872,20.673753651452728,127.23044590393259,0.003166662938110865,-81.78914035693148,135.93654710410556,-0.004821567870826749,82.15508616656857,8.995171282962886,4.33779430811939,-0.01696300029106717,-1.1902134824810349,0.6748134296869549,-0.00464501765922643,-13.079827682699552,0.14413561219807708,1.7117755128310268,-34.80278241515962,-0.4998329910933562,1.6435207786552057,1.9213530085315975,-0.4157399114817233,9.747497176892205
-3.4186632010452875,0.0,0.0,-6.507564852064296,0.0,0.0,-3.830237279810107,-10.024077878810276,7.985376089547851,13.89602973064137,6.821249774403789,-5.312117726331471,-29.22559083113289,1.1686395684276525,0.002127926922531598,-8.377659724367835,-0.011533260144138476,9.025201288485089e-06,33.9164923917261,12.54788181539065,2.383171314094655,1.6406689621154356,-1.878968664397712,-13.163459522966788,32.65413194712007,6.489047571693271,-11.453853413407987,27.395052091165635,-11.848278258402257,20.11213713226214,127.13760835850185,0.005559504911219844,-79.91815104375587,136.68381355159391,0.0013988674185512354,82.47781606564999,9.350553435189534,3.7802145482077636,-0.02320275460950469,-0.9404673432905533,-1.6075640192215592,0.00018349761280580927,-11.881765258258605,0.702394198326884,1.250818959949427,-33.608734142066346,0.18938914586255223,1.421957696257527,1.983568488023483,-0.2729923128762803,9.834759697918688
-3.128524506969217,0.0,0.0,-6.501468778144662,0.0,0.0,-3.0239492744835466,-9.708750913853118,8.179969010580473,14.106414223787093,6.315636662951461,-5.828772172708799,-27.638623081205402,1.169837251649842,-0.001244193179954936,-8.43372420451831,0.17450755193355502,-3.388568457103955e-05,32.82468077143324,11.951932281937012,2.485346202763146,1.6078903112545357,-2.3525982030396,-12.844868697232007,32.78638854591571,6.719609153806035,-11.355217805079542,28.405526567444692,-11.27908957224642,20.38352005875346,126.72197119841266,-0.002757938931747304,-79.43089386327578,136.95569686318296,0.0008115166827252821,83.2405453347964,10.295951042950275,2.36699166215311,0.001306955359044209,-2.0278564723360457,-2.3517787587181247,-0.0006834693757003598,-11.994611417213903,0.8169624085029904,1.5486956780748915,-33.71867689155497,0.18556138575057843,1.7410584904316468,2.443536487278924,-0.5449215328530655,9.29869450277062
-3.245896583815669,0.0,0.0,-6.7634014114871555,0.0,0.0,-2.0792356784807198,-10.00636853254042,8.378765531957345,14.556408846963684,6.80154782601695,-6.398563933272463,-26.227396302672783,0.9265938461583068,0.0004095341163482128,-8.698768178348772,0.03842938244310624,-0.00015336024134034502,31.913932106317446,11.40328936845433,2.350263856215897,1.5944731486388188,-2.6109586502538193,-13.349072812777315,32.81403873881323,7.014266898652055,-11.35027823995295,28.525142212963427,-10.966945207019723,19.959988702682114,125.79815786501007,0.006169142822601124,-82.70692123182863,136.8665074879146,-0.0018328132922372656,84.27358390042097,9.326647164012366,1.2545957941463617,0.0008393738359846082,-0.2962627389733584,-2.10837778306556,-0.0022771336634847487,-11.15888101533253,0.9793045581982566,1.6193747845462743,-32.88238396901609,0.31021451827177426,1.866801562912144,2.8731752354822095,-0.7804637674932339,8.367498335022464
-3.297564959191824,0.0,0.0,-6.651234216735666,0.0,0.0,-1.0650587586059175,-10.43059227787478,8.509650034337259,14.645732003649334,6.849019826371327,-6.388866551318275,-24.548382171905576,0.5751516327336207,-0.00041394244309353055,-9.205824778621631,-0.36149214522000767,-5.548886209676234e-05,30.70699576871207,10.958550435131995,2.7008184909144535,1.6548207333693317,-2.868044603048563,-14.083335507277132,32.84930463384447,6.780717120070448,-11.930482335155585,28.62192781323362,-11.159535530287986,20.061874329889594,124.30247582195358,-0.01153592930665519,-85.24976152344183,136.03209214917706,0.0029282622942659736,82.83373153336544,9.525345375547525,0.5807287936684147,-0.012790726892205508,0.2632542081677165,-3.1092683276103803,0.00920164515600169,-10.244444377114533,1.189577028488625,0.8008715103245408,-31.976764815616445,0.8085064302582484,1.184400029850889,3.1751003032453733,-1.1166700049632114,8.089270184705782
-3.5163811612529674,0.0,0.0,-6.714921933055489,0.0,0.0,-0.29058398978514116,-9.810093640419518,9.33137056313856,14.930974612970246,7.153549326908147,-6.484532107958997,-23.28698364868938,0.11486164657391108,-0.000330976702205931,-10.175582703201568,-0.8953780032141652,0.0007813497461291188,29.883700641633546,10.416429239489178,3.408587662494234,2.0103745535228854,-3.2665762730526366,-14.243282234531474,33.2482090888837,6.307372979959462,-11.70610456184306,28.7776673790753,-11.72616904422215,20.73779494637795,122.41557904757632,0.013652845483572327,-84.98012018343323,134.7027479805758,0.003721506908411829,84.0591891065341,10.022770767122056,-1.6280547064687503,-0.01095063536867172,-1.7309438047444068,-3.8795536000006994,0.000317237120037769,-8.914436493439386,1.3104776171557972,0.4390709988897865,-30.64992046519189,1.054763597048273,0.8931311264212736,3.386568595585678,-1.5410821344834011,7.851295368921502
-4.248002629643274,0.0,0.0,-5.732653290426694,0.0,0.0,0.13784485972448832,-8.930804977058223,10.36530144270819,15.097798341593792,7.305318129129972,-8.266653212072384,-22.43411103948456,0.033443535788789586,0.0002915442136115033,-11.061624717188494,-1.2467732378494583,-0.0012444990193690095,29.302217664218176,9.415760317006455,3.715075848535765,2.133418733654017,-3.6754999016664196,-13.0320993038562,33.435692677701425,6.314447983225259,-11.003732802685121,29.122493300789706,-11.855980438477413,20.49969224346086,121.35697592324203,-0.001274393257635082,-81.35441357890382,134.32791599912926,-0.0013885928943134704,83.26587662863861,9.081036004376294,-1.9359122579042771,-0.0021490655777904855,-1.4652344909926067,-1.7440138628059296,0.0021145119057959733,-7.264855059610841,1.8798241959391955,0.31156213488443213,-29.006047446750795,1.6308215380200823,0.9856302966385393,3.34378123223628,-2.1514823609753426,7.419124881487944
-4.25212670158344,0.0,0.0,-4.374377036190137,0.0,0.0,0.242140599971038,-8.515507180337137,10.606010404851803,15.052008563519662,7.975496475881384,-9.273170010638848,-21.92151240917658,0.4557976877637078,0.00010281677382262109,-12.178749184505897,-1.7426970595529065,0.0016292613400516146,28.98760320804994,8.20732281604387,4.202142386671789,2.4860866130411723,-4.131245508687732,-12.701408860935322,33.83604630121724,6.046801093314453,-11.33089742004922,29.743033302513194,-11.919568653153126,20.434804601776644,121.08212232940252,-0.0001451428329668525,-78.89337184427725,133.34587306003627,0.001564274210202272,82.92668788390031,10.576972265508944,-1.238098247827741,0.021055052302326124,-1.3478836702917545,-0.18519394842294412,-0.0019801400260925557,-5.8450341767269585,2.539558679395676,-0.10639406157496062,-27.597297603257996,2.3983325742642574,0.8420477532612559,3.2576824866303946,-2.714852035487471,7.028994839516541
-4.266694338626424,0.0,0.0,-3.4963128401626324,0.0,0.0,0.6807448328484363,-7.936195571108476,10.698821773343946,15.225889149398029,8.739975862907148,-9.562411958021704,-21.346486482861334,0.7181542988466935,-0.0002177151537249473,-13.925210661469023,-2.472078596646884,-0.00045256817000647074,28.330420227624224,7.398965987587865,4.235330563533823,3.133454774691134,-4.500430365766488,-13.054657636584817,33.94689552408064,5.287244976211211,-14.069603817660187,29.67546479428457,-12.331761874394516,20.110442799597553,121.13541546860311,0.004956225053722639,-87.66667629263614,132.55577230888525,0.0008145373887881537,83.44551649864914,3.8987985487597845,3.1252293197301957,-0.09601988498304835,-1.0213766520249834,0.34040706996325354,0.0013578345801203398,-4.178362121987648,2.2447505243084356,-0.25952028289092605,-25.926977364110332,2.1812088820643942,0.590500769908109,3.33338619277918,-2.9311302116976474,7.433433765339697
-4.342749019787516,0.0,0.0,-3.5672056233074665,0.0,0.0,1.164436877030769,-7.916520747371608,10.10215266789009,15.704633200351118,8.768933884789488,-10.227281380139113,-20.83778032410637,0.9570910430285818,0.00020479551387389474,-15.575934229779566,-2.9434648919174715,0.00028531598063115724,28.02570845851248,6.7527652177520485,4.25069353274209,4.032426199760684,-4.928287252240662,-12.750638468444851,34.288211624735894,4.769027937294753,-15.451525252251358,29.947123744596635,-12.686249277248079,20.15834800542736,121.3006317513831,6.949006519102467e-05,-90.26197802399369,132.26614159468798,-0.0015032417140496482,82.71075060916773,1.8853146264185927,6.152586603494901,-0.0001926833234767278,-1.8532074561202874,-0.20417086131727707,0.006665125061778206,-3.3353590572556153,2.130069396478954,-1.1517162525161846,-25.083150400255953,2.4050517430244285,-0.28077646390755134,3.5255049531177107,-3.164901098286726,7.661212534766062
-4.50189071625583,0.0,0.0,-3.1210696209884126,0.0,0.0,0.8938718411342599,-8.611756892967948,9.044991505455291,15.605950124985078,8.348025740986618,-10.247952767783003,-20.386248906247282,1.3514430920725107,1.1199438305976341e-05,-17.24579669381498,-3.211944775118749,-0.0006954896605270371,28.04962597707513,6.034315942371475,4.713131961979615,5.015652510754759,-5.378480699861897,-13.070016918243473,35.387365776838635,4.353537914146236,-16.15732584557475,30.750157314707437,-12.81530546623348,19.903605623390323,121.67220764700755,0.007566924649838615,-90.53825591995752,131.68362215349032,-0.0009315012870706509,80.05080755236084,5.080757050058458,3.997313429099053,0.003933447443867909,-0.9281865565505846,-1.1619865953592008,0.0008728601278199479,-2.642120564510126,1.9796680393554498,-2.0910860214914155,-24.38296006940112,2.6131337313170104,-1.2093522562407593,3.535685726999037,-3.438787581023428,7.405600789909262
-3.6655373906744764,0.0,0.0,-2.297897782967637,0.0,0.0,0.5437306439060754,-8.49979458471845,8.315685687113728,15.28683688708344,8.252976674017916,-10.862363395826092,-20.0169156660697,1.3431035398431161,-0.00015260812614824358,-19.712239344333522,-3.218844222977881,0.00027941247810442274,27.887806865146285,5.503058402355058,5.028514206972184,5.979215602871697,-5.8666107680802275,-12.66387619686773,36.08182406638065,3.857805385468828,-17.890316139807204,31.773851227501446,-12.900465104207067,19.57104538015364,121.91796958426788,-0.007516066391376176,-84.76280522615933,131.75356770153974,0.00040861736478612915,78.90121442445634,6.060703923831212,5.869590469620278,0.011977559693627102,-0.1478278488308128,-1.0331411425556374,0.0006278738995191778,-1.7334559832165102,1.6891142552319152,-2.167313101265793,-23.468964018416205,2.3714586096841095,-1.387901725696692,3.147301675443838,-3.4419526875693354,6.875893300671699
-3.250598194409692,0.0,0.0,-1.3500059624458711,0.0,0.0,0.28620356801183566,-7.705053415678966,7.347543874636833,14.459208366361567,7.186641429659808,-11.397882238079891,-19.326393797641906,1.4120222376009675,0.00047044828690994035,-21.890256909385073,-3.2154991775887,0.00039474812236709985,27.508023885478252,4.9781718077130135,5.500489579266712,6.853090263207777,-6.213202660761486,-12.024840610942437,36.204612485713575,3.5034329729864746,-19.6415541701664,32.426246766414465,-12.932035754783568,18.59356188621559,123.49501754916652,0.017176335645751967,-83.43597079336794,132.29052848022263,0.001263113648680671,80.125216713971,6.762568881172549,4.617164224241083,-0.0015444307333014758,-0.4806944618068575,-1.0635386844886934,0.0005123950011471212,-0.9731579633453301,2.08121192270156,-2.6099290881655905,-22.71099573033269,2.899509071851707,-1.65388913719717,2.905367030916621,-3.485979967990971,6.683303517685964
-2.9903421988187056,0.0,0.0,-1.4351328871835065,0.0,0.0,-0.3129558901816311,-7.8288623705049485,6.790527349713488,13.614965281913225,6.951708528157487,-11.711768534364246,-18.31770237357757,1.2663758208719968,-0.001020558580576117,-24.346349872175537,-3.24757983114246,0.0006810230767206418,27.21590127020326,4.599035892628224,5.5945194370299856,8.251953300885338,-6.573384735337102,-11.15715383916155,36.09087167404043,3.6590500578698766,-20.61647484248881,32.72913619212623,-12.669081078980243,18.305315771686693,124.61884854508774,-0.004169908427332768,-84.37678665850659,132.61626768253853,0.0008428516958185418,81.17832876635723,6.174971445669637,4.233193009385743,-0.004438438414555319,-0.03096693627296212,-1.2938676695491622,-0.00031787319130457535,0.13403087879970965,1.9681417818960028,-2.7411666960301697,-21.600225221828023,2.843056690567447,-1.81779610279848,2.805590175534219,-3.5761371764601666,6.371723038340192
-3.4565567948971485,0.0,0.0,-0.8968594678274496,0.0,0.0,-0.7782653152797945,-7.264242813665441,6.502209478020921,12.2692798990303,7.707030777839754,-12.109604401133996,-17.097225630917002,1.1627787413122899,0.00039180111465194874,-27.556980237114672,-2.7884785127622203,-0.0024832463410268918,26.806460958104065,3.891940859219959,5.380125123061774,10.080198733435632,-7.485611111287747,-9.982746034308946,36.8915192686846,3.6308351486681327,-22.276692442438332,33.06911026260888,-12.397807281333385,17.51057266604074,124.4803564181493,0.0019641768242910445,-84.7105375928451,132.994642960619,-1.6325434515275384e-05,81.91320330076265,5.22106830095098,4.519160403902922,0.004420800545613742,0.25568084941680175,-1.3409818354408276,-0.001011406228439275,0.7889144206644851,1.8004531166011997,-3.6559907497942143,-20.928707976175698,3.0257366032528985,-2.7304544217545814,2.8366337492703195,-3.9848197920017006,6.293204372488642
-5.014185016997148,0.0,0.0,1.0699891421589307,0.0,0.0,-0.7754768045684007,-7.210813678806477,6.057789234382863,10.626287710835268,8.384450627956587,-12.424905135214452,-16.370567440203548,1.326861798503002,0.0008942833544239595,-30.994802379792063,-2.3573503673029523,0.0006906721795257584,26.627440507332764,3.487102483235131,5.259498975925512,12.05416854704822,-8.12483930089101,-8.844820371760488,38.11417680805961,3.735132062043301,-22.380111757523988,33.86707208423879,-12.025842726187243,17.442600700961986,123.47101876891418,-0.005399072722746818,-86.01034892434225,133.2661198629557,-0.0005126121863252521,81.51197621470904,4.5762919561498085,6.643727459483401,-0.02088078371672141,0.40869022366772806,-1.0779742298543693,-0.004251093932913309,0.9497235403205384,1.9174884743885534,-4.1022514083197725,-20.761876957475696,3.2994808577103045,-3.1020944244876607,2.6889805217486877,-4.0804738019327225,5.916433358408452
-5.6562071348440615,0.0,0.0,1.528518043026731,0.0,0.0,-1.0461979226472005,-7.0564349992404365,5.595940461672941,8.83190763135589,9.047113518787526,-11.760812067520133,-15.153436088050027,1.1374125257896275,-0.00131649137978965,-34.07033034843391,-2.3644269332488586,0.0017635141920775202,26.29225243019451,3.230064795240491,5.246479107334949,14.1369735537446,-8.721364939834059,-8.738220843957977,39.28157337862432,4.13307394026235,-22.097635451709937,34.90916154190547,-11.296297527736819,17.498353110814257,122.50763849175397,0.004537426011672412,-87.98296437384859,133.1194176168164,-0.0004894169893005702,81.33545672922796,2.098335074141169,9.124574066438042,0.00421417001425123,0.0011026305437737216,-0.058476170127515,-0.004446860770501267,1.2848503732446974,2.2323441713300953,-4.584062027926116,-20.42375698469243,3.770112276587547,-3.4335929967057814,2.7875153222512172,-4.297988476548121,5.470388016071829
-7.424723317715374,0.0,0.0,1.9237271088223762,0.0,0.0,-1.0245025365819123,-6.64219789978876,5.552524306719119,6.654014690148955,8.590392474014099,-11.174105816449222,-13.955435344332653,0.5070447232891332,9.453303296566961e-05,-36.92938573887146,-2.215791669294686,-0.00047828673949709504,25.776205632110546,3.3429535233741228,5.282331775110437,16.048624620226416,-9.09600973965162,-8.498684587953651,39.88358639331078,5.085364648988421,-21.57963196544589,35.93831212360588,-10.425763882424473,17.1513236690125,121.67662991824781,-0.008417379815679889,-89.24371600317453,132.62269769071432,-0.0009859107174848445,81.00948104389687,0.9087286115731261,7.88720826706963,-0.001165972641515389,1.3381036938806696,-0.4348490320116481,-0.002752320866451772,1.5800798208002715,2.39508623004043,-4.9531581785838075,-20.124103914948826,4.057721430029385,-3.7167087312301352,2.775867559830155,-4.4779596270787785,4.935945388019073
-8.218057173278218,0.0,0.0,1.0556364554029247,0.0,0.0,-1.1178579922561895,-7.156700852094683,4.7305909992276165,4.809916889181256,8.396611826661639,-11.099609369117072,-13.201921155683731,0.7850541206867688,0.0005226957583585346,-39.66409695145826,-1.5149555279154645,-0.00248184795336778,24.927663170968614,2.982402928130309,6.406601081592278,17.228845614802168,-9.915426497465871,-7.644389199865189,40.556113701035514,6.112602009402113,-21.281176358358376,37.15804639303617,-9.522037297725456,17.442980347387486,119.67113445765017,-0.0020639297730563346,-91.7942846160311,132.30364756481413,0.0007142769762517476,81.92681465967908,0.13676050410545232,10.268295572225803,0.0019997055560487032,1.7866815923149357,1.3905113225562273,0.0010764536745124505,1.9237817505771508,2.438550755518602,-4.538906616751659,-19.790943470574266,3.945002439587309,-3.3151275054492433,2.21811701138554,-4.635795175380143,4.74922870844091
-7.641722968763237,0.0,0.0,-0.07443028337909077,0.0,0.0,-1.4227773444157532,-6.863709292840305,4.6394612651556795,2.5488408643189984,8.156159907144692,-10.62522199738347,-12.5064103204133,0.46463433709801977,-0.0009112213662982436,-41.94008904243058,-1.1865015660862603,0.0021104826341307686,24.704521534091878,3.1373095592663502,6.5016206331127115,18.859570619683673,-10.277466034717754,-7.49400425748275,41.22081810351222,5.893314129604418,-20.76875906550189,37.714834287869934,-9.54348150794236,17.961785346284195,119.57259741099882,0.001431248505695091,-90.29541233430919,132.27685393376868,-0.0005509000119275767,81.24365537375331,1.4209354289880143,9.032424220077775,-0.012357385680889022,1.3868676813256713,1.9802299098685752,0.0013532702695044435,1.8329717655629074,2.6588685668453937,-4.719229382410514,-19.88365432949573,4.216338618795444,-3.4011873335633296,2.2145968413016783,-4.57525285713832,4.345246062692596
-6.988897738696131,0.0,0.0,-0.8064703959186752,0.0,0.0,-2.2039469943305487,-6.550335751453253,3.4504645820460285,0.8765976628925674,7.969926633132172,-9.484480128295294,-11.827285356834942,0.3537208072995846,0.0006822518871936434,-43.87695020490751,-1.1841608495774505,-0.0004576631401257811,24.688918763807735,3.4294447668941235,7.003495023140798,20.267871140463406,-10.407271956779915,-8.06724004033461,41.44594432598163,5.019140221587422,-20.254425213329622,38.18676951074367,-9.790727149256597,18.00857094661495,120.55165611895194,-0.001284044617370058,-89.31447891879318,132.2377110479918,-0.0008169986934640217,81.1577458501484,3.1037315673619275,5.57383552727042,0.012770829265441007,0.6534646437666445,2.165347298506065,-0.0014678210569638698,2.218229856127751,2.6817508906702043,-5.189148395475814,-19.488032023402948,4.41124904564924,-3.8300435719442674,2.3200706586156667,-4.303394484573961,4.10889243660877
-5.87179855662624,0.0,0.0,-1.5114113419853452,0.0,0.0,-2.9452563264716565,-6.118873350789644,2.5229367369760913,-0.7239288374393138,7.237634634724584,-8.167441715806426,-11.124845627550947,0.42268148512214254,-0.0002088359584105362,-45.3084725905201,-0.970039584816,0.00042736264037624225,24.256819187812116,3.439127926591348,7.2811296499282605,21.021709316794308,-10.799166275168051,-8.497024005896797,41.40299500271955,5.197817752079182,-20.997144808632257,38.19671007815995,-9.767782942611904,18.216467354621958,121.44227795861221,-0.0007767043010920879,-88.9186282028119,132.59313601270762,0.0028222127079781207,79.35184346520604,1.8759327595988962,4.500534339940176,0.0028534183467384382,2.052770800983129,1.8069279855066631,-0.00381001791274027,2.5360073311669757,2.613738998689916,-4.7821935081912885,-19.17799145786052,4.197688409930493,-3.4765151227090674,2.113580580786466,-4.235143105235666,3.9361110213690518
-7.581293830998584,0.0,0.0,-1.7384298128655122,0.0,0.0,-2.7568582365795153,-6.327607936897822,2.9235457236647737,-1.4103763951349566,7.450030900551243,-7.874006046461462,-11.086008179923232,0.26387485057425986,1.034403754520263e-05,-46.27835893056443,-0.18124435070166664,-0.0009125757612146636,24.027036181871974,3.311148783554188,7.070189996682747,21.57188964603213,-11.341673322934799,-7.743078270758287,41.72298970583002,5.247352653951133,-21.75361213866376,38.59606497669214,-9.85319252368857,18.513707787998083,121.436969143559,0.0021090465727402153,-91.70239955531778,132.9946462343091,-0.0014682824855460712,76.06127889857815,1.6586096455463215,6.666943655188572,0.0032655761430751013,1.8621129204639784,1.9684401436621493,-0.002067196484293155,2.425899499235094,2.4988463163693746,-4.629666173007989,-19.288430042363064,4.034569348747774,-3.3772079834465925,1.9142710529957472,-4.404056695183532,3.762640826336942
-7.451206728689643,0.0,0.0,-2.662020848942151,0.0,0.0,-2.973405257133716,-6.846024605512066,3.3151864401616264,-1.3946011536241267,7.268563636998578,-6.934973904083421,-11.289680957837211,0.24521655440928591,8.808063858082167e-06,-46.97364100317432,0.16578053293648604,0.0006055708002917581,24.221877593338785,3.410140938627182,6.921036133436816,22.12120329151464,-11.499612380369824,-7.383964133064865,42.02165788507935,5.179725024606813,-22.273879135982213,38.85636851876346,-9.910869101733619,18.77131341229861,121.38939689746233,-0.0031219144552657014,-91.57483375716363,133.49334681218775,0.0019350745314333916,75.00606539194385,2.4795984341952013,10.33728101234036,-0.0105557566680497,2.008661791182217,1.6659391452366545,0.00030506419716692815,2.4781215050617607,2.1911901076294593,-4.430338021957134,-19.23283412285127,3.6750557611655355,-3.3058297940700525,1.9772053199932844,-4.296921645418744,3.511374095814015
-7.8735711130204455,0.0,0.0,-3.347815200165021,0.0,0.0,-2.6881392029924402,-6.439229539239199,3.382901441534064,-0.8969066325521994,7.410543997254432,-6.174597199912014,-11.447647641899614,0.13805318656088214,8.547851025219753e-05,-47.22225837926072,-0.30040305987095595,-5.9317905732159244e-05,24.381779376815672,3.615599432327517,6.859189518343661,22.411530254887527,-11.259543751168314,-7.621124370155559,42.26924256070893,5.219001766024154,-22.499673394457464,39.03285512231789,-10.067915251936936,18.95645130836209,122.41063188972855,-0.006758782775789832,-86.71984328982116,134.13197699244495,-0.0003373394416950385,74.48064081822716,4.541270890454265,8.097941155684676,-0.009251951871552377,1.8499054078659476,2.975060010514333,-0.0005677274335364861,2.6975174927849617,2.3836557610967364,-4.160759548320012,-19.023551554718853,3.7541971049893723,-2.983700177177099,2.0343697935438407,-4.233164539840507,3.4881244814801056
-8.182669467296307,0.0,0.0,-3.646668157593442,0.0,0.0,-2.4895087392964514,-6.963484645364363,3.426944653491332,-0.252511973745909,7.5299409420730115,-6.105202629688833,-11.636074155032665,0.37736423574494493,-0.00011679969115018012,-46.75625912577474,-0.5886296591327987,0.0005495979245706859,24.577241915000364,3.7087981190260195,7.085464938153355,22.29218371831892,-10.918558430816564,-7.496025555524541,42.28518434082813,4.84708564216498,-22.780306703653082,39.06892148099337,-10.162472621808226,18.967460387880287,123.18307767874556,0.004839171007817779,-86.6902801002223,134.3413354941738,0.0009788656051914243,76.00803264293702,4.378348703512868,7.409180855907943,0.018786894393926445,1.4532340399148351,3.1260641500458033,0.0035313919557901437,2.737333996764912,2.466762383643121,-4.028125491276673,-18.988269215523285,3.782353082840982,-2.829503254296606,2.239307972803904,-4.213297014032991,3.6346077220968938
-8.373191632225199,0.0,0.0,-3.022122332440749,0.0,0.0,-2.4262317291276947,-7.674344326413683,3.3489283404182992,0.3529412122090675,8.450170539864367,-6.512837000798605,-11.824533447030657,0.71492694161203,1.928480582614154e-05,-45.89180787655607,-0.7830924149959632,0.00034743560005910147,24.472159274252,3.6639129997055977,7.8491754943973735,21.62344446789218,-10.691569989403126,-7.015183605548522,42.056800736897145,4.321897395385436,-23.486623989167356,38.91371408191837,-10.472746622940498,18.630706384576527,123.51236221695213,-0.0016056860256337111,-88.47943655635447,133.98777672449242,0.0024860562320596176,75.20013924730728,3.482644497538846,8.810305391492792,0.010401625147953673,1.8266398703449571,2.517264715459151,0.006948926945575611,2.8303180783993462,2.516586362214914,-4.646858917358188,-18.884082800679092,4.057409374377843,-3.3866218804491846,2.2091057748768064,-4.406147937072892,4.098185985486441
-6.330972155256885,0.0,0.0,-2.3336879691434955,0.0,0.0,-3.080759441536011,-6.990664560308571,2.758589381624084,1.0108865230922763,8.835796916694486,-6.6909024685198055,-11.708015994563818,0.8363418744466236,-0.00016832927565017239,-44.70451867963939,-1.6961268156611509,-0.0015839789077688638,24.330493002833848,3.5931081576744157,8.380708858443052,20.819077623339012,-10.347659685259128,-7.443014820558173,41.674545399829576,4.391204236719131,-23.82996438892772,38.898717499399886,-10.493493962488756,19.109583590971084,123.21308274664437,0.0018756139600244884,-93.72804319317592,132.74985877180634,-0.002933058400714409,76.11300545743782,-0.03963019770718065,7.636707865264477,0.00034887724118224604,1.539422873228364,0.7696878235230677,-0.0020662195964191313,2.981832449973234,2.1526100211145973,-4.681993632781381,-18.72261119635499,3.732223030580055,-3.5542660559104067,2.4263749112239714,-4.38019057247934,4.153780726764167
-6.281579057726697,0.0,0.0,-1.8413796129498319,0.0,0.0,-2.983356462416182,-6.890257835582701,3.870722546274127,1.5304924889456477,8.576451024531716,-7.141548747983701,-11.208230665096027,0.554366443162306,-0.0001463799294079548,-42.97310342141264,-2.301783906456783,-0.00015288266526522202,23.821631672855737,3.3841095427158248,7.241036299527345,19.657474657151674,-10.234305382647042,-7.883802581957557,41.08382579910913,4.887742936466412,-23.308100452870853,38.58380090408279,-10.27139034944234,19.61414705624386,122.85074804390415,0.0011744051246102684,-90.51596103029547,131.84757001852256,0.00799130777203079,79.32469143100535,1.7706715869877212,7.4336287620835355,0.0018608819224672734,0.7637840683151381,0.06112084791087275,0.007749826515313005,2.845094269013421,2.281977316786034,-4.218080019529042,-18.872408603246342,3.6809363724569226,-3.0747201648248765,2.5928960729407624,-4.667307218156531,4.065976832942043
-8.382261980890387,0.0,0.0,-0.5085454153754743,0.0,0.0,-2.22946880031874,-7.023610071451895,4.6800310969384675,2.3812667668220633,9.261334385720739,-8.335157142710232,-11.184644600209399,0.38863890021486736,0.00021263340105190454,-40.44415080070249,-1.9803759839486603,0.002811039578596909,23.45150634121715,3.1148041377241826,6.583244649404308,18.027674476480488,-10.275630334302903,-7.343475329212588,40.441092064491244,4.673778324579115,-22.531292741552125,38.53096288136354,-9.86181298538786,20.152965489177376,123.10486139266561,-0.0009359777880338437,-91.32668460174122,130.72666912327824,-0.0023762613128088515,81.97202372688517,3.262858865834546,6.635132912326354,-0.005046121764537881,-1.1080335424066443,-0.7073766228790243,0.000844459672580136,2.4759466750813406,2.759319486461778,-4.008885686004781,-19.257415478467184,4.047007481310442,-2.7030483863403583,2.840333879382406,-5.120390932138227,4.065067892475355
-8.851300537408612,0.0,0.0,0.10795627015245646,0.0,0.0,-1.800475968754355,-7.6570382769038146,4.826474785949881,3.8629395839593497,8.594193413242916,-9.066476670604102,-11.3263966721692,0.48769291610221294,-0.0001415996338732893,-37.84286214121712,-1.653533502895423,-0.0014315967584454942,23.256800040082542,3.02517084036485,6.8199006763834555,16.393915641552574,-10.124611717716265,-6.863117372053772,40.14738882387783,4.551001878631053,-21.936824988782185,38.21844109851103,-9.425694268169323,20.078139748031106,122.75585189105922,-0.0031389961971731027,-95.05903256588965,130.5197779801177,-1.1814198361740684e-05,80.64610314047079,2.1636975620183514,6.6924534632049335,-0.007913082821483244,-0.28487646234265035,-0.41041740081876316,-0.001588412191969403,2.4972497109731613,2.8663332014953924,-3.823644761895828,-19.24204060604805,4.077897363955073,-2.4910106005231447,3.1619554396979233,-5.335297105623627,4.3238741466308115
-8.859663543805873,0.0,0.0,-0.10630394746769753,0.0,0.0,-1.2134220049779862,-7.48986227096886,4.642171950257462,5.96331040810906,8.25221662580131,-9.597314354246308,-11.893040517256045,0.6930291408172129,-0.00013006848517672082,-35.82859863870508,-1.7659257888932542,-9.201064221676715e-05,23.605853612139796,2.8547263811531867,7.056836471200326,15.131809081079894,-9.99791648458015,-7.167079126098231,39.92643685288089,4.7202721708578945,-21.922476900792706,37.31426907290494,-9.55151968989449,20.073084450330878,121.52643291176886,0.011865602168636514,-90.88250320416046,130.82590367175794,0.0007572917162423058,81.17912435848793,2.1967487534311765,6.131085556836649,-0.0025432515530304086,0.7156036085035273,-0.6469413299953773,6.915779596040786e-05,2.5518046133284544,2.3967792085132356,-3.5872532177142418,-19.179660698076777,3.554281450412233,-2.445449594508856,3.6271058935929097,-5.39561037384921,4.462623951983625
-7.263657505205179,0.0,0.0,0.28344309024704034,0.0,0.0,-1.3968376443952761,-6.949383607275753,4.604510786196479,7.745681509095566,8.653473734228259,-10.059186859898823,-12.049685123937795,0.6371707118899279,-0.00020288516611510448,-33.420833181319104,-1.9392207910935346,-0.0008750228648190744,23.64806738286306,2.754902907703719,7.298190262981564,13.629018650419308,-9.887208718709248,-7.712348510240414,39.68700428760516,5.061302716582474,-21.274020219454577,36.4669890362733,-9.678167506015516,20.497344300385073,120.69107609463703,-0.01065184318817927,-91.20772345158579,131.34266434936865,-8.196751312796659e-05,80.8183205961429,0.0778238649208975,5.457936062614161,-0.006017438453242643,0.5195012048671361,-0.6048730512948519,-0.0009261985433203069,2.5388230061071746,1.9692731279335196,-3.4568116043969,-19.185500252697825,3.1088914934322345,-2.4826809761720248,3.9480197901875753,-5.4762117585361105,4.557249508969951
-9.125695296618666,0.0,0.0,0.2121345833386256,0.0,0.0,-0.6053659779106206,-7.696958490006885,4.884651008697062,9.37925450203639,8.602602030385453,-11.204867050861736,-12.864378079218229,0.7301258004390805,-0.0002379498498498767,-30.49893860420564,-1.5865574391819914,0.003153677041344619,23.782789718784016,2.7769315490753312,7.424626350154796,11.744175779483896,-9.71325167299166,-7.769096299896785,39.14745463346161,5.270652708756026,-20.87682780525994,36.69903796846273,-8.881727046481325,20.639122344095128,120.59544980183772,0.00044647211774598826,-93.4479998321496,132.1313384067103,0.0004753318557217564,81.63783686831341,0.3051260322440338,5.103047054398015,-0.009308566346382746,0.033690836752276396,0.6746671200495195,0.0012176711391295764,2.6046240740455677,2.219218965698171,-3.3242344590329584,-19.126917873941103,3.292030702751309,-2.2667469848416073,4.033542516887297,-5.72123956586387,4.788057595333036
-8.354216277596375,0.0,0.0,-0.6215499144088265,0.0,0.0,-0.6314700597976923,-7.179490097298767,5.378960275094929,11.23141721747376,7.992083497483126,-11.881452612835762,-13.300484136693635,0.604681408331174,0.00017947582946932126,-28.138606814344413,-1.6233193076976151,-0.003025040927504563,23.83643948093383,2.51501436349794,7.004113055635537,10.177989917647524,-9.705928275773893,-8.084360322364759,38.61178306450376,5.029560605234562,-20.4146341221524,36.76490516103395,-8.36161818591577,20.081388443842716,120.99766324178002,-0.00043176190245737295,-92.59904990934662,133.0599563973563,-0.001111974019556858,81.88798154634236,1.4483676791439672,3.6314694425520853,0.0037149393416995124,0.7243277052240658,2.3616141856208985,0.0016962091735282156,2.7602640182184284,2.270762128578771,-2.935820160154326,-18.977579455586923,3.1961926187446594,-1.8865226300049682,4.211113643844779,-6.085251725057532,5.008379706509246
-5.725272611789289,0.0,0.0,-0.9322633952670092,0.0,0.0,-1.0923438393704927,-7.161630060483452,5.194406545435105,12.389579965984991,7.002562684913033,-11.615643827562526,-14.218839310327219,1.0704935864368914,-0.001519364210109864,-25.704750936353,-2.019777648031958,0.0017984788302860615,24.436139328569002,2.598958181628354,7.478841304823667,8.994150256190302,-9.300565607511961,-9.148204189759642,38.38032903200774,5.0356564331184845,-20.548626292772937,36.22472507609891,-9.429526305982947,20.017494461152662,121.66346457690915,-0.00262635531042596,-90.69051784867081,133.38516245711375,-0.00280200009073534,81.19397183312002,1.2804939537252304,3.435733356883334,2.9933368109376232e-06,1.333664591436875,2.8864525208172576,-0.0009465367731568831,2.916292385835124,1.6753961616229966,-2.9399708658703787,-18.81025603724038,2.644665536499414,-2.111103444536272,4.630756818040644,-5.862296652378561,5.610846865037266
-3.925158530177211,0.0,0.0,-0.5961370685098089,0.0,0.0,-0.9937903442005964,-7.708250226198397,5.368671723094054,13.00033135136683,6.848042815471385,-11.805431212606445,-15.034739277482979,1.4010243452029187,0.0005341213829706853,-23.08735665820035,-2.0819717856964317,-0.0010252216575626575,24.859355559247124,2.8294070405186216,7.800547573138226,7.68836320727586,-8.9495760569346,-10.172168750208373,38.195713241876526,5.284194709382433,-20.908258186479145,36.29155672984025,-9.446129319031172,20.264133332369013,122.47606211029122,0.0035451025505325614,-90.7889712564298,133.18633344689854,0.0017296159896865264,79.82983757933408,1.6930048995954146,3.937053021946466,-6.516989947823546e-05,1.0157548778700451,1.4707870491645103,0.003153699684967667,2.7047793109871052,1.7779251316148745,-2.946717468331803,-19.023457713724625,2.742409963528706,-2.0793816439990547,4.827269171647208,-5.778896931637385,5.852558279454887
-2.472712663194968,0.0,0.0,-0.9379377915470962,0.0,0.0,-0.825677662244682,-7.588374180096606,6.864767981159048,13.785294300239398,6.903068967990839,-12.067069788992786,-15.726594436855656,1.215721180024037,0.0002648138668990567,-20.627135597109458,-2.2153940020788747,0.0011956823710696576,24.931939497471625,3.0856762569816407,6.919570030101436,6.212782233386754,-8.58003915521099,-11.141215172118953,37.84244607475783,5.192160368993737,-20.614553806411827,36.389149022851655,-9.011327261118113,20.42779108216535,123.32983046923931,-0.0005105154367123157,-91.40178263253999,132.76862274704126,-0.0005118871490245504,81.02480800438872,1.5070478568655563,4.3345063904113035,-0.001117359984164548,0.08939859220652872,0.2756077754996151,6.546199191959041e-05,2.3399219826447113,1.8856177114548294,-2.250129475270331,-19.39799102165226,2.5846410263408535,-1.3920241467717285,4.945195414373287,-5.718883915494009,6.005621357175559
-4.258672673949339,0.0,0.0,-2.094772949700261,0.0,0.0,-0.051139668833152345,-7.553961598708739,7.7675608973278205,14.606317986517691,6.905354502131679,-12.103040138833526,-16.550207507018225,1.1507631910545486,-0.0002922172261259746,-18.182659822081426,-2.1711508327995834,-0.0007910203628934069,25.126602018714507,3.7499290241380865,6.801317374255325,4.936105034357978,-7.897985055759236,-11.200506257342584,37.11662712760698,5.483804068546009,-20.517324625241947,36.12343525380528,-9.445078780678944,20.72265230748725,123.64134490752086,0.00013103177697864658,-89.91778983733634,131.86983451561184,-0.0008456323112797627,77.79861563760791,1.5376178281445667,5.268551962296874,0.002209996439437911,0.8950764622073626,-0.11183280544891243,-0.0004132780190677077,2.430364531098011,2.0852634145357936,-1.6011292782533315,-19.31527600044377,2.529823949503064,-0.7149216211302518,5.193078738419966,-5.237687988081248,6.41278102481203
-4.6833145241816005,0.0,0.0,-3.1243967457115196,0.0,0.0,0.5450752343800672,-7.8035360800046965,8.595759828927191,15.103940689822856,7.887789488878965,-11.560488499899524,-17.28980125887987,1.0524478253836929,0.00013088403489592944,-15.994774697642505,-2.309170293952645,-0.00017990259275115527,25.172125616442138,4.534103953419394,6.862953623874557,3.871429006616096,-7.286536570601128,-11.533370209865554,37.072316651395994,5.427369474550106,-19.806425622318173,36.0984261731191,-9.982284181747026,20.853272024323164,124.0039758959764,-0.0013992113785531103,-85.89556604122191,130.64960422122587,0.009761729611598734,80.21711338646317,1.247223963880978,6.172951191760545,-0.001516757208277841,1.218808391410382,-1.4518978299691228,0.0008111544281735453,2.4271203710983063,2.2660306351494808,-1.4986456314837389,-19.321970393365444,2.65978275116135,-0.5526628859967262,5.1457833340644275,-4.8160757138285435,7.143891773844798
-4.281739940534556,0.0,0.0,-3.5915175359994302,0.0,0.0,0.5690382310433044,-7.8924543874939355,9.754409012069507,15.095643352452573,7.516053653916176,-11.07343597852691,-18.041021731435364,0.9467630081396649,5.295752227056894e-05,-14.29782616944307,-2.0301619390336056,0.0009804732810983778,25.730583722469976,5.124937533004563,6.391551408722369,3.39774082102971,-6.90692138545903,-11.941592238454636,36.9400152077573,5.329530773754525,-19.589167761442084,35.84988711593766,-10.201338593984282,21.016324746140537,123.9050760288294,-9.089763547655975e-05,-86.45066302165911,130.27988461535702,-0.002326775697508817,79.09095657634764,2.3796291784099464,5.173718611585957,-0.01965308786346037,0.9993720676504926,-1.2370736069361294,3.6770366499760264e-05,2.3742850658957493,1.7022501018387004,-1.0043720282694006,-19.36776705265458,1.9531168394436775,-0.30250122983263456,5.581629227257894,-4.381754620771845,7.6425329750530455
-3.893566192992061,0.0,0.0,-3.3255453058715263,0.0,0.0,0.34368501446341887,-7.386561766970626,10.322656993627266,14.550687810572684,6.9385321226343,-10.139880776087868,-19.156967915044476,0.843660262235613,-0.0002448558055782708,-13.004790535133255,-1.7153200269374973,-0.0004614989356933938,26.45482645881614,5.8737311586345005,5.6580789531369815,2.802809363405103,-6.2855315763541295,-12.900796069126404,37.05167860599432,5.238415592953921,-19.03870576915833,35.57596297819251,-10.381580629189607,20.748371231581487,124.0214642026534,-0.00036812212312945197,-88.84000896562738,130.1414634231515,0.00015234889835114793,78.3645760211335,4.779470152767626,1.5835672867623865,0.0012615083791074106,1.6397042537951436,-0.31198195189589073,0.0004938801894521205,2.3684232198386437,2.0175801799387143,-1.0794067389872317,-19.377797335494574,2.273789776716082,-0.25530935669813604,5.516627228246822,-3.716801242295617,7.6768225902514695
-4.492825025002097,0.0,0.0,-4.517493466443964,0.0,0.0,0.8069396739895631,-7.929932158197571,11.319039880222439,14.645183072631424,7.278689831352868,-8.535056959011794,-20.298116503992432,0.6279566091680194,0.00032370336852976286,-12.258675011410581,-1.658752434402804,-0.0002474996968276063,27.07574445943846,7.023601875669177,5.491105797667498,2.757492844933382,-5.756769706285906,-13.442392364339236,36.83686464518146,5.849891059814524,-17.369337383994253,35.28070882344908,-10.069874513567482,20.89368333466074,124.07831689728485,-0.0008503186201523229,-86.3057523994952,130.99888354497034,0.0019768423181422295,79.19015371319495,3.945970013393869,1.210753820662151,-0.00014418512908455084,0.9648273357547243,-0.08547666432981574,-0.0049214937344831365,2.4229483605370103,2.094426540421629,-0.7073159858286546,-19.32454912384739,2.2073894865716905,0.11883328275070956,5.541850629062658,-3.153468101878964,7.971634426884502
-4.816747998033853,0.0,0.0,-4.339475001225081,0.0,0.0,0.6380062082582422,-8.180965785008546,11.956352078690447,14.495688647634287,7.36422801860586,-8.025910925733045,-21.375112465603763,0.43847820547788674,-0.00023775971678729538,-11.335880971812568,-1.1523787469512572,0.0008644956198902146,27.718995879073987,8.304722804434501,5.814547691234802,2.518571186963498,-5.105337140229145,-12.79209171419537,36.07426918341821,6.592667962483556,-15.91117039837129,34.53038495769956,-9.613683694280537,21.403118392368704,123.33783417769723,-0.003576659203634216,-82.7658004696137,131.89230311856656,0.0004983126739570953,78.24734037604293,1.8358108862149,1.0022871115228986,0.0004253916350586528,-0.005035797307909198,0.5560942094875795,-0.00014035310559714224,2.4556949657525617,2.1137196944512517,0.33880972873359955,-19.287944811398383,1.8379914686802166,1.0976125927782237,5.733614245213936,-2.34718113205531,7.562632553204112
-5.235057006607275,0.0,0.0,-4.4626688192816175,0.0,0.0,0.3895377944843194,-8.871736877757717,12.358202649143646,14.396767036146485,7.679202014126694,-7.31038133229426,-22.563518273451994,0.38038342616397336,-0.00021533018228093306,-10.505346004861766,-0.6650481200189223,-0.0002696954046254032,28.436218414367897,9.189802676333322,6.158999454435458,2.3764123041794116,-4.934113321640455,-12.235425696446185,35.315474568016,6.79394700287048,-14.59080018319854,34.0707401993427,-10.03009236475919,21.799773899554292,122.18542859070632,0.0007847294469646685,-84.96949864043026,132.08999393302872,-0.0004796733864884378,78.32552414525311,4.225475527131049,0.9717974972463939,-0.006409037957784186,0.31857717713267864,-0.5061586818394894,-0.0003003927900313325,2.002629204158304,2.0990153602065824,1.10370204830358,-19.73367822020394,1.5412076901623257,1.8024894466737138,5.798919494660748,-1.735504219951463,7.546736845113888
-4.472696345960654,0.0,0.0,-4.653841122355239,0.0,0.0,-0.35752464947422313,-9.003470121001856,12.168433700823671,13.988164622593844,7.502745623784319,-5.774330564471223,-23.711188370297545,0.13087573163563027,0.000908739549366641,-10.020335775441078,-0.7284324742606599,-0.00018081448363033612,29.27581778909871,10.150543841832187,5.82284196120172,2.496900466508441,-4.453299832289347,-12.907374226479055,34.38784027439304,7.116559501087431,-12.928346299163433,33.77856913106237,-10.611460983259924,21.94283919917985,121.19821756758097,0.0003658222476180879,-83.93526034873516,131.8951589754395,-0.0008416421802335531,80.09669524681497,6.80789545621277,0.6747880052382589,-0.009510081141877062,0.04504538169999648,-0.8594393044440239,0.0005644394495038204,1.5224797398523324,1.6309373326595649,1.330136368310757,-20.207289036032833,1.0226027913046623,1.8394079607257074,5.7283770570724615,-1.1895474269062725,7.595979739753103
-4.955412521688773,0.0,0.0,-5.311289873249407,0.0,0.0,-1.052825902859942,-8.759693500365655,12.041109010648938,14.039092693950277,7.8620654304986815,-5.1965556826981905,-25.655676150233244,0.12574549295294546,-0.001736732968797418,-9.76960887157109,-0.8401129474089651,-7.226226871545724e-05,30.639604140196052,11.263256419816287,6.015402145633383,2.797674489502856,-3.775643308493191,-12.736043706994927,34.039631191550235,7.5617632287363605,-11.220507959922696,33.50279380562791,-10.667850597458068,22.455176540559556,119.06373985299821,-0.01668505417434428,-87.97180687834003,131.42199076468788,-0.00024563560544562464,79.40243072750984,5.490677182101122,0.14885625620784787,-0.011525686581729483,0.5862314189581866,-0.6939991264680206,-0.001226244318455317,1.5172575674871815,1.6098841540887288,2.05775804731466,-20.202170944630623,0.7338142811601952,2.5073544806442634,5.5847262077238975,-0.5759528092968658,7.5795726707049935
-4.776258943041512,0.0,0.0,-5.859093235975938,0.0,0.0,-2.0117686255499714,-8.53866942670254,12.278337009961149,13.94622838473302,8.32894149559192,-4.875305346031758,-27.649167233210438,-0.0044736886418135675,0.0015312958279541284,-9.485174839983214,-0.7214855192588256,0.00016135308141391794,31.76019029745023,11.947181767727301,5.901711463882834,2.7607694919879386,-3.601829832485211,-12.561426359075675,33.6638595342446,7.567249264436025,-9.638681471520048,33.57629357205355,-10.607827707171701,23.380992893975023,117.05895910976157,0.011410034499105264,-88.97009410446219,130.85771897147347,-0.00032907866810614615,78.94409429944697,6.832810825890518,-2.7201780839616085,-0.002587028483962364,0.9224179825778613,-1.543165697771517,0.0023539433559227503,1.3787759119872878,1.872522054053346,2.6423416657363,-20.331242660857477,0.761627020376242,3.1474305417662345,5.245651424242146,-0.22283294910762347,7.565063925174808
-4.383995006084118,0.0,0.0,-5.980923127671882,0.0,0.0,-2.801430611195839,-8.50710466860196,12.777755838153256,13.441449921427129,8.105908887644244,-4.216635508287184,-29.537543710914164,-0.30600336657504906,-0.00045545427485342647,-9.256721424679247,-0.4491219404554655,-1.9944229179621906e-05,32.59077326331027,12.876597579509808,5.638098206528475,2.4304362975446394,-3.1844916266542826,-12.234192193918629,33.06954714131855,7.007486412515931,-9.203479126131935,33.698555513572664,-10.840508364848915,24.18936804583877,115.45280823637582,0.003140529534829728,-87.38179247964185,130.3902500251568,0.00047067250745698447,79.44367831150018,4.32764044498059,-3.6962075044589184,0.003984329089165852,-0.6327923266127009,-3.367202060853285,0.00288333848065089,1.0023402377756214,2.1207598948042032,2.6898650997148894,-20.708078410599708,0.9746911547402429,3.2833987673377747,4.735828955483465,0.3526251840637511,7.611907407728586
-3.832209907540382,0.0,0.0,-6.471768112401261,0.0,0.0,-4.1814963548354545,-8.7807771446519,13.388931064722026,13.353959404193636,7.781607618098937,-3.4265513202022104,-31.382161397877766,-0.35730387737423325,0.00024017915463436066,-8.874002555744744,-0.29698049826609635,0.00017406079504634394,33.47771178065688,13.607528701282542,5.918607970576168,1.9916108222633646,-2.8152770093561594,-12.209853600992567,33.16465204454749,6.902269652221654,-9.2179045572907,34.08351944036432,-11.166456382890008,24.002848972138516,113.31648936527044,-0.02066578177154225,-90.74190688601692,130.20293621217772,-0.00013648090405169805,80.110959138433,-0.38140397858090996,-3.0073627024765837,-0.0070617270903821855,-0.525373574209945,-3.932080047630716,-0.0010354107319744787,0.8855171145366357,2.486782346246145,2.840996916496607,-20.824209081097784,1.2588872334538168,3.5591376803417814,4.194731182644308,0.6605845470105288,7.472451284899647
-2.447879053528006,0.0,0.0,-4.524269215869264,0.0,0.0,-6.534391396772332,-9.15348779838207,13.470293847375473,12.882196795808445,7.727704936979221,-3.1724461896891913,-33.52749551940656,-0.4043501723685967,0.0005255324256516375,-9.171243638019638,-0.22226992660015643,-0.00012639048775676278,35.004365323708484,14.33731976060526,5.998885723383792,2.2361157925221553,-2.5710370411480765,-11.877105534025745,33.452989428328706,6.581159611111528,-8.781820392335591,34.436494629602585,-11.245934914753315,24.11719871516883,112.4101465091682,0.01059567581603608,-92.90834986585895,129.6157924385997,-0.0018136799435591296,79.09131792652093,-0.8638675280652541,-2.672378407234519,-0.0002170690289718962,0.3476993746434912,-4.664356619883012,-0.000375583379474955,0.9804461547413743,2.497482112703511,2.9082335808278743,-20.727802601562523,1.2439827310949305,3.6255320709882777,3.8142675858226696,1.2074233767130191,7.41764315138414
-4.395426610174516,0.0,0.0,-5.1764798264883085,0.0,0.0,-9.39552955370466,-9.947399599192316,12.68710613559501,13.347842916531285,7.511155878774705,-3.469708512381069,-35.82327168302784,-0.00019226408643144635,-0.0013189181866230294,-9.98624768577649,-0.2101525831594086,7.046309348450049e-05,36.61806494011558,14.438727960902808,5.954673100380712,2.4346962256782683,-2.6102673533208796,-11.462094791516924,33.3885975513394,6.135759178945124,-8.09651675965938,34.756112094977944,-11.558983843722446,24.573569876893323,114.41628984854981,0.000675464662276374,-90.9207048162693,129.22365260602152,-0.0007450416273070793,78.89689647901638,0.4926752699992527,-2.923256373677732,0.002927083799793231,0.6392944585063783,-5.47371569950613,0.0020034655962701204,0.7669929682233876,2.0212002963447375,3.7106136681767317,-20.918308724811155,0.5050405363150522,4.194466309786473,3.1999507265014566,1.7470990002460425,6.738162446422104
-7.162237111312957,0.0,0.0,-8.219151692494341,0.0,0.0,-11.981203826461337,-10.194153482889554,12.283089527836074,14.11472346338087,7.218502659892172,-3.531549389191237,-38.00147777155751,-0.05841456694093757,0.0008972140779435948,-10.740992849572438,-0.3749188862556919,6.117099715498446e-05,38.03584463122142,14.624217009739843,5.653994328852903,2.682549688866105,-2.696121079359188,-10.923194966433394,33.160147924806296,5.55155064389821,-7.5448956362442114,34.467312573673034,-11.943697569244442,25.088569866939864,118.53456020299473,-0.006186085212214692,-87.0593725476505,129.99161880835808,0.002244368669052064,78.74684720812726,1.2222764336879943,-3.466710020608227,0.001560243864032798,-0.4160134717992159,-4.707148460999552,-0.0027962491102995215,0.8509205688858449,1.4743143388844528,4.949667050209736,-20.796957730721495,-0.46045713852266734,5.143535258215615,2.496842667434367,1.937895641363536,5.850813393231351
-7.323805512288337,0.0,0.0,-7.282026817658786,0.0,0.0,-14.022835445641562,-10.157848162906214,12.018748512604773,13.712124270417789,7.450142777367323,-3.1891748825406756,-39.55667208879798,-0.4303258218310714,0.0003419385067421418,-11.248360938360548,-0.5582856448339004,7.083498393906296e-05,39.43430329131176,14.977136257841943,5.182700552825913,3.4628635878339806,-2.9613116883087898,-10.478522225011169,33.272569250470056,5.114048335066258,-7.095650216130358,34.08216938660277,-12.112423469341994,25.434333613602533,123.89718149443048,-0.024148960260121307,-82.47753632173779,130.9257284115509,-0.0022093274932395543,79.17165806135283,2.611688999899873,-7.437825860617801,-0.017709264599581043,-0.6175236586501983,-1.4854331769114115,0.0030752908307511272,1.3365235064673255,1.2419179425640314,5.65696973100733,-20.287617152827842,-0.9371917603116918,5.715176050182029,2.4611088701867114,1.9497657874937295,5.520950907170381
-10.743375777572625,0.0,0.0,-8.314778402266356,0.0,0.0,-15.039263701389077,-9.97925088176804,11.892457003833155,13.92617366650768,7.398306113340331,-3.2922256063895756,-40.78677157840487,-1.2751205451686016,0.0005630136615968042,-11.780879509057945,-0.6410747537434653,-0.00019175439683133681,40.45647709927126,15.445696422928991,4.301035431803631,4.143089451980719,-3.2335796174830773,-9.740549016009458,34.079006131090665,4.776691660568783,-7.896417546161615,34.220117489894406,-11.829656048914515,25.070499685406755,128.47585701525253,0.02289876585214883,-81.38743110335575,131.08366462600588,-0.0012754141296723814,78.35676788936031,4.831051503507581,-8.32387566449156,0.031036100472586318,-0.7057937709851502,-1.4784862887242771,0.0007963340402008566,1.4656050400321505,1.6309453531477207,5.554772212043449,-20.160477423033086,-0.537901249669189,5.763575305277221,2.2420729122389846,1.9440336756208885,5.483325146689851
-12.499424238475937,0.0,0.0,-7.667965646894784,0.0,0.0,-15.903428547251028,-9.949557830573841,10.890395951088284,13.774586137657266,7.096898065123071,-3.3415435560441664,-41.609735923081544,-1.1532105390591492,-0.000592675895985662,-12.280730513004261,-0.7072008358178424,0.00013507117509386118,41.16842418425972,15.785496925511739,4.841978601896368,4.655577697099263,-3.612538435795885,-9.01113610964299,35.09296091489848,4.443633740918232,-10.021631494826403,34.37871057062862,-11.720453302892462,25.419133364763205,131.0595483763152,-0.004848351553319279,-81.40519390356768,131.06833953476735,0.0001318618776654964,79.93709706556226,4.989931340428837,-5.317086066483502,-0.004745747286000662,-1.2037566441632375,-2.053822696498763,0.0009227851442829306,0.7486744113737102,1.6594601021694626,5.604499615677916,-20.875445807056742,-0.5297137917607118,5.8202886524571005,1.878858290987395,1.8642055590191606,5.354105558432151
-11.784735578276019,0.0,0.0,-5.724370261811659,0.0,0.0,-15.06970855410043,-10.135062858252944,10.953990308187432,13.731141404226422,7.980509576559963,-3.268235621801886,-41.02937730344116,-0.6047016183170845,-0.0019224019334757134,-12.975835376081374,-1.0425848230547328,0.0001445204037475059,40.967257284631124,15.570910965916077,5.346539411081843,4.961823525263164,-4.0740222873821414,-8.489650253729296,35.67186245507992,4.826944616018734,-12.98552715842075,34.1856029920599,-11.524556685275572,26.150240382333624,130.28725918202454,-0.01589332840741065,-83.85869930314118,130.581552792137,-0.0034299830114858285,79.33505641349869,-2.9935171244704466,-2.4016887759248133,-0.039766755567481035,-1.363708660629216,-2.2653133229268096,0.0020449652821935282,-0.18973741391398888,1.4753099468586954,6.052183125997807,-21.797377538131812,-0.8657722220135812,6.168527294627687,1.5878615260096494,1.9103564467751877,4.859984190445939
-8.870426653858509,0.0,0.0,-4.397202464389061,0.0,0.0,-13.871614659973975,-9.783266015693675,10.723472668468265,13.87017495536338,8.10989134407216,-2.854837799405434,-39.189279604013684,-0.22193867517857857,0.0029705838220267207,-13.54772229612385,-1.2659923064419092,-3.2789942131707116e-05,40.3048964696093,15.542657462086344,5.38311084635571,5.2934160043884715,-4.351389955074182,-7.978668057271165,37.814063993369324,5.3410847098184915,-13.879747931974512,34.515850008590135,-11.090273862247258,26.285250089899545,125.95439422989736,0.014618032515083403,-88.20925775162709,129.2625944510256,-0.0012652566367422021,78.26254075429453,-6.534526907305759,1.6518734296481172,0.0353629627574076,-3.21327671697057,-2.850216444521237,0.009355922287159242,-0.833991152280655,1.4010962972806764,6.31424785633039,-22.431474468815747,-1.0312196989595457,6.384810706409256,1.286365205034393,2.1446075486476293,4.942573282936729
-2.090333782166726,0.0,0.0,-2.5131330413858177,0.0,0.0,-13.604756152198162,-9.483575991194916,8.930219897790627,13.7355524518968,7.5709725237396235,-2.2088583660061887,-36.762595981681095,1.0451840405183208,0.0022342223454499374,-13.944437771308307,-1.2865375454341668,-0.0002915003296640288,39.34283384483575,16.151393270899213,7.07781387630562,5.398680964476056,-4.137815450296073,-7.986540432282533,41.08571607951047,5.420779470121579,-13.2361379354259,34.38846690756017,-10.946889876007392,25.255098265931608,118.81890000648161,-0.03194303661886808,-90.68192540092345,128.89540734160332,0.0016401980742565137,78.56253098012914,-1.201504907389975,2.7394311705713776,-0.027755822184932298,-2.949575696799896,-0.8870773214277409,0.019118553872085605,-1.2790289772516896,1.8118187066761742,6.689370573934765,-22.858057384469802,-0.7872799874934591,6.884665681267712,0.8949013653119345,2.7998266890538854,5.478133038681745
-3.588695471746458,0.0,0.0,-3.9189366009158983,0.0,0.0,-12.172019079910225,-9.16711765337708,9.992526021248983,14.285969658410533,8.170758065374669,-2.5641835394806103,-33.560632389442254,0.5580401549892899,-0.008883305073158142,-14.467350092144294,-1.3407894038495825,0.00010500236454595924,37.82521363591266,16.90144558634842,6.597407603590252,5.593212749394718,-3.865982539879148,-6.897956677515764,41.811131265777966,6.23211116169264,-12.50699621139997,34.225428639312824,-9.959310215471328,25.164065811804075,114.54750182918698,0.009745441755238123,-91.86784193060333,129.25093045006017,-0.0015966173820137343,77.04400725034084,-0.41225497210983186,0.987377891437018,0.009082302898712018,-2.47320748809896,-0.023588318956947935,0.00431523181665254,-1.4640673935708712,1.8151993564996662,7.231238084410894,-23.0181488661663,-0.9832198231996288,7.389642938908022,0.5226948235769335,3.435998658924969,5.2101061954178425
-4.576650980269739,0.0,0.0,-3.649849550797014,0.0,0.0,-11.503418192425826,-9.858852416896465,12.148370863030763,14.739170198788427,8.15661710971578,-2.7049155698471403,-30.189215981962978,0.35679534124128975,0.0068908577113644025,-15.114475863536123,-1.6067756328563265,-0.00039523887143799095,36.245352340609564,17.66664898756945,6.15070800718387,5.891524617779905,-3.4828256723229023,-5.530661478956234,41.0239295267529,7.689705254928651,-11.787128396115166,34.38516870941325,-9.296644031160096,25.762657146707294,115.99445273780874,0.010443847704818704,-91.42333309984608,128.77906578108494,-0.00372776087880763,78.45151028572266,-1.3327835426509445,-0.07971442874455228,-0.003748346666193462,-2.6594212517767,-3.76133233261092,-0.005682127659240197,-1.2836030799413454,1.1613166738378196,8.195871234384565,-22.795829919009897,-1.945396464947783,8.0468669103891,0.012663966160369841,4.3715277233010035,4.759447252205026
-5.881264955821396,0.0,0.0,-3.159709093670867,0.0,0.0,-11.016462652960877,-10.309527933305082,13.220873149985458,15.07252491060274,8.74426266742675,-2.442779837491361,-27.33906048286142,1.0022323155574913,-0.0008073709813848852,-16.06336257184035,-2.3095311047697007,0.0010804464911580247,34.7803636951338,18.433888162924312,7.837649017411574,6.320010338848323,-2.9731226005188542,-4.9463515822270745,40.51433281849004,8.08319238608295,-10.212277376924222,35.40132709267299,-8.90107346042426,26.48061635516737,120.33479682469736,-0.0030920044875849,-90.44421625444652,127.37169054742165,-0.0056109881133562,76.92883964975653,2.109247342707419,-0.041392425383719886,0.009013882018105202,-0.29050783784528167,-3.3998608551154526,0.007949715963438785,-0.6982750961518426,1.0063986276570012,9.186411816860058,-22.1585608539529,-2.4523071557271403,8.912303369771434,-0.7148242438535323,5.345800792153994,4.088544354216222
-7.851262142023059,0.0,0.0,-5.431780500867048,0.0,0.0,-10.39891047711428,-10.683821279054246,15.011963003845462,16.236712714695578,9.02760174212642,-2.6446390562885655,-25.498725216038878,0.7608060285577386,-0.0010616272432366232,-17.253838781990623,-2.816957661812652,-0.0006135011013783392,34.35378948460161,19.12213008170847,7.764831047206781,7.3640322619448595,-2.413105615889888,-4.378122680019745,39.94408300683625,7.43996752959393,-8.842361680234188,34.984326064517674,-9.217605014101455,26.714181173706578,124.75824687392142,-0.01723594982234692,-87.44491674801262,127.93757999566172,-0.0019562593185870345,77.83742114178172,2.1678471775683223,2.0346146784346493,-0.01224335923625638,1.69754526883355,-1.4658717156991807,0.007974034299471617,-0.7189714467266861,1.1387608484450915,10.30040618526106,-22.109238259583993,-2.7359588955234853,9.998584465939013,-0.8314087021068077,6.291608741914245,3.1648901823288362
-7.943693171023747,0.0,0.0,-6.312881326816517,0.0,0.0,-11.174355167121622,-10.445983639947217,14.628235850548391,17.180155930258625,9.824597779667542,-2.859225265703112,-24.133218563798508,0.7826017561068273,0.0005549996168401842,-18.860502327525023,-3.009885213662378,0.00010068242600480741,33.9545906987194,19.581321397545494,7.614299050400952,8.444651865849954,-2.0860849338138334,-3.5557390162262177,38.9500992895672,6.539390641978347,-8.685128933014438,33.905586110366286,-9.776958644798844,25.7146829596887,128.16626877398087,0.006546973213189253,-84.9479797954482,128.5700030690245,0.003181354445653076,76.8544122241908,2.014994333580697,3.182036748698115,-0.0045825461281754675,2.9644708141517566,0.7260550522060403,0.015168726494974439,-1.4519197970877475,1.0467339944085403,10.403531388380145,-22.83716630566019,-2.8592482182353374,10.061113927545328,-0.9740878281577434,7.1855688764910415,2.964824367970637
-6.783734584719249,0.0,0.0,-5.004699318523288,0.0,0.0,-11.733332121246505,-9.54157342716632,12.746903410860154,17.992478934713183,9.841199964879596,-3.2589948746146007,-24.03993362972408,0.6744373250395354,0.0003307376284841762,-20.365821545154837,-3.395649306681544,-0.0008414806673800566,34.012300036044124,19.897920829260194,7.14025015266201,9.50720968368973,-1.8501016370518863,-3.222291853295851,38.133717526976,5.831782719696505,-9.09975660405354,32.62689285782936,-9.875316468003971,26.166286982789224,130.16921859477043,-0.0018819565086997875,-85.52201212625899,127.66871673999076,-0.0019132518515329415,74.9879075073185,-0.406053695203502,-0.1088499180065886,0.0320591749963403,2.447133899311254,-2.62417400749686,-0.0106436827518625,-2.285025915001378,0.7553264912422202,10.634686603113135,-23.66086426849063,-3.2148589227085034,10.170248252242503,-0.882821606364855,8.337461323791183,2.692714874750779
-4.994593662351834,0.0,0.0,-3.1181863569703885,0.0,0.0,-9.4087825533823,-9.523379505950508,12.164632691160357,18.573527426126226,9.931516692424353,-3.4755905393615563,-25.179687009120688,0.4083730447722475,0.00013013302622487372,-21.97948424969444,-3.798888198327313,0.00014961132532893357,33.8986105736152,20.023468296809156,6.7673571673280435,10.208556622248176,-1.9112300409289538,-3.218680030017362,37.720921200162806,6.0635512432082574,-9.204889967110889,31.360313078162935,-10.140729828607231,24.898880497783665,131.68677942739583,0.007653432294471513,-89.79585939712847,127.0619288355413,0.0032453940631578977,70.93202134738301,-2.3667292381327765,-1.8111621507994942,-0.0023393317459556983,6.09036759909268,-4.217663007261313,0.015545018680816603,-2.7737417544985035,0.12922807860289848,11.74441390372387,-24.088782424649704,-4.201924540412447,10.977630603831484,-1.4830070823637291,8.712472332835956,2.529859459424224
-3.8422682082214665,0.0,0.0,-1.968786540464882,0.0,0.0,-6.941981491083594,-9.877066262435774,12.07026703053699,19.140079775320434,10.679127017247673,-2.994229575345355,-26.51900886033075,0.5140721573584274,-0.00031145689968659285,-24.08567502720474,-4.975194662442195,0.002486342241744204,33.85037680024287,20.02787578215697,7.260761033025442,11.03655440840919,-1.8105240061732322,-4.262098790123687,36.88083350410366,6.100064709004549,-8.958302026921793,30.155551032145638,-9.971360764389964,23.601011448422636,133.21922499178945,0.0009469512603536697,-94.53562042700686,126.52113609062117,0.0021276971954896254,70.42726895811381,1.7328400329653872,-3.4268370907695687,-0.031775874950501264,5.436282212848025,-4.735364715618397,0.010962846080339221,-2.754209415995121,-0.059688704239596234,12.387922978640045,-24.02795102184643,-4.611652911355006,11.510163039074587,-2.0500447633679864,8.834138276182493,2.4666919072247144
-3.61955294728319,0.0,0.0,-2.3017483760138227,0.0,0.0,-4.872809565545032,-9.714935236131538,12.44126768661639,20.26775037112868,10.27578013205271,-4.3049049739742244,-27.596738822473405,0.6188627670557407,0.00012340744496951687,-26.25984884655069,-5.286095630002102,-0.0014143538532282198,34.194847345047556,19.808695342983523,7.110843657341561,11.637107788234205,-1.614062001388026,-4.28308223478907,36.51878921055176,6.046477978406053,-9.619823979477305,28.019486036050413,-10.471685474513023,21.3837700362126,134.14533672103516,-0.0036540932525557725,-94.80932650431235,126.58442038948736,0.001316222956238917,70.97803774718552,3.5442202912878122,-5.936664121003235,0.012406429422691182,4.772633913942859,-4.0162741878049975,0.0024281617639752753,-1.791531486939708,0.23118519904643597,11.889620082223963,-23.093511232559308,-4.159708861512766,11.150415717669077,-2.4993237827529415,9.409847055780702,2.90723402881977
-4.1849375204098385,0.0,0.0,-1.2916931998657453,0.0,0.0,-3.1861752217748758,-9.455847552734856,13.553560831327147,21.528195579749312,9.398145754158989,-5.6352221310897015,-28.004153804261925,0.6665640180707662,0.00012088370077706843,-28.014100200923686,-4.686923487368032,-0.0017567120497121065,34.656204453043394,18.44168670511448,6.414497272086689,11.75996189131146,-2.5286148720955626,-4.560283525815499,36.1326468797633,6.395551276120199,-10.621173406374576,25.137826988632025,-11.600013378961128,19.69419336819461,134.62120999204024,-0.00017943577518268275,-92.77142577347686,127.21592319242647,0.0008228408091368027,71.85557385666038,0.9239157354062991,-6.0834857339764365,-0.001428967460832754,3.4472119651092266,-3.5696538200271593,0.00652656317413165,-1.1442804395775763,0.13494719781860598,12.0302111833164,-22.438711328581732,-4.300438231810417,11.246704024337253,-2.3324483113567513,9.38558524716848,2.5073056424960356
-4.973485476176537,0.0,0.0,-0.7136962344964456,0.0,0.0,-1.6875349196671972,-8.323135711981331,14.557376381626256,22.35503910512489,9.231703277979607,-7.044577541999014,-28.26904837974451,0.1583684572214016,0.00010496880321332161,-28.82822620475945,-4.2107525861869775,0.0006996166531407852,34.85116184800339,16.880501132153015,6.0641512775034245,11.296947881091501,-3.624595920235281,-4.562120331021745,34.05504744940802,6.830668349518682,-11.787513042554325,21.012673667245846,-12.679255603689217,17.699473662898857,134.70566194841655,0.0007465669223847207,-88.84328296174469,126.85976806160505,-0.0017333145085416364,72.79165966368622,0.6788231488279259,-3.29554964946026,0.005177694146625259,2.7443564927652218,-4.965387267006128,-0.0019380535506934291,-1.152172572637773,-0.008080878853171857,11.53613787619976,-22.485463443073897,-4.254106268247435,10.73300938762805,-1.500617740703742,8.768493119940828,2.1622260261820334
-2.8453658798328263,0.0,0.0,-0.32177140392024944,0.0,0.0,-1.048600494375373,-7.116679836171864,12.61083482249223,22.58310704265547,10.484521366484728,-7.798488901692483,-28.409043580568195,0.6996262852688889,0.0003191388974605637,-28.73531109099118,-4.650205043520415,-0.000314672217414627,35.02050703277313,15.730836484316978,7.941567267374583,10.276961788010043,-3.8957239587042203,-5.923142176608747,31.832975914764408,7.296576222598302,-14.225481549265405,15.193014979014334,-14.103116418392373,13.990413518116794,134.57498998489538,0.0012187800034675913,-86.12867150294028,126.52541486099926,0.005580310439053062,71.27743987710905,1.003057782772275,-1.3103513917607412,0.01578331728927434,2.6191484896520953,-7.220200616916416,0.010532796499863691,-0.55644936960648,-0.009979875717841166,9.82135061224518,-21.999564301253244,-3.63047561177265,9.131838602675304,-0.6899517791199631,8.370815219410177,2.8854655956062785
-1.0458219031653553,0.0,0.0,0.4707302334422218,0.0,0.0,-0.9199970248657294,-6.8156645615402445,10.315759263189387,22.359823599437497,11.01094449931189,-8.544023740166745,-27.669361589028888,0.9337601055653186,-0.0008489828853496781,-28.587708178477698,-4.82541390984458,4.126870488928594e-06,35.005316750393604,14.034487247145137,8.198640899081441,9.18717773352053,-4.430281791124936,-7.403183980800935,31.73016264796488,6.556574856173911,-15.882719925559297,9.387132651205038,-14.604879109847765,9.286079919332801,136.13571904719782,0.002418322318731057,-90.02480929866152,125.99040477038935,-0.007770849478556331,67.53790847088561,4.253641575395897,-8.272582437748348,-0.07090653771046573,4.509416074402194,-8.19707147048727,0.022891816158111894,-0.45091733628806696,-0.3690461862040894,8.212385937540235,-21.988406773338355,-3.3751087793676415,7.500161257536554,0.07851332588421372,7.885311731733089,3.5284067231400003
-1.8141649640446538,0.0,0.0,0.248266465310885,0.0,0.0,-1.1717964449706566,-7.220253290288011,8.611857470117222,21.972235479900174,10.19512635414783,-9.801086069264223,-25.842846019637527,0.2663965254542306,-0.0012342412315608099,-28.50814606433887,-4.5960143793557435,0.00021307258540635202,34.44831047402649,11.844541372575005,6.3358420388562156,7.930512453213464,-5.340470720431085,-8.741127168746184,31.43194496065531,6.621194591788077,-16.810730632458437,3.5912888138036423,-14.496889976711973,5.458863760838421,136.86336538712828,6.433841849580235e-05,-90.13972999633876,123.83873893895957,-0.009965628813735512,61.6725319961757,8.735126006292527,-13.247618890634081,0.03234249726150116,5.1399049933945795,-12.505713411437839,0.0025757808478803703,-0.3438337663092536,-0.3891935641421409,6.412741276840825,-21.959096990505767,-2.732004592727234,5.816866426755875,1.0049938718560611,6.73178918917619,4.086032368038545
-2.106459806999359,0.0,0.0,0.16468400719199153,0.0,0.0,-1.8174498169655449,-7.299147169353599,5.902661816029804,21.328509372784037,9.075411161358081,-11.497438270473737,-24.526755469929665,0.2688771800128802,0.000916338442468019,-28.656421243264553,-4.11405147334306,0.00031072379289789914,34.223839154166825,9.641944335218037,5.160400186837972,6.642001886518956,-5.778705181037819,-9.649694171043144,31.604975169168775,7.153945053721072,-19.66333634958966,-3.995608735553894,-14.12033298656864,0.8561167867500256,134.29441038128613,0.03810259967094496,-82.07935804295066,122.5436122667337,0.018963669531004923,61.52416568923912,8.685626128420374,-11.020596079867056,-0.008589709698936672,3.3983232687845493,-14.693892160385928,0.01546951268672608,0.3033704909042937,-0.6512016612575238,3.2553421198266212,-21.40344640661593,-1.8098281590073135,2.7835090460556198,1.6412881801473116,6.004058787008028,5.271667653234446
-2.9543829364733045,0.0,0.0,1.7490376728035144,0.0,0.0,-2.2204686544372727,-7.886665041070302,4.166180376172098,19.688755644045074,9.117364648609742,-13.269298403632883,-24.00707682427645,0.9588359542315705,-4.892730084760558e-05,-29.13039166550867,-3.315690805619947,0.0004024002276769566,34.64117600203224,7.155790315971542,3.717877016087647,5.731949790456146,-5.903718259053853,-10.127668391914565,32.66658897643908,8.395951936050201,-24.907738943634183,-8.738983165875593,-13.240061334167127,-1.1844540457013473,133.22651482920372,-0.007984380794593487,-80.4541020519632,119.41258976771189,-0.01583267535279326,64.4618730900462,4.930400786215991,-10.127275312461316,0.005739782158739414,-1.0861085603308456,-15.82232318685024,0.026317865266827205,0.6749162390274982,-1.0273233609002657,-0.827471790990682,-21.056441171874063,-0.6479324374435511,-1.1490214798859357,1.9392903405940105,5.7358601935432825,6.699671558963488
-4.539850955383623,0.0,0.0,2.8670497420118006,0.0,0.0,-2.7370738448397764,-7.787828463064833,4.142654886784898,17.908218350685033,7.854925206721471,-14.664007651135984,-23.43311788710566,1.2783471412103458,-0.00045784181096135515,-30.673394038349763,-1.9758300040086876,-0.002669815284463063,34.89908470305242,4.555833120794237,1.5668099603254697,5.520672918355753,-6.328081265596309,-10.172528533214495,34.952672722629224,9.644814534046258,-29.2768953140754,-8.584929539570203,-13.84755850296349,-1.9317673915008842,133.09691655544253,0.006647680027679017,-87.9605217863892,116.00591485679,0.006523731939597594,65.37212679926711,2.9500086305685826,-11.032864339192809,0.0018889602913273276,-2.587080550223938,-12.847949349962553,-0.005943255358987521,0.24712397891998086,-1.5063982039505102,-4.747255579171198,-21.407257512789958,0.3559882059836458,-4.967303562556236,1.8658620893220295,5.301981906011076,9.306742498894259
-4.219808428611995,0.0,0.0,3.017718235017336,0.0,0.0,-3.1885045350372936,-7.210354279137951,3.0795658166085764,15.8623261572514,7.161280096602891,-15.229129379329352,-23.165300466615545,1.7629983114041965,0.0001795159603848492,-33.29975677873669,-1.3500897497875162,0.004960415567068287,35.22331269230375,2.3355811412799143,-0.016510651694663137,6.171256300190725,-6.440349005974276,-11.589979355067083,36.79614596650717,10.29003806942907,-31.946778162498724,-3.851188286129402,-15.952452177701927,-1.332810255573945,131.9322413311778,0.014028291662013501,-84.52480629844676,113.83090503988045,0.00014914609021253567,68.55388082758928,4.745168582210638,-6.862775511413174,0.008387658400356698,-5.890983302448643,-11.943958155986945,0.007595900468045996,-0.7929520762645522,-2.0620841834120975,-7.996463190989775,-22.307027561962492,1.0342932861264,-8.191798136251743,1.7749937403473743,5.178786069169207,12.073757082795627
-4.524152837862614,0.0,0.0,4.188408587513042,0.0,0.0,-3.3339905441978135,-7.534627528070736,2.160653720362972,13.328408168389464,6.644926391940365,-15.348635891653037,-22.377432911987817,2.3356981854574075,0.00011004776841944564,-36.50176234414011,-0.5868020683893624,-0.0012831374522927134,34.90323095292281,0.2694914065098023,-0.8045617248145961,7.1729246447219595,-7.343298272458456,-12.876745127001323,37.16074424577337,11.821350063959454,-34.010301555616024,4.036607564781267,-19.19667361726862,-1.2869744308958642,132.277204950268,-0.013296063903652424,-79.50786586526229,113.58889748085419,1.357664575376015e-05,68.64552213412152,4.0176216082556335,-5.242405119753073,0.0026630611911014103,-3.9619195746230593,-13.115294286063673,-0.008094680408385943,-1.6924926152539488,-2.3931839542009485,-11.147423862439878,-23.00648441331585,1.875878925090524,-11.244847751054332,1.5256331550865474,4.645761418865432,14.653089428253963
-6.841225508167717,0.0,0.0,6.895752662405308,0.0,0.0,-3.0612900083798715,-7.70267635572664,1.52843160492551,10.681576137877009,6.079647870516288,-15.64484839777126,-22.212055579488474,2.601517185311671,-0.0005884525781958433,-40.41785659515614,1.5651384244981918,-0.0062274828953675365,34.92759897473035,-1.1744944582879373,-1.6243683930429247,8.980906190243637,-8.950161161079587,-12.29530212893246,37.01854607538708,13.488733333897972,-34.72253701188149,15.921146348881834,-22.60369008994023,-1.3669869298841135,132.83537588836546,0.00029418725543330163,-77.07859016500845,115.40105951416291,9.464732490390912e-05,65.91921862628588,3.4187799557230707,-6.094351571342517,0.003125977842326433,-0.2259983866739167,-12.943588595469794,0.00035120152800208085,-1.6663044591583074,-3.0306837721411553,-13.116088685855487,-22.81743082402464,1.9938956091031188,-13.309845644289782,0.9051991884229305,4.088249582069998,17.21824037301299
-6.879563350412364,0.0,0.0,7.791520157639214,0.0,0.0,-2.9211838563476675,-7.059104327045552,0.9678778261113246,7.6379958141781845,6.037961454792892,-15.234544451417722,-22.8792230671701,2.5536732637842876,0.00043399709281656567,-45.11829340565166,2.9145260409733176,0.004447254041927572,35.35158706156759,-1.816750441554956,-1.9723615214483272,11.326999474628979,-10.311624831119286,-12.654045354856855,37.28631748444592,15.737321206316956,-35.50441026687693,29.200495062006716,-23.82197299770134,-0.9391630084146716,132.5508829192069,0.008182500414941039,-77.07731894068432,117.9141947338208,-0.004228733062076943,65.65073832224871,-1.2668849927332044,-7.550703609897329,0.035971414278696046,-0.8875211768893431,-11.191091977036812,-0.0062291623487454656,-1.4672344882675417,-3.9130374552153535,-13.770850918669964,-22.551181291777425,1.4062637862886525,-14.237823759711588,0.1970236699851156,3.589631479404983,19.172638557186136
-5.702362316650053,0.0,0.0,7.843716208022423,0.0,0.0,-2.629114940292482,-6.237412502456344,0.2339362022762277,4.608418871906051,5.730336908105194,-13.36064315940512,-23.724791071146207,2.7187903585833775,-0.0005966942211989904,-50.13048524763178,3.491951485158145,9.567695669182846e-05,35.694809805216565,-2.8997324131151827,-1.3360065066063127,13.89484968281112,-12.672769026332203,-13.865701916911854,38.33112143796583,17.38191574468565,-33.84090842544528,40.853594442079114,-24.744438533877187,-0.314120841718885,132.8564284979948,-0.002967110811449681,-65.51212029746777,118.37335574947488,-0.004820265204882062,62.98059864482294,0.6656424699691624,-6.3965674886106925,0.034989166920970476,-0.5586323620374927,-10.77819149093184,0.0017794937464499128,-1.6733858907383339,-5.029128618158486,-14.713483466704211,-22.660327916606402,0.7018803834229808,-15.515779412588023,-0.7012678758466697,2.440189749701117,21.0443983373925
-7.506604302416599,0.0,0.0,10.680134445584375,0.0,0.0,-1.6819191163119136,-6.539293087642945,0.096157078426064,1.082937836003329,5.541590937575738,-11.737796148245183,-24.5302887092535,3.047452231115461,0.0005418419929765254,-54.140902598441336,4.1937284878525105,6.87931188657317e-05,35.93202136169555,-4.428367841276821,-0.7509303142633115,16.032705187515038,-15.505296729609402,-14.444980971171779,39.859853532519395,17.444884838964775,-32.51254848729432,50.290809333252014,-26.38017933848531,2.4131977899834443,134.7150368519994,0.05395938496170334,-66.50950033223099,117.03518672446741,0.00047267420856940927,63.675147852359146,-5.451633218135599,-13.433796047562405,0.2825860716067585,-0.3017946402754475,-9.362953372069287,-0.00022082988963613177,-2.4882420336414426,-5.372473498818764,-15.38142096432177,-23.40605758289013,0.6190976608240619,-16.25981333805859,-1.4268474892882683,0.9144968629574806,22.737716407272682
-6.693704159052949,0.0,0.0,13.489282141513403,0.0,0.0,-1.23839508706897,-6.713832871767749,-0.5261905286930844,-2.482916230903944,4.775991861402735,-10.665531649261162,-25.608899008922894,3.5717536396781555,-0.0001611407767872531,-57.323635608453436,4.6629354780829875,-0.000665245980135168,36.76804764995036,-6.014000866827678,-0.15730424411795835,17.951354998128085,-17.759140161155518,-14.545756110314613,40.87092448567021,16.60539694151383,-32.20762358034552,57.467110871929954,-27.98721022525464,6.968209144695931,133.6792602123249,-0.014354894352177391,-74.42724255235615,115.01121390029503,0.016481719967239104,69.1145901647329,-9.735346297836653,-18.74342781287829,-0.05616883473114037,-2.6916552507333726,-8.573739152506883,0.0036410191845770417,-2.8945283974428895,-5.390348907626057,-15.448741119567885,-23.805280706326705,0.6263302860080137,-16.328810873530397,-1.4638734000896898,-0.5435653485515457,23.40788382510534
-4.283829204536719,0.0,0.0,13.900712806484131,0.0,0.0,-1.028844931868223,-6.427090145339663,-1.7075899207948395,-3.931521037690869,4.512335745955874,-9.694700578921957,-26.763426996533997,4.344714162079537,0.0003889453660327848,-59.58096441568602,4.925211457582563,0.0014202302152908168,37.85128242640429,-7.645235606862837,0.5883786035637699,19.258489555553407,-19.391026024367914,-14.491934274683672,39.98024172022554,16.04045035138468,-30.384085615770502,60.93640384201096,-28.53240221391362,10.132131169090162,132.1747881368022,0.006419140578168519,-76.85676654998414,114.29395010921877,-0.007863638678407874,73.45698875846287,-6.1750652242798,-17.847653327679897,-0.001424134990856209,-4.452610303997232,-7.810668242236908,-0.002788531294331848,-3.1614130219327707,-4.6372406641486235,-16.132005933223425,-24.0053989532096,1.5725499356352424,-16.696457100294115,-1.0578905315398497,-2.036159061513888,22.22118923911701
-5.673672669633911,0.0,0.0,14.954861008738783,0.0,0.0,-0.11482857999347906,-6.996301687368585,-2.2598637471209813,-5.2762937219875665,4.8989823037947025,-8.893750221895123,-28.343182745708862,5.245351096187859,-0.001127712351107948,-60.22519773923616,5.609642620261686,-3.749752479172657e-05,38.53908440496639,-8.726538220443798,0.1435108757662779,19.055845912354584,-19.56967092991175,-13.674215234718012,38.687702191694456,15.39104864468591,-30.371762044408456,60.08694054530001,-28.586778678276826,8.692905876266652,132.8341888205451,-0.000404617440086229,-78.05739203063395,115.13423520580541,0.00153664675167324,73.81662774921026,-5.067593050125575,-16.570040484058016,0.008032026102645279,-3.2774742229925953,-5.972114628778213,0.008382689840436656,-3.89140829624945,-3.85141778711968,-17.219199516147867,-24.627574897435213,2.69204100906388,-17.431657348469404,-1.1030667901881432,-2.8444323909587874,21.58000974024987
-6.373711072844934,0.0,0.0,16.164389302153268,0.0,0.0,0.9282968714379655,-7.179900978245982,-2.6269026374870457,-6.662324409468654,5.9899489085911055,-8.671192138134352,-30.45377828269035,5.940172746648835,0.0011852391676641506,-60.59894804072823,6.427520174442794,-5.036099107894141e-05,39.31173560352917,-9.27962320563276,-0.7598698565520663,18.520422343895643,-18.778734332544836,-12.246932737817833,37.659498565272486,14.344950494729241,-31.093601724616345,57.86085203853364,-28.04471605467208,4.499399479324841,133.60945660055853,6.210268444500767e-05,-79.32448016033283,115.52463442214987,-0.001525148541743197,70.58908373236595,-2.656706271905727,-13.117512724313457,0.011294433931345264,-1.6532626146653735,-4.931495359731417,0.0007699923075077907,-3.9668289199098097,-3.454678727741403,-17.263896413120374,-24.705114753967255,3.078873126511055,-17.33276558115864,-1.6842991468260016,-2.9016351750968603,21.054463196979757
-6.011989706540862,0.0,0.0,16.65380876093967,0.0,0.0,1.8878812755219276,-7.090277651365447,-2.532372113448539,-7.3536479291538,5.753263980950745,-7.896842873554133,-32.879546667184506,6.220925748113901,-0.0011963310523734573,-61.38907959553092,5.903730677407995,0.0005565966928973036,40.38032813332785,-9.562270664142211,-1.6263109076539681,18.686632364557845,-17.85731828900748,-11.622887133615915,37.29140299302542,13.502776991943506,-31.40383814921773,55.33685519476494,-27.67634472179179,0.19974338685121565,133.1833844843636,0.0081516388819403,-79.29778470110517,115.45590034997718,0.0012940419229687148,65.99313189476922,-0.8074226704256173,-11.97391437740476,-0.013629203741387867,-1.0892218851761013,-6.7563237887309056,1.7534501591954914e-05,-3.1614250888158315,-3.4963076149598784,-17.9501488346405,-23.82168438369832,3.28205058118167,-17.98926783585161,-2.29033263817678,-3.0358598387763713,20.535891161063695
-6.60650137379658,0.0,0.0,17.30539048899839,0.0,0.0,2.9649927780703473,-7.595121000294829,-2.472671360725452,-8.657544214019218,5.116382378229049,-7.2969273557063365,-34.78118923493733,6.377941781773283,0.0010055922731544318,-62.503120451140404,5.175303622924461,0.0005544835197474315,41.45127647465278,-9.632675748429039,-2.386118993688992,19.382399279900092,-17.19400217417229,-11.884811899779713,37.78952328480418,13.866011252824407,-32.29605459573861,52.925934255406226,-26.998524221698514,-2.7804109716234673,133.5070049754277,-0.00020483748284178265,-79.53009583418209,115.6685461352419,0.0003053763855646616,63.137998321831375,-2.994665863043245,-13.765463286534224,0.0325971225003935,0.1983447702849993,-5.833095660671464,0.0034069181777834716,-2.2400684704404634,-3.445923767137059,-19.10766891887971,-22.765017205723492,3.735600287019354,-19.055118213934385,-2.5296610060890443,-3.2062294773210858,19.05739435061249
-6.277451078374302,0.0,0.0,17.043492005580013,0.0,0.0,4.110061017421853,-7.630855210739376,-1.5021833654707815,-9.514502654954809,5.012738518415032,-7.2226123797575665,-35.73083930533528,5.976986072832906,0.00045256058071020726,-63.923498846736194,4.9116248801108595,-0.0003107910170892941,41.719507558289635,-9.751839274128422,-3.465065743017973,20.06966415352172,-17.388107510138198,-12.206537342240683,38.68445015556929,14.831199165158843,-33.51204734706674,51.634794540923274,-26.47628201246028,-3.3406643021392823,134.95651951342998,-0.005906864605254412,-76.53243408767337,116.02710581811827,-0.0007999145750638942,64.30268943937669,-6.595144100535299,-16.12501225708508,-0.018880254395785695,-1.273882718493085,-6.686335184673504,0.008665075653211616,-1.8297638664515088,-3.245848882617353,-19.377819480481094,-22.326577860325386,4.017487600544655,-19.23803014004721,-3.3196998106135274,-3.7416209271185967,17.65416237216932
-6.7918710947867895,0.0,0.0,16.449184929006353,0.0,0.0,4.757249873444151,-7.478082952006869,-1.3671091864629976,-10.537756003459235,5.594181017117743,-7.293938176269923,-35.76576540532119,6.6088330619260525,3.0387234128816865e-05,-65.28434205604553,5.204318951806313,-2.830212972371868e-05,41.86507576728837,-10.277110050661168,-2.943717760042494,21.219583312956516,-18.216609915286412,-11.469888120101514,39.19284920590813,14.788859298192374,-32.63941917521604,50.41982129122653,-26.428609208651338,-2.866554172273356,134.2158549630978,-0.014671696882013164,-77.46592669958869,116.30582585881328,-0.0012234055274601432,63.00159611438623,-2.6621568574559835,-12.585757349082645,0.0765128927362008,-1.5656033830426457,-8.723422427170414,-0.007925997633831073,-1.380926610006667,-3.2158961799836785,-19.05347752377535,-21.91782324123855,3.9320489238540257,-18.923490853668845,-3.9591507641399115,-4.73347395018512,16.423607866114082
-6.719518513950364,0.0,0.0,14.324784652466835,0.0,0.0,5.049412837015004,-7.667419472971331,-1.1797826968318823,-11.18076084770149,5.7463580915779096,-6.369976305786076,-36.269214754978925,7.414878156320768,-0.00035488735675320295,-66.51970893295756,5.441322190782446,-0.00011930794727377726,42.4057126415314,-11.329754465451769,-2.815275561257843,22.19295862972729,-19.377427386252165,-11.141894486230088,39.695455966930744,14.321473337134963,-32.62737780509989,50.479432711773704,-26.101521072651504,-2.0114229350292896,132.89523306094628,0.004394175631244526,-77.27602183607311,115.58628100794255,0.000995288526430976,61.10146394206956,-0.1811737654936671,-9.541648447008548,-0.005185079120552849,-1.4614918665722842,-9.593825849234587,0.00045378740482151,-0.8910092901757096,-2.270456603342867,-19.22218541960354,-21.43320773478279,4.87650821162285,-18.7490725752517,-4.245561876505957,-5.6365034892889705,14.95725233378227
-5.256015895873034,0.0,0.0,16.579196472271168,0.0,0.0,4.797090988281949,-8.446853245624148,-0.17237158976798206,-12.140502719355402,6.239518080234797,-5.409785188679807,-37.13421428494321,7.7504869909451335,0.00037890795033762765,-67.04896051109871,6.138068427379858,-2.407216600993396e-05,42.88150013361851,-11.867794678516152,-3.399283802882786,22.690080734168824,-19.977371961334573,-10.027928780719689,39.40827627109841,13.897223738561866,-32.7485822142825,51.242349628169734,-26.066934667857847,-1.4544649547742703,133.05470415918862,-0.0026009453663030976,-77.30710463011222,115.70842494356995,-0.0005392844121026305,61.46784168608638,-0.5404887485262577,-8.2789117276438,0.010108052201246687,-2.251441649767024,-9.183341480857916,-0.00016397310649953416,-0.12092013672286528,-2.3355977779988857,-19.786714877142835,-20.59277599901735,5.013106266326706,-19.302274777123596,-4.877539099519334,-5.970170870290145,14.581425672606903
-4.788332690785359,0.0,0.0,17.624280501610585,0.0,0.0,4.967321338386325,-8.82592992472727,0.610866017141409,-12.762118067084074,6.839020356618108,-3.9979354612102855,-37.90150797350751,7.97542370000944,-0.0002552482832715694,-66.72984942406387,6.3463364129720174,7.064814559808841e-05,43.704860608099224,-11.506550221373253,-3.8066855364191845,23.214581348537564,-19.530377050225717,-9.116991012025647,39.06525284955631,13.401238424216238,-32.326984165929396,52.358300493968954,-25.965084094385638,-0.7121345390890258,132.76711284635127,-0.0018106741734397133,-80.83652507101228,115.89713125490108,0.0006329733007770104,63.66620436190432,-0.6856733076286933,-7.351929295466644,-0.00015143784812428275,-2.4650413444133648,-9.093678945998965,0.001731097180572982,0.2303758201377914,-2.3924658583887677,-19.406250208459326,-20.286105448052414,4.826742398161086,-18.96485765879715,-4.903862616823612,-5.576113091273323,14.610173327746052
