PaulMeinheit/Bachelor_Muay_Thai/processed_Data/N1/roundhouse/scaled/JointAngles/scaled2.csv
L_MTP_ANGLE,L_MTP_ANGLE,L_MTP_ANGLE,R_MTP_ANGLE,R_MTP_ANGLE,R_MTP_ANGLE,L_ANKLE_ANGLE,L_ANKLE_ANGLE,L_ANKLE_ANGLE,R_ANKLE_ANGLE,R_ANKLE_ANGLE,R_ANKLE_ANGLE,L_KNEE_ANGLE,L_KNEE_ANGLE,L_KNEE_ANGLE,R_KNEE_ANGLE,R_KNEE_ANGLE,R_KNEE_ANGLE,L_HIP_ANGLE,L_HIP_ANGLE,L_HIP_ANGLE,R_HIP_ANGLE,R_HIP_ANGLE,R_HIP_ANGLE,L_SHOULDER_ANGLE,L_SHOULDER_ANGLE,L_SHOULDER_ANGLE,R_SHOULDER_ANGLE,R_SHOULDER_ANGLE,R_SHOULDER_ANGLE,L_ELBOW_ANGLE,L_ELBOW_ANGLE,L_ELBOW_ANGLE,R_ELBOW_ANGLE,R_ELBOW_ANGLE,R_ELBOW_ANGLE,L_WRIST_ANGLE,L_WRIST_ANGLE,L_WRIST_ANGLE,R_WRIST_ANGLE,R_WRIST_ANGLE,R_WRIST_ANGLE,NECK_ANGLE,NECK_ANGLE,NECK_ANGLE,NECK_ANGLE_SHADOW,NECK_ANGLE_SHADOW,NECK_ANGLE_SHADOW,Trunk_Joint_Angle,Trunk_Joint_Angle,Trunk_Joint_Angle
X,Y,Z,X,Y,Z,X,Y,Z,X,Y,Z,X,Y,Z,X,Y,Z,X,Y,Z,X,Y,Z,X,Y,Z,X,Y,Z,X,Y,Z,X,Y,Z,X,Y,Z,X,Y,Z,X,Y,Z,X,Y,Z,X,Y,Z
-3.2430100000000004,0.0,0.0,-0.92612,0.0,0.0,-0.18692000000000006,-8.986450000000001,8.803340000000002,14.376120000000004,8.704300000000002,-7.6420400000000015,-19.905830000000005,1.9313100000000007,0.0005500000000000001,-13.561480000000003,-1.5732000000000002,0.0010300000000000003,28.181940000000008,8.66932,3.47261,2.7162500000000005,-3.5982200000000004,-13.778430000000004,30.949930000000005,8.18095,-17.321980000000003,27.841830000000005,-13.79793,20.477840000000008,124.86849000000001,0.0024200000000000003,-77.04991000000001,134.09628,-0.0018200000000000002,83.33694000000001,1.5227600000000001,6.342810000000001,-0.005700000000000002,-3.9394700000000005,1.21692,-0.0015700000000000004,-12.135680000000002,1.1771400000000005,0.47696000000000005,-33.87009000000001,0.9168700000000002,0.8789400000000003,2.2859,-2.1798,7.579970000000001
-1.5747428976738513,0.0,0.0,-0.06972848687448883,0.0,0.0,-0.7858989106628936,-8.844629731381291,7.55392027682406,14.138117471936912,8.348751947503244,-7.718855335485235,-19.645553181149587,2.189469285004839,-0.00019926671070286337,-15.236058195210246,-2.30927651355721,-0.0009183518362366911,28.069307597000964,7.98328005409456,4.221852422837478,3.4476426531453885,-3.9008420465003724,-14.232973673765613,31.311397964436736,7.776072477407593,-18.219320951391545,28.64987036596121,-14.202270346931702,20.521654928576364,125.34919468230336,0.0005998975074934408,-79.87321802908679,134.4623212101602,0.0013400874081528169,84.71056839609231,1.6159963965351518,5.562215640344567,-0.0051994387613354,-4.814575462487023,0.7921040553974611,0.0007792122488258883,-10.36714556784529,1.9006847276251932,-0.4497145345510948,-32.11170788403973,1.9320556441358323,0.28628716987474606,2.254285542769054,-2.6451648639040957,7.297783691564691
-2.257566518561465,0.0,0.0,-0.3901600380179003,0.0,0.0,-0.5659889981642422,-8.595895484517262,7.266387975785814,13.982389516564504,8.145535277022292,-8.428986195717462,-19.085575140499554,2.008885698534228,0.0007349080526015101,-17.821655536540163,-2.98346794865544,0.0021729432000488916,27.84538973892915,7.483393710725382,4.341043204373447,4.825666177499558,-4.215887159536116,-13.216832522300837,31.787316627919445,7.548910933187595,-19.45050195338648,29.580505029582763,-14.126413701899406,21.116455556603764,125.4881750187817,0.0027983643095106057,-82.00322919766577,135.01385770740455,0.00032017922506552955,83.04602741216041,0.1307366342165442,6.57205345679411,-0.012932296185921831,-5.508690840459775,0.2778609996641792,0.00040241513527680315,-8.431032103187801,1.9055792144042725,-0.5638339444836868,-30.175835493488204,1.9788608916105361,0.18209171897846552,2.1733989922132912,-3.077482179309946,6.957910667392785
-4.10180413890394,0.0,0.0,-0.9054299896146785,0.0,0.0,-0.23380868820558773,-7.793910585849511,7.348899689277351,13.934052580736758,7.174627376770697,-9.25249288340732,-17.85564137252628,1.7538113096616268,-0.0008307571907681944,-20.785682761368427,-3.087899357581726,-0.001596951914847737,27.231987236959633,6.481911827937166,4.57541470316616,6.187301307801303,-5.087561240634658,-12.250755165619308,32.70405599913954,7.14106642502532,-19.487376125667723,30.53235333975495,-13.532390456177742,21.84682172295146,125.09551883564853,0.0020665969132479083,-84.4421748716689,135.32625805359137,0.001660838830066324,80.62964756818609,2.3754521130017587,9.03650767566818,0.011897484249772404,-4.813617802153025,-0.39160268240350055,-0.004157087318147917,-6.254224498966001,1.7854284617023843,-0.5087276547245234,-27.997472868540992,1.8468564004892176,0.18875229142451894,1.8293626481791447,-3.9131226585915257,5.961455847494498
-4.470005309842229,0.0,0.0,-0.7962869393858603,0.0,0.0,-0.7445129615351107,-8.197293098975704,7.437856457468596,13.525294218379955,7.069020204856984,-10.273976113564768,-16.91302248107506,1.5467276788330993,0.0003620537210359825,-23.92868860114596,-3.2226652597864804,-0.00033514777780058554,27.006052158786186,5.819519303145439,4.120788190899669,7.793298770086838,-5.528438061555113,-10.892853643304388,33.0561681626223,6.644310533735745,-19.51194123052416,31.423661370162204,-13.407405431187845,22.658937834739152,125.06033833694691,-0.0025204404495337085,-83.01305338162946,134.7412126706755,-0.0016869316275670361,81.34076615710407,2.5366003855926995,10.951889013860391,-0.01358179463825443,-4.5347341719066625,-2.8384475624941743,0.003779873799313087,-4.811330299856776,1.6584000506645822,-0.8156750305720991,-26.553119187678284,1.842520805293057,-0.1434618810605235,1.9528462148659607,-3.889586460223561,5.183288166931615
-4.139905620904087,0.0,0.0,-0.8868204104229122,0.0,0.0,-0.9471529545023186,-8.123281562577874,6.701008011888462,12.460262232170836,7.471285516137437,-10.668129277438984,-16.413516084414507,1.6984804103471802,-6.482845857554574e-05,-27.59045048819057,-3.454247754985955,0.002596248694334306,26.90149515653247,5.695367988566894,4.445015558375448,9.82224673153061,-5.518816395898608,-9.624601968780775,33.208662761803666,5.841101684431282,-19.86395514921298,32.500401828479646,-13.21051286725331,23.95547556965616,125.71265027331468,9.67109057590307e-06,-85.15390686312236,133.3738128504451,0.002077110161829637,80.09934308340374,2.548575012628332,8.011654888606968,-0.017699221729089776,-6.688455193507141,-5.733136171583753,0.0005717097382579106,-3.6828886598219155,1.913815987338281,-2.146368737753924,-25.4221836850814,2.572432125628128,-1.2851428402408418,1.9833573758199134,-3.558545276252936,5.190452567112762
-4.29538694809264,0.0,0.0,-0.2630658982950569,0.0,0.0,-1.1769885340013824,-8.251948518336897,5.985154590738773,10.817973024125605,8.1544000911641,-10.870274341047049,-15.728691708427794,1.931779805411139,0.00014352831919783515,-31.03021780893663,-3.367931928143623,-0.0017610582960956027,26.195551179444166,5.137052453265385,4.687014112071047,11.388145519747622,-6.152151772794544,-8.990118549975664,33.915082580904375,5.563635223678658,-20.010949997278303,33.69191099858391,-12.523295049340062,24.863956256201977,124.83057189043296,0.01453293444358664,-82.67770900776185,132.64944275631177,0.0018933694115008685,80.5363078756204,4.134793310143616,9.613720154335253,-0.002005380234616441,-5.891780874408956,-4.277661570577754,-0.0006895402351037019,-2.1414851179374734,2.197056865473832,-2.1467217121666007,-23.885719098797434,2.8356479144263775,-1.1804285348217238,1.443080905653712,-3.8725711440052173,4.665756923263065
-4.531522189433855,0.0,0.0,1.170253081806036,0.0,0.0,-0.9287298774119346,-7.669326585553958,5.651090991309194,8.603455250003645,8.22589158761905,-10.35242221993637,-15.646601258723123,1.8499530177273624,1.0697122439235215e-06,-34.016094506181865,-2.8099847478311375,-0.0010554092193751372,26.36712597734943,4.417924888735467,4.316197093751002,13.27136217135671,-7.322698886442605,-8.990214984029326,34.80117201183508,4.9214979422944225,-20.234615124446186,34.24319832950915,-12.62675186490489,24.503435460076705,124.34825072685993,-0.0013512460152968477,-79.75130234353227,131.8036267238009,0.000808172124417933,80.61564322857757,4.327561543572242,9.6153948770819,-0.006661599798208612,-4.6091374367679325,-4.409920542552402,-0.0018216311113792376,-0.9283555618991908,2.583349893060839,-2.702931258290524,-22.675464126237767,3.400341216642409,-1.5540537193302784,1.3220051314624088,-4.126688837891629,4.684658597305293
-3.6481606830734488,0.0,0.0,1.6267865415657905,0.0,0.0,-0.7921878847318082,-6.916456762576552,4.860082826287251,6.519183267027564,8.223206992235426,-10.0876334346547,-15.316293589613784,1.828894031478611,0.0004672175594851288,-36.91007770867461,-2.4057103931215837,0.003130317817746728,26.271325863356637,4.132968998843596,4.7352926971449305,14.935438102377827,-8.028798913329197,-8.877923869089985,35.810405572350284,4.603013571306283,-19.74280116008855,34.81555801676547,-12.409920228574322,24.29108332425972,123.30920645382655,-0.0033528796475325107,-81.0378474901549,131.4065632966794,-0.00016951759562916093,82.63654620138048,3.5317872385911873,9.82734109285464,-0.007471893391338998,-7.138512886288734,-4.513688614167605,-0.004015913043080008,-0.2500067020922702,2.512652464392042,-3.305883295433412,-21.98831553912448,3.5578195628950886,-2.1408236323559557,1.227449412662586,-3.9986321238772744,4.726213060109764
-3.7900841518739967,0.0,0.0,2.5199786875461005,0.0,0.0,-1.0699358944056252,-7.44076134426389,4.728995919801538,3.7293453785190787,7.753978035923474,-9.4326382444779,-14.876072374729132,1.8116912255684552,1.7891451791656118e-05,-39.834879119297696,-1.9728786173027073,-0.0031075911661478683,26.031405827547808,3.5623818660889333,5.029159563517975,16.638506005948976,-9.137432303120585,-8.632086567427175,36.89465082120457,4.610530200806099,-20.29903713318294,36.08564787763436,-11.2213693992742,23.870971069915353,122.31020491179856,0.0047249551779643744,-83.4771788634307,131.86420490814334,0.0017101946196343611,85.83599259823168,3.6518729336975073,9.19336675179107,-0.006709116280504082,-6.187139191461624,-3.1925868481212065,0.016729253653313767,0.42953816867101513,2.40808767815686,-3.155757588048811,-21.308451255291143,3.405143463907731,-2.040047688441652,0.997579786806423,-4.560860233972141,4.4186249286463095
-6.838867872897895,0.0,0.0,3.7164334905037633,0.0,0.0,-0.3046791143222907,-8.503683191754432,4.941254875728578,1.3079946927044777,7.573693844894418,-9.25330352390427,-15.160286852796924,1.799872876707089,-0.000326321938261337,-42.3880670656646,-1.4567331685839986,0.0012004945501562087,26.34044500412619,3.4739125761630736,4.71247560562749,18.410137744097632,-9.654267710932128,-8.251361050106997,37.20669657128363,4.74134438083125,-20.93158602121638,36.5738883579214,-10.792104580199597,22.793854361488293,123.44682251271675,0.00806961142366889,-84.87426892928065,133.1237582720442,0.003266695759205005,82.49302989268863,1.9669931329922972,8.47965271000443,-0.0012033010486467155,-3.8427061003984493,-0.7917640241247625,-0.003053070687203071,1.1410692475790336,2.2265018008238213,-3.756124571786276,-20.583746154477094,3.4585650227079454,-2.665641145098947,1.0856347481201236,-4.690343335609251,4.197348086796893
-6.1173056329283755,0.0,0.0,2.7188401657385977,0.0,0.0,-0.5457901573791322,-8.36616234412646,3.8701028654909035,0.09779276564446061,7.980254585507402,-8.90174959720919,-15.286704947785895,2.035572057409569,-0.0002815282255359917,-44.67316152807891,-1.3443565297466649,0.00028835938482101996,27.000302866911195,3.344615106870864,5.360840998530476,20.3785966012284,-9.955170258035276,-7.932365311876615,38.48203533165565,4.4578376963766795,-21.129585656891674,37.22941905051226,-10.41703853628047,21.45354881861028,124.04701322884007,0.0018862626009602307,-83.85482241222807,133.6056880715855,-0.0008006197987362654,81.43577466757726,2.038733091324109,8.55735922881469,-0.005093747555650773,-2.8684911857983884,-2.1058466301626324,-0.004296728372762171,1.8427162893968645,2.4714335486848933,-4.983807519777557,-19.862754049183668,4.139980464566082,-3.7169306709048486,1.2560327884462157,-4.67890864978758,4.265556059367415
-6.710699199393506,0.0,0.0,0.7396481879663639,0.0,0.0,-0.5139139588194515,-7.770519882238549,4.307313271682419,-0.8023530596634754,8.20307326192761,-8.284992500501367,-14.817944680418147,1.7570229151824135,1.1885614100716566e-05,-46.54507320058781,-0.8811146607846551,-0.0004405431292947427,26.83624001268048,2.89364252660941,5.044473129021518,21.625631182015592,-10.957942359256197,-7.630906799158107,39.669650949685845,4.36473223877044,-20.983016415905457,38.21153248926523,-9.832481554728448,21.555714929485276,124.46836218531868,-0.0007049387109859953,-81.65623922913643,133.76763434684858,-0.0003242281700957654,83.61087690151689,3.3447196534793844,9.68179069427876,0.0014363705451177456,-3.3067546236796046,-3.0555522868321474,0.00119061707401431,2.7490038210957723,2.613125323948397,-4.535140077190993,-18.970348504096897,4.105798285655016,-3.2468673467937013,1.0088351572544323,-5.118300626692312,4.133842727657271
-5.239263257534949,0.0,0.0,-0.22146506520604115,0.0,0.0,-0.713864889464334,-7.894133157195279,4.249510515091692,-2.366962331745119,9.211471131761831,-7.361386369500909,-14.840281720831793,1.7226261670895395,8.976065279472972e-05,-47.901285196917165,-0.6547398568153368,0.00030647207828442204,26.838073418325546,2.8327782140939624,5.350434267233918,22.767344096857734,-11.534174122987205,-7.288003488060814,40.71131352059456,5.015416046921871,-20.998532693118868,38.96211717153249,-9.341866883777255,21.67586970919491,125.22052545995913,-0.00017243335745164784,-81.44917020455112,134.4428456883109,0.0017801704847817549,82.1648084382683,3.4248977785276757,10.054904549688795,0.006204803291676512,-2.0238799952740902,-1.59167265613922,0.007728622713096561,2.944222141824413,2.1280971721590376,-4.608890568773436,-18.761296016250494,3.6824406380283286,-3.495337268902161,0.8978168337314225,-5.306903860857051,4.10118076500837
-4.9994520097513435,0.0,0.0,-0.5287534547363006,0.0,0.0,-0.9253746665621296,-7.828959648275632,4.329697748223077,-2.615389821348013,8.615901907596763,-6.441312891219367,-14.728485495677305,1.4160460741852041,-0.00015090627173685553,-48.60130579937634,-0.5733054830677095,7.163517132556044e-05,26.94879696307222,3.079287526209938,5.259280352883027,23.502670096127716,-11.72321296393658,-7.313052373237713,41.394854275742205,4.747299262577346,-20.701208695124553,40.01303569928416,-8.597923298603458,22.059786898916283,125.54959968932258,0.00021477865420155179,-81.62919578817578,134.3017103595812,0.0015517175712441026,82.42794841557033,4.638707991313419,9.571382928322032,0.004011037461728434,-1.1878626825041037,0.21738925581023463,-0.002944404634056088,3.1146803503114966,2.12212702330627,-4.470308724473495,-18.593776295473607,3.6256755985817652,-3.368618065514495,1.0151975918060492,-5.373187224894573,3.973490852764799
-7.658339987841936,0.0,0.0,-2.5281522720478877,0.0,0.0,-0.3260108544880467,-7.557356447043367,4.61082141633492,-1.3128409016180265,7.716643840924846,-5.717802965427678,-14.729397877039702,1.4789004610430447,-1.1768442388308618e-05,-48.50605968285611,-0.3199589104087316,0.0008449422395959675,26.801024120667524,2.9677087990723097,5.015736973949702,23.300617745371206,-12.024865642915893,-7.534122842325196,42.530312008333624,4.631018905089651,-20.021388587226095,40.7222429944233,-8.33536568519857,22.601185329547313,125.23795675399086,-0.0011491538449581833,-81.33573312954391,133.8342091768351,-0.0010822896832719305,82.26109276866026,5.348397909902565,9.276206354334755,0.001026339296461344,-0.9249190142913313,0.2980431563580428,0.0030849494174439943,3.099823620176229,2.2197816617670725,-3.5536138723907533,-18.62820947620104,3.377417689327258,-2.479813049412928,1.087866628081807,-5.393929518876946,3.3980789723243388
-7.16058182251717,0.0,0.0,-2.0184862253483926,0.0,0.0,-0.0392393571746298,-6.971439570456854,4.505176142228993,-0.4295493052608677,8.026940548532087,-5.752225838521354,-14.717307897684753,1.5374254530048626,7.319404816793094e-05,-47.48247215625614,-0.7301186965509908,-0.002271382875144954,26.508247519360584,3.1210979495087603,5.217687669111067,22.591845168722454,-11.806630634333874,-7.982877719883837,42.92477018232475,4.703631151325592,-20.307051015821198,41.11244554712882,-8.268287599780193,23.56317838615272,124.58076116095921,-0.0021060815788753818,-83.51010022118942,133.309361710709,0.0005078754382693198,82.08138481845283,4.947909459412515,8.95826809069105,-0.0017031438337890567,-2.450233087063844,0.3117915264383377,-0.0028869117013752177,2.847013303935021,2.2591791132832286,-3.4999449463202157,-18.882732498016562,3.3941557421294495,-2.4152966830447515,1.1655489525033642,-5.3486700530777815,3.314811713574085
-8.055408358852254,0.0,0.0,-1.361357221773542,0.0,0.0,-0.1446096967140869,-7.185983182382383,4.904798483170877,0.48609525595567066,8.085988077956486,-6.254565326609004,-14.33182370214373,1.4807896705232184,-1.5710954830010892e-05,-46.148014395023075,-0.927515514554965,0.0023473145793538644,26.25364940732724,3.131070055703324,5.125074401726919,21.820861013072882,-11.519649942841905,-7.714380771934249,42.52262841970402,4.380627335593629,-20.84787738982255,41.16295365233285,-8.049413067787448,24.469113852554557,124.3171243241633,0.0024746588141992976,-82.04016684743601,132.7954188687219,0.001734875177711071,83.82459595299552,7.423726009286885,8.083043950624253,-0.002130707717505482,-3.841366962008807,0.7290296211193475,0.0033795825291761806,2.9755525332851738,2.0407098463417928,-3.754745872516931,-18.745230174432315,3.2854534365510473,-2.733239569017692,1.4920911143790556,-5.289981798669545,3.330870487717441
-7.273422508913715,0.0,0.0,-1.2767113564567751,0.0,0.0,-0.2201450899854423,-7.594574597839081,5.223902896051482,1.7054415819464182,8.08045314797254,-6.310762519892796,-13.985017723994698,1.5374576234428408,3.126288171507592e-05,-44.50279233895196,-1.1819254940852122,-0.002163474492128983,25.974934270087374,3.006252036275998,5.307448654544275,20.86340995968399,-11.348169175729147,-7.3005358419499125,42.53369995769055,4.46860056559064,-21.71760430949932,41.462605554997616,-8.014179832854223,24.48936844429665,123.71261130429772,-0.004633722047028206,-84.39607153305262,132.11334983184042,-0.0006768553964969634,81.90663795350119,6.281593601397261,8.576169189024018,-0.004379437326697408,-2.483196868261266,0.1767580457504714,0.0038006163131948955,3.252979339076509,1.8101226873310883,-3.492429390431532,-18.467632355177635,2.9742194234484476,-2.5747962490556433,1.7937969376715284,-5.402714035881585,3.4145806051533354
-3.2008473338192585,0.0,0.0,0.1764412907717792,0.0,0.0,-1.0184128079526626,-6.791545513527947,4.774648174348478,2.6986282797427346,8.426234934621643,-6.288689302835067,-13.905612764296006,1.6160917039579568,-9.613701943096587e-06,-41.9942596133556,-1.8231127529250508,-0.00031271894840559047,25.76904015709768,3.17905756794719,5.72817865743564,19.340736832222085,-10.655862595214312,-7.556066969034406,42.40912233596206,4.557545831686176,-22.337450641722445,41.278783609270484,-8.344273391487945,24.071999818115057,123.26306445183604,0.003972373865700947,-84.02460351490141,132.5568530321132,-0.0011131005977016667,81.295176284234,5.79349476183603,7.867356703385932,-0.0024863977834852914,-2.3473753117003797,0.10179768675172302,0.004408579719731458,3.0918095356017865,2.021175048517606,-3.3298084646326918,-18.63554693762686,3.1101235717455573,-2.345360331137174,2.0188841611062434,-5.179495093586508,3.628828429011431
-3.6200147315996785,0.0,0.0,0.4195725588762119,0.0,0.0,-1.1775331082663882,-7.572290567356845,4.6717994679521935,3.5803955808454786,8.267969444573122,-7.12438701946508,-14.029182503216438,1.7368047000030435,-3.349672843884553e-05,-39.31282153368183,-1.8598233371392603,0.0023833213547028104,25.507827039569513,3.0797848435108004,6.293946726844369,17.5950900779765,-10.320055517006177,-7.176606487269266,41.75603999259572,4.410924298129993,-23.193279025925822,40.93917794812947,-8.455978589058585,23.792188827031364,123.03272827617805,-0.00021568130810996396,-82.99313956793846,132.91509531049778,0.0008599870956805994,81.8384654056221,5.063984110523303,7.116581306554514,0.0018881568984920566,-2.2956581574845836,1.6160125588683754,-0.006348158787976374,3.081157744481628,2.1668857412142666,-3.5019309963879506,-18.64655947087507,3.309158899668014,-2.4513754342782654,2.1917824573779847,-5.284069230956078,4.06885389825372
-4.396932138045305,0.0,0.0,0.8641578720683921,0.0,0.0,-0.4894216845893027,-7.842823076260656,5.457745732634019,4.914441529441427,8.269357999533815,-7.692360802815536,-14.51630380861062,1.7002894405331213,0.0005027506897503502,-36.75966994739058,-2.2514594657667413,-0.004404872461873977,25.438531326685336,3.057054793281912,5.7398835889543385,15.911813528374342,-9.96653809457617,-7.491096155248724,40.48501321172397,4.271630999649468,-23.39526658227237,40.127110101080845,-8.536580600686868,23.269683670271462,123.43063113300244,-3.722050328648233e-05,-85.72980127889308,133.0606123202795,-0.0012816712357648903,81.74237012496364,3.7616795239981737,7.145950543263154,-0.0019628007107453985,-0.43004548202383563,2.4516329475233007,0.004147306363320024,2.865043336022887,2.2366009163633542,-2.9963160981334696,-18.87134391239533,3.1868478155153355,-1.9554252799573901,2.7063674493896306,-5.518931570005186,4.525426879217137
-4.473064740003918,0.0,0.0,0.9468616107741727,0.0,0.0,-0.2776770048831464,-8.109650843497018,6.000136182560844,7.119749027805861,8.453394046427984,-9.342083882635643,-15.055966471126736,1.909270855536029,-0.00019159305462794588,-34.01688922330509,-2.0239292680099124,0.004887885218966869,25.585137817281943,2.6032048604530575,5.383484049328676,14.205663552607712,-10.066716312974695,-7.5176005100744385,39.80223407013977,4.094221803566688,-22.638204460865914,39.89704554613012,-7.884183944598848,23.36533709573047,123.5950055828313,-0.00044815998117158853,-86.59383943298421,132.92067666342297,-0.0011974396706674309,80.9071249814311,3.8971506447639452,8.800595466111902,0.0038844990930196506,1.3208987661600402,3.709620965014185,0.007076660254743631,2.811801113928256,2.013860770456292,-2.5546431282437307,-18.92537667900113,2.8164807660264364,-1.627482263114656,3.1930126242143064,-5.749142709078481,4.699909696821654
-4.20035536961706,0.0,0.0,0.7089012610313445,0.0,0.0,-0.24005043406337656,-7.805510523289911,5.575821747243324,8.833190806571118,7.934228204927346,-10.30832459179701,-15.709077568603645,2.0201344679651663,0.00019992002806869052,-31.101457340452,-2.044041418750923,-0.004587013613702211,25.7760913749958,2.4905093377810017,6.18035396785153,12.301413911270354,-9.862077319982093,-8.1901381001765,39.428033671714786,3.737476070189548,-22.463580220143722,39.5891668487411,-7.65578886332186,22.960406519207126,123.68648384681076,-0.00025139330394951463,-85.57684898018111,133.3104134551937,-0.0011889034215692373,81.74739626615248,3.833446087084363,8.341169320367944,-1.4443313760948159e-05,0.402454134273749,1.6282871859969246,0.0015919330943939575,2.8569198638305444,1.945683121173204,-2.043041333617509,-18.88371452596041,2.563782657953563,-1.1773017126154848,3.418498594896937,-5.852417475725015,4.783010493108484
-1.9765914249972583,0.0,0.0,0.2840213024988516,0.0,0.0,-0.36145522577381434,-7.584699621770677,4.962918423675889,11.058842717693981,8.751619589039406,-10.786609765773136,-16.482550924721984,1.9795098061041674,0.00014650821055950646,-28.353958667710796,-2.565531107665408,0.0017946335448957205,26.053956651954113,2.625910796134387,6.7229345424191544,10.468401801590526,-9.549907385884591,-9.637129293818752,38.724480874373995,3.876342000134609,-22.086982208677682,39.52017252316715,-7.800460486689788,23.332997200263513,123.94437670948062,-0.0006121649584343032,-86.67187929143873,132.72099072085774,-0.003532118233286397,78.18451365034817,3.39569498349143,8.493313852943375,-0.0037907307794417763,0.45705191108102994,2.7621573181100114,0.0008145981223713346,2.696754127026737,2.1628541159184125,-1.2264345621154586,-19.051408234398107,2.4631649872448174,-0.3380283349122272,3.5865038598156866,-6.0159551216475835,4.574938455939375
-3.340076938758094,0.0,0.0,-0.2536500611316237,0.0,0.0,0.5658058348316422,-8.491794635177785,6.17117770005,12.639567920111034,9.48309980655721,-12.07286895721556,-17.489481970790138,1.9407329450375332,2.6649540204020183e-05,-25.669775810285305,-2.743620186080893,-0.0011765083037606962,26.122028361996044,3.1812087931373223,6.098984653808419,8.645608408886174,-8.617844387099172,-9.607193155439884,37.77761075316896,3.4798063415316216,-21.745056835974435,39.822778257282664,-7.682459669170495,24.028535926296694,124.1184452721642,-0.0031837838758260197,-87.73358357989646,132.10702433732968,0.0013828011628166123,79.64327510603125,3.961005551755734,8.311952185193478,-0.004798943738350343,-0.8714288339127922,2.437816972935635,0.00411557203390497,2.5301591461314876,2.46038279168734,-1.0505365178837034,-19.223179139322184,2.6743805289275797,-0.06426058801462696,3.51918476641591,-5.664162321730849,4.8963639685436355
-3.054669594428878,0.0,0.0,-0.42020526589102086,0.0,0.0,0.2410774157496884,-9.300611390711301,6.996760653882423,13.682206903673883,7.699693769403196,-11.961752131382648,-18.23200751615162,2.256426816151096,-0.0004776829790265875,-23.381616856419107,-2.671409055417488,0.0019971590971500663,26.417970698977907,3.125084014744252,6.366610471480974,7.481843977558533,-8.588110766050265,-10.379808992190734,36.74863880773765,3.3350636504606235,-21.36362651335801,39.53802404136597,-7.577278744453388,23.905701672842852,124.37365383530037,-8.625162272031363e-05,-85.78854915640208,131.55932356686782,-0.0010526284670791667,79.67538489051745,4.069492208381906,8.841383154924552,-0.00126989806676613,-2.122000445798275,2.5675944572292533,-0.0023179977612902557,2.619252311418368,2.199292081880111,-0.8626400326210608,-19.129860323571293,2.3623087159214786,0.013435801101325346,3.949740367567222,-5.97338461980638,5.925251128707635
-1.519432794609784,0.0,0.0,-0.7210749806735034,0.0,0.0,0.48463516908493376,-8.037878588971688,7.162761205954438,14.759077781272433,7.758577324057857,-11.251609709669296,-19.329881320822388,2.1817899120658417,0.0008653189108563381,-21.05991307691848,-2.850525742709539,-0.002248992731114058,26.890333581729276,3.326443576215584,6.7751593740719285,6.323907472141952,-8.602129143614373,-11.629760986480916,35.915489092707716,3.5833386463002976,-20.455095943284284,39.44208132642263,-7.926900381625121,25.037524828532785,124.57113764874917,-0.0034057306726995975,-86.62391474279067,131.10586003188604,0.0009823943810682901,82.32635423099923,3.6326410153457713,7.935294162650303,-0.008789366816499332,-2.8480246006292878,3.0367042956584847,0.0013623392370206153,2.3007207693806606,2.411408773808063,-0.5051245110343752,-19.451188439545902,2.4269457680316484,0.4241987995702312,4.280778825951756,-5.939311759839559,6.276809209641046
-2.2861540895628325,0.0,0.0,-1.1186017805684811,0.0,0.0,1.0621687166927514,-7.2298878142982055,8.102586917365874,15.416328575247332,8.652429081906721,-11.1577961720961,-20.537884920027263,1.7704160755349807,-0.0007170825308306063,-18.87703772661517,-3.1151167632380106,0.0021600635499131166,27.543492442741716,3.895731188621213,6.331399863225933,5.3981763508828084,-8.134305725998598,-11.726315939094123,35.66872905577687,3.7954649665873634,-19.54386344677284,39.284951175372164,-8.250434808779087,24.960126464851328,124.98767092366634,-0.00028583153638106696,-86.36900768242056,131.18712643617494,0.0012590822255934893,79.78610417370825,2.4986526931927315,8.030085025884533,-0.016958407345368513,-1.5149625269036329,2.9994954867253423,0.0011848810632490465,1.9308720284780363,2.6266115407724824,-0.21241561796002534,-19.823330929702223,2.518445564038408,0.7758835475333423,4.590873588013705,-5.666153596476714,6.72696823346733
-3.011902235880261,0.0,0.0,-1.565184938791881,0.0,0.0,1.2796872639278325,-7.13314103776869,8.167620827512486,15.551540701578512,8.257665482733758,-10.428736939139283,-22.180163275889367,1.6720610149847535,0.00011555557487558591,-16.654172015497306,-2.7972566624141977,-0.0008538292317139117,28.261480224312802,5.001588749996035,6.157571188341582,4.266976957954503,-7.3821799715220155,-12.119761811302393,35.95517541420121,3.926831094723726,-18.626474287684136,38.51554936372487,-8.672172744627234,24.493648370549632,125.16554689400127,-0.00182069469767252,-88.08766571374747,131.54518046127419,-0.0007442395391033857,77.70897251233329,2.6231755735336293,7.988802603791595,-0.00834770370834329,-0.5570545645698927,1.1603290035211544,0.00027196049101535995,1.3082572711408726,2.644927942687213,-0.052802730132643014,-20.445361788819753,2.476362755975629,0.9309018838575418,4.616268155200877,-5.0202457610019815,7.2824616590042135
-2.7592520437849366,0.0,0.0,-1.8361985475931402,0.0,0.0,0.863218207562334,-7.426619091481234,9.800461479639901,15.50039580805853,8.203950790899105,-9.632512240730902,-23.59445202616713,0.9764600406018196,0.00033257372498499176,-15.0929028644992,-2.7244864413786107,0.00029314704413162083,29.01576102343152,6.0267038433860325,5.962327603302491,3.724961050807183,-6.9475059686533225,-12.603956419659033,36.03394960795981,3.9555316630557247,-17.211150220515073,38.58504573683859,-8.895566376829265,24.777759616640726,125.27154762034822,-0.004619656117004056,-90.06291971068934,131.6906671646749,0.0007646238600523841,77.01294096709321,5.174375086677193,6.783816359837984,0.0056193627390024245,0.3252548665436934,-0.7359651795351845,-0.0005266902404815595,0.9349465313887216,2.2363895813423906,0.5490577058419865,-20.808509224678883,1.8740989456600403,1.3383302591462414,4.560439812183045,-4.4810947014430935,7.607261095418821
-3.476073730360811,0.0,0.0,-2.0156249033729723,0.0,0.0,0.0696100387121747,-7.906883680530106,10.192018899247723,15.58315154173946,8.038333766208407,-9.538386375678316,-25.355257315924153,0.7434173742102986,-0.0012139589594419322,-13.95423435686692,-2.283867030482714,-0.00020387026425116792,30.439887305223987,6.916119363478276,6.3032263147084935,3.531995804802269,-6.436460781299006,-12.855335268729306,36.29132245379572,3.957642882839548,-16.168165111174694,39.101333761002365,-8.708298125787959,25.046068496500727,125.9897764253918,-0.0017834920577892105,-87.27678431451106,131.97984788390693,-0.004294106454756896,79.6387047118533,4.750995376425817,8.573729441367169,-0.013793431466938993,-0.11853858099622343,-0.681295710291108,-0.002745820370419181,0.7287793900271453,2.2732845903679184,0.561454024320194,-21.015027062373854,1.9037840286993655,1.3635170834667703,4.48455593990089,-3.975124317876584,7.260697711423958
-2.6328534252534803,0.0,0.0,-2.101444361359944,0.0,0.0,-1.3603741728218202,-8.147686510940826,9.779843662657905,15.428197990637763,7.310625009014478,-9.144988504728653,-26.999093162110864,0.8757311841849277,0.0026514162949235237,-12.807578483835764,-1.7175218113624378,0.0005445864682451961,31.64542304635464,7.9496424360199205,7.063044059603901,3.1196581451169263,-5.821466651168747,-13.038273727648798,37.32356236399979,4.10875251816551,-16.655965557402897,38.89581983122724,-8.982021284310672,25.659344372750898,125.50303880189968,0.0015269451725320056,-85.90723211434685,132.60358618211964,0.002645958691101276,80.29094754464855,1.6630802041595976,9.866427738993888,0.0026954523027833462,-1.5325273940170614,-0.27160706770131643,0.004129828653795122,0.5696590438117224,2.3583278551289033,1.2041827949041464,-21.168171887841044,1.744893161849331,1.991860098792682,4.361250326408425,-3.5032118947560105,7.036545931576479
-2.7749786261953937,0.0,0.0,-3.03114049201683,0.0,0.0,-2.675316680027254,-8.242719779223416,10.366236818614407,15.687247601282168,6.538510775448465,-8.722172126972017,-29.143620857815133,0.35907906031032877,-0.003315329782903419,-12.301834487872664,-1.3515036815535284,-0.0003614003150164334,33.04206604732199,9.157768900600164,7.0042191560861795,2.9423506350232005,-5.276666419244629,-12.36757891585793,37.50226215985665,4.405867984974197,-17.047453077262247,38.735961128942165,-9.130065133702406,25.584446139146767,125.33094546188427,0.0017234695920636143,-86.15105074505125,132.33300242996907,-0.0004920394091575169,80.57528801921023,0.25789368526446504,10.079218423646212,0.0030271461805895777,-3.0945429845667363,0.4082440385498868,-0.0028205561480971453,0.348545410986408,2.236684848586662,1.6960083336984841,-21.381045447715426,1.4499340102926803,2.403476564130156,4.216531336309239,-3.013084377006057,7.234838683157959
-0.4096443309263848,0.0,0.0,-2.7855523020599526,0.0,0.0,-4.178605868172537,-9.305022405330801,10.703870340658147,15.749933958523384,6.847268269060135,-7.222058306681534,-31.511138167326365,0.4255587548905678,0.002706044087826818,-12.131891005155977,-1.0927752478805668,0.00022820326082184672,34.65398514875308,9.854589403240956,6.4507224475816125,2.918111090579828,-5.002408603103014,-12.771353910436995,37.66076749017974,4.518624947148259,-16.650570735497844,39.900781446902435,-9.228723026006904,25.4705444381575,125.86396564264268,-0.000560567539331064,-86.95748860118081,131.32191383075693,0.0001991045073373745,80.9273594525161,-1.3516036796482696,9.125247662298134,0.008022231494726617,-2.995412940008676,-0.9282743061990771,0.002355563119696335,-0.20208441107573158,2.08218195951449,2.0532941435235816,-21.924492552734716,1.1742387030190518,2.6780274632627936,3.931047892791968,-2.35574190839452,6.9171868542599615
-1.3431081876912638,0.0,0.0,-3.8399867898012037,0.0,0.0,-4.817930128660749,-9.585746484779646,11.969326591216896,15.79449728717718,8.089660402021993,-6.557345209819792,-33.55006219922313,0.07629594776132179,-0.0014138163622942534,-12.07149709702534,-0.903880930343622,-1.18869637914013e-06,36.09203156900055,10.927734365462866,5.528776590851447,3.26128628662145,-4.516075131677113,-12.533079804972072,37.26678045566902,4.776322986719253,-15.941608168328386,39.856810228622436,-9.957822777900843,26.021173293294517,126.45024584771845,-0.0018152599776832155,-82.72031897173511,131.0582086421476,0.001364587522083289,81.307234633621,0.19657390030732463,7.913624829264665,-0.02074140569012339,-2.3308693189066383,-1.7771525822949306,0.014383010410613099,-0.06687018004540685,1.993626548744122,2.7940757414625326,-21.774326456363415,0.8180577443862895,3.333138602020559,3.9581388055730797,-1.3505503094405544,6.931715939744619
-3.0695894128140115,0.0,0.0,-3.879579812658922,0.0,0.0,-5.988583702198408,-8.653172999254338,11.981541194613268,15.456154502321068,8.400589209843751,-5.236005004203372,-34.86981829305023,-0.1749915946719451,0.00078352606125344,-12.001757122863253,-1.0049159921043693,-5.379807641524459e-06,36.9828602657653,11.934454559853634,5.67350577525016,3.53804134020009,-4.030115613284569,-12.671662293272162,36.669958298761266,5.059314697997506,-14.847800340181859,39.609330722793416,-10.304617363758007,26.074432949738092,127.09716234047902,-0.000700654007952307,-79.39978805138091,131.508850403466,1.715379882151675e-06,80.67051163648807,3.2822586961177254,3.8219269745882563,0.004880441133927457,-0.6083592345089505,1.1344176362427694,-0.0028132114137321743,-0.1162673709866553,2.050186984881507,2.723345699711558,-21.825557449995753,0.8967507295030444,3.288375205028841,3.792541025756369,-0.6063750976422198,7.1917423252997095
-5.148577846697644,0.0,0.0,-3.610702923844534,0.0,0.0,-7.551323804468697,-8.077845805646835,11.891867356091744,15.286661563206522,7.645060945239327,-4.259072071328751,-35.498482458660504,-0.35853445359782227,-5.366385547089869e-05,-11.839069321391005,-1.1945218114310547,-6.535160145998857e-06,37.248764168892755,12.61840040241453,6.1371246129514105,3.385189330273642,-3.6015939070970573,-12.855021813172952,36.204689542070476,5.9739876773001495,-13.602263356358277,38.873239094750936,-10.464496905570332,26.210141733901093,127.40120907165421,0.0024187399870955807,-79.04834413765704,131.4100958717939,-0.00010324176141554298,82.06314883882071,4.26566836788435,-1.299443833709273,-0.004276063370359476,-2.530720506736654,1.092008209845859,0.0018317037743851104,-0.3161330143636794,2.157717665932514,2.803410699296565,-22.024339505476593,0.9670628865949937,3.4025066803152435,3.6100552146699294,-0.17688325521301243,6.89979732308096
-5.284747230094927,0.0,0.0,-4.3441787186216825,0.0,0.0,-9.781915018431814,-8.30624304117695,12.312459237221827,15.061034961638128,8.202983026056254,-4.425246162591582,-36.51217434417345,-0.3856699946033518,-7.301834417914491e-06,-11.851302793064367,-1.2651938139348309,4.7787504769067075e-05,38.103552404354424,13.189784351100062,6.556130791121029,3.600449380425657,-3.362836202226361,-12.357415890941379,35.84651761272409,5.987233676257249,-14.238607989405583,38.88696261363117,-10.836988845056052,26.85622051315398,126.60014136326767,-0.008542412464811919,-81.35941704909143,131.67600762094924,0.002349750655526989,80.27189895626798,2.2800204672541646,0.382967480937435,-0.07466202437541437,-4.12481301113229,0.09560879779712186,-0.0038771613649481234,-0.3544971765900997,1.883561733045397,3.3256903762816257,-22.04925621748026,0.5193347734404548,3.7861211639291783,3.471311200617238,0.23714251217695015,6.5489286025322855
-3.524734413731341,0.0,0.0,-3.444009568262843,0.0,0.0,-11.633959124244633,-7.7597942814431695,12.46344709325184,14.243157573171041,8.461663168084641,-4.148547032700301,-37.81269006302932,-0.3871530754945818,-0.00043225253957825246,-11.834250119601187,-1.109404566435373,4.280892855899944e-05,38.508857286486,13.516988939895127,6.870914512209798,3.138273217110488,-3.425280582744131,-11.602150598611798,36.01754090419264,5.4965601583072905,-13.771421560604027,38.01158076684602,-11.580296423085414,26.552366571691365,125.75041511706303,-0.0018909312833582405,-79.58753205371178,131.56483403740265,0.001092103103534757,79.64784578675133,0.42258040680386827,0.48757501102772616,-0.06032955602967614,-4.543544903418876,-1.6562909656514426,0.004388797968193754,-0.7544877924513218,2.1084548838957358,4.299767055281648,-22.422972375708188,0.36864843486042714,4.773842491377709,2.7460961172102736,0.7100657213610155,6.086449819085759
-6.520071427044926,0.0,0.0,-4.480697056781164,0.0,0.0,-13.147722730884253,-8.406360953788086,13.056460732470681,14.299098545980524,8.610748628747944,-4.397410267202515,-39.143648571410736,-1.0364459806024056,0.0004694935768454376,-12.34335789374214,-1.0876085734509762,3.0373451603003073e-05,39.25187293015819,13.919104600775048,6.084069715967346,3.3147532029240483,-3.602308728517561,-10.623790908764812,35.81167444769233,5.729166817401412,-12.086251668182658,37.58291632508643,-11.808621243300802,27.099856951236177,125.46560950579662,-0.0018904685219550685,-77.9518334520829,131.43339022767222,6.670514412138325e-05,81.47449718318448,0.7463089991755785,-3.3923228989928598,-0.008752315556204494,-5.806268474969414,-2.4907071902729663,-0.00033359771875671965,-0.7350491000480546,1.7690158675934828,5.198090544876101,-22.37370861622368,-0.2781251214099846,5.483051737163748,2.399168248651702,0.9442128295056813,5.809268759907935
-10.79654294431547,0.0,0.0,-6.748953358303669,0.0,0.0,-14.614899296767382,-9.416627632808586,12.659791176742731,14.992562686503243,8.701512448127009,-4.6391058475188744,-40.620169592594735,-1.2744010448932503,-4.402473317869481e-05,-12.867984258638636,-1.060826142140594,-6.16387955249284e-05,40.47230981388861,14.345927213349954,5.888510866834491,3.8816109884367465,-3.857727105971526,-9.906895717796786,35.850655622032555,5.696431457016641,-11.018784470331164,37.38350460242777,-11.733502095785294,27.445953585766247,125.6767539541202,-0.01337574643841438,-75.71830988299513,131.45499430490887,-8.310015223811763e-05,80.55076166004675,-0.02487453177872101,-6.278476945536167,-0.01395700641267415,-3.684613168596583,-2.827295313785444,-0.002335710201685062,-1.4011478160461914,1.6207922191552604,5.634288308633911,-23.024294889633634,-0.5766363101497167,5.833727151456659,2.55161933902461,1.138791009066716,5.2173043266476
-9.932003290867716,0.0,0.0,-5.818962464815155,0.0,0.0,-16.18172662413006,-9.17860849964239,11.286844888933794,14.734047717004957,7.7072592134861875,-4.13269515864245,-41.70999407116711,-1.1258088286808483,-0.0004699395812530116,-13.258535172635352,-1.1530594221443966,1.4300911076596922e-05,41.54545730977211,15.043816359678017,6.318373979429398,4.73427386814048,-3.9171830274205224,-9.277559309624657,35.81355099557791,4.991839015988308,-11.52776452246423,37.37699241476859,-11.716159072663011,27.274561049754077,127.64295921377538,0.010475068553024717,-74.09737316726728,131.281375356758,0.003186812419782801,79.51804762954637,-3.3543757957143208,-3.834972669772963,-0.01022534658188982,-2.7592578637918383,-2.2324468876295573,-0.0004683332493177723,-2.0604100145390407,1.893444683030192,6.265110763692932,-23.657427069564548,-0.555360835625652,6.52037774919761,2.82259294889873,1.2881545716719696,5.173690607930143
-9.627302675850935,0.0,0.0,-4.161547283219463,0.0,0.0,-16.74631505696544,-10.092193643308761,11.27449491266456,14.50417308922422,7.261949992594249,-4.058573266147753,-42.263839238487606,-0.8925495104645238,0.00011226788746077894,-13.582017270439618,-1.2006170309394983,9.049817830789608e-05,42.0462846901033,15.318246176448666,6.65198851587511,5.290514963622546,-4.298781978404431,-8.63735459852377,37.045135148665516,4.518524767989957,-12.25687143795543,37.339975166518656,-11.594140607112504,26.958717854185014,130.63430419779166,0.010155486540449385,-77.94675515778128,131.82622015488693,0.0007921248837026479,76.42543980450435,-3.4843148306998315,-5.431170266577822,-0.015662324692399705,-0.2708141688099415,-0.9985746447390423,0.0008933708737975247,-2.11430208105747,2.2470890884147523,6.802498469768365,-23.686519403809918,-0.4240832840679221,7.149879953124496,2.63168791731891,1.3265548208653526,4.8411236020686
-8.824082134092961,0.0,0.0,-4.197536812999535,0.0,0.0,-15.614523458090495,-10.261980368401668,12.00997531092953,14.679278127523945,7.945251138182617,-4.043280793271798,-41.855579192747214,-0.5585239499226466,0.0007422431847426605,-13.427274344113883,-1.1261973341105143,0.00030868341278746293,41.5919913535927,15.42151700246919,6.962246596474185,4.937841733530875,-4.7057236200271735,-7.920645787407905,37.639102105022666,4.491845182501214,-13.708557753655965,37.00461582862305,-11.949063610004876,26.976489268132525,131.99056818309865,-0.001605055239723586,-77.6715885402767,131.90787215783376,-0.00018467332723303838,77.02364168915084,-3.5632797334133612,1.6037113880445464,0.005800514123595234,0.5181234014247821,-1.2225923230400486,-0.001263229633723335,-2.8427731177822313,2.448258322199326,7.505656984991859,-24.380358772644232,-0.49510506758970063,7.87724417147299,2.035115656210302,1.6060981388927444,4.394575613183643
-8.924471094207135,0.0,0.0,-5.154237877898854,0.0,0.0,-13.472403225766191,-9.13662914671793,13.20978819947219,14.977619174688853,8.187268497274957,-4.167322158888508,-40.66885131273535,-0.5286855738450567,-0.0035774621744316115,-13.811869121348199,-1.2168366819589351,-0.000320043611296072,41.46854381599582,15.821952612800555,6.304683199763653,5.326042378515854,-4.506433516553579,-7.377100037034745,38.095279035089035,5.029689103732312,-14.651970514424292,36.73759091552313,-11.078276103857936,26.62269672330203,131.82797729431445,0.0020283133291058727,-71.70191149471512,131.82991313327028,0.001057469903626577,78.14274231234387,-2.9012493494668345,8.316189522420954,0.028241429372519857,0.9240617952330836,-1.6842480535138329,-0.0007973864810154449,-3.231206841568136,2.4600932080270357,7.366736276010015,-24.775744012586543,-0.43313502410631516,7.752484612150071,1.9152981626160648,2.2328783234550325,4.042649733529844
-5.531861481388924,0.0,0.0,-3.505126312194993,0.0,0.0,-12.181179503124547,-9.67489759103731,12.99745958613011,14.655994848693659,8.592357381095278,-3.444176084950643,-38.12091154986297,0.15312333462451877,0.004624632113867302,-14.265512816672155,-1.1679091588967474,8.097474678106341e-05,40.344039309900324,16.42270453912991,6.7507704351204465,5.8288552618506815,-4.588115533430036,-6.7003879167478395,38.8880468959148,5.276424035163751,-13.12599896506295,36.6198960325987,-10.818810544545515,26.96842035209493,131.37758789565933,0.009116293263182104,-71.00530181661972,131.30263757844665,-0.0006752625065125381,76.85700526808031,-0.8045534997434081,5.770910795831451,-0.039744933962403806,0.9076176820476549,0.23009141488262033,-0.0031019800715265658,-3.8879315567966506,1.8740087190262835,7.3574927291048855,-25.435576584647702,-0.9748655056870421,7.528635475721279,1.9050483796151818,2.9964052397893135,3.5838242626209666
-2.313359463126956,0.0,0.0,-2.480389618719004,0.0,0.0,-11.409531027399295,-9.708972825865601,12.09452710168061,14.637302421229307,8.165613692829304,-2.8101450670211325,-34.82862933639224,1.0963154102816026,-0.0006061951209946038,-14.480136929826108,-1.386443411665889,-0.00010885335307429204,38.50941423297462,16.87748250577974,7.4339142392647615,5.885951673645196,-4.414011797060552,-6.291729455960857,40.77026543033603,5.094677980771597,-10.517865895057087,36.57268330613622,-10.564138079641795,26.626611471744912,128.227817366299,-0.01216581223029987,-75.8146641729796,130.11042892123888,0.0005097830722500463,76.8357878153357,4.038645145467198,2.09591795623568,0.00155433593866654,-0.3150323254632956,-0.4584576550577298,0.0074028665394697876,-4.183354708649398,2.061360576856085,7.231475457780166,-25.73604277940036,-0.7543622618093919,7.480309346919089,1.3890110437773928,3.6032879177441504,3.270365508729128
-2.838762033240424,0.0,0.0,-3.351279322020165,0.0,0.0,-11.076512022018806,-8.990888005901834,13.096804981735296,14.772285446962165,8.883512687313644,-1.8687814749444094,-31.531992926724335,1.4094111105666416,-0.0013225306038286073,-15.219199746006073,-1.7573725232191229,0.0004776367395033047,37.140680923813605,17.538027620081547,7.601184897296197,6.612607650666166,-4.068560508157741,-6.161737825565614,42.12664172050783,5.885143314005474,-8.942406451880723,36.44315776930537,-10.290700345229427,26.762456208945483,124.03485202619161,-0.009114769739184814,-83.12309128251333,129.99201279373466,0.0019076354130871662,77.62184343403096,-0.4449680791583043,3.249202268389863,0.024907700339919597,-1.6789745486210008,-1.445847567096099,0.004190998033537894,-4.593159404415717,1.6570361092789698,8.544342189443883,-26.081121306304517,-1.611850998946187,8.552923504846897,1.344216888335622,4.446468126562421,2.3564843403153857
-4.688546787943398,0.0,0.0,-5.418569609508462,0.0,0.0,-10.36864650722648,-9.799883893198508,15.04904126750473,15.444914064296368,9.398568112530459,-1.5903669895321246,-28.702068873082553,1.3237378109616615,0.0005045482433535352,-16.055318675064655,-1.9172697201311775,-0.0006512360667942111,35.375720967945284,18.34836805671238,8.206730858135545,7.114591710413403,-3.9570728598007996,-5.027046688848883,42.47072334842444,7.55423659201676,-8.289649469534663,36.857978746652705,-10.651195691368924,27.27983180310581,122.22718499487341,0.011063990701913504,-87.64515472391717,128.59487902930286,-0.010570144938357513,75.58524010724501,-1.438353601279959,3.070028755395124,0.02163576876822443,-4.273071508465408,-4.012800398368053,0.016527374133472578,-4.566451231509317,1.194336860093406,9.423745326433442,-26.009996715605638,-2.3641601481772425,9.202138149210498,0.8654335206276826,5.33512752335922,1.723125929647158
-5.2537957797976205,0.0,0.0,-5.045314648428095,0.0,0.0,-9.635202944846354,-9.513622215642226,16.529421567218634,15.730510790958238,10.037856144981124,-1.617173966617698,-26.869836457409697,1.3316508380579568,-0.0002829521057226591,-16.99846446386424,-2.383131802857132,0.0006884611147790083,33.95529463130361,19.191551132775512,9.380073665874614,7.692230345190977,-3.40510996382577,-3.725045073235134,41.71699982843595,9.066372687741698,-7.001528439629578,36.81488991745911,-10.457769102127584,27.707343655476784,123.95025759289398,-0.014140011037241811,-85.16700651166626,128.0680536609372,0.00416103328428195,72.60083985689883,0.05824387403517893,3.1303171972223525,0.000695951221457318,-1.0412275294855642,-2.494056431911258,0.04765763386546606,-3.8983187104821924,1.0515811546665548,10.593944988431401,-25.271035883354156,-2.924131771847429,10.240388419253245,0.3093905388248644,6.421115565330365,1.4219597790555984
-3.5718621282680743,0.0,0.0,-4.244463365766937,0.0,0.0,-9.545663650811026,-9.664354849672973,16.786084578257043,16.01972583258898,11.027040845146209,-1.4182048348433074,-26.58526729920799,0.7062652317507168,4.754017953755474e-05,-18.322793310116054,-3.022641723782016,-7.272960264218965e-05,33.299602422251255,20.19553640883872,9.6449247691165,8.68597553609656,-2.961063040825841,-3.1784938392898976,40.907793544617185,9.254997287890111,-6.018557716044661,35.099418884079654,-11.077365823077646,25.776717506163454,126.83163369789128,0.02487451657947867,-84.94865994272035,128.55433543759767,0.0008939632173735945,71.64445907935256,0.6186531594070674,4.4986955087418075,0.0066167439835365036,5.414275549477759,0.04219781913576558,-0.01736586702431573,-4.205499619784552,0.9260020177341948,11.257760576279479,-25.535723635015504,-3.2827573897409597,10.813670638920769,0.1038459513411169,7.637447023210267,1.4638983374393892
-3.308570969348131,0.0,0.0,-4.180230123111061,0.0,0.0,-7.16754776181507,-9.664064261664356,16.147935652974564,17.105733862216667,10.462530863193374,-2.2519650426106472,-27.61605307651,0.5526011697934721,-8.762418633100252e-05,-20.118880992939825,-3.2716198807060644,-0.0005026190429296865,33.327856649054,20.25655679532811,9.406522419263142,9.772346307995255,-2.9759795108938953,-2.720250903719504,39.85396987202061,8.88792310896407,-5.537978448734734,33.292193543484366,-12.33712506767143,24.638196731451515,130.9742706852584,-0.01704923253423416,-85.74289858693356,128.96074440136024,-0.0008567132901811205,71.0350678659203,3.1409494212593914,3.7128160590652284,-0.00030364887840811405,4.210554243611972,0.4197724294726519,-0.010954213371970676,-4.155000534164742,0.545081660661356,11.733921512901695,-25.460200463380655,-3.810696717679867,11.119318443560521,0.05920618598828228,8.28596323998466,0.9151681124355442
-4.705376514861234,0.0,0.0,-4.381502447782211,0.0,0.0,-3.403994292345541,-9.549965931965186,17.46686442726037,18.702590917738554,10.779557004354304,-3.1892237227507985,-28.705718829632964,0.02134505894802967,0.0005933422455139182,-22.53844703699712,-3.5499402512802734,-0.000273854865542784,33.51894864245037,20.276859164242435,8.338756652366486,11.039034202883338,-2.8280055203194627,-2.3373626757919936,39.698185536733085,8.563857132792581,-6.994326159229493,30.54133090824553,-12.943373405679914,23.079428554468542,133.14351432349096,0.0063087546234275845,-86.6363752487956,128.48361319808475,0.007274149682291613,72.96773057753869,3.997094124805634,2.976240959106154,0.005793998283230561,3.299124650182775,-2.109958946644298,-0.005354614283598038,-4.356241512501143,0.873135421459163,12.429627367021327,-25.60208718292415,-3.757418508421443,11.888269714187565,0.06511275866467886,8.95241441348008,0.8880532102052658
-3.272835034334132,0.0,0.0,-2.9976753255465525,0.0,0.0,-1.4344540189489103,-9.548261648386644,17.75567007342164,19.54414038263338,10.953941514421548,-3.5333182819823197,-29.14382591298015,0.03282812327487189,-2.9775932686065504e-05,-24.490762458344378,-4.3557146075615245,0.0015749699219255778,33.19315638290684,20.119122224031166,9.008159850241334,11.619607216272167,-2.7906984643653114,-2.8920362719643236,39.460053595758424,8.715750212464489,-7.3226406732023746,27.981673770536744,-13.325624487321642,22.621195112628737,134.38114002929174,0.002094036262847139,-88.95909489575142,127.111612058184,-0.001436674388914217,75.46655694973137,4.879450103895752,0.8025342217882109,-0.0034865088224431563,1.7750003448376608,-3.676875110653438,-0.00263204584746101,-4.8029941869525,0.942018821198061,12.820922771038946,-26.016786696090254,-3.834883013463626,12.278756568676187,-0.014258558858490242,9.25697093141397,0.39824278420547105
-2.115160074842442,0.0,0.0,-1.2734970209951042,0.0,0.0,-0.10110182847803198,-9.036224172912318,17.330431841771844,19.996339090026,11.0529842415523,-4.058634103376591,-29.08158026260171,0.6438866573362761,0.0003431698894759343,-26.1651108605317,-5.168710094927572,-0.000328344459396234,33.279514542832445,19.23809172590214,10.484118031884227,12.194289859665014,-3.227823449525635,-4.034342074804642,39.05331781815346,9.218563065173083,-7.392954209492192,25.377526515515846,-14.615062757728351,21.344585507794687,134.94433073499758,-0.005168287129920421,-92.94926685207824,125.3127451166626,-0.004281997011622774,73.54019879980123,4.609376226368042,0.1536730719644445,-0.006515368202844049,-0.5124104079987242,-4.683393384700338,0.0032028450025924507,-4.219343809637222,0.9101381495533264,13.480852483178623,-25.380577363260066,-4.10309931913035,12.883941953698924,0.25635158844988337,9.112122353956552,0.04489219116173908
-2.2379418790693344,0.0,0.0,-0.8808943811436603,0.0,0.0,1.2639809440949221,-7.553353437276617,16.8574426437198,21.246633407862365,9.72448013578552,-6.46181666991036,-29.549415653456183,0.7890691062578653,-0.0005032623478591991,-27.327570908157472,-4.804007004518065,-0.0005124844662667413,33.111983125379076,17.81969059513769,10.40915376847863,11.303963904609299,-3.769214307876508,-3.648381398893885,37.95053079502589,8.53258487943797,-7.916638416822965,21.185226808658037,-16.358579395181028,18.467969808762728,134.4105683965316,-0.0031464179189573307,-95.6116577604047,124.46669710616294,0.0015155203451019423,71.29864096570039,3.716012310955953,0.13976198824761432,-0.009613029222247773,0.5026186547907254,-6.237761518187925,-0.015209397752398887,-3.7642678428989393,0.3208308586077056,13.920438914888749,-24.90540569104752,-4.811308016550181,13.081850683809526,0.1946050293546131,9.14633453675793,0.20156947849286982
-1.995303059681968,0.0,0.0,-0.6202589439897433,0.0,0.0,2.035318488469961,-7.791951621804584,15.651926062429045,22.0423170094903,8.695715374690483,-8.852153899150819,-29.740277799787332,1.0061149411007226,9.554210847764551e-05,-28.231221979501406,-4.321791078871573,-5.8098644507810773e-05,33.7681742193189,15.656933058918593,10.009218379818508,11.000626581460027,-4.9316805863216215,-3.595454326660562,36.35891543637355,7.876667287107179,-9.634219005385575,13.881371025962887,-17.423810928904885,13.720960459573835,133.62109740596395,0.0077325035821782274,-91.53784416011447,124.55193710777948,0.0008175669707084293,71.22000739512426,5.870185301238488,-0.9065146684864233,0.004226881010798695,2.6310096016842848,-9.810718625046706,0.002753976901825423,-2.9923340352748387,0.4235322814278425,12.707361711804893,-24.228297368132633,-4.277098205378331,11.984473907265016,1.056374750510216,8.248436338019262,0.5620329666890911
-1.1280446716586217,0.0,0.0,-0.17722873180893634,0.0,0.0,1.8148161313949145,-7.171804102064576,13.287850995334898,21.830896272325553,9.119891759770548,-10.2248103482923,-28.86292846579308,0.7196560328163354,0.0002996785227035621,-28.493032364222728,-4.511055556342413,0.0004357804631653801,34.2089160161336,13.388000524345005,9.695166108665733,10.444890674187235,-6.246247215891124,-5.433508129289342,34.507943847286725,7.502515189154068,-11.711377899039311,6.028181248713762,-17.317916984071804,9.530919024249103,132.39182944847207,-0.0008695950990810425,-85.80289948814902,124.29701797053686,-0.008862807390863585,66.95513848021102,5.891693267126151,-2.288897554511502,-0.011460407406809597,3.98537484884518,-12.602137198718907,-0.003745778904641649,-1.995266124525104,-0.05507496933633726,11.69727864118592,-23.318649250233282,-4.356489287549384,10.866390878400155,2.444820364091946,6.809045439971269,0.5854880419024278
-0.8804170081459061,0.0,0.0,0.33561814814989316,0.0,0.0,1.015203933358979,-6.542486184545796,9.900051292456897,21.03699680828305,9.256987195708826,-11.527213700423985,-27.6017188965216,0.007164775493969046,-0.0006396114779241678,-28.962131167543347,-4.952251069016926,-0.00014354402658561658,34.0377349890674,11.68051374937626,9.477572220602935,9.264947842354434,-6.721215240050995,-7.530052189414162,33.118155060223884,7.03700398746186,-13.983182534506383,-1.1947905130081622,-16.137654344410045,5.5240495027119785,132.34842988401962,-0.0010359096472832372,-86.49698772568041,123.80702372371728,0.0016774447819784663,71.4149729747909,7.524482568945537,-7.070119466744718,-0.004779883483848498,1.440512070659874,-12.160351767797367,-0.01967514554313977,-1.328906330215605,-0.13963586193426547,9.838469332588849,-22.77408286359562,-3.757407155710809,9.10031329900628,3.1495964889069397,5.618127025698471,1.3089181353354733
-1.7746535705484756,0.0,0.0,0.21887582170651956,0.0,0.0,0.13451901517089151,-7.215751863611688,7.633396058336047,19.80517674516699,7.128928053714995,-13.505958936134245,-25.78882176838631,-0.6842762200607642,-0.001239198440792242,-29.570062115080454,-4.209752677178721,0.0005968174208451445,33.974993432224736,9.645612989826544,7.455339179498499,8.462232697117114,-7.036097549130643,-7.832643703716975,31.72507590171868,6.869286556431804,-17.83338649765098,-7.404711075546874,-12.972062944941102,2.713411568371255,132.4331018627169,0.003122602627998331,-90.90937278799117,120.34630043484798,-0.004635925649825598,74.31518898279064,6.049355870874131,-7.808292013932274,-0.0015120128416268228,-1.4503780499548335,-14.977584856651688,0.04590339095637807,-0.2526488587746921,-0.7047818791935312,7.230245748947136,-21.841623719864096,-3.326380003859614,6.461630329688284,3.8320528509070964,4.491024889080189,3.017090172759865
-2.501892758422802,0.0,0.0,0.9976311102781272,0.0,0.0,-1.0830177495987627,-7.040736138520152,5.6583579321896,18.05315453385802,7.933792716778211,-14.196066320659222,-23.747556076774234,0.03251399478566417,0.0025120713533860286,-31.393493949455078,-3.5940251231327918,0.001650476039669935,33.91143788945092,5.9399910548947155,5.44468023663996,8.091086985806655,-8.31562551562839,-9.936273913772245,32.4585474717101,7.372595887648313,-23.297287653651377,-10.041275540462715,-11.317179461544832,1.7320880672136492,131.11674414707642,0.012189392912654041,-82.3280800140737,117.20679808806824,0.004205373069835178,71.47874039779938,6.320307346733479,-5.856969888082447,0.0066991130743352615,-5.335673736388787,-15.916972555771126,-0.008186997092592692,0.1975174107777977,-2.0786128692900094,4.92025370028288,-21.49949961010581,-3.7515169220754725,3.803380080390744,4.145731791517216,3.4254399251040657,4.417639882195602
-3.1874090298557136,0.0,0.0,3.313409626589424,0.0,0.0,-2.227189636911769,-7.3010704036314555,4.235864960464522,14.903716343519044,7.712668703238373,-15.567120309903686,-22.717224787323612,1.2790554929504085,-0.001043599823744834,-34.11475777042464,-1.9142107925868557,-0.0012965587245632381,34.1380188910806,3.4733556078845242,3.7287851592092247,8.484571026617465,-8.502908256054774,-10.07268483698118,34.55071107494115,7.3269199839245,-29.318369640871026,-6.680542642344641,-12.402132090380183,0.9348720306752947,129.81139181149368,-0.009133698336011471,-85.95707642195508,116.10123617129472,0.0014924775268097916,69.99942462147219,8.148260513583672,-3.715803775310417,-0.005356200772050862,-6.23389902940957,-12.82057322454261,-0.0004626431693618652,-0.5497656952570592,-2.7663670856000975,1.5784936483481202,-22.308013991443577,-3.1540563638132184,0.441173466443982,3.611453561111433,3.3357765567257265,7.225125879695161
-6.695083249438843,0.0,0.0,4.711525237256523,0.0,0.0,-1.5152017038220815,-6.712248415768732,3.702801131938887,12.294469220098328,5.84242248400834,-17.173686582266843,-22.4778021155984,2.2741506286269915,3.1151446531817734e-05,-37.30176366899109,0.4887629012702959,-0.002966489877526659,34.587827635101235,1.2415522966532582,1.2291599686399655,9.358009528524578,-8.561588024350057,-9.981946266775862,35.651825563718994,7.14440681959069,-33.112235274491944,1.3429581242375404,-15.855140259313128,0.9370465397528095,129.977833065682,0.007526096949198534,-92.07518219781966,116.27016464281367,-0.0017573955687774576,68.08037806312828,8.830728314512912,-5.602991638091703,0.0038396277832463688,-5.1343136679638075,-14.40338882362028,-0.009121399344396984,-0.9790082222099643,-3.128945732931374,-1.7465197818053175,-22.71845272710987,-2.260074877305323,-2.780952376269275,2.9331484365707046,3.4302848472282133,10.068895099542232
-6.222570193756228,0.0,0.0,4.755190484806434,0.0,0.0,-1.824051519264096,-6.947589167163017,2.627282597947317,9.960500805384552,6.791962920017217,-17.06728215626929,-22.416801001709818,2.9502254594453374,-0.0003097348863758334,-41.520034447020876,1.5333266030752617,0.004597877410901711,34.69958481275039,-0.47742334739747677,-0.6215447063764514,10.793545915722477,-9.250441119952601,-12.038192042163915,35.58778261982853,7.607599671268647,-35.40169171005648,12.720245294177586,-19.587717492349178,-0.42422578425961704,129.2376726221942,-0.0065872758257904535,-92.4016596422739,117.10712228324998,-0.002735557864392722,66.45057433981319,7.092685971787412,-6.651488989374867,0.005603503193437,-2.172074813416939,-15.565545808314607,0.010186245469322577,-1.707113459997576,-2.6827839973665366,-4.931692570970805,-23.35641664104123,-0.6694013322283159,-5.572655928152239,1.4911373439317404,3.036798587728812,12.563845426019487
-4.72678861458638,0.0,0.0,6.572503468505717,0.0,0.0,-2.211058855570241,-7.186909636502566,1.5003767139151307,7.276691396918104,6.095610104215811,-16.19397370314818,-23.23890214929583,3.1353072889656577,0.0008611432207818355,-46.58299470205925,2.4389025127608166,-0.002901458184249789,35.33798313105534,-1.641490893352403,-1.096335929960212,13.474671900686998,-11.098822442274196,-13.119337485961376,37.34113616862065,9.351610083673224,-37.508543585545276,26.49956882890267,-22.715052846812224,-1.999308217291381,127.88138505163664,-0.0003467168093128812,-93.0086141815121,118.03389735748807,-0.001147098312328015,66.31386434794847,3.545390225808812,-6.513216504128711,0.013218889001444821,-4.6892828903314365,-12.635735026658308,-0.015142733519786239,-3.5101122800228386,-3.1200169674986302,-8.173865470402417,-25.01062636890669,0.11498586468466564,-8.744560551153304,-0.47763128821167355,1.0988136506770836,16.191724907171434
-6.359196895048488,0.0,0.0,9.182880983215618,0.0,0.0,-1.7247584164325074,-7.838092054517858,1.2725373016938222,4.522251530683726,4.507433166672123,-15.487959060310661,-24.65291859924165,3.0072004696180064,-0.0008301139932391518,-51.8894247910842,3.1187792246307393,0.0028559828089241082,36.66354333172738,-2.6897963260138313,-0.9259623196894516,17.16169666486094,-13.48067073986925,-13.036501897701923,38.586349456895896,10.97298059892374,-35.608481011383546,40.05497886366682,-24.650543836917883,-1.17286669576238,125.886632658534,0.016942604455076234,-90.07680177151104,115.81798006302304,-0.036605819358045084,60.37749190116386,1.5319596927001058,-2.1356727286155466,-0.027723264259754507,-3.477532665924474,-7.0809888963850955,0.013649404635959423,-4.500642659221303,-4.049574076850213,-8.783824473896193,-25.96627721987622,-0.5270471020807862,-9.65146260226659,-1.6256988999884259,-1.2285889872630893,18.920605305152236
-7.835316180851623,0.0,0.0,12.828771528719749,0.0,0.0,-0.4448067593400911,-7.217018757263462,0.9766594730023506,1.938932997789877,4.614449593555124,-15.432934620839827,-26.25241805351067,3.285736072945258,0.0010731299451018832,-56.049659555303805,4.318085291794489,-0.003802027517389309,37.709824986121674,-4.553518053080153,0.15376253600766482,19.415803183044968,-16.528373897264085,-12.993903999273801,39.69175443960046,12.115718925137427,-35.03295061396721,51.01099787629298,-27.41191880131815,4.254256030637513,127.32515564374431,-0.061041046454811905,-83.67407886941176,111.98104187998797,0.0341672993058974,64.05329370530887,-3.1060661607746765,-4.8739965446778895,0.29727196754329066,-5.987093119679818,-7.071154501231581,0.013490836725273904,-5.25596419323123,-4.4235427012069115,-9.331715289601098,-26.687882534083492,-0.6753189896193166,-10.296799146635019,-2.516861459861973,-3.6062639446576,20.039687760908937
-6.6359728870490775,0.0,0.0,13.973452856204041,0.0,0.0,0.16017348626936928,-6.979917871516329,-0.11779559152522845,0.8997790124751193,5.199893739719096,-15.16283060603723,-27.74872498164064,3.6806982428061197,-0.0011326422481077523,-59.03659604590366,5.159922520812405,0.003136994955324139,39.071600555273726,-6.668712663182698,0.6586693676978731,20.53709425552652,-19.175885750361914,-14.219024314807749,40.324827714986895,12.099954385429792,-35.231779108606396,55.78387703102006,-29.77616887765451,8.902556744804784,129.19417801714928,-0.006207381834086996,-83.02685821384463,111.64138533598437,0.0013405048068897813,65.1584726141621,-9.095446420520927,-15.263758866121027,-0.057829415771172496,-6.741074212642887,-7.887890500965423,-0.009178092049845425,-6.334889076133954,-3.9480964981582747,-10.71120243389798,-27.67003932889286,0.26904235835876306,-11.404551047974405,-2.4517328219926933,-5.598661046161106,19.79058187998457
-5.5387243293591935,0.0,0.0,12.502727661000387,0.0,0.0,0.34195765526291483,-7.507363054332431,-2.0948315188394537,1.0453152390346576,5.057239884494039,-15.03054299018193,-29.990775272125973,4.7866436175643905,-0.0006481331150277005,-60.654915977841924,5.395975186689033,4.153286445658739e-05,40.850705612639025,-8.177640472242572,1.2272108301004616,20.57149336058363,-20.152284545785825,-15.921524919019912,40.461723732336274,11.137076312715843,-34.34956824932658,56.45570190452717,-30.546473207787187,8.626728159678922,128.04474303222648,-0.000969614476829859,-80.88205801345566,113.30014211210296,-0.008098527906357894,63.34511346682674,-5.933778807245636,-14.896085987351707,-0.015858354285598737,-3.8122904344578155,-7.929511048587811,-0.0001642981544827254,-7.054453267058906,-3.3621057448229985,-11.878905986674194,-28.303685171138124,1.2381968529111276,-12.277619434597945,-2.3726074522419767,-6.544637844130082,18.736732885943756
-6.443838726312885,0.0,0.0,12.81821848528811,0.0,0.0,1.1990597983961957,-7.79666327662928,-3.1461486184520515,0.28362324477301415,4.994080959722266,-15.281606659543526,-32.039541848017066,5.052362408981288,0.00036260286574283024,-61.35778544265881,6.3271458766947966,-0.0004425277847914442,42.145426354073074,-8.97834121266537,0.7467502089347916,20.446585345117903,-19.858863129568388,-15.077140704862604,39.730311127223914,10.837888180308955,-35.155416606706126,55.543840985048924,-29.231169046286286,4.6532077813832595,126.96902063211222,0.0045826207633186625,-78.95035085821873,114.63333053676966,3.576432056181389e-05,65.34091215390667,-4.578290302235899,-11.714105847414203,0.017924827081634027,-5.624978598118474,-7.67345157080468,4.508208779376184e-06,-7.252764860821495,-2.177774155616611,-12.365687173593011,-28.47766156512964,2.518216134973815,-12.30184722297527,-2.737976752975194,-6.852896174790588,17.249872085035395
-5.80550265475526,0.0,0.0,11.241639997309507,0.0,0.0,2.010978337758933,-7.187325992738119,-4.1479601527747265,0.16924075991072313,5.194227691154885,-14.582601990442098,-33.411192828051895,5.280870287014691,0.0007029014555076449,-62.20091181824417,5.899205829018639,0.0008013182886825494,42.91121563029632,-9.738366082546536,0.5200752695645376,20.40357608201486,-19.37443895526931,-14.479434619081207,39.20333285542234,10.3950168931961,-35.3317847230629,52.96206355423068,-28.14651829839534,-2.5257037736924124,125.67686495864832,0.00023443781746387054,-74.24462699285579,115.40311601028837,0.00458219180190791,62.30732591723248,1.30913678883909,-7.934996427996112,-0.0022878196936822423,-5.52822477170239,-7.370248485429942,0.00045853525589314737,-7.758377732290277,-1.741854629315584,-12.682814853419021,-28.965750200333563,3.0392794058081423,-12.43971320091094,-3.3235546880405846,-7.309190178850674,16.122982022692586
-5.473163317781841,0.0,0.0,15.234292757645502,0.0,0.0,3.2949827048981226,-6.8504503824392184,-4.066633668286247,-2.0078392604730535,5.271639698987955,-13.465612988037389,-35.133153105349926,5.387748678273406,-0.0006991209648494456,-62.872170257456474,5.047420063012504,-0.0007434360761146839,43.447708319332925,-9.720688767380262,-0.6247073325962655,20.73839374329466,-18.26189068157509,-13.461711536570771,39.23591101924785,10.1035188590342,-35.28149285216701,51.46092872405556,-27.33858719057395,-7.199421681562907,125.50551999317875,0.002133440452908813,-79.62712229966915,115.56233862509181,-0.002873011203168981,60.177280154732685,4.326290374557003,-5.306590085370657,-0.007498527878984627,-3.4912730283547724,-8.740369396610705,-0.007346857710899393,-7.594607441817366,-1.9903958842784837,-12.80043681795797,-28.787904150807798,2.850073856584785,-12.639463853480152,-4.350120222221869,-7.187297260352081,15.144904213892902
-4.557124483658851,0.0,0.0,16.666757359503436,0.0,0.0,3.6810009460601942,-7.904820246388964,-3.5819114391477798,-3.4595251841419676,5.5644884853391465,-13.02195252137659,-36.34086888657134,5.728211544731365,0.0005679904016375878,-64.0700770016061,4.670270165593255,0.0012842748853066613,43.885820855690696,-9.89051403236186,-1.664257882763506,21.46963691674712,-17.58968953072513,-12.330004654993479,39.64446893021763,10.09463246154499,-35.886945605208176,49.74000265465241,-26.782196855284724,-8.835356359079968,125.98254614449303,-0.0026976296397140417,-86.41911097876927,116.41505288610178,0.002045694796389647,59.126962352012924,3.3547903558415575,-5.0628765367787425,0.002538938098285494,-2.2968026725615167,-8.823792946457399,0.0035030432458227206,-7.060397296042909,-1.6293053668388648,-13.485273154381598,-28.204178407428692,3.433976953602476,-13.148133881767814,-5.2638661959416435,-7.187959652279028,14.398440083203127
-5.064266335241005,0.0,0.0,17.363264430703882,0.0,0.0,4.59679138788909,-7.991757630567755,-3.2952052964339447,-3.8524104802613404,5.47608151368696,-11.99937004021228,-37.436928924464745,5.956693961080903,-0.0005487072053368117,-65.42886276626429,4.127178544544621,0.0002441722926237306,44.78288677808252,-10.427862380027829,-2.221324559178461,22.621206818635983,-17.969393100550583,-12.2680166404914,40.32888611392209,9.857068026670474,-36.89056090163708,49.59045404266674,-26.441775538905283,-8.98098610392096,126.05684589732547,-0.0017173541391493337,-88.3634739847325,117.44615587825567,-0.001582970636672677,58.974566054017856,-2.0817141063798568,-3.3825715037414072,-0.0021248521683008624,-1.606057820153224,-8.061541915463605,0.0003240053089081365,-6.825765617426446,-1.2710126363694236,-13.558362710337772,-27.971560385179707,3.7945081903812743,-13.086917595496237,-5.76189329870419,-7.3223646158042515,13.680621996496408
-5.571029214380731,0.0,0.0,19.15998396316162,0.0,0.0,5.291464586642005,-8.090066204909684,-2.2683739132900307,-4.801070788007275,6.319526866791578,-11.407120039933769,-38.4227770486301,6.138744995367481,0.000294011742184812,-66.44856823744165,4.9649060651190515,-0.0009258981260564633,45.9311490909426,-11.095793555132772,-2.4377941856220264,23.942724666589097,-18.96660270964524,-11.119477166896646,40.96163352482644,9.134373116156752,-37.158828869711044,49.84005263346269,-27.016406727055173,-9.007869479091717,125.59248805019305,-0.003993928813715998,-91.20975075050238,118.71396252255005,0.0024794922592552126,58.717687602951955,-5.263547910322069,-2.851352742508003,0.005967012859373837,-2.1665196319590945,-7.082372610961703,-0.00017650466638211425,-6.07703720380298,-1.2305277762101654,-13.579286041450294,-27.22204368860637,3.8398105448525586,-13.091830353989916,-5.858059661667223,-7.7319128397153065,13.661703246259384
-3.46219311802851,0.0,0.0,18.150396014652245,0.0,0.0,5.233857154275056,-7.7032496732549385,-1.6734435715380922,-4.382854240209812,6.673374172630354,-10.898869149474951,-39.09181900589158,6.038343696634013,0.0001287422666465654,-67.35661950656514,4.868212968611749,0.0008761067256660412,46.44860502646505,-11.310254794625987,-2.45166648066362,24.707926257744635,-19.744846998312667,-10.717761529959146,41.57174442892604,8.388421761549775,-36.85314275886393,51.29944955799986,-26.99287729286807,-7.687474672700423,124.75223390796418,0.004889696427010531,-91.50042135184925,119.23974896624676,0.00016259357491112263,59.34952851059965,-5.864111381631429,-2.2406396722325272,0.0012939865540914505,-2.807926809893547,-4.518503404291721,-0.0022011470305359957,-5.343668682885139,-1.2272401134977704,-13.332831297301402,-26.50929101479131,3.7539534085023534,-12.860348299719737,-6.4026388134087115,-8.227177423170009,13.81050838536067
-4.2328580331584105,0.0,0.0,18.844898140725046,0.0,0.0,5.722125235585567,-8.57793388674476,-0.9113656612203913,-3.9352677873679043,7.241955748544596,-10.564884799926904,-39.748044668820796,6.314734548184253,-0.0001833590015853995,-67.47393024620763,5.305115456540046,0.00028571793293829953,46.75341796660947,-11.22374369795435,-2.0666561556081864,24.737122373949873,-20.12385945978884,-9.9771390133938,41.797137759785656,7.8547000981606425,-35.82413797033498,53.81578275783803,-26.820294563543317,-5.63069905581652,123.73737614404322,-0.002867157439234737,-89.66415760832525,118.98820955693454,-0.00042717582674107373,58.91911923580332,-4.329199899774473,-1.8796678981112251,0.002399878520543491,-2.6362710720731517,-3.625124347900416,0.0007647057761932711,-5.14283899047436,-0.8398361887530121,-12.537984703629629,-26.381174220826466,3.8277190563098076,-11.977392513137172,-7.114511794809652,-8.41383250837222,13.634176346794375
-5.0401580602962195,0.0,0.0,19.57814498248389,0.0,0.0,6.283880072982492,-7.994542116895595,-0.7809075550338467,-3.4024491459315933,5.989619068531798,-9.5500654668931,-40.17759431331534,6.837809683501769,8.585036923169478e-05,-66.96443668172805,4.929399614898288,-0.0006296712961952837,47.0111212495642,-11.343479841214599,-1.6057590949049774,24.24233739359578,-20.352176434889373,-10.957936636746,41.656796219144525,7.180883966468594,-35.06495830544184,55.72338997913176,-26.171141594787624,-3.826232797320639,122.45229315210571,0.002329102891624723,-92.6748287346453,119.07828704170136,-0.0002481750937380235,59.01568808084885,-4.297126521927619,0.3401600697205136,0.0004990046712071832,-3.079387661091219,-5.588212485987297,0.002804759105041411,-4.8603311283097845,-0.3880592092113431,-12.740088929078077,-26.094738322784355,4.322012743396545,-12.002178941642015,-7.551660678037751,-8.302116884988507,12.628513874760356
-4.168377389334578,0.0,0.0,18.092526462510207,0.0,0.0,5.998027116691746,-7.911527910189156,0.13403297675574033,-2.092729989381829,6.520613801445409,-9.276260190024352,-40.401394033640265,7.1239217380861355,-9.090084674107325e-05,-66.63914062772085,5.139929741102478,0.00039637007395961697,47.5600163622515,-11.560845907841731,-1.2360239831545312,24.3310597669683,-20.845078032818805,-10.87119913314373,40.95064996966387,6.838324870444703,-34.66177568699117,57.13123085629757,-25.36199800848799,-2.4751100251131692,122.39013510887234,0.0026041582261865205,-95.49029639689329,119.17496281704871,0.00012753434830202665,59.3450697069588,-5.078580579949322,3.334807473215309,-0.004849921637478336,-3.4616495778423118,-7.120740378187749,-0.001694313068755343,-4.487923474111841,-0.32481516940490174,-12.659991991391088,-25.730220400908618,4.351953422254101,-11.904333166093245,-7.354224454618936,-8.606058623592542,12.31433162120191
-4.913634148928325,0.0,0.0,20.31144342045871,0.0,0.0,6.4260797284957025,-7.87878088270401,0.7216594792185096,-2.3191524710727895,6.662868953593339,-8.735952881462474,-39.78338859523347,7.249111086509908,0.00029148610459312993,-66.16421805627651,4.825184704458424,-0.00045827507091980005,47.48978031190509,-11.715056165750447,-1.2365627065648608,24.56502520331207,-21.271033568965795,-11.167819939606321,40.8108048027257,6.387708428218094,-35.24905967372266,58.55522952931587,-24.927912655984116,-1.2754917561721824,122.22404171973943,0.0006285958852216386,-96.09926819481703,118.9870963860586,-0.00031152938571118587,57.385490977674536,-6.288995842635849,2.39153159959841,0.00461991914257961,-2.6317414511922093,-6.156838281825653,0.0012212152010779608,-4.766049149398797,0.2629314930439321,-13.039364348212438,-25.996586029446707,5.037201423232902,-12.045516782724416,-7.22298180132099,-8.859524108374552,12.046733858484158
-4.960200491903865,0.0,0.0,20.16277682699691,0.0,0.0,6.10559931419211,-8.058532016463426,0.646420189105822,-2.687637154808473,7.339474234374379,-8.539888598864204,-38.87469719878567,7.447084368757924,-0.0003979315608531571,-65.71381598461748,4.7789262964763415,0.0005331288115482794,47.15276928985819,-11.712388143569415,-0.922625883134773,24.754838964077326,-21.547995120836195,-10.866571377230233,41.14141420997312,6.0634860092111635,-35.34815231758195,59.44410701958125,-24.128943770336953,-0.3563291614221275,121.34059198934202,-0.0009287931599365315,-97.3441077464362,118.578899746797,-0.0004445087927619289,56.06910464015795,-6.378877953511416,3.7263444564588726,-0.0007325380907521862,-1.8430887052388245,-6.641615368909424,-0.0014758521596496725,-4.438309238184517,0.5001625210182981,-13.600619436115124,-25.632406716277117,5.46142977324726,-12.484748029884306,-7.28392338685674,-9.171732820228566,11.258805058822194
-2.5513161666738924,0.0,0.0,18.44525345292871,0.0,0.0,5.1435664162913834,-7.73842786200086,0.7732657193282793,-2.996510671654657,6.9942066244123575,-8.480087852236403,-38.10691109906098,6.888225962481667,-1.2507828044467616e-05,-65.48212681617551,5.010298483628813,-0.00040638631929987035,46.95419770620252,-11.26087050620269,-1.3205299521219853,25.167548651127163,-21.454275960814897,-10.375165795411558,41.21723271832294,6.054532420188333,-34.963753671424925,59.6509544737576,-23.63848721883584,-0.19541171252597336,121.64174720275733,0.0022206700404581595,-99.0892464889682,118.14372338540527,0.0006170094803798176,56.58180620079673,-7.544440806321086,2.730907996610608,-0.0018575209889078082,-2.031440298219401,-7.493891517277061,0.0003754692708350022,-4.4259089494019,0.7121445200907812,-14.840049261796967,-25.523777766312424,6.106236411014002,-13.569709848153382,-7.326867240536647,-9.159764400595193,10.833774348023569
-2.71665119568636,0.0,0.0,21.400757875888697,0.0,0.0,4.957449025897165,-7.679754410563666,0.2520172359298652,-4.506178009385894,6.745204966159729,-7.846582829783376,-37.78953609652572,6.84753594668421,0.00012504261587836923,-64.91192521342177,5.038426420071465,0.0008765075428470275,46.38983254657348,-10.589998686438088,-1.2998862114533085,24.796185674805304,-20.95397983122595,-10.36207817132402,41.14496744856452,5.749889927780011,-35.48114171202781,59.934583694526395,-23.480294617216472,-0.18688301593708706,122.58218379975362,-0.003229163773821186,-99.3306091742956,117.69721653463668,3.4851105231596585e-05,58.06508645756775,-5.846282350274741,0.3631114441469749,0.00045481783609559916,-2.4406831608339403,-7.317315363614671,-0.0005175226924604157,-4.666059554941928,1.1765574934506775,-15.17842888027415,-25.752874973823868,6.661293086413472,-13.71917290630358,-7.766020624169716,-8.767968510757415,10.795031557902519
-3.4194509678387903,0.0,0.0,19.193821455053666,0.0,0.0,5.089627798874768,-7.328017192840018,0.6073847699448699,-5.00396361961395,6.767072226310241,-7.284442082080645,-37.39832654575293,6.610547754847128,0.00012314496516141837,-64.2985075739386,4.698747280800018,-0.0007206287861622719,46.01050079170896,-10.148044978443783,-1.6697594951478754,24.492803767856405,-20.43179299386617,-10.693246592574239,40.97908348003841,5.493860740992854,-35.52813688589736,60.04377275769061,-23.229508139098165,-0.13976310028984662,122.94662493479153,0.0013739806419572368,-95.79708000588896,117.51615561058884,-0.0003431348968553087,59.576562759843185,-5.51147839262785,3.411607684158229,0.0017062455710370951,-1.9488286368595498,-6.944729575924197,-0.0003543564141407746,-5.03307333591134,1.4312540204617257,-15.349106087542392,-26.115708022764586,6.960327668007322,-13.78722800531186,-7.799191897757518,-8.363176107729801,10.471957655266669
-5.329434886140684,0.0,0.0,18.94572839559936,0.0,0.0,5.179208232211423,-7.471782464286703,1.1619453854387072,-5.681102070041013,6.733063625223979,-7.115793788121337,-36.97351276283867,6.432418805827586,-0.00022046402071353806,-63.88067181305898,4.629606008984518,0.0005950026611949832,45.78067502746877,-9.937191806690654,-1.9066214115815323,24.445234754711194,-20.202590973893827,-10.592859496142179,40.972173590561916,5.056817639908927,-35.79855431830656,59.59625147253384,-23.572597021862396,-0.19991549969663694,123.32286305102662,-0.00046726081440123395,-97.17645329578265,117.66793767119948,0.00045347794629474323,59.963634280835294,-5.779562178842011,3.392419510911959,-0.004505398628957072,-2.6438247469399783,-6.978777176072977,0.00041000853927056875,-5.189252361663453,1.8846444944666625,-15.39318914582292,-26.288535488873713,7.399196266943171,-13.664224625911494,-7.7843677585601,-8.311087597695284,10.65287149591724
-4.583490175385749,0.0,0.0,17.232968652698595,0.0,0.0,4.95757092605074,-7.2144279758613745,1.6522187906798944,-5.853424811653936,7.4517289679476075,-7.006479272593308,-36.68370994287466,6.23977069607621,-9.202951007857094e-06,-63.58416463859404,4.739737513748267,-0.00027651344776975366,45.74032565804204,-9.831914290217362,-2.214089163462313,24.51412809201282,-20.069708757775437,-10.41512981802106,41.1461925552115,4.967377589430312,-35.548140829072175,59.28739095152625,-23.898093386638678,-0.23233146198014776,123.70234606938625,0.0032391348434567826,-92.37261906048899,117.60897586979019,0.00042096158827415505,60.75070612256143,-3.2203379882790206,1.0484789759400084,-0.0033687941785940207,-2.7907550024311707,-7.489484307239118,-7.130298451018188e-05,-5.215467473481083,1.8714079947650166,-15.213476093795224,-26.329896711200913,7.322168562492562,-13.500073259695291,-7.555632110002351,-8.211736863182342,10.795458203495405
-3.3783676338728137,0.0,0.0,16.651769358814974,0.0,0.0,4.5038200111767255,-6.776412770767311,1.5272897029438184,-5.722763865293212,7.764450782323491,-7.186021277612502,-36.61877394094295,6.464250955499466,5.619883894126214e-06,-63.12759251103928,4.729738486185121,0.0009640020395894285,45.55105949092866,-9.806563918181663,-2.1861097391287565,24.123393810940406,-19.767204922203447,-10.45750842547729,41.30635096061607,4.904541005182014,-35.23397937647217,58.67703842240593,-23.58164960908435,-0.25804956672927176,123.09737922762677,-0.0020975023070669853,-92.92197818444457,117.54465267044898,0.0004054190148368941,61.17427212995825,-3.028271977415111,3.6215753594091997,-0.007158825206471076,-1.9893485850073525,-7.05575977889369,0.002686565806971708,-5.775897697826761,1.5353507281234202,-15.28747895719047,-26.868594258590324,7.035290991144342,-13.691588624822984,-7.340547084357825,-8.010134975826908,10.580484856757492
-2.653461630672908,0.0,0.0,18.25267782602721,0.0,0.0,4.296189668123054,-6.844142025133206,1.812226467832097,-5.7629673918430635,7.772057927737428,-7.511836768380631,-36.72078995087729,6.49136778333315,1.4400665075482538e-05,-62.58234734796631,4.894315683303421,0.00021520276665263458,45.68736029257548,-9.678531545551927,-2.0965788911019234,23.978977006762,-19.381390790563078,-9.94389534572176,41.07896577356539,4.827278779537925,-35.0481499339466,58.16872943172068,-23.18516669952956,-0.2656326117847586,122.97402326184621,0.005881327193297275,-95.76177205800086,116.64990054938711,-0.0004057970250106968,62.177463883316534,-3.4818433030101508,3.587208612370463,-0.0028526456614108575,-1.043969735346108,-7.206460422678046,-0.0008503516932355302,-6.274958152317644,1.4574779563069915,-14.648456394882883,-27.419518621679707,6.732486248174229,-13.119621406273613,-6.977418024075895,-7.93444090561114,10.549848892840217
-2.0550276069748654,0.0,0.0,20.06330528352683,0.0,0.0,4.210753951114732,-8.025966327837002,2.2470737215242904,-5.494095534805949,7.9308765727554125,-7.884560496929914,-36.80156526553872,6.604880977540488,-1.3088064706384252e-05,-62.1992625855318,4.5735955643609545,0.00015755868908033397,45.7504291000876,-9.202135681345215,-1.6891188887275799,24.083601706282302,-18.70565973471754,-9.312890376307275,40.71743349290323,4.698444857820575,-34.2883185475062,57.21147204405097,-22.8830208809464,0.19385501499762203,122.0940534502002,0.0005875304053852385,-92.08671497361827,115.46859606203131,0.0018935209575562627,63.92824136381126,-2.813455465310908,1.6904823779014395,0.002057443607642117,-2.211918813602818,-6.9294668005186,0.0003854793385733826,-7.31450818651578,1.7342138710271462,-15.070736046842276,-28.435052055206732,7.142791191849886,-13.415741685158123,-6.6997999292794645,-7.92152180798673,10.817079619767716
-2.876386435378364,0.0,0.0,18.67813417416655,0.0,0.0,4.55292862482252,-7.411002421456007,2.012483974140076,-4.968613577247027,6.908082064297562,-7.895854696058145,-36.86809555264268,6.649570231118618,-5.7211373604149135e-05,-62.023337876068055,3.92366129549542,1.782301535190281e-06,45.5645629953419,-8.982011962083227,-1.2571561447341557,23.854906022240787,-18.358317604745643,-9.772135835186894,40.44197114564134,4.180256435372093,-33.81325587304225,55.907689336709936,-22.567145209509945,1.087408977559725,121.67065025904832,-0.0002431478025312122,-90.59287979329918,114.7871977536667,-0.004576811726610259,67.18225716071814,-2.638535928849351,2.105071959022891,-0.0005252666952526199,-4.715022673169807,-6.679662048656662,-0.0037612460565002474,-7.82250090356911,2.0552492987195774,-14.930084451407227,-28.96987916119584,7.391548338229658,-13.16688302485004,-6.558144624273647,-7.840693535312482,10.939408682236365
-3.3540219476658377,0.0,0.0,17.71586685381804,0.0,0.0,4.990180395673171,-7.213727648282648,2.378378798409127,-4.694654308654011,7.1858954911214585,-8.21894078435924,-37.058945553414674,6.358799796603616,-7.10770566846022e-05,-61.558375912298345,3.3476603816136747,-1.2020314822479165e-05,45.246075091501666,-8.56931347990362,-1.526266160429614,23.42131267664352,-17.84677339359281,-10.068898186742684,40.16862936054787,4.51416306594605,-33.03696325944881,54.198580441682374,-21.544047005852278,1.9201040805616194,120.85993030340053,-0.007353308637795333,-93.27311680254041,115.96229786667578,0.00968724281214877,67.86324680946068,-3.8523130435563657,1.7439888371068375,-0.002480808777582454,-3.7759864543982724,-5.999212358759833,0.0013849085869067244,-8.332262186445595,1.9467761005556143,-14.050228498693365,-29.547318760855894,6.972684362561849,-12.379978787010707,-6.676399196201082,-7.792435313348464,10.721429147012236
-3.7371096545761624,0.0,0.0,17.492989093719792,0.0,0.0,5.271899741373188,-8.117750447756418,2.931938707133621,-4.529947781396476,7.802059240165245,-8.827451757581482,-37.684372704695804,6.381211085738845,2.4338688255123147e-05,-61.27120244683232,3.465068050439354,0.0005398909375599886,45.42539910482131,-8.058922344413482,-1.8236111853861918,23.404834334780908,-17.17877742570989,-9.47656771426429,39.496961584787925,4.317884658890764,-32.18362624377389,51.63566761814154,-20.455003516904114,3.8520953973358827,121.05193417578928,0.002201410150488854,-94.51515946701049,119.17414716351404,-0.0031704888873659936,68.47104142915126,-2.2561739066366986,0.5453508327868628,-0.002833324912031699,-4.402745677120906,-5.439854702955219,0.0008987873512886121,-9.18319487857172,1.560360803798043,-13.626343810246453,-30.415287417974643,6.4590917919576905,-12.123164109488973,-6.395195973738239,-7.550217667107457,10.804781651823989
-3.819358312527667,0.0,0.0,17.92952521892615,0.0,0.0,5.199695880534208,-7.75317265428145,3.3723815103386006,-5.116353096400823,7.312913626767316,-8.560664409604566,-37.4925103017126,6.182246566890484,-7.950003289816094e-05,-61.02373799991133,2.993225681990924,-0.00016063208293571306,45.21914207659458,-7.775866768327675,-1.9373092701618242,23.372822139668855,-16.88032429845456,-9.673846912239703,39.219836932310145,3.725948761053364,-31.125487168833743,48.9960500061743,-19.987211430638823,5.9937227360509535,121.42533553608686,0.00026700090301411497,-96.52891791784839,122.95249073837931,-0.007972766396626328,72.98274356324615,-0.4711987695362227,2.9476855141560607,0.004857586445562306,-4.647783451809764,-6.43942938666251,-0.00226859858509888,-9.26422297163994,1.561018125108203,-12.587582297896011,-30.574398808909393,6.082996379055874,-11.149452841445681,-6.273488102889,-7.335138307474654,10.600756165093015
-3.2919430572627024,0.0,0.0,19.600794602553915,0.0,0.0,5.177588595075844,-7.051320562805211,3.5086722400067227,-5.793095061741717,6.662827342330135,-7.968132840008316,-37.08176603170105,5.877519831372349,-0.000122084741251773,-60.24456470825034,2.55666506154696,-0.00033617393218062386,44.22589440024736,-7.43236963053184,-2.1637422210131056,22.425710870187505,-16.559267084074772,-9.724074100540806,38.947008645224116,3.8351880440857515,-29.3489566559622,45.94849763511954,-18.243293392728773,6.921322041484459,122.068369894298,-0.010230626347841817,-95.61401873328097,127.30227219925602,0.0021653742664927847,75.48410132791537,1.7164027706117801,1.8755435122374722,-0.006758678644316535,-3.873118184247531,-6.724390910087297,-0.00011608256647700046,-9.081836347982398,1.8109370894603638,-12.645924546188526,-30.397702892998552,6.337028683391222,-11.112734478353863,-6.6519565539155705,-7.2187782864552315,10.104821670560952
-2.6102628944416604,0.0,0.0,17.560721102908797,0.0,0.0,4.5825024643470424,-6.911627171587953,3.014569149075169,-4.894960834766363,7.6346248674227075,-7.804892284339006,-36.42846039936883,6.184950337916798,0.0005356490063150024,-59.37936160409954,2.6750658011660597,0.0010675208072258035,44.19448684612618,-7.149393166910857,-1.9111194187445224,22.236011876406238,-16.13411461499096,-9.411709326293968,38.88323864893828,3.9244771435903694,-28.087263841458917,43.536083539182,-16.02942400104666,8.050206387597736,122.22761524121536,-0.003344284578348944,-92.18307925605993,130.41082091623963,0.007153737409083865,74.64467178013187,1.5090956449132744,2.6395589117366294,-0.039228225664073496,-0.9560439869685047,-6.753800098341233,-0.0010690005266733636,-9.232706755485134,1.8452559862246651,-12.257030870212745,-30.57738558227054,6.227597466823676,-10.735923620449295,-6.116450089669787,-6.789584605200694,9.241118347849028
-2.961655791734609,0.0,0.0,16.159733053899952,0.0,0.0,4.545927467790439,-7.236418757418192,3.0432213326919433,-3.810237057840974,8.030068609646866,-7.516665735792665,-35.61196598897118,6.395196981887477,-0.0005532892486014714,-58.03144203374658,2.6829521704393122,-0.0012569973870758407,43.90598613191154,-6.570828336240189,-1.7323636049592939,21.728920680833838,-15.511001716876459,-9.386070407653342,39.31600078397463,3.5395039851037406,-28.272821234826708,42.31364989242036,-13.975673245449828,10.380464641472685,120.75183500165718,0.003954594360893384,-91.01639966967309,131.59167722989068,-0.002814410610254019,74.8621139499547,-0.7926346513888272,5.448963030474494,-0.0058429361985469835,-3.289218144149111,-6.208000212306517,-0.0002604592916066375,-9.91490539404235,2.128458160014289,-11.43346626885014,-31.325657559070084,6.191298581602529,-9.861118298012986,-5.61881828247393,-6.270646756444816,8.548449477885503
-3.097806653879772,0.0,0.0,16.613469000173353,0.0,0.0,4.24630064456035,-8.154093105334866,3.663542258848951,-2.771409872937855,8.62004065861996,-7.852321801492601,-34.59699511056261,6.451855332599836,0.00027157721208236085,-56.586737245617364,2.3998082666529035,0.0008033220538514321,43.40959769582854,-6.074201718643417,-1.6411489470810587,21.1631710712686,-14.988122170289824,-9.284280425145594,39.40240344687878,3.723201245797386,-27.523495272223556,40.6109467721538,-12.62941259787275,11.155228711021387,120.92515090117351,0.0002857877390009888,-88.3072425994567,132.25832343597858,-0.003424915126435396,78.80307499967694,-0.6895855426106892,2.17318598274356,0.004639876523579706,-5.386684975280797,-5.566680002069253,0.007537049180469683,-10.583298566247466,2.5581780341337854,-11.117502206401905,-32.03118715683316,6.475966350383349,-9.40746876278613,-5.095289384440225,-6.327205565856034,8.489480657846455
-4.001867563330489,0.0,0.0,17.37049166796509,0.0,0.0,3.8621258747112166,-8.92910288727899,3.890419628005313,-1.4093134041631772,8.318217563812786,-8.89710603848501,-33.19156318263999,6.608286508873726,0.00042630159969684543,-54.49887772185529,2.697285076979177,0.0015352281442884814,42.70620475393186,-5.379376592833029,-1.1680638348909749,20.279496986685217,-14.373834568178237,-8.783412757773307,39.68861978199035,4.0648690383133985,-26.797482791300318,38.75430775217802,-11.656174093887422,11.62797199464301,120.79890875402505,0.0015398452678833325,-87.53341733111151,131.56598548099805,0.007278802361773765,85.0887440296575,-1.630209126242603,2.343119892115394,-0.0021448185730337773,-3.9099375356973027,-5.8673151103652685,0.0005084560799307429,-10.502311268559128,2.5163324064785737,-10.575307402762618,-31.980654680121393,6.238825982262263,-8.91565481924068,-4.708388850604599,-6.2894523562536895,8.656667449730461
-3.7611485177669812,0.0,0.0,17.364904729366042,0.0,0.0,3.080872034125674,-8.162434709748966,4.08626622099715,0.6847895748859243,7.573582625869375,-9.875862334229293,-31.434151561485322,6.345131950057817,-0.0007294068417261788,-52.154513979894396,2.122020610541545,-0.0011700538968863927,41.629146265311036,-4.64049004309666,-1.040268182119529,18.967965324946306,-13.610718533883754,-9.375336870487388,40.08564686720393,4.391861193293222,-25.939232993790494,37.81629624596364,-10.243755276296756,11.374231398709082,120.74061527187098,-0.0029146200182773667,-88.28985326047356,129.31194414077265,-0.013657332310119619,84.79276012062967,-2.4201569185399063,3.1547917275338713,-0.004023131198686983,-3.8032166971697605,-7.7533791956284235,-0.0017973865453256518,-10.28180225948275,3.078028463614265,-10.282877832747053,-31.799840574109254,6.654406785112281,-8.435017498688804,-4.499306326037853,-6.383019416670074,8.918453310143661
-3.7472985846864906,0.0,0.0,16.071689586939378,0.0,0.0,2.681519711221145,-7.42657035358272,4.350421382093145,2.659009971431614,6.532559794743979,-10.99577341791999,-30.25530024928653,5.669219495020094,0.0005307345991461033,-49.42553538993899,1.8137155459146888,0.0006005233083885488,40.91039020843795,-3.185348155019938,-1.2118243963842383,17.67736706741501,-12.245539769019326,-9.572722415055543,40.37978702464812,5.016982232082645,-24.57546163578677,36.84764398060138,-9.421472546113788,11.480350383825634,120.84597058493488,-0.000756508374925905,-87.75157842360987,128.42898989510357,0.0026469933266346788,84.89929862507648,-1.456580827447595,3.0122492657665667,-0.012950089904125488,-4.515307375606711,-5.406688625517437,-0.001323073991926209,-10.987880972814756,2.9601855896114158,-9.287224528976987,-32.55262905293197,6.179717969240123,-7.547900431738564,-4.2504406996189035,-6.138163993918478,8.774877536201416
-3.731817965779043,0.0,0.0,13.103016923645045,0.0,0.0,2.117237019622066,-8.169294609606403,4.947776574726175,5.583261090344814,6.174010295965398,-12.754913237071454,-29.213481342791546,4.778901030517292,-0.0004485583519535141,-46.488705947688885,1.5109335168011668,0.0011069266456163434,40.46052205405262,-1.7329036359526515,-1.4972911891579117,16.44169090467073,-11.005969016986187,-9.830555039888651,40.15004226042503,5.449048303070381,-22.67465094517661,35.25261590039308,-9.360096722910324,11.815799744794376,121.36954264896875,-0.0018775020312888882,-92.2308136470348,128.74433772220817,-0.0029935460712734088,86.23271628265987,-2.494162445552322,1.6001947452842038,0.0037899426937325186,-5.605773202398551,-3.4780144908972814,5.838941722777309e-05,-12.526134672227625,2.9189417457771296,-9.170104668124333,-34.09493715841637,6.098363949030058,-7.453751585753498,-3.51689080291354,-5.926555172029585,8.845030122731742
-2.1406119697890222,0.0,0.0,8.509893690495693,0.0,0.0,1.308684177950303,-8.318346641898431,5.335386246408774,9.246866785408878,7.227714617737506,-14.10208179152949,-27.95132169525952,4.1925974209047085,0.00024597214670377907,-43.64684325184227,0.8822319258600521,-0.0033137018823636115,39.45673556748333,-0.7630643949973308,-1.069819939187489,14.786960695313018,-10.379412513915044,-10.03933817734424,40.762142629416985,5.8227215800868715,-20.479205506338417,34.77383941838549,-9.591648321437862,12.605811418583249,121.27088434398702,0.005349137994258443,-93.43287354309523,129.67242053586278,0.006282287298262349,89.38450696366463,-4.264043882937996,1.353297817146571,0.011451675941727529,-3.9497357687334476,-3.0930915267182852,-0.0057707225316146315,-13.31715135941427,2.38750876231814,-9.350254710701046,-34.85694016490669,5.67020233829705,-7.818274954623202,-3.40382361916083,-6.122520575104721,8.941063437430653
-1.7819183372115208,0.0,0.0,5.3658167728553225,0.0,0.0,0.678310372938649,-8.107672179571635,5.8920771363140565,11.883165089046154,7.578905480536618,-14.55363043053957,-26.84268257034253,3.778047159145766,-0.00010762746844809396,-40.93478125094223,0.698645174243423,0.0030430405388466603,38.557007235002835,0.0801212285109245,-0.7144609271288195,13.163643423068539,-9.970767135849924,-10.486018622724965,41.58279385430197,5.693942165154801,-18.978916701192528,34.27618228912027,-10.139950044784536,14.001062692085688,120.49529023262313,0.003985730354150602,-88.51872001240939,131.5761152791177,-0.005599388796156132,88.53074010305727,-2.70221812513023,4.300454702509044,0.005368266444253589,-5.197877111514346,-4.5155848366408025,-0.00029569399377991207,-13.268750076919533,2.267550305664145,-9.074530172771706,-34.81801167431576,5.457460100761521,-7.6050736100441005,-3.545830269120299,-6.051670114633812,9.000441634617387
-2.334283326644975,0.0,0.0,4.526781318029986,0.0,0.0,-0.028705844693747547,-9.074075926227929,6.174577489206043,14.145032922782494,6.490993582148678,-14.765729289827124,-26.267122218888726,3.7986553814687514,0.00024464967681640196,-38.30700564501384,0.46119736486044294,-0.0006832246198739905,38.153096462482345,0.6615607738214896,0.22685770896040028,11.809880884338263,-9.739138336598643,-10.972986972422444,41.80168868258409,5.71989618821549,-16.50853591159323,34.34466853697613,-10.25584976212013,14.634139567396451,121.39134781627783,-0.006300254749972771,-83.71769136074681,133.29603321108726,0.007870158922641503,86.0258208377504,-0.4640491396695615,3.535204488828393,-0.010721782500557895,-3.488056824075178,-4.511147304730029,-0.003003077984436157,-13.820988896770565,1.8476547088660458,-8.429923457492746,-35.38714787780038,4.830236485605588,-7.1584383846112845,-3.21250241164662,-6.271522151473638,9.15270003239312
-1.9085080957210783,0.0,0.0,3.0961384822619227,0.0,0.0,-0.5097547533548642,-8.718890728011127,5.831245902655467,15.793057562289501,6.342577189379078,-14.319055178472645,-25.745513922469474,3.8304720140876536,-2.1881125311838037e-05,-35.17706275560387,-0.3256638761434677,-0.0008406709607224966,38.01894770656218,1.3882886168893538,0.9169212737509274,10.576138194396803,-9.10064936331695,-11.90758289862772,41.91408738759966,5.930033188532575,-13.752283054531151,34.5358928037635,-10.278038727556762,14.966101320388477,122.12036756034408,0.0014145463973481054,-78.66244361077761,134.84032645865682,-0.0015489948575987396,81.9125030652738,2.941299387007899,2.709218156994914,-0.0005230168017894381,-2.4487958162868892,-4.274648630898997,0.00030237893583416327,-13.721180781142436,1.063850002381666,-7.891420856669663,-35.289874990261644,3.9034264470009243,-6.945294913522189,-2.523720792794449,-6.247855473395686,8.94170671315702
-2.680751041586852,0.0,0.0,3.311259003256134,0.0,0.0,-0.13249738572196354,-8.429435860504691,6.860248270843049,16.959464895328225,6.968784819725829,-14.537878909582021,-25.465853442532254,3.4553896985370143,-9.545198726173985e-05,-32.51517982716804,-0.8767601249846393,3.8650977198929784e-05,37.616343816350906,2.4090933891760002,0.4463532240069793,9.191088379234632,-7.910868210187898,-11.500302385539133,41.84084836263926,5.70251465877567,-13.114542455974066,34.713205550592804,-10.491588537448306,15.445170785378377,122.53735653563703,0.0017634393970563642,-73.60875361564617,135.1043434399678,0.00015349811735731697,81.99602865527044,6.097614853977139,1.5150215199931965,0.0003376628512461422,-2.2418693390979905,-5.0768437115666,-0.0019025487908488935,-13.773454437105597,1.344742770757761,-7.097437628227266,-35.38264119309312,3.872530389182441,-6.101885567955481,-2.292698742683087,-5.966967974772237,9.044868521268281
