PaulMeinheit/Bachelor_Muay_Thai/processed_Data/N1/roundhouse/scaled/JointAngles/scaled0.csv
L_MTP_ANGLE,L_MTP_ANGLE,L_MTP_ANGLE,R_MTP_ANGLE,R_MTP_ANGLE,R_MTP_ANGLE,L_ANKLE_ANGLE,L_ANKLE_ANGLE,L_ANKLE_ANGLE,R_ANKLE_ANGLE,R_ANKLE_ANGLE,R_ANKLE_ANGLE,L_KNEE_ANGLE,L_KNEE_ANGLE,L_KNEE_ANGLE,R_KNEE_ANGLE,R_KNEE_ANGLE,R_KNEE_ANGLE,L_HIP_ANGLE,L_HIP_ANGLE,L_HIP_ANGLE,R_HIP_ANGLE,R_HIP_ANGLE,R_HIP_ANGLE,L_SHOULDER_ANGLE,L_SHOULDER_ANGLE,L_SHOULDER_ANGLE,R_SHOULDER_ANGLE,R_SHOULDER_ANGLE,R_SHOULDER_ANGLE,L_ELBOW_ANGLE,L_ELBOW_ANGLE,L_ELBOW_ANGLE,R_ELBOW_ANGLE,R_ELBOW_ANGLE,R_ELBOW_ANGLE,L_WRIST_ANGLE,L_WRIST_ANGLE,L_WRIST_ANGLE,R_WRIST_ANGLE,R_WRIST_ANGLE,R_WRIST_ANGLE,NECK_ANGLE,NECK_ANGLE,NECK_ANGLE,NECK_ANGLE_SHADOW,NECK_ANGLE_SHADOW,NECK_ANGLE_SHADOW,Trunk_Joint_Angle,Trunk_Joint_Angle,Trunk_Joint_Angle
X,Y,Z,X,Y,Z,X,Y,Z,X,Y,Z,X,Y,Z,X,Y,Z,X,Y,Z,X,Y,Z,X,Y,Z,X,Y,Z,X,Y,Z,X,Y,Z,X,Y,Z,X,Y,Z,X,Y,Z,X,Y,Z,X,Y,Z
-7.807820000000001,0.0,0.0,-1.5573300000000005,0.0,0.0,-2.12148,-7.38989,3.788460000000001,3.813450000000001,7.276610000000002,-8.138500000000002,-10.252210000000002,0.01657000000000001,-2.0000000000000005e-05,-43.660250000000005,-0.021479999999999996,0.00031000000000000005,22.066710000000004,3.074770000000001,7.882240000000002,17.940290000000005,-10.214270000000003,-6.292070000000001,35.92781000000001,4.572070000000001,-19.938770000000005,34.78045000000001,-12.028020000000001,20.14847,124.86569000000001,-0.00279,-94.69839,135.09547,-0.00073,81.34521000000001,0.6785600000000003,8.181090000000001,-0.006080000000000002,-1.4834900000000002,3.4816099999999994,-0.0006900000000000001,3.3529900000000006,2.2832700000000004,-3.5743700000000005,-18.376110000000004,3.4440700000000004,-2.4755700000000003,3.0349300000000006,-4.231930000000001,3.1833600000000004
-4.819203945883777,0.0,0.0,-0.5260171866827703,0.0,0.0,-2.330812358387548,-5.547435782610466,3.6566763942928984,4.885488232894091,7.760166418643517,-9.732887915093547,-10.328619195224702,-0.21690517794104608,-3.058943767672483e-05,-41.856300370168995,-1.1730128733345602,-0.0015562169385564195,22.050143480474414,3.246861584723354,8.147718183580716,16.70168802162456,-9.679956550745043,-6.470231804636318,36.11100484726848,4.558136200652902,-19.97462593109662,34.74876046781587,-11.806545480855268,19.832138292365354,124.57805463270802,-0.003833351420752848,-97.18505589460457,135.2425953162614,-0.00019664931812829624,79.01632402070071,3.322232868243619,7.5452413643401846,0.001652837910559233,-1.4444847240054768,3.523096126152406,-0.0009639779380045434,3.5584821677730614,2.1865295450687334,-4.008901194749435,-18.160859121897964,3.5149139654540926,-2.91553949686413,2.859995423447046,-4.032514890524125,3.167150224166427
-7.467586835256485,0.0,0.0,-1.2380354608019655,0.0,0.0,-2.2553301596803106,-6.937606509394052,4.528977124599523,5.467558232119741,7.64357167884398,-10.935871485188386,-9.957016585637163,-0.23724843603028253,4.852588340369042e-06,-39.4207247835153,-1.9760124740882643,0.0017598709532479317,21.840225028586623,3.0482116972366073,8.002852280227453,15.221973939526151,-9.489630947569188,-5.935191917067307,35.85453956217051,4.123106100901398,-19.406243396850734,35.00734347380471,-12.186183160545067,19.503473237490006,124.38624796863616,0.00059007801310641,-94.68259352537315,135.20018348525113,-0.003076688491818668,80.60240825638706,2.702494301459277,8.5801415605222,0.00011138095987705925,-0.7176179007964129,3.352841014396321,-0.0009397943551116498,3.3930850782655315,2.3168955553905772,-3.61430402102686,-18.336124992407616,3.490073644932804,-2.5002280590084713,2.9854069674422976,-4.106156997800742,3.8675922256865354
-8.28699385397814,0.0,0.0,-0.28016693560546646,0.0,0.0,-2.4821345593606945,-7.242465037930295,4.386461576764319,5.478839286396507,6.635164633897957,-10.600886047928967,-9.820480240869024,-0.22442154987150756,5.382633012239779e-05,-36.03605336427416,-2.1581555953377185,-0.0012800064226638481,22.052218835085302,2.6824211385582757,7.327102640690001,13.39675793473968,-9.546515688141543,-6.406022326626999,35.45269775594729,4.062649307755374,-19.126908006270703,34.75618357548755,-11.738724752948238,19.5844274473387,124.38677406791022,-0.001715360943600643,-96.97563416688949,135.1040441250889,-0.0023453356551910503,81.33362309419441,2.9887690469493053,7.8829293765356505,-0.0014430477921302553,-0.6665365163460225,3.413977221121913,-0.004214152372757617,3.4426256606582992,2.3673970450601054,-3.423635180700441,-18.290680981405032,3.466461047747291,-2.3041984980129113,3.533607596303984,-4.30171437366351,3.6778202842418177
-6.982662654650248,0.0,0.0,-0.5016676428848836,0.0,0.0,-2.3431925964600286,-6.883163295077375,4.290909091312176,7.880557515591145,7.549757998829875,-11.167860906206869,-9.917861594891752,0.025902895154650926,-8.909077994884001e-05,-32.241847168285226,-2.16321747866204,0.0021511766934864795,22.226696050002566,2.0867673979175874,8.027680555138513,11.378857623225619,-9.796016703133638,-6.057723373285987,35.328462538336275,4.5488611546930535,-18.599443645608705,34.958620553117555,-11.263872654010026,19.469943223375477,124.75856204335152,-0.0019183306430243432,-96.28476332296584,134.8511122401632,0.0007789674177906747,78.91812155012364,2.8011361635930347,6.806019949639009,0.0010422254444368748,0.7522621042556505,3.175178839358364,0.0005575484302446659,3.583894350002604,2.434439664266372,-3.503042497634643,-18.14974490948602,3.5581123226683586,-2.3531593316710664,3.8020211407720432,-4.948436673997055,3.800896367652057
-7.183414860336129,0.0,0.0,-0.7351778949075368,0.0,0.0,-2.086097466239391,-6.861174849800439,5.113832659671874,10.096461780176712,7.646929694676309,-11.398324932206101,-9.907082616878574,-0.25323000687653147,-0.00037441575278002295,-28.519208822724654,-2.2676480239513146,-0.0002946102881178491,22.12876945516469,1.915769458870802,8.244833449968242,9.256843321582917,-9.985381055097099,-5.995560399004528,34.87115134564001,5.30305166245551,-17.399132002602798,34.738298500282376,-11.131285874679694,19.534946592373664,125.04616052637874,0.0009737165370224568,-100.92711557875428,135.2326324623496,-0.0012142766254755592,79.5666483265989,-0.9231048532447828,8.742766721353094,-0.00022567451494700288,0.40997280118734813,5.21605915647101,-0.00018241826277093877,3.10387432048031,2.1708102793122075,-2.386001050384169,-18.637860151729654,2.8998470237605027,-1.4125396544639506,4.408096151082864,-5.329495086792042,4.379849924452843
-3.7096354067707336,0.0,0.0,-0.42112987493382514,0.0,0.0,-2.660875727290934,-6.5575818955693395,5.435381132752392,11.78663334244532,8.34533512689811,-10.99246046044138,-11.111796993013435,-0.05082972275228628,0.0004000362912757701,-25.25759524375488,-2.3931588784801585,-0.000832233327437854,23.35906763885998,1.5492563644090307,8.622468741175226,7.9734680387512995,-10.533343253334284,-7.806540991054551,34.83953284828757,5.67292246612399,-16.65877338754359,34.6944418643617,-11.243009242579719,19.870459126841357,124.61511203689538,-0.0005956898771757484,-100.93246200759087,135.2836943252856,0.000792723772567088,79.94565345309566,-1.456989054021208,7.6543222848338495,-0.01235315070479813,0.38467115700358523,3.408746802681496,0.0018179386762474216,3.3546541962328633,2.0574286116066345,-1.3444137829871052,-18.391540304214963,2.4089332465026083,-0.48673494441980547,5.157812390591007,-5.654680473868375,4.667313005343523
-3.5637595058358613,0.0,0.0,-2.123544494154583,0.0,0.0,-1.7854644381464653,-6.637465591571762,6.838694496675683,13.672359832993184,8.477752663040171,-10.986694129906262,-12.405602370705044,-0.2501501507251741,-0.0006221226360364228,-22.03956976100935,-2.6931860347958394,0.000681643753772174,24.005082186685208,1.9189941868369462,8.465914817198323,6.510146952285251,-10.369475290582331,-8.401119194806009,34.85677636298084,6.066272901104753,-15.219440663669747,35.06098407445674,-10.867601276494234,20.283096942011618,124.57201316501305,0.002577662339546,-101.11674897900701,134.77544883053872,0.0011085310799245215,79.98446699201848,-3.3795017754949055,9.944082496620338,0.010785910840073867,0.5156816129081103,4.647147549870941,-1.4863436572323282e-05,3.881234379393721,1.678876837099981,-0.9591479900301525,-17.86060788242097,1.9146553288754178,-0.26915481064821767,5.51955284762739,-5.7067228237503125,5.25596365552836
-4.6368201233664355,0.0,0.0,-1.6687165855032127,0.0,0.0,-0.6570295562563989,-6.5896353395035945,8.12755791093606,13.98154927605129,8.283194931481782,-11.113599938017924,-14.271076259589721,-0.07240520193001063,0.0004269120618834181,-18.564329113748173,-2.5683031981961046,-0.000601994972672792,24.665267172538144,2.574063568030103,8.01155581563599,4.905082015061072,-9.863881743307378,-9.047463895677774,34.46470560645682,6.983182706634286,-13.68557804793082,35.39784851661181,-10.63377826040728,20.83134277987606,125.24792071863311,-0.005754691268891424,-97.71328715309022,134.34641043385264,0.0007201244565489785,78.40028719145249,0.2939526198078445,6.664355267427971,-0.02381898045744747,0.7528625054097431,4.104709119538842,0.0007182383196951616,3.418571041720005,1.7716584763043186,0.056886063173732515,-18.322882903382176,1.6246400131033403,0.7090063328847537,5.638940636773779,-5.433726852560094,5.805696362974832
-4.233750549189389,0.0,0.0,-1.9119202882075172,0.0,0.0,-0.5144304523813066,-6.698274813202416,9.421324223619132,14.925244411772123,8.038890835244167,-11.115561604077104,-15.886175841761265,-0.12785105353456278,-0.0002852957666145551,-16.256206780873566,-2.2491422578766365,-7.850223621011556e-05,25.693686774313694,3.6879791080584288,7.112786854211875,4.182466732361372,-9.016102053880813,-9.675374104419603,33.21794361341804,7.593905429676697,-12.102858536210075,35.69017850192779,-9.830219119566701,21.605984002505537,125.87387308582046,0.0006171896111213208,-94.06435635751303,134.19122259286337,0.0009349760880094752,79.63481948836049,0.5908366988923569,7.851537236815257,-0.00631440192417963,2.342485137319499,5.046750021707556,-0.001733965686596476,3.8505637860915285,1.9422740430832897,0.8774771057858501,-17.88666010964555,1.4793374320797477,1.5343316276773242,5.969239061935795,-4.716735913578825,6.081508227422846
-5.095372405079214,0.0,0.0,-3.7649543995644374,0.0,0.0,0.060964570329924944,-7.827850367173554,11.24367841529444,15.235401503843663,8.09628874409105,-10.26048783487232,-17.454625933713174,-0.10931762895956383,0.0009655273319654,-14.210225430638053,-1.9980564076213465,0.0006185467304489265,26.23495060929755,5.167248900242997,6.322399674888452,3.2475455305016285,-7.8769455122694545,-10.828910821190377,31.943320860730253,7.619271523519071,-11.590772432978415,34.528647840152836,-10.393676627786002,22.46255177706335,125.6812855063691,0.0011058329023759534,-93.36258436734668,134.1593555906484,0.0008684762636245172,81.76122568650658,3.019017094488656,7.6994057698702285,-0.004926167068210022,-0.12333198443591999,3.7908080188747353,0.025862555163009535,3.554829113745871,1.9107073765496005,1.4418923403767727,-18.17557907498005,1.241131878044966,2.046785490934137,5.764123609638514,-3.561579746500571,6.604010674479211
-2.1062816718909954,0.0,0.0,-2.870152602025652,0.0,0.0,-2.1360136169693806,-7.94226370897443,10.101495651579706,14.594310269775514,7.899951197972203,-8.56657722867761,-18.41069084026487,0.4658168795843969,-0.0016065266176099352,-12.762716832695917,-1.5963289668322473,-0.0005330605972993119,27.14034786177179,6.045581081283177,8.179586319308317,3.0407202171413052,-7.603175616651293,-11.890922365383233,31.652970454208763,7.589033163931809,-10.878133998387705,34.745974690474824,-10.412888809079194,22.6419834814666,124.41791610652102,0.0021684556839474418,-92.08852593163698,134.34641356006628,0.0001079026262648161,82.39423605256809,4.03240200822912,6.449788165419507,-0.005130660871483476,-0.42321668880281593,4.744176922306179,0.013725143832565396,2.876464095294442,1.8003116696269004,1.7682350285251849,-18.84854789782243,1.0178289377323282,2.3089686546862427,5.675801447830273,-3.2457487406891516,6.770146182059672
-3.5285566303007703,0.0,0.0,-2.938059241409336,0.0,0.0,-3.480854536884739,-8.089765781081868,10.971292409583569,14.304255401569657,7.957067104047259,-7.963863931236074,-20.075914808704788,-0.5476649087627818,0.0017809811409962267,-11.57697592863575,-1.394437716542936,6.708852226087917e-05,28.259304664599657,7.295079218069674,7.528913801224113,2.7668277890075017,-7.410070614302797,-11.504872972293906,30.409053007517848,8.1551037244626,-8.86804468368607,34.55463182071711,-10.472933437253285,22.826683369693892,123.71148809959747,-0.016250744219460437,-99.06680079271875,134.62530393172293,0.0018177125248079087,80.99195438719487,4.820399446804266,3.4096377674856293,0.0007624889669814496,0.10402470677041745,6.261374905532018,0.00661401431672383,3.019725836168134,2.0550872323304903,1.9937710404863707,-18.703497493474604,1.1710761437019448,2.612721899400812,5.084659556121849,-3.3685814469828634,6.830404043195336
-5.138253081249378,0.0,0.0,-3.933892186719002,0.0,0.0,-5.7254860246002295,-7.932123156089317,8.88763833069353,14.02878681075235,8.53091333313275,-6.883950102640049,-23.73160020761947,-0.8897410563389571,-0.0016463201168958619,-10.801761041167877,-1.0735164632841196,0.00010093104852297263,31.536842169329496,9.184728955146342,8.070528032680757,3.5436534707037515,-6.77422007174127,-11.515579649801758,30.8786408815855,7.982989862578763,-7.10375650320497,34.64433629417602,-10.496121444662844,22.988373398451202,121.09871426816329,0.02855293140329604,-96.48644960152643,133.8192916138751,-0.004338584501159691,79.78940091259703,6.296769507532472,1.1866739502861197,-0.005224500544490734,-1.49575635109798,4.97984907379339,0.008124024107014852,2.9012147244360884,2.6519070488391066,2.8164213761874586,-18.81050805141995,1.4213813705417397,3.597426918030406,5.06277132234293,-3.135166327011004,6.598945726367427
-12.110774355397457,0.0,0.0,-5.109881070182916,0.0,0.0,-9.001305754485381,-10.85524541612163,6.772936489840806,13.780376962735449,8.620924687045683,-5.972086270143126,-27.963193748572515,-0.989383221696386,0.0017061906149511217,-10.693592663075822,-0.9891692916497736,5.729316408521709e-05,34.88411439753197,11.579653990468112,7.380260502457981,3.997204782386792,-5.423600716289146,-11.59905822265886,31.683616616250077,7.718182315415372,-7.130360407173624,33.918053984654314,-10.342162656538646,22.68454818261823,120.47704236432924,-0.0002064231964194499,-95.3985802772711,133.66973373614877,0.0010358667429929405,79.65635264300067,5.447947674235998,-1.702887027500304,0.0024891160111272697,-2.4142923366558944,3.3216365944688655,-0.0025522579438420705,2.8093244226272263,2.208540238009038,2.249959010444996,-18.91051848740264,1.2188926495909922,2.9074136066401848,4.30260073192729,-2.2240860555381676,6.6624500680563985
-8.83413787118643,0.0,0.0,-4.597063374704316,0.0,0.0,-12.809982075992306,-10.562106281477227,5.978836340917834,13.074129712407824,8.45532240367669,-5.374922489048117,-29.844712406635313,-1.5010662542980335,-0.0005104640450872868,-11.206953148160494,-0.9180536305078658,-3.5616133882384616e-05,36.002498227077226,13.02723181145766,6.77199260698592,4.196301462352667,-4.896977277855513,-10.811999393232927,31.213623258279263,8.06022812789459,-5.730267217747714,34.401291799386705,-11.198464671794692,23.684628918775367,122.17398555995932,-0.009026737695263076,-94.55938068547941,133.12183157052965,-0.0007284590454911529,81.10875686149355,6.479928974541737,-2.609381601999676,0.0044046019644471,-2.5716720767905668,2.0920295978635455,0.00747876853371682,2.2472995562641875,1.8380813664339248,3.353652129939181,-19.446645279039878,0.4667415697922204,3.795282596354854,3.4080090355284356,-1.3629828714332088,6.368118997355731
-8.3343499854915,0.0,0.0,-4.795561019244358,0.0,0.0,-15.424430370987418,-10.037698922906268,5.626068947748647,13.045473522972937,7.802215009472317,-4.831938487661174,-30.1985094653284,-1.5126517988258488,-0.000163640553564587,-11.874486046052496,-1.450671849766212,1.5625902267177367e-05,36.74784388327499,13.637247291692422,7.01639843410512,5.296242463515416,-4.516567667050643,-10.503587656574252,30.99286560765266,7.51784509028328,-5.762848405353375,34.63960468824819,-11.773543122016848,24.139687889354487,125.73985014910714,0.012207258309032644,-92.75424228257633,133.668183896046,0.00011747418065949087,80.99878460335307,8.565227437587138,-3.1756877563975134,-0.0029515613617394436,-2.0359918046741283,4.121621754155718,-0.002620480214718213,2.1244507787896474,1.7296162049043788,3.9964393275481993,-19.552359738662016,0.12855321602952235,4.352213083099515,3.442090481787883,-0.830390154679754,6.107917999577993
-11.818380000000001,0.0,0.0,-4.5762,0.0,0.0,-13.801359999999999,-10.06167,7.104790000000001,12.874109999999998,8.28958,-5.439320000000001,-30.420510000000004,-1.08299,-3.0000000000000024e-05,-11.89053,-1.6446899999999998,1.9999999999999995e-05,36.47624,14.112419999999997,7.06551,5.478039999999999,-3.702689999999999,-9.15833,31.545690000000004,7.103559999999999,-6.98231,35.066720000000004,-11.91226,24.486349999999998,129.71402,0.018600000000000002,-89.43226999999999,132.62701,-0.00196,82.37521000000001,9.134740000000003,-4.83459,-0.006769999999999999,-1.5557000000000003,2.31042,-0.00067,2.41326,2.28832,4.126589999999999,-19.26108,0.5996999999999999,4.67945,3.2682800000000007,-0.022500000000000013,5.977970000000001
-8.899370266443617,0.0,0.0,-3.8983954277963297,0.0,0.0,-13.841743901764854,-10.74932965916439,9.460451699096712,13.087227665460352,6.842025317859884,-4.072988649651878,-29.46761983433528,0.11145835640232585,-0.00044985247450253697,-12.03863777184734,-1.463721812106479,-0.00010436518038498579,35.39565708376192,13.727588576645084,8.154374987082253,5.348270541220366,-3.620134150720126,-9.209269269277994,32.30366624703389,6.535373195611126,-8.255607217773719,36.05166543621787,-10.988955243668974,24.314892590267874,131.54401107344054,-0.0013822064849104442,-89.73329602654279,133.1424715455095,-0.0015932226398310332,80.85226352494331,9.978360544117454,-2.8159366893887032,-0.011156574561732042,-1.031087503243821,4.288001667009622,0.0027235599042760433,1.5501946245857772,2.1204074788289757,4.4475872059052595,-20.113699528597472,0.32521999296243614,4.915547792423785,2.9197906148241555,0.8103981009811827,5.321131523289874
-10.244679232499543,0.0,0.0,-4.656578000773537,0.0,0.0,-12.881001973522677,-8.851335602424722,11.727785954662089,13.236230229439895,6.3325747481864365,-3.677080487918622,-28.718729530329906,0.06472784988247834,0.00016586975821668079,-11.764344814983339,-0.9486816866514121,0.00017603576782000243,34.68426753096529,13.919309432653398,8.0812108064329,5.012185379355678,-3.1688189765956394,-8.62612370750012,34.01520449877279,6.084378164415183,-12.117065189063405,35.48718445357931,-11.225768627311243,23.759790123170102,129.6055754989925,-0.0022395550557896,-89.89500555099058,133.79860329094382,0.0008626406795989864,82.27060936899917,-0.30877887029445666,3.816148789040633,-0.027347307819145655,1.1197658880735302,3.75291588551094,-0.0035779129045925223,0.4030537638379187,2.4030855879746786,4.984792428615822,-21.243405299427387,0.3898598108824122,5.518779134197694,2.7885954267992346,1.7687106411432532,4.897690958053076
-8.833424957258737,0.0,0.0,-4.1285727959225715,0.0,0.0,-13.634779305353785,-10.30497801861869,13.017054839828418,13.252362743754494,6.278991612318137,-3.116481853891134,-29.335856319943282,-0.43353528257117757,9.086568941252783e-05,-12.220582908590984,-0.9052674701772101,0.0003176024369465352,34.944019872901364,13.956519449259073,7.217579925805335,5.330494183444513,-3.5586693315092437,-8.317236930765015,36.21363029244418,4.942511223180881,-12.50111391251663,35.84287003111436,-10.879990345306641,23.550980906273093,123.64402864427362,0.003038041950707582,-91.44447072480845,132.95600069969225,-0.00041221720042485373,82.25199826876174,-5.850500758309049,6.8814083362482945,0.0004745924465132346,0.8919013078806022,2.9129738265578586,0.010187695302231299,-1.2166594332692537,2.3310745520058274,5.386497203740355,-22.84823088347026,0.1749184404160508,5.8653029453294545,3.015466209889874,1.9462720146359356,4.718727796311338
-3.7966830955422424,0.0,0.0,-2.7100329728193007,0.0,0.0,-16.828337953287647,-10.46729869938924,9.368458305307422,12.79296396278381,7.27013160152896,-1.4384336287222461,-31.390208391483064,0.6237945943397947,-0.002152128518093965,-12.51595308332999,-1.1802131165649008,7.272848742766062e-06,36.40430763593951,14.965366620809611,8.296898498491899,5.95432211075965,-3.5956943491582707,-8.753046075792593,37.79755570111949,4.294763595365639,-11.42135155924043,36.46285124911148,-10.1895207459139,23.084180845319892,120.60441386544753,0.021843382907516806,-94.5329826377821,132.6716393138152,-0.002582329697602687,81.91027543736554,-2.553237995968994,4.256416887556988,0.005225840881150852,1.6832730733259451,1.017450638187199,0.0015759652257600902,-1.261589575291334,2.1771220501606594,6.759609647252217,-22.83597526742476,-0.47339203940878194,7.084294857365724,2.9720984321211166,2.4300806981821483,4.699585221767773
-10.831970729937286,0.0,0.0,-4.316284959587352,0.0,0.0,-16.787956007909457,-10.091181429066662,8.10894025070886,13.342232084577592,7.203237835767638,-1.5826835403676687,-34.016662826696056,-0.4416009177191084,0.001483922100112862,-13.172185598805026,-0.9702594596632533,3.4522502890218914e-05,37.941419383842664,15.724131600027166,7.092060918059469,6.692413167079116,-4.273987461026414,-7.684563192168672,36.53512220429197,4.0414416970359595,-12.438798039745848,35.379658444972954,-10.051293522769113,23.366639223545178,125.9642391503494,-0.018031813984309912,-91.00222567068056,133.22386785623968,-0.0004835321325543636,80.27674369730386,-1.4745501284449103,7.643515458480067,-0.004398627134307947,1.8007507692313414,2.1089836268521776,-0.000989357449209677,-0.9034502002079108,2.064239399322202,8.190703018906934,-22.40714161189072,-1.1034514625734055,8.373207015034598,3.1780669719438777,2.314872375060119,4.013689568978525
-6.911440613573249,0.0,0.0,-3.5351135332010926,0.0,0.0,-16.435917436252783,-11.226843547291402,7.532097651799813,13.49949091362876,7.433481587346569,-1.852876792401005,-34.80960213120956,-0.6847343087218244,0.00012531269251100306,-13.751243079703844,-1.3039433589050802,0.00010716646615712101,37.68145299121302,16.170460983555635,7.091543340379846,6.930282126782853,-4.847252738814365,-6.469586835610016,36.67441004542411,3.1393958995947777,-15.064257477129228,35.748310845537254,-9.68392621720668,23.53155100090887,131.7728032615028,0.005504078334094165,-88.36013846303965,133.58587607911025,8.759336584949893e-05,80.06701767727425,-2.7877171464980335,3.187257070110075,0.0018665356489036824,0.7202306811533556,1.7489933677840914,-0.0011497866181535547,-1.2999219029891298,2.0571223331946387,7.664839921091035,-22.831191705798823,-0.9173195633545499,7.8816268684303425,2.4750708321782553,1.9802593017785655,3.6887584116122714
-7.592518466547606,0.0,0.0,-5.107187699673365,0.0,0.0,-13.93272546297877,-10.227856890082617,9.372494677378722,14.311757823628144,8.149779810575748,-2.4098090845158744,-34.245115314842906,-0.6920574445882035,1.1913168611922655e-05,-15.181031542890844,-1.856257921568111,-1.2673048826166336e-05,38.01024423957025,17.09682716012557,7.289741373138204,8.365134056093176,-4.591362177655746,-5.167912313237719,38.13256976656762,2.949221967037494,-16.061580177112653,36.08072528236085,-10.526739958398373,22.92945169215138,131.03939310000874,-0.0029130528033129792,-85.99212208366566,132.74418599355738,-0.0049878434849205,79.99128661078575,-0.49520940801779956,2.929347603542372,-0.0010641361044806414,0.7696149869494108,1.0751470776022896,0.000833201135137337,-2.1877976958949765,1.6108463416854377,7.730338544729511,-23.71901081963224,-1.3564740592501459,7.778716190805758,3.0012300009183077,2.845853384912756,3.6515623108766455
-6.871860766284961,0.0,0.0,-3.7069284956092172,0.0,0.0,-11.547043331939118,-10.671550676815212,11.665307332197449,14.635547549572753,8.729002287046708,-2.9320152750256083,-31.224085457836967,0.011116713686236544,-0.0001781134167902268,-15.616996243207193,-1.7595062950284588,-0.00011030497145877438,36.154166278612486,17.308454407321303,7.4535846552845495,8.025664352846768,-4.742977107127217,-4.338186377300203,38.59886318920893,3.918616663063204,-14.042693101815837,36.22236373488392,-10.223615654599708,22.830990667859346,129.1949331044115,-0.0007943141925409431,-88.21480662730153,132.08899591459155,0.001324116322871453,79.85223380528824,-0.7601633723241555,3.8023416030391926,-0.006232802614197174,0.981375394474904,-0.49921912125304574,-0.0018941821124983077,-3.0024920049289685,0.9609760824047167,9.22082317112301,-24.46153045578318,-2.5071670616184694,8.927715906567094,2.490391434394428,3.4968866342883564,3.367525637332832
-5.2290754473794925,0.0,0.0,-3.8336407425901053,0.0,0.0,-11.050214724658606,-10.200265079239086,12.861344323028055,15.377238896173829,8.97834549568946,-2.07786586247784,-27.699843446329528,0.455641183243885,-0.0005487985478943621,-16.307991119697483,-2.236536973079481,-4.625375980462717e-05,33.30297946384509,18.049283580408428,8.304433961891023,7.527392664982893,-4.481710830455214,-3.9095116503682825,37.1498862317024,4.539925056589611,-13.38102332269164,35.9125526920096,-9.849376308090267,22.407003742027197,131.58733668318973,0.008249492062414045,-90.45410725323616,132.2072404956046,0.00015495996238360486,81.88681794361538,-2.914533246562911,2.6229876826068463,0.0005106628201764247,4.290337331842507,-0.12120098498623968,0.00021746942560730518,-2.6900439245027443,0.7110879282678509,10.82100384073393,-24.054476603041568,-3.3239362871416382,10.327881008081823,1.508796709644626,4.5363213198935375,3.239404722117373
-5.0986405400450625,0.0,0.0,-5.297709337652959,0.0,0.0,-9.23477629977702,-10.41537040764122,15.337222128952638,16.495546112403993,10.624776797624818,-2.8399990130476445,-26.164734059781374,0.6481889216489888,-0.00014446701594855377,-17.530616798946173,-2.575063604253475,-0.0007766291941500901,32.49652487889814,18.255850819540072,7.473389616177405,8.166308364274753,-4.055624577851997,-3.5399836477744238,36.24113553317041,5.461286637778605,-14.533177510657287,34.88206363806273,-11.014061019230558,21.49338049490422,133.8318490963549,0.004648406202974306,-89.64019197877657,132.32491077487023,0.00020409856192344874,78.29629364905433,-2.2314567046298497,1.8541009363489762,0.004761167116118476,2.0829728634498843,-1.5807680174309182,0.003118062219529564,-2.644953848795907,0.42987418002704136,12.496643034589269,-23.89685337001203,-4.194833113900026,11.789846485439211,1.8687698353496713,5.430093785306334,2.2806170259169103
-3.623368989246789,0.0,0.0,-4.914573525627306,0.0,0.0,-5.9280857078383535,-10.273985633117743,14.301769611434398,18.24783503726126,10.466390948247033,-3.031136848693928,-26.92719652216616,0.059643629413743106,-6.353826543461985e-05,-19.672187486115387,-3.2514262964814575,0.0009009237126409243,31.95162460413558,19.71887179470337,7.568771236683213,8.888821086099618,-2.910894770454209,-3.4897751253211386,33.69161834123426,5.188740107957171,-14.219772161775957,31.783808877395266,-11.733565703407397,20.72093762331557,136.0109939207878,-0.008721144796834225,-88.97900240160803,131.88786064679317,-0.0016213057169260703,74.0441109509498,3.2724680048574193,-1.162855084942703,-0.013022403449764944,3.3607752932133503,-0.07571243026493332,0.00025481349412129987,-2.9794945393691505,-0.08004638346693894,12.187649998309649,-24.268546097824128,-4.557919776666779,11.315530834499574,2.167904710997282,7.118597657056976,2.0586501452678103
-1.870200424609806,0.0,0.0,-4.271000973560039,0.0,0.0,-2.915110501874335,-9.766992571270668,14.557176874727153,19.79562016964568,9.315398276855214,-3.9230075496113304,-27.46574642033857,-0.09911513803609352,0.00026413399428243167,-21.889567261864396,-3.629833380702855,-0.0007576589322202699,31.59400334518051,19.22689879688433,8.141368187855306,8.671371570292207,-2.8488803554512057,-4.619105493405552,32.455969088790276,5.836315064315212,-16.21521135337646,27.3371152478566,-13.31037913256083,17.089065377095846,137.5534465883421,0.00110128764964872,-92.77651786046566,130.54874736325,0.003428699101504646,70.58795335567014,3.075698409190063,-8.074977788705253,0.007453312741080188,4.906208652129046,-1.8727974967771048,-0.0028359446683670453,-2.4199144380234356,-0.8386241666837586,11.301739241844626,-23.79336406194327,-4.9422863236292836,10.21061760568986,2.3672503085813643,7.209529373790176,1.4187014321827454
-2.2408336545818965,0.0,0.0,-1.704134490821601,0.0,0.0,-1.7705119124800313,-8.523594508922027,14.886533800936569,20.358945222116862,9.700804779963375,-6.34537260340199,-26.692550814561216,0.5923260313795381,-0.00012456634296073346,-23.142961883381215,-4.02112740037743,-0.0003140822600018021,31.237212342297337,17.224751958694284,9.422248168392862,7.819006034056239,-3.305801785557884,-5.531246418131326,29.018252043133604,5.511128479294841,-20.314161987351437,19.065769892444184,-15.700008916513958,12.082653406775593,137.4635142678718,-0.005445379599396955,-98.6486852217237,130.18202159179057,0.0005918902549754885,71.00797295709637,5.164185134989918,-7.2037673734878025,-0.019617048736243852,4.600775429517457,-3.2475394615021274,0.00039056475739378857,-2.0527544527997352,0.17083931737065317,10.635313925293243,-23.441530706728543,-3.7593483683089834,9.957344737710235,3.2973285567425403,6.219582622292649,1.069421474924713
-1.9493200881877468,0.0,0.0,-0.80469161571644,0.0,0.0,-0.6571846913211431,-7.371526629908512,13.554377349868206,20.569315660320243,8.989328394577496,-8.776811011504176,-24.483880017255757,0.4979342217169238,-0.0009102796239305949,-23.514318745901516,-3.6992816173599383,0.0010731466921881758,30.68557223612038,14.055703197548125,8.124574136204641,6.4914095158631335,-4.343327541218186,-7.738933171961977,27.116520291835464,6.057789750597457,-23.921488642642135,8.236022820034622,-16.04603830631381,6.024858076397595,137.71775808738025,0.0023412051464367155,-96.01229887568282,129.36923369006385,0.0023945246296213974,64.71659723980073,3.1196158859857657,-11.737308059122071,-0.031240730986046458,6.173263573287618,-4.000565380353641,-0.0016234399577376207,-1.6015359801375675,0.19977999017696452,10.076799913949332,-23.024537540479,-3.528558027939353,9.446886913187766,4.651023515246739,4.486854530966628,0.6948156362408348
-1.2952521916103443,0.0,0.0,-0.4257399631639737,0.0,0.0,-2.0559831377292324,-7.368668157875109,9.407860288539647,19.705970396900632,7.448460871159635,-11.84277900682557,-21.72116214144092,0.2767515035261346,-0.0009274626862724838,-22.33846925384247,-3.2016968570366586,-0.0009416448792656499,30.57509420736973,11.37976096123652,6.369652042177668,4.492507345882578,-4.476670638763514,-9.417968435989208,26.984616064198786,7.28223030511146,-26.027003337340997,-2.2207891965658044,-13.968435353891232,-0.13538212699744626,135.5320236401638,0.005535037779986365,-93.89547648576811,128.02198180591824,-0.01358367532941411,61.41535031878636,5.729658438815379,-9.700741531871461,0.004936180801595268,4.250132228127563,-8.008934739450387,0.0043984055752973525,-0.2242802027088408,0.7755539127367523,5.229972514752304,-21.866598067285224,-1.2133139190795,5.146287734220766,5.638911276574202,2.5699740744209345,1.8487503738839313
-3.73257497785844,0.0,0.0,-1.174306204333704,0.0,0.0,-3.96836697239438,-8.453238605001511,4.8005514388700865,18.073596586102777,6.053056670281566,-14.05858208390485,-19.266664182380907,0.7926940889375278,0.0003871389947154661,-21.42188012336606,-2.4206009534969657,0.00022288410153362213,31.14142400965197,7.644839916973484,4.004799165281742,2.5856697004813016,-4.7509511626764676,-11.712331552308292,30.942361453919727,7.828560103805158,-30.144444498963864,-8.587221168045659,-9.942422825663806,-3.7375697273994932,133.16934531786575,-0.002510748431071916,-84.30937167719976,125.01088170471371,0.009037150189563924,62.367064458454344,2.8977601173493692,-10.807188891795995,0.011444200762688265,1.03785760788015,-10.14281315141855,0.03798925968869571,-0.3119809464208448,0.047212323906501825,-0.3392342202122478,-22.043962326893983,0.1694659459943781,-0.2976378002516042,6.426236629272646,0.7594117086020616,5.054616222583853
-4.080839999999999,0.0,0.0,0.05352000000000001,0.0,0.0,-5.4335,-7.919089999999999,2.47858,15.202219999999999,6.0607099999999985,-16.4231,-18.201099999999997,1.5990699999999998,-0.00020000000000000006,-23.077300000000005,-1.4904299999999995,0.00026000000000000003,31.789569999999998,4.440190000000001,-0.048069999999999946,2.0653999999999995,-4.21724,-13.963629999999998,33.4266,9.42576,-33.97155,0.016819999999999835,-15.007269999999998,-1.91019,132.59949,0.0083,-85.83923,118.87839999999997,0.004090000000000002,65.64893,7.487279999999999,-11.96603,0.00786,-6.050509999999999,-12.471420000000002,-0.01758,-1.26134,-0.62199,-5.5741000000000005,-22.893280000000004,1.4829500000000004,-5.40959,5.451600000000001,0.24572999999999998,8.8448
-5.237576235736201,0.0,0.0,1.5710410657826852,0.0,0.0,-7.762189066949796,-7.919857849434443,0.6795753926027175,13.212217588400677,4.577290166342827,-17.157141051276557,-17.60440290709321,2.396176785617682,-0.00023363519582607795,-26.938948972339908,0.2055968974100211,-0.0008400146190878493,32.79884676341955,1.428850765130338,-0.68678874430664,3.839270700223241,-5.319452031056492,-16.448247845705932,34.39922885044369,11.5119565417384,-40.04529487577092,16.728541774326683,-23.614308221441433,-2.91898689479772,129.04384383166786,0.012151579197434799,-84.01476477376202,115.90353373472574,0.015840030699122022,61.33489504130708,5.635193155289912,-5.403977983283687,0.009946510319666212,-2.2163209231914864,-13.956918102917491,0.006813215638651405,-3.122054544114057,-1.5210581390023232,-12.172972581992676,-24.37351906681095,3.060559078571381,-11.883927928628081,3.0374187772664216,-0.9610740615945879,14.757296760870853
-7.960687822472325,0.0,0.0,2.1092561032912998,0.0,0.0,-8.040942367117577,-7.978761530401223,0.34888385999025456,12.168101726938914,5.530484650234972,-16.721683969293604,-17.716617879253405,2.028153466215646,-0.00013413719388055025,-33.17102972876815,0.7824657811366726,0.0017086658525240824,33.40492424619639,0.5042523178250827,-2.0583561406572013,7.600856627933545,-7.4054559221368805,-16.53296870313158,34.10357033711237,15.73233182725331,-38.59251093338407,35.80886987699515,-30.04687193409194,-1.28723524900182,134.422169007609,-0.06385297349430458,-78.177650170997,112.13511369807522,0.0006667499731378909,60.715823913410276,-1.6852659447603007,-11.583290364626635,0.02027958456308885,-5.142609056780798,-9.863036275612822,-0.00999805408732042,-5.276590443460204,-3.3307847267478343,-13.882957793567117,-26.35656747046858,1.9897833693908842,-14.132729159650077,1.226947229182149,-2.874496005809475,21.767332054237627
-8.405526262276066,0.0,0.0,4.102323419545963,0.0,0.0,-8.418872449401102,-8.288426484497704,-1.2344394249058022,10.583874042112376,6.210557304018162,-16.035782124177768,-18.119759612652643,2.2300315419861634,-0.00017214364860323433,-39.39670046896064,2.1054034220274436,-0.0038326089103797776,33.95813652682863,-1.4443781705489436,-1.497977159961227,10.801997140413347,-11.535475335830018,-16.450695304026418,34.12833861004,16.97039148593692,-32.28723093771746,52.524891536854746,-36.31112297732763,7.531974990854969,135.55531900738637,0.0019736717934655265,-73.87914298995757,107.34509527818243,-0.022039639166699408,64.80401954205709,-1.8549410766454448,-17.251381129496764,0.005055031858474801,-10.984575841564507,-8.664506512823706,0.0032523163338950365,-5.071047197525609,-4.598545690474571,-14.266097921784464,-26.103736556890585,0.9439965896289463,-14.945178480293798,-0.1442987234377131,-6.462118043971346,25.36684134806355
-8.552880059355887,0.0,0.0,5.977907399717692,0.0,0.0,-7.727031812856099,-7.598429431257444,-3.1659591818083532,8.885479949942114,6.5988440906092425,-14.4603675286934,-19.07006461730799,2.30271604879505,0.0006479591706958852,-43.76477130198131,2.949511846205818,0.003004848297433662,35.37028599516068,-3.3662347689560024,-1.0442063018358456,13.077286735561161,-13.953285890364217,-16.227317705172013,31.251594565584803,17.059839394614777,-30.641641878608546,62.02425891016013,-37.99191406794421,13.495849987093614,134.13721329458872,0.0004490466952873748,-86.67070082702621,103.8847383344754,0.0008817758047820578,63.02699740484334,-2.5980291835959646,-11.648137014612455,-0.004059638730761972,-10.850660446983595,-7.439393985059908,-0.009120685461969568,-6.244505154866996,-3.465470928384543,-13.283383058288614,-27.37622751519385,1.6486195912120039,-13.622586990060485,-0.8961725955558224,-8.959019594116969,24.351324894865673
-7.569843202364787,0.0,0.0,9.52969606029993,0.0,0.0,-6.682736347428181,-7.3469476623542205,-4.465362091978701,7.093284844582378,7.201233125521014,-14.47139467903353,-21.107915805920086,3.049282870868578,9.674859910582345e-06,-47.62309506275032,4.219146209535912,-0.0056033839985549574,37.1661661463884,-5.7252340732535085,-1.2080749029963564,14.549268567835911,-14.651575019799516,-15.035856125372552,30.386332426409822,16.46717041237911,-31.03063735452788,60.086991758156834,-37.54651735844063,6.246167968115942,134.51462371522223,-0.0015489796462458954,-85.44899127021807,104.64794231971227,-0.0008592631779678654,63.62932510422649,0.24902029666732514,-11.862114999610176,0.005031196894741197,-9.157457880321465,-8.368720648823482,0.002738743546505093,-6.400940621846802,-1.674455406018704,-14.572433108580189,-27.4484168187726,3.78300117477113,-14.180305585430306,-1.6666407221012873,-9.68724829842758,21.101748090430334
-6.884366906578088,0.0,0.0,13.438529250935616,0.0,0.0,-3.6542069791523386,-7.119668936965198,-4.30119746881695,4.000560033517668,5.795729047261588,-13.377272757366326,-25.175007377491106,4.317863324461608,-0.004606782728894101,-52.36469657106907,3.739075885510348,0.0005623253596487642,39.155811406263865,-7.24674350301217,-1.4816532544463126,16.353638425185693,-14.521209695658385,-15.861749687431809,31.346194557129103,16.269964032406033,-32.60115964694745,55.50107096896599,-37.01289445919907,-3.9640263141350407,134.5188902927079,-0.00024013906244884994,-84.0150593267269,105.54584951730885,-0.0009155933340025133,57.68496023295643,0.7086104753537209,-10.18215736137691,-0.001107209471403887,-7.808753933261225,-10.455272703018284,-0.008799563576092836,-5.103408217574744,-1.8657920748175534,-16.78262572515497,-25.930206148573987,4.393811531596738,-16.317386530101338,-3.283768296345474,-9.535534508229732,18.741197841841892
-7.209077509457517,0.0,0.0,19.751928325303126,0.0,0.0,-0.6574513024177202,-7.051197340759776,-3.7879509535902756,0.3326909948518364,4.6940567884755104,-13.485858094745256,-29.9142688329383,5.263854057696996,-0.0006014763604582241,-56.51409086426782,3.9598524735858516,0.00036501495682231266,41.47807166862628,-8.234782917896363,-2.3992341398983243,18.244217961197222,-14.621589522973029,-16.080792335617765,32.61770550659877,16.311223769303364,-34.45597266097639,53.771881454782545,-36.15051386248949,-8.148275633920202,134.68143149519614,0.0028165874431500524,-82.49822063706348,105.75449122067151,-0.002542441085391855,53.32373067594125,-2.606616599601838,-11.394632802778485,-0.002130304462721252,-4.745550710833703,-10.76389376844872,-0.0012213926099399741,-4.25467654111468,-0.8930217093330763,-16.558878299624563,-25.1335764727549,5.223240777777863,-15.760119081111919,-4.9803716302511924,-9.472396316887222,16.54167563346347
-6.56409346302491,0.0,0.0,19.40622674262994,0.0,0.0,1.0125722445014675,-8.895135210306385,-3.1738028195841244,0.5021076978182082,5.716007975629137,-13.221051698122837,-33.17415291985975,6.954893683552708,0.0007970937722355058,-59.316986255585725,3.7594146442008354,0.0006524414634537,43.09301548930801,-9.243771510896828,-2.632017494136218,19.380328447849003,-14.948089313795398,-16.39476447620428,34.33730527296879,15.901057614420958,-34.860920131168704,51.741744546067906,-36.49775913224859,-10.870778542552491,135.0293124483788,0.0028113814307578165,-87.37281667972894,107.1724436297005,0.005283521079390511,50.63543559249721,-2.084204073186995,-12.813786525908471,-0.0024954510181975217,-2.5004016801492495,-9.513698179718036,-0.0007488241425138032,-3.9800319373265904,-0.2283547818848402,-16.0275428423257,-24.93398657871197,5.654432988613432,-15.023208325936684,-6.374661201814719,-9.238760753299795,15.75164481454196
-5.084214099592081,0.0,0.0,17.990877676836373,0.0,0.0,1.4546494949096855,-8.515311468074009,-2.7706225215051976,1.6384931740930149,6.482196052763399,-11.683396520744036,-34.126851524966185,6.974832760189441,0.00010051067603200003,-60.21481299257425,4.244280131853542,0.000409465206275677,44.20529201350511,-9.853113523951103,-2.565591335480819,20.27060185829133,-15.992976403448182,-15.167767777296147,33.76154612627336,15.716884498298624,-34.751198398052345,51.503715367925935,-35.1649110883207,-10.823742364253915,134.00132087756327,-0.0042809420752200015,-92.24005785654369,108.05117744942405,-0.0029838738614856694,50.97748850608003,-3.811493536731976,-12.050097333781856,0.0033790531857596567,-4.712929497637828,-10.08360210581154,0.0004701863318462541,-3.694339035416553,-0.032317937612061726,-15.660462564104526,-24.690205289728777,5.706088345963542,-14.608244391061737,-6.769315846684335,-10.183246760072095,14.73962005955954
-5.514912158849608,0.0,0.0,20.2104528534313,0.0,0.0,1.9250255237935594,-8.203357807597657,-1.8116621641202195,1.5282013955762288,7.34016789452165,-11.16570020801909,-34.730467218120275,7.243875397917123,-0.00013327975113840233,-59.94653754078834,4.7872886256475855,-0.00040507025918404553,44.86307150468757,-10.078720777474958,-2.9265745276016615,20.46645793325923,-16.25703764717562,-14.445852165447974,33.40104649466563,14.053459831958495,-34.34597150730757,51.840827942774666,-34.242230902583145,-9.798839433482383,132.85290030822134,0.00028687316477842706,-88.16697556146744,109.51622441972481,0.00013309454093069403,53.24114721244686,-4.437442896513056,-12.037742978048815,0.0038435361646901992,-4.628554799201614,-9.529284224443954,0.0005691666608131769,-3.700186173693386,0.2814300030674069,-16.278152084563033,-24.64884953550471,6.220124267870456,-15.07525073346185,-7.026242469398988,-10.290570653395879,14.239800017393721
-3.5594225199109117,0.0,0.0,20.25451003863748,0.0,0.0,1.5231112575071295,-7.9088570674789835,-1.5023577780361532,1.5913272120841078,7.290574148688342,-11.13376139652643,-33.777033316107435,7.337103288420025,0.0004471708314326964,-59.23261277842168,5.377067209512108,0.0008650438374763444,44.67978815170187,-9.84266440217149,-2.8735812872233737,20.645885153598076,-16.522049982137794,-13.924068468035985,33.65270925706827,12.99748921706123,-34.676187979111425,53.946892313452864,-32.84790019021999,-7.4152023442996144,132.37304235084324,0.0035953333458818805,-86.80320695457144,110.24362007955772,0.005839649670145462,54.92272825320049,-6.100310234076252,-12.615483627428564,0.0006110926407981737,-6.291268542998355,-9.274701846683232,-0.0012597234379556803,-3.9357156661744015,0.08370786946822059,-15.187371258604584,-24.979375835152744,5.644687035762887,-14.12264858416902,-7.075591039853422,-10.276967408947703,14.38278671521347
-4.962695026752894,0.0,0.0,17.260227185050585,0.0,0.0,1.7091008329408197,-8.280224694004348,-1.2297617745971439,1.5786148471971317,6.854959389910613,-11.869162209133249,-32.33865154842211,7.196610957413247,-0.0009871551199785767,-58.70339167026862,4.927151093079789,-8.6002023580989e-05,43.863461417073324,-9.451441396883434,-2.478907920724943,20.67606096400466,-16.656005303970698,-14.590161397058584,33.866928591902905,12.226249482951072,-35.4475212042998,56.297261276688246,-31.599445324907986,-6.239732458342181,133.4422691521506,0.005045215654536821,-88.69919720138236,111.83457946022882,0.0028087072960079253,56.21356769318965,-7.223199655220384,-11.648571505100525,-0.00021928646081523852,-4.8342722673038345,-8.584989257265033,-0.006305702691745802,-3.2220259959275417,-0.6867523920338237,-14.082716227687822,-24.33858723294464,4.528480166665946,-13.36605491398458,-7.371673102053571,-10.390487642992014,14.509558134014876
-5.8303318217219005,0.0,0.0,17.67851298267233,0.0,0.0,1.7196056864691833,-7.937954261460697,-1.2730012919872367,1.1645409825368114,6.545294932622351,-12.57951923314447,-31.81043750459336,6.541240848695001,0.00025246524336425323,-57.966163991946374,5.184980927291789,0.00024814148951510055,43.71557265574678,-9.03584046291188,-2.4972141729658435,20.65394939552631,-16.8017654198937,-14.427222790937478,34.779928581368054,11.192793282210374,-34.062398051655805,57.79456843602532,-30.329212690663486,-5.354477545629642,133.3061625300947,-0.0055807754791803756,-86.76090859551005,113.50419341591723,-0.0016162211586086086,53.182406405070225,-4.469238177996385,-11.436157909043084,0.011213136233005093,-1.9099473853314546,-9.232837703429226,-0.00024532533624676276,-3.3176341372566185,-0.6681929862352091,-13.831080595150942,-24.456147620597807,4.4550968938611515,-13.123911801338771,-7.2060139760039155,-10.250432456890191,13.88939738727228
-4.534234942135814,0.0,0.0,15.523741480515643,0.0,0.0,1.5998438976655769,-7.864841648430398,-1.421067344931241,1.2027354668990686,6.936779793555818,-12.291654081214991,-32.18293399235525,6.280517776369369,0.00040508360698055174,-57.810646931053874,4.732836852837307,1.1047848188366291e-05,43.974857923769214,-8.638164160227554,-2.154590209997575,20.738658300766822,-16.75735122224999,-14.71075509071366,36.39924856568694,9.990474087014523,-32.416142218422195,58.22260496490929,-28.709703971106762,-4.771092216847109,130.93976270205997,0.015452153191564464,-90.77058257058302,113.7528875869861,-0.0004711955925929543,55.46838804995804,-2.691247651149128,-8.48679061740496,-0.007771502815236707,-0.2908951935745586,-8.382126036501367,0.004813856086246322,-4.097570533031034,-0.7086083465472731,-13.329629283082982,-25.276540111614825,4.2364277966955175,-12.669586913890653,-6.904394908445117,-9.863896927855164,13.226057603291453
-5.211522775898421,0.0,0.0,18.494545655332598,0.0,0.0,2.6614515334281403,-8.225691901182358,-1.3456272883643634,0.9039687271556865,7.168451798270972,-12.45912073278431,-33.92071207131562,5.887905458195122,-0.0010878891634782263,-58.25108011593471,5.072298930333449,0.0003498334967487992,44.73673937135786,-7.9341621202070565,-1.784482325661761,20.978502944897663,-16.37036484160387,-13.762147757828348,36.739428758936256,7.538998625726503,-31.921941344368214,56.70012266287675,-28.32799983633071,-4.30668312449952,127.92262182271712,-0.008004379167019165,-95.43014955791358,114.24588999339487,0.0013596626185538353,57.97020016621673,-2.3220828548995116,-4.5851344312568925,-0.0016631262005581046,-0.8202192827644678,-8.05069972133245,0.0004137878487458216,-4.402776306123976,-0.679641667537517,-12.428668763908119,-25.653405480640473,3.9374109738681384,-11.817091539887882,-6.735925971411221,-8.997132333736376,13.186943340984701
-5.75048540777449,0.0,0.0,16.749071533127804,0.0,0.0,4.435107280586465,-7.188776319340008,-0.660970757418053,0.9913981649629601,6.63100556164435,-11.45242264057362,-35.539192785836796,5.553770892024056,0.00017791864333252912,-59.74065640472507,4.9797895301084205,-0.0002912832538055421,45.36170431138468,-8.08934392317739,-1.7592355718884043,21.67511274973343,-17.13959481183248,-13.578156675089383,38.043749300872555,6.514573209835978,-30.757165657936017,55.168442562506584,-27.483397631964127,-4.132970045860122,123.73806965870754,0.003779674140548484,-93.64798772111705,114.89908285567613,0.003155563983209699,63.222687087346394,-1.9172532645621854,-0.40498743675323184,-0.0021127008439976356,-3.012892851608857,-6.5843772390063835,0.0004908714740366955,-5.828577195908349,0.15840680377305544,-12.472096017138242,-27.098985796231812,4.734173467836812,-11.552937790396813,-6.531587277634743,-9.213546232753394,12.806128329939975
-4.17877,0.0,0.0,16.595019999999998,0.0,0.0,5.26149,-7.25717,0.34415,1.51755,6.15719,-10.51994,-38.16109,5.4980400000000005,0.0002799999999999999,-61.86111000000001,4.63417,-0.00019999999999999996,46.47091000000001,-8.199910000000001,-1.48747,22.66373,-17.735379999999992,-12.805729999999999,37.726330000000004,6.39139,-28.362499999999997,52.4745,-26.56451,-3.8461999999999996,122.29047,0.0014399999999999999,-94.60186,119.03482999999997,-0.0024000000000000002,64.68042,-0.84246,-1.3171400000000002,-0.0013,-3.76863,-3.6711600000000004,-0.0011899999999999999,-6.237190000000001,-0.40585999999999983,-11.301629999999996,-27.57606,3.78321,-10.665020000000002,-6.625350000000001,-9.426390000000001,11.86438
-3.397530269316893,0.0,0.0,18.066401404268888,0.0,0.0,6.5336685076617655,-8.06749290234543,1.2537888268081443,2.4122187442820042,6.243221251659198,-11.319753955280838,-41.393960150275895,5.8197581106659015,-0.0009515597241760345,-63.85064793568638,5.607577243078221,0.0010890060999774655,47.753653552938154,-8.30491319939889,-0.9823035281310754,23.285142215005724,-17.95469104702883,-10.84335469005236,38.621045293287864,5.602092956848321,-26.313112362712626,50.71435629112186,-26.327215023641802,-2.8014988128516896,120.79012380678827,-0.0010074844805159548,-97.00029217287153,124.5328080977519,-0.006595123728502993,68.35738910988968,-0.336970257268149,-1.4468615879836895,-0.00018901368236142092,-5.405469856700672,-3.9625651412742755,0.0009984107656131707,-6.70567810070865,-0.5538117219218405,-10.377334739887852,-28.102293732641662,3.3086659242869976,-9.856645321170811,-7.25941550921426,-9.344006323032644,11.297131294195408
-2.900290769320146,0.0,0.0,18.754410079817045,0.0,0.0,8.203330249929872,-6.220681025463061,2.504031873788465,3.1825988741519504,6.731380607158814,-10.975649990751295,-44.70688424037618,5.382572448426686,0.00038558478809143284,-65.11445405098793,4.077051894768022,-0.00014548062958934634,49.044628010158554,-7.677809006927612,-1.2001646479488135,23.738072486916113,-17.267068298981435,-11.055984204597824,37.9702988417771,5.524770442539953,-24.201751016364458,48.87683333366627,-25.763548304735163,-1.652592028912427,121.72253857860244,-7.21210666854939e-05,-98.41647995923023,130.23768453796472,0.017679292377186934,71.37213534457943,-1.1339772320115125,-0.4262478722214104,-0.003637538989695793,-3.5323819377250927,-3.5608256472877193,-0.003295864717760292,-6.382223453949836,-0.7182872201393661,-9.734643546151856,-27.8152596268738,2.9208905850271174,-9.317615870196487,-7.643476788633793,-8.800276027092703,10.661081346276287
-2.7544924311401466,0.0,0.0,18.97118761897806,0.0,0.0,9.204515447861882,-6.07866741473249,3.1271706698947654,4.668974575827379,6.3643545090288285,-11.234840608538898,-46.10605363589904,4.787157871818145,-0.00020670915202375252,-65.61579433545288,4.020108294216513,-0.00018124588580414327,50.39112717810569,-7.445142148338818,-1.2952141058517628,24.71289525020825,-17.343504609728537,-10.129446743573071,37.95895337342671,5.737650118621654,-22.886863315638653,48.53821178066117,-25.68436729097317,-0.21932616052759749,122.97345045048233,-0.01849290232372951,-95.98412186613852,133.07967110552732,-0.007205188263686294,69.25984756045823,-0.7655500995868613,-1.695771284097205,-0.016527318301836718,-1.9578542855687653,-4.96634328145373,-0.0013692326123428173,-6.638800045500185,-0.583108612562373,-8.748401933462242,-28.130405329265614,2.6858537322586513,-8.349207100119111,-6.950732901842198,-9.30506301605579,10.285282835276156
-1.8731676963523287,0.0,0.0,21.95561109633688,0.0,0.0,9.164711006700385,-5.467772940563003,3.6902258613387184,5.778280003795369,6.707922332507323,-10.753936494975608,-46.07211467320373,4.333197783495833,-0.0001807294311739091,-64.05363263280684,3.283742414742545,0.00039728856107603934,50.149896730838236,-7.080447064143864,-1.4450450126405017,23.741759253942995,-16.865290578236007,-10.55538671683492,38.38029934119127,5.380303783316162,-22.029630730498624,47.85591819759012,-25.39236179548725,-0.26396821357999467,123.66517218718838,0.0012138906607953354,-90.85067086533371,135.13066058540434,0.0026100460187043753,70.10090554494079,1.903578368425305,0.07794427575254613,-0.015094536603971288,-2.008559592283822,-2.1205130934760748,0.001762533002009865,-7.319623908781034,-0.025944819999383386,-9.341969978403954,-28.789481260992133,3.4216713302470527,-8.698000777580614,-7.004408905089265,-9.353193350454948,10.177340723785937
-1.7583751288180254,0.0,0.0,21.684670255195904,0.0,0.0,8.630871582551338,-5.889333060330045,3.8180351952349643,6.428944241840574,8.197949749120237,-9.828612037562271,-44.949333788130346,4.4352796358552915,0.0008652305998588288,-61.60940554781321,2.993652626051426,0.0016756668820802243,49.67871817392334,-6.456443144481151,-1.4388124031161738,22.657006057306027,-15.945195827058392,-10.482755648915566,38.432491219215436,4.949902178996533,-21.440972351511608,47.08524638609865,-25.633541765535274,-0.01358979723692496,123.94795002911707,0.0006755319177531732,-92.5434835010547,134.07689165262346,-0.004217235776588818,70.3999630755423,-0.3901137277819234,1.1337983148739381,-0.0028190233225226487,-0.07994051419727781,-3.1157690789563355,-0.00033563745868231426,-8.522209869154329,0.3705879353049781,-9.498665578281585,-29.992515712932047,3.848056402266772,-8.69869324230381,-6.357608198482585,-8.843591315560396,10.10008447592652
-0.5147141219570505,0.0,0.0,20.69660462754162,0.0,0.0,7.102557284856907,-6.986666906050203,3.1193714022352466,6.899392921083586,8.230597171743872,-9.567135806707176,-42.35195417954599,4.671708759668131,-0.0011330548437694413,-57.74910421079877,2.9303199680176477,-0.0022123455774535313,47.62253705610187,-5.1385177684409555,-0.5558211587849655,20.44770007317302,-14.831358846017844,-10.40130689855589,37.625263467897085,5.246703938867466,-19.182440438665797,46.282992219916025,-24.614799070080068,2.326674282280255,124.1360154220719,0.0011930452923393392,-91.74684333264037,131.72183594490232,0.004744510713670189,73.45845392322757,1.6124781969964714,2.0677696631158464,-0.0006237029833796054,-1.2051454699492983,-4.51516386192039,0.0005129258068880806,-9.823597375279205,1.011595870600831,-8.338952427812083,-31.370253931204594,4.01923350899658,-7.381693078559957,-5.743384516111172,-8.608973743810738,9.70729959007293
-2.350046459809907,0.0,0.0,15.404582246154266,0.0,0.0,5.9317737649174545,-7.940443737395637,2.49766851935577,7.676012682570901,7.131868767071752,-10.1178201367463,-38.25503795592996,3.9478349270838535,0.002165974427065194,-52.76067500642957,3.2293532155760043,0.0047283330629730135,45.52307227482575,-3.907592099474168,-0.8411163185143302,18.164646419385598,-13.617233444294792,-11.147111277679738,38.22586337548005,5.336986223628256,-18.55781317329999,43.646997706894275,-23.997796536342488,2.837290868411645,123.32253442518812,0.0002126798045607407,-95.7263703187299,130.93625599914498,0.0008934157391080702,76.02327098738874,4.832367055355276,0.6524445303112252,0.0018097861602085678,-1.7811383353027348,-2.4956139083314186,0.002142955139519392,-11.31004924124179,0.6753431478073986,-8.091808890889682,-32.86015825786557,3.6157249979828316,-7.27512049598116,-4.614820605757799,-8.268769147945266,9.970921089290526
-0.7988067856185582,0.0,0.0,8.124937432411665,0.0,0.0,4.123336867127205,-7.0837085914791444,1.2449475886724852,7.936771951210155,7.693239561652502,-11.16465481128926,-34.158206742539456,3.185319158339064,3.7580126690885094e-06,-47.64544328969216,2.5679143546988317,-0.0026529507513459493,42.850747615381444,-2.1553271898373882,0.005633215558086567,15.590258162815102,-12.002017193811612,-12.308988511337699,38.526261702551146,5.049435955341623,-18.264117047635693,41.422173983014915,-23.788770076754982,2.361608505837894,122.43492387980777,-0.0018755161051944155,-90.98307622593465,131.6386876174488,-0.008417561392783962,76.04071570517013,2.9267243019238247,1.7074355658041525,0.004353616273169512,-0.13811478391725673,-1.4296722369335129,-0.0018245400435098565,-12.298763722930762,1.657833641604695,-8.50251392536045,-33.85572514814198,4.680361366867389,-7.296140283855561,-3.8510682694637572,-7.9455043064613795,10.91108144316312
-1.5134114235114275,0.0,0.0,7.155410178751024,0.0,0.0,2.610364825170625,-7.861422306532192,1.9388615804905553,7.814421741661224,8.051173229974593,-12.07866414564591,-30.32980425564652,2.1637970396568686,-0.0025844810611295073,-42.889251835055774,2.072963764822916,0.0020233767395170356,40.44178220913129,-0.7005818366487376,-0.5309003549580626,13.339822352659617,-10.409965228632336,-12.964263535974116,37.97981493605332,5.16325986421644,-18.027610909106148,40.537690257042115,-22.62609865894619,4.588592556298346,123.22226280394169,-0.000729280446851597,-95.28151006214722,132.39586908193826,0.003221371579569582,79.44677872168312,0.7687626936425672,2.0778440667615405,-0.0003313760538227165,-1.3596721224271064,-1.529970152577823,-0.003272157486332428,-13.436317327184303,2.6218946286198177,-7.69886277344564,-35.05926032785293,5.281283801503275,-6.190488503149108,-3.1976767867261846,-7.4148280485986815,10.673440437490308
-2.106687958162856,0.0,0.0,3.0991712619405045,0.0,0.0,1.3431867028890343,-7.350205965188988,2.5386551615020645,7.735915037393229,8.11776705189181,-11.615150024652745,-26.772205464363005,1.6602914982924395,0.001799752078991775,-38.67222328633881,1.6363667938071484,-0.0013846669037676641,38.29633355181469,0.49311649291915216,-0.08818183436249481,11.423719641399222,-9.251799928798905,-13.570117928285926,38.17757954017013,5.612213744795422,-17.350328822311702,40.12609753368549,-21.49809037316937,5.492648106298127,124.4929196867541,0.0008069261155025064,-89.70488532619399,133.6219815900171,-0.0005319461069633586,75.95410372511347,4.0078276764321545,0.06698664568222507,0.02918454213094672,1.0632089426079203,-1.558966065140898,0.0026982452831999554,-13.541803660685467,2.2787149541874996,-6.732191524415993,-35.190124760239975,4.606194650219475,-5.4163964871207915,-2.5524162676873665,-7.311017792879146,10.622238842554514
-2.368085669506215,0.0,0.0,2.966997491399188,0.0,0.0,-0.6304850281631997,-7.817680361184533,2.6113087157111035,7.1094282663018795,7.362441539416992,-11.355745103154897,-23.639125234217733,1.5134032528516217,-0.001362651505677713,-35.238781095674184,1.4556978660321735,0.002638786673871399,36.34326837992682,1.1103043235896926,0.566750844363792,9.75591277972928,-8.569199163555014,-13.602899971938717,39.05901742198365,5.607723613079874,-18.803780120448298,39.298685070188974,-20.51592991342474,6.986027086216227,123.22243240145686,0.008571469394864407,-93.69058842809439,134.65818861889102,-0.00017968065472886684,81.92236410314894,-4.454605528302783,7.818751720144505,-0.05749742342370519,0.16616925760834136,-2.230961223522764,-0.0005350397603786404,-14.918529495245872,2.071937554386575,-5.837821286556614,-36.590230592059775,4.084134520824662,-4.659923933204391,-1.9098477506498022,-7.1622186987428185,10.27053371949966
-0.6531296033069047,0.0,0.0,1.1500403903895184,0.0,0.0,-1.6368838189466244,-6.595059898731087,1.9581844737238165,7.719704010380953,7.173578918709284,-8.95149812737694,-21.585483476090573,1.182606665617333,0.0006532462952110247,-33.175295550451146,0.7850603409883148,-0.0005840707274856543,35.04581289758849,1.8517340074226358,1.0732645027978351,8.76179939332951,-7.814516012724564,-14.293155002473162,38.5687568551157,6.1748160158937795,-17.871081016921778,38.520211274565376,-19.616356897559147,8.528486041988687,124.93452201182073,0.005945058113818439,-86.85517994457142,134.2039797342275,0.00039169531633312295,81.097604785819,-2.966463703309273,8.240985224460376,-0.034176850992206055,-1.3524802048328382,-4.932361578803221,0.005499056975095279,-15.449530202496279,2.0323826992642484,-5.2885570116202425,-37.1358958722119,3.844599331450499,-4.163258654681973,-1.1337103012262844,-6.679680517851854,10.048281813803829
-1.340796096843832,0.0,0.0,0.8468847989692133,0.0,0.0,-1.9017607320790586,-6.37794691586077,1.9920418361594325,8.768303487510442,7.779507379967216,-9.397509677791348,-20.195856035707436,0.9427589313604924,-0.0003705580450887551,-31.975886959693266,1.162998448150415,0.0009087917458994068,34.1764193091536,2.495168311912852,2.1808484226295426,8.272167016726417,-7.5133130843396705,-13.12936009960954,37.91867121039076,6.92107072124915,-15.276196946666092,38.15494899967406,-18.80630989297193,9.601858469016998,126.12602851314533,-0.0002564924307195275,-91.83836641112104,133.31263828381677,-0.00134179131014591,79.81847009066207,1.0640364496090122,5.2615773665097185,0.0054240082885248266,-1.947067874810557,-6.2635000891394235,-0.005203944393089852,-16.154718344434055,2.1186657990985927,-4.620594433623606,-37.85976214883662,3.6780001669230695,-3.5097180108666333,-0.4203912717487964,-6.464056409862811,9.919331705022742
-1.4429438686557328,0.0,0.0,0.21711856825818915,0.0,0.0,-2.5806716032108543,-6.777404266878499,2.3177350066924305,9.7665148486641,7.820335475760067,-10.058530170485643,-19.136550099502895,0.5236555630199659,3.884758294016873e-05,-30.73830266619194,0.3992097997584437,-9.392585562603756e-05,32.941772235625045,2.9866327051865893,3.1670556413965794,7.500953291677435,-7.391239092144923,-13.215600285437649,37.09286496405958,7.485235941145328,-15.946531483961644,37.022872602440685,-17.959344583829157,10.022330624768678,124.6583316346265,-0.009071262603031139,-89.31375514618412,132.77148725261588,-0.0012132576554368883,83.33101398299843,-2.1112293193543095,6.912627167706638,-0.02641850869409497,-1.02904060115398,-1.9451161145913556,-0.00047822141658665956,-16.619716957533303,2.153270307118676,-4.502616071356773,-38.32821707427205,3.6665497660408954,-3.387128528208412,-0.1761311750046407,-6.79097157695184,10.385551609248218
-2.4898681761157855,0.0,0.0,1.035120397168012,0.0,0.0,-2.6500489264467886,-8.879881998465791,2.7270627709054396,11.168531347095925,7.960318495321687,-11.939957042432363,-18.823109978555596,0.5442599601518793,1.2493519731086602e-05,-29.509615048633048,0.28343706037241484,9.278439011028922e-07,32.93786591916068,3.2176734528802844,3.222147233086027,7.239164639653115,-7.069468069140754,-12.637996389898145,35.823546403569615,7.870919564469335,-14.617954188510694,35.05877346167023,-17.486924960897824,11.003935730396877,122.028402083303,0.03286505670242592,-84.8108654492826,132.59147898507283,-0.00249834193796279,84.44845224718232,1.9031872739277846,7.0426321038583435,-0.027226404829727487,-1.9604528154174985,-1.6873051595844177,-0.0006625068937355697,-17.93147632456665,1.8194928904118957,-4.512043938754053,-39.63219281585367,3.359919251532104,-3.5195760954100304,0.5392023501222142,-6.634256880409537,9.98675068602078
-0.5316301328486804,0.0,0.0,0.3948616736652037,0.0,0.0,-3.0539020466304625,-7.578228596735834,3.2827851626432123,12.468108736533754,6.907998419267528,-10.942341739311114,-19.136508776896097,0.45850321585200443,-1.9777879695901875e-05,-28.382230997615835,-1.1115542516190855,-0.0007289729469325087,33.20626134861609,3.3717420487215217,3.622407377341995,6.672191701101465,-6.643589964421675,-14.692196881021424,35.48924598782745,7.540419482352402,-14.77630031251427,32.10613525593058,-17.22345068195371,10.649002701419311,118.25524399184093,-0.030075490311310214,-86.25851893839386,133.88700207760897,0.00788486638869551,82.97805016607192,-2.2573691336190245,5.8055375815713,-0.009664937736256844,-1.5760326120473398,-0.9281061746398419,-0.0018395902237408378,-18.35720366850471,1.3758484399977526,-4.175631599618273,-40.05655930213861,2.823374785983731,-3.3709512166834528,1.0511345377877266,-6.63605844497561,9.698910147025352
-0.5920999999999998,0.0,0.0,0.30618,0.0,0.0,-3.25937,-7.549450000000001,3.9375900000000006,14.076289999999997,6.65538,-11.792410000000002,-19.300170000000005,0.60859,-1.9999999999999998e-05,-26.300499999999992,-0.97672,0.0010900000000000003,33.09827,3.36617,3.9295299999999997,5.392120000000001,-6.543529999999998,-14.62337,34.60901,7.562900000000001,-13.580299999999996,28.387699999999995,-17.70854,11.07772,116.32646999999997,0.00719,-90.98196,135.74030999999997,0.0002599999999999998,81.56150999999998,-4.94941,4.86369,-0.00973,-2.3463099999999995,-0.71953,-0.0025100000000000005,-17.610290000000003,1.4208800000000001,-4.74466,-39.297149999999995,3.0754900000000003,-3.8835499999999996,1.1183,-6.865479999999997,9.29102
-2.061979029500539,0.0,0.0,-0.7369629228888496,0.0,0.0,-2.5646871252369867,-8.008519958513057,5.592512932370898,16.331858607017615,6.1486245317711425,-13.020304072524468,-19.969672624142287,0.3723166020389494,0.0001774847988043864,-23.687958847414247,-1.0698708338106935,0.00024325971686270107,32.937405318440085,4.029151175788186,3.8229196095922413,3.743050993732599,-5.848313085640363,-13.442583571921517,33.315130447552264,7.168437411376617,-11.97692985026768,27.425118054897588,-17.291654715249578,11.995142693609832,118.63960728061843,0.021634529990362934,-94.13847631020128,135.672105053854,0.0005364565611657141,77.08778982785888,-7.080212683872253,5.219902959238858,-0.07623554060397857,-1.4773927101744024,-1.1603310352674385,-0.006927478949856947,-17.685578712897186,1.1636683590164156,-3.7899677516551513,-39.38934869130955,2.4836673310392277,-3.090853409609671,0.849881652710909,-6.689086866692424,9.170850538921822
-3.61232467719245,0.0,0.0,-1.8281208983525774,0.0,0.0,-1.9113770376837635,-8.256670633439848,7.020650646925204,17.687741449180518,5.63511848130702,-13.124193733213088,-20.728418144314166,0.18834653333334442,-5.574259482184328e-05,-21.324920490625196,-1.1671305050945682,-0.0006447244061196923,32.76081334457468,5.0234306912238,3.7308339522129277,2.2650642754285233,-5.116895980150562,-13.721465476364864,32.95841801057399,6.892641142116615,-11.105060632093183,25.523498263888577,-16.260122212814657,12.041806174197184,121.90762346465475,0.02292606525152949,-86.72464539264055,135.40474283488766,-0.0009699083265782191,77.48617758954627,-4.645684999618882,9.519002867592398,-0.055894007657590956,-0.6297050235912665,-3.1715212341227943,0.0026204827699836436,-18.28420177527394,1.6742225382577225,-3.305503238879058,-40.00533798448815,2.7788226036105943,-2.4513520447040085,0.5622683550964317,-6.300107378102828,9.672117428522334
-5.409693419614623,0.0,0.0,-1.2653213938046528,0.0,0.0,-2.471814785387963,-7.798642776378242,8.402973660159242,17.85291033089097,5.806783450462564,-13.39453859111737,-19.609653577870215,-0.3917829075053248,5.8586694633521694e-05,-18.740115408379637,-1.1185196143532978,0.0005972426482008686,31.77275792587491,6.315972431897558,3.1683941270753113,0.8826249691946829,-4.239570497136581,-13.508291695572742,32.08124010605357,6.519753187281309,-9.07777660812873,24.18472186630814,-16.224944802073328,13.476343174450099,125.90344465205753,-0.045122092066234874,-76.56660941141145,134.4645916918479,0.003018972899188107,81.81165226801362,3.5474073800880777,8.318613518130977,-0.1009328911039852,-1.7334820843005678,-2.4776404902816265,-0.0003134350536195229,-19.46432766954431,1.3600875812203157,-2.448763094726292,-41.19212838357443,2.1699879224043297,-1.7713786611715991,0.2848129802068303,-5.189364276366833,9.853979147527225
-3.76884972596528,0.0,0.0,-1.828145483833475,0.0,0.0,-4.271562998761014,-7.77940137712929,9.179819567133334,18.247792551487994,6.601040467095022,-12.085065002569426,-18.353344338181785,-0.24997142716921567,-0.00021035164060913017,-16.532702574915035,-1.598649022094074,7.552027199049837e-05,31.167855346241186,7.488641183911723,3.3159869465103586,0.294019079751499,-3.5617811126777066,-14.350505064371731,31.21630873725984,6.393422724166023,-4.891678531431609,23.311585000449206,-16.077038178937087,14.281955350019684,132.3074485882259,0.026835240464725043,-75.40871213902857,133.95886232356517,-0.002307895926693156,80.37382262936356,11.787463053854419,0.3741379937282821,0.028684252828701667,-0.9662435832234326,-2.405180775099208,0.01129246696986341,-19.209381430010836,1.6612414415396028,-2.4629729723306535,-40.94152016593957,2.4549989454909236,-1.6730019484727916,0.2830468425363969,-4.654204026526619,10.21255739759693
-3.6478787275653555,0.0,0.0,-1.3671738764534844,0.0,0.0,-5.417962640524167,-7.271213206277052,9.078610235306511,17.228870315053594,6.350113838495722,-11.595387355914582,-17.572936861579024,-0.35516910702736293,6.178608671338081e-05,-14.508926753720482,-0.8899344383390898,-0.00022695385907904936,30.8357965278739,8.807600808687576,2.8997799697056075,-0.30596749470162143,-2.8701981377143904,-14.133949109597527,30.71359303421742,7.124941919572276,-4.093724183525402,22.55537381117541,-15.629425712054552,14.748879500636438,135.2326355230377,-0.007573259792644375,-82.28104349138023,134.62509493761405,0.011278582546762665,81.4227567387118,12.350928401432409,-1.6693709543847062,-0.009675322744638984,-0.24408548403658378,-1.483969526806204,0.017809609697855586,-19.12177786730126,0.6070609848319561,-1.0473632282311975,-40.85340134235966,0.9517112841930587,-0.7481663628310168,0.07486809219523653,-3.917085444332818,9.784378952809314
-6.581682268894994,0.0,0.0,-2.3798534853235735,0.0,0.0,-6.832805100436014,-8.374051525799473,8.91911904034459,17.03595763859282,5.65723383929313,-10.679195807438326,-16.871195425365553,-0.17000635962196933,4.6628739231486064e-05,-12.15234856397629,-0.424216250056322,0.0009246803422337568,31.226193127651243,9.907722442705522,3.243755647410008,-0.732479951313051,-2.2791059041958817,-14.01896168914933,30.0685932639785,7.938142649461638,-3.0659818051875636,22.027550605539304,-15.762307805274611,13.687497396636157,135.19142391216963,0.00137565461572541,-76.92138714994098,136.56910836722213,-0.006416284418845456,79.0669880681676,9.905210868448323,-0.7785891495305468,0.003940749366902549,0.2589537768405653,-1.1938402763129272,-0.0010220195363657917,-19.017147813028075,-0.6634419734050405,-0.4106986812195442,-40.74958892240399,-0.46421465533055356,-0.6271609684297459,0.13456711239318522,-3.398250985309371,9.714443899697205
-7.221833111532291,0.0,0.0,-3.734859478453872,0.0,0.0,-10.487562987645864,-7.864198805671235,7.230716706581177,16.57668562439124,6.127342073778877,-8.713276395070977,-16.786417641820808,-0.2550391504385793,-0.00044871782712812885,-10.491403490259254,-0.38028969572406784,-0.0003243237313493857,32.78387836094357,11.312693784033359,2.998982870461235,-0.2305713358840189,-1.553813616505928,-14.123823998143948,29.583495659940915,8.388830780005682,-3.054974900770505,21.60873835297078,-15.751623191579577,13.508562318056555,133.06098033458258,-0.0010210743409858635,-83.26068018351944,137.97471307419923,0.0027189859420707688,76.88951536399658,8.419897695053976,1.384352463444548,-0.021034199058771963,0.18454429662039074,-2.6506741890148287,-0.0005402656121601737,-18.829901523582677,-0.7678186000181656,-0.4869454597050525,-40.56234998852058,-0.5329538320948578,-0.7366362442447308,0.3604396026493678,-2.777631872873462,9.495499161855191
-8.634719953609029,0.0,0.0,-4.665749210648076,0.0,0.0,-14.396495808875056,-9.923656781780686,5.811599549314019,16.108738539628586,7.531472812572072,-7.157735159394265,-18.51044528649941,-0.7156017755757043,0.0007482013177074265,-9.639000248075247,-0.10025973303359982,4.062819386471055e-05,34.84854170563351,12.761312897837207,2.629058424884091,0.3293510201233372,-1.2228457929484073,-14.580254009997605,29.191904495288245,8.358222907149573,-2.732681110808516,21.949471926908966,-15.746248682194516,14.468468493672946,129.8567787726975,0.0019530491392102086,-84.41157992465895,139.7333390400384,-0.0006542268316603436,75.91303826765285,7.102263662419042,0.3132940689278507,-0.005742064719806658,-1.893460852403141,1.2328627358098267,0.0015755993595806543,-19.118215297898242,-1.072678617486942,-0.5836737238155666,-40.85143554704745,-0.7803269902360198,-0.9393644343270253,0.10087537552115944,-2.2760224167532437,9.63161108630734
-10.706104147583805,0.0,0.0,-5.735196865031834,0.0,0.0,-16.50900587100929,-10.637124730028725,3.472638948333517,15.079465658950417,7.250049601825302,-6.063566183950289,-20.08318841579008,-0.46549365022849454,-7.815341419097728e-06,-8.975304259622288,0.29820693675794535,7.078746571835831e-05,36.16681432295564,13.663432441751914,3.143004086693068,0.5323253470959213,-0.862611994295788,-15.217357541881379,28.874756737252145,7.814090161330551,-2.9308858299623246,21.86064372211148,-15.534767542523372,14.488022984884505,126.78038795225939,0.0011282744813024032,-87.13049810087821,139.74238650594387,-9.247799580677844e-05,73.1279204204623,6.099795400360138,-0.11014837963891287,0.004054472550937428,-0.378438572346023,0.6056440648857306,0.0003446023790184178,-18.84131255055241,-1.3545050125379996,0.28346475050908004,-40.57978237073927,-1.3631683532001309,-0.2383085656956252,-0.5565472859292677,-1.7697419017764988,9.005504002764528
-10.651457324391789,0.0,0.0,-5.799511573135019,0.0,0.0,-17.568954549524793,-11.006452178139677,2.4727511931545427,13.905490197549819,6.082863058325393,-4.7473363920613085,-22.14923956652919,-0.3970697437504048,-0.00037023689863863705,-8.068181253724864,0.6080871850391372,-6.568175191579158e-05,37.247814754132996,13.539032852776675,3.7942362316460305,0.9735515245647869,-1.392311444309333,-15.70399954977188,28.233023016607767,7.221452771243004,-6.539490324391686,22.343229260113972,-15.615115454997882,15.454775342868563,122.17085746765638,-0.01098199474027305,-95.68396546380484,139.4502978812207,-0.0015587146038415105,76.71766786669892,-8.240275645889453,2.4677920279303556,0.010249643143225204,-1.8995440726829407,2.5531095446039687,-0.0077286349375519725,-18.362241014085296,-1.0322115585972838,0.46071568979334676,-40.098231665902,-1.1294300034043734,0.045729333354375894,-0.6121243376197548,-2.1699046228736223,8.698555058243475
-11.739586114916861,0.0,0.0,-7.370784817057765,0.0,0.0,-16.281300491597023,-10.16379797532866,2.7880933429737547,13.746679295247802,6.789764124244219,-5.274452929268324,-26.216941212850156,-0.6243523930039651,0.00020844751079527354,-8.121984793119083,0.8079382591072477,0.00011034219194441664,38.392004839565516,13.302684541948008,2.5764548553955717,1.5159204894536722,-1.8907380664096718,-14.69400576677658,28.607458606628448,7.05953321085288,-7.242145032040966,22.232582090856308,-15.849452045328485,15.47743362412411,121.03770204496269,-0.0020799828605279026,-96.88840882714982,139.4812417893123,0.0007614037479522781,76.6439740982208,-8.926085440558143,2.972419558877018,-0.018419092386965888,-1.8643386694308746,2.191853687491049,0.00018701412890122373,-17.479475376690345,-1.3589293788245917,0.6398250641383064,-39.21814059049306,-1.4992355918041231,0.09107239202501069,-0.9098281732169984,-2.1924345171160424,8.776927976006363
-7.901458123246188,0.0,0.0,-6.783580437897776,0.0,0.0,-16.804811290034806,-10.6196450726448,1.7506791201590777,13.341151003037378,6.8399855763400055,-5.362337961013137,-29.620438179828415,-0.06513155226687227,-0.00012658991063966172,-8.212472481734848,0.6471815133928986,-7.098588028481131e-05,38.56390667004538,12.37085476433378,2.2020441517660148,1.498278750794741,-2.4293535619533633,-14.590498420008421,28.351676338708725,7.485619616164171,-7.957617091581472,22.715977408614602,-15.320374745397702,16.689756346722127,122.24520229636826,-0.028474958106892486,-97.53200388508522,138.50093174361723,-5.374263183531815e-06,81.75344465816869,-10.593502928696035,1.9817254912604823,0.02523621658528923,-2.3600430571880016,1.1671552196870174,0.0017680959822508565,-16.605384358082556,-1.005090729592142,1.4487147806586989,-38.337881214531095,-1.470041824790293,0.973630482717302,-1.2524470457829455,-2.7227980575001958,7.666444256226382
-4.672074542300004,0.0,0.0,-6.03462768763913,0.0,0.0,-15.691363188780599,-10.766516184082045,2.226301316402057,13.179434172728495,6.775535126425734,-5.531450144348892,-32.43514069817629,0.15753218884058828,-0.00018220628699498311,-8.890273677373221,0.18915656139946857,4.4292768898126086e-05,39.33451725011807,12.547768657856356,2.072330146466563,2.853087993667721,-2.123434326204796,-14.050045014133078,27.90045343936717,7.625854767248824,-4.956923902164394,23.301906943365598,-14.60266527817798,17.052090850968373,125.42268261093349,-0.0024499126946995412,-88.70402517979544,139.70135913238255,-0.002282418981593755,80.04220908341085,3.512815597143572,-0.922274673390755,-0.0012107407485542775,-1.1428035078432854,2.682951374814504,-0.000940692546288491,-15.540755730968968,-0.5070034590153956,1.0238675950388323,-37.2719052288479,-0.8500606426362383,0.7633806342965044,-0.707866379382861,-2.5696948636947563,8.060231828423651
-7.500292549457547,0.0,0.0,-6.80136018498623,0.0,0.0,-12.852748717456551,-9.892662840002316,2.295928945794843,13.45002728031287,6.917812877465978,-4.5650064061655415,-32.42681566587773,0.5673385023612798,0.0006107950716842417,-9.269018054970278,0.022626845719623666,-0.00026171122847880296,38.24255328462458,12.274588893462855,2.362561453043768,3.2013100636914946,-2.2098849160978538,-13.909090561540966,27.28724881799759,7.545343205599581,-5.198701037490721,24.062630581711996,-14.46616630257611,17.116770534451,128.06874797055283,-0.0030149649260092694,-85.5632606340072,140.26629683924645,0.0023622842748610698,79.5708933834483,3.563545576533928,0.6803151790418779,0.0002813176242074002,-1.9788574341295724,2.4001856873198064,0.0003874264569651268,-14.976614495695435,0.21348679279494198,1.000475632515833,-36.705513374461006,-0.1721129300073687,1.0084187981862862,-0.44679187642877183,-2.456713962154907,8.633767420303025
-3.642314780910059,0.0,0.0,-6.1427544852760025,0.0,0.0,-11.760701366039825,-10.978502728392506,3.3054128894639128,13.601547412463434,7.656800537451433,-3.8165063995334116,-30.38112954889832,1.021033571708341,-4.8238754361529665e-05,-9.923587581848771,-0.2953387056076171,0.0003059020205365388,36.78093308418042,12.282154210938474,2.677676648869602,3.7747748847142812,-2.1944322664690774,-14.077803993608493,27.038995980998923,7.5790927289710615,-5.216814091875295,25.235265667790564,-14.395841299340832,18.12539264491832,130.72265962104106,-0.00018519495120909165,-85.45737447795881,140.16608315260447,-0.0006788490336414399,76.09303063908943,3.243278144037681,3.9826874700521637,-0.042203298749754155,-2.9877334353899894,1.4535193278262795,0.00015171434617804305,-13.012758573619028,0.046690338876785135,0.6804375584248772,-34.74359488648021,-0.20856691695400603,0.6493637936609071,0.1019197520515278,-2.19834881290249,9.058827232449397
-3.420220677523817,0.0,0.0,-7.96436743663451,0.0,0.0,-8.242531974271536,-10.637584230358595,5.750207075372024,14.541670773083627,7.758610108646783,-4.626413220784941,-28.792704468505644,0.43329629141274356,0.00034222575385098005,-10.604911486885058,-0.5110716889571878,-2.8253965584130317e-05,34.852942522344925,12.65426629602592,1.3851174129330162,3.589603145923011,-1.6720085066641035,-13.328128881400731,27.56226314662713,7.870847675109371,-6.424683990444511,25.595547229555983,-14.01339662038029,18.993440383763712,131.3803548248094,-0.0021141547195075326,-86.20674778781142,139.96431611644414,-0.003173162838427642,77.19187411517066,1.9129203714358576,6.827869155826008,0.0036360713919360308,-1.8177516425359943,2.2441947207638946,0.00022765105255144076,-11.100194776063105,0.3206449280856364,0.5639615949333621,-32.831399961758386,0.08904121566728425,0.64259600136413,0.17775423604591994,-1.4197617813242813,8.803211448917237
-4.36604,0.0,0.0,-7.355279999999999,0.0,0.0,-5.501480000000001,-10.39656,6.24042,14.7148,8.00391,-4.520579999999999,-26.119749999999996,0.6219299999999999,-0.0006499999999999998,-11.22603,-0.99595,-1.9999999999999978e-05,32.78660000000001,12.425389999999997,1.5026699999999997,3.9082299999999996,-1.4944500000000003,-13.419749999999997,27.30612,8.295449999999999,-7.46992,26.38097,-13.867809999999999,19.28892,131.61047,0.0012799999999999999,-87.82031,138.22351,0.0011400000000000002,77.20298999999999,4.67397,5.771170000000001,-0.0051,-1.16368,3.0745299999999998,0.0009500000000000001,-8.413729999999997,0.92366,0.34330000000000005,-30.14746,0.7308899999999999,0.66091,1.13938,-1.1927099999999997,7.856989999999998
-3.0990064260565604,0.0,0.0,-4.616453638924285,0.0,0.0,-4.500015052073712,-10.03270376323735,6.067069264474068,14.897390497702263,7.236444923662274,-5.328935200467859,-24.17028568182175,0.9343751357839941,9.503314980659132e-05,-11.561516493296843,-1.107807002570997,0.0001948597710447148,30.790004344562572,12.068335122487243,2.481650767954561,3.3143492015794838,-1.4061060370914011,-12.704967501018864,27.423161648029915,7.59168203181497,-8.131802140048332,26.138122035923914,-14.312340963833712,19.20169251813552,130.77107728036108,0.001563509730821075,-89.65305693185681,136.05990490797186,-0.0005719001339924929,79.22256422650229,2.8023314662301066,4.0012161103538855,-0.0005829525160702189,-2.2074283807491257,2.4376501297968134,-0.00015391305554104856,-6.709277128195023,0.5865794943351837,-0.06345175157749687,-28.442671989834707,0.5683819107227798,0.1582581960626547,1.5622445069099742,-0.7133864670845153,7.774306295970527
-2.8449784098422715,0.0,0.0,-4.052285625305133,0.0,0.0,-3.5990724705213024,-10.715627121547744,6.692421240035013,15.279621366199963,7.7733274128812075,-5.992787091489822,-23.047903911104267,1.170110835806409,-5.1637513019996703e-05,-13.015342261368414,-1.8074912331385324,-0.0013324129346478206,30.22381862490668,11.122666255551827,3.977740006510029,3.901481590755785,-1.8743494456002876,-13.034784811004707,27.780102298632066,7.34020027268932,-9.334244300401314,26.432496844729346,-13.612313970351709,19.568021450723414,126.55391818843259,-0.005324050327705755,-93.54544097963807,134.85154639020266,-0.0019225277522539653,79.5960513238924,4.9402849948422025,2.619205303684898,-0.04960678936046158,-3.1710384948614054,1.853372520407176,-0.0011001658807108087,-5.139294048592843,1.2420837865031158,-0.3342971110394454,-26.876861762328446,1.277557949528031,0.14944514811309753,2.276837181498504,-1.298711412138492,6.5919577061091825
-4.108712127001385,0.0,0.0,-4.407335650729245,0.0,0.0,-2.1936200137810005,-10.021263251413771,7.777921177176049,15.973854753793916,7.790919574785266,-7.518743949289583,-23.211817609832295,0.6717465042156501,-0.0004302479135948344,-15.618978522088435,-2.355241445453467,0.0005051838326986607,30.05108751881444,10.517991870181879,4.336416777111571,4.979001319562826,-2.2836845812730084,-12.315027215573126,28.756520814763817,7.6078936200611675,-9.395500556373287,26.71584766829696,-12.98964659778715,18.93515400620651,123.19029710049135,-0.0013855105104428377,-91.63361224469601,133.94108801197183,9.20176885264198e-05,79.24117762137702,10.023642798016489,1.045049485048887,0.004584278349641421,-1.8179620349989478,1.1449899079615382,-0.0005191083745698153,-3.1095968568258545,1.6552093824438012,-1.0638020752311017,-24.85093293293029,1.9314290338218125,-0.37514887800407976,2.4660355123724127,-1.4567240937874733,6.0156951106739305
-3.562546342779785,0.0,0.0,-3.6828535119356673,0.0,0.0,-2.297021513571931,-9.859638536181842,6.675194218266663,15.95248099935695,6.555388110584776,-8.78887999730117,-22.197307035500113,1.0340769259777336,0.0017575454143592961,-19.046781974596446,-2.4670820528997695,0.0030305664444713835,29.427734965128877,9.423574152602283,5.444263292993012,6.5411925377844025,-3.11539518445971,-11.291828361506317,28.56299754025463,7.120547544151925,-12.110153320689657,26.99342418265077,-13.367343123292052,18.683119419910543,121.29673458855203,0.008348264211576015,-106.51181413514614,134.194282615076,0.002849340742544837,79.21196147116812,-0.2564388496328187,0.7629935753424408,0.008938910199469371,-3.0717869721097175,0.4885020694258585,0.0007732203386820313,-1.7854608769930504,1.3601104252615275,-1.0233299090705892,-23.52348124366124,1.6423302745888066,-0.4469042734971222,2.6824574838405,-1.6770244185090943,5.832489786627372
-2.4723354303909564,0.0,0.0,-1.0138280163901265,0.0,0.0,-1.4044848916848087,-8.51308040603006,5.996479134241197,15.02145316737593,7.0308553184509295,-9.291116580982216,-20.794941834098132,0.8209445517534444,-0.000739820388347717,-23.310200491409713,-2.8574102646132404,-0.0019148504452830696,28.091707053743075,8.889262395842925,5.809816038790991,8.153935345317981,-3.601378636000056,-10.73572624467465,28.161915687912746,6.715657062338076,-13.643271342621409,27.30208725839998,-13.510960208172502,18.436844290052548,121.2809956066249,0.0038994992227668127,-98.81785423863738,135.26167522564637,-0.0028352914264820556,78.66448235575797,-3.268547299805635,2.982649154839895,-0.04004263137101386,-4.100016524417535,0.4843382462680322,0.00024168429560909068,-0.8977487072326517,0.8717030890293183,-1.1148134278686272,-22.6309171327088,1.222516118315992,-0.7128213924897159,2.789943146700912,-1.5086015177180594,5.527878252308287
-2.5220384795941526,0.0,0.0,-0.527567472142022,0.0,0.0,-1.1528864657351279,-8.495805391344813,5.546932070634802,14.193438051247634,7.584989315733124,-9.809155246490265,-19.15715431390253,1.1420216014240663,-0.00013326777003259656,-27.739866580695544,-2.9461929354242105,0.0009130456609844622,27.20939473546217,7.818383167055694,6.906567005073176,10.484169864788338,-4.64892311401238,-9.666723089384057,28.727166401183787,6.630148729825776,-13.772744290647541,28.45909534691911,-13.656141969283137,18.271610118977183,122.93093253900156,-0.009737690323014638,-99.75045171267985,135.8865783402231,-0.0013791642353507938,77.82442414747923,-2.132727806906518,3.6285896112141174,-0.009785662444334828,-3.7679417713855923,0.6909929999412073,0.00032432542249515457,-0.07944287851581039,1.4230581354068141,-2.1370365864444305,-21.8113727953104,2.1131097614350782,-1.4583590903162575,2.949037825377341,-1.944874532772749,5.351723737436936
-3.1845156856538397,0.0,0.0,0.6846631781443356,0.0,0.0,-1.0866397391747897,-7.783689442027361,5.829308962668987,12.908331489118423,7.993296895294441,-10.424573512710083,-17.153585898608263,0.9105574976348575,0.0002108505135901498,-31.499320628391583,-2.346613379028691,-0.0003151096139647236,26.094300501819,6.436700803774448,6.122888397561123,12.182764245441772,-5.903391213474946,-8.608707528474566,30.058493704775515,5.909286372761879,-15.648821455873192,28.84230981359969,-13.556352704924372,17.669640011283562,123.45939785245533,-0.005996940913708453,-98.21170951439382,136.41223001490204,0.0016219709567669514,81.99256225194031,-1.7228722847237627,6.626246800718992,-0.07323265580631033,-3.1131005678354966,1.2880570085239094,0.0011015606259065674,1.4723192711506372,1.5918496252101122,-2.6179813784869497,-20.256964855837516,2.4479133192736797,-1.842787712605829,3.222707910398899,-2.3990675158798833,4.723038455165669
-2.3457374430077125,0.0,0.0,0.02426804436991031,0.0,0.0,-0.779578601768027,-6.928331639905906,4.875386468513697,11.308920339191708,8.661919451379461,-9.613082828897623,-16.587533408501606,1.1449378196706372,-9.395457794313821e-05,-35.07577295585634,-2.588728489327531,-0.0003831478755813626,25.44596446680986,5.692906738562499,6.458968776966958,13.741051843832278,-6.7741206971916474,-8.641641717062136,31.040968933131012,6.153377564969471,-17.698940331287748,29.137792158278515,-13.898025249973875,17.060598619804857,124.66981245512827,-0.005875023112201339,-97.95873388338862,135.91770504875387,0.0010468954057566502,79.9405979088016,-4.000766200227603,9.008014415968987,-0.00615279261668379,-3.9588523388919468,0.02460995515200531,0.0009846714401085693,2.211397393655609,1.535745783374606,-3.099319479931765,-19.510513295928874,2.573905735210926,-2.310979692680668,3.2145635177128717,-2.7273872407004163,4.314163687073838
-5.762900595272533,0.0,0.0,4.225108715973029,0.0,0.0,-0.08223350317495598,-8.032594053439446,5.323504531294869,7.549320462643175,9.023053260536335,-8.944772941983125,-15.629791929225084,1.1776401636360647,0.00013170149070755837,-38.675883486585626,-2.1341034884730767,0.00115961026025856,24.86777704394369,4.4464068377888974,5.817646554271588,15.757413024576316,-8.283211233643621,-8.08040940544184,32.237114142027366,5.7520554534659345,-18.758109715969937,29.62854265335985,-14.23607186989573,16.97120672633893,125.66675360875806,0.004187402225828255,-88.60211532974051,134.67942972299343,-0.0016268187710179142,80.04081914752517,3.3710253077960672,7.182678217797641,-0.004814065146878842,-4.362198667406028,-1.7468193927208344,-0.0010930414716978497,2.861957106616599,2.007848439518102,-3.7797006474642494,-18.85768620246218,3.2641547023994,-2.768626012104061,3.193081180387231,-3.4089663535638586,3.3856634305363844
-4.437432392365495,0.0,0.0,4.507724395002984,0.0,0.0,-0.4182182791019018,-8.29220972156304,4.846298877768378,4.832529650793383,9.069397300900315,-7.922461500820418,-15.283804636894628,1.0632812348933707,5.183936366307134e-05,-41.5913855271449,-0.9767194651264611,-0.0016667884868854298,24.768141101175914,3.9278637228934477,5.809234602394328,17.29890009503842,-9.355685327752155,-7.142490568523004,33.024111319370114,5.333337437170253,-20.89198950766077,30.262254170538224,-14.167358502462152,16.07090518002553,126.39623552150218,-0.00211707381066501,-90.27168700101636,134.5110423726593,-0.0007223183042813336,79.63993251230276,0.4560646259302876,9.007184865034171,-0.0004912089366241395,-3.324699255710647,0.04703996135079898,0.0007769015844134639,3.9448426992497225,1.9139505925763867,-4.558501303031572,-17.75689103289831,3.4648501174922215,-3.5278001624999136,2.7887842651296872,-3.670448555971419,3.169263103814902
-6.9608868972603695,0.0,0.0,4.068803304472041,0.0,0.0,-0.5842896975514291,-7.533473248554449,4.265276235247886,1.7650698552139334,9.494545589014795,-6.145307130878319,-14.932827903566114,1.2810942187683667,-2.5976487425744383e-05,-43.82810374824901,-0.40251971474282316,-0.000289456807266809,24.625293003257074,3.0900121799758065,6.382293634080115,18.71963118182679,-10.687149745155637,-6.3723708142763,34.11161339204787,5.830936127192679,-21.924782300215178,30.384983610300065,-14.158692619502437,15.952835721177257,126.16125495946252,0.0015598842247099584,-90.74674389368052,134.2591232271147,0.0017671803863424699,80.53052148334855,4.721450447904767,6.84452105524454,0.0024372298455663803,-3.2799618468465965,-0.40886954261612374,0.0006631939269927285,4.170374713402105,1.8216408595318434,-4.404368048264415,-17.53279421127037,3.3221215698158924,-3.418610687390881,2.634308831515558,-4.175508107021844,3.1221121406039365
-6.584793614503438,0.0,0.0,5.197397403868424,0.0,0.0,-1.2293021801539994,-7.191123556947051,3.2774243623456814,-1.1407607560588262,7.440936862878567,-3.8525810378101473,-14.164193189328612,1.5593711518275375,-0.0003295669654905091,-45.0670639950219,0.3361813333467287,0.00032516287125766756,24.330296973687407,2.428222613216,6.507721438349509,19.471599014088206,-11.855666432622447,-6.547462683694413,34.80691983180424,5.204734418414993,-21.898673389151146,30.01519619022608,-14.498435728025822,14.98663791769046,125.41027202814712,-0.0035050585870472213,-96.52845365769333,135.5397045514931,-0.002452069038470216,78.97166679920714,2.8554795160627853,7.858168098526402,-0.00472518334495334,-2.8420284708087387,-0.523157867883418,0.0009574948460313722,4.093112347807439,1.8512776197620546,-4.920671546391779,-17.598513872377197,3.5404365751232523,-3.887975295413591,2.6777381634200235,-4.135930495089504,2.940947412001594
-7.4692028655705105,0.0,0.0,3.3453917533178177,0.0,0.0,-1.1993422784071566,-6.71882247791454,2.920549965881355,-2.5320357748006996,7.674110350452181,-3.184687608999188,-13.645449094700423,1.2398636674142822,0.00013077152989139003,-46.04817667402313,0.8794105163234296,-0.00017076008542717488,24.094158173111165,2.5872521345656794,6.3277032987324215,20.0845190671721,-12.198024129401974,-6.154638527929715,35.09989157079644,5.485828717794845,-21.28304522534304,30.229740527209916,-15.020499364749286,14.648623102276328,124.68218974414877,-0.003093552444074567,-91.0868205198978,135.8753702022604,0.0005891451000851405,78.80098685968281,3.2991796756285385,7.602181330115415,-0.0010492409850029135,-3.2014742438256594,-0.009608470936489246,0.0009729931103160055,4.520327432461159,1.6005603628288447,-4.436398167970905,-17.177526744475816,3.128546136735407,-3.5302795648411003,2.3402641701108315,-3.7759316660384696,2.7333197259559965
-8.286165406861478,0.0,0.0,0.7226805572178662,0.0,0.0,-1.2299105865549107,-6.850298213554762,2.8799120293983584,-3.042332607429029,8.616409866237548,-1.9284535248741577,-13.257107234939436,1.0392899586398692,3.0503231766839186e-05,-47.166997661100716,0.2788914450647737,-0.0002792741300229657,23.83997264588848,2.8829295354849096,6.341967009903291,20.79332962997977,-12.211232016515932,-6.548075121048188,35.5098853736354,5.527609424226712,-20.980555564325584,31.15604497861453,-14.768851863767372,14.808640261339997,123.36195578907146,0.0034187630308400467,-95.81673361844139,135.21832600276684,6.649700429098029e-05,77.45497041614531,-1.513896590310731,6.070283171531522,-0.015269655547468864,-2.919091922379376,0.5594834301605167,-0.00011618324528649497,4.891982640221363,1.9036250169781381,-4.720986868725951,-16.805724859647057,3.5153047721014263,-3.682791456302266,2.180999432853504,-3.595027911752619,2.6101015916212695
-7.805522508890983,0.0,0.0,-0.6140830332071994,0.0,0.0,-1.4667931794049023,-7.214597222554389,3.2462103029118534,-1.7049843157404512,9.294284870606054,-2.065198564776716,-13.484066817109538,1.366387369009411,0.00029294118290472767,-47.04379695638143,0.8932399891914817,-0.00047218762516872825,24.067373827775274,2.9358463200213065,6.214872901455737,20.845950684174483,-12.338776242655408,-5.891747607874229,34.87809254018892,5.681951168975257,-20.797783301578477,32.024610093593516,-14.236232642453054,15.662771961060526,122.38460096875069,0.0004247923447721597,-103.48386016717986,134.5863414426148,0.0028101591638513457,77.55041855054198,-0.634060074297978,1.9464874636451077,-0.0023935233884498724,-3.220773108671274,0.9441812476533392,0.0005173183263687635,5.411841437477493,2.55865285158131,-4.0282293330603975,-16.31603699636307,3.8677554346927323,-2.795503261937889,2.1191738239760483,-3.528334830903486,2.38421889819263
-6.7924046380296215,0.0,0.0,-1.0101937226626478,0.0,0.0,-1.178538878178337,-6.955492813725699,3.856029276241466,0.48863437184054076,7.763546833079656,-2.7816080498180944,-13.549875636304511,1.1442693886042976,-0.00015518136475090117,-45.77930480100508,0.7696760614636275,0.00019593437018929614,23.992466004352032,3.259605279993348,6.180501555044252,20.232393594335385,-11.932256669083497,-5.8718012286070715,34.69154608471124,5.678508244666526,-20.30000680264171,32.56793789622566,-13.923772348798854,15.82671889824609,122.32197073427714,-0.0002999265096937577,-104.38720913239264,134.36530553859706,-0.00038750548274680023,79.87160182471274,-0.06148056185032404,4.818053643853561,-0.001797170597841155,-3.6412545231910776,1.7733272172847612,0.0012644770246352383,5.666460639494781,2.128714273229488,-3.9231703773017137,-16.05318488844533,3.429505797886141,-2.857250432621018,2.179275454218572,-3.3686461706860515,2.8744768385934636
-5.73217,0.0,0.0,-0.03508000000000002,0.0,0.0,-1.2656099999999997,-7.655079999999999,4.221679999999999,2.37676,8.577830000000002,-3.6991699999999996,-13.099889999999998,1.49249,0.00042,-43.53612,0.004670000000000014,-0.00075,23.846840000000004,3.3662999999999994,6.913739999999997,19.4073,-11.3336,-6.08924,34.74706,6.015289999999999,-19.806610000000006,32.56293000000001,-13.35523,16.390620000000002,122.66027,0.0020100000000000014,-103.37606999999998,133.84322999999998,-0.00091,80.61521,1.2474,5.44548,-0.02036,-3.2506899999999996,0.17011999999999997,-0.00027,5.5144899999999994,2.36405,-3.1697500000000005,-16.222339999999996,3.3694099999999993,-2.0693900000000003,2.87146,-3.5122299999999997,3.3798199999999996
-6.695883349382678,0.0,0.0,0.2942011310482564,0.0,0.0,-1.0402260219765695,-6.52497294064922,4.942561063049003,4.109237221521388,9.016705777661029,-4.994054498941485,-12.531594031997743,0.8892966499191872,-0.0001375550885893722,-39.88338985819759,-0.37095539143265677,0.0004862341217379675,23.077932592595488,3.201517698428357,6.6361247267669965,17.025447996835357,-11.16318400673736,-6.463670208526346,34.43809323286816,5.863357210352517,-19.502125867789545,32.6275508069625,-13.150297248409473,16.553807585745552,124.69977888519163,0.0035794482468839662,-93.23294977996264,134.19273990838033,8.044797616572948e-05,78.93108514052683,5.075109588259138,5.96343531297993,-0.006614201599078567,-1.2760330582013997,0.6368265195160246,-0.004319411978486437,4.746438654324192,2.1524839962125797,-2.795339122295631,-16.990704562693427,3.034334052201733,-1.7998000678491524,3.089075359139929,-3.972582446891111,3.6277054424852775
-5.551848662999239,0.0,0.0,-0.13120577680654757,0.0,0.0,-1.1302913271907884,-6.671902999123653,5.36166730017325,7.211270908215385,7.863667427671657,-6.627338402558948,-12.07062367389163,0.9705856008109808,-0.00014033353227317782,-35.605401433877354,-0.18980886947717096,0.0007774838507693383,22.635809323773866,2.5757710704564274,6.531823145328034,14.366417523249915,-11.357494257358427,-7.480384660308923,33.89692990946572,6.365912118199236,-20.835151335132956,33.01193507551362,-13.03580233620096,16.70760758099788,125.64580516602824,0.003543528972882319,-93.96701021596225,134.34507290647102,3.0106514281828304e-05,80.6134984661886,1.6582837153790406,8.382775848829292,-2.8309887162866407e-05,0.13361713566635358,0.7515207641653622,0.0005761490125635024,4.743715609667499,2.1303875481755576,-2.987892477155771,-16.99062376653021,3.085062223236081,-1.9869909476120373,3.7193190153139803,-4.722003614607152,3.985986409860906
-5.968390395629306,0.0,0.0,-0.28212457454965956,0.0,0.0,-0.463061560904587,-7.532680753936784,5.785517951457277,10.322937637137096,9.150475242308827,-9.8008782071185,-12.790779489564677,1.0297438425128553,0.0005570164958685861,-31.355480797639785,-0.32767688404264067,-0.003674290074784279,22.763122189768744,2.7404375356262336,6.548223294626375,11.628835702791426,-10.618433117065068,-8.031621086041831,33.36046312449114,6.772903310421775,-19.864456842843637,33.173513628397274,-12.734883358658234,17.23614937582719,125.61517848724039,0.007219924575811959,-92.37682987786306,134.86973304384912,-8.797196722561257e-05,80.80946187894904,1.1452414407064402,9.76397861716597,0.01033162994987798,0.8100612288970264,2.348318411960068,0.004392225705677114,4.8047168267455875,2.183590296605587,-3.0588107742142494,-16.929778798866565,3.1607265052608096,-2.0331796713900654,4.226409223652845,-5.058426174664524,4.175563325333699
-4.757102005052182,0.0,0.0,-1.5471122863695506,0.0,0.0,0.42798861555111517,-7.682768627863691,6.835753373716881,12.469521921100222,7.559300538923985,-10.555036002951852,-14.480087378785269,1.1349860169303851,-0.00012190074369841997,-27.086520785988785,-0.796122118093925,0.0040067617727143024,23.3500252238181,2.7749883640839363,6.659261646519022,9.339261619296394,-10.245515676497881,-9.415420689549563,32.84030341795609,7.693160555504429,-17.61203751990603,33.07340987182923,-12.577664255798393,17.64988238125505,125.340708965115,-0.0006120799070964632,-94.88931873660255,134.4654449934367,-0.001168819393390841,83.74206844608531,-2.3967638395382123,11.404722458160629,-0.0048467737807339865,0.419791062268705,1.7123694222862886,0.0003043814644040889,4.8261314162359765,2.330383148889432,-2.1165242340811985,-16.9208176258545,2.9483122114446276,-1.1029010990220158,5.1505381378010355,-5.348081961359616,4.607665312138277
-3.429520951536548,0.0,0.0,-1.4289592365199835,0.0,0.0,0.7139540092986616,-7.591669246504456,7.964999140816289,13.80435963301857,7.669731352445778,-10.818132590614288,-16.102628136438508,1.3261793485124724,-0.0008628200088354388,-22.464844023809366,-1.4199650875122602,-0.0038803087963611284,23.868924218772765,3.35315264577485,6.827568119405236,6.951840152939247,-9.209410803640768,-10.351764373500917,31.927434184479917,8.424716642525667,-14.843895069809774,33.25973961732117,-12.282333289339723,18.266452916293424,124.46949367282133,-0.0008151736363215411,-95.26788197498895,134.12939227859016,5.09379669412085e-05,84.2759255364373,3.6760840015462204,7.603899905606025,0.007468866534125172,0.6380435142736597,5.070580274345282,0.01200196356550142,4.852633953607261,2.460905982566292,-1.4149040917030735,-16.9001699068683,2.809776582819505,-0.40255820917209817,5.6533489167248145,-5.146946230301985,5.017232006511832
