PaulMeinheit/Bachelor_Muay_Thai/processed_Data/N1/roundhouse/scaled/JointAngles/scaled7.csv
L_MTP_ANGLE,L_MTP_ANGLE,L_MTP_ANGLE,R_MTP_ANGLE,R_MTP_ANGLE,R_MTP_ANGLE,L_ANKLE_ANGLE,L_ANKLE_ANGLE,L_ANKLE_ANGLE,R_ANKLE_ANGLE,R_ANKLE_ANGLE,R_ANKLE_ANGLE,L_KNEE_ANGLE,L_KNEE_ANGLE,L_KNEE_ANGLE,R_KNEE_ANGLE,R_KNEE_ANGLE,R_KNEE_ANGLE,L_HIP_ANGLE,L_HIP_ANGLE,L_HIP_ANGLE,R_HIP_ANGLE,R_HIP_ANGLE,R_HIP_ANGLE,L_SHOULDER_ANGLE,L_SHOULDER_ANGLE,L_SHOULDER_ANGLE,R_SHOULDER_ANGLE,R_SHOULDER_ANGLE,R_SHOULDER_ANGLE,L_ELBOW_ANGLE,L_ELBOW_ANGLE,L_ELBOW_ANGLE,R_ELBOW_ANGLE,R_ELBOW_ANGLE,R_ELBOW_ANGLE,L_WRIST_ANGLE,L_WRIST_ANGLE,L_WRIST_ANGLE,R_WRIST_ANGLE,R_WRIST_ANGLE,R_WRIST_ANGLE,NECK_ANGLE,NECK_ANGLE,NECK_ANGLE,NECK_ANGLE_SHADOW,NECK_ANGLE_SHADOW,NECK_ANGLE_SHADOW,Trunk_Joint_Angle,Trunk_Joint_Angle,Trunk_Joint_Angle
X,Y,Z,X,Y,Z,X,Y,Z,X,Y,Z,X,Y,Z,X,Y,Z,X,Y,Z,X,Y,Z,X,Y,Z,X,Y,Z,X,Y,Z,X,Y,Z,X,Y,Z,X,Y,Z,X,Y,Z,X,Y,Z,X,Y,Z
-10.502070000000002,0.0,0.0,16.56494,0.0,0.0,-0.8208800000000003,-8.145590000000002,-5.502350000000001,-6.425730000000002,5.386280000000001,-9.333930000000002,-21.4258,5.492040000000002,-0.00063,-49.209440000000015,3.4109100000000003,0.0012000000000000001,33.94073,-7.596580000000001,-4.14894,13.165970000000003,-10.866530000000003,-14.850120000000004,31.60141000000001,13.67366,-29.61473,47.148770000000006,-29.599330000000002,-7.463730000000001,134.74045000000004,0.0014900000000000002,-88.74856000000001,121.16766000000001,-1.9999999999999985e-05,64.7297,1.8821700000000003,-10.459060000000001,-0.017220000000000003,-7.478390000000001,-8.638750000000002,-0.0027800000000000004,-1.6245500000000002,-2.5107200000000005,-16.651180000000004,-22.448800000000002,3.744320000000001,-16.424170000000004,-1.55072,-6.142120000000001,16.219240000000003
-8.418085893499097,0.0,0.0,15.33655604187665,0.0,0.0,-0.7686657236735552,-8.43195651755734,-5.294557574443121,-6.837534437073259,5.67617725918484,-10.058402355144656,-22.672623419044065,5.6729716686569995,0.0008206870441434151,-51.17490932710313,3.0695313443440213,0.000914898893075631,34.72528718935334,-7.778628674630419,-4.47654380081103,14.55961292633534,-11.081738372534451,-14.88231949148486,32.28368205941101,13.88352204239028,-30.862741919481564,47.25162648293745,-28.689234995704634,-8.076660958962247,133.75075065897394,0.00230846565866946,-87.99592480990758,122.12971765545275,0.00258354596526555,63.90494467238606,-0.698266741273948,-7.850045148715302,-0.0004970367160571788,-6.87705994963664,-6.5519860155971,0.006307007414449988,-1.6489378399674204,-2.3754610972106187,-16.724795009551052,-22.46866565373288,3.8968871429055447,-16.444883518744952,-2.0354502600243576,-6.691174004792991,15.662992960516338
-7.420555417214126,0.0,0.0,16.808237140283275,0.0,0.0,0.04325123343328207,-7.928494883019474,-4.166026777657833,-7.685000957874874,5.710402447076358,-10.951893752071246,-24.120286381898126,5.730655531088569,0.00036709788943567207,-52.557623531186096,3.187309007265378,-0.0009092625624396438,35.84782133506949,-7.900818175053374,-5.061769213080291,15.949368766427703,-11.264421267465691,-14.583733706567465,33.404421172948496,13.235887496182814,-30.791530535726082,47.02288518205693,-28.07855930446209,-7.521941126693605,133.73699764215027,-0.0002954608687200941,-90.36508577315978,122.85811862200033,-0.0008050769851815375,62.54818307032589,-1.0693962096654057,-8.64289265129571,0.0006054577242029663,-6.108712997837355,-6.692728410830013,-0.0012851647971539976,-1.6937276674194277,-2.1003905298680636,-16.454127239842922,-22.54839875066434,4.057757425938033,-16.093412029163392,-1.914279187824985,-7.035239603594455,15.01758961592618
-7.1466741182475975,0.0,0.0,18.123391756929617,0.0,0.0,0.6884595009425193,-8.86879490636892,-2.902700186966212,-7.846699441776247,6.175060917621446,-11.440091258015439,-25.884326059634112,6.441470124470799,-0.002045185910022042,-53.88701346220697,3.426172205431708,1.358149910994e-05,36.78217439375421,-8.579678312139357,-4.851897024610585,16.810091287172774,-11.986888173007795,-13.940941984183128,34.415701533285926,12.467213038805784,-30.403050909304962,47.17432525720936,-28.156775334327516,-6.371991007686837,133.61999417924062,0.0021602411544600453,-88.22961812226497,123.16440683017385,0.0001432149129071749,61.61946308782067,0.22636825098074162,-10.913068009162604,-0.0019827821113874793,-5.60082239026139,-7.714031491331346,-0.0031089318747531095,-1.837429564206324,-1.8119726021242804,-16.623558747079656,-22.682211600197032,4.387566919187846,-16.149157819226875,-2.189359512847633,-7.641914176513996,14.959835327062674
-7.994274048091224,0.0,0.0,19.706461578567207,0.0,0.0,1.7792323930460718,-9.152647381944753,-1.9139585758990525,-7.61732095019877,6.252099017855684,-10.418088648030855,-27.15152012809388,6.808296333444517,0.0011329219803498114,-54.53335906009446,2.9992336045814305,9.559615884608063e-05,37.3117927098027,-9.278076903852904,-5.0190741751555725,16.969979504723305,-12.820256762610999,-14.342439968110456,35.502939067107874,12.080289381790447,-30.65817253425774,47.483150005369396,-28.647689403271215,-5.8775589886366095,133.31049658568256,-0.0025610857355935967,-85.09748462416232,123.55007952156075,-0.0005210125026488682,61.939117326424864,0.13337447131452768,-10.507348742022572,0.0014803998838878861,-4.563251924389021,-6.721150043206906,0.004125209724037426,-2.033153577079052,-1.4775046181731015,-17.494060941714935,-22.795856340645784,5.009273603655872,-16.846116486417518,-2.5061258532274255,-8.124546822639248,15.49142261987622
-7.325331729143938,0.0,0.0,22.300573128321357,0.0,0.0,1.9890188953703505,-8.367443149896468,-2.0151937251035457,-7.6732620899513035,5.440918080161502,-8.94818792909211,-27.619640966808884,6.9929819494522025,-0.00024560193338898586,-54.55495876398048,2.9009486069937886,-0.0006567787371605328,37.71692895301067,-9.650575561059231,-4.920012107568928,16.885572149290823,-13.308687935048933,-14.503081830069737,36.02557415289455,11.520798568420247,-30.858548924764587,47.617597406213555,-28.858083540729513,-5.343244678902635,132.9817824048069,0.0007789385363675369,-85.97717756406192,124.1582404549134,0.00019060819590282376,62.975281682881366,0.1537578588415245,-11.912845269129093,-0.007505273260318296,-3.9359362367157034,-5.641536584101901,0.0029378202777375247,-1.7511920867008794,-1.1345411100060756,-18.512231491980348,-22.412892627387887,5.690082605919237,-17.680574947965432,-2.5302624872777404,-8.395577465465944,15.669912665218924
-5.630339040928874,0.0,0.0,26.39147409353646,0.0,0.0,1.3847244698048338,-9.118854240892471,-1.9910790285430202,-8.233952009140067,5.683138771316312,-7.619017013215366,-27.586285192954435,7.288852919375982,0.00025336382856905657,-53.9933522842291,3.6206826338319975,0.0003937081436494014,37.487751172966625,-9.782702368772863,-4.760772976545734,16.221124461791337,-13.799665638874922,-13.70982633227086,35.91976543723866,11.277776783324342,-31.628207212503465,48.2266904076371,-28.27822001512645,-4.062465962341041,132.85520961411322,0.002558229063510493,-82.27695295513868,124.09802568082289,0.0004944314727759742,64.13407412714204,-0.4379404518125599,-13.011210876349018,-0.0014119338925536508,-5.672178265454804,-6.4339800908017075,0.0031089368492715607,-1.3879000756064785,-1.4085784215265165,-18.734914103309517,-22.014750796500895,5.512131338087743,-17.986985510023548,-2.887634405850242,-8.567685995944597,15.490984386200715
-4.874690149710438,0.0,0.0,23.94913365342348,0.0,0.0,1.0954312044561647,-8.459101773361592,-2.0962642534463827,-7.473023581789095,6.1018272756701855,-6.40035993547973,-27.328152807915938,6.874855643574315,-0.0001580405436619193,-53.66939833814485,4.161610019992517,-0.0004108484171887556,37.708242116087085,-9.38638089972927,-4.264528619507609,16.305189664214847,-14.269718999188,-13.186373852932972,35.050842815049485,10.984015513848876,-31.989837512069776,48.43887217136903,-28.082019202262927,-3.6677041979447287,133.21854898971623,0.0031192569508059678,-81.9092970025668,123.82992380961201,-1.7611029277268334e-06,64.25454491104347,-2.6351331529147037,-11.681590677457338,-0.00673684204803463,-5.727862638606263,-6.205143741250923,-0.00037689772527949044,-1.5958614852867494,-1.672158784797148,-19.037936171549813,-22.17870985363531,5.372018877186078,-18.364985244591576,-2.6211230447982823,-8.393145494720622,15.685280677283844
-5.2729403473169505,0.0,0.0,21.251952182970022,0.0,0.0,1.0548922678580384,-7.640811544202108,-2.805514585471462,-7.315440208122233,6.448060248619972,-5.4968905103394485,-26.71968208516477,6.331104473192925,-1.8206263822573584e-05,-53.66501434387681,4.596237296210931,6.173170648538061e-05,37.61658770428542,-9.004389980537056,-3.711139259921275,16.33470777171676,-14.802581366249811,-13.298317426424914,34.39558131121329,10.581123249125987,-32.0208713840584,48.57766354867292,-27.80489182272169,-3.698350925904208,132.90701839079895,-0.0027059610315465755,-84.06276846072929,123.35865064469058,-0.0008459111741798786,63.76221171012115,-1.725307296456647,-9.996718582781892,0.0020276731818314664,-5.134655509692117,-5.871713310534815,-0.0015675015501847506,-1.5320157122181037,-1.2605388130625628,-19.15658388464547,-22.115130882425834,5.799055811155768,-18.331146194205193,-2.5660006404964433,-8.428704446927082,15.571002321800032
-6.166913359497637,0.0,0.0,19.561939842663385,0.0,0.0,1.3986912885498324,-7.255520981122607,-3.071916550810344,-7.746508711292462,6.357912606707006,-4.882732190858758,-26.294497202077178,5.885408638719549,2.3530312427978078e-05,-53.80862738819075,4.706147085757598,0.00015709763087928258,37.05227942782442,-8.405003113967377,-3.2709379567185914,16.127772685287958,-15.10659134431705,-13.803143869822986,34.292264021020756,10.450147119590056,-32.22907785248381,48.59760614660808,-27.201510160077778,-3.6347233602080666,132.66617461901822,0.0017352481946981786,-87.39254269297074,123.19285705075279,2.0872539740951575e-05,63.904846598236595,-1.2717047659752538,-9.495883138021215,-0.0026211061926638317,-4.667603604696133,-6.607732971034568,-0.0007578700009239713,-1.5955262518034903,-0.961655082561152,-19.029932240303882,-22.2042789860231,6.0342954369582165,-18.10627733805761,-2.959905724013689,-8.193450906339578,15.382990162103713
-7.59257674576529,0.0,0.0,18.179926571605566,0.0,0.0,1.3851262919011373,-7.914042300827582,-2.7961173857414776,-8.411129205483629,6.615466738994062,-5.338394365834252,-25.88197424274438,5.577480957210847,8.390888052828021e-05,-53.95062170742822,5.199209974078715,-3.083787192897273e-05,36.813679498967616,-7.982219791463126,-3.2791355274384792,16.33154826204957,-15.42844227334551,-13.975238125621573,34.528554019452585,10.118644945640753,-32.80827011919165,48.22502025734173,-27.143396369524265,-3.5083530262392766,132.31981308317242,-0.0012892469420164143,-90.22859500303872,123.28604032937278,-0.0005304761211660862,63.91883397514678,-2.24718778641115,-9.414794767890353,0.002744264291787461,-5.746893320227977,-6.681658101234316,-0.00020044876423936422,-1.4228368120818544,-1.2923818624957197,-18.783051612047053,-22.048142449864645,5.637825612411504,-17.991114403624536,-3.2196942508962847,-7.7817579097852505,15.317717465635775
-7.342951867555023,0.0,0.0,18.344359721035016,0.0,0.0,1.177237411619875,-7.957367665979893,-2.34202241664244,-9.214705684674902,6.0994184521459545,-5.255337342619042,-25.701188372389314,5.2074107965759815,5.95288771684802e-05,-54.285208917882876,5.198359208478894,0.0008104581951885715,36.68033061933587,-7.661155743206576,-3.3889323492927144,16.826526852109296,-15.723877548501443,-14.045876207172839,35.03543015053404,10.176785727923756,-33.07076614832201,47.93795243160616,-27.04444714990577,-3.2761068185499926,131.95392259090454,-0.003220422971381332,-89.73751949833,122.98465957939506,-0.0006035930332689689,62.40497276813891,-3.3779427140398655,-9.986312630391025,-0.002576934493248142,-5.837364341095334,-7.263085436485789,-0.001022850057555255,-2.095736245893966,-1.2172660603094936,-18.475642126927703,-22.75868614375234,5.599764344425183,-17.67551487006063,-3.221843709324545,-7.733426061127206,15.719713418225314
-7.399110062806318,0.0,0.0,20.16324727704174,0.0,0.0,1.1909539788993653,-7.322991604115383,-2.312141484306573,-10.556830301617385,5.594475430406304,-4.903448193481861,-25.49720548846538,5.246702801654862,0.00011324308142689462,-54.227190770905565,5.125594488082021,0.0002200332459568978,36.69514205684941,-7.495119795707925,-3.0199921285602125,17.255316211537167,-15.83349689304506,-13.909240163339637,35.236179607090556,10.446743407189077,-32.49790341800676,47.83722693317024,-26.24815079259768,-2.920503014454262,131.99390601248322,-0.0029476727046621825,-84.3233537752172,122.53578197419564,0.0015186557797710314,62.544975112232855,-1.869041364083181,-9.52908855123672,0.009400731785365764,-5.759498250876375,-7.573458738342858,6.307591125531651e-05,-1.9745120177025421,-1.4548189964983966,-18.099653422005918,-22.671641834580665,5.244771499295181,-17.406525436561616,-3.1632221296855394,-7.742598213529247,15.668977558472157
-6.368502277508311,0.0,0.0,19.029279058204853,0.0,0.0,1.0303445101117554,-6.899442974891622,-2.260341764940934,-11.207351516304573,5.937712057584665,-3.7670000151173095,-25.440367141015066,5.223302226338424,0.00010411644483440526,-54.09894534614742,4.4696212570295994,-5.863241483377187e-05,36.60548648542601,-7.200521470496938,-3.1253357749241877,17.3034201456605,-15.5133745673612,-14.211903038709792,35.7095171869148,10.17094699235739,-32.427320851557134,47.395427869097944,-25.854941965316552,-2.765996094694045,131.68371973013564,-0.0003876590589917061,-85.91042023501171,121.62369817239576,-0.004911342098286046,62.02990782747899,-0.1515400897687676,-7.501839246578687,-0.0006888335100132283,-4.637066808596481,-7.166072652949326,0.0007026331081077916,-1.9366617832264312,-1.329875754657649,-17.663169832177633,-22.685766019594436,5.207236067960711,-16.95231829187047,-3.385024027328131,-7.54494038674054,15.655526910926753
-6.163696968827999,0.0,0.0,19.88988196318049,0.0,0.0,0.9287133663652685,-7.027412535841653,-2.164437859774412,-11.686133514892347,5.320265073411585,-2.6342013914008504,-25.57896207808773,5.591926936655823,-0.00011561340982679103,-53.815338136794985,4.22428755520526,-0.00016149253303634955,36.73622050149337,-7.207106779178915,-3.4116831659078963,17.182898350203818,-15.12342160366246,-14.200585838418418,35.533784842175486,10.047862126852225,-32.92960759264233,46.89854894102699,-25.40934652840299,-2.241215512329095,131.69070281104982,0.002133752389809378,-88.86484684040626,120.27325265204702,0.006323411737813602,63.242634173961186,-1.5326976297547654,-7.395828100888546,0.002875708803492708,-3.769961328021929,-6.748292770843526,-0.0032515012036134433,-1.856531490708127,-0.7648812057609693,-17.535389244393006,-22.638476922262136,5.690223623247866,-16.631086528025552,-3.3953379579230347,-7.288138816008,15.19934918490697
-7.86898789681234,0.0,0.0,19.887721042298146,0.0,0.0,1.2812589530089231,-7.18029912655568,-1.6445798144031851,-11.234102209863684,5.714753652910585,-2.601316775124323,-25.94763824021775,5.994385486809217,7.196148079787493e-05,-53.38897085205699,4.5627321979229,0.00041887807081334534,37.114828834608865,-7.256853100966884,-3.4100700252502234,17.270663231175917,-14.913056345135562,-13.210327045787167,35.53315169880352,10.21713532486698,-32.78704841904266,45.97673693688179,-24.59905913034128,-1.3597065001896227,131.29946411653847,0.008729336965415805,-87.95942404903109,119.30018463839185,-0.001622248109627999,66.55638270438816,-3.301384152652564,-6.895433888862338,-0.007545388404920896,-3.209910867643047,-5.3563647179761915,0.002055545956472095,-1.4995371443539887,-1.2025708134889497,-17.16071834232735,-22.3064083646106,5.148064558971596,-16.435387145934893,-3.020056521045496,-7.113918124556907,14.832407618766487
-8.028492539785015,0.0,0.0,19.959170211690708,0.0,0.0,1.3898477646751362,-6.9173144308868535,-0.8523305962753518,-10.54140047132623,6.326322978473133,-2.4479286505511757,-26.175570545377983,5.944250218919086,-8.885914103999094e-05,-52.89990478768397,4.4605031923332135,-0.0004324427257101605,37.31853350138152,-7.255860048318464,-3.795908198711189,17.096665905868313,-14.678553171200228,-13.07960347742472,35.92815636062207,9.668889254134207,-33.27687609113599,43.84154122878525,-24.228992617629007,-0.9068175691884145,130.3697230652034,-0.00899953204291839,-89.51310873310264,118.87225915612228,-0.001144584949149519,69.30711774754324,-4.754283082019002,-4.917746711937113,0.008511062842513876,-2.2759435996434285,-6.17808717598665,0.0055775631528008985,-2.13439654869759,-1.291239272735209,-17.359904895946585,-22.917335996322752,5.135863516590437,-16.65391396650296,-2.6994790938929887,-6.904326025892081,14.744205428934565
-6.857677203023504,0.0,0.0,18.634453629972604,0.0,0.0,0.9624714957398955,-7.100686795117602,-0.9393986192884825,-10.063946947593276,6.668891037869096,-2.6597570564460145,-26.35637444835786,6.327710351594663,-7.554769414544424e-05,-52.51178833956856,4.102191088193059,0.00013506491063836534,37.30050771497113,-7.197733812047387,-3.6948423738885854,16.73741394934199,-14.20308210712448,-13.513281468210641,35.97435030280823,8.770897877940936,-33.96208034076068,42.03336314970252,-23.525160591873657,0.5634696600761745,129.46404793405299,0.0001821557910401902,-94.65139847594887,119.33943974125754,0.0021403478651637795,72.99307381383863,-4.503723495298961,-3.9129356472585832,0.009001085920412138,-4.3919582264869,-7.250792862905785,-0.0013822381888866295,-2.2544009893709194,-1.299929081167,-17.539963811211283,-23.017786167805863,5.1915923114516795,-16.82600070460791,-2.8442368680970977,-6.532845781414644,13.949786365077204
-6.807001427121245,0.0,0.0,20.942411683937983,0.0,0.0,1.0614153565763635,-7.258325862850173,-0.8612540493908728,-10.352321847910046,5.6261280081506175,-2.9783169888758203,-26.39971099435426,6.357225018804077,4.3382581921270325e-05,-52.211741548836784,4.011986093516437,0.00025915658963484255,37.43348236133812,-6.945507307018295,-3.352193686530587,16.874478562243834,-14.054739850809725,-13.528009891909623,36.09294492690973,8.075120082277714,-34.12505742563895,39.97079141265821,-22.82480144662266,1.4762805216448263,128.70459933573952,0.004835899989369122,-93.89814960388401,120.86168429165421,0.0006586734789015215,73.5829306327469,-7.334636150712604,-5.087653001055172,0.0007386181251333537,-3.9818996277474543,-6.097090495184919,-0.001380978235041102,-2.5949676484440722,-0.7556241051061288,-17.384656031648003,-23.3932223935928,5.64538644336552,-16.48618041416032,-2.632533208502395,-6.4359837824074555,13.619419686619208
-8.564875058532126,0.0,0.0,21.11498998227662,0.0,0.0,1.6000760117312913,-7.128513868322494,-0.25524376852816755,-10.186633081555954,6.026001129984838,-3.313334307817012,-26.358982566798417,5.915256598936599,-5.992962317635086e-05,-51.88110461160777,4.136817726688241,2.6495976395302626e-07,37.31158116210428,-6.764932660510616,-3.8295376886882124,16.760103556560157,-14.012732088450486,-13.068777669442206,36.10638024554322,7.792111392686221,-33.70755894120146,38.21455508919574,-21.75717645277644,2.7543560799921587,127.9930414339092,-0.0013650323216252832,-93.26454622773032,122.70531130620839,8.232693054943267e-06,75.76207623662037,-8.471820448359178,-4.228947729483593,-0.00020072042262510412,-3.993518796432805,-7.29234534691833,0.014007447709517555,-2.0422205640523363,-0.962926251381362,-17.050885398720794,-22.868412559593434,5.333036309070612,-16.246784719792064,-2.779877885200592,-6.326742338118183,13.284606972661068
-7.950668179694811,0.0,0.0,16.97031112880085,0.0,0.0,1.1834737138664013,-7.766014634793579,0.20376093370349427,-9.458733585934949,6.106377511006193,-3.1462683457608835,-25.929044344681955,5.882306078317591,0.0004294160775609379,-51.68035511151415,3.749350773687176,0.0002703736343162957,37.195932520212644,-6.58558322321027,-3.667924882616552,16.99003679805766,-13.800007828615112,-12.657941786659414,36.050708761806845,7.563539014873855,-32.4348759411062,37.09850612014971,-20.15544939430239,4.731231805939448,127.27138448760543,0.0063798645332220115,-89.48307536426657,124.87443026529596,-0.004686568958003619,78.57772550470757,-5.415319758691348,-1.028676380470681,0.01787757894484673,-6.488380757555069,-7.7439800301075294,-0.000265252239696669,-1.543445637260908,-1.0471069289230517,-15.98164407139891,-22.47490380604252,4.873363124549974,-15.27405689711846,-2.854021153054545,-6.007665343154071,12.653624667555743
-8.05077489136752,0.0,0.0,18.007580055659513,0.0,0.0,0.9116528011677396,-7.8747387972843095,0.4838183084681611,-10.084653084089485,7.10455346529488,-3.3001042487154217,-25.40452589918508,5.83360928242018,-0.00036256125948030374,-51.03798220375522,3.2371495793189897,0.0002440080398890959,36.77370355439857,-5.944306503773709,-3.2752168447055627,16.898006499996242,-13.226521687977549,-12.27948888358421,36.074618537114354,6.94495324372155,-31.405904703469425,35.1136275715752,-19.139485357767196,5.079181413707981,126.12233217661907,-0.011459146394932063,-88.5176830148398,127.06297039691196,0.0008784165370746455,80.51859657213912,-3.7531167416064335,0.26538529400193517,-0.011037579026714733,-4.277779517834045,-6.606251937513091,-0.0030855286449864047,-2.339101542987074,-0.5010917438386487,-15.937698162000974,-23.292300480721572,5.367602148160133,-15.036908775785124,-2.6901908015948823,-5.518160341382551,12.42601051437858
-8.821977630010116,0.0,0.0,18.929329115394278,0.0,0.0,1.1827550117298824,-7.010215820038021,0.8809732558729335,-10.34764788615145,6.857195049149953,-2.772948159291126,-25.015836005771796,5.500961392146573,1.585491014993857e-05,-50.37567751871417,2.4898826155659504,-0.00013997064573252296,36.57617576661955,-5.306326190505501,-2.969510837524324,16.97773231195982,-12.846351588362463,-12.220506554768342,36.010104228915566,6.524143505052261,-30.24005928677464,33.61684308853785,-17.576086683315403,6.232176225488253,125.00983379666769,0.0023613697959629556,-90.8067585815729,128.4570610490449,0.003109463453812712,80.01067421162698,-4.520264320341402,1.5715233859311288,0.0006079697180276027,-1.4740842406864703,-7.30112976258388,-0.00040629734133658954,-2.6965485286306228,-0.42754063221689137,-15.17866785919606,-23.723647119004468,5.164388532172561,-14.2988061532832,-2.2747576485672774,-5.367531312932232,12.061839350216575
-7.178505030865798,0.0,0.0,18.342164277325715,0.0,0.0,0.8186579165427121,-6.777727005110786,1.3393142679548058,-10.390838807074603,6.222791915709007,-2.4199966805148945,-24.696357708531423,5.503167047852846,0.00011113306475939667,-49.7048846875306,1.9100529380443123,-0.0002524188994984649,36.38221286433285,-4.801429932553557,-2.7567917869838543,17.011013804751112,-12.344393312624575,-12.068237568913803,35.98388238924612,6.339079058571559,-29.029121660328688,32.79745060226507,-16.000539071610127,7.6609696229510265,124.5745059834827,0.0023414845713433203,-91.75633988656202,129.33360151907837,-0.0027485436338464137,81.15604345041582,-3.99619127253552,2.8842316429923804,-0.0007475513190868552,-0.27253119678814086,-6.347623334301771,0.0035632422711944717,-2.8022554663743846,-0.6430552214654316,-13.93867178290027,-23.932377075778422,4.517341334965414,-13.21547563320097,-1.878016495911732,-4.96729519978248,11.46297608010475
-6.947922218397607,0.0,0.0,17.880655199321307,0.0,0.0,0.5988071784890089,-6.974668424359391,1.2636321006367752,-10.503676477423966,7.174840857391396,-2.9354782428976782,-24.379305970740123,5.469579272588654,-3.081726737472536e-05,-49.1017738910528,1.7364433565836117,0.0003743607724715503,36.23133673822585,-4.0752118357615235,-2.4470289478954768,17.06364039515212,-11.600461992511903,-11.18222130644898,35.66761102979125,6.456997509052567,-28.08793395102817,32.21696994956251,-15.049457271691532,8.70382853706687,124.67432319364846,-0.0024125221103807903,-94.4459318847787,129.8717637502956,0.0018813991496572466,81.8794540435764,-4.830170189642845,2.9847129269775374,-0.0010376775931687466,-0.965887616419949,-7.179396390745911,0.0032183378366099796,-3.017656767372872,-0.5411368853573629,-13.2685219529601,-24.206120480004397,4.370499756962154,-12.551757222853091,-1.523445342473195,-4.477618640340308,10.895487356663104
-5.841548030772835,0.0,0.0,17.47532995770815,0.0,0.0,0.3819724518626135,-6.31016198519617,1.8927189289722608,-10.47602160744537,7.588814301390889,-2.884004810416289,-24.01392603485418,5.284767594984448,-0.0002198735154083161,-48.33514268946633,1.4523655959345512,-0.00028126065979207896,35.669485754859785,-3.4059433657171208,-2.034264798700274,16.728151783629734,-11.163302232275779,-10.52519073850254,35.5357985155788,6.724667338899791,-26.29543961016572,31.670711767310234,-14.141625672471848,10.007682093919504,125.15632983125465,0.0008536763364750327,-92.34818081543708,129.95003338669764,-0.0005938093097632125,79.73201608153195,-4.240524153018367,3.456668361974003,0.020265152695212126,-0.5672046614401691,-7.300473831629226,0.00074642484431426,-2.9886503649031617,-0.37249325605112715,-11.873896318148596,-24.288091154556984,4.022336780559236,-11.187187786503282,-1.4114862158671728,-4.053547576084105,10.544608030976883
-5.608659542551378,0.0,0.0,17.613789984960544,0.0,0.0,0.2628184899461184,-6.104334506639501,2.4802431582590043,-10.580179639586273,6.809455252290498,-2.7121826864203795,-23.541222145333798,5.27070618365145,0.00015803778949508688,-47.545762048126925,0.9281540915393596,-0.00034820833279093145,34.90441103459311,-2.8272584773804637,-1.600317223777579,16.250729660098994,-10.74410891371893,-10.287292507715607,35.178485123423734,7.0846609413079,-23.564391805975227,30.769609175561342,-13.470529394020739,10.873832174891989,126.31526917698167,-0.0023936409663362183,-93.40786982559077,129.79267027380965,-0.0020208925579373767,79.66928687567984,-0.1772515298810235,0.3833808701780893,-0.08618159365376722,-0.12426857809194923,-7.357487801847722,0.003010875034247108,-3.838459158455235,-0.4817302824016019,-10.853604403777144,-25.205769023088124,3.549420936912608,-10.274583246334052,-1.1782915602512118,-3.735522467431643,10.076650934274706
-7.650265573510831,0.0,0.0,16.771782376876523,0.0,0.0,0.7104816425452095,-6.748376901399168,3.151777430468145,-10.389479509530469,6.897523134636206,-3.032277769466477,-22.966642848307668,5.3310480748267475,-9.552059064351174e-06,-46.5628834298013,0.8049381016920024,0.0008251173248843587,34.06543328497754,-2.3742212059186873,-1.0136770685870835,15.731400650043435,-10.455755678910577,-9.248004062819025,34.58519379765774,7.594035614539784,-20.459303815023766,30.39744222965043,-12.340365977475084,11.973237546652916,127.99082814737591,-0.003030223416666774,-91.67228205130343,129.3193142415397,0.004802579582196974,81.9914628939357,5.4987301858376645,-3.467389968746274,0.017240370613491835,-1.2651026618843384,-6.387656757912714,0.0007204843703693046,-4.039321246484775,-0.1669430541195284,-10.224108767207639,-25.454060549133867,3.6129247994206706,-9.572273856463832,-0.7564127884437905,-3.67876598246687,9.604155369737787
-7.114995339167139,0.0,0.0,14.92687127976186,0.0,0.0,0.5921187392630127,-7.380245677144958,3.7161029131782084,-9.540337326067965,7.025858695382889,-3.7728267032622194,-22.505139922798744,5.146007654033795,0.00014759438899116333,-45.95435494493686,0.8107560049663418,-2.508883957414312e-05,33.529007706229784,-1.7846174240304724,-0.43700393709323754,15.4971534568525,-10.206888788989382,-8.243129574362936,34.9152196433253,7.985470122250587,-18.414255894668823,30.84979319489721,-12.092008476579965,12.534619132949027,128.52432166189905,0.0029053500811544552,-90.0655773811959,128.34238190947056,0.0012488812569182491,86.22143948566278,4.489880308859689,-2.8224982603765656,0.0027496664045754495,-3.458042653417254,-4.4020941471964,0.001389282258499533,-4.241617924449314,0.06204527445742224,-10.143076401440167,-25.66673510825928,3.7965021508053907,-9.412882192616825,-0.4871663270418822,-3.734348113556755,9.622255859419255
-6.88743241124735,0.0,0.0,14.5078979066197,0.0,0.0,0.6358883435045704,-6.629884686410805,4.272008596802326,-9.649228423469033,6.503349005427114,-3.6123795602352358,-22.220233215282803,4.761153795212623,-0.00012056275122295053,-45.36862360738457,0.380367565502123,-3.444993218149892e-05,32.99077156892256,-1.08229081313388,0.1350864145463913,15.26741032923657,-9.921223863345034,-8.020497902013282,35.04817180047819,8.133582961200686,-17.954869104822816,31.05172268370732,-11.668816281369955,13.388074020465272,128.28496381716081,0.0033251363474565082,-90.56090513975802,127.96175102581938,-0.002501400199320248,88.0847870919405,2.6767959046002625,-2.9052095942614216,0.0009347789182798108,-3.0093458636236154,-1.8475996060356332,0.0031089508384863486,-4.265324176303515,0.34342596193095815,-9.448910645839621,-25.737745100207054,3.8045615826607033,-8.662249155837069,-0.19381248470068388,-3.5361996670404725,9.497387100089231
-8.962153635221238,0.0,0.0,15.93789774032094,0.0,0.0,0.9771303135920543,-6.720447955814034,5.230085450023848,-10.416446962975487,6.981819046336992,-3.5127499079492406,-21.69949279824477,4.235671881427119,-0.00017094240508461124,-44.547149327626464,0.2714699363957063,0.0003476026052322279,32.43688835046817,-0.3154425124445267,-0.0019490986021269883,15.021485250228235,-9.545538473187241,-7.525451863983796,34.021051857096964,8.472822633371017,-16.88068080878926,30.674979004334368,-11.307574329336441,14.37371127367987,129.31701135065083,-0.008042377650708315,-91.65181275118756,128.16135888207904,-0.003969916296261516,89.29669548347911,3.9848415525496814,-4.078390906952216,-0.0036916946566517175,-3.830298771839482,-2.602503765451249,0.0035819860889045665,-4.4403844667060115,0.5752742881735544,-8.593294914393322,-25.96376752516545,3.7067310428787685,-7.779321242351944,0.22894008795686188,-3.0592847111133223,9.038058293759642
-8.552719193785267,0.0,0.0,14.611120662070942,0.0,0.0,0.9801589338149043,-6.897703298612047,5.501527977085454,-10.380211744839217,7.156492629737611,-3.1487309267016563,-21.23999679788783,3.989320291389477,0.00028523848102591186,-43.973270787659736,0.10261671872216527,-3.9257352535999925e-05,32.15729436013614,0.449884032649431,0.12085306917303043,14.958457872085345,-9.134394174692204,-7.401822424896128,33.549102058831394,9.238969277781528,-15.177784154774944,30.448698449273078,-11.274844960185067,14.415638546244832,129.62119849084863,0.003824163533430532,-87.7382324290003,129.41276202091572,0.009547701189779833,85.95896112633962,3.0074995836332037,-2.635893374741633,-0.014603075743420322,-3.1483728890920855,-3.111602097876912,-0.0028943345817932834,-5.0721340109512605,-0.012540518053557579,-7.834663776762768,-26.619995561919403,2.881481727575535,-7.288627128340436,0.7830720723201988,-2.5587487823614667,8.763560457671163
-6.363835495553242,0.0,0.0,10.433898806652351,0.0,0.0,0.26260269737302944,-7.0951754838393,5.640045260901087,-9.774425577376984,8.442211322463137,-2.686798624243575,-20.3526353026614,4.006060564740402,5.31505102123137e-05,-43.138344588390716,-0.3335518203256779,-0.0006129576680770328,31.45304895278246,0.831142720304897,0.33720155867708634,14.445007124019977,-9.028182113972548,-7.824774664196067,34.08083878987442,9.365973770012529,-14.4934910353632,29.69369845416307,-11.469323788219315,14.809069071837886,127.8226875474615,-0.001958857989813937,-85.27555647803189,132.21440163015671,-0.000799828296322572,83.18919931078158,3.628775476768432,-0.27910154435611984,0.006605746000184765,-4.109724579873928,-4.334713076115477,0.005582514005926275,-5.240136597449597,0.15475932280667937,-7.8964965759066095,-26.788283224582308,3.059792058325215,-7.284678464319884,1.0387026423311123,-2.118758570748477,8.603809604576655
-5.701915130311309,0.0,0.0,7.997986197429412,0.0,0.0,-0.3333843999037167,-7.557761163716606,5.527636512245297,-8.895179834513772,8.632337903067455,-2.8628549018388822,-19.45300480450945,3.8003808852432273,4.543560196789161e-05,-42.42077908915371,-0.42340277932089804,0.000978167965239233,30.641370088768,1.4184792262290125,0.5401169526531729,13.902996324917197,-8.807884562757131,-7.693032508410042,34.12944573287789,9.02822142054035,-14.377235790285146,29.185652961791583,-11.596489216770083,14.760895342596596,126.18102980117176,0.009951584647650486,-82.9976589399179,134.47474577853728,-0.004193020744493893,83.20239155726465,5.362083584309437,1.3209364357673241,0.0003088203028430769,-5.339657557575476,-4.993951959834076,-0.005985688325274058,-5.387738607328105,0.04314639512281655,-7.554411185848998,-26.94955609661914,2.830300925846057,-7.007159993016343,1.4849651621497193,-1.6213849306854036,8.537524585703217
-5.9511251525303175,0.0,0.0,6.984469094501967,0.0,0.0,-0.7169261503508723,-7.84150504354937,6.075054416767996,-7.712459511707431,7.775828513951605,-3.1149542638062537,-18.486525642654307,3.3471035496453383,-0.0005876819319360031,-41.69210894573667,-0.2547000108208687,0.00012511871547521888,29.958087599530536,2.0049717195458774,0.521246163013682,13.62757847491233,-8.696788545513291,-7.133641545166749,33.770426979607656,9.186709267539419,-15.933068217922548,29.200560920959834,-10.86510683809471,15.070357110824004,124.12653475315972,-0.0162575910393538,-83.77775481751841,135.94733961573849,-0.0008119352011450316,83.3191310050289,5.706405459339831,0.6845541277161559,-0.026941040239330614,-3.8511680007433373,-2.081402526552128,0.012714058076877546,-5.4820175486007425,-0.2347252605027052,-6.5867138254786015,-27.080603084729418,2.215984183305847,-6.20872123352134,2.225940568158722,-1.3543914686039746,8.224449098920832
-4.395835883688604,0.0,0.0,3.556371664523939,0.0,0.0,-1.4733104201972056,-7.524695753560983,6.182409782398226,-5.840484458054356,7.968330473205738,-2.47276910638951,-17.481068804833637,3.0926089777676053,0.00047094624867207,-40.50207712913418,-0.7606955155256543,-0.001429261958840911,28.701385270282223,2.312459940559192,1.1743817400811951,12.463573090980143,-8.786727810485662,-7.776555943408142,33.43551671621636,9.198106452325598,-17.752709217677026,29.481317062829103,-11.20726126032854,14.341040676866028,121.44021951499754,0.007597600606160396,-86.00717445364145,137.50041927715574,0.006202921362679871,80.47044129275878,-1.7459228418969976,5.385659975854693,-0.08502652586470094,-1.4933407047000744,0.0055895939733304895,-0.010641561188352045,-5.039001646054882,-0.13836422492616923,-6.121605624280876,-26.65685830876625,2.1342946027125116,-5.74047992975021,1.8808289388731665,-1.2052724228327871,7.924690122039943
-4.667838554498774,0.0,0.0,3.2997023270369685,0.0,0.0,-1.4045846612213633,-7.022618826622405,6.247449318911811,-4.3860860619827005,8.805698871354288,-2.4244368903717914,-16.881954096439046,2.9132226064996525,-0.00011365046526396648,-39.09239645711728,-0.9332359274205411,0.0012643139984133398,27.802268530765467,2.665752451404468,1.8970663977525763,11.195809810972307,-8.702644108260017,-7.962608779974106,33.02906378466377,9.187673302323061,-17.278657310892747,29.616550477178574,-11.237986034640247,13.792687916221867,119.9665609381499,0.0010002016734621635,-88.19305883567829,137.88547347940926,-0.0016403533896509684,79.10451352099591,-5.3817285006353055,7.499958562331077,0.02699969908698869,-2.2379942207230625,0.47520577440379735,-0.005031632615859993,-4.770154368447095,-0.10931862476781491,-6.032267001401708,-26.391690189272786,2.12838263628449,-5.646659185242222,1.7257867124984478,-1.0772503109532945,7.496226118677736
-4.007972900404505,0.0,0.0,2.6872540474084525,0.0,0.0,-1.6803395700745853,-6.821182591188197,6.241519881495828,-1.4416104973303712,7.583279651790898,-2.62541773387518,-16.48031883341869,2.6133419221776393,5.259127442036126e-05,-37.84262033338577,-0.9240070282495132,-0.0005641433375768461,27.784751566354586,2.8744855261520916,2.3957368251030853,10.62315658013146,-8.5993707938749,-7.72566666264002,32.29412679974516,9.0972677948476,-17.1616299085736,29.853055767119773,-11.083272388471833,14.048801386452658,119.00854839925128,0.0010213445300907634,-89.07618005303313,137.16980520104724,-0.0008177064110260375,80.33576153398813,-8.443861284273403,6.2054333765608805,0.032428535443814153,-3.285576592241247,1.0109519119337018,0.0021653438214744108,-4.57647818552508,0.43750426196220943,-6.228133164441696,-26.199408304291843,2.7088976853524573,-5.62723276488493,2.4772534846143555,-1.3224605965655125,7.281414781845562
-5.030677203638002,0.0,0.0,3.2716449923820132,0.0,0.0,-1.7444228742395658,-6.541757671198979,6.430358195284715,1.6070075035250613,7.9320732892281764,-2.1937837171891688,-16.18449331463584,2.354035760458094,0.00011702474776894069,-36.37309045467276,-1.3755390831512226,-0.00031798633186018644,27.513686135685006,3.0458994575170073,2.551853369666001,9.61046605818408,-8.270207925664062,-7.724421289504514,31.79858776714008,8.869102005214067,-16.869577588299727,30.059677827052546,-10.631190494551815,13.858491195475366,118.01479429540589,0.0010656426206048545,-91.90732584324658,136.39755270973325,0.0052886790050490195,81.74966579700744,-6.304739304021718,2.5444732839531046,-0.07698959415278475,-1.7079718603451362,1.378566468414241,-0.002430547086581946,-4.415736307105665,0.6200479385156669,-5.792589664917855,-26.057024976291164,2.718035998338638,-5.154560945122566,2.8639274226854092,-1.4694332220227104,6.857160262550713
-6.032413771582794,0.0,0.0,3.8521321768355823,0.0,0.0,-1.849517842806926,-6.451580497264358,6.944093949016238,3.3478379505255567,9.35321354532425,-2.442281611889579,-15.403709223722501,2.075397754311706,-0.0003709101973179656,-35.06255186766181,-1.8092155445985618,-1.2716546137374575e-05,27.02693377957008,2.9879887008604076,2.5423168172424573,8.808584793118214,-8.25864146855139,-7.49800673844955,31.196834834144692,8.540906905518733,-16.985842304649893,29.42536267875979,-10.046206022856442,13.261062320351632,117.05496286733089,-0.008693354874383526,-99.59314170903134,135.46489017865446,-0.009212360419042855,80.90801373879953,-1.669474869091721,-0.7698055796351508,0.017294428880742393,-0.39931923687608406,1.553525872588178,-0.0005337605062395078,-4.4871684577613085,0.560560763365793,-5.008161638564394,-26.15180673116527,2.373316193012164,-4.44677856625602,3.331834833828247,-1.9447343887881514,6.826023516552779
-5.270727072843462,0.0,0.0,3.4783242880786993,0.0,0.0,-2.410221198115449,-6.477261921341468,7.714187285718415,4.948003646497719,9.218178848888881,-3.098889164586225,-14.765541333308011,1.943316700813453,0.0001543250293074866,-33.50101081977482,-1.884947956980297,0.00042435608685195713,26.969506056670394,2.70250701946823,2.408576244012151,8.258457765990682,-8.380446100269598,-7.138220720418425,30.813154687753965,8.24006502043544,-16.830815719532122,28.121908200980283,-10.30521745399682,13.998402366662042,116.51270320444435,-0.000379833569463089,-104.7620041067939,134.60030819144794,7.388015855435121e-05,78.51564714059238,-1.913266312964105,-1.6480208925912432,0.0004508117715621436,-0.810461942841387,2.14328812668349,0.0020262523175759765,-4.440592003309631,0.8724415181593368,-4.298745525091733,-26.128653422517758,2.401116045024229,-3.6717038968149214,3.9235083663388033,-2.4537054304058072,6.777983407304623
-4.53463613877295,0.0,0.0,2.6860117724998576,0.0,0.0,-2.7281653634135736,-7.0955403776482955,7.813213941241164,6.549292796776773,8.939292201642903,-4.399317711349486,-14.759045059555943,2.157570341014406,4.097637544166428e-05,-31.706614678792022,-1.873189853187669,0.000892144063565592,27.0433227977195,2.5780997247774224,3.015996135663651,7.454282075763351,-8.208477413629414,-6.600407156667362,30.72124728835212,7.835351262656733,-15.813455522476422,27.539039867003957,-9.755208345383702,14.377734932046206,117.09998436752547,-0.007953595660923513,-100.62288846096112,134.24695437856656,0.0025945594314460124,83.26510197172796,1.3369380863034808,-2.2725327599776817,-0.006353375779436907,-0.05102431037576145,2.436028194306871,-0.00019729798656464693,-3.842558452691184,1.0825881643376785,-3.621151384110501,-25.548365894564874,2.345914028353259,-2.963914884983359,4.143984427706711,-2.8707688224176624,6.858391993842613
-4.667781554968223,0.0,0.0,2.657074776231157,0.0,0.0,-2.451661170965338,-8.417479281128614,8.426334943411428,8.317564038539214,9.369999570187554,-5.423140564511169,-15.218585353117987,2.2476252566734183,-0.00013259793138376333,-29.79156811572693,-2.3370593805615623,-0.0012204961450927088,27.088999177496373,2.8556196960776172,3.150771584115851,6.384258807384884,-7.7256588662994945,-6.853372381063051,30.7805754236049,7.153698174510628,-15.268687434844953,26.996171046552636,-9.691880955444388,14.749944230454918,117.53929559472171,0.009760904513673596,-100.91445214066918,134.33486357585204,0.0032950978236530814,84.70078100358316,5.127583626254192,-1.4851556649045194,0.029385800493097223,-0.6205417692292625,1.8447909528127369,-0.00187864625217082,-3.3815932591416478,1.227728079936792,-3.3381418202404163,-25.09474886075823,2.3760933146864005,-2.647069539063788,4.314285618050685,-3.033358933056049,7.322352664505733
-3.908452317227506,0.0,0.0,1.524795031545109,0.0,0.0,-2.776312162814913,-7.5040025481436095,8.395874396689507,10.269282333070073,9.84902161660701,-6.178077371035424,-15.743610241072794,2.3144675823005225,-3.9231290231858983e-05,-27.846941023762284,-3.236052454904863,-0.0010413097886343993,27.211355186029103,2.9441872536162728,3.5353519115626324,5.208468877909863,-7.3684284271372285,-7.954258421966587,30.528577291364293,6.99687364870675,-15.608537709100947,26.283671711611156,-10.23276927288593,15.279499843573902,118.57445293172287,-0.010999791319243382,-97.28109685090533,134.7480362590684,0.0002405216005126774,83.10299375720085,3.691129771243253,0.46338115813606023,-0.016199989101944753,-1.0390679588968303,0.9732262668712148,-0.0026697696850188626,-2.9277631130842976,1.0474740609460804,-3.0739814391365496,-24.64267693300966,2.110918647616837,-2.4682596419114105,4.263684031313315,-3.368061495128094,7.8567520618164615
-4.42699789557952,0.0,0.0,1.0650663160288536,0.0,0.0,-2.380150397752403,-7.351107518549895,9.316073952322709,11.883271652187469,8.928048586609837,-8.05830185407316,-16.09809966804142,2.0489697978910453,0.00011401614171478466,-25.543217364297515,-3.273509275771945,0.0023999470599148395,27.33072394466707,3.388371313566048,3.0815937149511456,3.9169405264770902,-6.731878732528807,-8.677880244746097,29.994100865986695,6.677573602811299,-16.276604300236368,25.54017867811751,-9.869615501776988,16.68090479623297,119.65069074708299,0.0014935962632582605,-91.53973705560082,134.5496397167625,0.00016195112886334986,84.07749189316675,0.0005222980285315981,2.331213890826393,-0.0003393717341924835,-0.3207735169178771,-1.4395092538709982,0.0009543404048864073,-2.859084902926105,0.6757012998848211,-1.8944543766580635,-24.585025375963056,1.3290580531896563,-1.5097482166658853,4.298266230046904,-3.4923202722181004,7.831983332493324
-5.438996611689932,0.0,0.0,0.39279577114056663,0.0,0.0,-1.9484066003788512,-7.2716305005651085,10.022504706220985,13.295726521207408,8.074563347321027,-9.144134527424429,-16.313189968466077,1.8943365728845936,-7.918330996853488e-05,-23.029194322191334,-3.2282737026178414,-0.0012977400014068208,27.16797813902002,3.829926297439243,3.2196345338733283,2.494194473184038,-6.32262982615184,-9.6530846285302,29.74596344092195,6.3541261336817945,-15.59309602348184,25.211284838887735,-9.23589843143809,18.298062983532343,120.64988072104339,0.00935267622433626,-90.74790066959632,134.48884613027414,0.0003140088320663002,82.87667398188407,3.95947154208526,1.7444958029409046,-0.009041699464461525,0.7328227838266326,-2.186995083682799,-0.0001342147261637374,-2.51718284380545,0.9427225831049416,-1.1273583956437967,-24.25086746998886,1.2931347370641177,-0.6981680345973862,4.327695801134939,-3.858748480095634,7.801173360239316
-5.304134167937866,0.0,0.0,-0.024681161038055077,0.0,0.0,-2.163222704571676,-7.519420357906131,10.537000303399926,14.364799428580138,8.175785519301142,-9.594718591790253,-16.308561000326783,1.9322636374859365,1.987337402958873e-06,-20.676973743933406,-3.545819513164621,-0.0004366848924455285,27.088604053543545,4.4456609084471665,3.912776090757707,1.531071230763802,-5.856121125057323,-10.137166268819193,29.096628485311506,6.090044174074771,-15.982435271382084,24.922456750610646,-9.079287669090803,18.70061076906892,121.77770554543977,0.002699244535941351,-94.44050291778753,134.74306578253703,-0.0010383598605242551,84.04532004776844,3.424216839196609,2.089798142191274,-0.016648584688248598,1.3442154342913468,-3.697031487824992,-0.0022340148727262674,-2.131316989930415,0.9680591543240019,-0.5812244245901553,-23.86674069896685,1.1144545083864492,-0.18143791581135008,4.444573302903525,-4.041221713389424,8.658636011703223
-4.954513411756617,0.0,0.0,-0.07808461419508454,0.0,0.0,-2.4012953300233426,-7.399206423189156,10.744619013633782,14.980524506308965,8.114605238665764,-10.25057781097015,-16.17586103434479,1.8926330539753053,-6.17159167797875e-05,-18.41599136138134,-3.301612550945576,0.0010807539048761402,26.987692543167185,5.42710173297306,4.035954959571021,0.4348079966596994,-4.944788308361025,-10.284941366686914,28.68274367599363,6.026243321845867,-15.893898096429,24.119481430161333,-8.752469283645942,19.333231952160975,121.94113993343042,-0.0044288417157424325,-93.10580870605402,134.9449938533079,0.0001372889682355211,85.60239188706815,1.3679028479483875,5.507297607456247,0.01318290094873089,0.578732542644696,-3.756586189596339,-0.003082336932632857,-2.255382383187608,0.5854091633966981,0.11125078184195333,-23.988500533380922,0.5026093176470859,0.32010534501898,4.379914073818079,-3.422962917189266,8.877384869984523
-4.53671778748454,0.0,0.0,-0.38871461932844786,0.0,0.0,-3.0784859855451905,-6.917203802570725,10.756313837801576,15.131289239200616,7.84848815866637,-9.173766281435675,-16.1169594541772,1.6742683855222196,0.00010986135427700608,-16.704772924208104,-2.972897375165372,-0.0007109752409632527,27.122645091390492,6.201744329296045,4.032293364540299,-0.19307252452094487,-4.6044106639006035,-11.439204355130423,28.30025169202263,6.066377127083514,-16.64752508710466,23.571356535793498,-9.119811277051918,19.44404234372585,122.82577785898525,0.006964878910241614,-92.049778261104,135.44715093751626,0.0011741868085418726,84.59018880190614,0.46733948655167723,7.21762372756916,-0.0007885150120606167,2.0045173587095424,-2.9289088322469965,0.0008207538029427934,-2.252809689731533,0.5311205669301233,0.6928280682585559,-23.983617855905177,0.23684672729731374,0.8402370127296549,4.530542006985097,-2.933206798085634,8.84228611491589
-5.500572347785575,0.0,0.0,-0.5247398907320426,0.0,0.0,-2.894033855989425,-7.406460604564693,12.084712313657436,15.648342490085707,8.32961912802453,-8.207876155489886,-16.06506875700672,1.3058060261625641,-1.5777351033446704e-05,-15.009786078658141,-2.4183019886394495,0.0007205064810353411,27.436052976503515,6.979845901233247,3.494932961413032,-0.4315653258961192,-4.660682879586613,-11.607984052095473,27.853962925845376,6.262984940726845,-16.415486650732078,23.643779174338537,-9.064285906967777,19.776323725777385,124.21082471616987,-0.0009230950293450907,-94.60406579419377,135.5412306714709,-0.00037779647248620214,84.15235928450306,1.2227056214782555,4.436100013845725,-0.02961801188306927,2.124249820613318,-1.9671131190164117,-0.0020793384849002537,-1.9292681697808307,0.7255490748728788,1.6866764696565806,-23.651665066745828,0.049573086820652784,1.8353989992987014,4.767643524450395,-2.7979925843654656,9.316094332801807
-6.4105809362397,0.0,0.0,-0.4671459898917831,0.0,0.0,-2.877246326896895,-7.630591532952519,12.724772022051965,15.838355450379616,7.9618110316311945,-7.913057763440786,-15.78344227792361,1.0965147724036488,9.144945183801568e-05,-13.389225920186425,-1.6928114311965459,-4.5364264434853864e-05,27.271765326366182,7.832569115732637,2.9855717577280623,-1.3209787598420937,-4.201676144233299,-11.318911259138702,27.79664102004025,6.255127035438248,-16.177061636975637,23.18689627989049,-8.996530302816355,20.198522195948655,124.26273403953608,-0.0012243922561313513,-94.31916633076726,136.1599889248681,-0.002263107835197519,85.51234697624247,1.382730892636482,3.6109087882509328,0.00046290171702513603,1.7356049474169224,-0.1875760384516514,0.00268388640327374,-1.875999976633141,0.9085368025830045,2.3891304509497187,-23.588436472877092,-0.040332260260617536,2.5556393211305,4.26275339078458,-2.32668955902172,9.164698284031417
-5.412173811142224,0.0,0.0,-0.7303444099104002,0.0,0.0,-4.112298717872493,-7.44878997352182,11.996907719487654,15.71194672705534,7.653119818639197,-7.804650864348178,-15.654548423331121,1.0494070898815508,-1.1860978526146472e-05,-12.152818178486795,-1.0222336195961206,-7.29964722518576e-05,27.74462520344916,8.615032070531619,3.625960784561021,-1.618752637204676,-3.6528832761624916,-10.984760718358828,27.81771473214623,6.779638678283646,-15.710969657678998,22.53387553845081,-9.516091588885697,20.163019499610623,124.2683919927064,-0.0011964988414943647,-90.53130836562993,136.2200009573337,0.005827901653476766,87.48265336567097,1.9048656335995708,5.1852008127925915,0.0023138911898568054,0.9197500551239166,0.7948111376530697,0.006694522263710651,-1.9453055682560962,0.4242151526474447,2.542113346965777,-23.656155313617646,-0.5468870370797108,2.518591197594738,4.19509260005961,-1.7108266956011577,8.826011547770921
-8.595664448197885,0.0,0.0,-1.5805824385121472,0.0,0.0,-3.8391185663050615,-7.717061281154328,12.42627347042782,15.98564413787642,7.521361699020351,-6.81925867396871,-15.549118418120457,0.8373855196670681,-8.820810047323221e-05,-11.254365550075642,-0.3121336714413776,-4.3635419262817624e-05,28.331361866776902,9.349246981334641,3.2474805830333766,-1.613928575044328,-3.342871860262699,-10.981395614679954,26.922129273439946,7.433941067585328,-15.265287344728586,22.436618673632204,-9.563467586901378,19.919698456522795,124.91008672729714,-0.0017757852572628972,-87.33198812957083,135.76434228834714,-4.2212632475906604e-05,85.80474627473535,1.0925639358146193,4.099516079307021,-0.00216365961149142,2.01720201238971,1.0832351752678222,0.010008787952872633,-2.1176906416401664,0.2201170490390022,2.300990064398601,-23.83303072182214,-0.6472961359560437,2.219058753653239,4.375777428781389,-1.1691884462772677,8.745519371239263
-8.999724373009126,0.0,0.0,-2.8095177796165824,0.0,0.0,-4.247141673419189,-7.732798066834504,11.962301368660814,16.175788713553988,7.920760734862344,-5.530306106059818,-15.511111555926949,0.884684216892526,-1.754440681524996e-05,-10.301427723848331,0.018996514534771025,-0.00010755047288295431,28.766578231715034,10.226073908628182,3.346363316055185,-1.8269754603645145,-2.6976308545484313,-11.820317545747125,26.048790204134733,7.592443595798897,-15.293759966706402,22.60585072919525,-9.508280919042221,20.267073173704766,124.63680477540235,0.004376265106929729,-83.24458464404618,135.50069255335163,0.0027357322500079846,84.83499432091465,-1.39597228364273,6.3721027149329705,-0.05248550859881462,2.959325247469102,1.0101937569003347,-8.865095758430008e-06,-2.0458438145937956,0.27001637239926574,2.866957277649279,-23.751826516107506,-0.8103034589334094,2.7633760721529548,4.329732729090291,-0.4607483991786155,8.457048916236275
-8.664789575316366,0.0,0.0,-2.393325917515572,0.0,0.0,-5.286191052132256,-7.838772045996009,11.427019330628784,16.03614094042114,7.987543064263535,-4.810203252459793,-15.291987009314544,0.8682315285022865,0.00024121005284110503,-9.341276857213735,0.18727334471898466,-2.7347284228759836e-05,29.02971278104809,11.147271258107791,3.876828781034035,-2.1966314864909777,-1.8310538290013125,-12.579226978451883,25.340804259327463,8.336591664981617,-15.174991132690149,22.335820942149773,-9.398437813306728,20.51498232178616,124.78881046720329,0.0013423564467703617,-83.68317607053496,136.07348503328063,0.002667038054376359,83.58411371511099,-6.588469579148659,9.421106399530695,0.010886011568866455,1.5640446168300082,1.4552166967735711,0.000989534710305528,-1.5015328156871741,0.37257038003373144,3.2844063454781214,-23.198930786130436,-0.86937143556161,3.1891972969899824,4.0414589809900665,0.18995354763968908,8.113089927429257
-9.496650122040407,0.0,0.0,-3.1660028166449536,0.0,0.0,-6.239084809780466,-8.63214690702937,11.338671950486052,16.01430253219825,7.716530259665661,-4.347305478327214,-14.74128777195586,0.8331250690150769,-0.00015493833630298752,-8.77053112732324,0.08350076146386108,-1.5743202472806738e-05,29.176236001388975,11.989687022496927,4.0095439997645705,-2.173048737273355,-0.972444202181369,-12.916109902668888,24.325741868417115,9.088279653174771,-14.663168010593786,22.73251017594523,-9.71937214543302,20.83532679173501,124.6709608572408,0.003962127674125509,-82.45844418883459,136.21837995518246,0.0021224894389248327,85.27815072407866,-5.652240674326077,9.5100068983356,0.007811221022770985,-0.14814184782079104,0.6987210665767684,0.0024173120963556496,-1.3438726362608115,0.5895940022037836,3.2368607846855966,-23.041196152562765,-0.6501478664764881,3.225255233573091,3.795530885364299,0.7937576048077992,7.790983108619837
-8.535200648392651,0.0,0.0,-2.6679047857692293,0.0,0.0,-7.200272943233678,-9.084833224826232,11.136726390026247,15.752594165937317,7.080614441893195,-4.10875690074977,-14.362424672574479,0.6614542776292547,4.812630121145565e-05,-8.714981446186052,0.0690558707547886,3.895691158268128e-05,29.22675891833009,12.877377514968542,4.0151381486303475,-1.9827484638280608,-0.17534887754920414,-13.04327817502989,23.02497361434105,9.385477700428257,-13.540766554700578,22.746779019926652,-9.702858221248245,20.733263122314014,125.19878401721593,-0.009916059436562007,-78.58108971963448,136.0267691341893,0.0004749064237107488,85.18367385431061,-0.16328050737756264,6.597350179324411,-0.03297057460971016,0.177708996091446,1.3028961109909891,0.002911481772298256,-0.9048877032399009,0.6824937062469939,3.543139064555395,-22.595111919609487,-0.6770382989078295,3.544187096332177,3.376259053344834,1.3125760793413281,7.70010874028897
-9.779808905882636,0.0,0.0,-4.057302764848589,0.0,0.0,-7.6687508042058905,-9.73526869303607,11.288957229503229,15.52540216881635,7.675824549856436,-3.6019287546782985,-14.303059469934581,0.7636417758084386,-8.55083797484369e-06,-8.893291243337874,-0.15155510270468975,0.00012802322264872943,29.467077258875385,13.460103590282417,3.987944896964818,-1.6546552567192914,0.4620842632225103,-12.98667180364638,22.45139560105625,9.20651756120967,-11.934058509160762,21.652585810280456,-10.046820003033517,19.31616861994767,126.332007333152,0.00357066988407677,-79.09317056147536,136.01738963546808,0.00013673563278620508,84.74413262274169,3.001081417748142,3.532329267753589,0.014884820053885923,0.7764960825411014,1.3942292109704673,-0.0005749324477873516,-0.6636773653177518,0.5534685290739768,3.35526396282941,-22.358659272016993,-0.7274928101556244,3.3219146622655877,3.0481398036781493,1.816167888073826,8.021016388237843
-10.008137775678529,0.0,0.0,-4.788538490961762,0.0,0.0,-8.181146960490407,-10.227164492072008,11.714324051152715,15.82563837752714,7.541912476135942,-3.4453216247910774,-14.66510915331758,0.7093134440618041,0.00010606692653137777,-9.020276340290264,-0.22471608677396826,6.557993627275747e-05,30.263063862757715,13.58136722886298,4.091241320091727,-0.979031194962569,0.6331336467435899,-13.022434681790582,21.670502746001553,8.888109788803934,-11.008992677626033,21.130953932880065,-10.62552145097855,18.41510059098599,126.71943722326023,-0.0012817672103614213,-80.96379335016617,136.18171830006375,5.9936413435429626e-05,85.80206272161237,4.924906539719257,3.4145274912785473,0.0009822202710752827,0.4295904046183806,0.548609009604445,-0.0004804286841037103,-0.44482226365894567,0.4835096617952733,2.7110287247043425,-22.152620812903454,-0.5542788140047302,2.6974635263819597,3.213871517066575,1.871702691224886,8.085216147547685
-9.215352723935542,0.0,0.0,-4.125050006273999,0.0,0.0,-8.45519185863293,-10.06735365751723,12.490257703426492,15.663801160054765,6.55021985627337,-3.6101609943528814,-15.20747175545627,0.38130993021337833,0.00010358140612654394,-9.003669237895446,-0.1589602098672599,0.0001310659245413592,30.635298850858668,13.611641542378228,3.844096938604097,-0.8121111235195222,0.7883694995428796,-12.816614930859238,21.13774754305746,9.047463219582015,-11.149034542335645,21.360034627406755,-10.830900191554187,18.56622056039347,126.51159155626141,-0.0002485086090450562,-80.60077223814649,135.89778037812584,0.0006678376738190526,87.10028165084718,4.701005952091733,4.514184449974713,-0.0048078564053930205,-0.27162196571584557,1.2167333543468788,-0.0003349279389885465,-0.5163397559415268,0.5680470886268658,2.4764931225870392,-22.227815150544192,-0.3889797193827596,2.5108273800373495,2.8929886253082326,1.8042077454366763,8.103764002459426
-9.990979708546512,0.0,0.0,-4.567296847326408,0.0,0.0,-8.337475270117396,-9.603849851920174,12.222121390984423,15.333458506422126,6.238942521206269,-3.8338378728713116,-15.755233876737929,0.3499303399426365,-0.00013134705545801633,-8.912451738503453,-0.12312436578759631,0.00010699177698670526,31.016042258633732,13.396519346435625,4.267159266270692,-0.5554121566667211,0.558978723458337,-12.359405148947443,20.50275391756882,9.103614472117126,-11.34596131463217,20.83958755071101,-10.607965229934292,18.108824078409217,127.01152789241162,0.0013369337179417583,-80.98686251713038,135.32677556916713,0.0011147432957004223,89.22513915296071,3.9023991237063878,3.688239469669802,0.0008327180081450722,0.026977367781733236,0.6527241181604209,0.0002715479244502008,-0.5933618732166958,0.4523116244540455,2.211965550938881,-22.30918585729259,-0.39863657897363847,2.222256185966995,2.817410857127547,1.5070487244530062,8.101573097879706
-9.05799415617512,0.0,0.0,-4.657404175377834,0.0,0.0,-8.363058864275365,-10.04832293630087,11.970179859734003,14.952796315671293,6.2866582517646235,-3.8534961079283128,-16.595877350887616,0.16911157202433735,0.00015634597995544135,-8.73916122257306,-0.05808746967066361,8.454923445330336e-06,31.413200734314746,13.547913754063805,4.2854684289257845,-0.42467446631714506,0.4977321801527852,-12.409211666309313,19.97839093355603,9.03268558315062,-11.102587482960363,20.330820309935476,-10.108625758264102,17.45812015612651,127.37579021440308,-0.0012898940756573818,-81.5259508155087,135.12599536160377,-0.0008889489682159334,90.19288464665864,3.671729023150641,2.6234436003417883,-0.0006474157835477631,0.5415632688813853,-0.09521243867413551,0.0029308568906578616,-0.6663679540408098,0.5098247273785119,2.101019306898069,-22.383626884878144,-0.3041534222073758,2.14047506522155,2.862372045699517,1.5210191095463321,8.000869944922352
-6.8536960522016015,0.0,0.0,-4.226422768981861,0.0,0.0,-8.263342776197822,-9.79972418567697,11.053609354696166,14.542712258992147,7.019967773783069,-4.485939811968278,-18.2777884287039,0.4249820892369094,-0.0012619062641019115,-8.383644552368542,0.11013110241269806,0.00010176952090922855,32.094496154561234,13.150809367533355,4.206396636487605,-0.5687842052303564,0.3484452109177812,-12.46038430012125,20.163783476710925,8.704168407031393,-11.225470894052302,20.9786399200057,-9.796358449244362,17.20696059924424,126.96339046346456,-0.0008305869318663541,-83.16795465216542,135.49057137048607,0.0011577845530576585,89.60336484004932,4.239411632736033,2.823862722561917,-0.0019272825099757817,1.2141197008522149,1.766609296340079,3.932791996050939e-05,-0.2643234457930583,0.836497183077718,2.008874014187215,-21.98257917018718,0.03342272092952309,2.175755397576583,2.4797203308392075,1.3595556579668702,7.781203302375988
-7.344346727993358,0.0,0.0,-4.5840786307058545,0.0,0.0,-7.404063489236876,-10.372429068088305,10.948601302517671,14.347703652442688,6.869513620282316,-4.804950308656309,-19.859204990423944,0.3625988698222019,0.0017912450599410505,-8.05214047613058,0.2710573814646377,5.061430805972727e-05,32.56748746445427,13.075815526714806,3.5480439795048886,-0.5818569256512963,0.20941697321478547,-12.160723181571315,20.157209929093003,8.754506187652071,-11.543534911972715,21.589106275369875,-9.863361374890612,16.871796959859772,126.73345942647086,0.00013389780471875928,-84.18249182515429,135.09656260401286,-0.0026766496902222805,87.57358252068408,1.41458531841488,3.5429100443648296,-0.0008513692951961684,0.8816360134748251,1.5854818658212928,0.0002739433248317516,-0.3747262783481388,1.2025011749068713,2.4067866836892606,-22.087033956787838,0.2262453459772288,2.680788158364132,2.4915930912001407,1.1098026335119495,8.009435683345306
-7.378284430626317,0.0,0.0,-4.5798711486880554,0.0,0.0,-6.241757866081406,-9.719295989989917,10.408066989758098,14.07040632539259,6.282797886014599,-4.637632565640473,-21.57389154639568,0.541247478647705,-0.0017093147673514872,-7.822641287840338,0.5042535836724863,-2.6573387516780344e-05,32.78430269580696,12.973840659798125,3.612600900694234,-0.7396226263131503,-0.08158570972588709,-12.288956668617418,20.048388516509057,8.68884085504695,-11.500397302866771,21.58259647941237,-10.077178579362814,16.779677115030875,126.72825499744484,0.0007425507486307087,-85.5991968179346,135.07738645865362,0.0016377638203229864,84.78042987156023,0.5492463154962018,3.571614254857455,-0.00035639409101970545,1.2356462158843335,1.1702970447647254,-0.00016732517527742047,-1.0243088453010387,0.9390366284754927,2.8196958080289853,-22.729054509909904,-0.17123174633954316,2.9668876837970504,2.493671854108069,1.0143035752313574,8.253973603191998
-6.61535792185054,0.0,0.0,-5.316827662201025,0.0,0.0,-5.123453027385895,-8.831678509974125,10.032461601940586,14.363728502530966,6.309578461945775,-4.333011441189177,-22.831424761123415,0.6190947048841969,0.0013081580263503716,-7.9190999901515955,0.3437677765519635,4.9328845425762735e-05,33.39757539640205,12.539457355079362,3.5014413173380783,-0.2621692655407444,-0.42817746032033716,-12.782467570300412,19.931934746497532,8.837832022555157,-11.265937878102351,21.424377789010467,-10.053960047757343,17.207828444020684,126.83522565110228,-0.0001018516361431725,-87.14809155795112,135.4519003603779,-0.0019474585882364487,86.0968933814117,0.18275078886881405,4.258581103736744,-0.0007049359398051984,1.235334675183425,1.8412072300901996,-0.002007435032434197,-0.7665493699525294,0.8474096351663146,2.6281019781138286,-22.474931476990015,-0.18551543156324524,2.7550221946197504,3.032332442146417,0.625936107106993,8.06056880907691
-3.7759578166587864,0.0,0.0,-3.3450420357955584,0.0,0.0,-4.836128350702992,-8.40507878136778,9.582445445153386,13.933965420275733,6.42983235574633,-3.401316441793885,-23.70231892747272,0.48266332979448023,-0.0005040012318901922,-8.178673489903359,-0.01972544300221131,4.42439882881149e-05,33.293314502012805,12.354926584238198,3.497867269723603,-0.0869502901472351,-0.7681125786805792,-13.789285943453638,20.18536115143964,8.988306742678304,-10.705553479889296,21.676659532711493,-9.873556044143951,17.249413976141184,127.1250327654653,-0.0007353522592020611,-87.17562446918014,135.54005427744144,-0.0008072231953714309,86.02571566105051,2.127552712859044,2.9428384157167544,-0.012728384960489973,2.469425705221929,2.765837691614868,0.0020198653883034823,-0.5449382738627376,0.7867674472644347,2.543943866282309,-22.254868362097977,-0.21073120196347786,2.6544046019901013,3.185810403146681,0.08930413825706013,8.179140991805163
-3.012787003021631,0.0,0.0,-2.463703687854905,0.0,0.0,-4.19890530067703,-8.491729760826162,9.26265971650502,13.750389148263292,6.89112885347484,-2.9558674448644373,-24.4258267969497,0.8251239840141108,0.00021369333210793584,-8.18330709498767,0.0681835027551617,-5.796504961578904e-06,33.114937467135704,11.974771683115565,3.4150523530493664,-0.323724343126929,-1.1374666346909363,-14.02747729545365,20.188029331295176,8.900782397834451,-10.497596228956743,21.784326164321826,-10.035011154976045,17.298878536857547,127.63989924542736,0.0009460899499097087,-85.6040454690138,135.69694946716993,0.00034665382316972964,84.99851085813971,2.4165282186309898,3.664816156443941,-0.023039700451077224,3.1191969001653144,3.911169018165294,-0.0002885270604707649,-0.25992140961525756,0.7541621721423383,2.439405814565046,-21.971660218608395,-0.20234766912960664,2.5452293245152484,3.102180485091633,-0.22463208002180673,8.227824251183392
-3.6874229559875222,0.0,0.0,-3.360321717476883,0.0,0.0,-3.716863216702424,-9.084096211741564,9.735467906181839,13.920183078262268,7.66732941322671,-3.076458947658737,-24.310234045561657,0.7789177171932221,0.0002614417405070456,-8.180711950156587,0.3036949223214917,-3.078714647474506e-05,32.81467946361461,11.8413585658196,2.8401813144185075,-0.35277529095390786,-1.3961719869620244,-13.690476683417494,20.563505691602455,8.816285010861165,-11.017658128875848,21.61437560320802,-10.101223229476446,17.575468835737343,127.2702923656971,0.0011379289038366165,-87.70949063149635,135.80916575747275,6.0305618435979984e-05,84.31184710046237,0.9079029127510044,5.297994010216557,0.0024714678726320263,2.5051673906774248,3.098727485731759,0.0007535043596208505,-0.4592597487708025,1.0266432333816884,2.736682124996462,-22.16551229732986,-0.0591393441712284,2.9221818701377686,3.4539212452731727,-0.3942096022206614,8.358150502852085
-4.357834392128562,0.0,0.0,-3.955079451419026,0.0,0.0,-4.038323171916548,-9.785106139977637,8.541231890434558,14.281309309477432,7.892892378960066,-3.5088198257675454,-23.57605727273688,0.716746205414125,-1.6012638838920154e-05,-8.494736533917466,0.20368037188586374,0.0004032153455281217,32.30502868272084,11.921223558964783,2.961570451622014,-0.10969945102095373,-1.4873442220364443,-13.07303569135761,20.61941330160951,8.685009181695111,-11.411195790492316,21.324651633422384,-10.202480116123926,18.021555153850223,127.57248170023219,-0.00021358155080911329,-87.9865202510989,135.96523575770976,-0.0007926764263604817,85.6604551165936,1.2164762463503003,2.7521484212043483,-0.007399777260914362,1.4726407882673158,2.470582260925525,-0.0008904944719599763,-0.2674375639538118,1.3113026230738087,2.6567286072890206,-21.975361888136824,0.2348905245527234,2.9532011602670534,3.9381860582931973,-0.3772939131955238,8.730934207518104
-5.95115734945246,0.0,0.0,-5.713953127238887,0.0,0.0,-3.4554373971862047,-8.921480650338854,8.184944172954816,15.123280503302011,8.460644505547107,-3.972134979100261,-22.808033429138913,0.14413381784268103,-0.0009352810832323475,-8.79451257844582,0.0816099411132626,-8.695407008491891e-05,31.597228499362057,11.811785883559788,2.1077306710907546,-0.15328345532068782,-1.6563723408717148,-12.565547472097434,20.873650050831756,8.43903946366441,-12.569875926321632,21.418231043942367,-10.288726538417816,18.21102039786233,127.9235825941393,0.0008683436864677618,-85.72438384948896,135.7624747393487,-0.0023512356792998144,85.77085878113326,-1.5649318160676409,6.472455081440362,-0.039518773378009284,2.211696435935823,2.837610491576912,0.0006380067908825259,0.17696516530185383,1.2967082983179545,2.15262447658211,-21.53977394066864,0.4077859607974751,2.47957550988629,4.0534300003747035,-0.5865179446986111,9.145613930372969
-4.686190845142428,0.0,0.0,-4.874454745113263,0.0,0.0,-3.1742467139810584,-7.896489032654554,7.752660183551816,15.11274794249299,8.742556798019045,-3.4122712667230477,-21.87683235892437,0.13951115701038572,0.00084128905613447,-8.849096736822444,-0.11088669798714958,8.56260572080559e-05,30.999798102117598,11.444931764865446,2.3805397133955046,-0.07723409541991896,-1.934269075688516,-13.217072726970102,21.472788226708857,8.600451500658307,-12.334930904860933,21.679225711156896,-10.305545047511254,17.9353624126524,128.934236783842,-0.0030996475663779516,-84.85976907140476,135.6254760961067,0.0007674703153340552,83.45757057936207,0.021974562221211684,5.7561594923848265,-0.043365616798789815,2.7345841401374473,2.8986022302263015,-0.0008915519940404979,0.1713644732600362,1.373538327332963,1.7520861999713204,-21.5516077107088,0.6273498491717845,2.1359926949736163,4.406741638395742,-0.987274148978192,9.180286692747277
-3.03098985237844,0.0,0.0,-4.0707197143667955,0.0,0.0,-2.826318294228906,-8.422304432165909,8.557086239180597,15.293198589419752,8.569654246248106,-3.0985227185380806,-20.971728325669417,0.27034522260980925,-0.00032480186935623945,-8.99693998751673,-0.2294217978775046,-2.222030401018847e-05,30.318440478884355,10.91738755060927,2.6351203412922573,-0.12404448696961513,-2.3042879592974934,-13.81063068330521,22.215429073199463,8.948108988098685,-12.211854760574987,21.787165755540826,-10.078674369097362,18.345633905749743,129.41795456844042,0.00013563304781819707,-84.14689476755889,135.95795306118293,-0.0006851795227611504,84.51646082132817,-0.865963791946643,4.375572232162415,-0.00302593174356633,2.8634518500959087,2.9790644263180326,-0.0014436877478867021,0.4294403926349903,1.2549158285175135,1.574393927180046,-21.29540337319068,0.582900887482928,1.927040466469363,4.621824343938634,-1.3140938701000033,9.006398271165121
-1.7833713932872972,0.0,0.0,-3.6563612460037223,0.0,0.0,-2.260911224418165,-8.061751870869829,8.846590979204503,15.343503527007186,8.27781193192272,-3.324027004705613,-20.316802658734172,0.4756115716845416,0.00031265403073101175,-8.879407010350873,-0.23612898936353532,5.961321219227398e-05,29.85846349729202,10.451794126843609,2.9456063318612817,-0.45318223743590463,-2.3506403343031606,-13.883443526459503,22.84344379945434,8.540694076770402,-13.25829374824885,21.6664622138589,-10.091083910732175,18.254059898181346,129.50139326804788,0.0014659120465463171,-80.80923619400171,136.1337047910678,0.00042211604710276293,86.12294785749116,-2.0939393512473665,5.777505375996722,0.0041461166877487235,2.8517677891236946,3.2921505703506573,-0.0007217678773864192,0.6589938040352975,0.9414542663992399,1.5293103805928001,-21.065484719605223,0.30838328397721254,1.7691331809370932,4.873816822023818,-1.2413233084112345,8.916948762867973
-1.9740805047422039,0.0,0.0,-4.010932633535681,0.0,0.0,-1.5941942986942454,-6.894295176350643,9.436037182657257,15.634213696482895,7.718741252359219,-4.304293068764228,-19.685628150377624,0.35576746736561854,-0.00076720114959862,-8.992819494962442,-0.10767222409179683,-0.000365790663248102,29.521295015378758,10.019956261370623,2.99896785494957,-0.4198546641576853,-2.5389658491515057,-13.255189380917908,23.96523226891573,8.426164643980568,-15.024133482476643,21.872787714843817,-10.261824526072092,18.029315508530367,129.23646932221476,-0.009001496417487282,-84.10601153749022,136.08016962208296,0.0008906516525154442,88.08939639278891,-1.334091094137048,5.42749260917915,-0.00632501759975599,1.5954448368561085,2.3819252865327694,0.006709733655244787,0.9477769647358294,1.1783457035917453,1.0304547429451205,-20.782583181690818,0.713094507671582,1.3934788037628256,5.178685037500238,-1.446430519740126,9.25378881827747
-3.536513514160969,0.0,0.0,-5.32965446813283,0.0,0.0,-0.7130565018485127,-7.531717829967217,10.73400342482617,16.143142443567626,8.452911874594559,-5.639586047032438,-19.33301251716693,0.4530292629336846,5.6362817283949176e-05,-9.727384742786358,-0.2044114612817639,0.0005364929560435121,28.986957066221734,9.277948242463705,2.3433321256601487,-0.34888853919889606,-3.0029547814398247,-12.79617944580423,25.395881815486764,8.623692749202066,-16.627028900602006,22.3646963468404,-10.70629971175706,17.39904516182567,128.6463208324134,-0.0004438824146887509,-90.0338379096427,135.77239193565532,-0.003103946005458135,84.78708861103348,0.17425293682270684,2.1961013941296224,-0.006077961011216087,2.150367477884333,1.5076703494436137,-0.003702467241606355,1.2148040648229597,1.403984875437492,0.5616648431687344,-20.52056033010698,1.0962222233368355,1.0416237803310717,5.160330354444721,-1.9401786787106505,9.410748516980272
-3.4777626987280486,0.0,0.0,-4.3463814425060585,0.0,0.0,-0.448474241215439,-7.625682005423279,10.411999540679458,16.121739783351412,8.648687895777813,-5.175357289442127,-19.671369338117906,0.9322271347471097,-4.193347156982085e-05,-10.772806037436526,-0.7788441186951387,0.00032663679434857286,29.126679392680895,8.280456253916947,2.7108653986459967,0.19146383119394417,-3.6472954013362315,-13.319988441502037,26.00528430991735,8.306662107502554,-17.444123666097028,22.323579648893674,-10.770029533952838,17.04970778518675,129.56741106909698,-0.0049978680100387475,-89.37999462955585,135.28845860640988,0.0016169850090748822,82.64731756061087,0.7135326582067321,1.6213386265856111,-0.0065102752025494055,3.483805121168284,-0.6130294674594619,0.0021613080638263784,1.8136439118422463,1.3469916041309333,-0.11011343661256237,-19.92439343051304,1.2920057959277949,0.3965495204997587,5.404457175769151,-2.491959208262878,9.478792670650574
-2.5565550055067248,0.0,0.0,-3.513578454575628,0.0,0.0,-0.43615961127614683,-7.272123733594638,10.199153655914943,16.097805340273073,8.249299918517776,-5.706304302253996,-20.115707117691723,0.8392857108197725,0.00012161225895317576,-11.725782246618348,-1.1024761270842625,-0.0009229047874576469,29.134610411116753,7.792844615339098,2.7803828274372755,0.3665593896625,-3.951335797794312,-13.164720868657122,26.564472048473778,8.328036198827748,-16.98901619935201,22.18658262252528,-10.68616164539053,17.44389672982342,130.4919108454204,0.0005200638519029746,-90.54412654004888,135.22675783284654,0.0005076672235343339,83.15290297882417,7.852203835183011,0.6505480804532928,-0.03626714810894721,3.158842650288917,-1.7095597633957638,0.0007709689519802972,2.325154044495512,1.3249226840317356,-0.4942960058884977,-19.413229089389084,1.4137574840910891,0.031502927615399016,5.3046695625363665,-2.8197667248382086,9.459770547689082
-3.653788670083888,0.0,0.0,-3.90990014323171,0.0,0.0,0.0009694184286331137,-7.400505164531107,10.439850156994636,16.296740383037736,8.06773406306376,-6.872841496623067,-20.370445253480664,0.624732179504981,-9.090734179280359e-05,-12.85797276850706,-1.407069734143878,0.0002889835588296828,29.09301614551371,7.508930010728599,2.551547569377186,0.6969027903066417,-4.0476750836428215,-12.522400043391723,27.54686269571213,8.39920164135989,-17.47204175945189,22.410956432172295,-10.620565114849807,17.30558900738788,130.27979032767504,0.00499518216686478,-88.89622857630008,135.79273605995394,-0.0008320354430196132,84.2257600298343,9.920512523396038,-0.7911216170698403,0.01862459359634834,2.731235705737146,-0.5254277076862667,-0.0025523519250937763,2.744987334815124,1.3242793873508811,-0.5189127209989234,-18.9933945206683,1.4222782246677605,0.008398485971645232,5.063278199766571,-3.0697053693832212,9.44576179461398
-3.5080624228286883,0.0,0.0,-2.714685642547951,0.0,0.0,0.18160322717656877,-7.810461447253475,10.455732171552784,15.867717003336962,8.75104512156973,-6.8373594144848,-20.853259654538768,0.8138019834207817,-0.00021319427328997536,-14.450628776237156,-2.1762698827696996,0.00035785503624831074,29.4115012295251,6.959337040482488,2.4148035820167326,1.485629902744147,-4.1344183727976285,-12.880139548977507,28.706872956058117,7.671852214565092,-17.570712803027522,23.362250344544655,-10.414847036205337,17.30710962533255,130.1340083203284,-0.00018578386055648042,-86.15814408270656,135.2768022463683,-0.0005470490413188541,84.85942825122245,7.9474849660380595,-1.3823656512097395,-0.0034128297266476934,2.4170068650060235,-1.3428617407162404,0.0031413386429200814,2.85514369158558,1.2522623639566761,-1.1309068041916248,-18.881394707959696,1.5819812420997936,-0.5868036584292485,4.970227314284432,-3.25381692704069,9.46143052177266
-3.5263210690994065,0.0,0.0,-1.9171072318262175,0.0,0.0,0.45559770433516966,-7.312207973173961,10.508821973991052,15.465755168626403,9.010212613142153,-7.1398426240368975,-20.721946491830565,0.8054400257317419,-8.935083693703952e-05,-16.424927112445477,-2.7727013902183217,-0.0007857563950765068,29.086694804802605,6.495659737287635,1.8503271205931493,2.238307098844497,-4.277701605242307,-12.611440809693427,29.429445252535935,7.47599223483031,-17.6855642486392,23.818268548120017,-10.3784431739331,17.61077389460736,130.05864312403673,0.0021152954318263443,-86.29053280619189,134.6106116896887,-0.0034591357566101846,83.85317748690157,7.458012460810051,0.7517014763643093,-0.001584610811890238,1.9360505380174258,-3.543612907358149,0.003023006410870227,2.9719132086321256,1.406320584590857,-1.5140638590523674,-18.764522129110347,1.8669440049681039,-0.8857098860012581,4.6731381905643765,-3.3041958659176665,9.24813174342975
-3.488565680005692,0.0,0.0,-1.49046981101982,0.0,0.0,0.3953061098022503,-6.9160523273025065,9.59543315048518,14.919438758314218,8.369421761658963,-7.337830744228899,-20.400860476289424,1.180803632782377,-0.00015285901726692672,-18.645638270298722,-3.3411136638203813,0.0009964420926532947,28.665797625714617,6.065397049494939,1.9544253462662933,2.963889513336291,-4.1051885803550014,-12.413494428576525,30.37211461169612,7.192575844366008,-18.09048827515847,24.137304786309734,-10.360311433043764,17.759742756868015,129.34626880862692,-0.001194917937956762,-86.6761424599689,134.2672788051574,0.0030599884170915137,84.63625968793089,10.263791004210677,-1.7224125794684453,-0.012563417703988593,1.891346439380221,-3.146937387306626,0.01747492919655718,3.1776508587279855,1.4917042932364473,-1.7803378411154065,-18.558152999767067,2.0448399245243443,-1.101470671117282,4.359371118898795,-3.167236864213419,8.886787746592102
-2.6049643455055054,0.0,0.0,-0.6694256285680104,0.0,0.0,0.20319014012857406,-7.031777453369172,8.078980642383744,14.17067290757661,8.895560453450532,-6.8754121365634004,-20.158559740217854,1.909106996582697,0.0004237082753419822,-21.335867758633785,-3.9254939181992468,0.001347248206974884,28.48329895031914,5.44936823521538,2.8908668557604926,4.205955793668233,-4.403258639239898,-12.070319783343798,31.023158278783754,7.295586786943488,-18.949154827494198,24.59947190673764,-10.241643266285045,17.87797356659816,129.03160857306563,0.001334965459417655,-87.81800449672981,133.46753572322845,0.0002147191223022637,85.94191711952666,7.399307446763654,-0.9548560696700993,-0.043129524239034524,0.2429006380959987,-4.5269469605901795,0.013963954308447511,3.4629480935048695,1.185364559140572,-1.4388518272602657,-18.27142055566742,1.633857766282917,-0.897686710932245,4.257101370025802,-3.4311013782348576,8.526869231155942
-4.0032630056892105,0.0,0.0,-0.2465500336770682,0.0,0.0,0.2673930988397291,-6.803924244716542,8.109861445049976,13.327695322152737,8.996094475124417,-7.839536072240517,-19.28678579870115,1.887922443255101,-0.0007515207160613763,-23.854917575201213,-3.5650118970233513,-0.0033300243793676606,27.914899490226997,4.751117892031502,2.5881369715937677,5.358076692289863,-5.156425879438392,-10.397511107970109,31.598247082190717,7.386819425179938,-20.16299053915743,25.40454705921681,-10.253868953549427,17.419697215968704,128.59688059348278,-0.0006958252391083903,-86.30618980799294,133.11385753872233,0.0009852061024311332,83.10946892772839,1.916484841790485,2.021469752008386,0.008747568582393976,1.1753749014152177,-4.078165497542694,0.0008942912582218362,3.6026051556712466,1.2189086348797875,-1.3714762504100424,-18.13249427498708,1.640062791495081,-0.8226598309802363,3.939874103521191,-3.928698931800562,8.254051335497863
-4.99106459845712,0.0,0.0,0.679460280098706,0.0,0.0,0.2168199153149995,-6.710229030909043,8.237241277326287,11.537398905080723,8.772981523143415,-8.306426434400404,-18.678289389302716,1.5940275896332712,0.00014671027691238816,-26.137269363493964,-3.351538732080264,0.0024779600876599253,27.386198092589193,4.693252165407035,2.0796393223373424,6.431383928676395,-5.262428688495339,-9.462683003680949,32.53725484188605,7.101670082438264,-20.96201156368264,25.956251084725064,-10.146192345282444,17.36366718071103,128.07527856566296,-0.009439057880442874,-91.11875105954954,133.14425635369835,-0.0006927707760949235,84.95989468589602,0.5719899924640469,0.7801284397369034,-0.009704452879642009,0.14661985716612735,-4.215904879242108,-0.004532594297661212,3.432507024672434,1.5030263217087498,-1.5153112505096655,-18.305118558412865,1.9572355262574768,-0.8510256457851118,3.7367048082929273,-3.868458844049814,8.037695096705885
-4.893252387582947,0.0,0.0,1.8480410053709377,0.0,0.0,0.5497436879788727,-7.135445337186531,7.782836252137093,10.151996254603063,8.938416147304036,-8.44966687947146,-18.363446361724247,1.6350438491216939,0.0001057892388089113,-28.603427838399867,-3.3197256068043126,-0.0010222794735329863,26.959708320034963,4.559164264518651,2.5689141233934163,7.684995874275172,-5.511302080644553,-8.512193412201128,33.00578983078601,6.592885760515534,-20.881341098660815,25.567985923880705,-10.050790507091751,17.29373697772588,127.83682434478455,0.0015804285416441866,-92.26504444356081,134.05686956639227,-0.0008664870794803284,86.52932506165808,2.543433998691953,0.23368526954071372,0.006532167920299717,-1.47158026638402,-3.408213303647757,0.008410582093671161,2.987958633622315,1.1978968415015117,-1.9962120148081635,-18.74239243404474,1.8518203525938075,-1.4109165474321108,3.762000122563094,-3.868416293664015,8.023132182244666
-4.345928773184982,0.0,0.0,2.740852159109385,0.0,0.0,0.3372547210764269,-6.562945699548422,7.4293378368403395,8.392018878559885,8.147635308052275,-8.402705452219495,-17.736263435514722,1.7828117297241788,3.635553248741324e-05,-31.07564968816711,-3.0599361373800726,-0.0005587740693789274,26.63945717325241,3.864409277895094,2.813711594811383,9.015395315325275,-6.19182828540997,-7.978938838502857,33.624381820828546,6.6525080312351506,-21.336515387544228,25.823583670064888,-9.766851283085154,17.96110965222857,127.26180203468182,0.0029801479843393403,-90.40305586190112,133.86411856700204,0.001342837700730193,86.68288454985075,5.002601200401335,2.6584463714214364,0.0027590610616501383,-3.0233006506347695,-5.555158532625705,0.018842351423877624,3.3330863704075337,1.2914121091192827,-2.0660237417874807,-18.397779309324644,1.964532269838809,-1.441151719713218,3.6225455028116396,-4.184586577388188,7.558626726797764
-4.380052368751055,0.0,0.0,2.277377454601888,0.0,0.0,-0.20664209583744345,-5.991574944209583,6.62394729956683,6.189594577092555,9.188798039629082,-7.024246553722863,-17.458205621307837,1.6739017068244864,-2.252543855266045e-05,-33.410544146291926,-3.2975500463913967,0.0017357601568100275,26.454967377814953,3.593553215865885,3.2588414832098267,10.381905981510382,-6.855491593018688,-8.294488998488672,33.89782072422374,6.961869976746822,-22.087734535901493,26.52859126572101,-9.484753917603376,18.41675817651698,126.75053151717664,0.003869040767668482,-91.73399898681987,133.51168254969392,-0.002498421095444015,86.06211677265163,4.116932149396839,3.830795719375449,-0.00754955808969499,-2.14148566489935,-3.7476359671830184,0.007022820416773524,3.7987732839709545,1.2338885692745898,-1.8011536599922435,-17.93365739033093,1.8130488986174613,-1.2163334764295437,3.262552026947797,-4.371690025814054,7.050791090478606
-6.931411187773206,0.0,0.0,3.3606526220287223,0.0,0.0,0.39899165210978116,-7.315931369580941,6.533722866679411,3.4534435099048424,10.162753565637242,-6.294497756222427,-17.34416080790722,1.6424621038217042,2.857189147711745e-05,-35.04720669741041,-3.1726388393066074,-0.0017808030771741827,26.116614392205932,3.692702197189341,3.176779996032118,11.245515909001638,-7.061499257012871,-7.907150379652688,33.96910113607779,6.35114095644101,-22.76026071580998,26.94280580036494,-9.70304863897805,18.581488436875734,127.5004423244995,-0.0002588002319595389,-95.3095844060538,133.45696807953067,-0.0007396147245496173,85.22073044015484,4.1266476632573825,2.464804764219103,-0.006101146360438159,-1.8927396825281435,-2.5565955282847175,-0.005952506305613175,3.562528255348019,1.241607506544872,-1.98495518796586,-18.168459812740927,1.8882584650634013,-1.384268995828957,3.0839149616775745,-4.081326008304696,7.025316126691209
-6.8925895244995035,0.0,0.0,2.4157365076734787,0.0,0.0,0.29409641453099966,-7.439575726907975,6.029768519094404,1.351326757676174,10.391936352090688,-6.121503549380045,-16.828379456045344,1.8292813741120357,0.00022217076591226384,-36.69023854448478,-2.9385437765623244,0.0006555553728212884,25.599047683604272,3.5516575471369567,3.468056336414798,11.985783186094388,-7.308404507392282,-7.728650995554648,34.200957495845294,6.597239461439435,-23.706568435434363,27.010840792070738,-9.726688601531954,18.42950462973069,127.60840358427488,-0.0016689331597942098,-96.57345344631015,133.8156824057745,0.003321405494672712,84.11106473318843,3.393238801753038,2.125375884839137,-0.001406969868571158,-0.7964318832729286,-2.574600923651263,-0.0015890813188403497,3.75608127266053,1.5628828009751061,-1.8104347296255765,-17.980473423418566,2.122096293933632,-1.1030598332275012,2.958111987509823,-3.9073719675985537,6.465310751135745
-4.883495726055009,0.0,0.0,1.901773905624733,0.0,0.0,-0.2564411636345953,-7.139210150582164,5.402400648931026,-0.40463604023143535,9.615512975381629,-5.308301208680265,-16.41345628076653,1.8151029053287662,-5.502924020774762e-05,-38.37142566352294,-3.002921986787849,0.0004017621756206756,25.338069648595003,3.552225724296799,3.9273113838393185,13.079366063970541,-7.602226521172188,-7.978011750659178,34.07657113744988,7.025850662505553,-24.030354004865746,27.304670227204298,-9.8989169333606,18.380182175752,127.39232772691764,-0.002348173871208465,-96.88947246345448,133.84071090859769,0.0011203539067184691,83.3363016450603,2.1169629300635036,3.0530378295878133,-0.0017603830256277457,0.10597714132561357,-3.1723101766724557,0.001201672686576875,3.964681425844873,1.455353133342366,-1.4327138133042805,-17.77278790730772,1.8823749599524267,-0.7919522058581536,2.941519659886798,-3.895639229091894,5.908425764643246
-2.326853570533937,0.0,0.0,1.4798237567177228,0.0,0.0,-0.9447011297672255,-5.918907705024788,4.302563054186206,-1.9902006542059996,9.204206399444024,-4.228601419574891,-16.099420462299076,1.8013353503606937,-4.568644186188692e-05,-40.02985558144411,-3.137100541089595,0.00039027506833867807,25.5782479056514,3.4468357141220762,4.602956298192615,14.420732596703614,-8.046889392963081,-8.492095302324664,33.80344517796977,6.663687698116419,-22.446169515915287,27.834224219439704,-9.95839892094715,18.07746966544426,127.58292600945047,6.2364916486333305e-06,-94.60404806453057,133.80754360781023,-0.0006598641026244151,85.52375504275764,4.20695270697091,2.9684142922494754,0.00028701963713736615,-0.13696646151188308,-2.2466545197402032,0.007210258488533179,3.7880792869612367,1.508955493043076,-1.892925900595945,-17.947116321834507,2.1025391503026603,-1.1996972275130136,3.1930753528210785,-3.9298958225046854,5.78297519993754
-4.746484453117247,0.0,0.0,1.2733804895224738,0.0,0.0,-0.7668889169756802,-6.377036271601457,5.028316267285049,-3.632024215513735,9.14499692707105,-4.143625924039797,-15.689435063571537,1.6439659330861407,-8.459979313766718e-05,-41.19828950012541,-2.4329410649014456,-0.0007058966563237202,25.58964657393164,3.2656772763872888,3.964693974036366,15.393240389514183,-8.553331771938577,-7.857312993125724,34.30369213848988,6.340929371579525,-22.608304257084285,27.928421208341963,-10.039691108491756,17.842887954020608,127.39215964378742,0.002572233054125686,-93.92969217802394,133.86562790534919,0.0003834094064224826,84.55270289949733,6.300025006232944,2.2573282464739504,0.004200909157558233,1.2572293972874697,-0.711922064209513,-0.0032310778293757345,4.182789706153863,1.673972236914595,-2.2355910135782286,-17.551862849497347,2.382672177009829,-1.4569633702820168,3.2789037280651603,-3.8974048346127024,5.50323764848011
-6.185928999682854,0.0,0.0,1.0858193806786154,0.0,0.0,-0.5233549380266244,-7.3829438781627745,5.260156355977256,-5.164157861838627,9.206446930787731,-4.147212549479936,-15.172745303570496,1.7578058169254676,2.4470386501663757e-06,-42.0128509193475,-2.1694283214547316,0.0005217984504932982,25.104513737277614,3.3526152490500443,4.0443890174463775,15.981630413842748,-8.590638137832977,-7.274102739805548,34.567014921883235,6.312834515532168,-24.126294625687457,27.844958358081705,-9.964460710839415,18.315828277956204,126.85239044834456,-0.0006948260201815587,-96.53372801782453,133.90065098148892,-0.00022553559301929628,82.21116175717096,5.156198326796756,2.433130031306199,-0.0040647426560017465,0.8619701626580129,-1.990868494246074,0.003552446112509924,4.13294767050418,1.702898133632876,-2.045095639791159,-17.603831659182088,2.3390299010607767,-1.2692126307780653,3.179028921570473,-3.667482740473471,5.210741785162139
-5.433468759573415,0.0,0.0,1.3456221073850785,0.0,0.0,-0.6488861644101932,-6.5715341469030255,4.855516704772089,-5.886270210116201,9.572407708189608,-3.9990302871352115,-14.644757440054873,1.865827777421665,-3.236313849324685e-06,-42.57024691063903,-2.1010072044858776,0.00043587073491181813,24.752812247403245,3.022217475772635,4.221478104955852,16.352316486244234,-8.872957021753349,-7.137540010547332,34.34005426149659,6.100813685866889,-24.147595390611134,28.045293555496066,-9.968104731973874,17.93672839748054,126.34246905497609,0.0002004749906146323,-96.08581612528022,134.08261749366756,0.0007132722413196212,82.9113304199406,3.331365519090825,2.7580572191973616,0.006370929208013159,-0.332241156971341,-2.506848610136162,0.0009192086268175497,4.043508455906762,1.5939824625588614,-2.103008435198561,-17.6911460119456,2.2592901594454085,-1.363399503114373,3.0736606303473115,-3.6870608233592863,5.049369158702756
-3.5070884952327366,0.0,0.0,0.03246010607681321,0.0,0.0,-0.9154888140193992,-5.664897517118993,3.735439793306967,-6.301025907974604,9.10063904272727,-3.486613567429642,-14.563190051074676,2.143210316483064,-7.569531002389706e-05,-43.329954365733464,-2.1675622856941703,-0.0003605404043157818,24.937136698680586,2.8541831355938827,4.8085026040583285,16.89621202259205,-9.055047665704059,-7.750041160950563,33.59207279990728,6.093990171740564,-22.852062851014747,28.231056089037214,-9.91751985532764,17.7648471487426,126.83320070414548,-0.0013299936466677092,-94.34301824348285,133.91764593001676,0.00013902207480594498,86.33300312100515,4.055685835700538,2.955312022553158,0.0019375516555267922,-1.8771665037262066,-2.615318226485836,0.0032097263435153195,4.2010972226604295,1.975504736289484,-2.810419643810225,-17.532477892316102,2.875521219473906,-1.8794478401417087,3.340811800848133,-3.5499551203462305,4.913026871220495
-4.23858159621306,0.0,0.0,-1.5027291652252301,0.0,0.0,-0.8936883040629898,-6.6409922874874034,3.7915277012999624,-6.355679343612555,8.855390428927127,-3.3621247363974565,-14.457485112166651,2.212771507858273,0.00019004063324166209,-43.85427787890981,-1.794206719100618,-4.649149692341234e-05,24.809410846515515,2.5157729452494046,4.900953147541008,17.121132554906183,-9.637975388047431,-7.843398982835625,33.4939281940534,6.3686020046887535,-22.738034149427133,27.992110028275267,-9.933196841320319,17.657703750212743,126.68158533591802,0.00035910889868043434,-93.06529020665783,134.20956915533577,0.0013469255662449144,88.13440516176364,3.63008938466153,3.266547446738291,-0.0014195809397418904,-1.6106057285373139,-2.4140993876276453,0.0004942756824356703,4.5821015150779045,2.235944240103006,-3.321835248105136,-17.1498297029635,3.3066833811563052,-2.2583063869287052,3.39610968130543,-3.727355120687669,4.572898858493274
-4.909289036167595,0.0,0.0,-1.9958622015107155,0.0,0.0,-0.9554224028761793,-7.177133777898677,3.8581215789978103,-6.064449229824853,8.324871656323866,-3.2104925165702802,-13.835460811113302,1.9180287974328791,-0.00046980187918560013,-43.89049076798654,-1.567954349797293,0.00040276015344882374,24.37313565113496,2.4300812987733407,4.808221733913822,17.055159941769357,-9.915548992096094,-7.9373227568543685,33.28179924561701,6.2092360908722,-22.947803118320053,27.86340337730924,-9.999556884027005,17.622448523809375,127.04490206456138,-0.004507340827695473,-94.36780701625682,134.17284619634154,-0.003637647288517398,84.60033409173272,3.3459740558343833,2.3327452856826243,-0.0016083452479170124,0.37862699904869407,-3.6509012845239845,-0.003732471451657493,4.353989823616904,2.1712650908810365,-3.1131355061165453,-17.379525650617172,3.169375646431695,-2.088266870879627,3.515547234776229,-3.7902621567301606,4.390036639384838
-6.583275179526081,0.0,0.0,-1.6489765528114946,0.0,0.0,-0.7877770738409627,-7.380266884180402,4.335341374744261,-5.026032620373607,8.804230851947723,-3.366646963787879,-13.229477193452563,1.6185639284532882,0.00021862034140207704,-43.46301891496111,-1.3356830492094411,-0.000175107228345381,23.800478254154555,2.6082051945431832,4.538535939077389,16.621322232997915,-9.866086364833725,-7.526944054346983,33.38340132100308,6.048236935365068,-22.72572890670569,28.060614563002666,-9.647444382134848,17.991611251169047,126.05712335393896,0.0028250455807254404,-96.16042290732202,133.8558649390568,-0.0012759528378528322,84.82715921590795,5.008523730975211,3.9393236234020215,0.00201080616113924,1.1367054975910302,-3.237999774530204,-0.0005918671922152078,4.067898235823756,1.9499914422518279,-2.9888725609159614,-17.662922725505027,2.9178593724386843,-2.0547909167140808,3.326226330048177,-3.8047121129696264,4.557004897402284
-5.355230617984953,0.0,0.0,-0.6580060187536886,0.0,0.0,-0.909816534680093,-7.40767718507995,4.283829094693878,-4.053298169019089,9.043659195405505,-3.3998130376407034,-13.171322557838005,1.8446475267981393,-0.00026294287641057514,-42.69025870786524,-1.7042636861855522,-0.000841272222542338,23.66914287745601,2.652232263420382,4.957404947693461,16.184386291440518,-9.595102443218863,-7.683847439562549,33.367551995642266,5.979539863837138,-22.325443472113555,28.13970253890476,-9.550210866643544,18.83896435034224,125.60801943652228,0.002826597560089007,-96.50634716248078,134.15758361418062,-0.0007201318275298446,85.62106559167827,3.7917386466123606,6.152012037228747,-0.002153258198692154,-0.009128971143639045,-2.2671149648133833,0.001967186528140964,4.066503248725462,2.1160565572809076,-2.9593394041776833,-17.66791451154977,3.06118531012726,-1.9657684985427575,3.2788026724714894,-3.6299620050833576,4.571403278825582
-5.70548388628791,0.0,0.0,-0.7322681876215626,0.0,0.0,-0.6252000399012353,-7.9489258879881595,3.8823199166556854,-2.7965779677394003,8.880697255204929,-3.8190153656639074,-13.375922792889671,2.1672215341541956,-3.501371893181502e-06,-41.56671408671955,-1.5285928899383079,0.0012305570647732076,23.77765870729579,2.5539322397860613,5.281113818095197,15.49060187462111,-9.458680043202754,-7.75523630051986,33.00108417365449,6.134714759043458,-22.799727146688507,28.286099746634395,-9.649513883362244,18.528273553506,125.85833184889844,-0.011838966260496355,-100.45817651432465,134.18491601753394,-0.0007747109166184312,82.0721281643048,0.9071037430095206,5.791055697270893,0.001694129827868491,1.2743061542405243,-1.7310924273381878,0.0024797204898731086,4.108360346503895,2.258343004050396,-2.677037168463081,-17.632188988071725,3.0888840325052707,-1.650571208293205,3.497094660841958,-3.497164329633685,4.276060803853272
-7.817626691898106,0.0,0.0,-0.6135965701781833,0.0,0.0,-0.02062239880252045,-7.783395816810934,4.811035872048368,-0.923423484031473,9.045522368979512,-4.639015606013157,-13.138190449300536,1.8524631172215729,-0.00011773373273426121,-40.39403679979147,-1.1465530236590022,0.0004664882095283129,23.529709084311428,2.463235819364711,4.9518747799488425,14.695065587260906,-9.496495806123638,-7.408442660019969,32.63723129155662,6.459153911786532,-22.246663859840712,28.441840084336906,-9.675719104964362,18.929594349306885,125.98113764022906,-0.0017377174233848562,-95.88297250979272,134.1370681786849,0.0019481581414979765,83.7135857441123,2.2884518019386815,6.194854148928849,0.011823637493964596,-0.22385029715554966,-1.9199400100001127,0.0006297509641488053,3.8881400922685865,2.1778034180604595,-2.8235561459150404,-17.84916786050625,3.068290083791619,-1.8166414764718102,3.6159003588474463,-3.5958129009093596,4.589426931871685
-7.025172726268334,0.0,0.0,-0.29627566366204916,0.0,0.0,-0.016503223610565013,-7.858711032520456,5.967605785759648,0.3765711879657506,9.357115235800919,-4.531530177278912,-12.86723611438403,1.5735023662080363,0.00017025657547984136,-38.60106147164355,-1.6721957056898993,-0.0028582623583161874,23.145543481095025,2.2759363385690348,4.379821482479504,13.676125364682507,-9.504428638949804,-7.737844769247312,32.605155421386655,6.264519771375114,-22.498263869868012,28.521923925590585,-9.807840268659158,19.37673910963622,125.43010050954967,-0.0010557221453584434,-93.85621955368275,134.0565397182321,3.2835912447520914e-05,83.80536789382789,4.790773618980987,6.540863829183696,-0.00375286824474662,0.6703979297151986,-1.7720605516142602,0.0011709376890213696,3.7338016624570245,2.1294834804732843,-2.852998956836341,-18.002204473273874,3.0343088341014024,-1.8619277417114979,3.6029644375926004,-3.731305587222467,5.204494838567697
-6.074625158224858,0.0,0.0,-0.054316813881936925,0.0,0.0,-0.22876434183190278,-7.8596039285463615,5.900490451320093,1.4315321095746432,9.899590729706107,-4.855324081126488,-13.142580377555873,1.7146542800874975,-0.0003805918149714056,-36.31118177494689,-1.9688901994861356,0.002301043732676097,23.171149833430025,2.0921627442117487,4.572074238896595,12.452574456055967,-9.304494850854512,-7.727295344090036,32.32551342424269,6.488868432122998,-22.586376884534882,28.897795860074563,-9.881662930854755,19.00190061715654,125.82639109345881,0.0016307319487262348,-95.2049364487039,133.9953817001079,0.0001070351175310835,83.71096064649898,4.781653185676458,4.853165447988679,0.00048037427093146936,1.5422578256453694,-1.666880819786066,0.0011292088132465047,3.95621899983171,2.112545478655606,-2.89454136545492,-17.77894720533841,3.0339502728198444,-1.9068209517967685,3.731300978977981,-3.8818787707105082,5.4356665426990585
-5.326207056082758,0.0,0.0,-0.05623414345850878,0.0,0.0,-0.49652167750330006,-7.665621016646438,5.808783126731989,2.6401933032532017,9.597879057987466,-5.664081175470672,-13.49535255784357,1.7211195697955164,-2.1488408146121065e-05,-34.014074269756904,-1.8063179719047697,-0.0002841322875771385,23.407391386200572,1.9011348568010953,4.843983931111236,11.363053191801821,-9.300521388142988,-7.463073714799724,31.936685444176135,6.505762372969295,-21.796152611338155,29.237742340760175,-9.835282831752554,18.83779801942181,126.21690579329538,-0.0011281171760548004,-95.58816859996502,134.13942669441323,0.0010847776052252353,82.44909449189872,5.518762132366276,3.3720031801646537,-0.00048820961508652124,1.7206423399002597,-1.2436701217754977,0.0017340550691556332,3.8580309786616764,1.9866145041859855,-2.6890577695020608,-17.877186197601592,2.8409214398431177,-1.7625179473604902,4.235415417408075,-4.133343673807955,5.684904899323971
-5.115148127550516,0.0,0.0,0.872082995469704,0.0,0.0,-0.25434515016116754,-7.775046334513664,5.7542792479543445,3.9539161080905556,9.051385603046542,-6.319250301533655,-13.786142192971864,1.720554470742169,-0.00032865150583205155,-31.684504946637897,-1.9018919909263166,-3.605829569602046e-05,23.593889046446666,1.667543658682398,5.154184862883251,10.10605498659133,-9.330484723174369,-7.991031729164073,31.584894634235987,6.9149534474402525,-21.117078305725496,29.33564322614321,-9.710863810768483,18.765559737845255,126.38568178087725,0.001986020849132286,-94.73727523817163,134.0826241922324,0.00026963318280148025,84.72960559313631,5.107933856265129,3.9491184663328083,-0.0059229804388162026,1.0813336808171248,-1.764922554308595,0.0014872692462119866,3.5787973587619835,2.355710947951485,-2.3887475944344927,-18.166487149562368,3.07261155254338,-1.3465012022040028,4.669593487788384,-4.561093423984969,5.471884383475598
-5.609375928590094,0.0,0.0,1.0001506253922168,0.0,0.0,0.272968659089173,-8.16041952882942,6.132867948001979,5.533143005988386,9.538418700778182,-7.358340995896769,-14.28413186736028,1.8399286376918216,0.00011224245919618439,-29.464613796531232,-2.108520731154514,-0.00043526933680283774,23.768111909323768,1.5653210219447875,5.621751185284102,8.798380206516736,-9.103771883134145,-8.077077673081968,31.63373477217673,7.503482926500641,-20.07572260222955,29.803730970488083,-9.47242897099396,18.595287677222633,125.94223035644012,0.0005772769148203664,-95.31634431254795,134.0638294826606,0.001179801351052504,84.23728968473159,4.3373760060897455,6.632555349341639,-0.0005681213439085325,1.8917207985294,-0.38398621832175117,0.0036344906618987665,4.121448591956625,2.1519605766471597,-1.8223967616481038,-17.624163054128097,2.6736970972628202,-0.8957809261652513,4.761229868113226,-4.786990412221644,5.444084763810294
