PaulMeinheit/Bachelor_Muay_Thai/processed_Data/N3/roundhouse/scaled/JointAngles/scaled0.csv
L_MTP_ANGLE,L_MTP_ANGLE,L_MTP_ANGLE,R_MTP_ANGLE,R_MTP_ANGLE,R_MTP_ANGLE,L_ANKLE_ANGLE,L_ANKLE_ANGLE,L_ANKLE_ANGLE,R_ANKLE_ANGLE,R_ANKLE_ANGLE,R_ANKLE_ANGLE,L_KNEE_ANGLE,L_KNEE_ANGLE,L_KNEE_ANGLE,R_KNEE_ANGLE,R_KNEE_ANGLE,R_KNEE_ANGLE,L_HIP_ANGLE,L_HIP_ANGLE,L_HIP_ANGLE,R_HIP_ANGLE,R_HIP_ANGLE,R_HIP_ANGLE,L_SHOULDER_ANGLE,L_SHOULDER_ANGLE,L_SHOULDER_ANGLE,R_SHOULDER_ANGLE,R_SHOULDER_ANGLE,R_SHOULDER_ANGLE,L_ELBOW_ANGLE,L_ELBOW_ANGLE,L_ELBOW_ANGLE,R_ELBOW_ANGLE,R_ELBOW_ANGLE,R_ELBOW_ANGLE,L_WRIST_ANGLE,L_WRIST_ANGLE,L_WRIST_ANGLE,R_WRIST_ANGLE,R_WRIST_ANGLE,R_WRIST_ANGLE,NECK_ANGLE,NECK_ANGLE,NECK_ANGLE,NECK_ANGLE_SHADOW,NECK_ANGLE_SHADOW,NECK_ANGLE_SHADOW,Trunk_Joint_Angle,Trunk_Joint_Angle,Trunk_Joint_Angle
X,Y,Z,X,Y,Z,X,Y,Z,X,Y,Z,X,Y,Z,X,Y,Z,X,Y,Z,X,Y,Z,X,Y,Z,X,Y,Z,X,Y,Z,X,Y,Z,X,Y,Z,X,Y,Z,X,Y,Z,X,Y,Z,X,Y,Z
-5.553880000000001,0.0,0.0,-3.6632700000000002,0.0,0.0,-5.83801,-3.1878900000000003,29.454370000000008,18.762410000000003,3.7127800000000004,-13.452820000000003,-16.26639,-3.4897400000000007,-3e-05,-11.415340000000002,0.19438000000000005,0.00015,33.09896,14.613810000000004,18.794060000000005,-0.052480000000000006,3.5405100000000003,-12.395350000000002,15.325040000000001,15.774910000000007,-21.974980000000002,17.024490000000004,-19.092520000000004,23.942610000000002,74.68895000000002,0.006690000000000001,-91.55756,63.89986000000002,0.010690000000000002,81.98798000000002,-6.441950000000001,6.896490000000002,0.006420000000000001,-3.7933800000000004,-1.2086300000000003,-0.00126,8.703290000000004,2.11563,13.746140000000004,-12.906330000000002,-3.1942400000000006,13.540070000000004,-0.8509200000000001,2.5707400000000002,6.428020000000002
-4.417989737965275,0.0,0.0,-3.658229660356502,0.0,0.0,-5.968269391158843,-3.2837213521609945,28.939150405028023,18.380059187648726,3.621479763436618,-13.508209853792469,-16.202416855654274,-3.239919204652562,-3.928142343808896e-05,-11.136455128741467,0.26614310143232817,0.00015374524189598642,32.96832657518368,14.679368080182396,19.659071085829538,-0.18152761243809118,3.471847786443672,-12.103519287182731,16.964676379267445,15.56686961693459,-22.727005858791376,18.99168044230584,-18.876612709659184,25.604312188558566,78.36530155359699,-0.02117711901793596,-88.34573724019792,67.75073345052823,-0.010536560389719948,80.4766724719426,-5.273158267119512,8.300744795689342,0.000844682593327862,-3.3100989135228036,-1.481413710970096,-0.0006407914487810001,8.382533672559234,1.9080555359715994,13.996759432613928,-13.209153827218824,-3.479438768784126,13.696797537317703,-1.0990115029793928,2.6410887060445196,6.483291789788386
-4.039183189574235,0.0,0.0,-3.180306630240414,0.0,0.0,-6.261855004790005,-3.050766791652005,28.428123250861624,18.07951197167701,3.6582500491486885,-13.11459060584347,-16.13143118254239,-3.112969602757686,-5.5169455469568514e-05,-11.03898944324803,0.2689355513167279,-4.583535745942443e-05,32.9754380163166,14.694028226919436,20.06931911160228,-0.18595234929626364,3.4495328570662083,-12.385959465657976,19.047652483013664,15.190873754316101,-23.854763447730097,20.767698767177237,-18.804161157682096,28.325629265768725,81.15329745603636,0.002797049432366937,-85.88539378696917,71.63012099674351,-0.007925832740883838,80.30460613659712,-4.926999753379217,7.876678339675367,-0.001108172158310883,-4.600477006696418,-3.1198608579038702,0.013676710222586444,8.026237204092421,1.7391493994629952,14.128105356064648,-13.557519515516143,-3.6847971918626183,13.756834345129604,-1.1080892007722123,2.689811588828068,6.235185003424573
-6.157285906469063,0.0,0.0,-4.315186200338093,0.0,0.0,-5.867443290384349,-2.8273149168002605,29.629660011270673,18.339727669797007,4.123118928774499,-13.219257007850707,-16.117690611731287,-3.5677108588560795,0.00019107327665131938,-11.17282315206194,0.3382452768411431,-7.35840126315156e-05,33.287562758926754,14.817203917853254,18.873491762717435,0.16831425675759215,3.4361232137750073,-12.167876841461293,21.31757719073262,14.821835221004575,-24.532533870839412,23.02927825723956,-18.862937086922607,30.518140949838724,83.66473597493578,0.02735095228592668,-88.20792565344142,75.71998123965652,-0.0004300801634748925,79.63628390354047,-5.251181464309211,7.9209450708590445,0.0068711256503854855,-6.260929342864278,-4.100173066277079,-0.0024361965532989933,7.836548845362595,1.3703462645548732,14.426361356460928,-13.729436952792234,-4.137390816957558,13.898817835294109,-1.075316744301816,2.800265049960381,6.1815067134874875
-7.198448499697404,0.0,0.0,-4.519308855238784,0.0,0.0,-5.44945050845577,-2.902928724726683,30.205242090501073,18.273059708074058,4.741704614696314,-13.37435418686116,-16.149563745241263,-3.8929977481091163,-3.1004304825739645e-05,-11.095826254203013,0.32548234672127807,-8.476092644087757e-05,33.27675686593081,14.963133560054619,18.395689049339513,0.1974691740705105,3.3715202508489823,-11.979289675428927,23.483562824063583,14.758602380147277,-25.441180313259764,25.58748732458,-18.338448446655242,32.18715939534012,86.39853578189694,0.00391160202628819,-90.82178472109837,79.22459433724347,0.0222725025941631,77.50042240726127,-4.705568756058549,10.15312536214546,0.017770089402737176,-4.269577128871699,-4.604589976980521,-0.025195944555414344,7.439251459165384,1.1691234812993845,14.44822047583547,-14.130226123571422,-4.33256870580669,13.84502366767237,-1.2436814490603783,2.7988957838446047,6.271607022514429
-6.814604670729746,0.0,0.0,-4.020725891079583,0.0,0.0,-5.504601066833445,-2.7985666626873,29.756752937620654,17.975566988936976,4.367301956357647,-13.322949387356754,-16.17671738241565,-3.9445711321433046,-6.718152979542469e-05,-10.87490292430423,0.2486040903820322,-4.266595049924618e-05,33.09211220641429,15.084554326801134,19.14549357981036,0.05542193758372273,3.3709643515825025,-11.856844409488508,25.786439045474467,14.683288882492425,-27.35536989494378,28.42105134010364,-17.59359648422944,34.24214477446136,89.47016532620538,-0.021606093011760658,-89.23980731659539,81.87729712151602,-0.015227579686439579,76.01491339967168,-5.1150570111619835,9.85823501042094,0.016865762604587744,-2.002095667396356,-5.436974991006629,-0.0110949643980098,7.105135551619917,1.0943265542153593,14.57001417389981,-14.455349506060758,-4.4468857471003265,13.93103290524246,-1.4865130156642241,2.7696955539385675,6.260881304190814
-6.805941284497882,0.0,0.0,-4.401708679275182,0.0,0.0,-5.633061286335553,-2.535133860192329,29.52096845825901,17.794002300755793,3.8188133349152658,-13.202585983808383,-16.285131594503188,-3.825569007052018,-4.389296196756442e-05,-10.709144926818018,0.28519301769450756,9.681757896919044e-05,33.36744066398395,15.172187723277975,19.67290483391138,0.2695259272398935,3.402278473095619,-11.670734107264673,27.9219125662127,14.355962773390237,-28.926549043382778,31.161293057091797,-16.865373640724624,35.96304438872745,91.90428394391199,-0.005095734680233517,-85.52508950425538,84.11171797709115,0.006992214961286222,76.67011405491499,-4.277138233238423,9.31798246034646,0.009899419135844625,-4.182627058804725,-5.2868581788298945,-0.002799413979922476,6.79651806082955,1.1282950386023916,14.609252718310387,-14.759406937619449,-4.429707339885825,13.980138944854719,-1.424863230251971,2.8894395029711384,6.434574153248098
-5.995177876851861,0.0,0.0,-4.107275470942738,0.0,0.0,-5.724451342233439,-2.7934879355367754,29.424565820813278,17.37299663613822,3.979516844547232,-12.794475710874758,-16.427848090213974,-3.7893967646907667,6.436836380891709e-05,-10.588225249147955,0.4176837761548133,-2.272857571036406e-05,33.43361048706831,14.989247618720448,19.897188391465754,0.3112733046596523,3.03531259370323,-11.937665909520543,29.27677516579383,14.443737258288865,-30.020488922584498,32.98546848727929,-16.464115589846514,37.153537670693154,94.31494869016919,0.007328529693434144,-83.93546911886808,86.90242845285988,0.0027616245164119434,75.83532523871382,-3.440185886497645,9.905392084286811,0.0020372563025909418,-5.389785359394045,-5.575880228564521,0.000304187224678473,6.4633137532549325,1.0786982800087128,14.404341137740886,-15.112679938764977,-4.400522082096697,13.770760205464768,-1.4110961849003183,2.8886529126245852,6.765564578228551
-5.984812765251809,0.0,0.0,-4.130550056465681,0.0,0.0,-5.1314309338363895,-3.2451756312855875,29.42193929640438,17.341158054319955,4.333289385586207,-12.739466635500948,-16.80862911282246,-3.8240962849586824,-0.000150071613223037,-10.689099594622768,0.41909878125045635,-7.690351812979147e-06,33.49470734594046,14.895147051542438,20.154272248405576,0.41410663591174646,2.695237089439288,-12.187336697903579,31.08919543259975,14.447418926948172,-31.287075818798634,34.80336918027533,-16.29524527954082,38.53565450586924,96.09731929247987,0.006813980347785623,-85.11642149609911,89.56964010638171,-0.010686597837726693,76.87909309422109,-5.187522324482914,10.314185642491609,-0.004074743299378913,-4.903860976540517,-5.613549215627098,-0.0013956609446025166,6.202950803694152,0.8529351049122352,14.503008990827395,-15.37069439588161,-4.64674712769238,13.779521468260368,-1.5346521831303268,2.8843350081004107,6.9032841586668265
-5.866944444340556,0.0,0.0,-4.23044834129402,0.0,0.0,-4.693815446911332,-3.1541965210936023,29.10409586599326,17.448396295832016,4.766761116380757,-12.59395362387612,-17.329757438245487,-3.8827382924484355,0.00016796965708534796,-10.821025978323453,0.24978572285705772,4.307730606521158e-05,33.87941880908112,15.055984316017277,20.47622689966371,0.7740769733151424,2.5758671724922095,-12.287841371791156,33.581803820587574,14.23263775668445,-32.193678668174535,37.04537867370457,-15.790125265442924,40.30438457329756,96.69661478683675,-0.006898582187200813,-86.03808948250914,91.10645197175761,0.000644161460922461,77.51393299650225,-6.204450363193219,11.453400177291785,0.0005339079835347446,-5.6211412740737465,-6.418094002184906,0.00388152089375734,6.50699399041188,0.794793366230878,14.938544900968637,-15.028470064725116,-4.860813677868378,14.164514634477673,-1.6020105113718657,2.986490724679267,6.82941712178005
-5.509116170768828,0.0,0.0,-3.8954520106129547,0.0,0.0,-4.686580218684018,-3.25707950309486,29.164360234820382,17.298521500472894,4.9342210716051795,-12.499741091352686,-17.673577612358628,-3.9022120396724205,-0.00031708348028165203,-10.797955826545117,0.09917609881027753,4.045083287661905e-05,34.10779064916463,15.066710486920746,20.484488542136926,0.940007828029974,2.4216404704771604,-12.052256691855533,35.52232207251554,14.550586584259964,-32.91031187042447,39.28553813244686,-15.056971920917753,41.804653068812684,97.75966587092196,-0.013489772901321815,-83.64208253319279,92.16219680607787,0.0035657306261714667,77.09829005531446,-5.510949906799755,12.292472413006479,0.003656733144675135,-7.3774266432555615,-7.4311896160914275,0.0029983726035668293,6.817596035701314,0.7742819565477798,15.275935892504556,-14.68681198226673,-5.003651814002659,14.4719768423076,-1.7783961692335235,3.0724506057881786,6.871249378097239
-4.221504423905664,0.0,0.0,-3.6721171058097717,0.0,0.0,-4.664931939351856,-3.5832942191320525,29.22393287359134,17.16451596039927,4.392508218069854,-12.778082306361641,-18.004407677297166,-3.7885037557030565,0.00021185086867605134,-10.623113844293709,0.2667504136053562,0.00010740975214445303,34.18642812162634,15.003990529061008,20.72785344007697,0.8015174550627914,2.2239515551275,-11.776148818473121,36.44145741504636,15.021163577951826,-33.275659838751615,40.98480254094775,-14.862357720970948,42.29023273112383,99.32711478995755,0.01647849448783349,-83.97597047229536,93.4902150196057,0.007330526310472075,75.27546490041212,-4.540712276671911,12.933872043106302,0.003463848394235007,-7.908805421421118,-7.394054115633709,0.003219828131221145,6.899480605024872,0.13623426242416664,15.249870214822632,-14.629078887102592,-5.5876671330117285,14.21259809683712,-2.052631718565438,3.351938805161733,6.966694086410159
-4.069060864676942,0.0,0.0,-4.089148859338027,0.0,0.0,-4.540682665167382,-2.861140740305899,29.295835437617104,17.109419811816,3.7609417453617966,-12.602396075482494,-18.520997883786197,-3.998621569146399,0.0003405353086930522,-10.5511356002326,0.4484143397708976,3.709181625962653e-07,34.513074546561676,15.103564227904252,20.929933238907427,0.9460735100210623,2.000829118155021,-11.836114626114739,37.80189402153076,15.552839995923309,-33.85262665787738,42.64708567567999,-14.63858525616123,42.40536018452105,100.33114321445129,0.002413455069726825,-85.75590534555627,94.58831940890704,-0.005073820451516547,75.0982568218672,-6.065957214268558,13.469588106952044,-0.005434571339016408,-7.814486664779303,-7.037458522666827,0.005177872135599573,7.082661762212699,-0.5319552763045696,15.521400130762236,-14.446063991017335,-6.308884169811476,14.220025181126198,-2.28593222620296,3.5307608188615283,7.014907491754892
-4.0205129481311594,0.0,0.0,-3.4168166786846506,0.0,0.0,-4.156473870013404,-2.7325580578724327,29.00131875485385,16.63263703401258,3.6590632120637325,-11.75074964384679,-19.166999054665645,-3.975727974463139,-0.0005464019066892941,-10.493763180108594,0.46312478217408365,-9.70000787253758e-06,34.69432860381302,14.994087486800892,21.364736140390423,0.8751609671681992,1.6586765872322626,-12.501940621562248,39.459786593170406,16.11364173023481,-34.91599513179626,44.372055340761584,-14.397487027393781,43.071541164309714,101.32213760358053,-0.010500723807280368,-84.23809085466432,95.07143192808286,-0.0024504876538377963,75.8678804528192,-8.831813593558374,13.468591351512348,0.009245292527165537,-7.501071596587996,-8.61319677727605,-0.002817685507522445,7.2757279585534445,-0.5672078877482973,15.98137558690411,-14.210794968530795,-6.510318891444217,14.637626575976169,-2.596211790852102,3.4523066865867733,6.959429433900582
-3.5537901488183454,0.0,0.0,-2.930594509506196,0.0,0.0,-3.6391795132586098,-2.750657101274258,28.534662510321102,16.502495245205345,4.543139454310998,-11.0895830817171,-19.878167896668817,-3.969259416880347,0.00012789314016420895,-10.496524103628497,0.18888864871687308,-4.90929594962188e-05,34.938341136927235,14.974626995763582,21.857799497988164,0.8357706043056621,1.4423115390577623,-13.36859895934517,40.792383479333814,16.790298857994042,-35.73914137301772,45.89405427890922,-14.423869606731456,43.576260285695795,103.15475721282232,0.004884538166121415,-83.22737144100252,95.39363923102285,0.0008432757945859644,76.49685668966383,-11.605790048609842,11.242995925524834,0.01864730864119811,-5.780764600227375,-9.276422180529597,0.003883829970921174,7.517888117874669,-0.7187395101532077,16.233819703802734,-13.950620907463085,-6.743747224771293,14.818265908661637,-2.791890452384602,3.430533266933672,6.883601653922261
-3.374909366226841,0.0,0.0,-2.8068557066246798,0.0,0.0,-3.1019669756732178,-2.2351776253477706,28.258359923532215,16.68172547486794,5.302050539795768,-11.365666842154338,-20.587693148521716,-4.203328313737465,-6.614987828418605e-05,-10.554219118547156,0.08662341975607143,-6.274968783268102e-05,35.25337848722885,15.098200066932945,22.42937186015591,0.9528471629648637,1.1921948098655293,-13.152012555670549,42.272802503933875,17.539546483785692,-35.756342867206705,47.547166027186066,-14.116019651261862,44.089116544389306,104.61120079043307,-0.0011309159630255644,-83.65420999926411,95.45072504505801,0.0011146188382174778,78.35926781295112,-11.537496205081366,8.952044804087182,-0.009172695181175626,-6.6504838168027955,-9.261267092256325,0.007620789259439639,7.533684896891615,-1.2443042024589375,16.470305227410968,-13.935456448301833,-7.319391521562949,14.846164889401258,-3.0150016591471958,3.409427918129844,6.94654994961537
-3.4616279007783843,0.0,0.0,-2.9074916423908244,0.0,0.0,-2.710489062337764,-1.4017530009523111,27.988423895746852,16.842218042740992,5.415840774086866,-12.122557310232079,-21.312612445618015,-4.382602601345322,-0.00030592520043647294,-10.478661455022968,0.19071971795264323,3.78111165654997e-05,35.555343021807175,15.09121171275369,23.19564811876968,1.0254361654304824,0.7819042896774627,-12.309247657727031,43.75369483752096,18.3314180182387,-35.729427913654185,49.49015198858971,-14.04770374797822,45.234644986348705,105.51702518245985,0.0003071737118678215,-83.47225208292646,95.61734531405948,-0.0001512898955580827,80.44071505964048,-10.867159192242651,8.810809219897429,4.9040133571192374e-05,-9.477564524084388,-8.959578465471848,-0.005955354937920566,7.45145842838707,-1.6957025251726277,16.948809082276718,-13.992507786261298,-7.91448359289497,15.128736581449775,-3.2525720980424833,3.3120612406479633,7.069724076257944
-3.369411722209041,0.0,0.0,-2.7019109037073954,0.0,0.0,-2.473230626768634,-0.6978407966764306,27.868981436471216,16.83864195982681,5.835986675553818,-12.205258691059775,-21.867814782965198,-4.67639980584769,-0.00015055923221092527,-10.413288823880706,0.06647844258907418,0.00016102986181464477,35.648316997176074,15.055090027205718,23.474778429192536,0.9699436014459345,0.4312873785693157,-12.163320817221843,44.70065543995344,19.298381609757065,-35.79084037620259,51.24417202216967,-14.287933388896711,46.427687655430944,106.66287726614905,0.009690710586608564,-85.56614297816267,96.16787442403185,0.0010695113767029594,80.57432002718458,-12.856795660787833,9.310377884235548,0.001170529891623038,-10.79491621001954,-7.443600241837476,-0.0015225051216999307,7.75361826701032,-1.8757335828990245,17.431763143311365,-13.650893925698258,-8.258387535602058,15.516191188993472,-3.590953944473042,3.241021103855238,7.2327527245260095
-2.714445970690286,0.0,0.0,-2.4142892463754793,0.0,0.0,-1.9468538051059807,-0.6211786105241187,27.62910732116927,16.806797548890454,5.775005759509049,-11.879616279587513,-22.641558896939795,-4.774757956923059,-0.00018483320036274332,-10.62320553478695,0.10702303066208045,-0.00017883826386365799,35.824723682624615,14.97001478984574,23.32593122069043,0.9177637387630388,0.08468327109611008,-12.549356739896009,45.405307794437235,20.505126335834067,-35.61948958888009,52.635208419976934,-14.635661384964257,47.50900412261553,107.63832738642283,-0.0025707854728237675,-86.66956804808804,96.67841583656201,-0.0007761503397796575,81.07016004315666,-13.818842475830754,9.586737332260421,0.0026356635215400467,-10.878056159776435,-6.412771012045939,0.0005124394260234478,8.30806579438792,-1.8825235491266983,17.76621471663731,-13.062232492438145,-8.386618384993094,15.828255327502417,-3.9399419790225765,3.2881410303416887,7.214197694717179
-2.3586711688479487,0.0,0.0,-2.714290995891748,0.0,0.0,-1.5483245345940007,-0.444114768096574,27.922985217953585,16.889075032662593,5.200365101300324,-12.359726619217458,-23.481877184594854,-4.888227349200818,7.089027441941812e-05,-11.039927882736299,0.3754140679054305,-0.00012843465895756746,36.04022141919219,14.916893672901374,23.0598267726613,0.9309490924378107,-0.3090515197921359,-12.076205568844337,46.16320269257909,21.710377780738916,-35.25106771086551,54.51542450980709,-14.980883873247127,48.92467977933545,108.28413548175848,-0.007586396980454398,-85.29529615290559,96.71377101695586,-0.0011872758798059453,80.99526315592209,-13.058798141459842,10.214152736974443,0.008450378237775388,-10.72520281585734,-6.9925991844248045,-0.0002084168180550147,8.8774356271499,-2.3387243827577295,18.07555931983251,-12.485748723185802,-8.924090055844003,15.95132951064012,-4.413309821422554,3.3518265911983316,7.209198660274033
-2.3830027048155853,0.0,0.0,-2.863583281713034,0.0,0.0,-1.3017894627970588,-0.09329327989203956,28.336677714875954,16.891554937884056,5.575380650625728,-12.488766728461403,-24.05631995009902,-5.042059585556145,0.00019123592341891893,-11.643163279975465,0.3321042952970555,0.0002838379812880604,36.19959388126189,14.958233828125252,23.207333423438136,1.2258911918723892,-0.7300159043184126,-11.884281991552127,46.94142324992044,23.226835529795295,-35.0335025049869,57.1950045040612,-15.069950559367363,50.3131271492682,109.09605545382362,0.004324573574350873,-84.89128143513862,96.23733816781802,0.0003574158926426979,79.69418090682946,-12.641744031386708,10.627100948246891,0.0057595752511777456,-9.61080973113274,-7.541287386969952,0.0026778320269995677,9.244978483137132,-2.816693689858014,18.051008063424742,-12.148805866605363,-9.360231305217681,15.75173014515192,-4.856312068263692,3.185952910560368,7.610931808956869
-2.131573243414495,0.0,0.0,-2.4306039302502787,0.0,0.0,-0.8240522189187217,0.39928001410404185,28.700546141405486,16.733242736568638,5.8825911702075615,-12.020103342145866,-24.65845790443655,-5.184606312646507,0.00013262126542155914,-12.242670983526356,0.19948473713686782,-4.091613166705348e-05,36.5667072054817,14.897471391825437,23.05208310673901,1.6715906986525977,-1.0886545792165436,-12.721669775259029,47.59410012851919,24.99391816125842,-35.108958571842514,59.4991227767928,-14.888412412618333,51.38366182245909,109.83326033013513,0.002017175169691669,-86.88874136975745,95.61281295503554,0.0015849745393686399,79.83261031962986,-14.065827596430758,9.946595644965493,0.0065304105881174865,-7.525683787805694,-7.422548975886225,0.00020790384240130098,9.330100321682806,-3.131179979419125,18.399121214866785,-12.046502789515289,-9.779822214896416,15.96371335151542,-4.955219101136882,3.1512760851272934,7.90684680872241
-1.5435280096230521,0.0,0.0,-2.300056568182264,0.0,0.0,-0.5128168239197652,1.0107000600184775,28.479653080854323,16.823973644980494,6.503362394778353,-11.80132886681178,-25.400433385003698,-5.009993939969332,-0.0007673915835148999,-12.777029671810606,0.03450901685693019,0.0003303335423042629,37.01477857053917,14.717447576917841,23.286536082388505,2.01894294896018,-1.4112001174494055,-13.194471557424375,48.4490771257333,26.61554240334579,-34.9233808866019,61.67527344828892,-14.865184981828595,52.94500095384003,110.51195908204534,0.0022246767577687216,-87.3829411208634,95.44228027753105,0.0011430066399727924,78.32092439793499,-13.798357127969382,9.339773373805164,-0.006306979634227449,-6.474994346382396,-7.403748857624821,-0.0010140434349967537,9.350434019005428,-3.4375858094163667,18.95200335574665,-11.986711989914113,-10.266205738266507,16.372425122968806,-5.064379435446433,3.236968632870021,8.198907880052936
-1.787544010209997,0.0,0.0,-3.0593414514095967,0.0,0.0,0.15362742937714216,1.4081091167166284,28.52737394381645,17.094930480820402,6.846532273633189,-12.247045665241126,-26.14297909268415,-4.97408320134765,0.0007088303248809908,-12.972348327107053,0.1298084399399492,8.043217560434434e-05,37.40507064013736,14.317586923154241,23.26468864247299,2.049488101107843,-1.880048029158026,-12.939735624226998,49.240861323995915,28.35578099504063,-33.76042397916862,63.62723224550892,-14.91407594042025,54.68018194858372,111.63260882600393,0.0001891214243656272,-87.51770397361672,95.52650506080937,0.0008139500220988139,77.12135075539001,-11.527836032094546,8.12179083442452,-0.0071848336186585305,-6.408909714732687,-7.3371071899032145,-0.0011903172661056067,9.474757027181845,-3.5894921270004705,18.63738995368004,-11.906181671667463,-10.29331417747801,16.018974615825456,-5.232610099704669,3.0363343881447564,8.445934327939378
-1.7701127614751975,0.0,0.0,-3.5069565228873953,0.0,0.0,0.9999890710814903,1.6689276211054456,28.71827373028947,17.025664709030956,6.392854746001815,-12.757005345690294,-26.69925984344397,-5.05044981895711,-0.00019356310967041934,-13.07921452803118,0.6569909856762243,-0.0001899536853186563,37.40436856794536,13.685771362574554,23.10931038468674,1.7761646486287672,-2.6952958321879157,-12.676292870317376,49.66560554377646,30.094087255302536,-32.52326980358424,64.95710345184891,-14.770427572981008,56.378208807241855,112.781437464611,-0.004911010493715535,-86.09182912198773,95.56875302659022,4.118023629547964e-05,78.47446333973295,-10.509874870477846,7.820549032594634,0.0016165450717032597,-7.334528504800698,-7.48759415863421,0.0018959595491325467,9.783678877105272,-3.8823006135388987,17.920696142740297,-11.6909746449855,-10.304606003874577,15.233624627920188,-5.332383496296718,2.7176875067841975,8.798710380852285
-1.3321932844123487,0.0,0.0,-2.290584525129667,0.0,0.0,1.6412915424139587,2.0573854176582564,28.71211930062417,16.473521097539027,6.464994479877866,-12.680579225814355,-27.300088366967977,-4.906655086144922,-0.00024309675941889996,-13.42065033382629,0.8252540372072806,0.00023033645623755854,37.476971609877126,13.128572952858898,23.19885154407732,1.669464279738361,-3.3203591146538867,-13.058317110630972,49.9414750184201,31.772659505740354,-32.21530041152552,66.53576910611109,-14.724805661867759,58.52787290936196,113.37352295693398,-0.003959178861203708,-85.28402819261525,95.43612354805853,-0.003142060209099697,77.71638411594977,-12.093577640077232,8.217791579974156,4.955677137808918e-05,-8.375511617940084,-7.797154531405864,0.003988807566929637,9.896699657286058,-4.096966618781255,17.119827844606633,-11.6709880022204,-10.211212193781547,14.398290071137627,-5.228519646951929,2.4505650819438967,9.360662544717696
-1.0111899529204549,0.0,0.0,-1.3131778390626767,0.0,0.0,2.480642496020923,2.12830780297457,29.22151667429313,15.86616148471419,7.431007088233876,-12.71763010282344,-27.91929715028326,-5.021286866057649,0.00023791225546142817,-13.810484096888445,0.738581581265372,5.220775855872554e-05,37.438163060061356,12.798712655936818,22.77951776945077,1.484382189600235,-3.703475771755351,-13.236651222790405,49.74577247265064,33.89177682497241,-31.520601058411057,68.1205219997014,-14.503281125029016,60.58626130451752,113.98729050256841,0.00899901273068053,-87.27925521169254,95.18152619286425,-0.0004096876677322205,77.20245359061263,-13.856086363600113,7.559938805914026,-0.0006920796147801,-7.76519088932169,-7.470074540020686,0.005636632962142782,10.047626088865858,-4.005053812982839,16.522269531551558,-11.57015965499951,-9.906392159321394,13.869752743040312,-5.25912106209987,2.0554914417484413,9.932624142542592
-0.7167962530865959,0.0,0.0,-1.3012928142409865,0.0,0.0,2.9076466135874264,2.500982353165223,28.831507060494022,15.377400615034224,8.687884724242105,-12.71602243064694,-28.38657452214358,-5.095766950814384,-4.4600110810162566e-05,-14.4669815386936,0.6882569432365006,0.0003459668535415658,37.43272363671666,12.38614623453042,22.477792564665666,1.52047599775648,-4.220863987014166,-13.60548728421578,49.173140157776956,36.64921463294828,-29.81302599111218,69.36965993799555,-13.813127830544326,62.526828537806395,115.14988154604987,0.013740818821362783,-91.56668053300122,94.55698229360402,0.008714187013382953,79.85581846797713,-12.58579096301435,6.345132650018166,-0.008201460359644013,-8.128680241417833,-7.406063630540641,0.0013336332205984025,10.376545169008672,-3.837601110347412,16.450949276243115,-11.237136411398765,-9.724512874278574,13.865226794311134,-5.158823627629946,1.6395386982807503,10.140944892011651
-0.6740827906690733,0.0,0.0,-1.3569479353548508,0.0,0.0,3.040791504951965,2.82471306173227,28.31526071734639,14.840430761386296,8.667774537813353,-12.471591708558547,-28.716049551324588,-4.951329531949934,-0.00024099988174930542,-15.674562957727497,0.7149478501186882,-1.1932683062719566e-05,37.77533038357982,11.835816144793807,21.70772131427606,2.049536469463876,-4.5470376150034415,-14.19632682251147,48.82620849764922,39.44445995166759,-28.607763942518588,70.51398139550389,-13.1768623100743,64.32723435268065,115.93575485239957,-0.007433382042378734,-90.85964964372215,93.34256388574263,-0.007402976425466791,80.44669092601264,-10.448406793473831,6.5783951876302815,0.0081242563182656,-8.892826963799626,-5.840069708820759,0.003691599348190771,10.869211461284793,-4.027661063394321,15.786632754670018,-10.816071488000357,-9.65664678163719,13.169172529235258,-4.847653957213036,1.414748480921062,10.888573221179277
-0.3245342198573369,0.0,0.0,-0.8123150535241799,0.0,0.0,3.1212272585220258,3.5179881111359106,27.468444444737393,13.821474198643928,7.844322448765476,-11.471293915089074,-29.10896700516677,-4.4761501933796515,-0.000297652807692006,-17.158268231297136,0.9717724067830567,0.0002081188358114088,37.92687023445777,11.388406778810024,21.68504116068443,2.4352057134126994,-4.836659259876749,-15.581201704667906,47.16532350643061,42.51976802702602,-26.694530564255523,71.01200567495566,-13.15618321453866,66.06279065869826,116.87043000468563,0.004868977504399027,-87.23883098557961,92.43364981112765,-0.0023858346237911232,78.61988897852284,-8.491741829649838,8.096665694051108,0.0007681502882309063,-8.616348532189283,-5.131935890202703,0.0005996550493402937,11.46312120594554,-4.020524073218852,14.540019417813621,-10.32595391866167,-9.189464370309288,12.000940381388709,-4.474743390645072,1.162997397296752,12.147518054698713
-0.055302502049657254,0.0,0.0,-0.5830688554833824,0.0,0.0,3.2411685723850883,3.4817184615512726,27.01264535478156,12.584285092030076,8.230614751770583,-11.305308027457306,-29.5300081806251,-4.178959831714211,0.00044109736030945637,-18.67784879655173,1.4389499669392263,0.00166057715535924,37.82375809229027,10.785395472897633,21.294312883204753,2.5713269566604895,-5.380786150890247,-15.993858637600427,44.797416984961316,45.89807577063572,-23.893803647815155,71.55395879279867,-13.767138783235021,67.72920981981154,118.23522884830197,0.00014343897855640005,-86.11059228395699,91.70721071720044,0.006302744462327175,78.75505249839506,-7.511042016811492,9.539042788376074,-0.005151039210872009,-8.459526962421917,-5.903644168069739,-0.001787454162418729,11.559546180399545,-3.666447578489952,13.609795133869348,-10.280888416250761,-8.515833601100786,11.262052170425672,-4.223391514543297,0.5473767135847332,13.167261745599493
-0.06656275770459594,0.0,0.0,-0.15886909781614478,0.0,0.0,4.044332723796056,2.186108258899098,27.47998466968896,11.22364612497043,8.818561903316228,-11.939386229716249,-30.117167815621634,-3.782081629031914,-0.0005799562685182859,-20.54045215824907,2.2525116680660306,-0.002084852724199032,37.67640024664121,10.042111362406658,20.032990547733522,2.7225520222935993,-6.047990773468621,-14.990199661723533,43.60120573546907,48.78176732973393,-21.883900533477686,72.21018546440308,-15.923326645366483,69.896298667143,118.7809395205314,0.001231420944031438,-83.57376126443918,92.0943533637124,-0.012243265252561591,82.54040225211124,-6.567664758132716,11.8703786836521,0.011105060923790865,-10.542630757131878,-5.155452222048936,-0.014763985895138831,11.172348128539415,-3.532472057585189,12.110906040119596,-10.766212586987935,-7.833787534436028,9.910187163406942,-4.024481556989981,-0.08762442440117904,14.393515583460996
0.10332942279314158,0.0,0.0,0.957820867062756,0.0,0.0,4.529008413652588,1.4747224200335158,27.590778166371486,9.583997057668256,7.635855159831964,-11.375377390335423,-30.570520787734196,-2.8885328994806736,0.00010372076965624525,-22.88611633670819,3.460818062730933,-0.002004889270321346,37.861900631248965,9.005647428681424,19.182908519436836,3.2870952697509606,-7.015860955222334,-14.958378642156609,42.64712519303539,51.70021099271341,-19.789061389527085,71.73340576562693,-18.708785477604994,72.5558880491737,119.16621737918915,0.003581427549284492,-83.23943931626049,93.06628648406027,-0.007133557001018585,84.00307681063735,-5.606210787058194,12.935982648346044,0.0028647998863037356,-13.025677673804266,-3.918198798391138,0.001511346487232919,10.659886746973076,-3.50208585083905,10.03456815027067,-11.40046050240604,-7.0292149941654944,7.983872459687746,-3.099575700219652,-0.5951900317119052,15.407611339247852
0.4314844796852032,0.0,0.0,0.6717929025283034,0.0,0.0,4.523667221715321,2.048185221210348,26.903029944270077,7.82186880274182,7.599869384380099,-9.863006694651133,-30.401503069887234,-2.4401064470032177,-0.0002682097844287559,-25.9569653672103,4.229100753045044,0.005065423350873029,37.72979727634778,8.106647486146063,18.415551195571666,4.161006967616546,-7.900893272168283,-15.737357128006488,39.85576959707316,55.053278997938214,-16.00052301338965,71.06768804220928,-21.465305385531295,75.15772990434968,120.47171894611675,0.004168102864009925,-84.7847514624032,92.12022991001395,-0.011008932189274383,81.90768815472846,-5.009734559314082,11.651574812978177,-0.004093751636292029,-12.40511819385701,-4.958124371587165,-0.007514015624497802,10.057384711601122,-3.3631181298596795,7.805060860905675,-12.10008143884687,-6.062774499502315,5.961135096752188,-2.075985584715946,-0.7869672643421579,16.068811273726343
0.5586422946500245,0.0,0.0,-0.7165127248957003,0.0,0.0,4.815895908863966,3.0924408834966415,26.655159172032967,5.383056230759021,8.550041124152205,-8.454932235298529,-29.89045609739687,-2.8163431616148813,-0.0010291921501033824,-30.250827338544614,4.783948130480291,0.0007650389583043781,36.72860165069658,7.681714185882576,17.059729003966208,5.140965755663972,-8.613029940112506,-16.017883446976136,35.59629663980511,58.69922120408671,-10.586448040101049,70.65990516762365,-25.39384143517836,77.64056803297969,121.86414095386232,0.006211854436575919,-87.14873415926789,89.78787843786041,0.03743794714574826,84.43826675586348,-3.995603868378672,11.124360376855359,6.172458374086026e-05,-10.253380242555496,-7.798224143067044,-0.007183512696412666,9.27734150861608,-2.638808409483553,5.128541034593307,-12.941246573786618,-4.382605991757703,3.7505765846626855,-1.743729488401512,-0.9054054336343808,16.933330105069743
0.9639125569456639,0.0,0.0,-1.5034710170277854,0.0,0.0,5.224096228759499,2.869718597325348,25.72291512457967,2.3855965377025465,8.443547083756364,-8.18966548576092,-29.666260085915766,-2.4435468165900724,-0.0005138432192597493,-34.56415967883756,5.784001358848564,-0.001693894312070334,36.01446708959025,7.180573204322539,15.909094111609406,6.362399315077839,-8.897058829831517,-15.003085375725632,32.4106154096666,62.18160745933048,-6.098070100258082,69.7203956786418,-30.366628402785402,79.80510460352941,122.27182518211406,-0.0012868246506729621,-88.66799429687319,87.6683547133538,-0.01180053520498558,86.59171724224039,-4.227148990036418,12.499335371186685,-0.0012001113837403878,-7.7435534117340765,-9.591571005537675,0.0017060814045604296,8.61261258701829,-1.719539736508723,1.9973817160507208,-13.636772070227853,-2.3476106714439497,1.197785656754879,-1.2158005433431376,-1.0516684530441403,17.765745663587477
0.7800345548408101,0.0,0.0,-3.3627925505653273,0.0,0.0,5.864971873037654,2.5221392718550493,24.06686089750552,-1.9678532036581315,7.51700869325629,-8.126943685055828,-29.405072945111613,-1.9833429891089882,-0.00021778826013398587,-38.84689722787525,7.336685243008018,-0.0030877171357343984,35.6610824986436,6.762519933299352,14.052720157230535,7.93532911043492,-8.664588282226555,-13.857230104677148,29.655048781177978,64.64890925417915,-2.1883278957612973,67.8888189843409,-35.708465038302066,81.70638779743778,122.64685315637975,0.014175776506938471,-90.3694000858788,86.28315407858058,-0.00034775012018438975,86.38410468110202,-5.166539155139708,12.71168009747181,0.000534976278352183,-7.092711093786435,-10.571574713944889,0.004098444444283712,7.177112571030819,-1.0356929635271677,-1.6429891520942754,-15.057598863776342,-0.3367968061621608,-1.9126967894868474,-0.2588950027116825,-0.4238912763166954,18.091248072403264
-0.3349280063024802,0.0,0.0,-9.131705365843283,0.0,0.0,6.79797824134483,2.3061044925459266,22.317285686025883,-8.33922018243308,6.870097173381857,-6.559780222306274,-28.904783491718405,-1.7441400421741635,0.0003304687756036507,-44.002940845213274,8.503927209813611,0.006966537842043168,34.74237237416986,6.686251709013624,11.940239417394078,9.624629817508914,-8.578161293746401,-14.313652018798466,26.09450517684411,66.3807832261529,2.4851721252533805,64.9096803612856,-40.68958938027574,82.30717057419989,123.73750291646877,-0.004377017579131141,-91.06864673151665,83.52406445095043,-0.05277631716163679,86.45690725021922,-6.6126702631653425,12.444692444379127,-0.0034546005450403557,-7.491057107263388,-11.729889726223714,-0.0026277651170589743,5.409999297674355,-0.5870252659732096,-5.133056654209573,-16.74692822089131,1.397229101145721,-4.974393540073689,0.2962768568830821,0.9083875392193925,17.78723944334688
-1.1257678726920708,0.0,0.0,-16.669113947348208,0.0,0.0,7.174314331280737,2.5779079571687995,20.32411322787931,-14.883969271253374,6.066059882223832,-3.647529145477674,-28.49749078209894,-1.4443506003231055,0.0004385163481995086,-50.684559910311975,9.534656447066661,-0.013167067608858714,33.33205531435032,7.139012142743486,10.544463110218977,11.842210707315095,-9.063962177167888,-15.013769635738871,24.29325145760752,68.10706010442978,4.750798752961936,60.08746908870422,-45.35181282893086,79.69540359571192,124.43532488486126,-0.003307759771306721,-87.37855513581174,78.59362417332184,0.04693927063338789,87.28370987283267,-6.891558491527278,11.44248204549633,-0.0035367273241982567,-6.865116746063726,-11.845755742439708,0.0022814872890950053,4.173060103646423,-0.19649429816364683,-7.8819540091623415,-17.877256548567455,2.793541453663433,-7.375829907274764,0.497421292371836,2.3484616339480677,17.58957249887049
-1.7049665726717094,0.0,0.0,-19.977533657919107,0.0,0.0,6.798415884051176,4.067430773530745,18.026615605534182,-19.495940442382363,5.720806042554492,-0.6978455190894765,-27.742789471436144,-1.6772961830735442,-0.0018774927126426943,-59.11791410947964,10.311919625646691,0.005099968252834606,31.55344420373743,7.913009399732538,8.939917119586395,14.981093130280321,-9.811221021480906,-14.945035267402746,23.263999880975756,69.1700179520081,6.264024921702233,52.378837163954074,-49.76742820199517,72.6941146060322,124.53968575792095,0.003103491791991914,-84.93339870912122,73.52611291066367,0.020209787031855095,91.78573370100577,-5.847635085768716,10.215043609203693,0.00029629788041732916,-6.0570610569537084,-11.50954895782042,0.007216607343569552,3.2004777575569636,0.9330080815789693,-11.060625235050875,-18.697572028106798,5.0304975306861195,-9.906763271182406,0.512609980982092,3.7611580593275318,17.67529917179559
-0.6535303921527865,0.0,0.0,-18.58719322505064,0.0,0.0,6.131267451832365,5.733695310841109,15.846452270845925,-23.484132340882063,7.2370692231936005,1.232102183045322,-27.117221531128713,-2.0208847172431765,-0.0005461923927024962,-68.71505022345256,10.46866539110767,-0.00594382549736117,30.28562710710268,8.76440697677882,7.327268218079745,19.4485931556668,-10.539740486797298,-14.198589657969215,23.244408175127084,69.51948769455767,7.446275070850209,42.977858331140716,-53.139662931910394,62.92789722273423,124.518706950801,-0.0003259864686733405,-84.41288758397666,68.30287015631639,-0.08524939188085477,92.30559075952398,-4.757064272655162,9.89220704379498,0.0017270943884720804,-7.762400566207623,-11.555531737473538,0.0019209119463099614,2.2477170288881174,2.3614061937545374,-15.124495062339296,-19.40049579984279,7.8640282619624795,-13.169976126279144,0.47784258237245986,5.152696634895941,17.60978999341262
0.9661941925242058,0.0,0.0,-22.376919766249102,0.0,0.0,6.165916354931126,4.433983672575514,13.895466970705506,-26.970502626783247,6.673462956082312,3.4769909566759396,-27.456318104748988,-0.8629089941830647,-0.002661785883013608,-78.43372308738694,10.191443806009904,0.03992409936564143,29.790989403392516,9.776825455526815,7.406458632265728,24.83544933644714,-11.709244568627664,-13.118127483625413,23.63647674911946,69.50046556356651,8.305413090786034,33.07722472159651,-54.78078512446138,51.286828740904554,124.72128192862378,-0.0024914152513250956,-83.39319132611033,62.57983357838765,0.030232683856016126,94.3081435721918,-3.822556918746454,9.663275326998574,3.167174558599609e-06,-9.118085824848,-9.372288467362562,0.0037653029417140838,1.0603903238201382,2.9549129335570132,-18.105746254438927,-20.33610051406994,9.508877117670439,-15.752197130437686,0.4612951147296238,7.026759898905915,17.19624153427342
1.7099880647735124,0.0,0.0,-28.314761166282057,0.0,0.0,6.602510028831332,2.071869007959635,11.778655801736397,-26.81990755206024,3.754535365822548,4.231091427033427,-27.8618444776559,0.2387572441944178,0.0005214607922593026,-87.97616985933392,10.206564924402075,-0.04596015457024867,29.531405091011617,11.261409449248418,7.453017452711661,30.690223036115285,-13.58199208024242,-11.486968749575013,25.190866140436718,69.2309554341702,7.8846378954621485,24.88893204796029,-54.96810649520079,40.180407603705994,125.16351224840616,0.0029276399734259025,-83.70959849985924,56.57262994950351,0.08266583802965477,100.94842539965687,-3.880083162119476,8.308216004366605,0.0037703640034619664,-10.465508916102841,-7.196123093565473,-0.0033359037014804235,-0.35532948750209564,3.896709877563494,-20.219980994501352,-21.58209541662866,11.153307993312808,-17.402847061345728,0.4490462882155253,9.302828045245993,16.409993712994158
2.4403821654215423,0.0,0.0,-30.463154091934562,0.0,0.0,7.192642966991389,0.9978427752997,10.423034867231785,-25.263327325518304,3.133458181307192,2.1664141699142374,-28.08828300576014,0.27792176034361105,0.0004031119391049366,-97.40553601672701,11.16550465309538,-0.026239763290488053,29.04138703200754,12.37318054597718,6.503423949960991,37.16529070789587,-16.50503677188247,-7.2360199006982,28.5036088201053,68.81606764234854,5.812516431370573,18.057843314264808,-54.494556923858404,29.801262391906352,125.6046319874122,0.001659278897072039,-86.3978292058364,50.3923423344871,-0.025877369607279953,105.37475830601825,-3.945047681013915,7.06954070993402,0.0006713086381327077,-12.030115955718523,-7.355493494683941,-0.002439794385275644,-1.628930562199951,5.136768271820723,-21.80264917019126,-22.762514713315948,12.879640002189058,-18.44890083743356,0.36374013828879115,11.00623153505277,14.991358643885613
2.4407868214633677,0.0,0.0,-32.76467365905439,0.0,0.0,8.194197452629187,0.36104655792068957,8.98361020194564,-28.336248998349184,4.6780299536961385,-1.1765352826338147,-28.384281657305095,0.4684689652238745,-0.0003857640641712588,-105.21602548308812,8.886630967361256,0.042612966306581776,27.66611600273738,13.36939731129135,6.087405105615011,44.088485648600425,-19.484733260254636,-3.907121936262812,31.374459924943864,68.35641135494288,4.080389773550072,12.28017973622029,-53.856556331134165,20.572998366739682,125.5370332264687,-0.00010687975343592861,-86.35562517874371,44.8012705861577,-0.0515851489673969,104.48350431269904,-3.8620475521887174,7.728717984316213,-0.00038032956333342656,-10.875370543296887,-7.844624365441575,-0.00046991228214587964,-2.5198107488107717,5.702605586507165,-22.462942115310533,-23.61928550150857,13.64429532512966,-18.869474631399804,-0.7012825890956716,12.813880643987517,12.907076144664412
3.198034657059744,0.0,0.0,-38.71493358382947,0.0,0.0,8.708425930299173,0.08414838527485742,6.811807779972727,-31.535496930190718,4.58283782511535,-5.519046992795207,-28.663812355251718,0.8779663215719797,-0.0002603502971289562,-110.23946596304891,4.517162071954595,0.007005684938564755,26.253029452342346,15.378742083171295,5.976890803417133,51.0890077628601,-21.572931382039442,-2.6227328920998105,34.643296804221336,67.69602952107972,1.8203524344575097,7.406985167586175,-53.48220634761695,13.304853584785088,125.62035572743349,-0.0013678150997623142,-83.3217527765415,39.92697318886357,0.0019102943599507293,103.47527830806264,-3.8556656854470477,7.358870288601675,-0.0007972432207573426,-10.747388486067905,-6.909338655315023,-0.0013865744371996133,-3.115716926284789,6.34422908435049,-23.16874656374999,-24.182964365425835,14.495458024957916,-19.306701919113376,-2.384027910045307,15.69442918337685,11.010818109381386
3.8544297000196437,0.0,0.0,-47.22304679162979,0.0,0.0,9.319676088356362,-0.2523528529267157,4.854336815938483,-29.770042522615594,2.553206690741433,-8.807213620797091,-28.962436409421667,0.637893870873211,0.0007016015015883091,-113.2659663604556,0.07879328386170169,0.0031251607996007594,25.052272336957273,18.08644384458959,4.443986030875339,57.63391495568469,-23.926206976195783,-2.1278798823594016,38.99404946259049,66.81247791084718,-1.5063383733712106,3.0377314411759184,-52.942435188515056,7.539416105580222,126.06006196971109,0.0019314677227939858,-82.67163132095534,35.50544192823423,0.01514032129132939,105.86538723732951,-3.4916061869718513,5.970708762638403,-0.0010723951277766118,-11.69681421141322,-5.6544953017347765,-0.0013305204291689126,-3.4680943127055115,7.319163640960097,-24.48334585183583,-24.455978035206737,15.873813184984858,-20.206668249023316,-4.122718979735205,19.18995712639446,9.021411014616637
2.6376269516435897,0.0,0.0,-55.53580061384811,0.0,0.0,10.177240578982191,-0.9838794737416774,3.3854702876397402,-27.41997348745826,-1.0442870589654238,-9.064000507697948,-29.387837316479363,0.5116686234051823,-0.0004937440670934528,-113.72410530598964,-3.2966598914894094,-0.009313455973171318,22.944546423474968,20.27374505246053,2.8364847997810294,63.66002661103602,-27.24461612119393,0.30703342042034587,44.97343110968559,65.9099019795954,-6.924462428674502,-1.2274462832765483,-52.15390115544591,2.8722666324487736,125.83543859881235,-0.0026373887207204213,-84.15193674465904,31.56460153144377,0.006381373222051139,110.20703608703772,-3.0954471237110988,5.544818773415769,0.0006462470890095277,-11.413927546075211,-4.335507272652436,-0.005094669510132077,-4.11050968458229,8.320795700800483,-25.78323560479324,-25.02394103700492,17.26970151001678,-21.08778623450395,-6.6741285197348885,22.085522705656786,7.014408120941968
1.022697199532445,0.0,0.0,-61.73291576232407,0.0,0.0,10.79425281429736,-1.6627839388668957,2.7004791828104726,-28.6950983860194,-1.848907282161778,-10.013410053039602,-29.68117735402686,0.9003569772898736,0.00020302893667954847,-110.70390974603653,-5.517488433544029,-0.007586708403040545,20.307601803976606,22.209997168263946,1.9530645241143263,70.18396228772542,-29.904820637061977,4.791009572134441,51.28826025026601,64.3279436160507,-13.190031738876401,-4.964375700466268,-51.378116302905646,-0.7897476897956764,124.42719538309473,0.006467782933774311,-85.54373370052502,27.679149090387547,0.01718430953705179,115.58789425471328,-2.7330324750851136,5.836344714150735,0.001188991831089247,-8.5853345821601,-4.50553197166319,-0.011427119874236396,-5.030645848789596,9.37655963961846,-26.33586005544598,-25.986303660072632,18.45085864749051,-21.227281836739515,-9.595881895358758,24.989848798326758,5.535496427486588
0.5614813810949834,0.0,0.0,-65.99398529603967,0.0,0.0,11.08867110439777,-2.2911784988337893,2.027164388053315,-27.80467907560973,-0.037981693900141375,-11.612237056247483,-29.583224408121012,0.9134793865068376,0.0009751682011358313,-105.16967217259325,-6.602757238409874,0.004563485839404152,17.64391031293513,25.2777619694369,1.46200637454783,76.50500897173413,-31.72334546301725,8.653560288939248,56.803167522089005,62.654490549519295,-18.71588164273589,-8.408431248069997,-50.66424166246078,-2.8103314838222726,122.962987363554,-0.020443854120201655,-88.73718864244121,24.53565471994413,-0.02175027333840788,120.06194247915643,-3.5928118028194604,5.608153846121959,-0.0002940497864054306,-5.327090062532998,-3.87909230341127,0.011111002174692724,-5.747310981455755,10.682781318980584,-27.018711798768994,-26.76622180111935,19.911252100853087,-21.396689458002104,-12.184516684233406,28.431495882841258,4.622713540685775
2.7296270273120227,0.0,0.0,-65.64287389790768,0.0,0.0,10.590849600715671,-2.6589964895969014,-0.7504985988247621,-23.852847312976344,2.6618108321027774,-12.01924013465613,-28.758823496329125,0.4542864304404591,-0.0011085382181062363,-97.40040836421011,-7.094726833303813,-0.017189873135880145,13.342477870022096,30.23408237520029,3.0591766722286575,80.01486185263339,-33.25781651384736,8.935263317413318,60.697038523192624,61.177055340521086,-22.58206884912429,-11.213091618586542,-50.165693199675076,-1.3396100206424675,121.86029898678817,-0.004672700113331112,-92.6542096388848,21.443385992355005,0.006432081060829439,123.19401789057642,-5.172610543818221,6.129841978367189,-0.0035550366172348155,-3.772572619305512,-2.600471438989244,0.0009714839816379106,-6.52583961513756,11.3919593026173,-27.447327820997316,-27.575688908523237,20.72417065234009,-21.543955378076305,-16.185248689306693,32.24637040368709,5.0849956377489285
4.724476291050515,0.0,0.0,-57.82230345993419,0.0,0.0,10.406343542600075,-2.967360580403765,-1.8739173925921098,-24.806712496509288,5.068366583552703,-11.568359212863054,-27.397446242231975,-0.34527026562359436,-0.002475552752382692,-87.26771028839558,-7.049259871317865,-0.0036137330093137165,7.73860443262572,34.049559225427906,3.876912109632785,81.959353032181,-35.74729134946322,7.553521119005373,63.821248914404684,59.6129844639282,-25.717283050696217,-13.770844138839259,-49.80389594293835,1.9698983385135276,120.85694204163636,0.02120146030702563,-89.39233056353805,18.218669959896935,0.022482462116339492,127.72688361148667,-4.4394594969015335,7.154870417880909,0.004032323139469287,-1.345306130004383,-2.570840601844488,-0.0171702227876583,-7.75632589148055,12.067825048014232,-27.352131986291504,-28.913764802988783,21.321147040208853,-21.190095674422327,-21.02371501559503,35.32478558064619,5.808998243991723
4.284754848604759,0.0,0.0,-42.34802736494995,0.0,0.0,10.772729837163112,-3.381118264349598,0.07301351732143685,-30.86196023230278,5.175406727848802,-8.74062882480805,-26.25463900559428,-0.6712785471272491,0.0015961657930890865,-75.3311743937535,-5.731717606185394,0.09481932739506921,3.2269588686332247,34.71015268485459,2.707009435296074,85.29146598637865,-39.31171075666047,8.450673826847913,67.49385500603812,57.94496928553788,-29.58137175203524,-17.117691096033003,-48.64006578502546,2.859548163192756,119.33997322256283,-0.003459356908935222,-86.68883881693763,16.70426305503116,-0.008640093380302345,130.77473155643014,-3.949194910768703,8.305159672913893,-0.001956053653434251,3.2016776023146014,-3.083321497462764,-0.0037813233294921333,-9.03294769150836,13.304836276090793,-27.09830148707552,-30.407152148660384,22.384120380986946,-20.458063808881967,-24.452603529121074,36.269670847830334,4.714203824653679
4.343174394190803,0.0,0.0,-38.54492592490411,0.0,0.0,10.649888521432025,-4.000564403362846,-0.18736769666655254,-34.812528161294175,5.922330869451109,-2.857619700662919,-25.40980375518672,0.021794656277243626,0.0015348962439465568,-62.00513727011124,-5.367029207128067,-0.041527908008203204,-0.326828362608472,34.975150776647396,2.5498781422383403,87.65235327682775,-42.388500703662714,7.753818758236356,71.05176298526386,55.692501491965984,-33.10532650523234,-20.04665801514691,-46.80458497221764,3.7816921813732525,117.81167441303145,-0.013907524475599514,-87.91629620865827,15.981448313512747,-0.011973841125028499,129.07911989517817,-4.339265396161849,8.965016293493012,9.07011672826257e-05,5.380027902768975,-1.83051433081832,0.0005839276845753907,-8.910266079145448,14.858354084461162,-27.549504015026315,-30.463256431009466,23.99004593787011,-20.282792122200153,-27.518559991339153,36.75745934964212,3.23856219994596
6.140169242527087,0.0,0.0,-61.59998559245571,0.0,0.0,9.969745190981056,-4.556120348378002,-1.5784871763551236,-36.26314629281372,7.329878380767241,-4.748604227995611,-24.84559946059672,0.4829957175600075,-0.0004329449133869886,-48.643633039717905,-8.377956559130805,-0.10234242957525332,-3.2013281946411025,35.86852522111064,3.0704558307583047,88.63472374042045,-42.99808627458922,0.6763690135265372,74.37844596273564,52.60604614267854,-36.32327461530872,-21.762027709992516,-45.205929855875446,6.556134609428842,115.59750393466294,0.006687110712730621,-88.85263437793242,15.077521533760535,-0.0016421468489584493,126.01698572752801,-4.034633187912013,9.276605880010392,0.0022035639268790466,5.946132900139006,0.07936940159753675,-0.000589621443846831,-8.32158370932336,16.390453593903935,-27.750244157262927,-30.106532767918196,25.48525022582608,-19.857730897656623,-30.992996395864875,37.25122335272852,3.351277781148087
6.062974244531608,0.0,0.0,-76.52357949959232,0.0,0.0,9.814924079909446,-4.9583944413355825,-2.4522698213078846,-35.75022584196019,4.454853021574424,-13.413551911992808,-24.783774429195,0.4861158612656503,3.5854960677216304e-05,-40.23490326034681,-10.499964365920421,0.05086190101659858,-4.4053057640096975,36.803429539886565,3.2905108890796217,90.72366865571855,-41.54358272941784,-4.322345360856035,76.1481324198593,50.04138288136425,-38.590700541574854,-23.379203019335698,-43.857348454285706,8.07860846831474,113.36918612739349,0.01566482363934472,-87.0630674473984,14.821668932255617,0.0031825372264473895,126.0006385258889,-3.1669726130089306,9.256537918453484,-0.0012525048096835017,8.139923342344952,1.2089422391522413,0.0007264633140448372,-8.29360947030593,16.896522469092403,-26.93804682239673,-30.281823865393832,25.66478003525389,-18.848070799265113,-32.89938690896018,37.61678453487319,3.2048372742988884
6.167333082237834,0.0,0.0,-64.35295350051331,0.0,0.0,9.80696832392456,-5.389091028182696,-3.18149337799307,-28.402123337736032,0.3518496943926695,-15.005938139429496,-24.966537671838005,0.910116435538798,-0.00022212750322161547,-41.13546577379508,-9.511583693797643,-0.030368768115480574,-3.9864747206096527,37.74571198937927,3.5620956502045074,93.06866436725996,-41.12421796405623,-0.6875034155876663,77.45951907086146,48.531193571568465,-40.24991084712917,-24.931711435662514,-42.19796653322667,8.329544210837314,112.44518281846975,-0.008798106112231344,-87.42532217832202,14.625325910221433,-0.0017815434841629708,127.21969639109895,-2.341866746862452,8.751575995240612,-0.0006726616616112831,10.71080684899929,1.6587962804613159,-0.0009582876152571899,-7.732287786013319,15.867501589688182,-26.341692778376647,-29.620706091730177,24.496516652107218,-18.686601429425572,-33.484389799520656,38.35373787712988,2.4091814217459753
7.070354289025035,0.0,0.0,-46.91093391885127,0.0,0.0,9.675045066137699,-5.637600832295505,-4.381425666868037,-22.36182835584861,-5.5337285511271705,-16.171818989656945,-25.126232013851098,1.7947127630018869,0.00010390958115248411,-47.55833769656326,-7.488886245001147,-0.05434442643516911,-3.2919346530542395,37.67019898034674,4.622581013992054,96.18871174452775,-41.49992929694121,7.23739942057818,80.11857734258408,46.621002904822966,-42.60727082512819,-26.33033898252506,-39.902550073867445,9.312342808381791,111.06420168077818,-0.006654403431744466,-90.32963725081454,14.350182445753896,-0.0037178217490574667,125.41526198908697,-2.172482208332227,8.729042755381098,0.0012913095604988524,12.03316068521676,2.5474182810455095,-0.001777513369991366,-6.150896545340875,16.001905007846208,-25.877360979003353,-28.123255779974322,24.45444312945602,-18.17634564709895,-34.11170201338821,37.92506352063349,2.5114014615190934
6.553391348720357,0.0,0.0,-38.177334710874135,0.0,0.0,10.05869974197953,-4.7401173419536375,-3.8330967633697517,-26.685025534595407,-12.401070625247698,-18.656686218431556,-25.178227366256202,1.6789937917762867,-4.563673306207346e-05,-53.80980165663689,-9.680452991678788,0.07033025795981022,-2.6621267476011563,36.61439759710976,3.0447190455331508,99.51612185008386,-41.09404029302925,10.469977816321997,82.08508595505148,43.907901793329586,-44.91283954156035,-28.536198452193076,-37.51812357139476,9.549262771777837,109.46989586963893,0.008733267294184258,-89.58207694257652,14.634313903889852,0.002387771663076299,122.43006445601658,-2.664694845525587,8.373694610745906,-0.00013736471070271264,11.866928829829686,4.874755967492528,-0.002639550520249929,-4.351473024203788,17.291965215604996,-26.467466713242896,-26.474204559474895,25.862384128914545,-18.220306792842525,-33.74577903643512,36.73744128178494,2.3811360309683334
5.917927041172852,0.0,0.0,-47.63447230887142,0.0,0.0,10.367209590150578,-4.4392834046644545,-2.552309842312819,-24.41595129596688,-3.8058689685433102,-16.906463955779376,-25.318735356026224,1.6592878539468956,-0.0003784484404736734,-61.20496175150648,-13.780163444834846,0.043785044698397425,-1.8146923523612157,36.172978108646916,0.7633384426294133,100.95535241335403,-40.180558107162724,10.579073330350882,82.34076423114138,42.42351414798921,-46.326275936779425,-30.269176986800293,-36.003811917689646,10.069278050859388,109.07840003217902,-0.0012925922390960777,-87.65293587362514,15.259958290454511,0.009253947411171597,118.9384158008795,-2.865186666910534,8.503488037205292,-0.00039489227276200004,11.635617922988045,7.812270006556475,0.0005150711655234205,-3.6215011558679073,17.704463941760487,-27.04744568937322,-25.743243090961954,26.452813174228964,-18.618132278579164,-32.8244046336023,36.23924944382805,1.244449420542902
5.431635548605315,0.0,0.0,-37.610686664892626,0.0,0.0,10.682005312086407,-5.064233312800913,-1.4166973828281821,-25.476741138373114,8.399288106775066,-10.130750544307292,-25.595223746318894,1.9655797535358566,8.057995731247551e-06,-69.68295688994434,-13.721285006261569,-0.042243981629231854,-1.0578591407065958,36.75663754400597,-0.82899990462983,100.43905985602258,-39.699537854549696,11.041979896014938,82.12089641467097,41.65166584841487,-46.709729942462104,-31.8374597039979,-35.25280338730995,9.349413270123206,108.68666439237467,0.00268515936019341,-86.17895592592517,16.306946942798646,-0.013592138164788443,118.25094394219664,-1.8624424427568111,9.342257488545037,0.0045632272109901745,10.64144362147174,8.423498734325015,0.003967613129315835,-3.6065108207228027,16.478377884812478,-26.627520649846513,-25.562268593750705,25.16571399336813,-18.715890975850648,-32.30452902015534,36.747001173914235,0.3432905370591233
3.7145265146974222,0.0,0.0,9.896752383016567,0.0,0.0,11.35330554741458,-5.299869859969961,-0.8237973522519119,-34.02851421986765,3.7011031896334083,0.6602136682366355,-25.705107076928332,2.7692176427340027,0.0002730609767902571,-77.3045600549504,-10.333118747121432,-0.041801165752286845,-0.7354596023484882,36.853652791677824,-0.6725813240844449,99.81682399841942,-38.57704344504593,11.183285448827144,81.54276488451539,40.782229993603494,-46.06476529820985,-33.56273567262915,-34.87871565298286,5.156737742798553,108.0912604080309,-0.0005742221225303065,-85.50660349428517,18.256154541371433,-0.0067553810977461805,121.00484264869773,-1.2337208338620584,9.505630544953789,0.0030126891468065646,9.82771637288698,6.786101800977347,0.0029074959347345545,-3.705621419092121,14.996778962277839,-25.8972095129949,-25.508621248186312,23.528893507449272,-18.60589970351472,-32.33270166888441,36.97047357418707,0.5366010992436104
3.027316110692735,0.0,0.0,1.512847074394808,0.0,0.0,11.515883564513423,-5.005160748778068,-0.6119633287341714,-31.285221330126763,-1.5001085697590621,0.7329248175381688,-25.696327921877224,3.4805854277225414,0.00020031590658364722,-84.06444197657035,-6.842636523910015,-0.0005992420167551396,0.37966386689715503,36.5541071198645,1.043672738011971,99.56353812756295,-35.96004613678685,10.756759766666974,80.57555182893803,40.98698157947363,-44.88121540887623,-33.87448595805688,-35.414612007014725,1.2723210174167177,107.96908675143948,-6.278156854651959e-05,-85.36893154674442,20.384067542889735,0.014491665892606857,121.21009019759686,-2.120527850685262,8.55735708278268,-0.00023406045889485052,10.089947752360338,4.978576889504422,-0.006386292166581475,-3.9262632308867444,14.290461635191152,-24.755841712909262,-25.76436394479071,22.46271375679002,-17.777437056292737,-32.01183645937536,36.53496281553995,0.949477150982128
5.032103305120451,0.0,0.0,-36.296898868533646,0.0,0.0,10.882381860224609,-4.272049889596239,0.003454660973169424,-28.333257278606183,1.5790696295669135,-7.038712092716818,-25.734050775476653,3.334325010216644,7.321440889934187e-05,-89.48052389083672,-5.548699342450667,0.030585747838613488,2.8790466279761437,36.16101104564417,1.5364186686595795,99.07130190569463,-33.68846476551818,8.532228310667186,79.15989064535225,42.59935042433028,-43.454635485672384,-33.58276210246558,-36.652992955872875,-1.1747024426388022,108.28227261857573,-0.002273295075451742,-85.55191910266733,22.45507625578972,-0.03081874454621947,122.43349319449216,-2.9454447041879144,10.64511725628778,-0.0009183539014540065,10.81878264244904,2.5449856605862373,-0.0047216270911663635,-3.995434374289155,14.250114765907382,-24.191395090211476,-25.896880448414255,22.22149683278971,-17.24481869201706,-30.29198966014137,36.14554704744462,0.2245736068026531
4.24443015343978,0.0,0.0,-49.21985784438578,0.0,0.0,10.938604900998385,-3.5095924362086155,-0.40769802247920467,-28.59519871044469,4.064319233812903,-11.171707662740854,-25.702330043890377,3.152569462092451,0.00024063566555861262,-93.76770076454736,-4.726218437441377,-0.008476248363363848,5.151479712328023,35.817307384778836,1.8904339465545528,96.56273657190266,-32.19336304455034,4.501164445851273,78.21656014261141,43.82718343938097,-42.82009970302818,-33.62667498869531,-37.872953440448974,-3.011705422100127,108.60556506915793,0.00029560367291947705,-85.02334664128485,24.879097617622435,0.00964473671412001,122.99802142505857,-3.373233279934471,13.564333443105259,0.0022807204221173046,9.581146780771796,0.44042619809310435,0.010045476891822716,-3.123367186690222,14.297968127079148,-23.898907997929534,-25.06724147392365,22.160062655279468,-16.9415277972306,-28.7289675187078,35.946334970306125,-0.2790933340378424
3.0149580873009967,0.0,0.0,-43.68895450689165,0.0,0.0,11.16057830306233,-3.363144077142621,-0.35744575031417863,-27.272956044516757,3.688452306096183,-10.315456810311783,-25.70844179427867,2.842493858262523,0.0005933533923302346,-97.85879758783891,-2.529077434649161,-0.01672051715024583,7.0316014037398435,35.29282156170024,2.1566259255627354,92.43050798841031,-30.249366445457248,1.5130595727915377,77.22267902602744,44.645271928265885,-42.321280012211915,-33.36163883905469,-38.725446243990085,-5.457233702380639,109.46483813049824,-0.004874527323986013,-84.59055191180764,27.859085452455197,0.044920220367883526,118.88119498337441,-4.069620258190247,13.14750960182093,0.002352338179426027,7.471915219505931,0.35185646228291234,-0.003730764173358487,-2.698515890108936,14.512179455859954,-22.967398338819436,-24.782717211430537,22.02045599115824,-15.952158544750635,-27.358358494907975,35.27423426063927,-0.7369811685379464
3.073153367516014,0.0,0.0,-37.65327377413316,0.0,0.0,10.715420183331743,-3.1053118317656545,1.971434773329789,-25.878527716571945,2.669952572681805,-6.096899329875234,-25.681270778101634,2.364024156696086,2.8256327918773375e-05,-100.87662908945539,-1.5017712009353212,0.009535142200344947,9.256239140451733,33.33262144948823,1.3136212970413488,88.6061485780682,-27.414645194207218,-1.3200327762994135,75.71047594458565,46.05860246424404,-41.29320701201614,-32.53024002623736,-39.70467763733048,-7.969445613054826,111.17220221999206,-0.012184329598885414,-82.62240292122148,31.012703181961086,-0.02933259711978221,117.50332530598568,-3.5701163362168753,11.499055195463143,-0.0014210917769149195,6.8607307265563,0.5091796461371199,0.0028164503039180178,-2.72162790992757,14.643865814814877,-22.312711176267854,-24.897746161485202,21.903757171154453,-15.26581608605011,-25.030104647663364,33.60123321128091,-1.5612338577419123
2.8195386597463776,0.0,0.0,-36.43101955467088,0.0,0.0,9.946986173144582,-2.4003889762481228,3.335507483573311,-24.147923107959357,2.158061882370562,-5.2089638956010385,-25.171772483254383,2.346305902868308,0.0007603566878507456,-102.8507756137171,-0.953332278424395,0.0016356212996160142,10.944716226904738,30.658583412468392,0.9238702468125157,83.96446682746388,-25.47747942639092,-5.0286575913391625,72.70408525714478,48.09885359324156,-39.49724955896404,-31.600484819899172,-41.401320437128085,-10.258669516351215,113.30225469806918,0.008304508143468512,-82.07473489023323,34.02586145471272,-0.013010144086715995,119.4342903768183,-3.6016394652568247,10.806836235454984,2.0731976263288406e-05,5.4358889967551205,-0.10455289466377557,-0.00031364164951169625,-3.0334575187156485,14.308868106167363,-21.24915325175921,-25.27028078767078,21.2043889533687,-14.376862236191322,-22.420228507949783,32.27955727457558,-3.3110427956747372
2.6330516909062993,0.0,0.0,-39.37041481021227,0.0,0.0,9.341537408048271,-1.6137788427079138,3.0563667347105175,-23.077471802721334,3.843782793742116,-8.76112931700479,-24.397786493704796,2.2824421601221827,-0.0005913688188652634,-104.08720758247728,0.3227738072931603,-0.0020181193567002853,11.930525401373988,27.961686797382928,1.2901552116422421,77.89245218619226,-24.347783676070026,-8.200609674716777,68.08958674479015,49.96687266703696,-36.32135250742181,-30.73427566916147,-43.20749202744502,-12.564142244474796,115.29136718699777,0.014641466867133454,-84.31006538226416,36.96240383681586,0.02171830571504095,118.82323553734787,-4.364306505945957,11.487646312548502,-0.0012088585370996587,4.148973226277476,0.3549034258111137,-0.0028617388487151697,-3.7682111897733446,13.418057503847479,-20.390604580924357,-25.963109787538812,20.064562795205177,-13.91217961586567,-20.026192091038475,31.091395458387183,-5.558886566351642
1.9422189573514228,0.0,0.0,-36.534619681550154,0.0,0.0,9.086080791891357,-1.5578227634372508,3.313236673623878,-24.18412140107224,5.248085777292588,-8.907478906179534,-24.027687874332408,1.7720397617893848,0.00041237299608972675,-104.06593070193317,3.754454010346742,0.0013277661649033518,13.016225035330587,25.235240778080595,1.4399910295114597,71.26108217705035,-22.67784653237962,-8.26018950977752,63.099599539857515,51.59165082342697,-32.5576745437229,-30.08948470556194,-44.44593884859095,-14.965065065258912,116.78297960042562,-0.018356930333617006,-84.1540579758468,39.51746097352428,-0.002078346103657135,117.52346619224988,-4.01023174461981,11.606202083602852,0.0001000870704575208,3.4200047258110766,0.26934696788280077,0.003950785064832013,-4.732108850771103,12.231594437653312,-20.570133681341062,-26.750709415487734,19.031188143225567,-14.55808971318169,-17.53316660143662,29.374856173357202,-7.210930201356013
1.1051359736647293,0.0,0.0,-32.684253401328725,0.0,0.0,9.13936041754563,-1.8168309062704335,4.022637344254225,-25.07680601854447,5.071412134814187,-5.397555989239074,-23.934284926677773,1.1310257790513,1.465692013349456e-08,-102.59752347992583,6.513177594118926,-0.006810008808016986,14.10041804634173,22.62313929646557,1.7714722518749273,64.50648600656855,-20.550412385405412,-8.214696514854818,57.43886294262079,53.26000270223446,-27.784762594436636,-28.982553194560758,-45.76480158576583,-16.72168911576225,118.43458744018915,-0.0018474688694613069,-81.59171136846423,41.69947617356929,-0.012757603594863073,118.19350013636428,-2.2065255334603533,11.384806129821436,0.0002678111398142136,1.9926813480396581,-0.24160660578015586,-0.00016458357746988007,-5.667698970232078,11.318173141845575,-20.62884481607757,-27.565250754167554,18.20552542474948,-14.97476371473859,-14.986755654515022,27.357775753101862,-8.243784287133561
1.6266325460221485,0.0,0.0,-30.175710923489735,0.0,0.0,8.965505029484978,-1.818056517368791,4.942287613933071,-25.59502386721517,5.846833129466977,-3.25690412655999,-23.607796264654077,0.188155346789643,-0.0008216326809209679,-99.61804654438882,8.447399938159124,-0.0041094132059761495,14.565726940997633,20.130978393281843,2.8336885662950047,58.27459280536935,-17.158072616948903,-7.45185781407211,51.8391178573992,55.87829258942508,-22.612989801724165,-26.1565967489667,-47.499674916816474,-15.903331256880676,119.99145073766253,0.014456291236673215,-81.88703950687142,43.016960619899834,0.0012815469895938703,117.3342170770748,-1.8918432926333302,11.301689861541695,0.0005836174817989894,0.6798398056265571,-0.5041601115531528,0.001438683267038936,-6.954173268126732,10.64846090205813,-21.21070633260596,-28.709356607699274,17.796179081912776,-15.794115237307828,-12.893676427944303,24.57365890858922,-8.479108073812851
1.7460308545887842,0.0,0.0,-28.761369601503876,0.0,0.0,8.879206819613893,-1.704199174486366,5.848765157077118,-23.755173498944934,5.9874779289583735,-1.0728669342810495,-23.547607871299082,-0.6507242090670297,0.0006843732474497099,-95.593353477161,11.545578966401795,0.016750006214952526,15.269024441407307,17.736837514662195,3.584069722608414,51.614887746705186,-13.888404588048065,-4.921112134620672,46.71767606623039,58.342116619790964,-18.269264724583614,-22.736208656747664,-48.182290091611144,-14.649948684420625,120.83711979085544,0.003679066472945528,-80.31612417876654,43.686932720611466,0.0035051153392856383,113.64596539773636,-2.57907477080968,11.182674111956667,0.00024357373011101586,-1.0764278543847152,-1.0558615203845456,0.002560518920694429,-8.292960995915967,10.370479241514401,-21.397302395971618,-29.99495392093616,17.605874635385433,-16.081040327905,-10.920131033481242,21.66226044297419,-8.22467447863556
1.9985041568919315,0.0,0.0,-25.38220871655766,0.0,0.0,8.441803330130849,-0.8192691270007589,5.530355699188195,-19.38194092752549,5.170042439595196,-0.39437046382919627,-23.857080791882968,-0.40239175233730534,-0.000658652181098539,-90.3262573182186,14.432093087852047,0.029178257550004583,16.284108019355063,15.258655190408888,5.749471030716299,44.140684987223295,-11.541705638223025,-3.0619545875378003,40.847065630172395,60.17332996489611,-13.341746376751008,-19.296876325595715,-48.300871027336285,-14.057695024008304,121.86412366286659,-0.009470176976460479,-75.95824485151195,44.367508161912994,0.00206906607924697,109.77684056178181,-2.7770415189741913,10.739283077172692,-7.859908349505729e-05,-1.883921596466624,-1.0986000737923216,-0.0005943014488701829,-9.182441999228908,10.259917598194738,-21.02553854987541,-30.912045736495326,17.36782778937216,-15.767666504192446,-9.024453122049186,19.07732213430076,-7.448699927862848
2.5855023807628488,0.0,0.0,-18.1199127203618,0.0,0.0,8.40178866946611,0.14356680394380608,5.56247214261663,-14.572371534536208,5.127116965467666,-3.9580478926739797,-24.498567921386144,-0.18811100790416518,0.0002900737820496756,-83.2653497070159,14.704453901677288,-0.005876077542004437,17.85899686316393,13.602137180944846,7.6100449998084745,36.998121730822305,-8.867461621650333,-3.776523527528179,33.585199804671795,62.491371823440616,-5.4387358896356695,-15.203292444552456,-48.823978150372405,-12.563626706301964,123.30149920737809,-0.005707357689615029,-71.6565733332672,44.82547698966156,-0.0029668861688322817,108.0854608640314,-2.621712504522094,9.779790527751128,-0.0009206099550976883,-2.6240952978287817,-1.0476840668904508,0.0009531721714193382,-9.153958719381615,10.020501080229206,-21.550122230547892,-30.798305031865908,17.336190404744627,-16.363090052097167,-7.117772392514355,17.43844688648723,-6.412050450973762
4.0074343329653885,0.0,0.0,-14.59405271490287,0.0,0.0,8.859994153956665,0.031416885850971445,7.069128396835488,-10.81871407902063,5.801239217599136,-8.273212485270388,-25.40833359248332,-0.9481155477770392,0.00135179594069192,-74.97594772950218,11.575010520037113,-0.05367403542501601,19.403243907221437,12.480760213107335,7.973582237909959,30.6546983600594,-5.58770339434682,-5.669556204519218,24.955400523071283,64.29709289618391,4.506230785756664,-10.817788016955125,-49.04993151672258,-10.687308675649993,124.30806558742393,0.006509662228273444,-70.0965405170983,45.3665579516824,1.8055443064474665e-05,108.46674541225903,-2.6584162671383877,9.614022622185876,-0.002923797781225972,-3.1602803486863613,-0.7469116319364557,0.0003845924361679226,-8.372013462415113,9.510117331255682,-22.14411082225682,-29.89042604031775,17.076904140894033,-17.129449196296825,-5.562424772095497,16.032943972270445,-5.046308607087709
5.754179129643124,0.0,0.0,-14.456964029554651,0.0,0.0,9.170084015995235,0.2222056931914598,9.030906929459995,-7.972460541863998,6.890786725608585,-11.761253908440787,-26.08753059813603,-2.059259427952535,-0.0001939510429852251,-66.38318900309558,7.787298039964271,-0.004130243604786793,20.557215533981672,10.997818909339358,8.550334761995819,25.198381660760504,-2.8798353957598652,-5.798958026734346,16.026902261320544,64.95067355257218,14.310213829923198,-5.434310591108821,-48.956302682740464,-7.882516950866373,124.7677194122506,-0.0009499085437333514,-70.48330747615901,45.692861849798646,-3.668926562226419e-06,107.59838469894407,-3.052336706445579,10.301692603423216,-0.001624175724216379,-4.132207465356149,-0.7693833638615795,0.003144042697316558,-8.239729713197596,8.665828431795685,-21.865263321418826,-29.6982440980743,16.190427631288316,-17.18483975269171,-4.470158885527428,14.149489302116848,-2.907816649865469
5.733698367355722,0.0,0.0,-12.811405437405378,0.0,0.0,9.695902483704755,1.0575172154532535,10.158940970314198,-4.6914523175867755,7.378466614170067,-13.697401576819898,-26.683271096699134,-2.750534223885812,-0.00027257546322923627,-57.26618412138125,5.71920091274859,0.020578432704356674,22.196367136242866,9.41892992225629,9.304107858932374,20.423433506500533,-1.4292176615927568,-4.403356168415117,6.898244768953885,64.81343846875323,24.28144737630103,0.952040308667717,-48.633193283516846,-4.092423832125929,124.9435756241392,-0.004076500165527042,-68.82753688218894,45.30579177743334,-0.004413030434857771,105.04129053929907,-3.3468549289006315,10.163982867262304,0.0017863972449330546,-4.633573190003984,-1.1387037618184233,0.0017730178862480181,-8.94743211145671,8.075852753312335,-21.534225718796385,-30.383060553603492,15.521560423350092,-17.092195009227904,-3.083987902379144,12.460134310577313,-0.9236908825183431
5.937716925497393,0.0,0.0,-9.894808008517886,0.0,0.0,10.014230550623159,1.46684455087616,11.483315724580244,-1.4367125938376408,7.25767622829476,-14.33203452643933,-27.236552702839067,-3.2392860435310245,0.0003401571541273481,-47.40422759240241,4.576641227120614,-0.007507322220615121,24.17689761724003,7.615812835795408,9.772855169079044,15.947163856272725,-1.0026941574493355,-3.1868709216990303,-0.01895566022361153,63.433453744769395,31.970552152987477,6.792636743771442,-47.912188048712586,-2.212868457535702,124.60511270132781,0.0019348208413722556,-67.21094871022144,44.63539251580992,0.0036543156726363043,104.4854623985589,-2.9371266271054037,10.040394159103515,-0.0004438217366089772,-3.7359006377265302,-0.6284025602995239,0.00048017635954208433,-9.07642429629743,7.466609877472933,-21.607947138367237,-30.442864134287802,14.980977655566718,-17.39310627902296,-1.8403435559188357,11.122694180488958,0.7714594427068168
4.458409306514988,0.0,0.0,-5.905920919130334,0.0,0.0,10.586552306124114,2.0276508353353826,12.81773236282637,1.0049973101773317,6.421126683072577,-13.924633142980722,-27.39297590803455,-3.485946776074644,-0.00040145756513379954,-38.08170446237437,3.767464808221628,0.008407340734434617,25.568209033317636,5.434557602967161,11.165937475537454,11.896205591040241,-2.078220154207432,-3.7732782917214656,-5.077059916223877,61.20157923460308,37.88961677032489,12.392830627703669,-46.69593509631292,-1.2296334049365958,124.22002356120043,0.0008433506571871918,-63.46263834432862,43.89248592963116,0.0001263455532576361,104.92168527435635,-1.343607104887496,8.59340928499526,-0.007491634301390795,-4.7973260604474,0.11348155119667443,-0.0032341797906083308,-8.680497951098364,6.380258854525104,-21.572007878289025,-29.949285193259204,13.95598136588707,-17.766646285694257,-1.35254374247608,9.86058609028504,2.6172300955050716
2.934357216225083,0.0,0.0,-3.409694701296402,0.0,0.0,11.233547787866383,2.4298949326732022,13.944464472159291,3.9404455394640956,5.66180722803415,-14.395522547685008,-27.425764268871657,-3.807404231061817,0.0004274008149096678,-30.28038747418684,3.2956841056985566,-0.0014646879133886168,26.393381059162756,3.8876424653847166,12.65610204287877,8.761847838917115,-3.574262665721086,-4.987849741862707,-11.294830966232261,58.68680082389629,45.133289546734964,18.93778509910617,-44.532315104558734,1.5158986180087268,124.0645266121627,-0.0014173559688310992,-60.389244701525044,43.10475074419474,-0.004556857773389528,103.54207646737629,-1.0598810442497535,7.108387658264865,0.00045229659755064756,-7.069172728729944,-0.19504630627744016,0.004352891968698197,-8.31812703157588,5.494683287347806,-20.29393825861117,-29.658782153861356,12.66905747850735,-16.880241781385966,-1.702249361713667,8.634424851911787,4.394678369490704
4.1159525269249295,0.0,0.0,-3.973254986626401,0.0,0.0,10.978470707622124,3.298027840212424,15.57124741944324,6.935448591655944,5.1162536756551695,-16.137141918193002,-27.822128953649614,-4.558338445078814,0.0009165574541289661,-23.842381311009806,2.6049418283870076,-0.002073943100074086,27.748769026748747,3.729409291540934,13.380717774660246,7.143021807630326,-4.003649347533537,-5.796790773319959,-16.581636248770383,55.43891541954033,50.84056962639607,24.59745406687022,-41.661604622909685,3.7944897043902266,123.9434385513888,-0.0053698833570851685,-60.585173086724694,42.852767939935816,0.00097898227681446,101.21676979736965,-2.8996985910123994,6.786418224605349,0.0045469671913450594,-7.839749628935613,-0.709759082782185,-0.0006863644815175827,-7.673523890805999,4.06642300979886,-18.857909814216153,-29.063439239937722,10.817637228151101,-16.050478245174617,-2.2583863402548308,8.210730251816281,6.5757948805434365
4.243713030360445,0.0,0.0,-4.808846575038578,0.0,0.0,10.42308704096066,4.278129913265431,17.68261020463252,8.799845472921792,4.572675674303743,-18.08738225939421,-27.897308268161087,-4.952839207083055,-0.0008108105683939129,-19.130661606330392,2.109248021987372,0.0017526403302485485,29.466417604418385,3.471557643635346,13.569496317611149,6.526951602859388,-4.059228899406165,-7.161319229020548,-19.144840790105828,52.331556428769005,53.00012942972757,28.099153983237805,-39.06895454201707,3.8678987507412073,123.5641900531165,0.007871394677308317,-59.216706309163584,43.531754842786,0.001971595175118157,98.59973159383144,-4.4379246309954405,6.097315468689582,0.001556421015170637,-8.02999482300189,0.10344022046971017,-0.0025580176457887034,-7.201536089203729,2.0516589918389196,-18.514364743511845,-28.501472267881706,8.816185668603778,-16.47040756760632,-2.790782305746413,8.407453636359733,8.649680522996293
2.453330645154159,0.0,0.0,-4.941646095023768,0.0,0.0,9.764774748368621,5.02850131418992,19.92104503798816,9.605601385887724,3.929491613589383,-20.047970398537128,-26.898278924779103,-5.032565883852688,-0.0008231021911074222,-15.570069427132024,1.7356974822407272,-0.0003430060425107699,30.596767831060784,2.64314765608054,13.67428713168782,6.30073587105521,-4.096914303676116,-8.757983031800995,-20.08568766670013,50.15408228231154,53.303005676465794,30.661409903842873,-36.638768439693926,3.286678075605563,122.59132453133154,0.013942605101295557,-53.2181766039119,44.664132277319865,0.0016700513943439744,96.48931839218459,-4.919904171462495,6.399506728401563,-0.00306395945422982,-7.965842908437838,1.0748358698376184,-0.002969777864754928,-6.8624722057213985,0.2995885766820763,-18.792596421258708,-28.041685986264298,7.283892862603713,-17.37328478171773,-3.775928087124802,8.400253084002282,10.318710282179675
0.307649381694998,0.0,0.0,-4.346911061559414,0.0,0.0,8.634568640275697,5.740256071512852,21.895009214836225,9.25500525945341,3.633465699862804,-21.823952850174393,-25.081467310799564,-4.7964698519009685,0.0002602188879407652,-12.194455734516074,1.534741338337393,0.0023770926748106335,30.589732914581873,1.2925292423086712,14.3811344382985,5.986813051455687,-4.787591896367982,-10.257220841929582,-21.50768002636519,47.705027568302725,54.11793539224085,33.19634938682346,-33.64398439871443,3.572283869038497,121.87042260208607,-0.0071308232210878205,-48.57896654215007,45.51931491869569,0.0020459943641291246,93.42086257557857,-5.812295457652466,6.470161277599664,-0.0017145876047969715,-7.336331695549475,0.4945853106534899,-0.002125086818331372,-6.35897612351411,-0.8739237720191129,-18.62732699857941,-27.507302159806535,6.129853590721339,-17.64469312165876,-5.388892493240916,7.87980147136171,11.26345250029604
0.25792306140068216,0.0,0.0,-4.631568964296813,0.0,0.0,7.126210386267648,5.1961668332033355,23.00488910911253,8.28047744873157,3.4405939161970145,-23.01453093128375,-23.258762576332355,-4.1250715200163475,0.0016418294558928842,-8.916600366837308,1.3724050108720822,-0.0009100518570714095,30.76954121854698,-0.16954419378979202,15.228835969630163,5.96198163977354,-5.534942234704545,-11.813856340093377,-22.251210219402623,45.22173650078011,53.935258469274245,35.63700974112974,-30.64901655198552,4.9602760925044365,120.47877562806102,-0.023061024854684194,-48.13883591484277,45.19210896603584,-0.00454332875243981,90.51784852142691,-5.7238181730961575,5.927709042960615,-0.005685814688193987,-8.213028837342863,-0.8823865521778885,0.0038264681330260797,-6.068308938726061,-1.4084882319658063,-17.992248825920832,-27.269587770942675,5.402021452863431,-17.243670531844057,-6.484089613141638,7.621892079882072,11.47119158227811
1.342347456106972,0.0,0.0,-5.509432224191872,0.0,0.0,5.762837062475883,3.5869687979914913,23.502168600647728,7.485824618994399,4.353149585455442,-23.141687861286634,-21.559195884714416,-3.5008427813334353,-0.00061365932216996,-6.361199938015092,0.8763229634235363,-0.0017598983540274458,31.306287667365275,-1.1058757620950854,15.906766379277073,6.45170774380202,-5.898513001357122,-12.746621570934225,-21.190663157050587,43.52718552781312,51.71665307370588,37.84120454515205,-28.45707787371908,6.870989366589893,117.86418497882076,0.022923165400624317,-47.14520302208534,43.761980225035764,-0.0008722814155128262,89.71331787697208,-3.089665800695734,7.386467629827752,0.02073448430899873,-9.264962836744633,-1.8675228377738742,-0.0010662919210850444,-6.029406006746902,-2.107812560245091,-16.971483036705745,-27.321699744826567,4.380504640296725,-16.543615096873644,-7.367205321918503,7.7845903218887065,11.91774920932763
1.1421971842817031,0.0,0.0,-4.655403654610474,0.0,0.0,5.106621995271183,2.2024610944094274,23.029209323480057,6.537681012253012,5.4665979412049035,-21.67086741363988,-20.27608355854237,-3.101809447437926,0.00011926503656517518,-4.78948613504486,0.6543953558731002,0.0014042194738724436,31.609054688873925,-1.3758711437474147,16.63418116072335,7.073499638379377,-6.270740475052377,-13.35603803712463,-20.28911970642341,42.23682948529546,49.84857345240159,39.39341118341743,-26.155208813075262,7.814425288204178,115.0066405670557,0.02780921537300554,-43.22687687001951,41.79225383929993,0.0026515463235667917,90.72907822108841,0.5678949048593261,9.688592456702178,-0.0036705590078204425,-9.273179022866776,-2.362521793243318,-0.0027443691697383475,-5.9579844740931,-2.917408939779169,-15.840486137342337,-27.35016501651028,3.215217744263197,-15.78416224767742,-8.52957086971526,7.9830325884470295,12.450597576110372
0.22784824551298774,0.0,0.0,-5.236320146435686,0.0,0.0,4.2009683667043545,1.7294977395982944,23.55359189873559,5.903857037296098,6.393989507744257,-20.18276318558458,-19.505802505072406,-2.8630879034640584,-0.0009713402244751912,-4.001047676695145,0.7098105405261516,0.00012841831724110973,32.53436055320527,-1.5390025983709665,16.7948242095141,8.288688907781522,-6.803814693797478,-13.367623293840815,-19.583433194686,40.50589838713583,48.430208559573856,40.206286378018035,-23.96496444819225,8.038573293203648,112.62885710958189,-0.03921814915820715,-44.35003665273164,39.66748112138725,-0.004932341597982865,92.49282446189757,3.8218536919182564,11.298959629050481,0.006404050192600837,-8.450145150665675,-2.3449320360488684,0.0005244672635548381,-5.960322871215053,-3.3138953116296155,-14.980956204672506,-27.432057625229355,2.532546723329331,-15.12928483889167,-9.271152067375462,8.37680495113622,12.694879763642977
0.09053526216453801,0.0,0.0,-8.332183111442172,0.0,0.0,3.049815436290087,2.478049098006511,25.566729861479235,5.554558152193305,6.796009379838168,-18.996347867114597,-18.04805394668224,-3.232064446146095,-0.0025949904316232312,-3.79678869752835,1.0886994049576586,-0.00016969140321012908,32.64928937678715,-1.629335396541777,15.912421046349625,9.089394343473204,-7.386122605486283,-13.027566537438082,-18.86612561868452,38.15528040052206,46.69919443525239,41.15069274925613,-22.389880291629776,8.928796285658224,110.52445414318734,0.0030835529782269593,-47.86475013946372,37.24356796660528,0.009341087651327198,94.84664015707813,7.992398040189631,13.06944341068669,0.009337036902007744,-8.007198830051284,-2.1946784985473156,-0.001173795865206528,-5.882349602995158,-4.148442210740318,-13.643708705684249,-27.47211210442519,1.2664953189548156,-14.193752427902197,-10.452215245716742,9.656057493388309,12.402659640531937
-0.5246579348950511,0.0,0.0,-7.632827887198155,0.0,0.0,2.3640150595198737,3.316561974606314,26.216659932254395,3.960990077893489,6.4942815716160025,-16.11651991746181,-16.24480068079785,-3.2831982780045523,0.001815038643388971,-3.755938425939777,1.6914336401484817,-2.116969618702853e-05,31.243974538729816,-1.744730768186816,15.982844681914449,8.619132403714536,-8.0904572183857,-13.771596712029858,-18.276322720288373,36.50581610025447,44.679551071866044,41.09130877142951,-20.414260119330535,8.37281965481831,108.63438244013128,0.012228935699901801,-46.85279669359911,35.41451265048629,0.004853139187914012,98.36968933398381,9.150004927284577,13.42765068585493,-0.015226380137557147,-7.931499385981351,-3.1385911908487976,-0.001328921902625752,-5.437700326284067,-5.324191787434579,-11.705060501501109,-27.19620051666957,-0.5396637944703226,-12.832512271035878,-12.42415233496613,10.906208541281329,11.623021173797877
-1.5087007820478238,0.0,0.0,-6.427173145705522,0.0,0.0,1.5729099558096735,3.0621427859629446,27.11526324640405,3.0027242187092082,7.226709508081158,-14.07933889153001,-14.846263781466488,-3.0573901645918884,2.928018891884776e-05,-3.6558884049435285,1.8506039453826792,-4.9439589273810403e-05,31.136366993406263,-1.8802767114290448,15.772656481668463,9.07385249759807,-8.449930628743157,-13.893337008832173,-16.88919111104365,35.802376946189725,42.38021566585245,40.27974632142754,-18.83229889568351,7.500666392177957,107.56323632394674,-0.005763491029908084,-45.783388007029856,34.74216227905568,-0.0037909594398610885,99.81177236251942,5.931851825813085,11.641074086145363,0.02619939844115984,-8.757730781737497,-3.4028881907969506,-0.002122116846624209,-4.5977154693009155,-6.077611040420329,-10.563200720355002,-26.45476271845537,-1.661264911741656,-12.057359259151376,-13.495022075462483,11.807440849541115,10.992582878929392
-2.5186181391036007,0.0,0.0,-7.997977526179708,0.0,0.0,1.0041776458775273,2.2324162025223253,27.61881385691411,3.271916159170003,8.076400815720033,-13.355267716244622,-13.591792838862098,-3.0061667476970775,-0.0006501182342121368,-3.4744907551662156,1.8819322260150284,8.320066064604409e-05,31.950070581643526,-1.8733908705638296,15.640583401811204,10.325358261820337,-8.536526639127075,-13.446612467343835,-15.593200174895944,35.24197532493054,40.27725984986431,39.41424417334225,-17.965542995878486,6.88292203994264,107.12269257797814,0.005984670680776438,-44.59669520928344,34.326291301376976,0.001537832971757434,100.20877658160836,1.74411598384828,8.857318824342464,0.010793988043892078,-8.887928767293431,-2.657093734055685,0.002858294130179187,-3.790279667303031,-6.359696113395563,-10.336332654797289,-25.6685642216968,-2.0070546827640228,-11.95306648896876,-13.591676823486251,12.780717496350858,10.335330492767156
-2.920523881953183,0.0,0.0,-10.538773682223363,0.0,0.0,0.5002921199286474,2.074191862718693,27.79169302346541,3.537750971211029,7.548221006972343,-12.97374222490824,-12.39672023848653,-2.894522965590629,0.0006295359662058184,-3.279076102132902,2.0264147896943387,-0.00014397168858069158,32.2866308321142,-1.8783880810532938,16.103685123963004,11.208902588839456,-8.522412927848746,-12.948673979097224,-14.03632503610029,35.07889720565277,37.76636882886328,37.62479541165548,-17.553443222187877,5.476872765703,105.93360587714896,0.007275922480698147,-44.30801086595935,34.03450302328924,0.0008837371072323516,100.45358583602336,0.6898417366643014,7.232088869861569,-0.013252317588556425,-7.555067895546181,-3.0646715333438452,0.0004930046548108128,-3.4610865458478286,-6.009090930848194,-10.312657474722776,-25.33699239083308,-1.690459169741712,-11.800506355750775,-13.6821221184241,13.480973811365134,10.002792933514165
-2.641232200495104,0.0,0.0,-8.86549711143922,0.0,0.0,-0.03291070023730781,1.7599616954188244,27.967913018138876,2.6305431589046777,6.813288876804256,-12.456322232579272,-11.16785740992325,-2.73485367658613,0.0003842295813739231,-3.0031751605985053,1.9418357922442036,-0.0003568980184238203,31.999250029856146,-1.9887574426390628,16.1743304120665,11.440048002683499,-8.316451316283544,-13.183572578754896,-11.499181021783608,35.21842728923193,34.129982136055354,35.625407529585836,-17.688740475483826,4.514021729796059,104.13385407302279,-0.022226095651808643,-48.2568291528894,33.801595387183866,0.002097566073292454,100.6719108516949,-1.1833960474487593,7.100417422805643,-0.0043344907822762445,-7.8801369271020025,-4.809204153170032,0.006071978932969029,-3.143267926234194,-5.1145383636712385,-10.396482714721877,-25.005434617031057,-0.8292145531265251,-11.544658825964529,-14.25926315721111,14.090363380682914,9.922424235537779
-3.6125257450454398,0.0,0.0,-8.13759364058298,0.0,0.0,-0.2073961212874492,1.3416378994105684,27.84470011131795,2.1388640111698582,6.763880129185684,-12.854076485856204,-10.117435006411599,-2.8730049062907983,-0.000984499579208152,-2.864284737240414,2.0031937919637715,-2.5755287738717035e-05,31.98632662228926,-1.8832695225601062,15.873346159685871,11.93301683823135,-8.060659782315996,-13.358264711142835,-9.131563734102555,35.314919051837755,31.039885009539354,33.90167821895493,-18.15828554967646,4.765755788123025,102.49178655782067,-0.012120902229211087,-53.54112369322165,33.31697644104377,-0.003184365534040098,99.35858578569088,-4.220904417726888,6.962184719397304,-0.001693692582722159,-9.33013354543528,-4.9143249028432,-0.003541339833555002,-2.585653807057272,-4.084449651050782,-10.296577969992603,-24.452757337327615,0.08970615100064099,-11.068615416395975,-14.613346946287102,14.616370816530676,9.69543628932827
-4.569094683210882,0.0,0.0,-9.132841578642573,0.0,0.0,-0.6877721068608039,1.398149252496644,27.33642167795178,2.354202182186986,6.951146645530355,-13.79473248104109,-9.04663623664941,-2.946046215206852,0.00011265613879087777,-2.7579701080420667,2.115026326151677,1.8064059383279193e-05,31.798954573560177,-2.1184042893869113,16.05430902637965,12.239467891460299,-8.149966322607622,-13.071891671041309,-7.797629072760201,35.447412951544685,29.12536085508646,32.038374568702736,-18.432402360847462,5.120653736562631,100.95866350720297,0.02046574735489945,-52.790601906287975,32.63927986857073,-0.002250670613912155,96.80121415558945,-3.701771404695565,7.42094846574054,0.011181446485568555,-10.461338558928347,-4.960451688097804,0.0007776787100059281,-2.7371777543519995,-3.805964553772813,-10.096770109414,-24.618947614699103,0.2738639326206716,-10.779882049657086,-14.835975363912512,14.691244366823613,8.953346902090322
-4.579222047551527,0.0,0.0,-9.154456167463605,0.0,0.0,-1.3573860833600815,1.0650410395674403,27.300700792279464,2.497624748228224,7.369478959054369,-15.12620277622573,-7.750723392541858,-2.5887780397634845,0.0010165405470039886,-2.711465868474755,2.029677141585261,-8.711432999735943e-05,31.34082225070631,-2.676645167148695,16.445280214818666,12.43181701433279,-8.38109961006715,-12.267070440071416,-7.317675334816739,35.24475411550791,27.417800595842564,30.0956284041652,-18.48128283356378,4.6061330350945795,99.69309941195004,0.015443895315626607,-45.50778311644196,32.14150103729834,0.002385741001370459,96.50923916887307,-0.9680108078033933,8.813755602730176,0.010482261460383785,-10.216370765517683,-4.747863368136457,0.0025920531041903156,-3.2474714919481027,-4.020830973163477,-9.613056540036645,-25.162789115967325,-0.10547986349027302,-10.41223909414125,-15.017871704562086,14.80238297984082,8.218445967958536
-5.020289419469639,0.0,0.0,-10.078728024455625,0.0,0.0,-1.6031793832756285,0.5205683173190995,27.237694710640376,2.526396692086517,8.278338695992952,-15.71641734853199,-6.808106007899285,-2.0433692318968233,-4.940734453072897e-06,-2.635297644008616,1.8036104698041555,-3.660205471842813e-06,31.501430439637492,-2.8687385960698983,16.369056823975185,13.037497716587543,-8.214633639506381,-11.758300792314978,-6.085861602383735,34.70762415808742,25.36107193626218,28.191008452607154,-19.01698759095846,3.617733122666829,98.72690291441431,-0.02014872317101654,-45.38375859908185,32.228133968770166,-0.0005366510857741004,97.25323585630109,-0.5938348627783774,8.438779409378578,0.004820644032013732,-9.429529885035489,-3.973909415291116,0.0001367505819433074,-3.5832452052949537,-3.925708663813324,-9.590840416626166,-25.500052022316503,-0.02550447251545803,-10.356181017049819,-15.007997942595484,15.396356063611918,8.05262558504721
-5.737425683297973,0.0,0.0,-11.46012822791878,0.0,0.0,-1.9508297045778882,0.2798645848687206,27.477261199878985,2.5726412585621126,8.550810257437947,-15.822914329655958,-6.107224338071148,-1.75045795447244,-0.0002866736322016486,-2.699289844199829,1.7143677328803926,0.0001175490181467193,31.678310587223663,-2.9443345703722987,15.567216931011087,13.60912271367114,-8.105697261351192,-11.77963253491547,-4.616581222185823,34.33240555105571,23.376933093072815,26.60671723411904,-19.464602278057153,2.456344510204612,97.82600972824146,-0.011475210336242048,-53.077456349870964,32.5068540885066,-0.00015808741479532488,97.91242593701995,-0.5188541308775317,7.879432596310612,0.005170905893509675,-9.08081387590519,-3.3932865440172404,0.0008201934765768836,-3.8292580730837327,-3.9534479670846365,-10.47981472985692,-25.6831144237881,0.27933935463938425,-11.189482006909406,-15.214341846183853,15.89053004827104,7.947755134060603
-6.921707351641202,0.0,0.0,-12.804212192319612,0.0,0.0,-2.521293886925105,0.8310419516150674,27.412780104427362,2.530931296603313,7.4104789273407325,-15.060668413024693,-5.334357416699764,-1.723508424408354,-0.00027376851339687755,-2.9419786337014138,1.83455443443432,-0.000170745612200361,31.486101768826497,-2.955848560592546,15.193265383434799,13.99249835668022,-8.126056876346277,-11.986236663816852,-3.4120330599950566,34.30478712493762,22.0308737226399,25.564402151088128,-19.55890391567373,1.2389126965714974,96.15085357507374,0.030500888155087506,-54.86510613026833,32.58938589730861,0.0003310487856133491,98.4360076357513,-0.8729093630961815,8.610627245496127,-0.0008008316928921546,-8.957830751323426,-2.9708328825023886,0.0014285209238050708,-4.085988873284617,-4.399668469408144,-10.829006295428737,-25.913270543216733,-0.005290457150519484,-11.678764843137419,-15.669593894380307,16.022431436612038,7.709382671351463
-7.9177170475304814,0.0,0.0,-13.232609672358903,0.0,0.0,-2.7638926521712595,1.150706087926282,27.166681430111396,2.3173925156688426,6.265050885507546,-13.733480043598435,-4.596860509365618,-1.740362183418687,-1.1488331653552216e-05,-3.196438784795642,1.9267415804036965,2.483693061772278e-05,31.156033887571553,-2.9286529717749388,15.392730536256469,14.206738286431497,-8.124957557231266,-11.931314796388408,-2.585598421726497,34.38339620554313,21.731593472938467,24.902323777622684,-19.905301163245834,0.38938149488455004,93.8897001445825,0.005745369747208667,-53.21107560999569,32.668008470706404,0.0003568952793835018,98.99261630391734,-2.890310666710569,9.20170003720657,0.000719814103406062,-9.704073688810023,-2.9666089130859574,0.001727931574743024,-4.326813013155452,-4.441816121841528,-10.106735766883078,-26.207933700195802,-0.312477358465047,-11.026066776349897,-16.40127901351631,16.018808729285762,7.391230027286021
-7.260165205406978,0.0,0.0,-11.34383099057322,0.0,0.0,-3.4284332853485937,1.0870208497836573,26.95824892083559,1.7355093030090731,6.530174130286524,-13.657042456953862,-3.9352824098999086,-1.6246233378580748,0.0003724827852258263,-3.370824367609779,1.7588940204536248,3.35151668921366e-05,30.779787332675447,-3.15554052500143,15.777211150594406,14.340984590049759,-8.2759455007032,-11.351636849550474,-2.0141665709043655,34.157923330478425,21.25581648959634,24.030598261116616,-20.709279617942908,-0.061964542559116514,91.98404828321523,-0.02413918695342259,-56.73525059115627,32.69592485700398,0.0007631210217365931,100.09392198429671,-2.672714792959991,9.462383365127145,0.0008971311774335574,-9.774607943598458,-2.534857324675363,0.0011724818595388676,-4.878162970072864,-4.294807043087687,-9.636933290293626,-26.79224922421972,-0.35077205198485195,-10.536599269690065,-17.056318324911675,16.06166297386618,7.118190157498247
-7.199741472906464,0.0,0.0,-11.240287256464,0.0,0.0,-3.9797482764687775,1.2782864976096562,26.853954893656645,1.6620894160759994,6.802820193001416,-14.242495883700286,-3.3686694361906104,-1.595102776667023,-0.00012090950636603166,-3.5405512493693907,1.6207101352412379,6.026221646155067e-05,30.42934578814421,-3.0721916942623873,15.840280829490068,14.44850446567421,-8.085505207472103,-10.897883451302143,-1.6981471818724272,33.951851909640794,20.490788269133994,22.424892078290355,-21.424755666409,-0.6787422462922531,90.89892988295547,0.008500216222333316,-60.36259483903921,32.97002993281705,-0.0007049096825851817,100.89088468092497,-2.1333764627321856,9.301453091135235,-0.00044540337986372146,-9.628234253842196,-2.4157331868476235,-0.0002872663552196947,-5.5253258100153335,-4.252873566690403,-9.39753883181911,-27.45569371448668,-0.4009962722387343,-10.29947675585278,-17.25332868232698,16.250926382531105,6.975840907120342
-8.221783705106837,0.0,0.0,-11.237705943880439,0.0,0.0,-3.6377750725643376,1.2078545468045732,27.326531689526107,1.6134338551175305,7.287473856487221,-14.6545093485915,-2.9378031376933045,-1.8486507975905273,-0.0001718254617022737,-3.5761123615316746,1.3474500828687992,-0.0001476651836570412,30.448183076986844,-2.499276825348423,15.41037652997964,14.791881519002082,-7.404623005403722,-10.603926745928577,-1.8217759208766262,33.96495222042904,20.112312109405938,20.763055906462636,-21.681503257903692,-1.9298360599830109,90.39170340042344,0.0037268716295729546,-60.988771246004426,33.96022246906571,-0.0016918229967276951,101.45529051237715,-2.432834485181209,9.472853629932187,0.0005160729624138275,-9.582560706768076,-1.8221842088107132,-3.0158620704090216e-05,-5.625301232267367,-4.2202231176754665,-9.07519394806199,-27.577065479903055,-0.49083453420103973,-9.989077939524156,-17.151829817661564,16.586831494507127,6.745221519668758
-7.2314268077334845,0.0,0.0,-9.365064943526235,0.0,0.0,-3.6521851242885126,1.0103638421093148,27.182817477885237,0.5996223592877797,7.624555339101283,-13.924919708929341,-2.5946461689469884,-2.030205919242302,0.00012769806053404662,-3.354398861670425,1.1636210869980763,-4.7311244622017265e-05,30.112296124916977,-2.1220362682345724,15.563854634228877,14.643040310045437,-6.969743182189216,-11.24539324548099,-1.967068886830482,33.817692957347575,19.62417227056857,19.088978760190788,-22.09546149549645,-3.9435972939451984,89.7615026058813,-0.005318089585472122,-63.41123068297413,35.278726535212044,0.0029556429225922657,101.13835030415409,-2.399446294801895,8.84707663098153,-0.0008008651576256811,-8.790461547306402,-1.532875621416553,-0.002740860903285426,-5.200379825641618,-4.454640433742088,-9.44827542703519,-27.127926102943608,-0.569276136123132,-10.421748958300533,-17.56263457004351,17.041836923260405,6.749569377518345
-5.654830047823846,0.0,0.0,-9.274363468524149,0.0,0.0,-4.156561398230166,0.7874866716522342,27.197008734466976,0.2749830412883162,7.2283116168538495,-13.669817559720277,-2.5379001433828674,-2.1054734079664343,0.0001006702565735913,-3.2875259042295957,1.269398541323665,-1.350195802908956e-05,29.912701307247836,-2.1357122361334726,15.494459278416029,14.406863098511284,-7.02013350105138,-11.391058871102057,-1.78385934513896,33.88587449123434,18.778450688026137,17.377555177756463,-22.619216780864164,-6.224710090817562,88.68862330166085,0.009452901144724612,-63.78605647198078,35.62680168081656,-0.00029572715502275063,99.85330095204712,-1.8370887482929525,8.018974512751525,-0.0004143273850100597,-8.42734064617052,-2.366959470072557,0.0020225672520938365,-5.07144144036983,-4.347612133888026,-10.151285196513607,-26.94920471719377,-0.20849923759470085,-11.032192227760254,-17.70389962131596,17.208185235765708,6.7077123356573765
