PaulMeinheit/Bachelor_Muay_Thai/processed_Data/N3/roundhouse/scaled/JointAngles/scaled7.csv
L_MTP_ANGLE,L_MTP_ANGLE,L_MTP_ANGLE,R_MTP_ANGLE,R_MTP_ANGLE,R_MTP_ANGLE,L_ANKLE_ANGLE,L_ANKLE_ANGLE,L_ANKLE_ANGLE,R_ANKLE_ANGLE,R_ANKLE_ANGLE,R_ANKLE_ANGLE,L_KNEE_ANGLE,L_KNEE_ANGLE,L_KNEE_ANGLE,R_KNEE_ANGLE,R_KNEE_ANGLE,R_KNEE_ANGLE,L_HIP_ANGLE,L_HIP_ANGLE,L_HIP_ANGLE,R_HIP_ANGLE,R_HIP_ANGLE,R_HIP_ANGLE,L_SHOULDER_ANGLE,L_SHOULDER_ANGLE,L_SHOULDER_ANGLE,R_SHOULDER_ANGLE,R_SHOULDER_ANGLE,R_SHOULDER_ANGLE,L_ELBOW_ANGLE,L_ELBOW_ANGLE,L_ELBOW_ANGLE,R_ELBOW_ANGLE,R_ELBOW_ANGLE,R_ELBOW_ANGLE,L_WRIST_ANGLE,L_WRIST_ANGLE,L_WRIST_ANGLE,R_WRIST_ANGLE,R_WRIST_ANGLE,R_WRIST_ANGLE,NECK_ANGLE,NECK_ANGLE,NECK_ANGLE,NECK_ANGLE_SHADOW,NECK_ANGLE_SHADOW,NECK_ANGLE_SHADOW,Trunk_Joint_Angle,Trunk_Joint_Angle,Trunk_Joint_Angle
X,Y,Z,X,Y,Z,X,Y,Z,X,Y,Z,X,Y,Z,X,Y,Z,X,Y,Z,X,Y,Z,X,Y,Z,X,Y,Z,X,Y,Z,X,Y,Z,X,Y,Z,X,Y,Z,X,Y,Z,X,Y,Z,X,Y,Z
-5.441630000000001,0.0,0.0,-5.138660000000001,0.0,0.0,-1.3399700000000003,-3.2190400000000006,15.350290000000001,13.507020000000002,7.292140000000002,-13.622940000000002,-21.01795,-2.85089,0.00018000000000000004,-9.96122,1.7075300000000002,-3.000000000000001e-05,36.89321,8.53792,19.681280000000005,7.339830000000001,-12.693340000000001,-8.84958,34.72601000000001,18.56611,-25.528760000000002,34.93712,-20.598000000000003,35.07825,112.99937,0.00033000000000000016,-84.46957000000002,91.65054,-0.023170000000000003,71.90338,-8.145200000000003,10.874950000000002,-0.0034600000000000004,-1.9206800000000002,-5.96158,-0.014370000000000003,1.6360600000000003,-0.8435100000000001,13.421010000000003,-20.087190000000003,-5.824390000000001,12.14117,-3.7114800000000003,0.67334,5.714700000000001
-4.868173291484385,0.0,0.0,-4.392426402921836,0.0,0.0,-1.7084091091345528,-3.5110513501908036,15.213780546147467,13.305068036636188,6.576048830151517,-13.405821537495259,-21.199975676158644,-2.7426331866168248,0.00016239324708132002,-9.985314970352405,1.716776178665421,-3.1202950945879574e-05,36.66984312975167,8.93629753089299,19.726016668339188,6.9235548899506485,-12.181343381020923,-9.057814725906255,34.59244533174188,18.121176420686787,-25.53794514060638,36.51922268368577,-19.677635819147373,35.460331134923365,112.95008728497322,-8.914449720672063e-05,-85.34336317077391,93.48591560981154,0.014456610482728461,73.57820907540773,-7.955974019089938,11.743350492072476,0.0018706520022339847,-2.466694115699904,-5.701572925029419,-0.0035798006261218286,1.195267544240036,-0.6711315595911936,13.720106295343392,-20.497226345926716,-5.77485857125257,12.484542770871148,-3.3985520698123177,0.5474699416851551,5.730875437220428
-3.939747738436999,0.0,0.0,-3.7965849346378127,0.0,0.0,-2.1169884787568978,-3.9122647194007096,14.843275626328687,13.212634759235755,7.194518932700554,-13.10654937527219,-21.12999196360805,-2.561177861642307,1.2134426010908591e-05,-10.054499279438522,1.551196442744871,7.402633561665053e-05,36.48745597438443,9.074954237227926,19.768323247348977,6.6786478974650185,-11.896839230822449,-9.558269960777535,34.54153456347862,17.946287409759414,-25.51527391807046,38.056890734589246,-18.94087468111384,35.364442102757266,113.06730819682475,-0.0009713640245933081,-84.9418013041111,94.93469845694239,-0.01094231697601272,76.21146001995075,-7.652219116660523,12.965454089093875,0.003833599447871705,-2.1538717770014753,-6.794039192477394,0.00019116046066137776,1.0413496776631959,-0.7488222902792646,13.786130218124,-20.648633543073796,-5.871445578379798,12.517346208587824,-3.0346843951010936,0.3245445813248647,5.819771152298136
-4.026568404668221,0.0,0.0,-3.528381797318338,0.0,0.0,-2.1961367529754017,-4.501209219795893,15.137611829343362,13.35137162569856,7.343884698603301,-13.182387138553327,-21.022430143423378,-2.671132462467714,-2.8380656508428627e-05,-10.187595539484377,1.4633540479239593,3.971361655198006e-05,36.25604544836161,9.195318038640405,19.34803043444771,6.493135186052632,-11.656534057219778,-9.414552338166901,34.74626611688,17.650749622601946,-25.663479128802415,39.716572952416826,-18.46699120479702,35.674638944934244,113.46129391517292,3.889046649686368e-06,-84.4422024309136,96.3232277872181,-0.012822126347061083,81.8160151206973,-8.20583934861391,13.19396109496413,0.0005085349497493392,-3.5899489715056396,-8.133545054946971,0.006549809754940177,1.397847413857126,-0.8870366788761954,13.520014978131503,-20.319104526816187,-5.901461874647932,12.217428327803361,-2.717973495072526,0.10026871735065385,6.03852614348313
-4.494601179755746,0.0,0.0,-3.274139180824739,0.0,0.0,-2.31558327125239,-4.418164284209051,15.217610793245647,13.327673521293024,6.494530046635395,-13.226643304082348,-20.994287043504517,-2.7723258164234506,2.062794367853051e-05,-10.15734503415972,1.4291950407479495,-5.308258798710838e-05,35.96509276381634,9.416215024398845,18.991628371372144,6.051222837092522,-11.23439317699917,-9.257030857372921,35.553958441717846,17.323433267608756,-26.28175100782735,40.96523414515604,-18.06264361058918,35.54426695923795,113.15301066343635,0.004704643394744268,-83.32164753513243,97.51412968068176,0.01261050686829677,81.98522268321275,-8.752983612780339,13.997637720366026,-0.0036021142394115045,-4.774353461218369,-9.192865912543246,-0.0019212135159974734,1.0730407761910838,-1.032566161681836,12.96535393075186,-20.693083027998316,-5.8312086240796015,11.645393213619183,-2.513597616131178,-0.07811480654807595,6.439909798365928
-4.556141693752806,0.0,0.0,-3.369104256436276,0.0,0.0,-2.6177842800844515,-3.7617000145443256,14.603982715614086,13.442512909813898,6.475000722717934,-13.643875994793024,-20.94343471539942,-2.7258509714560293,7.416697146205043e-05,-10.104591648407402,1.4036365408508642,-3.328995881157374e-05,35.844335119029694,9.650009045011663,19.02978192646773,5.754418253607305,-10.824727342188677,-9.234137481143476,36.243827831300436,16.822084399224053,-27.09906721120831,41.789617800960166,-17.833740724997405,35.07497753208696,112.72989660498557,0.0027385202988399774,-83.8551229087926,98.27119446157056,0.0015566445946894117,78.82979250100061,-10.162790443659896,13.706146082235263,0.016886123245605785,-4.256403081483618,-9.617123896054128,0.0029738607848089297,0.5571908982893695,-0.9578956104885757,12.555348574779845,-21.237168557916547,-5.6097637545094585,11.29065181784261,-2.1266358814584496,-0.08711581594440075,6.748519727578215
-4.34971848962358,0.0,0.0,-3.316969797768902,0.0,0.0,-2.8824205105978837,-3.977040385187518,14.061769448062432,13.597740468060616,6.8812804364845,-14.08946603554667,-20.91542250871425,-2.4554988613812503,9.601672799273591e-05,-10.131988510868272,1.4347736623581182,4.263975707364877e-05,35.83563403739649,9.663998105513464,19.1540489343001,5.571852751530272,-10.64761036580328,-9.248553212242081,36.326559488290584,16.70502209660933,-27.326614998576595,42.77564888842505,-17.577846059900548,35.287432235995254,112.88217529512387,0.003636594625252183,-88.17917908585251,99.07224403868494,-0.0022976426765248673,77.31487051531641,-11.70304946549088,11.826427753465758,0.005387037850041643,-4.23043960472782,-8.728827308284847,-0.004113443188889862,0.4156710542292568,-0.8326115755815412,12.561492803362139,-21.37371809494781,-5.495705084383646,11.34311683874981,-1.7726717865634665,-0.10730108560543936,6.850899324549159
-4.607738763569919,0.0,0.0,-3.894116072125181,0.0,0.0,-2.899722264990092,-4.293145817956148,13.90781467687847,13.686474333610818,7.086754801115043,-13.661160110686982,-20.959167422633897,-2.354060484379809,8.139113680623117e-06,-10.358979248610481,1.3550559205060726,-1.3398370400931482e-05,35.68362597761274,9.78886765949947,19.022613424782993,5.353002030187985,-10.453633148781106,-9.881224229305598,36.124447976261706,16.757044088260347,-27.424046407183642,43.63952982098128,-17.343539877572617,35.53721194832487,112.72756896220214,0.0015754551686573144,-89.7459945672352,100.07899548299697,-0.0007782399203644379,77.56393896655862,-10.939197584252302,12.784819138352692,0.009088214571558255,-5.904053332088333,-7.149568131298644,-0.0075958074132404544,0.8400813521285816,-1.016340038889626,12.824050097596588,-20.936223344294117,-5.763734598534666,11.519564697000062,-1.736338938827591,-0.12031692426216639,7.213295031729445
-5.512192398647429,0.0,0.0,-5.091381552098528,0.0,0.0,-2.9029260313074507,-4.230942313926608,13.902782663521165,13.798561781581958,6.827392212841891,-13.47452725332109,-20.82432127394946,-2.4791964130662065,-6.364506770310012e-05,-10.53803534686671,1.3190443995264733,-7.978698477765584e-05,35.572336153015456,9.885716013966864,18.813313957196335,5.303366233767324,-10.288537799969891,-10.116647882695098,36.00414644694415,16.84278765939116,-27.714211375474324,44.078791279126094,-17.038886536598035,35.48721003291906,112.4091657495678,0.0008195112706659513,-88.47445476840704,100.96442839032548,0.000853063687262709,78.3809944012462,-10.007605762959837,13.787964753796762,0.0033770652164704985,-6.541028559730895,-6.824171506074805,0.0022487546847604753,1.2196025260640295,-1.2822797845183924,13.0775415370731,-20.547580582770223,-6.104712310845717,11.657024824871389,-1.5882052491088068,-0.18959800103293345,7.456356085714235
-5.119029947517692,0.0,0.0,-4.368087893309483,0.0,0.0,-3.3021120957312036,-3.8127231220276148,13.234391690502994,13.536090931218551,7.123862917439169,-13.4342227451588,-20.73639517837082,-2.34374653301955,-6.263126850527612e-05,-10.395117541258795,1.267010982438644,-6.371248300360951e-05,35.5827328047683,9.956836336036107,18.941901228794514,5.156657952797884,-10.04386426950971,-10.186544084333239,36.62751858376164,16.732001964161473,-27.894591522507756,44.32092618641134,-16.756504728354777,35.42473357622378,112.31082472538574,0.002129414564466185,-87.06645500308082,102.09321870230985,-0.0016965141491870755,79.09156446737107,-9.8543634850387,12.054605200056326,0.0011865114471634383,-6.029093129750908,-6.389480839720078,-0.0009182031151353285,1.3133364446416578,-1.1601160666528865,12.69715096857772,-20.47797262400002,-5.850164095234055,11.347513171772343,-1.406585724318202,-0.1644645707746049,7.556267808719292
-5.076959833475681,0.0,0.0,-3.127733197785445,0.0,0.0,-3.350506574786299,-4.13918562878186,12.944051197620793,13.401731899418863,7.246624241329446,-13.751766897034862,-20.829893844138002,-2.213240890454412,-5.2680551346926905e-05,-10.15685624751116,1.4323235897736768,0.0001329863939322627,35.5414374232927,10.081111602908825,19.109152630145214,4.851048162966778,-9.906481095948127,-9.961615551798333,37.35150567987878,16.370292440543324,-28.13808574261944,44.8389389531885,-16.535554723766676,35.522011703864855,111.8513936924652,0.0019552485021710557,-85.12542432184695,103.09751580622147,4.716850166196587e-05,79.74444826091836,-9.008762887569596,10.584403604375522,-0.002687499339914297,-6.840744117885113,-5.167509827062361,-0.00398096077983564,1.4938891742279081,-1.0776664868584518,12.391056489299377,-20.31698909997509,-5.659954119149062,11.092696135630877,-1.4483888307707464,-0.11414057981219548,7.703272745488876
-6.068930831493907,0.0,0.0,-3.3163591213927797,0.0,0.0,-3.211028463789048,-4.678195450754222,13.136468094836014,13.501388758057823,6.749456470796289,-14.371159383264763,-20.748557354486636,-2.2826306473234914,2.3300142803194265e-05,-10.05690701157364,1.730399064347179,-2.9936398257468602e-06,35.553949567569646,10.242061147768265,18.866493022758803,4.783865159234465,-9.792903617550133,-9.409203060390912,37.54457573620524,16.57442953639553,-28.415567410498166,45.53277275126635,-16.289613266995968,35.971033143897095,111.48296361879967,-0.0005508046209921692,-84.84631174808344,103.17632144553455,0.003182692384835884,81.0658153874316,-8.764600584288813,10.26613400608635,0.0005441542047489276,-8.053556694753764,-5.053901725877811,0.0024387473861017905,1.6052624684011214,-1.332374627485894,12.598308723996595,-20.200022937181146,-5.973409653862843,11.190955778806044,-1.4486041864851082,-0.078498216070581,7.8066895788412785
-5.491656467373723,0.0,0.0,-3.5305256409141865,0.0,0.0,-3.4827696008791893,-5.3680562886716725,13.333760772674907,13.361622010581446,6.440577724072866,-14.268801385092782,-20.535989648772105,-2.174492292219869,2.846027251364617e-05,-9.993941413048207,1.718099880906256,-6.450153707375596e-05,35.64858406566298,10.34024225060722,18.71177538441544,4.903057670154692,-9.59715395773942,-9.392095268054561,37.46689964267342,17.22263180638367,-28.300659795178806,45.975624416327854,-16.222233037961416,36.47886333366494,111.6351246097857,-0.0015451215345306977,-84.50719805841155,103.06626243203245,0.001270546975569273,82.59108660713926,-8.755965517681027,10.01579354628795,-0.0006331101089527806,-8.490856156875905,-5.501421452136627,3.208409698505786e-05,1.544092783143651,-1.4874188803019734,12.97792366972938,-20.23894201351367,-6.258265450006851,11.487460254276906,-1.3448316940337972,-0.06252231554953545,7.921564027410741
-5.234250698085155,0.0,0.0,-3.8632662619093403,0.0,0.0,-3.661559196275859,-5.212794089911168,13.490870440159288,13.393019844742252,6.127012713442542,-14.151672407135969,-20.5326059684906,-2.2296732486094872,5.707187697918847e-06,-9.894791674604594,1.5849486131844435,3.986801871080904e-05,35.54133321229758,10.309708293304375,18.379695264467763,4.673470737951938,-9.442251761258309,-9.74160753979334,37.18454103421097,17.496468909437716,-27.70879632514856,46.095569107546005,-16.387444528378797,36.69792971159805,111.92397585533813,-0.0003675256918547861,-81.65941111309799,103.61680654319015,0.004575077906475472,81.38947847592786,-7.401427663333837,9.316642978998418,1.03976598662579e-05,-8.119836208656972,-5.581268626152518,0.00025951341745337705,1.740349393311769,-1.4484411486418218,13.356152749986578,-20.01194295459751,-6.362293632698635,11.855277700551534,-1.5804635161350586,-0.07020311974286457,7.872957193928586
-6.2908511286785735,0.0,0.0,-5.3863355238307316,0.0,0.0,-3.4202937573946075,-4.7079245059838355,13.727551381959604,14.003413432530184,5.765452724405489,-14.676127925843815,-20.73293011420803,-2.381583717310577,-2.7863772756862135e-06,-10.13612392869922,1.6183631009711539,-0.00017561794117265894,35.64018732333742,10.338316684945305,18.056533519738448,4.6852840233155515,-9.320024756012435,-9.496329254732181,37.09499806935807,17.452192754725043,-27.40381864771096,46.249364700898255,-16.55393288101093,37.02251856912109,111.80715674579474,-0.0009494155319373595,-81.5992408995359,103.95889144153803,-0.0009224583202445827,80.38191687544345,-6.972819960845765,8.776492060785548,0.0015709866267014428,-8.021568014494761,-5.286044112503691,-0.0006449449361396542,2.142096389732237,-1.358239555334265,13.429399636796964,-19.60073933234021,-6.305645624132555,11.957336028230674,-1.7628471705539401,0.038812217771521364,7.7220130497537225
-7.420566622703893,0.0,0.0,-6.280245139689196,0.0,0.0,-3.207807386877223,-4.100577592901629,13.86776256753361,14.310769968186609,5.8232755500788205,-14.769648358899294,-20.787908973187722,-2.5685694556066334,-0.00017826314709771819,-10.534859529976865,1.7100680293600619,-5.826314498976021e-05,35.97096889995825,10.464861915938705,17.72563107005495,5.149876125954538,-9.258263976360132,-9.300129918987077,37.22822031711868,17.66497120828323,-27.587188578591153,46.22265911262963,-16.55355032270398,37.249254601780244,111.43539986808581,0.00030630973062008884,-83.17902008975611,104.02364455563179,-0.0015284823671039506,81.56207364373759,-7.7330673377111765,8.514225587728761,-0.000787726472634314,-8.597383439292699,-4.780457958120341,-0.0006529601091824983,2.1758339272320173,-1.111682632032409,13.457802971963718,-19.554831764034308,-6.0871345203543505,12.075725854865563,-1.5914725007714718,0.06589889576116434,7.736775947177729
-6.803557056259645,0.0,0.0,-5.340545674575957,0.0,0.0,-3.2577478070395625,-3.985802485131056,13.11996506659668,14.119710507844514,6.284697148151856,-14.06955516304642,-20.94369123395175,-2.261194326170414,-0.0002977450357073339,-10.696265545289135,1.5477106282622206,7.788221591009227e-05,36.192714048435704,10.460668792655044,18.007624504669703,5.31356710636586,-9.175614616018015,-10.193472209344872,37.34082392263419,17.9505178673159,-27.621725000872644,46.46671531664518,-16.672290326165495,37.67052785966213,111.4697628920726,0.001209215096172783,-83.35108550089188,103.83458805610623,-0.0006991149561681938,81.99455275876062,-7.399513520777519,7.841974269773025,-0.006519431187834972,-8.242499965482507,-5.372958882725146,-0.004393693478986559,2.0526751858757337,-1.0403706153378676,13.75796126905449,-19.65095680705278,-6.131935078778805,12.38265590236532,-1.6421675033570629,0.06707042278795568,7.802777774758631
-6.30861,0.0,0.0,-5.14893,0.0,0.0,-3.1256399999999998,-4.60402,13.066389999999998,14.260159999999997,6.465349999999999,-14.01332,-21.07376,-1.9764400000000002,0.00014999999999999996,-10.71779,1.39814,1.9999999999999998e-05,36.37552999999998,10.24907,18.21441,5.3682,-9.228470000000002,-10.383129999999998,37.39486,18.39864,-27.4563,46.9164,-16.71232,38.34369,111.84674999999999,-0.0005099999999999999,-82.24596,103.20121999999999,0.003,82.37632,-6.479639999999999,7.308159999999999,-0.0014000000000000002,-7.680540000000001,-6.316679999999998,-0.00042,2.24302,-1.09738,14.104899999999997,-19.434239999999996,-6.3130999999999995,12.685689999999997,-1.8253200000000005,-0.03530999999999999,7.70852
-6.291726984545717,0.0,0.0,-5.1365373751368955,0.0,0.0,-3.0225341102449748,-4.968125142199909,13.29723032311229,14.37022163289304,6.467136463148559,-14.477664250931848,-21.27594684733398,-1.905229311638584,-0.00018717997288868185,-10.760261572073587,1.4792959422751337,-2.7949594277680017e-05,36.66663811169323,10.117586967529457,18.422521723493215,5.586804372887224,-9.420485112198085,-9.853635021295688,37.46343451002086,18.867833363988197,-27.588056297309194,47.112856583379745,-16.66138262070912,38.85274661773552,111.9857937611025,0.0013145006666971347,-80.16619473429792,102.72847730196304,-0.0003389679580648865,82.85902442356665,-6.753732926556532,7.342491543045362,-0.0005296742808000228,-8.167433685366902,-6.243109272317187,-0.0010257508015665956,2.5958410272562737,-1.5033481988957733,14.290474853031533,-19.08305587544791,-6.758884755767818,12.708281181393332,-1.8120826914548285,-0.20599360219009996,7.693627010407255
-6.1262709853772455,0.0,0.0,-4.635147179108694,0.0,0.0,-2.931355599754412,-4.817783039743004,13.113794560730447,14.355491767255831,6.591061178326975,-14.759021968693732,-21.796460987828603,-1.9837591538324701,0.0003058305889002577,-10.825802134844825,1.6199495379663422,-4.6762704974803466e-05,37.032684776164345,10.238045729442025,18.5914627441528,5.732622238899156,-9.513127424894824,-9.719222281567541,37.50752680238663,18.945297742667652,-28.013975674557415,47.22531845286882,-17.039077590381716,39.20133238630604,111.81357096697968,-0.002168174431849238,-81.06749438601102,102.68288769257694,-0.000665626048964182,82.75442936292332,-6.746451091717076,7.642987042152836,-0.0003139149475455206,-8.410482683017042,-6.031807381357686,0.0001491915195038563,2.94698982317275,-1.9020069071434687,14.147123554599546,-18.76168188131528,-7.07634430752568,12.425725529259214,-1.8361593555657885,-0.22067159353148258,7.936972303748296
-5.802706022868199,0.0,0.0,-4.717573303716208,0.0,0.0,-2.6446459095977533,-4.745746396335393,13.239658209661348,14.622373909781741,6.94861442841883,-14.707641438166226,-22.34409409382608,-2.3422350952318696,0.0004564409599211395,-10.953947234322673,1.4721681031955665,0.00018660665940796703,37.154944167716266,10.539765121236567,18.275704773975832,5.701928068333672,-9.437665211207792,-9.826016616519286,37.846629088237265,19.066223918891264,-28.422628333687186,47.48881984048673,-17.34483882809466,39.52966308804329,111.42944184131214,-0.0014795358370486259,-83.56827613789125,102.82710741481591,0.0004969750275152713,83.46400478356543,-6.441457818116669,7.803822081313025,-1.2484751076150734e-05,-7.583686436086294,-5.555834553276244,0.0018420205146766314,3.1594013819411813,-1.6029576378111476,13.986532727771028,-18.549020809312083,-6.739131873625788,12.386922068762386,-2.239975097084108,-0.23677004009851899,8.215473068606467
-6.1288492827115615,0.0,0.0,-4.966670523376681,0.0,0.0,-2.1740692521619036,-4.569723275889724,13.235063219382923,14.874456297196499,7.381223983363507,-14.931493912418214,-22.952407109996923,-2.4156042003080778,-0.00037260900118998554,-11.148990368185169,1.1825001191923374,3.914673761227574e-05,37.35140123535547,10.793022909115102,18.259547094997057,5.725303402607066,-9.18573154184358,-9.600549975578303,38.261856649999984,19.642523374508972,-28.435664488766534,47.788171191610715,-17.44631790805783,40.175165963529764,111.31846770798546,-0.00020608932344455948,-82.49977630166299,102.71210174529061,-7.318363217444077e-05,84.12348486601684,-6.13200647438531,8.090579656466023,-0.007521925565546683,-7.685781013405404,-5.038060258704971,0.0005301397916145159,3.1315324376593945,-1.5316708103963323,13.829765685121108,-18.586564231384106,-6.614927772495898,12.266889200182007,-2.6109308395890327,-0.1407264533142342,8.213823471009002
-5.683542864285698,0.0,0.0,-4.1958118429158935,0.0,0.0,-1.865374040555925,-4.236582680955843,12.865895918451494,14.461006303836008,7.52510036003638,-14.65820833276754,-23.73809119254149,-2.2309531043936084,-8.241649412094272e-05,-11.226556337671173,1.0098916611911228,5.333815490163288e-06,37.77165938034851,10.895727971585009,18.710450912291762,5.803702467776152,-9.115345619542973,-9.771836154215606,38.287951864313335,20.28288001560371,-28.193870973044948,48.15281407516853,-17.577781609933858,40.848452162163554,111.48263284656159,0.0002124462833744672,-80.0305079651898,102.24185352190662,-0.004495914174077483,82.62781633359681,-7.456365180502442,9.6179289092313,-0.009956369751409865,-7.613727617137016,-5.301706874397315,-0.0008539214830916465,3.255512166326657,-1.89799973359206,13.822925943498639,-18.47926955978532,-6.952706266610658,12.123925781392153,-2.720952589235494,-0.04250647453364112,8.192822911661715
-4.5349488843653,0.0,0.0,-3.6824346616589896,0.0,0.0,-1.4603954613944146,-4.477272248062186,12.806049230724579,14.363783616918479,7.949407972017186,-14.328924901209412,-24.515615926373677,-2.0496530713575907,-0.00016599661178402897,-11.348671613356823,0.92956837131517,-8.238695829540553e-05,38.071897088635495,10.835898925010095,19.092116920391174,5.754531638957208,-9.349290839335689,-10.225863939271935,38.10915857525961,20.914194949403303,-27.83451123781297,48.859894123772825,-17.340071405907793,41.40013992172366,111.55210673439231,-0.0008964630533421736,-81.81168340620836,101.73920306228341,0.0023801764430231805,81.69208969117868,-8.55266800297338,9.306621780929875,0.002431829240013209,-6.718997890253616,-5.370006076655272,-0.0004960196672880786,3.4491289524006126,-2.129523847066763,14.383293469599508,-18.25070846051444,-7.375023301587444,12.561957792907716,-2.89493919307525,-0.20135458714908017,8.154406806142765
-4.487996218448569,0.0,0.0,-4.353194918501173,0.0,0.0,-0.7255132657476809,-4.642117609317034,12.904793434419892,14.559649669874249,7.632060262613614,-14.795855824346994,-25.294789887437346,-1.9833556685716782,0.0005783518964352533,-11.56275110554682,1.107287636828039,-0.00013131028288436826,38.422394347281006,10.845789508556285,19.067695199661625,5.729449513919326,-9.479835618194315,-10.114103907910255,38.22158044772879,21.49398253241181,-27.26353797402617,49.7987577693504,-17.420749707961797,42.135406104238854,111.48481312299226,-2.010674017783226e-06,-83.72402202566654,101.15081749520016,0.003277838534031664,83.1325498941287,-8.13516601640088,8.426270928619696,-0.0008225096909472004,-6.694287788534563,-5.261463438017628,0.00114719903866064,3.5106291396506206,-2.330065160694967,14.831956188406181,-18.161272448172664,-7.72702694724139,12.907440041488034,-3.1297573283166433,-0.2966124183302371,8.096018275149813
-4.260191575454963,0.0,0.0,-4.205676768722468,0.0,0.0,-0.30730222469745366,-3.776660324557463,12.576962901969843,14.263351020819686,7.240715131471718,-14.86215712015175,-26.227497808245374,-2.021866778286782,-1.1789999153744982e-05,-11.699802274622659,1.206724215564304,7.036980444876626e-05,38.80116684637875,10.824604036443443,19.12475889343022,5.6476448195366595,-9.658440535933416,-10.205642299071174,38.8237595147936,21.84953516185437,-26.951606238122412,51.25421312100682,-17.88598054495077,43.18503062156752,111.11174959432905,0.004192747276507135,-82.57129445078708,100.5690938044492,-0.004170700023399571,82.557672506605,-7.424266457650649,9.297522929826844,0.0008512171095611858,-6.122524892597653,-4.986234216364898,0.0010811212143468868,3.7436082064630263,-2.590999710701008,15.061509055902187,-17.921958385136946,-8.054209161083334,13.025347332156333,-3.470045501150441,-0.3590655519257874,8.228577110035092
-3.250256129408338,0.0,0.0,-3.063171399998295,0.0,0.0,0.10451063716784437,-3.6580310897002324,12.447363522659977,13.776824125213901,7.777599057326449,-14.810748396198449,-27.09709309917959,-1.8026951152492248,-0.0007415816097392099,-11.71943559411787,1.2408743261448918,0.00018389691706873694,39.07488795483328,10.413160123087787,19.325984896550224,5.4221988350156956,-10.169766121737451,-10.481317612855406,39.81766698129482,21.944949448634183,-27.02522962597422,53.55770218358418,-18.379538568788796,45.18847203714327,110.46898175516681,-0.0022463474618970363,-82.27160095401915,100.14220687904236,0.004575423641314597,82.46969962070509,-6.995964098228414,10.454799566517064,-0.0011846798766803716,-7.493837312104612,-3.9557044717169805,-0.007046817899278002,4.041796245560747,-2.2970483680353633,14.803363157841762,-17.630895933004037,-7.685790747269339,12.892951945761611,-3.7651923083621748,-0.7529781465084021,8.354908672094304
-2.741433083279976,0.0,0.0,-3.074156534111729,0.0,0.0,0.6314010646830613,-3.8725817999062824,12.818358398802438,13.644749151334148,7.625541969247882,-14.87372305587549,-27.738893427927625,-1.812588107275296,0.0005046533771682977,-11.912887886144821,1.4487945226857293,6.745837480685306e-06,39.062290429379665,9.833567985647626,19.122220492958363,5.09703338980141,-10.887353656266837,-10.764396163932028,40.63440614610459,22.34611321758829,-26.59221414247808,55.34893464761985,-18.614130103821356,46.92669376912824,110.11020883178799,0.00024143520087737956,-82.5603847633358,99.82466022760168,0.002089961985971936,83.00631367266507,-5.969936488330435,10.379528829397058,-0.002202418964566466,-8.733840583180815,-3.123704990322405,-0.0006363226450617865,3.8277756588458822,-2.20019788180131,14.143482016043608,-17.895159492816855,-7.352028643147694,12.311097227079106,-3.858556294268945,-1.4910100015548378,8.253334651198923
-2.375030867835257,0.0,0.0,-3.53749000150437,0.0,0.0,1.0378918905170422,-3.199013765345237,12.87224472448401,13.781426437773996,7.34456984601404,-15.05043835280992,-28.506223375623993,-2.040468319525433,-2.4030675994976103e-05,-12.585438069883503,1.7564302518211374,-0.00021508264624384399,39.08214511924777,9.467025539473479,19.01467832074026,5.064506038482656,-11.641279578776807,-10.971517583454304,41.40168687517456,23.185179779638407,-25.922775928588027,57.03445793486061,-18.80577609428894,48.50832406879478,109.99415888648662,-0.0002221057357117567,-80.30373726519562,99.25874388431397,-0.004079492024260441,78.8446362266368,-5.220185129203201,9.981641461955142,-0.0011961316855780522,-8.053219973388398,-3.9863769573409384,-0.0020327479840505625,3.5149550652756436,-2.581757605313448,14.053656140773144,-18.233848332692734,-7.673224742403567,12.084490508972966,-3.8142079131516873,-2.237682212556105,8.261344316316602
-2.459623805865083,0.0,0.0,-3.102724122857167,0.0,0.0,1.4829751801340736,-2.9740437472359176,12.993700279581386,13.758401336240263,8.068397164504253,-15.792435801737463,-29.30325053995367,-2.170255817397559,-8.52301856804522e-06,-13.808312041436206,1.8848476209683638,-0.0001227738644848702,39.20982459660623,9.380403162843832,18.880116230096068,5.443803386809192,-12.079528705220303,-10.715586421722831,42.15848068667587,23.881086263888154,-25.43175791666578,58.981463028284686,-18.973273664753307,50.24112486706159,110.16567153397273,0.0036980524558761826,-80.69417892238366,98.09089897932611,0.0037748230239675563,76.21633381882364,-5.759789282419934,9.145627622177997,0.0036573886345059054,-7.879812032009982,-5.619022201878285,0.0023787473196752546,3.1806074540091966,-2.4820004449913173,14.170254941199039,-18.55386578735502,-7.623706919474878,12.230939482285237,-3.647580571866585,-2.8355876163116633,8.522123179100488
-2.6431591188899812,0.0,0.0,-2.023492046310192,0.0,0.0,1.9349152745506766,-2.775984728209338,13.01112857262091,12.982117997700724,8.13050575121677,-15.79581166153024,-29.57575855107902,-2.4985889328131825,-0.0001251694924569052,-15.474731895461797,1.8474620771268302,0.001592433398047389,38.66198967354286,9.405897939268957,18.60639010966149,5.733005229878516,-12.334507654779678,-10.8808241778364,42.705191589747976,24.407272430692235,-25.174488817039023,60.81666992467538,-19.168118864149424,51.72204365685802,110.55745249095139,-0.0035765454058032803,-82.31480308815753,97.16531349931981,-0.00015481755669725602,74.2539392611525,-6.594552718738808,8.93098734928434,0.00196609676038636,-7.558969999658573,-7.213029680640179,-0.0022052129532532235,2.677643208852593,-1.9406765701332973,13.84881757837313,-19.056989799676256,-7.001936449349271,12.132230403403588,-3.644109059017009,-3.4049984648685325,8.952029377322534
-2.0814732602287673,0.0,0.0,-1.6166709014107066,0.0,0.0,2.1293035303489862,-2.8518725700592356,12.553987319792892,11.9705573116912,8.373898601493234,-14.877456867754756,-29.26301440942849,-2.7638949034166664,-0.00010942084961110091,-18.04649324963089,1.8589628566671152,0.00025117797939469506,37.82235862610732,9.25473324287546,18.442012017240675,6.4646408029733315,-12.869717629347821,-11.456138347536086,43.19729215751807,24.87728080546126,-24.669406081807825,62.59264241775645,-19.533999530221923,52.91148208927104,111.01828581492754,-0.00437584855171969,-79.5368814506228,96.99729207316064,2.5438063621232935e-05,72.9719363372962,-4.8995104220510735,8.5707625829734,-0.00617457024084278,-6.829031778528027,-8.045790589173697,-0.0003003872122804568,2.133355117840667,-1.617456811395852,13.578961112959401,-19.608509659017216,-6.601798103341487,12.000472652793752,-3.6841292168820696,-3.983222637625344,9.222503949033689
-1.4384473062544214,0.0,0.0,-1.7536958822646023,0.0,0.0,2.348437043101149,-2.681368379487885,12.31550349920144,10.678640341153455,9.500357795779106,-13.96467762019072,-28.964169571849492,-2.7253748584924575,4.0481458521081774e-05,-21.327175110299123,2.1909804576688465,0.0013025481215138668,37.04659197746046,9.055552397998568,18.248630970678153,7.384425282556037,-13.445696132479668,-11.695981412786201,43.659781450386795,25.29971296772794,-24.333925948592377,63.96220065227992,-20.220775038375983,54.157714879466475,111.23063358968383,0.0012932031563780177,-80.1498829418808,97.30841897308721,-0.0025640019237451977,74.69170871468538,-3.94239330156961,7.822760623809288,-0.002314747479191292,-6.5365735922580805,-8.829154214552648,-0.010460920429011722,1.3610602445442295,-1.4845436791537034,13.346362194681506,-20.393500663282932,-6.392189842086609,11.83266853879753,-3.76367959027829,-4.101186717093057,9.115579174411627
-1.6814380614706057,0.0,0.0,-1.811615540213184,0.0,0.0,2.995183715950251,-2.3443611980443477,12.40074020250296,8.242852041509183,9.854425586330267,-12.554612183131253,-28.826375988075938,-2.5419032294781907,-5.024799636656749e-06,-25.370118625320146,2.8218384049588408,0.0022359844569966496,36.22283103493428,9.076200409013474,17.44116505482466,8.58794674541826,-13.872760606038284,-11.848753825088119,44.068723242240544,25.431246985702053,-24.254060107423996,65.02992699401983,-20.755391661644083,55.54581790153603,111.27852026729602,-0.0006759752751300031,-83.49958097725535,97.61369051860592,-0.002312876370663374,76.20092360883545,-4.0037556630616145,8.016911128124379,-0.0028121763964459113,-6.168342196103934,-10.303635055084891,-0.019576047751717493,0.3735701581008865,-1.0721661562253517,12.729762778911349,-21.41196260167238,-5.780597213898189,11.410758318230085,-3.7522573043431273,-3.804474708627931,9.16360113238553
-1.9134,0.0,0.0,-1.4477600000000002,0.0,0.0,3.37753,-2.75468,12.417779999999999,4.0364,9.285310000000003,-10.52979,-28.449309999999997,-2.29677,0.00012000000000000003,-30.48714,3.858389999999999,-0.00075,35.284299999999995,9.017960000000002,16.15306,10.615370000000002,-14.715779999999999,-11.60992,44.33261,25.283939999999998,-23.84867,66.49928,-21.033,57.33610999999999,111.45123999999998,0.0032000000000000006,-87.16316999999997,97.96098999999998,-0.0032900000000000004,77.744,-3.2615499999999997,7.388299999999999,0.00189,-8.47293,-8.96219,-0.02974,-0.37119999999999986,-0.59631,12.16749,-22.18153,-5.129999999999999,11.06387,-3.74751,-3.5198199999999993,9.31236
-1.7917321481636144,0.0,0.0,-2.2109863418989413,0.0,0.0,2.824004813147284,-2.2783458091916335,11.968164930530294,-1.196292798970246,8.741376029550235,-8.696191555809694,-27.59247207119504,-2.163576818122764,-0.0005109919403529044,-36.17313706416929,5.417205698854663,-0.007729206063495565,34.29558969947056,8.769101933957401,15.141641730992243,13.231339702196921,-16.036017857825826,-10.66122841223087,43.67879697637713,25.888378939850202,-22.916658686928727,68.12168399398428,-21.547575516342924,59.37427874584219,112.09136047927836,0.0026361325728391596,-89.11100242676076,98.14471993124869,0.003355620911166864,76.31639050430391,-5.068122008416173,8.15370483383437,-0.025660548689516945,-11.330816954431453,-7.377300469319829,-0.003694252450897585,-1.2181165658884654,-0.6466529073068485,12.550238424189098,-23.00180594170393,-5.318860849878986,11.401943341667293,-3.682408358932202,-3.2071886400583587,8.792036755526649
-2.1781806070621412,0.0,0.0,-6.902042039833878,0.0,0.0,2.406210414665178,-1.4168150058721023,11.43242987079421,-5.852553580029628,7.996068815845055,-7.243926418697601,-26.571075015445636,-2.0703990401589074,3.343426014846644e-05,-42.6714420216131,6.927916730077373,-0.002542603536940814,33.289077493177935,8.74317061823675,13.978458131028367,16.193938033015932,-17.10967962504155,-9.691176249038696,42.93768410986007,26.923116029676425,-22.170632687540326,69.71615345356061,-22.601788689029004,60.8956090793898,112.86911205356785,-0.0013794590522089559,-85.74418545687213,98.28412251463413,-0.0021520808574971824,72.91015575019219,-7.2099782565077115,10.382908928946598,-0.00745596743443328,-12.92892903709808,-6.235264982504933,-0.003872291256466593,-2.2485929221961154,-0.5180005749816672,12.443685554682062,-24.03589984877352,-5.1598436829220615,11.35054014555622,-3.6339643413299836,-2.5884145143922512,8.209619390513643
-2.1428082981424033,0.0,0.0,-14.165066458512142,0.0,0.0,2.7698862152661796,-1.3026499684526307,10.502424852493936,-9.727783489090687,6.629616187620839,-5.465965987277182,-26.155871798593072,-1.6858818148802968,-0.0001275319883258855,-50.23303630882898,7.785583173379935,0.015128925225585598,32.45765653459866,9.006525256259364,12.965501406071045,19.33103362554957,-18.02961403514483,-9.77545643973895,42.87310850270913,27.84398959252505,-21.51522732173903,71.39682345079586,-23.332381158818766,61.70966908517252,113.17010550528808,0.0032435915950822626,-80.95487044358168,97.6208604117883,0.0014220707811121417,72.17890673163996,-4.995984985036278,10.191143029485906,-0.014131278156031893,-11.605063548401352,-6.231217819745851,-0.00302347356619898,-2.551486119450532,0.20524122512740262,11.586939057443777,-24.379435078275566,-4.170093862920836,10.822033097117224,-3.6727463475455604,-1.9430745516642993,7.66025106161104
-1.0753554260449754,0.0,0.0,-18.23791663044948,0.0,0.0,3.2688546298498213,-1.4868668601657398,10.309652798059364,-11.555032422891038,6.1928109874979835,-4.111918737566197,-26.017703646544298,-1.4357316386813879,8.169711497428251e-05,-57.908679429620996,8.591305560338807,-0.010259547241204103,31.526131971663755,9.652250025161345,11.819986502196613,22.114668716827875,-18.885023013445405,-10.317893455689376,42.68541644773972,29.362375915840232,-20.469289303596312,72.91578620223757,-23.460301229941408,62.746960685701275,113.84617242041469,0.00460787626302267,-81.15478843776877,96.46736478957634,0.010488933774188927,75.31487015548927,-2.7539712848606945,9.444336361226487,0.0018912068494519574,-12.913904475630053,-6.762659330990421,0.0011306349310296726,-2.717579415415104,1.3584796346093893,11.13361985932802,-24.551219109550978,-2.931001924452965,10.830125453836809,-3.877667336599772,-1.2232113229219008,6.876363223999261
-0.46436825371307267,0.0,0.0,-18.713256971399915,0.0,0.0,3.280073681760006,-1.1208199635810963,10.837586433659197,-11.131097355485283,5.964059751750435,-3.725797694394281,-25.441317752863682,-1.5569256211604319,-0.0005903083111779712,-65.58763045103316,9.86278086198182,-0.021327553865070775,30.478840111435108,10.390259082191669,10.458998683498317,25.046905089278052,-19.86981488245501,-10.069817182546526,42.520199133032946,30.823045909786387,-19.51671793504681,74.25937064394527,-24.792631414852725,64.01470044120173,114.6130770574841,0.0014479679342140673,-83.06746315133911,96.14525829894676,-0.0027355351513099818,78.76188103055983,-2.821212019537294,9.520712893310485,0.0018200816279212093,-14.997948686743616,-6.273829403463753,-0.003547388261520179,-3.1585591325497746,2.037682100731665,10.60707414179232,-25.018169738699893,-2.1047282993578245,10.594115977960218,-3.9101346968358244,-0.31264740246923606,6.499840842280221
-0.6209491785202459,0.0,0.0,-17.991367233770113,0.0,0.0,3.301392045410529,-0.7807763785410025,11.233132250395093,-10.714129651775671,5.139329919878457,-3.508994265694759,-24.85836183584979,-1.8312135504929725,-0.00024914925320683646,-73.21925558354182,9.928625697772468,0.01191646673138153,29.68205793023822,10.985925363229953,8.925647153375118,28.488387459408482,-20.945417787609514,-10.195486555501047,42.36189154300895,31.701627558657105,-18.423096666700967,75.45228876504544,-27.207208110072656,65.14806830208583,114.7051710105551,0.0005870765948880146,-84.33496739346025,95.70596630454176,-0.011958988148306307,78.5008644528987,-3.4269728928958973,10.350831033240954,-0.0027555349499706104,-13.834278931203716,-7.114804625323064,-0.008594531333191022,-3.7780803307638045,2.2840951853338254,9.494173393315629,-25.708911121932665,-1.461363023677265,9.653668724256775,-3.3795142019147018,0.23739147913882702,6.590399422131195
0.31659013404818925,0.0,0.0,-15.3843463026318,0.0,0.0,3.128596145809002,-1.3923980676199657,10.53853292641264,-11.54816704866308,4.618070721246839,-3.217568721673254,-24.784405583345833,-1.6178454433747302,-7.807860042564854e-05,-80.57238059689406,8.590642656228194,0.023860350703405,28.984773848764743,11.677496211909181,8.494236509851746,31.796224143329596,-21.863775897966256,-10.907742289336488,42.21607802954422,32.32363533027483,-17.95091573449792,76.6926498922142,-29.74647196287483,66.96472708273623,114.1406046726609,-0.0014186274984217407,-84.75743106536926,94.21597751550307,-3.276232458586316e-05,76.84707756333557,-3.3370865063126542,11.806083883217664,-0.000998335087957232,-12.887798567339111,-8.926658759390007,0.0016874536801836921,-4.697309177651774,3.063801622705446,7.911055609152317,-26.71853410964421,-0.14652155445389445,8.478835790760154,-2.8005936574876737,0.46511925312805985,7.13056335095008
2.2037221214071834,0.0,0.0,-18.848840617248534,0.0,0.0,2.1221361621282036,-1.4776683365820857,9.259651972400178,-11.17318550887049,3.6052758030439667,-2.1992549233690917,-24.829906913189415,-0.9528688771639298,0.00015858747970675798,-87.69567416160724,7.24136672821934,0.002566582344599677,28.547393988585167,12.140192626492592,8.456354551956442,34.75494771244647,-22.931134429086896,-11.475814806598757,41.75992330445131,32.857738763830525,-17.868518067822905,77.82159090156753,-33.12495702823784,69.58234876478353,113.89763781175934,0.0031925363315946937,-87.34297112331744,92.84970507476385,0.016062099850039264,77.66408416421285,-3.291954174973576,11.698785650546121,-2.412098498068071e-05,-12.75233684215961,-9.927297733699298,-0.0008742863265939622,-5.500202005372201,3.7662959158850535,5.375727256748645,-27.64861152679343,1.456051264152905,6.397694526831409,-2.444228658037185,0.7856234972855956,7.785351576923673
1.6137521122533212,0.0,0.0,-23.61294012156484,0.0,0.0,2.0863291628751104,-1.5904918485365092,8.121431325533171,-10.50400734341954,1.655366535617802,-0.7256560146239429,-24.848222265323802,-0.4655684941571797,5.657266293200104e-05,-94.4639758810181,7.334229608891704,-0.033432147529885006,28.20455228636811,12.209806991051138,7.547436430774958,37.50226359138327,-24.311247902932887,-10.425893545632285,40.72233907930435,33.49377109144587,-16.791801580266245,79.11778879666137,-36.76627345673369,72.8582340756141,114.51772222002785,-0.005149072620451277,-87.8176306557647,91.48992633104004,-0.01904492797013191,76.32985918876813,-4.478999296342525,11.085810087439718,0.0031179227019243346,-12.828511185717677,-9.777273893899196,-0.000503814603977179,-6.06295129135913,4.450067770635409,2.911503941235288,-28.309151734736673,3.017792773099884,4.378762159930756,-2.36617026286061,0.9522150179442728,7.963457589626764
0.22294172069390847,0.0,0.0,-23.279427384427507,0.0,0.0,3.0552539779856254,-2.0330088870342795,6.9354139412228175,-11.458309587953144,0.5709383984973112,0.09538104333633829,-25.026369403425964,-0.18642949092004377,0.00016149132081715275,-100.63649902612994,7.271677298603376,0.012290265179628833,27.802567470554546,13.080401457400209,6.522851033146291,40.27389584082523,-24.81459037743567,-8.979180249239045,39.589278423740524,34.06221424523434,-14.951088020527404,80.93250898956136,-40.082040832187076,77.31305211517396,115.12418548514984,-0.0019049277531035806,-84.51533458364898,89.30309262174971,-0.010586203351244697,73.10780369187198,-6.015799201935704,11.405002638087364,-0.009662690283453672,-12.726455289268248,-10.720094577811702,-0.0005526524005433052,-6.518068912736482,5.8439204623118215,0.9460951326974353,-28.850164287963082,5.049918777386106,3.092989264058762,-2.1055022159274484,1.5719161463329485,8.341133408231988
1.4521493431479957,0.0,0.0,-22.647252371570055,0.0,0.0,3.477847833065153,-2.6065565573345113,6.1849278509919134,-13.019207248310215,0.6419137585679947,0.5585200158016411,-25.466608272235344,-0.02072194745364316,0.00041766615861983826,-106.26967355240905,5.780202282379164,0.015690405015562865,27.670812218919387,14.813341641484813,5.113088288571063,42.8249484649004,-24.59585463562186,-8.956079293647267,38.552192611272574,35.127420855089035,-13.589651309391776,82.63323815197104,-43.620092503412515,82.13024370940722,115.4593494816403,0.0026399605765507835,-83.27521765002011,86.96752988845815,0.0030345303240302923,74.8522655247409,-7.519916019902348,11.892815321730385,-0.0053760339558057415,-11.77649906131137,-12.00671473919506,0.00047595609337038785,-6.999154332209741,6.916329591841947,-1.1490666133663012,-29.406124902343958,6.834061207476901,1.5674089701669787,-1.5946125287925816,3.1181766906378248,8.993272552590163
0.8345651477397382,0.0,0.0,-23.48207704998487,0.0,0.0,4.320432292764846,-3.2006044808064233,4.806531134220116,-14.906434533854235,0.3280067233413012,1.716135213660355,-26.182225132658477,0.13435004017231728,-0.0005216005746543108,-111.80534225708867,4.904028951594029,-0.018064111611531253,27.939376417289136,16.58823626898363,3.772584171798437,45.5643069047299,-24.722868926913414,-7.932316105931369,37.64856357130611,36.06176711194923,-13.038982238742314,83.26696177486392,-48.33629715142432,86.25517633337448,115.74602242365538,0.0001398337639150239,-83.88153868685194,84.87587888760486,0.004326884788038719,80.93818082703518,-8.13739792203347,10.259488966307261,0.00017967735967103655,-11.469368221665132,-12.088025398391522,0.004285058295525542,-7.517309562605285,7.830914958496806,-4.182779861916676,-29.979173600234134,8.827715597696212,-0.8873611430554998,-0.9664821265118042,4.926772228392014,9.774967599258863
-0.516043166714335,0.0,0.0,-25.971578451142335,0.0,0.0,5.2877714722927704,-3.820952761493269,2.8843148711577036,-17.194121498255573,0.22514867864367957,2.9925991383099406,-26.634051981819535,0.3515738315872853,-0.00010104164820523067,-117.24208410825457,4.394900303167341,-0.0008332406696610162,27.732545567704044,17.817476703852222,3.1446931029914094,48.74156282174275,-25.684398982019555,-5.0582408732757305,37.299802438441326,36.73249780829175,-12.97059946688218,82.92868229784332,-53.5010694375559,89.2030371651738,115.69942802031073,-7.174570905198936e-05,-83.68979882397205,81.55367751725066,0.01057303159738259,87.43898906326311,-8.12196292006499,9.35584175573672,0.004008883088021412,-12.592406903430101,-11.354510837497916,0.0032033383563705264,-7.582902766023631,8.994145390937495,-7.430430660640255,-30.075787026423257,11.130965056504413,-3.450049343451324,-0.7750147976293418,6.11366485344657,10.47297506033707
0.39392526172664744,0.0,0.0,-30.322372498540638,0.0,0.0,5.528904623582207,-3.9963928774501762,0.9463768519431228,-20.77514193597014,0.6019592948153586,1.9367058219495399,-26.871543038570938,0.14277521016649863,2.2881147514373106e-05,-122.1121351904771,2.6695541718956495,0.01469650068934444,26.99633273251433,18.718330310500242,2.72461666844351,52.26782304874813,-27.522352942769803,-2.3253319103629075,37.57212222279553,37.76399148786319,-12.511423617048125,81.74003305980987,-57.943599138005084,91.05278536624554,115.47225778603374,-0.00010780005971253596,-83.11781878466721,77.02377735393486,0.04296964877462039,92.65874581749239,-5.981529225360863,9.285675701587095,-0.0011582180780408912,-14.316582680785455,-9.681165463346519,-0.01092913696421941,-7.744511483328417,10.083109655994319,-10.06632884768655,-30.247526419125787,13.13178567919839,-5.480310291808951,-1.3255244561682333,6.831859314959835,10.253048129145478
1.015784712837134,0.0,0.0,-34.51234164284873,0.0,0.0,5.753211853810573,-4.326007162943449,-1.3462916468526003,-26.364537115942216,0.7523385038089491,-1.2511559759254538,-27.28401255507091,-0.16983128805639622,0.00013593253111883032,-126.10610556452372,1.1771514812760588,-0.00826770551102032,26.367657053751206,19.760263776654728,2.0922332236968546,55.64828290635293,-29.82446769604791,0.8414136160978707,37.85557927462806,38.743461383182115,-11.975324495945234,79.96303344312079,-62.23189657220913,93.07021308707246,115.45058647218694,-0.00043318132915018414,-82.78606659710529,71.7078696626364,-0.05865499467934186,94.21827683433658,-3.751501381237397,8.223711265312163,-0.0049666170419131375,-14.894159511804203,-7.628322355005702,0.009767857317335251,-8.204229374568358,11.15985763564828,-12.486048072261653,-30.705349733837558,15.036787639971797,-7.320758345783383,-2.2006155285680786,8.101909422759364,9.044566316067144
0.7518750956560271,0.0,0.0,-36.96699335998596,0.0,0.0,5.982919444750229,-4.752526211169859,-3.108212429058918,-31.436665795830155,-0.5478755138963377,-3.6350158202062444,-27.69370503779235,-0.7277617428954276,0.00013252811597037136,-128.7049599558716,-0.26852381152793464,-0.005765494113865083,25.5484652189346,21.290734849771866,0.6291156383732774,58.44590970780343,-31.635779037883474,4.07424984361782,39.01089624597029,39.15484462706976,-12.800562227301432,76.81127512793466,-67.37621141439955,93.34262147592004,115.4207963182003,-0.0010410867602339117,-81.6767582471122,65.59262981554342,-0.013761965531491368,92.53842630464514,-3.1544658242534247,7.496687271842913,0.0020586410784282673,-12.39056389947656,-6.5628323686720265,0.0003216514782081398,-7.954609220642693,12.487659324505696,-15.138133330016514,-30.45188661326169,17.256886794002696,-9.288526555719685,-3.679692498069574,9.959992505203465,8.116760037331105
1.4518899999999997,0.0,0.0,-37.9922,0.0,0.0,5.80678,-5.222549999999999,-4.96134,-32.25734,-1.0376099999999997,-5.75727,-27.809990000000006,-1.4608599999999998,-0.00031,-130.27538000000004,-3.2927799999999996,0.010669999999999999,24.5085,23.582250000000002,-1.2205999999999997,60.47578999999999,-33.21751999999999,4.70454,41.50296,39.43935,-14.99503,68.73746,-72.03843,87.81637,115.13177,0.00022999999999999984,-80.57507,57.60513000000001,0.008230000000000001,93.42814999999999,-3.3105600000000006,7.333719999999998,-0.0007,-9.275189999999998,-6.9018299999999995,-0.008470000000000002,-7.00001,13.504849999999998,-17.646239999999995,-29.44686,19.13101,-11.256419999999999,-5.678980000000001,12.333789999999997,7.391739999999999
1.9179356841156177,0.0,0.0,-40.23102438594562,0.0,0.0,5.753331492233366,-5.535983667159139,-7.496394777017878,-29.875284414463415,-1.536229941904593,-7.860990677450938,-27.979823557006792,-1.797324321400556,-2.7988173002252867e-05,-131.13008170320387,-8.480537992650362,0.009780085944711192,23.1892118758197,26.010726776279554,-2.4857578745153357,62.37751015748604,-35.096609021386854,2.560683340994432,44.01377248346547,40.04423075297325,-17.135166655036876,52.563754204584725,-75.15850646713199,73.15498374543502,114.54435427878586,0.004839830181903503,-78.37670851337151,48.68070144972933,-0.009257849010798243,95.5785600024494,-3.349594088725259,7.475605540808024,0.0006539677726478022,-7.475469169640184,-6.555678049680844,0.0002529075931516999,-6.133811997921902,14.334568091236667,-20.215885141567103,-28.47488943229054,20.848446677798872,-13.373983350589185,-8.003384640805727,14.927598464188566,6.2144469644669975
1.7645643690280974,0.0,0.0,-49.10601075635621,0.0,0.0,6.1654564005755095,-5.83918155263305,-9.084959879040904,-29.371599369989077,-0.6372856542133265,-9.687949362899316,-28.451185417004027,-2.0854973903378182,0.0003416374771876276,-130.30224199917785,-14.047107173262894,-0.005527761058225202,21.512539307350792,28.51305345682998,-3.3123994880681873,65.83542309443855,-35.95394181869952,1.5046858318735088,46.9383105218378,40.80458450851592,-19.299166477183984,28.041162414537563,-76.52812768225544,49.12821274198704,113.61247699105667,-0.004794434564261375,-78.15448472248934,41.20841923217954,0.0329082380588317,100.60582571179638,-2.559894890959903,9.062138225258586,0.008912480048084063,-6.824341345985241,-4.865673258456131,0.00013047476261109293,-5.321706943419384,15.675736820318562,-22.596647389276207,-27.628612101898398,22.962588889307735,-15.117710239769,-10.716453167039901,17.23442156200268,5.807599411999117
3.4306013916742852,0.0,0.0,-62.983865697285665,0.0,0.0,6.032806973638678,-5.987828107176081,-10.136652826150604,-28.65509975476003,1.4130582441117725,-11.193014582542073,-28.682818854292417,-2.4269719192795614,-0.00021488297529515403,-127.61445875580458,-18.917959770890448,0.0011574776154380565,19.470953163905392,31.571726390801704,-3.9509286898493117,70.02208241277557,-35.98829130298946,0.7920985801599563,50.17536149970319,41.75630054625458,-21.730015381991585,4.405392001597296,-75.34662107992612,25.46219219293687,112.92507607823913,-0.0023274996075364407,-80.25678630417914,34.9834065761685,-0.02300559050508487,107.28863329370796,-2.4758262700806064,10.897315069365671,-0.0010613294139090056,-5.488371415464406,-3.6641667295652143,-0.00025161844430650153,-4.689304097032762,16.911825396789645,-23.64238407651674,-27.088207862845156,24.487517558030742,-15.618235556644237,-13.911718951643495,19.821621540217834,5.782585689249569
4.6951184852659145,0.0,0.0,-69.77773105525198,0.0,0.0,5.744155801486892,-6.639655884637547,-11.105913027407016,-28.03237037230403,0.838683715762973,-10.232679349773662,-28.710214533038226,-2.491126880038882,6.156843456842719e-05,-122.93912687894107,-22.53802310080937,-0.022448572291982605,16.897217504115115,34.77121280920474,-4.363622620821358,73.90041930008135,-35.945774500651,-0.41911196603941436,53.168476596855335,42.553395963766505,-24.236723022546556,-9.192909987593834,-72.71354143763504,12.007009805309966,112.26116405469692,0.0033196131422538766,-81.58833716381503,28.136474238011278,-0.017191414482346106,112.89192866019545,-3.7031364181002373,12.016449041241355,-0.0044835182076068784,-4.150702629204416,-3.023062728790411,-0.00251745406512467,-5.15117011730503,17.813337674391217,-23.54758191524432,-27.720513491401082,25.285894894069436,-15.146024549932978,-17.600537343929716,22.86947876918968,5.54752467701812
4.301040377476815,0.0,0.0,-71.54587966462513,0.0,0.0,5.884701981516847,-7.140920346889896,-11.597741663466428,-26.82356618102062,0.6036831126946254,-7.2022014844677065,-28.704844442650533,-2.510547741249059,-0.00020523613400577091,-116.19544659098776,-24.97768152443711,-0.03412431686103403,14.370736200845885,37.13661289533955,-5.058999070591693,78.1605727652126,-36.323760606923855,-1.2398001459102026,56.833155451800586,42.75337660338575,-27.137668271236382,-16.363646631227876,-69.96237843828953,4.808958137462064,111.38716537660851,0.004017544133676462,-80.72265199255443,21.04913840302419,0.07031046907165052,120.51231984929521,-5.8239036977958065,12.39162365389941,0.0030044131168514,-2.7403175304650804,-2.4216360962461114,-0.0018736493665637958,-6.172615909349682,18.573109244149713,-23.19091312577419,-28.920286065219972,25.85649078034824,-14.474899829380774,-21.272161598241635,25.365273708632817,5.477407906589617
6.119721378764977,0.0,0.0,-72.5909098252782,0.0,0.0,5.709696416720272,-7.0546846092923925,-11.317017066101378,-25.15934737568663,0.9280294507092253,-2.4328075948602312,-28.454515549848793,-1.951869794173075,0.000798075552871636,-106.62931028932844,-23.666072446767835,0.003458543285750648,12.503529870691159,38.241069051413945,-4.778408373682366,83.07943023882659,-37.53196116999014,0.757235644307748,61.32008060567266,42.423526375751365,-30.441279316280294,-20.574533781199023,-67.33495133010217,0.720674275469647,110.97760101160769,-3.1665411280886466e-05,-81.95717041981686,15.71674681062014,0.004511728702915869,128.9483909575049,-8.415357983164405,11.596875031380518,0.0056523670900716985,-0.011923578278641933,-1.6581703283297178,0.0019242723265692784,-6.537469474635553,18.371325763435955,-22.306573416616473,-29.33808349833973,25.345750391167545,-13.703940595012103,-24.50881071896651,26.731788807711954,5.342996768512934
10.128269076084582,0.0,0.0,-68.52597865899283,0.0,0.0,5.231176892681776,-7.107400516098216,-10.957458481632791,-25.667247330624306,0.2669618109458078,0.43998845762933564,-28.085011448542655,-0.9696904009952075,0.0009711174828022009,-95.67945163162959,-18.969402665478828,-0.011974268303077556,10.683106807483387,39.57334236706743,-3.203032341505113,86.66078046005475,-38.82898703100106,2.9135143328439015,65.79508804273503,42.613073165230006,-33.286425022824254,-22.20865419155273,-65.3219084794546,2.199058829901737,110.43684419841641,0.01203777786521435,-82.81175334959167,11.906203816373399,-0.03790747243387371,131.9712551626822,-9.101011020834905,11.41000375157606,0.0027504785108870395,3.710917378929254,-0.7470106335667223,0.0017007453762948575,-6.669515754655721,17.81986571821552,-21.01158900966424,-29.494389563600592,24.360156694628404,-12.689136951966669,-27.624164333131485,28.057186183996464,4.810333500084886
11.094688883618165,0.0,0.0,-50.44134986076426,0.0,0.0,5.421083950244016,-7.696989902092429,-10.45204818712744,-30.0823195165771,0.552901168013211,0.06330508505684712,-27.949899246861776,-1.031903592346992,-7.686653827055495e-05,-83.77399274458638,-10.775700315399797,0.16737549401144053,8.361607379748206,41.297045552980805,-3.348546883660404,87.95889682174739,-39.842995657954546,5.880456486300043,69.61692488775417,42.78289784889811,-35.714940504348924,-25.91089921779136,-63.58980637758261,1.220919814706804,109.02160885201152,-0.003905320639445533,-83.0667513501476,9.918012319778287,-0.0020972448371130163,130.4511148562176,-7.949189446616239,13.020724198122153,0.0033633043079534662,6.557349149776055,0.5723546138682439,0.0005338166352715064,-7.336044005853573,18.131740727741875,-19.811735974817488,-30.3196596719431,24.203249958226177,-11.402646950452436,-30.413652937630065,29.802729532665264,4.175010532083946
11.27441339067427,0.0,0.0,-32.3501711972944,0.0,0.0,5.647070945322475,-7.775104442475032,-9.869697378405107,-31.476567391642188,1.4114588238803836,-2.055854645977745,-27.92438441883971,-1.6166144610975237,-0.0003467612546252603,-70.50749152581302,-3.0833838778323788,0.06630135430359722,5.594361005913281,42.305113321696496,-3.688698897843542,87.89851184327412,-40.31677989569231,8.37648664040895,72.99544277020252,42.00255963108128,-38.32913221614079,-30.567950246914894,-61.567770500676936,-1.5805640539748673,107.42462012932852,-0.009579936532543966,-86.04037920388052,9.405280274318628,0.0001336528848136543,127.02441655871627,-8.818901982780448,13.957728875113405,0.006081830855485298,7.081179888509416,1.5766558718169643,-0.002910843109589704,-8.70795844156616,17.974445226720807,-17.915135649051,-31.80787623891281,23.35266527139576,-9.656622661948289,-33.31323043007744,30.841455692148124,3.230101805633783
10.757456059829858,0.0,0.0,-28.286360679449842,0.0,0.0,5.8826457275984625,-8.024184397685925,-10.042818625579157,-32.570629778534595,7.26474285138362,-4.422176599619293,-27.805376522464726,-1.8000155455248255,-0.00047510601792234854,-56.32767479263236,-1.7805517443675938,-0.1442527893076202,2.9997383047127624,42.46156378615663,-2.206074132951562,87.80450741844292,-39.10964928935945,6.39530333118156,76.34438390945087,40.354866201360025,-40.3064445712485,-33.91385889161024,-59.59191677865333,-0.45929629913847847,105.88126893100137,0.0030032364740616925,-87.44909264434727,8.992381367723818,-0.00924656935976408,121.64725731942468,-9.417384256395835,11.801444553787992,-0.008983092136018151,6.246761536023593,1.3582005138407156,0.0016785474203226346,-9.057124182759651,17.625007356310302,-16.962326710099564,-32.16195441351999,22.67527736833772,-8.89899573145129,-36.360716809848,31.00283361358682,3.412635874248038
9.03526431545801,0.0,0.0,-32.27452484051485,0.0,0.0,6.407596219426003,-8.525403486176444,-10.522025380210136,-42.24700905620252,9.186811302480077,-5.962919526821379,-27.882963810931173,-2.361016798941354,0.001047574438908159,-42.603265364616654,-4.432799934813417,-0.06311742263070226,1.9030971394444083,42.35949232615742,-1.9980344189540558,87.97698111234456,-36.999806141884626,1.0038025658953178,78.22604895875754,38.369084123487205,-40.69165961189191,-37.78777553020903,-58.17698720236541,0.12091628523070701,104.56082288003414,0.001988327979448415,-86.98582353150282,9.766368636683074,0.006119926487652796,117.6782754926206,-6.269586689844887,10.280715026409812,0.008832239832566662,6.728815861835069,1.2589650477803385,-9.022573856970501e-05,-9.538573157104382,17.963671626321158,-16.61334869896395,-32.720845016649214,22.856092611321408,-8.423277207403979,-37.63832014297104,31.157676135675764,3.091420653256843
11.74185843242774,0.0,0.0,-30.938572905600292,0.0,0.0,6.113071300033263,-8.481008519883064,-11.847504889024734,-52.04777957382031,3.2482989834604954,-9.678889231730494,-28.59199823964197,-2.413001493515489,-0.0014337660087512642,-34.462224993982424,-7.0473419375693105,0.016377985229535433,2.3593755125493514,42.00294125809751,-1.8837080387525342,89.11201660203878,-35.69976451568659,-2.755701387346116,80.66384771629862,37.270157872070534,-42.69777252358504,-41.82001427920745,-55.87925189116988,-3.0114143811771124,104.0166279950722,0.0075426257580429625,-84.6930852249638,11.23022759550731,-0.0013421036559958155,119.53153642792256,-5.24092545152118,11.372201536564146,-0.0007115817043210252,9.119534691350037,0.8055086237610971,-0.007289190117050409,-9.867321512962814,18.93551968006677,-16.66992313147098,-33.21163533047927,23.77013124414885,-8.059026061626406,-38.19043884005421,30.81987308169823,1.4107940973327957
14.699119527941699,0.0,0.0,-32.36839635911677,0.0,0.0,6.057392326873398,-8.19961887902603,-12.77129827003613,-48.75979867806379,3.149952056089969,-11.281794918000644,-29.631520640548796,-1.8361554915169198,-0.0005459132186263497,-34.56567565172465,-8.90186694472137,0.03642064994865383,3.5393251086251274,41.650523301083744,-1.0794619350147052,90.26867688773528,-34.98666275647758,-2.9611914691339893,83.16629510194404,36.9615351890736,-44.9649629003107,-44.249710266993254,-53.652826489945625,-7.134449141358181,103.14277677176362,-0.01026729529379166,-84.43527538367704,12.11888949439507,-0.008250809676772115,126.27030503543645,-6.347139721032628,12.822891521124532,-0.00044646289941829685,11.477666467835727,0.7665864583261426,0.007978126987362593,-8.87722999882139,19.09094589343879,-16.700896323975037,-32.247009288012016,23.92443242900171,-8.021038707194949,-38.75935229024124,30.703295453364596,-0.06736667140294161
13.736938793125354,0.0,0.0,-38.3385001298025,0.0,0.0,6.981931296530481,-7.760594083066366,-12.439353361605592,-34.863422172247965,12.970836181382468,-11.427337987831486,-30.511234464825826,-1.6069207775504921,0.0010092997130426967,-40.318044353745464,-10.273479949461636,0.0321410783028056,4.005702002708776,41.66469993542774,-1.099444295688124,89.49999896411192,-34.37474940928893,-1.6940366667562567,84.35534505614488,35.486490453724315,-45.72364953550714,-46.83463857335627,-51.93414280896586,-12.446042199698239,101.22959514643809,-0.03251861305184516,-90.25841816762275,13.171130780716302,0.0015365595258198742,130.59825539027983,-7.606327398150986,13.050360427262286,0.011397909492907529,11.869575377342814,2.40408227884469,-0.00032941316957624766,-8.341938098408745,18.51850281691189,-15.912923826591085,-31.65698996427077,23.10328929912862,-7.521526200071975,-39.282799455834876,31.26151297942787,-0.5121908847641448
11.3570052624444,0.0,0.0,-37.85389067104285,0.0,0.0,7.993266729059508,-8.055029018142681,-12.094244372327562,-26.92944445023335,16.29734862274263,-13.803723980931535,-31.14752584986328,-1.2143880501706807,-0.00046124733132946655,-46.276466627471244,-9.29259901009909,-0.018040074328171198,3.9486116601474786,41.14592754623977,-1.556250836595684,88.037567545079,-34.376029152240186,-0.07703802791916124,84.64870480798164,34.08910514901011,-46.30987969512321,-49.827132310936825,-50.27725229245931,-17.24084064194552,100.21238338463397,0.010610424859616264,-95.87476651313341,14.07529978838358,0.008843403745078497,129.7256378320414,-9.979518780491821,12.097663784906851,0.00465326001593056,9.107272426509317,3.8396759997343795,-0.0066885954193394125,-8.991764169074443,18.07075303003496,-13.85225330199676,-32.331073034659354,21.91734858823035,-5.768683772111072,-39.46049872659477,31.491628964437027,-1.3730315800491826
12.196670349359787,0.0,0.0,-38.93803283888089,0.0,0.0,7.671829724881093,-8.081021020939499,-12.2282346904238,-29.348376838730644,7.441843503830089,-12.416838239827088,-31.610492360169626,-0.5955219838139372,-2.258186653957244e-05,-52.54893954890584,-6.186328203138164,-0.021684468641464325,4.641955097134193,40.87938128234086,-1.3395621024099225,88.1757309258766,-32.69151838845307,2.51983429032472,84.268228589529,33.22639200560005,-46.25172713476352,-52.226196956364,-48.67948130842538,-20.99244517791141,100.28466086336927,0.004218175941563513,-96.84907880877427,14.582567233586056,0.0002807203209714199,128.6295094815824,-11.02342090611104,11.810190072180694,-0.0017771447023293176,6.546879115918627,4.359751850728022,-0.0004319640762466996,-8.917116006099944,18.250202527076446,-12.420443824506616,-32.336234477298895,21.542172466567575,-4.347709082224607,-39.127476704442955,31.552112770902134,-1.318487314580556
12.54749,0.0,0.0,-42.626169999999995,0.0,0.0,7.68363,-7.35253,-11.40111,-33.383359999999996,2.29619,-10.611560000000003,-31.88944,-0.48915000000000003,0.0008900000000000001,-58.870509999999996,-2.96429,-0.01163,5.452380000000002,40.335240000000006,-2.48053,88.2764,-30.78215000000001,5.5214099999999995,83.72771000000002,32.26942,-45.82149999999999,-53.879749999999994,-47.40745,-23.712919999999997,100.54241999999999,-3.000000000000008e-05,-96.2218,15.298039999999999,-0.016190000000000003,130.85738,-11.056229999999998,11.633189999999999,-0.0001699999999999999,7.700139999999999,4.02683,-0.00543,-8.88244,18.40816,-11.49052,-32.35183000000001,21.335870000000003,-3.41013,-38.78923,31.44501,-1.35501
8.840027996013736,0.0,0.0,-41.19237314126028,0.0,0.0,8.519928465304556,-7.445217813529631,-9.804155566400865,-33.391083862852675,4.435040495883154,-11.15364402358095,-32.0069239484414,-0.6200518932171479,0.00014603878049564964,-63.58718708306622,-0.5572431882121331,0.0018756656546222604,5.9080888577269,39.64479085628098,-4.433256881407383,86.51217643785695,-29.89643233874869,6.469338404853236,83.1452014267522,31.11761429515955,-45.11860156495948,-54.44870471042192,-46.65121942343717,-25.78825307227445,100.63622249981215,0.0030345899876499578,-94.07677224093808,15.790520756698378,1.950902184189745e-05,134.14620661158227,-9.303447555077897,10.879653056743585,-0.0067233089492934285,8.45342314128471,3.7942778165581257,0.0006679991433333819,-8.908054960210356,18.192081406999257,-10.466504482654052,-32.36592565791087,20.75055668595984,-2.5467525332994665,-38.90025672856105,31.505237359983425,-1.6490552404859649
8.362540595758375,0.0,0.0,-41.36844839648538,0.0,0.0,8.058769384268679,-7.865414426367318,-10.223117663684974,-32.945154134670084,4.6585347966846085,-9.299188180333834,-32.08678302701218,0.3528301913929196,-0.000633345065461729,-67.52290870843771,-0.5421695271558724,0.01573745184295397,7.352817137052532,38.88718381408014,-3.3508218043968823,85.59181996192733,-28.711993420990584,4.032986181558231,82.84896585633211,31.037975783561286,-44.668146188911024,-53.31439591265189,-47.08066442414513,-25.636597221406937,100.91957549819577,-0.003966303148203939,-90.33046869833048,14.69122692202736,-0.001189679350532922,134.94684978418044,-6.873547461334042,10.743636142555987,0.0007866058364333075,6.886088143838527,3.776111275378688,-0.0014210582804249213,-8.311317783181954,17.393023250236727,-10.206164033447145,-31.656333066511095,19.918769629916017,-2.6425790830144633,-38.00283176509525,31.31503253503142,-1.74395275914344
11.212585101683075,0.0,0.0,-42.28520184889276,0.0,0.0,6.991819453504146,-7.911612961220349,-11.67760973362554,-34.13264592101792,1.6945594338779688,-7.949282519725264,-32.055780123473816,1.4758875112298335,0.0004376165334590635,-71.98375535589501,-1.8599790944609942,0.010058261082056628,10.360879590309395,37.692567266230135,-0.5844651826694428,87.07661785872463,-27.36110215121458,1.299891789518622,82.58100007663876,31.45623855383785,-44.66461950043745,-52.23580181746653,-47.24144631494765,-26.622811317609617,101.41542970164525,-0.0005451297722793799,-87.35595037073556,14.060750012450391,-0.004126341750643453,134.79398130642093,-5.323791750019394,11.99544064235127,0.008872875033545159,3.453501140420978,4.0192961325189875,-0.005290770945152395,-7.730175033007718,16.655760487341492,-10.593415237406003,-30.962997902752505,19.387966234528804,-3.313257381516096,-34.87468859385157,30.31717240553048,-2.316093375429232
11.606000650074328,0.0,0.0,-40.50730659718804,0.0,0.0,6.80042735052099,-7.316522961022142,-11.644021001830431,-34.08221685133358,1.4536572696724104,-9.073538420395394,-31.514355059571418,1.0074486589754623,-0.0021341449814391666,-75.9353238430881,-2.5096469531868095,-0.003770027631339134,12.420730784622927,36.45252860772645,0.5150316973134392,87.48240450770324,-25.89422397618839,-0.29804205780732346,81.79271259911692,31.49306585693148,-44.39305142441015,-51.343810385262124,-47.56479959861601,-26.97442137482412,101.55885851145918,0.0006070266930351214,-86.43493174683847,14.513822498821751,0.009596468455982703,132.32900824213363,-4.141218592725009,12.755874913878948,-0.0013278575223404808,2.5536843333352754,3.9825540402577526,-0.002088397005271222,-7.6271783888617914,16.619850764675434,-11.3411584575543,-30.83574925376849,19.637455292023308,-4.026802273453867,-31.931313685306854,28.85394688634747,-3.0537044397427007
8.46223194838249,0.0,0.0,-38.56122703449641,0.0,0.0,7.012145708838854,-6.843631533542972,-11.585331235110043,-32.16305114621727,3.476573033453309,-10.203104287516062,-30.725113689347555,0.01843918625007505,0.00119862179021528,-78.97393969500054,-2.3648821535844182,0.005195912906808379,13.275274307466294,35.596817716651834,0.18324448704640806,85.48374087703787,-24.60292543653437,-1.947783300318966,79.92738888591805,31.07741151512427,-43.48401916559653,-50.10829809354236,-48.33640184784049,-25.34946134188116,102.23445203009146,0.006530564374336843,-88.48928056325661,14.980042246703466,0.00244133386266537,127.08654059922422,-3.3080788026476755,10.94018842953014,-0.007847649269360876,3.9028460158756593,3.471148893386829,-0.0037046470683403596,-8.1247630147184,17.056736306139943,-12.724735534334865,-31.35178664294269,20.561011523978074,-5.139332003860874,-30.155774409131077,27.859876375949995,-3.7236717762617926
6.275653849828993,0.0,0.0,-36.90152090851829,0.0,0.0,6.563998139146061,-6.067825424968657,-11.818430793991945,-29.388096802617646,2.7078796721590797,-9.964496518894343,-29.92754836226851,-0.6311978183957478,0.0009747107555081416,-81.95617443916716,-0.935197363024358,-0.011352129434807425,13.640572198208837,34.64971278143223,0.939620993550588,82.92430564055695,-22.973634642270625,-2.342822187580233,77.58752628175974,30.644982443223352,-42.389163633747025,-48.62845040015196,-49.88808048632053,-20.17929658698237,103.61619132393777,0.002596361595288252,-90.7891437105142,14.55724835342902,-0.015136596447122083,123.42626914790003,-2.9863740197734576,9.311549829492135,0.0015025735493903244,4.63288381389408,3.1167695825994004,0.00015100960778196835,-7.457436176205752,16.260618276013595,-13.46540242176163,-30.539040946521098,20.108037493349464,-6.168935817931119,-28.628296348454548,26.936727822783944,-4.079085037302171
4.0605145166778085,0.0,0.0,-36.67445563589663,0.0,0.0,6.214559835690835,-4.927897879522532,-10.045483199947862,-28.88665896619213,2.8949580078329107,-9.228481525700927,-28.935183003523107,-2.0228657603468094,-0.004214955103174412,-83.85983462115297,1.9319458881294465,0.0010311046763297619,13.260764292576413,34.00728227642276,0.35882611219946936,79.12815833080344,-21.264077796084194,-1.6387405978306704,75.33202382085153,31.551045300106235,-41.90744119694473,-46.53648904853499,-51.73453543290244,-15.166839034447431,105.35380384649868,-0.009164381003925444,-90.7948417360666,14.095550691328327,0.004943185199443422,119.6958714934679,-3.7334410705767267,8.215166895496662,0.0009296752331896987,3.788877114218622,2.545982810247787,0.0049129982289861426,-6.780797559446522,15.040902546556396,-13.008483895795266,-29.713730699617322,18.81338803782908,-6.245040636827712,-27.78040026998813,26.51567189811022,-4.217178171048545
3.031544512983086,0.0,0.0,-39.49083412710739,0.0,0.0,5.752612661579783,-4.652044636833847,-7.6038198619601705,-29.36606137562351,5.603767678304058,-9.898440401514804,-27.812044022870985,-2.9779026456186903,0.0008160109776387447,-85.79444263330105,2.2793302392959887,0.02197665211726637,13.378027856076868,32.832961901625794,-0.31173691308201984,76.31761457905604,-19.761223634245244,-2.6328197896891483,73.11786907497795,33.03212834150792,-41.25035360011042,-43.71707333097333,-52.636299076095696,-15.112628526272628,106.32951201975033,0.0007279734535185039,-90.08815818074741,15.660339347212505,-0.01091299481515417,119.74347664731604,-4.49228673760322,8.342087758229125,-0.002460291067675575,3.2492818772923413,1.8187466109238442,-0.00013326488008037963,-7.815914526567328,14.804729824484973,-12.207368695134464,-30.75095718130465,18.294229132973093,-5.590113806232015,-26.556537144552358,25.338959761807928,-4.702895514036241
3.1283025637097266,0.0,0.0,-39.580973778888875,0.0,0.0,5.342113288154333,-4.8920033164486165,-6.316121556413327,-27.8007820915994,7.33408733667466,-11.346040947055757,-27.032913066112478,-2.675963312196717,0.0012777554464808375,-88.86275571629214,2.72121818283661,-0.013663588109918636,14.772822916023808,30.34019877167523,0.5829289067400026,75.32548616477995,-18.9116287320197,-2.3433377153048194,70.63092113865075,33.881111639277364,-39.91352771445447,-41.08620792460166,-52.727106406585094,-16.126389176798554,106.95642680526372,-0.005307173633145575,-88.8971751565187,18.851650123239985,-0.01694112361704866,122.14735535283975,-4.543261117526498,8.534111014936904,0.0005979098070634893,3.8509147723868393,1.6263871412699822,-0.001793755934731828,-8.555017915144363,14.952050017215196,-11.528463164109588,-31.533697056429176,18.173971599501296,-4.893505842753196,-24.15456749450455,22.88125539155881,-5.778796297491242
3.911773993059436,0.0,0.0,-36.55323020859675,0.0,0.0,4.9648939490564015,-4.766128198100878,-5.551764343418939,-25.788280662590605,6.053705110255823,-10.969705312636249,-26.430620054047594,-2.179495895212582,0.0006141674600380786,-91.47820606610912,5.307312219810852,-0.009717334499625538,16.55982416133963,27.795865898913657,1.1220034360863245,73.41065579355404,-18.532414267360462,-0.3734578038572165,68.54706742095534,34.22318327843563,-38.97758519542109,-39.34266596271806,-52.98931448588913,-14.256569593287432,107.49121771305128,-0.001781357160753824,-86.87147410991734,21.734376100891343,0.014542447942008463,123.14559400515363,-5.04068731454248,8.773643979024087,0.001012840469598533,3.2915183844423503,0.6954753618388261,0.005610700385872019,-8.489880909524635,14.794815681465026,-11.183594387458825,-31.4599938379078,17.899100737132148,-4.6353130049271885,-21.32747303654471,20.767507867249726,-6.66070417878804
3.7562110105654076,0.0,0.0,-32.119189055144986,0.0,0.0,4.784007769962864,-3.9399110819835954,-4.89262369838687,-26.19225827923695,4.1147739040584,-8.791724513616666,-25.590859927189058,-1.8844555224395914,-0.00044377693682635645,-93.16471670866724,6.181444994266413,0.00968238006532998,17.886020167147983,25.7183671987431,1.9055330310671879,70.4582367238462,-17.73351114353211,-0.12241033915493889,66.89037511821336,34.48176410341265,-38.06835374281684,-37.738787776175826,-53.49485485015487,-11.312647090274305,107.65107219209796,0.0008012124987678017,-86.66842271051237,24.486756916454283,0.011702642834714777,122.13106677807146,-4.7084832252171465,10.451528540099714,0.008357181112418663,1.9427869464203393,-0.7524574787992551,0.0018214417596361416,-8.105707314508887,14.108461702287853,-11.513052660598518,-30.979548808661733,17.391199156782687,-5.224168116626129,-18.901632908826166,19.010469966241935,-6.58119938665438
2.119199484879264,0.0,0.0,-30.805952909515394,0.0,0.0,4.771741411152068,-3.3853000868762315,-2.772202979806395,-26.365171324775876,3.7795927430065346,-8.57582010280854,-24.594374711202697,-2.1127538135652624,-0.0014830610673828056,-94.09131877945512,5.753141569914741,0.001057437476751212,18.613923547030595,23.95870723070141,1.6701472850725823,66.44044412973147,-16.52992335491794,-1.411945125747071,64.85567870214159,34.708290277735856,-36.4807634105077,-35.81447312098789,-54.18779047050409,-9.282036874917912,108.3652346262512,0.007826549828891343,-87.7414335040416,27.95250267330195,-0.039051270311139384,122.74504641646912,-4.489493809297566,10.732974924932421,0.003763476017818907,1.6185024176508227,-1.9811485781261864,-0.0027118193971050262,-8.040866935796549,13.128342562529209,-11.269712639578522,-30.80814246631954,16.396069220964282,-5.393630082312541,-17.314430168643106,17.623237486450382,-6.265483444885337
2.546607611859047,0.0,0.0,-31.608649714096007,0.0,0.0,4.383353453931099,-3.5350070058389877,-0.6288615668819203,-26.088192623711468,4.113599766708089,-8.987627948386885,-23.751095731831068,-1.9392435317714087,0.0011745520672501362,-94.19863933409084,6.40165953244569,-0.002158924720155574,19.37968941981209,22.096855276599793,1.5222584811769502,61.80790937270403,-15.452283984729593,-1.7053157990392782,61.90073734586211,35.17997274422661,-34.17222740544578,-33.54780620205457,-55.00208459828049,-6.969295890339139,109.43337908613772,9.959554684821543e-05,-87.57049909506682,32.09751371393181,0.017708264019451744,122.43094995590786,-4.614066745036186,9.978175583500999,0.0008749951707742539,1.170681761400861,-2.3531790311396326,-0.0009151176225909847,-8.80576304759263,12.396677970193297,-10.283023526293174,-31.52699776136716,15.349256997958799,-4.765053760804509,-15.36949870047121,16.126430693201474,-6.4303254511949755
2.862214083563732,0.0,0.0,-28.16333095045096,0.0,0.0,4.314868024298353,-3.3871146635316087,0.25611284192633554,-26.93261422886124,5.255692722490789,-8.455198297140365,-23.15191387468345,-1.1896992987941037,0.0003534764296556255,-93.2051605542196,6.615310992605144,-0.0013477223900634574,19.832009881570663,20.44843722205908,3.0322304046912354,56.905580332794656,-13.99107468251101,-1.7630110377155275,59.02903282397651,36.22088578628588,-32.08289521026533,-30.206618786749605,-55.80098962544001,-4.012146079673751,110.436467246687,-0.011203250492744109,-83.43865672372503,36.38181260948703,0.019407514963120504,118.52934393249205,-3.5378262992060985,10.471439694125335,0.0025440462934200464,-0.30102181321169236,-2.164078146443205,0.00046101927060982964,-9.184791648111995,11.703888447933615,-9.251296596411407,-31.86635585067856,14.320750852363524,-4.078712462196067,-13.735095292834576,14.474078254374618,-5.930090022225645
3.3866965891682117,0.0,0.0,-29.423881808400587,0.0,0.0,4.272351736014307,-2.732478913442398,1.5616310008217433,-26.020972854668695,7.128616489342695,-8.033328287318287,-22.862458183679063,-0.5694858501001886,-0.00018500437181138195,-90.99097001198685,7.020480859063946,0.001060526076400514,20.096041275953038,19.158095605930583,4.460576785214749,51.653392696007366,-12.262736945811959,-1.4811822214635768,56.273934139660895,37.529786914204045,-30.197173168766806,-27.02361930937468,-56.386538463201354,-1.9823840590634039,111.61527765919976,0.0011786843209720384,-79.52670048043288,41.172739262412584,-0.016581876532390252,115.62270709800852,-2.4595505723137334,10.599228672326316,0.0016709303421555291,-1.0304536869276482,-2.160751119320718,0.0001935776555245913,-9.388441595890399,10.998968196996383,-8.645871625486116,-32.019118566511956,13.441577603020983,-3.794149644056708,-12.477990970954451,13.098954651150716,-4.775506906390725
3.702547888555935,0.0,0.0,-34.41893973775858,0.0,0.0,3.944694609884047,-1.8404738498217807,2.5084345433753525,-23.255468186941616,7.727443414074696,-8.558449457643148,-22.67551407636353,0.00626415141613031,0.00026247944378046965,-87.68148066005278,7.547326759763863,-0.0005439744094128677,20.67690336355778,17.89845282883359,5.729334503562552,46.05066271133623,-10.750882447467406,-1.4161141023463395,52.822300123175474,38.928070186037864,-27.604944423043367,-24.45141641678245,-56.6498088834913,-1.066421996412725,113.15061484279428,0.013907366696302966,-79.77559159387545,46.647707661257414,0.009856298121002185,113.45223133506742,-3.209426869052462,10.646890486254037,1.1199928777805899e-05,-0.633602452608014,-2.4136967631981774,-0.0014446291531528038,-9.880214631517996,10.513607234018192,-7.8603653057788,-32.486309299097925,12.696758126523607,-3.2544891877040674,-10.977405881659433,11.969247415482446,-4.091172509108404
3.5155200000000004,0.0,0.0,-28.240939999999995,0.0,0.0,3.71482,-1.6390100000000003,3.9739399999999994,-19.963300000000004,6.80442,-8.650230000000002,-22.81557,0.20665999999999998,9e-05,-83.26595,8.119080000000002,0.007719999999999999,21.596270000000004,16.50323,5.881450000000001,39.94440000000001,-9.563749999999999,-1.3623500000000002,49.62646999999999,40.16972,-25.180299999999995,-21.94011,-56.8862,-0.16772,114.34514999999999,-0.0026000000000000003,-79.58217999999998,51.75098,0.0006699999999999996,111.33909999999997,-4.26181,12.12023,-0.0018999999999999998,-0.93655,-1.8059,-0.0019000000000000002,-10.246380000000002,9.86019,-6.97764,-32.81582,11.75976,-2.6905099999999997,-9.602780000000001,11.060039999999999,-3.5263799999999996
4.773078855765181,0.0,0.0,-22.804628894898592,0.0,0.0,3.5971368097627128,-2.313957795777068,5.576944121530927,-16.73866234387925,6.622361741672974,-9.821577734408308,-23.249388529638658,0.20373285176040734,0.0001267764194099311,-78.21084742513163,8.283094065260443,0.00977440504444872,22.243681260208007,15.016661331242087,5.793309744656286,33.73336763710296,-8.845976227877944,-1.2931610466564614,47.18218868621963,41.02143538993623,-23.282978751662448,-18.465618294445942,-57.089708190231136,1.4255815064305595,114.86657117156778,-0.0013581039590577272,-76.85796833365843,56.05313085643094,-0.02206811310066009,109.72627254468061,-4.781517637302471,13.1732107621085,0.0006479238519173915,-1.0405503482825864,-0.43451842892288917,0.001140927838639453,-9.822566457547236,9.50975605700694,-6.652535325750423,-32.37028463620956,11.313192555980017,-2.5256608608858535,-8.799247672104107,9.962115099982134,-2.644549628792803
3.861108433803789,0.0,0.0,-23.713058785742362,0.0,0.0,4.1168567768225675,-2.3008837453961473,5.922710626545719,-14.293080508580367,6.853723387341366,-11.512408982938807,-23.70064167388785,0.08477008381003118,0.00056008885289787,-72.70464132589548,7.178849468929513,-0.008670401949437266,23.07159364244434,13.58092826801306,6.829592092317335,28.386901364904926,-8.415488375482775,-1.7138099329902305,44.697646799794605,41.81064127017651,-21.360085750839087,-14.308670630486237,-56.85737686079743,3.5834182694256613,115.58181224995786,-0.004290634658177353,-74.26250040930213,59.9345210587163,-0.010147833219417427,107.54792925307316,-4.676475501473727,12.791677499144607,-0.0007682327870231553,-1.7991976545762622,-0.26945226116308546,0.0035362257371372233,-9.378507716740085,9.189697468555103,-6.6624683030297085,-31.90182717362062,11.021326517475982,-2.659920931389055,-7.8892902364409885,8.321017669666405,-1.3834094112624378
3.591205834947978,0.0,0.0,-22.268661266507348,0.0,0.0,4.341242665839885,-1.5522080356308159,6.672169675841604,-11.690697018581245,7.139698905126361,-12.906607874612885,-24.32343659840559,0.002982828377354376,-0.0007505378279956913,-66.4185493779851,4.7232224750967085,-0.020904772887749758,24.235870530467405,12.304537879424657,8.650064407801409,23.457593744300652,-8.17834802352256,-3.3412369236223873,41.607402161123524,42.937536018707625,-19.004005726547682,-10.010528241001035,-56.511468458524924,6.154735936400115,116.43528892356889,0.0028721029129592963,-73.4038987940146,63.878563294956116,0.05271114341143633,101.66052341430778,-5.381675210769657,12.544938494074046,-0.002547882629133685,-2.5846716080661123,-1.1387323894626877,-0.00011065393892815066,-9.42475178721131,8.212568994257605,-6.283567170881833,-31.885623633341158,9.975247002577948,-2.6881400835815077,-6.476267544630078,6.7278531846418606,-0.07806583925903032
3.692727382187713,0.0,0.0,-17.364412127465396,0.0,0.0,4.404672840263245,-1.227712795464288,7.455996313983752,-9.292803186434828,6.765079529720713,-14.67452731483873,-24.873792019487322,-0.11478449114081167,1.9346597558511774e-05,-59.339039697336844,2.7435085567057462,0.004427383415671806,25.02869437322988,11.24007171465314,10.002772077581747,18.383178029577188,-8.237578500804629,-4.756353281074802,38.08147072376413,44.48376924241814,-16.148595093763756,-4.25732053453922,-56.18070689692124,10.333701293357617,116.97079137909307,-0.000270040015989436,-72.64612864109112,67.78459821399662,0.0058746126675951575,95.44182014622291,-6.088416263177851,12.972033215895,-0.0007123235819831438,-1.6885697898812997,-1.0642566381905463,0.0014558226907052754,-9.434272634066094,7.246683024887247,-4.963922771233744,-31.854858619057055,8.583342842825434,-1.8370644043495667,-5.211357718891476,5.315189672754604,0.9561921120441591
2.650837134218312,0.0,0.0,-14.035623752876598,0.0,0.0,5.019591430382071,-1.146769236229703,8.104384168279285,-6.449554037066611,6.745515056519793,-17.539829959888625,-25.1508512794181,-0.7559549872923277,-0.00026517468298553116,-51.972262287210846,1.836948258856594,0.003568174474149654,25.56879249047354,10.599039630374001,10.59483445568765,13.794010970296707,-8.261944566601297,-4.512346281460334,35.09636960680883,45.39032336062968,-13.720706323782917,0.9670646643591622,-55.537203375693856,13.827793294365769,117.45647385143269,-0.0001835207636020403,-70.92489471117788,71.29830886172257,-0.02959724109553124,94.16662897595097,-5.896180188907193,12.8756606556919,0.0005455285971329439,-0.2555507893748228,-0.7653815588773702,-0.0016094841980701664,-9.049209174205723,6.248350678702551,-3.99672562008818,-31.426961952498274,7.2943397269422485,-1.3245330821785053,-4.278284461508969,4.063118573878494,2.8888528710404913
2.964914223200212,0.0,0.0,-14.271400887989916,0.0,0.0,5.552455243553771,-0.44450254873506834,9.69557290294114,-2.5699787717928455,6.198891963209176,-19.859157738939977,-25.58087771137937,-1.233792150802277,3.12692259626458e-05,-45.39900314930502,1.3833262352078304,-0.0015034552820839867,26.56947445977862,9.626345439746881,11.176045809856069,10.246130961046243,-8.951550619056706,-4.219179406228823,32.732080245689744,45.77377273930386,-11.779164461978592,5.534591119290429,-54.900629091960326,16.82881876305766,117.94665778008266,-0.002579705827338682,-69.20225343880783,74.49276613727143,-0.010441295223944533,95.13002918096224,-5.850628238124437,12.424732007616326,0.00018171253273181097,-0.27143167973489296,-0.8175887697480398,-0.0011093061384561632,-8.444251111980533,4.93946448962766,-3.49352896122474,-30.76896865479949,5.89335026283139,-1.359327519370964,-3.2202539551605236,2.8876078125073255,4.95704549376263
3.581642107989368,0.0,0.0,-12.305321674779004,0.0,0.0,5.656023065130356,-0.39186949965284595,11.228663479188974,0.21989424284013967,5.708817723965867,-21.112081354524204,-26.375775556642154,-1.581818810361268,0.000774503808261013,-39.497459267197584,1.4782268283510225,0.011332474719109135,28.07698306566342,8.503618214558722,11.550284352122851,7.338739967660659,-9.966790262781881,-4.1478583139582925,30.486792452704837,46.21211664624239,-9.784519650824507,9.649283981790926,-53.7730105146085,19.397867977697686,118.53382195359639,0.0006190114246161035,-69.26357537076463,77.6946876809791,0.0162561491975986,94.8577502451381,-5.596530508250003,11.108563396650851,-0.0023819824929124057,-1.3471118173798808,-0.748925780650661,-0.0008022296540976364,-7.837137771270731,4.149565698939944,-3.0784974492963966,-30.13685872471858,5.005519101279908,-1.2760826568084969,-2.062174900071237,1.5606727621003509,6.080710599403896
2.642587248894914,0.0,0.0,-8.587105675756893,0.0,0.0,5.751253128782544,-0.6271988085191479,11.6286722318503,1.39661858760998,6.426355564330324,-21.045654583351492,-27.28825561842737,-1.665941712041797,-0.0007926978453829656,-34.12445846613781,1.679311622607328,-0.00023603763995311354,29.650058328312962,7.6916126078760385,12.362909927824319,4.909826410498049,-10.614751095085268,-3.7661214252875137,28.44275390837446,46.41848381771549,-7.736251738170587,12.438547662152336,-52.428552452060956,20.089174281443483,118.91265891194267,0.0027001337473005244,-72.18970802121923,80.55735040028516,-0.0023285077673876847,93.65493982313025,-5.313091095982281,9.917806859957784,0.0005468594185785623,-1.6710125425388926,-1.3186301528212758,-0.001967600253380499,-6.718093056290503,3.726560970651185,-2.8531596208074537,-29.0063096060244,4.528849359247158,-1.2283933225447954,-1.434992746043353,0.37882640017917324,7.268196127426117
0.9070717311012778,0.0,0.0,-5.573535476253553,0.0,0.0,6.279547674373702,-1.3862834576526908,12.744843677465262,1.3846197217068024,7.585341898629959,-18.041789076496087,-28.137569138210576,-1.3832962208343653,-0.0004718474140203142,-29.42762988617431,0.9705137372587757,-0.014459259607721493,31.70154086337861,6.856120358093126,13.199773624335627,3.6864187480360817,-11.17506608617133,-4.720880158328183,26.846305460060066,46.41412652184112,-5.959893087301065,15.248192824249186,-50.98057809065942,20.741126687542835,119.06028552789601,-0.0003304964128371244,-74.18992487876056,82.64777015373079,-0.0005713004530992094,92.90843181149405,-4.351730642041693,10.321783962060813,0.005153021560177332,-2.4196612432459803,-2.3782389444136114,0.0014090491789312926,-5.415168228193505,2.8657316419357164,-1.8066083337839196,-27.687231037105608,3.3361675972750975,-0.5864239035184539,-0.7273888704158655,-0.6324053970320539,8.729153239064932
0.8462913822821482,0.0,0.0,-4.979533311197614,0.0,0.0,6.388913646896723,-2.41997129749749,14.055609091317912,1.3786690145130893,7.741346411762465,-15.012267661814327,-28.6029599518465,-1.2713116776426283,0.0003315526820724516,-24.762317977960222,0.6810083840112447,0.008035443787676427,33.83449541116639,6.155172976281626,13.781962990718375,2.827056351819735,-11.588922631402223,-6.019401068884458,25.67745320226837,46.48329465654495,-4.515259227090465,18.907290028993675,-49.454949296380754,22.97795776983131,118.8642966868957,-1.8792902547830258e-05,-74.11484403475684,84.56587030396875,0.0036919982028825967,91.74082840168572,-4.033984962054346,11.084428187424269,0.000890915694882843,-3.4928621519081697,-2.952799610144952,-0.0036056814370610006,-4.399554110903108,1.953671965947618,-0.27145589011208515,-26.656277680023514,1.910980897580276,0.4885994825581492,0.24781773028442441,-1.51408902219662,9.468640387711702
1.1550811913861754,0.0,0.0,-4.4822148050001145,0.0,0.0,5.920800698148247,-2.086300962780764,13.971045856334726,1.4653197207329156,7.9550698467359,-12.785862115618754,-28.99768343157059,-1.1536130457452105,-0.00031181444002829347,-19.671943236318004,1.3060192389889094,0.006153976884019562,35.51709419453185,5.564499167187994,14.786658015205683,1.2691563955339895,-11.843414053372863,-7.38104799738679,24.254907733706403,46.69095115148427,-3.236897481748961,22.638090598146523,-47.92181212732024,25.481968042059695,118.99914873096581,-0.0009012954983208748,-73.54243734913273,86.13630493627998,-0.0038640107956310027,91.5289889279369,-5.518814977947676,10.683403052212379,0.0037023686195331606,-2.4378134527796567,-3.6703171151430505,-0.006303346063076033,-3.786704524950142,1.433557371149242,0.7778579408821236,-26.03230187653194,1.03243472261019,1.2626506887209377,1.0126955305044363,-2.3336825380578863,9.660732889821526
1.5072303195831298,0.0,0.0,-2.9054711885146025,0.0,0.0,5.484484255713666,-1.5080958460079827,14.481512071598216,1.639712925664936,8.307014904560628,-11.515831244870196,-29.10472979531986,-1.171394980080668,-0.00022351237985520424,-15.285660637880936,1.7596826905368375,0.0004264267746287796,36.787536026029095,5.09081687521028,15.526896790915174,0.08242329187925648,-12.014388448034175,-9.77192139879588,23.05631360405828,46.750712524036594,-2.1956261477062102,26.45868284785527,-46.54589657354589,28.02144230823724,119.47256175361007,-0.0003877969639687383,-72.76558827143938,87.14723038669872,0.0020594546020506655,90.92176905487716,-6.848111847426295,10.257889795407907,-0.0012124738712330008,-2.825359002964345,-3.3299774635046835,-0.008269822390496397,-3.000859848799592,1.402085664908483,1.3216364934593356,-25.24085200836185,0.7975196360379047,1.7539538914740178,1.4995634770270265,-3.0633247776500414,10.02585121533902
1.9263942330272117,0.0,0.0,-3.8666214607202356,0.0,0.0,5.535695513972503,-1.8407296043010009,15.72577226448502,3.318014976696818,8.248635279146823,-14.24407966985949,-29.018349211811728,-1.7733095125266738,0.00020102164472621234,-11.906038580426195,1.775471255386016,-0.0014598762206418363,37.91023760024706,5.226745275759552,15.646730542505557,-0.1369780630127012,-11.79743244967673,-11.567645623940976,21.828722294275703,46.77710257570926,-0.6271789781534011,30.871501189023245,-45.04167549847212,31.106768845540543,120.01043597230372,0.0009816620128421728,-72.93624028633687,87.34769188858455,-0.005434837555971573,88.53818445195539,-7.978379259111847,10.174079287301396,-0.0002610423550704265,-5.02791745424373,-3.0363361586143105,0.0010422831444726395,-1.8366733112819973,0.9550074616346035,2.9735782340288694,-24.049267471146443,-0.2410944822707948,3.113735889657899,1.6720562276076643,-3.5056985720288254,10.3724621109618
1.4821659637307996,0.0,0.0,-5.421587839425206,0.0,0.0,5.597080440375468,-2.000973177485959,15.884095952076267,5.313717865233053,8.220465844609032,-17.947730930497116,-28.94120947992243,-2.377818744506672,8.812227870050631e-05,-8.449267406398254,1.0997740159350544,-0.006353223158256337,38.81038569900929,5.552794427538959,16.610251899605082,-0.41874496196457717,-11.254140758450234,-13.0262423093811,20.74061241217155,46.54713610065393,1.0078953661472176,34.7725657009408,-43.40624063044023,33.67553464284846,120.24512152387769,-0.0005786317616417662,-73.02517877686965,87.42755729569078,-0.0021289731795814866,86.1397709794318,-8.238954198143823,9.694373497497653,-0.00042968986286817673,-5.14271982087924,-2.757992796120152,0.0017272519862071858,-1.4638064427222417,0.14083824451299254,5.150916601223245,-23.624902769278723,-1.817203629918317,4.822588150040801,1.6224182865629773,-3.8363928913630754,10.326638603144888
1.7863317490826958,0.0,0.0,-6.078467998393557,0.0,0.0,4.900223662388571,-1.510004333166372,15.266056127244036,6.790003783487191,7.874550099947475,-20.281078584180133,-28.53670015537544,-2.8327982852455973,-0.00022151240314212826,-5.375762758446901,0.42679933555272365,0.0004275912648996394,39.527936027565836,5.440296672465771,17.483729390065022,-0.698970232742611,-10.895624993843796,-15.01593806163287,20.455450425740565,45.904669151151204,1.855403948125454,37.67043940884355,-41.68975633188258,35.76285982385581,120.09020683003831,0.002979427173800544,-71.25617355255312,88.18579893318646,0.0017551556840461483,84.69759318978971,-7.4458403460712255,9.392223995833394,0.0013372948913102803,-4.050137140935897,-2.098352669947637,-0.003924585689192579,-1.879904688622646,-0.35690693392355594,6.004288719937684,-24.01935552932627,-2.5999598742652266,5.425754237423168,1.5455054883780592,-4.352195277212056,9.986006726293565
2.594375089935741,0.0,0.0,-8.822508547737122,0.0,0.0,4.133364692757875,-0.8867573069161607,14.713780773185688,8.764028798170063,7.37321148225591,-22.997969156060385,-28.011311356112948,-3.269582941411376,-0.0001773858717494759,-3.222600426488434,0.39411625862967986,0.0030478719854231695,40.050139805151254,5.402396498363502,17.909431821370475,-0.6558413176991466,-10.752582364265889,-15.787235632663537,20.906722140387444,45.35300752647355,1.8727828794361847,40.0908488137514,-39.88129442941852,37.460530973338685,119.80303150457256,0.0010697208960702138,-69.02378839260126,88.59660631090503,-0.00034079494092577176,83.80104775748602,-7.519810129169566,9.552345989713361,0.0013755150709675033,-3.729508838816485,-2.0016499947016615,-0.010705365383029918,-2.0081430643842606,-1.0274368604805812,6.872098187977929,-24.12846462035536,-3.5479825651056998,5.977775819468634,1.192651802398081,-4.7596427820116,9.61398550409631
1.06224,0.0,0.0,-9.99553,0.0,0.0,4.15698,-0.56978,15.171909999999997,10.19098,6.932249999999998,-24.805769999999995,-27.71117999999999,-3.765250000000001,-4.000000000000001e-05,-1.97907,0.51227,-6.000000000000001e-05,40.49879,5.7488399999999995,18.06784,-0.13363000000000003,-10.717780000000001,-15.606800000000003,22.18865,45.037560000000006,0.79615,41.96013000000001,-38.229400000000005,38.71585999999999,119.02608000000001,-0.00713,-69.14456000000001,88.40253000000001,-0.00223,84.04031999999998,-7.28801,9.33306,-0.0015099999999999996,-6.100339999999999,-1.18683,-0.007870000000000002,-1.72585,-1.4312999999999998,7.385489999999998,-23.835519999999995,-4.11536,6.30198,0.8049,-4.98296,9.67079
-0.5481179852131821,0.0,0.0,-9.393240284391434,0.0,0.0,4.384460954674563,-1.763661068060098,15.888789807342683,10.749199970860172,6.832569206311227,-24.83731539907334,-27.55360566125263,-3.851002103899801,0.00016220300867847895,-1.550515791213815,0.18747635295143858,-0.00032224228043751846,40.92726680426159,6.269723704254925,18.23591485905203,0.6383229287366204,-10.546011781110494,-15.399236051271073,24.431802080545694,44.28091523707901,-0.7592778839195823,43.326442227769945,-36.981940566010515,39.37598180408506,117.74672896795695,-0.0011253692341365402,-69.80087919463041,87.94053890775056,-0.0025334064484343745,82.43552698372753,-6.16476061248143,8.646393551645028,-0.0011147412143396648,-7.1723669416330225,-1.3392344727025207,0.0018088313628457297,-1.1940685966696978,-1.9229105212421862,7.69830330357834,-23.30484463673634,-4.68851492906506,6.4069356901861445,0.2203933173595351,-4.816033417946435,10.06723548834637
-0.6806987510319498,0.0,0.0,-9.298293291524418,0.0,0.0,3.6796596050628367,-1.533912995495346,15.882927836483756,11.087197267141514,7.5926603853196735,-23.951331195135413,-27.27482340955378,-3.5426537765762864,0.00032166676136173626,-1.2995087921502806,0.020125148433752783,0.0003105300712566408,41.1229219985468,6.620535960427155,18.662260906186155,0.9814195348703274,-10.445535250858592,-15.281373739662703,25.85696008763478,43.27890192711226,-1.4806685152869696,44.46809826991155,-35.964732217798755,40.02274493680685,117.3364452298673,0.00022724534408664736,-68.98884055781409,87.88950472961422,0.002703903324103825,79.59524399227323,-6.276319284341738,8.247797550908206,-3.084996229752734e-05,-6.211977214031598,-1.7132026847454367,0.0007084635418280359,-0.7726861370099387,-2.414785346827525,8.785444783643127,-22.850979864759367,-5.55288521546346,7.23179785717183,-0.8462220376556501,-4.476490188678779,9.913923529783359
-0.7394272397821092,0.0,0.0,-8.810049116467829,0.0,0.0,2.8767440251826653,-1.5625840100404005,16.39411643861129,10.968060228909646,7.89413597908579,-22.72729664769812,-26.950496146481797,-3.3670201861628084,-0.00023278247991767443,-1.1808446036099165,0.44150214543558175,4.699166901460883e-05,41.61549625987335,7.1070347507946305,18.643285860986786,1.613273905011769,-10.446205073300774,-14.939854681869683,26.446871341525824,42.05403486816471,-2.211349292602733,45.140213144990256,-34.9934939943393,40.64177045490948,117.30868804175488,-0.0010606578034571593,-71.27653157985219,87.99464096033246,3.2592069966562833e-06,77.20510903344453,-7.317395151606687,8.425448560327677,-0.0009644149745296977,-4.685525895680421,-2.379785616879476,-0.0030187940649683766,-0.6757076511759592,-2.711446932466522,9.74873196837362,-22.716819759729916,-6.189254845148854,8.016367892480972,-1.3332794837015645,-4.042785119003687,9.635118297829726
-1.2498720499190754,0.0,0.0,-9.065634892220912,0.0,0.0,2.372892232396715,-2.498436343139599,16.71342065638496,10.752363778928395,7.664056760550818,-21.817615604603542,-26.228772333658622,-3.521515495890359,-0.0014606216508037666,-1.3790966861021068,1.0387128621803983,-0.00036602539620406334,41.625366366385265,7.839797472512976,18.681303731029764,2.2773580830080595,-10.420436681346715,-14.410430700164842,26.862475209146947,40.577473628054086,-2.9219235898338685,45.37755013796029,-34.18120087784343,40.80748341894902,117.21856207377694,-0.0003994527454865837,-74.80514472180761,87.80713299779066,0.002241920092960458,78.75962182104976,-6.9524944411788,7.682969858997165,-0.006853637962600614,-4.053655235635782,-3.005774025261078,0.0001891016029890715,-0.52390931536177,-3.0190665730860977,10.251960710059482,-22.55070890123064,-6.66296135759247,8.369071929478554,-1.7691816558169229,-3.5200412729191357,9.705295593880507
-1.7121707055519966,0.0,0.0,-9.04541596097914,0.0,0.0,1.6199906195680873,-2.4695340801925925,15.772011673395635,10.42656378167754,7.92802499928091,-20.60023532588664,-24.76430105801561,-3.4351718956143915,0.0017642057192622624,-1.8179634951955161,1.2275022220103768,0.00013363568102625148,40.76425136115114,8.225029023240905,19.30288000336551,2.5657289300982034,-10.31489616034477,-14.73493061608109,27.579161793654656,39.036097527548655,-3.9435150624329895,45.334648526672396,-33.90258149249748,41.14314450157434,116.79424670057256,0.0021824542077200377,-75.09919725935879,87.65467782199053,-0.0006279658895564711,81.55828712601922,-5.885129134346355,7.007943230577775,-0.0004846898035972243,-4.878225531570794,-2.5091665850897207,-0.0023987775457865613,-0.450408334522974,-3.517762797962207,10.673767281941016,-22.476389151382932,-7.283184030228421,8.573942297649944,-2.5549551155442525,-2.97489546591845,9.873433726882533
