PaulMeinheit/Bachelor_Muay_Thai/processed_Data/N3/roundhouse/scaled/JointAngles/scaled5.csv
L_MTP_ANGLE,L_MTP_ANGLE,L_MTP_ANGLE,R_MTP_ANGLE,R_MTP_ANGLE,R_MTP_ANGLE,L_ANKLE_ANGLE,L_ANKLE_ANGLE,L_ANKLE_ANGLE,R_ANKLE_ANGLE,R_ANKLE_ANGLE,R_ANKLE_ANGLE,L_KNEE_ANGLE,L_KNEE_ANGLE,L_KNEE_ANGLE,R_KNEE_ANGLE,R_KNEE_ANGLE,R_KNEE_ANGLE,L_HIP_ANGLE,L_HIP_ANGLE,L_HIP_ANGLE,R_HIP_ANGLE,R_HIP_ANGLE,R_HIP_ANGLE,L_SHOULDER_ANGLE,L_SHOULDER_ANGLE,L_SHOULDER_ANGLE,R_SHOULDER_ANGLE,R_SHOULDER_ANGLE,R_SHOULDER_ANGLE,L_ELBOW_ANGLE,L_ELBOW_ANGLE,L_ELBOW_ANGLE,R_ELBOW_ANGLE,R_ELBOW_ANGLE,R_ELBOW_ANGLE,L_WRIST_ANGLE,L_WRIST_ANGLE,L_WRIST_ANGLE,R_WRIST_ANGLE,R_WRIST_ANGLE,R_WRIST_ANGLE,NECK_ANGLE,NECK_ANGLE,NECK_ANGLE,NECK_ANGLE_SHADOW,NECK_ANGLE_SHADOW,NECK_ANGLE_SHADOW,Trunk_Joint_Angle,Trunk_Joint_Angle,Trunk_Joint_Angle
X,Y,Z,X,Y,Z,X,Y,Z,X,Y,Z,X,Y,Z,X,Y,Z,X,Y,Z,X,Y,Z,X,Y,Z,X,Y,Z,X,Y,Z,X,Y,Z,X,Y,Z,X,Y,Z,X,Y,Z,X,Y,Z,X,Y,Z
-2.7480200000000004,0.0,0.0,-1.21935,0.0,0.0,-3.55617,-1.2956500000000004,12.592150000000004,19.178730000000005,5.589970000000001,-15.981189999999998,-18.765580000000003,-3.653210000000001,-0.00010000000000000002,-10.539120000000002,0.7363799999999999,3.0000000000000004e-05,38.98116000000001,4.621810000000002,15.644780000000003,0.37065000000000003,-6.36088,-13.469810000000004,31.04643,18.190100000000005,-27.238370000000003,39.09245000000001,-10.790500000000002,41.070960000000014,111.10555000000002,0.0006800000000000003,-84.27903000000002,100.36662000000001,0.0006700000000000003,83.33760000000002,-6.51827,7.550210000000002,-0.0018200000000000002,-6.521130000000001,-5.619800000000001,-0.0021200000000000004,5.34604,0.7261700000000001,15.910540000000003,-16.098510000000005,-5.2807200000000005,15.047170000000001,2.2315800000000006,-1.01418,6.509410000000001
-2.5417076325112467,0.0,0.0,-1.2754256613460941,0.0,0.0,-3.6295752176491147,-1.4065203962651847,12.795774769289636,19.225488869801826,5.508449826064989,-16.127645663632947,-18.803791625815276,-3.506625141255421,-2.8918444002319906e-05,-10.545129404940534,0.9387123491680525,-6.060824778491375e-05,39.08815223495182,4.917379126962174,15.522484676920405,0.41323234577394263,-6.2007670128324355,-13.069907394251713,31.17604504186176,17.837489440631273,-27.53086156034703,39.36505917990294,-11.039534509052276,41.13084217186478,110.98546423045335,-3.733011517144874e-05,-83.2896877652075,100.29540543416977,0.0010322191201722793,82.45254523711644,-6.107328121467641,7.142505644975368,0.0005753660186449311,-5.782818552275484,-5.619464218797094,-0.002360705368138082,5.788397186112561,0.7325806869958289,15.793874428325188,-15.66741535339263,-5.232095259195826,14.940486307418105,2.2651495261141923,-0.6791057809186207,6.544328583113072
-2.9563247396216275,0.0,0.0,-1.8856362405483325,0.0,0.0,-3.7604344515447963,-2.1437985729211753,13.09896591846318,19.414812874217795,5.525181336840725,-15.771414445126197,-18.718252485542052,-3.368025408916339,-1.0408109659808431e-05,-10.755305019466382,0.9648371954408684,0.00012379382237576113,38.893865492553985,5.040448057566708,15.511517378933998,0.4051763292904842,-6.268980119313626,-13.095217200126154,31.25622894908065,17.56300373672757,-27.776114657969558,39.597608672656214,-11.704649235275832,41.33906252210109,110.96808981564874,0.0003672710173522995,-83.20192738130503,100.686337134236,-0.0014716086172886487,82.38863506541584,-5.52659095655416,6.986710166293122,0.00033423355469470686,-5.402719717422758,-5.780170530251867,-0.0004297251792776516,6.080591242945774,0.8065089767939357,15.269549688675706,-15.42339839535871,-4.971323441224046,14.477861593945798,2.074540025842394,-0.5264944328539225,6.802477048500566
-3.1874924039303383,0.0,0.0,-1.4230380179070319,0.0,0.0,-4.059835148871805,-2.3228904277871965,12.561573060313291,19.323675280485762,5.443302349713986,-15.374418801373446,-18.62451439647441,-3.2703593477258246,-0.00010846311688937617,-10.9552106158363,0.9780872264437394,-0.00011365751472121781,38.78195194484303,5.000032390413371,15.818867832859334,0.433967176145321,-6.319527964405476,-13.346222916022791,31.32515541886574,17.464289172794444,-28.405393292056,40.05367803062624,-11.769353599099666,41.92063636820028,110.82352176629259,-0.0012009997949274105,-84.52732842449021,100.8690807637954,-0.00012614732782153843,82.754352190962,-5.528064459572257,7.115446467927584,-0.00012564971267069937,-5.873992045414354,-5.112165702794734,0.0037091334740066715,6.067440252000647,0.8936628899103193,15.252417784569651,-15.435421129322222,-4.8839526390082355,14.493928976932574,1.8990681429932785,-0.6304361981695106,6.590812373588202
-3.6507489044828128,0.0,0.0,-1.5439128232929036,0.0,0.0,-4.11596245129945,-2.7252521344522336,12.45355291321686,19.29454633507959,5.04589270445694,-15.66268112825118,-18.701133321825495,-3.147682215543224,-0.00013601666062971508,-11.151371196657074,1.1334115340017428,-9.9405133170055e-07,38.948405882202145,5.185857329283974,16.038629518508767,0.6959777586920419,-6.220737044338669,-12.745280227040455,31.76264391252084,17.15103754174753,-29.24330240650297,40.5862059723962,-11.685547945483515,42.19950070943771,110.35575178777069,0.0007323097091015404,-84.9430003283,100.65695828207095,0.0001392246424412495,82.11661726305204,-5.614245967228807,7.544703330408689,6.01392906378399e-05,-5.248146555677007,-4.365749390155253,0.002654154478789603,6.357062534582306,0.5832939067154327,15.495268804892254,-15.132709571988107,-5.261719083893606,14.606579360560191,1.8221243569721757,-0.6111115265718502,6.415761819593664
-4.697590788297384,0.0,0.0,-2.0897878671356103,0.0,0.0,-3.900587365546019,-3.4064316733037656,12.654815218140879,19.294611449960332,5.213694687105336,-15.826074595856195,-18.49111206100319,-3.000979473152354,0.00042602738478452997,-11.189289418646547,1.0509730096966694,0.00012313780920956817,38.75976127723974,5.515277954937211,16.142614228514432,0.7696267244326208,-5.980181925948918,-12.359438905342682,32.13994172520833,16.97650628893747,-29.55714321476559,41.04497423881145,-11.951496462458525,42.4767039763854,109.95446396195442,0.00017537887449500502,-83.43785925369616,100.28709236623757,-0.0012826783671577963,80.98052658441073,-5.529109557737258,7.281894062061276,-0.00047048109423545947,-6.270592886016979,-4.652515305267522,0.0016647057975997985,6.43587345253954,0.67527820254981,15.588544563396674,-15.041836511669759,-5.2102828512232024,14.727560034437564,1.6916099896574244,-0.4965301668668431,6.56988575501968
-4.717421189668328,0.0,0.0,-2.104407401479248,0.0,0.0,-4.1181098255948125,-3.550801964831008,11.837751537855981,19.137154358249866,5.090576684327934,-15.72117646408495,-18.18128412097514,-2.7080638356351563,0.00016786434967329178,-10.981936972270937,1.176078397640019,0.00011372231381053549,38.30823320285168,5.510555129648084,16.530445745720016,0.495293555525451,-6.048457162901057,-12.286170057899465,32.22948945353317,16.92333701176456,-29.59734401446789,41.56145841421256,-12.070967868960759,42.8412909134018,109.68089553493925,-0.001068716719432547,-82.93009992007813,99.94204016771248,-0.0011209719708383207,78.55846247477136,-5.654111419351047,7.353498943901155,-0.0003099783758612074,-6.545124459833746,-4.883341027331768,0.0012451935320850049,5.9640172401035905,0.7881407844118136,15.97415695849242,-15.472152350134255,-5.246297826277092,15.129388437041689,1.4533832331318783,-0.6346798612162452,6.545388209007884
-5.030550321426433,0.0,0.0,-2.174443768281931,0.0,0.0,-4.133829503365053,-3.6812424272362847,11.7165338325647,19.073419910293698,5.182743084641189,-15.344138126022262,-18.03832737811112,-2.7762295074601733,-0.00020228437645389248,-10.777744977089853,1.077882111715825,-0.00014983522401739027,37.96320580963171,5.785260940061993,16.277010025974114,0.2616344986047643,-5.8827156235514595,-12.311245553865476,32.49319937257869,16.81821149099993,-29.525453949714244,42.02678039686628,-12.17728337559037,42.89124631858926,109.64343811810323,0.0010713333980308742,-84.24428367939078,99.95630610976339,0.0005056578073117687,77.91843027383402,-5.20548479821107,7.767071363462417,-0.00044490783313708485,-6.06658884731502,-4.54126703947783,0.0004250839607166777,5.601225659866122,0.6272916953206975,16.285891861909043,-15.809307908396878,-5.509881289790118,15.361821547844887,1.0370120625934334,-0.6364064462212585,6.518564837439693
-5.922113877816701,0.0,0.0,-2.5377819456281134,0.0,0.0,-4.192817409181068,-3.6905049177534957,12.166193784020265,19.058149861542088,5.151413353410136,-15.13948247083534,-17.749223781766307,-3.0388679167126877,-9.936634733917044e-05,-10.674610192650553,1.006958595363067,6.252589861328665e-05,37.85477788543697,6.090579153418907,15.77766935557724,0.3135161719930164,-5.701124172444079,-12.213427253952624,32.83256588305335,16.709318240525796,-29.558132397263762,42.5088786718238,-12.304975970202191,42.842486818690716,109.66390457513093,0.00021972833797257056,-85.282724302447,99.84048032919016,6.909241175811101e-05,79.00206531251065,-5.3832571212412725,7.744900086897878,-0.00045786837945767465,-6.28075969010995,-4.599405895113406,-0.00018676601435145017,5.4590137483609045,0.6466226979306872,16.346622021434868,-15.944704145825026,-5.51404478942774,15.425712150488579,0.9319808256482596,-0.6119309154881443,6.492800238184368
-6.846091371324264,0.0,0.0,-3.0905291094030822,0.0,0.0,-4.186083641942543,-3.6282361514616963,12.275046927359046,19.200760364219835,5.116260785611926,-15.10543341405636,-17.527938383544818,-3.1635327152427424,0.00010003090113755613,-10.673294897164473,1.0816655992608004,-7.080401620695002e-06,37.79067266023429,6.3275201572979425,15.675229517074813,0.40951528806919363,-5.579844396495867,-11.792715306588935,32.998169580724706,16.677014128829853,-29.663602014659237,43.24053618722329,-12.434547321875066,43.035137444483624,109.65345277122908,-0.0004282574986287797,-84.94363801102334,99.38322506288584,-0.0025532328113305413,78.48677138275572,-5.7008117857519345,7.89869479416904,0.0008259082850763758,-6.063417909423344,-5.473606386859586,-0.0024504463486443103,5.222469500048046,0.9452030081024072,16.238633133575483,-16.181950709098743,-5.196655147515686,15.434176746098634,0.8324964945274049,-0.5995617408663029,6.474848819050723
-7.492907221053395,0.0,0.0,-3.578604508354431,0.0,0.0,-4.044528675973219,-3.4078466049382907,12.393590875335304,19.32796859993458,5.4084284219838255,-15.218560423060666,-17.554079961383426,-3.270535904831252,0.00010478163682367767,-10.589452629505761,1.0545960446135105,3.7967102969847605e-05,37.80008768173066,6.57048828821246,15.48380182696878,0.4254538478086943,-5.418668085056629,-11.206611207277234,33.12642857813495,16.84233614657199,-29.690934288153105,43.71160869483112,-12.798197172117044,43.04640925027701,109.742292325219,-0.00041886616257750045,-84.07645998364713,99.33940949630664,0.0016665075680265683,76.94332162409432,-5.490170566979987,8.353556143888472,-0.0003291597254204488,-5.258037187402133,-6.109737555591247,0.0003724609983165797,4.921299724912447,1.0158517690462103,16.19668397912354,-16.485049596686657,-5.115573261107768,15.42086198135454,0.6461130592367635,-0.4722664077988342,6.563463782045378
-7.830320090300731,0.0,0.0,-3.426618691247185,0.0,0.0,-4.113066216235736,-3.0733913528731764,12.825669372308246,19.24007218124985,5.587026743937682,-15.131080217739948,-17.576860750078197,-3.325097184531577,8.744014590196003e-05,-10.515311922698263,1.2949938211491325,2.9068630992902558e-05,37.83214818880112,6.478763803366447,15.03885542012148,0.4298542650202235,-5.724183215482647,-11.13500962214495,33.656052147822145,17.094940345959106,-29.949614789558648,44.16342648297167,-12.857710372504357,43.203744903685205,109.58131224059997,-8.579981717463428e-05,-84.02355690580177,99.58576632496066,-0.0012416442138082908,77.21420378513744,-5.931563762152163,8.735085444293784,-0.0006461058832320293,-6.371586408388012,-5.613184693871784,-0.005345788582969777,4.9955482335055414,1.0202479279985037,16.071840670672763,-16.423221485802177,-5.065906966903572,15.305809689939212,0.545075553207031,-0.6977112253790742,6.412165180824105
-6.97852611764669,0.0,0.0,-2.850072965805365,0.0,0.0,-4.494193196742351,-2.754966221360318,12.73898860834668,18.97312306440105,5.594283519878085,-13.989421969616247,-17.44853736984813,-3.280948393790411,9.21177762745738e-05,-10.645631284350252,1.350604157213492,4.77006702876129e-05,37.76624707133877,6.513603647342626,15.310428855548826,0.5968642464428942,-6.005795836265504,-11.842101447839603,34.31371552711981,17.1388570480289,-29.964405117841416,44.699355683892996,-12.716712110567084,43.44949526463222,109.4221281290542,0.00021668386678224143,-83.96501557616499,99.70916404474325,0.00034603818936894675,80.78393648449783,-5.296733664677997,8.18753788857315,-0.00270443664169474,-8.079158345136838,-4.777668110011395,-0.00038491915196050197,4.927892330816294,1.0273949595158032,16.030483555973394,-16.4947915945414,-5.04415768982426,15.269783344126738,0.4189142291291523,-0.9613932854069775,6.374887679003276
-6.7743170620553705,0.0,0.0,-2.9877061076082967,0.0,0.0,-4.732587905873736,-2.611177206161225,12.612822651367463,18.83211094828232,5.569993867571899,-13.08862117078116,-17.460318553453757,-3.2139722348201367,4.273914222341509e-05,-10.722181738255145,1.1959552253439787,-2.679376147325726e-05,37.877301225888246,6.745465975914738,15.555218310776299,0.8452004730362016,-5.960051311397052,-12.231086877650881,34.80262289272128,17.05499738675342,-29.804547007922245,45.18743433453915,-12.945390682910373,43.582061665898706,109.583075890035,-0.0010189424538587768,-82.98589910911258,99.80966844187252,0.001909792591582197,81.70875646048563,-4.979925686287429,7.493221741404939,0.0017264172071277274,-7.825576844733843,-4.808024080548459,-0.0036797647661442985,4.78863627887184,0.8414591858349141,16.42780626739941,-16.60006441126201,-5.362254232264619,15.573039121763403,0.2846626977818201,-0.8260397147930147,6.606191504113348
-6.849848839664249,0.0,0.0,-2.9768903133652223,0.0,0.0,-4.344919445069357,-3.7424223199296827,12.706178584044213,18.7942042416053,5.658743249895381,-12.834556282623662,-17.822987128561724,-3.003026127170666,-6.456946219173707e-05,-10.788574510253602,1.1460280784214085,-7.706122714436667e-05,38.20139689321909,7.049817026257705,15.895169173864454,1.1604232038512081,-5.892412563279728,-11.966736743641933,35.29318686202429,17.094157020859356,-29.91248260633651,45.75840663835687,-13.211668774604162,43.817216703396426,109.76108955744077,0.0004741279876594242,-82.28874556961591,99.75195765719403,-0.0013079912972629006,80.6060684359149,-5.05005505902668,8.232678355427147,0.00010024045712380282,-7.7978316706779465,-5.406708352647178,-0.00031155906194281594,4.728757119034286,0.907890830073685,16.42480453044081,-16.657992271239,-5.299310581560696,15.594562103031146,0.3218341229335481,-0.7490721869087295,6.792435328629406
-6.858634347697958,0.0,0.0,-3.385005115844839,0.0,0.0,-3.9630942070133806,-4.498326167729469,13.165328712134677,18.715441745345966,5.440375543099633,-12.7264328472412,-18.383504225569048,-2.875765691042102,0.00012149814670599614,-10.83013158683507,1.2781957656977907,3.0258979515892452e-06,38.68886924371736,7.25848103208243,15.857151516440355,1.4421772381974052,-5.888127967455005,-11.89181034447249,35.944639836475055,17.217991982721443,-30.464923827463856,46.586549480701656,-13.303867851708201,44.00195600458733,109.60327885267431,-0.0011054552404178276,-83.44974009900493,99.5590583990258,-0.0007151754032011474,78.42492673775382,-5.6328129315012285,9.509944916987303,-0.0013125990483353132,-7.8425828438754355,-6.004556025789701,-0.0010354776642159304,4.978043206466236,1.0130124753589622,15.983984594280729,-16.449755288269436,-5.04055572940798,15.22105582380017,0.31903692846087417,-0.873799654890013,6.769362690499852
-6.18823072649098,0.0,0.0,-2.81512221049161,0.0,0.0,-3.9765985358230314,-4.032986162629701,13.202036655883383,18.376183544113577,5.204530669355445,-12.133142908902252,-18.893086279259407,-2.8201674023929355,-3.280251887754489e-05,-10.537607191361346,1.4348808628129024,9.727458080655081e-05,39.02538979777798,7.139799564772519,15.888168017586526,1.3044177172799722,-6.061406746294688,-12.530097879046735,36.645830477102564,17.001940625641264,-30.88469949896199,47.14343436420272,-13.307599852118548,44.24411897219711,109.4333260626989,4.207694045836825e-05,-84.6431539360348,99.6248463610367,-5.214149904702778e-06,78.14036391582815,-6.294385762070368,9.282245860186006,-0.00041465049845294507,-7.543488121349986,-6.081266156646892,-0.0020188084209780423,5.450454882745602,1.14679073728407,15.914759398841989,-15.980001147632166,-4.890741730889538,15.20544595157572,0.24363824696623926,-1.0922711683881037,6.460731667338033
-5.971560635285314,0.0,0.0,-2.2668338803886696,0.0,0.0,-3.775704474074316,-3.2403831614616014,13.096452457339938,18.146484194659458,5.446351026540311,-12.219784734668124,-19.381773684909362,-2.874120014332154,0.00044269501032678636,-10.197944844525246,1.5422228513754384,-5.799151402556046e-05,39.24298214369791,7.327818525052012,16.12587772919406,1.2006251944185782,-6.10887415549783,-12.318798538117885,37.26693028642192,16.902685657449254,-31.049726557862726,47.42095128559365,-13.22095547319187,44.547907230327006,109.46551790721111,-0.00022037214260210302,-83.60708574559057,99.64038008380753,-0.001223755433761523,78.3574036263642,-6.632621263012312,8.668978065860621,-0.0029796705744636783,-8.268414959483401,-6.110740600231506,-9.517496716635767e-05,5.458583653901635,1.0632700257169028,16.380807365504115,-15.927486476726797,-5.138578037947466,15.610335679532687,0.28475831539606916,-1.091552591998757,6.448078019718968
-5.550823731359632,0.0,0.0,-2.4120742653369933,0.0,0.0,-3.609733369341453,-3.003922801210262,13.263983939170652,18.20903103307576,5.6152223621491535,-12.624924722339857,-20.102459566106184,-2.882045017727491,-0.0007001608528376101,-10.202318501512064,1.5437573296005696,6.919209125758512e-05,39.50255050112884,7.828356580337211,16.522016467184994,1.2790491283499144,-6.008892930923027,-11.449296682162402,37.95225916333209,16.901602013302146,-30.992076133095413,48.29154329002117,-13.238233667824348,45.18239820419795,109.46566195694206,-9.173553676297921e-05,-82.3234655118772,99.35885222267731,0.0017151157907238051,78.41688070927118,-7.167099033550154,8.533901149483649,-0.0003080133184251157,-9.112517831247734,-6.863812789439972,0.0016993859087180735,5.369585617602635,0.645040966681148,17.206361711888825,-15.944987920951633,-5.828635051999542,16.229706820565795,0.032883540449660034,-0.8624390158013826,6.621676405548648
-4.341446727100546,0.0,0.0,-2.6656864833073235,0.0,0.0,-3.467486519727241,-2.7096515124604577,12.87368383711006,18.42331371186277,6.058942684982912,-12.148734826463174,-21.1191734184504,-2.7293486511544405,2.9800629915716728e-05,-10.42482056713648,1.3086578668560256,0.0001110540869058927,40.003201325452515,8.167071483033277,17.185452478449058,1.4559484283521757,-5.962671677226858,-11.652799808364431,38.88751264799968,16.986419269064363,-30.676230151886017,49.5406559212488,-13.448837459259618,46.071962407374215,109.23143406740152,-3.2548218073027505e-05,-81.15718828896743,98.99535486469608,0.0029558669414015094,80.01470998898922,-7.148353124112852,9.177342877146826,0.0002463938152046908,-9.707498289079217,-7.683346552937536,0.0019221893052379768,5.672472278943562,0.42182575352350987,17.913681121363222,-15.574145486546005,-6.293335123916454,16.811013733287155,-0.2831889817418551,-0.7055995085444707,6.554634830741184
-4.280731013014353,0.0,0.0,-3.0191654140914808,0.0,0.0,-2.940747721943602,-2.0796175094161047,12.587189694343161,18.58145569557147,6.632505276830647,-12.045339412164603,-21.940976014489127,-2.8833979639507765,0.0001357091274420255,-10.379369636465373,1.1426456445007807,7.760913242265156e-07,40.44584634559947,8.428847289422436,17.35021228773097,1.5944229498622111,-6.001551423189854,-11.628262826274165,39.51483597897895,17.36167476033434,-30.566158876540257,50.485800614454284,-13.835222052287442,46.801962257019504,109.34831110491565,0.0019162628729002045,-80.31966200281161,99.27666777333685,0.0013215658647701578,79.84741995393237,-7.506479432042079,10.072359176303374,0.0007410683898489037,-10.203235925753662,-6.940321482923645,-0.0023830177213634363,5.899299860659799,0.26243561883601607,17.675387589344986,-15.379733736694748,-6.355460046770992,16.529425099084822,-0.29753120866524585,-0.79836800911858,6.646654060384172
-5.319292512873232,0.0,0.0,-2.593117515247657,0.0,0.0,-2.088434187562264,-2.3595647083905047,12.255328649095572,18.37643722555086,6.581135093652949,-12.405246610715635,-22.760544353543754,-2.8584753074954774,-0.001007369070924627,-10.029985063663828,1.2043687183134366,0.00010599150108471851,40.71174421990996,8.451574580767208,17.52158864712355,1.4429566790579744,-6.252703892703657,-11.223894499637716,39.53295255954979,18.10805748565502,-29.64166755596375,51.30500069081593,-14.218906848521534,47.671766824876585,110.25479214579325,0.005987228891249903,-82.73554904678063,99.53889740245965,0.00043924801830427676,80.54250888265926,-6.466310897024955,8.941189970786768,-0.008998420609015224,-10.155804409886082,-5.682825326794931,0.0004442347437431025,6.1031609218511935,0.1949896162813509,17.37073839683487,-15.211320131397873,-6.307645981701689,16.21919732538388,-0.2633167146235653,-1.1299982012971328,6.7729069813383616
-6.047844485326394,0.0,0.0,-3.51368439105653,0.0,0.0,-1.3268909206416857,-2.2990788947666765,12.109145030438803,18.625158178695774,6.5714084675036535,-12.424085036655937,-23.805888456566688,-3.0896185996608345,0.0013399939084738448,-9.861727979605524,1.1859532809919886,-0.0001582617852599143,41.074003540031455,8.524113406700483,17.384858024411795,1.2735504035618095,-6.521170871517015,-11.241250032023038,39.82811653567808,19.364980697421206,-28.67443480677915,52.35940737520511,-14.48627032937066,48.4701681292151,110.96380761685914,-0.0015611027418530553,-82.87912918874729,99.16888359171337,-0.0008558413423065273,80.46987913460352,-4.922586998302144,7.383777742239436,-0.00027343966914753675,-9.704193012546284,-5.888550959811984,0.0010235054096423418,6.561574305732855,0.38178083604024254,17.37497176853697,-14.745057085913684,-6.135163347752898,16.29145225862099,-0.22354947295664707,-1.579581259949948,6.884726898101147
-5.473191104122359,0.0,0.0,-4.154525917913027,0.0,0.0,-0.5197658599506132,-2.291424103162998,11.801460908394851,18.849993851962424,7.0600207286763474,-12.085856976845564,-24.884719732698503,-3.366524841061298,-0.0003903305257885592,-9.612510285558868,0.9650731666157734,-0.0001097362351498227,41.33631638541193,8.65678706050237,17.350355033677676,0.9749422301884174,-6.688855377938982,-11.461784850036384,40.94907164575687,20.218810160807767,-27.880029761143827,53.91543163079662,-15.123548514801989,49.342351699718776,110.80008878563032,0.0009238135288120218,-80.37391035519843,98.78409203485184,-0.0014662559788030016,78.01848250206469,-2.781778106640619,7.776645691552293,0.008868021803466623,-10.15832895906943,-7.182569348904106,-0.00046451804827399697,6.819388482027326,0.22308079056095714,16.81889850689211,-14.551784793437575,-6.080644384399144,15.71247000605915,-0.464661750302106,-2.0102841024098694,7.307476314397
-4.240367036847678,0.0,0.0,-3.550860600550553,0.0,0.0,0.34392459736041636,-3.235726813457548,11.796033677695208,18.326419233606064,6.855096553064518,-11.768288722401726,-25.70288700481452,-3.248352034163583,-0.0008171581571327305,-9.284073968882463,0.9756968629259825,0.000203676437842426,41.28232070821918,8.58681858191355,17.714825358807143,0.542923554851109,-7.06531083128888,-11.477233745573063,41.90469059307335,21.107019339340674,-26.990772082325655,55.739228244294196,-15.921963478687196,50.553401544706425,110.76958886021097,-0.0012106839248529578,-80.41842709316646,98.32385144453875,0.0037797154447902917,77.8671117787134,-2.5113249937007236,9.09977252681335,-0.0149414738987599,-10.863005531254675,-8.588372093641985,0.0009261865285732567,6.543766785515306,0.23834239041306907,15.841317293671706,-14.924715764202684,-5.709427080795696,14.803184880542256,-0.5992439484482831,-2.6495052405375836,7.934782242485431
-3.2001675943615284,0.0,0.0,-2.3211381515291998,0.0,0.0,0.6632527155574723,-3.1986863248768365,11.317784813612727,17.718297672214185,6.839021192973055,-11.048710442651453,-26.6607922049201,-3.2886887872757997,0.0005764802827119929,-9.034649221651428,0.8156017099532539,-0.00016159163333101726,41.157860358477556,8.591261252152151,18.27830645568942,0.07065427088546151,-7.545452466113039,-12.120787763125985,42.54606673138183,22.409728281411166,-26.535492989703357,57.28440345764785,-16.46885319045797,51.96383109931026,111.29269180448192,0.006134744092468095,-84.28603654260861,97.55342735544168,0.0005815108238883186,78.7668371758962,-5.6614186982907855,9.662462249607886,0.0025837708597461926,-11.720014584228094,-9.274184387968175,-0.0014994148295468081,6.34237417533117,0.994783917028658,15.567749532468158,-15.12700027949927,-4.905347604490215,14.825565681459675,-0.4365684095093812,-3.7718344142302596,8.49057621598322
-2.618244843314485,0.0,0.0,-1.1923259694141808,0.0,0.0,1.0327017026626206,-2.687220683825025,10.886153003738327,17.354163323578923,7.313273181969204,-10.636586521709338,-27.671574254537713,-3.7530948271673443,0.0005413125268347535,-8.9507752682444,0.5358781098323822,0.00011220157151826904,41.08008440795422,8.734440777703309,18.404204172681258,-0.32555829859422336,-7.920513488570329,-12.69482842224983,42.72129338325412,24.039925290144286,-25.193424187155156,58.85604089251655,-16.887315027239215,53.69454300415001,112.08757165397738,-0.0026265201723806786,-87.0111152021985,96.89024648670724,-0.00027755483031171517,76.98439146793152,-5.333649048323325,8.946352917473927,-0.001587830141979169,-10.84254016231979,-9.814534492895636,-0.00284268498726869,6.434167489413134,1.2133829350386,15.704191829908295,-15.01509861203856,-4.751802603697549,15.03322203823217,-0.24104309771373317,-4.7920575621720545,8.91191024300139
-2.292950724483331,0.0,0.0,-1.1734698368191032,0.0,0.0,1.522429250191573,-2.351405182554616,10.992641598183713,17.14743776362125,7.808006833109153,-11.23209045401611,-28.511676215834395,-3.9533071011679577,-0.0013094571648801653,-9.136061907227994,0.4242033559369893,-2.5860953868283737e-05,41.04366091003506,8.64716357418697,18.591658478195306,-0.5392401372542628,-8.304832344571146,-12.508477192571881,42.58594963537074,25.65918989697641,-23.94661212237998,60.34071843119584,-17.623709401948734,55.394178077218456,112.64403225376373,0.00037056719405629743,-88.79939317845397,96.807044508909,0.002678260645750894,75.12906702085185,-3.4388187274311997,8.267623441070967,-0.0006270758200107413,-10.689647730162676,-9.825879847259126,-0.0006845203787603038,6.276246427862753,1.4169394166978626,15.029674123156157,-15.232350697165938,-4.315474762695532,14.478522803748042,0.23730854761954534,-5.867080612010021,9.583488574708975
-2.677268115158124,0.0,0.0,-1.5296175772783898,0.0,0.0,2.480770138024049,-2.3727912813744574,11.387528593721262,17.000977761587556,7.929200210551556,-12.134993743467296,-29.50262029421372,-4.097254320473994,0.0006662883627965182,-9.859282962424846,0.537387144111151,-0.0005135395909213481,41.16060083562249,8.436168758844666,18.332261971735317,-0.5159818118741659,-8.70616650625762,-12.309127234571966,42.36405639171633,27.05032450656137,-23.100163308410792,61.890472912407326,-18.287984457368566,56.99899038337958,113.03503452004868,-0.00025826610842606977,-90.61218444163705,96.35843279212031,0.0019388142560746164,76.19385861839022,-1.7753406574851727,7.8043713721813806,0.004973011208157154,-11.992553979341354,-9.160449013293773,0.0017610403819961996,5.967032389488201,1.8187634748522128,14.221377103265173,-15.606400487658455,-3.645053745064922,13.87305414630598,1.0569318086191284,-6.925616645962349,10.451600650823954
-1.999540103050929,0.0,0.0,-1.4019667773358993,0.0,0.0,3.123730952919449,-1.8963901541289065,10.825769875791739,16.77380512968433,7.789577810512422,-12.292659200829606,-30.360077124859032,-4.496864893382887,0.0003122779554244066,-11.261353078138809,0.5507635985256889,0.0011163129312584544,41.11302906752732,8.261426511973266,17.518461506649075,-0.42754736171404617,-8.940572043420778,-12.787731513518857,42.24963752486384,28.02462111051748,-21.97015340858065,63.480822399966655,-18.74416279139895,58.82226623247234,112.97017799405191,-0.008488611634406153,-92.88800464323509,95.71414431191153,-0.003336177460574648,77.15231171774644,-0.9711070651278793,7.960714636617307,0.006129580860787013,-13.414125600787784,-8.857651378567388,0.00014611613690872606,5.277973941754812,2.112776589934913,13.257498920217628,-16.374355450340584,-3.0168789726534815,13.084431566500829,1.6171940191695153,-7.747969659711924,11.117789972322559
-1.169199578346126,0.0,0.0,-0.8168852398714275,0.0,0.0,3.7230402582929387,-1.7988328545501906,10.344015683575721,16.072573970456425,7.955826842675925,-11.875047745624569,-31.03126047737052,-4.367156221797341,-0.0004270945254255011,-13.006256658923348,0.5551183721082148,0.0006008965335459382,40.624505787269605,7.949487516294963,16.994388973022534,-0.6300428982347344,-9.006305883825245,-13.559680141660762,41.90923013908989,29.071666863941605,-21.131800645214557,64.18333320030115,-19.550237861032258,60.7778056131725,112.48485217934152,0.009351049107351983,-93.0719828672427,96.031000649955,-0.002855129911115744,79.34570305620558,-3.814324303045678,9.911376881458667,-0.031309246352539316,-16.066049536255242,-7.294326387335776,-0.01540580337400796,4.466982974911552,2.5855096909874624,11.449628330879282,-17.32412431011817,-1.9091620018904845,11.579916361045171,2.0450313053791644,-8.411647101574731,11.662167070905026
-1.0421764001257592,0.0,0.0,-0.05558024752549234,0.0,0.0,4.28801195231347,-1.7771334585257432,10.931960585347067,14.710008063391673,8.6664555449852,-11.323375333175113,-31.369108303459704,-3.867727717835163,0.00018401226110186804,-15.259851811661175,0.9303694082687131,-0.0010902989873011416,39.8114075348477,7.508237670652584,16.57632773807244,-0.8524978724348267,-9.217182338183452,-13.969471105197451,41.740103999732455,30.05605795128176,-20.824057287947756,64.49572536715539,-21.305452874989083,62.60583651218343,111.88686061908564,0.011086456459277704,-86.78949406695705,96.78046036809725,0.006861811510007393,77.56104378399137,-4.624575061743421,12.914862435215424,0.010099624940152166,-17.947808360175404,-7.0328374994787834,0.022830036775312732,3.757845813305001,3.339849022538234,9.409974232337218,-18.171850981837018,-0.45058946999211275,9.969985354212614,2.5222349298586018,-8.927288566799632,12.207356622146394
-0.712476671808594,0.0,0.0,0.42637983455784206,0.0,0.0,4.681083125981304,-1.7435693981345193,10.93189526354553,12.674234796457277,9.40864675449229,-10.056701070202617,-31.777090795757665,-3.32855289147318,-0.000605565261232735,-18.146911325429418,1.4907782360597206,0.0025513851200558257,39.23445488517243,7.22137911832629,15.879167973712674,-0.5570419007916537,-9.521925090352397,-13.957972242618366,41.68332650214117,30.55873808892333,-19.510372468495646,64.91019148061923,-24.113991203069272,62.915294547122706,112.55572581024082,0.009137511571289031,-85.23560396967463,95.60572617679777,0.00023100711647665247,75.88443190025687,-0.49197011076364144,12.253921479280423,-0.023497781583926836,-15.874551849818713,-11.513071362555333,-0.05019264928326536,3.39309883524855,3.974171959765324,7.953086399859096,-18.62728465027016,0.6817059151033654,8.859062303597103,2.9479037110383284,-9.23566499775829,12.846439931794192
-1.3098160943051789,0.0,0.0,1.1517494734241567,0.0,0.0,5.563732383145242,-2.215704955959158,11.083532981119243,9.30869965755983,9.786020360466344,-7.766810394997831,-31.971265174570767,-2.823763594641779,-0.00011271838794491296,-22.100154934894974,2.203504261052522,-0.0021767606265273116,38.24723402769883,6.91004401926201,14.817552089828148,0.2238807626037262,-10.208478823367269,-13.675014343997772,40.82111032799888,30.770218417154247,-17.48933942738894,65.05838492458231,-27.2432211994116,62.323611434933426,113.69410789713592,0.0034624658676224423,-89.08353554476913,93.30427192858124,0.007534166887917714,77.21057470241868,2.3496889077318825,9.577295051755112,0.002170993282459561,-11.87365884394209,-17.266032865607702,-0.007934886710386866,2.6923376991560577,4.63275156766555,6.223164791380684,-19.426937228373557,1.9402033067149196,7.507524372280902,3.2643134965621323,-9.255319561246317,14.039404433127057
-1.6968090852785722,0.0,0.0,1.266157787676059,0.0,0.0,6.237765293920037,-2.1428447252929774,10.93203321494994,5.017139278902054,9.995975111513427,-5.339331523566454,-31.57371446200252,-2.373695217936508,0.0005522774785845994,-27.49391182466842,3.223525886719218,0.005625534455642747,36.74105549970204,6.4073385757990335,14.030007776297023,1.5373657080168868,-11.441513911639289,-13.262185917379556,39.54716942997078,31.45262885135342,-15.810162816805077,65.23920192541871,-29.694843968843703,62.83562052441489,113.97145561138443,-0.004125311918022442,-92.74240034848718,91.69809261089962,-0.0071756352623030826,78.95579697701686,2.5369976419151508,8.712490614891813,0.005498997093922078,-8.404316537245696,-21.427283372601774,-0.0002806857251346393,1.6849904998070164,5.006694916359416,4.07402457427542,-20.53388809885246,3.094665011201801,5.6636239164492475,3.282079138577911,-9.196108424509092,14.874602790134816
-0.2579189314254884,0.0,0.0,-0.6918019210150178,0.0,0.0,5.861926400686253,-2.2578738461917385,10.053759522257108,0.4807608340852295,10.278238867819123,-3.7273390665338644,-31.14557466095777,-1.7733081355046068,6.730603195028815e-05,-33.64167602185214,4.545067103072105,0.0069470712701497645,35.715796859673496,6.1528373341758495,12.944847771340951,3.2478027174216195,-12.2195301507028,-13.194893160843375,38.37818621891852,32.44586306353698,-14.987582004681336,65.52456688524383,-32.23280469746549,65.10634684696275,113.6277424937495,0.004385503638089257,-92.42569901399894,91.92736519656954,-0.021226794057739605,80.75795756038391,1.1261385440597027,9.247201811028612,0.016078126940111823,-9.580969138199224,-19.094633419086872,-0.1645619619067883,0.6232084276665679,5.3765144873022255,2.097368658458727,-21.667581594570482,4.182523825866954,3.9783869224343325,3.2701624704341463,-8.60259660769187,14.66130312260106
0.1890679007516257,0.0,0.0,-4.936561564667146,0.0,0.0,5.805021609702059,-3.0331368507789875,8.847686147298688,-3.8493951838206217,8.967721409030814,-3.4450503438868068,-30.8227261099867,-1.4566189473059385,-0.000274714762086723,-41.36090263410918,6.718322177282904,-0.02796407220057539,34.94578749068325,6.330094903810086,11.568518986810476,5.702569993339076,-12.936203933455527,-12.693739514784914,37.54915330698142,33.16012938558992,-15.401766557265786,65.71283443447456,-35.723529541097214,68.55764593016892,113.20641413193947,-0.00038106827708464205,-91.44533507033766,92.87457870742357,-0.01504954820745877,78.78484081612311,-2.9464379935545773,9.862538397172026,-0.016876726864392566,-14.307182446894311,-13.36916922798607,-0.030009159287863813,-0.3125244721375224,6.676534218281633,-0.28816545752846884,-22.69801252860676,6.286647518005001,2.271025838186692,3.474235727233891,-7.71353255634874,14.329565736294738
-0.59273729048846,0.0,0.0,-9.256660170492777,0.0,0.0,6.202394579672424,-3.2683368245731,7.754224711707748,-6.9778196258433125,7.456800190296079,-3.4164063629928236,-30.560498704643543,-1.3942755642695157,6.14738830001935e-05,-50.904197706101264,8.869701262622197,-0.004411220111271269,34.100888248757045,6.749978889009647,9.949429837661057,8.817505441789162,-13.850790621573314,-12.085476308222075,36.33654334707831,33.56482493328425,-15.43900434814737,65.99286954172814,-39.771450978697644,71.74751161618512,113.52978614223898,-0.011192476564820896,-89.9828707985759,91.5094005466869,-0.011469612617937136,75.39163056011395,-5.464910558000771,12.678306238684568,-0.0011096965890850677,-14.110701308521902,-12.945207282116847,0.02448189786957535,-0.8863782768880566,7.851848702045473,-2.534154345950411,-23.350767964047858,8.222994790228626,0.6468771761768813,3.5309060118537374,-6.604312633234634,13.927691129210753
0.45259258230215044,0.0,0.0,-10.563931556913998,0.0,0.0,6.161561976595471,-2.938117169556261,6.62323751935021,-9.200218182362018,7.156772228090727,-1.5359877374561028,-30.421547626686106,-1.2788934117213702,0.00033713006395805857,-61.37578925759319,9.419067907155009,0.022612923407825888,32.964834388520366,7.630173786097854,8.837671859799222,12.047542900777854,-14.710432246064403,-12.156476526941356,34.98025744281429,34.79398132007783,-14.413138095471037,66.48932082645773,-44.27813379950889,74.89621371456734,114.59598623056078,0.004053370630055524,-89.64288003014097,88.9070754485843,0.03296631839845181,78.87062863115175,-4.543134826757127,11.430101897695929,-0.004834614234687559,-12.624869285235599,-14.150665554209507,-0.0028794139696704324,-1.1212318631938516,8.666616523054843,-4.7230023963371535,-23.63200403711978,9.804359505650458,-1.0640490583073225,3.116862507924928,-5.1915183134158704,13.791091994781782
1.3408105755752364,0.0,0.0,-12.420905839396209,0.0,0.0,6.004361598527967,-2.1558656691429974,5.110776807790583,-11.34030339300797,7.1160193907895435,1.1849449552544626,-30.28368892081935,-1.731277741751296,-6.031207961143958e-05,-72.07753262326617,9.690826632233161,-0.017122991804639845,31.810790155729443,8.871309003408237,7.1083122906657925,15.279549959200692,-15.572045283503106,-11.987014907441022,34.95046953770711,35.24922294213949,-14.43665974720798,66.08178686650346,-49.538511069155845,77.84971118182813,114.96113902549025,-0.0009435876540391835,-92.88918895803137,85.6804749219015,0.009677031883945267,83.56380195282662,-3.66390542228468,8.434633509020326,0.0017143787295673886,-11.834947688534204,-14.304933744563566,-0.002415845878195343,-1.210052920201276,9.277391319741678,-7.582121546556827,-23.721015989016003,11.449968812845865,-3.4806076806676285,2.4288371192404763,-3.483344923883533,13.729536643590325
0.6223180752461555,0.0,0.0,-16.46070936356934,0.0,0.0,5.9188538020968275,-1.9168470435298057,2.9829021115670384,-13.834675976205203,6.905286483816892,3.022626210894431,-29.797713069674664,-2.045037672442576,-6.314905049910093e-05,-82.82169468891819,9.652923983790615,0.0165463111682415,30.566333097630228,9.82602698203088,5.713122898271193,19.01923841571655,-16.701789339513372,-10.836399281213275,35.44947491182777,35.38697842335921,-15.561001093197865,64.92314923485536,-54.1228286222014,80.93252594868243,114.76158686028533,-0.0016881414001152534,-93.86126007418977,81.42298379586691,-0.06472726200512577,84.55722367432253,-3.7653761706827913,7.800571656405295,0.0020241388080901616,-11.596797635586785,-12.822262023773641,0.011141424618835412,-1.7701191632685684,9.933872288566329,-10.186674498765264,-24.255321771891783,13.039239350393458,-5.65135576737859,1.7506159000675652,-1.9689634925383808,13.0853545871143
0.10686247659032322,0.0,0.0,-22.78792899607789,0.0,0.0,5.6732698331243965,-1.5751550674709025,1.0478850687805399,-17.50679935844582,5.040310698957587,4.316856607896421,-29.31481935361021,-2.0063865145286597,0.00025771224554044117,-93.38238229561424,9.150387391102166,-0.0012735666981290822,29.53625939054457,10.105520225065225,5.128008653626566,23.764651644999358,-18.528673217310736,-8.528762799248833,35.99215475364622,35.93107891285605,-16.72553696138966,62.94056187549985,-58.29793739905058,82.7040116096779,114.40240677413452,0.0016460350121767205,-92.57539296133999,76.35242254394909,0.019830174466990324,86.11083494043066,-4.772444858079382,7.735040671856414,-0.0010287622152953563,-11.279316297700703,-9.581289581897142,-0.013395138371667155,-2.413943759449821,10.956457825305465,-12.128484429663125,-24.9119463949022,14.714583467143344,-7.065836098482161,1.0474273833404768,-1.0139473194336264,11.81813564971055
1.2115612439646701,0.0,0.0,-26.25058193348879,0.0,0.0,5.168483215782534,-1.5450489516358354,-1.2170685534991519,-24.329409072825534,2.0361802908474025,5.128786176444407,-29.374131282547054,-1.8262283566964985,-0.00024028986944423588,-102.87103448835636,9.048328809122667,-0.01128412733960015,29.365964974835904,10.863297663214752,4.546474447850539,29.05763339479936,-20.16347330278423,-5.480420792927751,36.93941008269071,36.16969481843135,-18.111576375785464,56.48715910184712,-62.66992677728645,79.26954486890192,113.45114643985336,0.0008845006184621005,-91.29620044113182,70.73180522437029,0.02327832451500373,93.02668769949045,-5.0718258017959235,8.648378634952403,0.002649089921092912,-12.103518699492573,-6.841105462618343,-0.011900264449339984,-2.8514738176768444,12.216077015685594,-14.446431963066132,-25.359864570873242,16.747377467409102,-8.744459811060915,0.7436431161804801,0.5962284701392662,10.054348917459182
1.6947549662341885,0.0,0.0,-29.61312454114613,0.0,0.0,5.081993271689501,-3.026500807550123,-3.769811521323055,-31.48437837468361,0.5982282132059701,4.616008666255614,-29.92459162368499,-1.3467516677845863,-0.0002614827593069534,-110.80071075910071,8.401251446403434,0.003983427681033195,29.688485166258925,12.750271109831862,3.572313389606501,34.657957685674084,-21.275879795999725,-2.250203115986941,39.69357571983827,35.41424795589191,-20.6228675088019,44.83697269236511,-67.01666417597596,69.30919335104022,112.08471429098796,-0.00539496786108142,-91.75202939223946,63.87871901530312,-0.001687273115973485,98.8230998362794,-4.159878061168199,9.964968021598917,0.0033533342820763552,-10.352685806612815,-6.65427956813545,-0.0027232323019529504,-2.863372543386161,13.26182518633974,-17.320795034369716,-25.30353426554207,18.785514343539738,-11.04510986696075,0.031156414475416037,3.4113630330648532,8.895964160603393
0.1008363774704309,0.0,0.0,-35.950539801439135,0.0,0.0,5.756635380964651,-3.731537963150647,-6.265575799759591,-33.8070563531856,1.2744938678579247,2.577128483741433,-30.43771572606165,-0.6714428470111748,-6.611600526098719e-05,-117.88449376197642,7.101806983045678,-0.003811367015609603,29.386164446132216,14.176315187113975,3.0361812690315397,40.85420459060478,-23.29238523021955,2.511596919613777,42.74765681278117,34.704139602119454,-23.143754325797453,29.30558994418097,-69.7462100695435,54.66384797611934,110.74559560710661,0.008679574510349541,-91.48962300343482,56.21101296123328,-0.0010398251187016113,104.16584638524171,-3.7873302831471096,11.34123863945141,-0.0021847054743363583,-9.188544049893189,-5.500310963425266,-0.0020816883483004544,-2.5965041823495514,14.059149368982826,-19.487889321932457,-24.964876726598828,20.32530785368877,-12.78861715689317,-1.4767198157025783,5.977762333745994,7.82832276106453
-0.170505933373798,0.0,0.0,-41.01851241470076,0.0,0.0,6.1024249698307305,-3.794008144060311,-8.850258513151388,-33.22419249965886,1.927496288805006,-0.959611673401292,-30.646767848583856,-0.1140138031777713,0.0005915248427571802,-123.34420931096814,4.565019774223363,0.007345740582902288,28.610289461502582,15.391200682392983,2.902890116998837,47.8711570356229,-25.3347388631387,6.9871079079492615,45.372968140951585,34.696152270710215,-25.529283272917027,13.950597533775786,-70.29012624075874,40.895064165908295,109.40316588555557,-0.0006209226816609727,-90.46738805844375,47.9441644310556,0.034529063968224284,108.53052349648226,-4.4591751658167,13.442768121734805,-0.008225156222595597,-9.425516904869827,-3.1018612436069937,-0.0017022089953957883,-2.5065546493420374,14.760118277839378,-21.266417953912924,-24.80869933072938,21.628317164730632,-14.209795599872795,-3.124568708086088,8.515519254223893,5.951688433914127
1.2151354592548769,0.0,0.0,-40.74493425085923,0.0,0.0,5.733716095621723,-4.377605991583198,-10.311312862705087,-32.29837331086859,4.912502152437544,-5.60005573754918,-30.761011720688096,-0.4298033530004607,0.0005296009628543957,-126.00440604954152,-0.7731972653193007,0.010958486061789202,27.593496723560385,18.099686256477412,1.509021820793861,54.87482347491807,-25.951461301200553,7.683065206330741,48.552426538428456,35.09547115726233,-27.936050880016357,1.7034838140711495,-69.05918795012086,29.315938374214088,108.64445154589983,-0.002164282314936804,-91.90415984131518,39.29765380010016,-0.06569752008304157,111.54853599028213,-5.7638547619048985,12.750240753049624,0.009320589477513751,-8.1845090390789,-2.176055353103626,-0.003111627052240275,-2.3925704616854335,15.09601586300527,-22.831523199825842,-24.581996459411158,22.511769092684716,-15.582935183268559,-5.3093724414423065,12.075121169973729,3.8473668576103766
1.2394712815168738,0.0,0.0,-42.91450847774098,0.0,0.0,5.967609750262567,-5.239090837323714,-10.925567665253611,-30.231210001588664,3.0147719790872483,-9.025775528959771,-30.66948727741105,-0.7092987478500677,-0.00028490089733158934,-125.88997479492947,-5.75348843559083,0.012240508157310336,25.35349268623997,21.41481078521963,-0.039049128443833694,61.14538425074605,-26.520143281720223,7.32656604413553,52.19509247540476,36.01875432792991,-29.821661719889835,-6.9247033452308075,-67.11858602972289,20.14323066281885,108.60441736080989,0.0015171820992514694,-93.43644635656443,30.990063654162448,-0.009971827939246038,113.90661637453573,-7.21413563115287,9.444957596725056,0.006842428607908372,-4.463467404035743,-2.9916792629135105,-0.008198847183456917,-2.1707230474592865,15.17681059730832,-22.920682256814455,-24.362952974370014,22.61908361036331,-15.636206446594814,-8.811612672521374,15.965567704472997,2.749752122650805
0.8555972721277488,0.0,0.0,-52.648527322348635,0.0,0.0,6.539556781567924,-5.704893692495216,-9.960640358786856,-30.00996182080692,-0.5773459818487613,-10.943140543042176,-30.36007961234171,-1.3556554425673784,-0.00041909768829746227,-122.56351472657245,-9.566807272433742,-0.019417650467551825,21.515937081002765,25.242680313186245,-2.740197307835846,66.37903155181453,-26.57828327729565,6.675848067506882,56.2866986086716,37.02653688916137,-32.166433888796455,-13.832450070477467,-65.3286474695899,13.022457856841038,108.1340245436052,0.0007617820095149574,-93.13637688140838,23.842533209987053,0.07171169906265669,121.82305852149989,-8.724359305847084,8.207919883673924,-0.005796972498637343,-1.813320100951315,-3.460998616329936,0.0026226060231349275,-2.5763407640421043,15.685513342335438,-22.274813628232145,-24.91896472164573,22.853926214210436,-14.802489961636827,-13.638049505954761,20.486731544059317,3.1613711993311626
1.1850618280092475,0.0,0.0,-61.9803422847482,0.0,0.0,6.8743081169536655,-5.2944952403513525,-9.72755723734387,-29.78706232034162,0.37159809251428433,-11.506966206218582,-30.18015459402617,-1.2837880702698303,-5.731478648193189e-05,-116.26354172586537,-14.160396782457909,-0.06591777408401847,17.651994032960772,29.040476101575813,-4.302971051598006,71.27766248007174,-26.41423197878085,4.209716310194707,59.74242848552966,38.6560564593525,-34.415323335102215,-17.544942308627153,-64.11617125246391,9.2754560603771,107.2904367491091,-0.0006219535920050008,-92.3219218601048,18.07061128802081,0.0024488915020946214,129.83326395421764,-10.859764381177184,9.072600658166586,-0.004501184796810354,-2.047002136321382,-2.8022363144857425,-0.008010488395516628,-3.7476878905408144,15.618413810623512,-20.737524887384986,-26.232900004835,22.22744293846361,-13.348571096739978,-18.376942311504557,25.37486304841749,3.1313691380716917
1.9741955695527278,0.0,0.0,-70.28817137599752,0.0,0.0,7.622278669459924,-4.532116487455988,-9.575663744485228,-26.1243929593665,1.4006683189468605,-11.304048566522564,-30.022338339537807,-0.6758945542410698,8.666452495306533e-05,-107.66520416565861,-15.879035403271807,0.017268134395379674,14.258662529397343,31.99128334695808,-3.868736939663498,77.01897908058426,-26.996026504820996,2.97205090943421,62.872185522514,41.384341581976855,-35.73357417043437,-18.576436414174413,-63.151590420090216,8.569374462821633,106.87449143352782,-0.0014710187699344143,-90.15569477995284,13.389272511663915,-0.009015106681233662,133.98483805126776,-11.144513997502331,10.86156486207326,0.008737569585768032,-1.637762737636221,-1.9977782417508791,-0.002740789026009072,-5.0282046045068425,14.950780180034663,-18.825738815132343,-27.581720612135317,20.904388727522925,-11.7917358852418,-22.3643672777259,29.137961138832406,2.8036332233634695
2.7323522939220224,0.0,0.0,-63.26939058427671,0.0,0.0,8.558255103887097,-4.730161600908419,-8.368945423748057,-25.25889092778388,2.8463628032420156,-10.313898342822007,-29.35612320264829,-0.4955070217446448,-0.0005331265494370292,-97.21067018204505,-12.200804480837071,0.08147917504426694,9.619547340030715,34.44049321582341,-2.1531545849351716,82.36550859538073,-27.482632061108887,4.526767928282165,66.33102310695249,43.35216656586603,-37.280760665584886,-20.639272954963765,-62.205281461350246,10.00042492196974,106.44909195913404,0.0008251735478657688,-88.40198617938252,11.12044333228302,-0.015828843163127077,130.7698332161378,-11.379034626525772,12.405405935553665,-0.001984798560149367,1.7670016995148643,-0.2023911855103508,0.024713513683059494,-5.475702888135422,15.06036649601011,-17.206489566167576,-28.17006397633982,20.403839052947013,-10.20384296697562,-27.00888776922823,31.40074128299572,4.012963857043545
2.8885646236063636,0.0,0.0,-45.26831737817191,0.0,0.0,9.30849395886276,-5.353564171955833,-7.3974787778358815,-29.66948564526085,6.027980587032774,-8.826861593462352,-28.886351748963015,-0.4355380280620389,0.00011177183673432504,-86.23961874133529,-8.048792065596777,-0.08031444500087855,4.990311975349452,35.65875428773804,-0.7403865002442339,86.78658481989883,-28.64767570438734,5.371695774979133,69.76690408904955,44.331354538882586,-39.892472714678334,-25.8631706438684,-60.069522141964725,9.326502006167663,105.91093408286028,0.0003911197411046283,-88.3746598063481,11.060041404899797,0.01066935459055372,126.80599572938027,-12.209499247966392,11.648806687344795,-0.0020053498368822484,3.6107592128214843,2.1598578283540855,-0.002817920510737621,-5.7950368599850695,15.770837214551904,-16.29085592995209,-28.65446288028254,20.717182218317575,-9.040840521174701,-30.42047956267039,32.28020354805428,4.541560241667599
3.232405309905387,0.0,0.0,-32.14021226763288,0.0,0.0,10.035448872389141,-5.026132761749074,-6.988651678892612,-36.259151261165336,6.9064704312010825,-8.433440276202774,-28.799693994457968,-0.37046039206766285,-0.00016317475516717384,-73.08879384167837,-4.004932376718482,0.1192649509229294,0.757579697158569,36.44421671023183,-0.8752780172790421,88.29440376688339,-31.669812060193934,3.709548272441361,72.55648906733224,44.647791049640006,-41.53626058216124,-30.151833080134796,-57.39252396147209,11.236655462051784,105.77326327827402,0.002138424972004129,-89.31207197334899,11.08673573053852,-0.001358135993292378,126.64953890995855,-10.123798120048605,9.973797750599177,0.0011689899393534208,5.37597709314937,1.8720770225742913,-0.018898228654082187,-6.885029174160976,16.155741592802013,-16.047074612458925,-29.816657891871724,20.98056954481732,-8.649562533548032,-33.53653997566011,33.467880391378415,3.2981533234201335
4.766280931808113,0.0,0.0,-42.38191012584191,0.0,0.0,10.196598083357612,-4.698591666105265,-7.493440766623653,-38.093063470706085,3.6764237678223317,-5.226911682291469,-28.683623303028003,-0.5785747886451283,-0.001211205537294577,-59.00681762559612,0.6172912130558668,0.06397534127994034,-2.5154561766104226,36.653777653248675,-0.3759782895886465,89.43036607739262,-33.18234392382497,3.7332163633631206,75.40217232666089,44.22177675798313,-42.56446612565851,-32.370371775324706,-55.44826339029182,17.99136516783107,105.20103247578223,-0.001948359676134025,-90.74705139012983,10.799058043291039,-0.005042638431809448,120.85274454065114,-8.110771649745367,9.608578205648874,0.005005030788971756,8.757460666446892,0.9017285195593753,-0.0028414682840248217,-8.471248286668496,15.729112222866755,-15.79844004977226,-31.35509684264742,20.494529735835737,-8.59166143015243,-36.60484610010394,33.90224676015682,2.5212932840777245
5.349921880041937,0.0,0.0,-61.1908259075099,0.0,0.0,10.335846390687145,-5.038680067323426,-8.190035746697424,-42.366237089245246,-2.284861638394074,-7.777185788799388,-29.047778104394084,-1.6694985199186458,0.003063434291176679,-47.119218744076626,-0.8532074986302441,-0.14911993775384244,-3.933731269086254,36.0962533255365,0.29094731520108175,93.12690092708735,-31.137208578837782,2.3095428619772105,79.42878688395011,43.61781971373385,-44.89577578520631,-34.826481465144944,-52.96018013613424,18.832974710126916,103.61660808497653,-0.0036347881907240376,-92.60156484883666,11.030642056599154,0.0015255778410997727,116.19110425319447,-7.915156800066806,10.049240714992607,-0.0002498737991737655,10.341310934704888,1.744575524561328,0.0018964246324815186,-9.53533702548836,15.299354615008157,-15.830246510434998,-32.35548688544828,20.110415194221254,-8.799727906004119,-38.0860210955733,32.74586095587577,2.039031918923426
6.708226734648066,0.0,0.0,-63.33338085279907,0.0,0.0,10.374206427409282,-5.220887746172565,-8.938251780776115,-46.969149429427226,1.032318759198756,-20.458780754942737,-30.36494830470933,-2.571191441282325,-0.00038180841534454654,-40.47586019807414,-6.165094414079658,-0.01839752399929368,-3.8832764256649717,36.80846390765302,0.23432189574535872,96.22113810588513,-29.014162812145777,-1.3871807653638,83.36177770705612,42.55117677771332,-47.921677579019025,-37.7874867575992,-49.737560064519776,16.977829018873173,102.22213437716391,0.002748911360486954,-94.23903653352139,11.507880741777075,-0.0011291648012213109,114.03587594681701,-8.97128589658907,10.38877470235524,0.000763182880679372,11.640034060558785,2.8062670677833697,0.0013560248548927967,-9.376734635963986,15.557351225796051,-15.869333133544004,-32.23140756102399,20.362802165087334,-8.730009357144713,-39.019426041069856,32.66199700662722,1.916290325590447
10.773133379942525,0.0,0.0,-57.37173706665221,0.0,0.0,10.301091931090504,-5.590856706521368,-9.692217043587009,-35.231772988379056,10.107583943235653,-22.866893764209657,-31.591090025490484,-2.216785084035458,-0.0019441446401772474,-42.660105405280525,-11.11531413326623,0.09349965894861215,-3.965867069093182,37.67825301392351,1.7480688641788915,97.58118370407622,-29.19501800958708,-2.608509188942792,84.85878661035872,42.64725509623821,-48.05864846319594,-39.734426369171985,-47.951468714371835,19.8329351487763,102.08840427306446,0.0030087674422723783,-96.28754808555962,11.765080835993695,0.0021689266028625236,106.07277517871951,-9.266660974604756,9.62786452798462,-0.0021165612924757063,11.38183067632326,4.681936417097215,0.0006522934608647105,-9.052379264314212,15.108219694910229,-14.57407865252068,-31.918300299674176,19.46365849348045,-7.691367655315367,-40.26642684716524,33.68527912622947,1.6340268565329903
14.035033033428476,0.0,0.0,-44.66675440040637,0.0,0.0,10.278533314139189,-6.130075994855723,-11.145751878322995,-21.919059900891707,19.77025020257396,-17.101769526221204,-32.102693015678554,-2.0176857342551133,0.0007097472557107896,-49.41396608504793,-13.854342774382857,0.015209880133015819,-5.036695770663505,38.110109049329076,3.417998396132967,97.00645467697433,-31.520783514848297,-1.5473318834108438,85.76867321308441,42.52569835947234,-47.36732270793569,-41.52681255589951,-46.612725563056316,21.973044394352318,101.39659708366217,-0.017978109164854754,-99.27293155592633,12.043129767513324,0.014690454124619159,100.6613453558914,-9.23218274429153,9.060041234762421,-0.0010829152501007824,8.62766407109456,6.994702743854224,-0.038182528566175815,-7.617131020122123,14.107537919973108,-13.692669525301216,-30.39654801613062,18.210498681338265,-7.2708180114650185,-41.87541544125819,34.76214568809553,1.1560963107268243
14.21806577159066,0.0,0.0,-30.292698617713874,0.0,0.0,10.059059427430268,-6.662209685318668,-12.02639680414497,-22.826655329025563,17.03490704068422,-10.696606845294127,-32.3737606488993,-2.0152960521188574,-0.00019283368542401258,-56.29059645418693,-12.722817970943925,-0.025490461667633135,-4.7202901780870095,37.59936531035263,3.240730460483337,97.83123969660053,-33.40149753478191,1.9093014516399673,87.60096485133408,41.22595377747118,-48.68668567333084,-44.4686082746221,-42.899545790890805,12.22141588521227,99.23144623475109,0.028442705169523463,-98.01031985909134,12.436862699996592,-0.03430927010037648,105.16943170341978,-9.464870423409177,11.124936325015838,0.0017582559164065893,6.94643224303429,9.729406425393973,0.011472549613598794,-7.170730239928533,13.602314542763082,-13.2548697786149,-29.90876430620872,17.580180432223205,-7.064306741851108,-41.17087130976963,34.896401818381015,0.024615830758158666
13.741029876709554,0.0,0.0,-27.398215630391025,0.0,0.0,9.678613169428267,-7.093365034681417,-11.41003030196066,-26.283179792084223,12.130366967917046,-7.364979883816452,-32.44206156587341,-1.4333561190893664,-0.0001558641742003652,-64.02877107966299,-8.56605630995539,-0.06329849524611625,-4.057540366257467,37.50444654966307,2.262288479007634,98.16338858479301,-33.938378036132434,5.6386171737485755,86.97406886539238,39.92953504086671,-48.79109760796165,-46.593247705474504,-39.27376413776799,-2.7150372342434013,98.2942556584163,0.0031631050006909727,-95.25847697642646,13.216802711626036,-0.05459567085776369,118.34867054622163,-10.06278682322388,12.500739334303965,0.006860376820205622,10.520914106108973,11.941436673825915,0.027801820337049657,-9.123857683557963,12.933371368507261,-13.259931428231894,-31.78139285969614,16.96494069299363,-7.339384096754266,-39.82706626706227,35.80597987911427,-1.0167425295076993
14.660811861495688,0.0,0.0,-37.66303034708115,0.0,0.0,9.191199851907484,-6.353026362235285,-10.4518599313632,-28.700146531925476,12.534683382627017,-7.97139785817838,-32.21629508625339,-1.1693841146192772,-0.00034028473241581083,-70.67590652858108,-5.381413909730247,0.037789782009719795,-4.0001406946977065,37.54544438300988,2.053931219847741,97.19468487265756,-33.40775072763652,6.839355029987431,85.58575659932542,38.404227465324475,-47.762788926785014,-46.116237635889114,-38.43229351372306,-0.6820429344423103,98.65974679683958,0.0001560438722952761,-97.4604359567268,12.258031659680956,-0.004874872683690191,122.93751907222128,-10.67109169314036,11.190005882279372,0.006222496386706989,12.361625379983568,11.593160975681954,-0.0018956978154113222,-10.47415115741802,12.281560962394828,-13.7627845283109,-33.02956276671605,16.551850300785837,-8.074173382224659,-39.69363284928459,36.58246504498554,-0.40192830011842773
12.653239273349442,0.0,0.0,-39.990163530345896,0.0,0.0,9.494364201185348,-5.422370227768775,-9.895382384398442,-32.293570165363896,9.217597770824382,-9.898043501378917,-31.87201828334184,-1.306533193709487,-0.00010006287807994878,-75.31234719245793,-3.9423765537456665,0.0016104655669194902,-3.760175587008745,37.54962180410439,2.323712605971298,96.18622504406918,-32.43696831549144,4.623443985030152,84.84599813373472,36.711432706353904,-47.15874804877426,-45.14193846183675,-37.797215307744835,0.11648737726817425,98.41926698014545,-0.0025157305134868094,-97.45144456671042,11.582630148772246,-0.013375801328028123,128.24367654847927,-10.236793425316026,11.642003169520864,0.00018953033956964677,13.26489516908974,10.01581557377281,-0.0026210491974429963,-9.942515931380049,11.99888790538168,-13.195572243404534,-32.496793315499886,16.07810719860435,-7.6535373427187725,-39.610684153076456,36.44802134400573,1.0662232979691844
12.836355666861301,0.0,0.0,-41.95667935042706,0.0,0.0,9.318841095864896,-4.876100452454865,-9.647553745539655,-33.2914034189051,7.4336587179095455,-12.798083955607261,-31.4804515740752,-1.2264131114839014,-1.759326101284115e-05,-78.5714921885793,-0.7807862623245364,-0.013370738253447452,-2.2602600748702524,37.39756765736295,2.5033228484194145,95.04109607381261,-32.67835416345172,2.7418505510394025,82.83878311159482,35.2405113098055,-46.18769647551113,-44.403666901652315,-37.78341184947997,2.39314187497872,97.95983496748718,-0.000595250585916995,-97.60492862619769,11.712447320237443,-0.01449945484983584,126.24282912935,-10.599864677746245,13.254191301246978,-0.00013760926351993834,11.368472946504019,8.776059533118346,0.020354944687999896,-9.535676447764885,12.198651957187872,-12.384706581147556,-32.15220489778244,15.958029916733414,-6.81210332860297,-38.0572717719738,36.190502896061204,1.4616490477920474
10.87636114043354,0.0,0.0,-40.20216250927733,0.0,0.0,9.294637063704533,-4.953444120012278,-10.298762849614818,-33.60503115272939,4.101137129374915,-13.26197834596685,-30.947539466911923,-1.1014557851720308,0.0009238380764591603,-80.76494948707574,1.0092757034847564,0.008654817381099666,0.7308917965807142,36.52009713053767,3.5168768935876793,94.55692904334772,-32.86807633691381,0.6514511896754362,81.72848998206882,34.600871566757924,-45.48468073027183,-42.00369777302673,-38.704172062095175,7.63665851621801,98.98840776394046,0.002107940288188738,-97.59658119130239,11.886208968618483,-0.009584415830062485,120.2813845676515,-10.392072584293778,13.415043232131222,0.0023618326658022704,8.49348304068492,6.972298891558806,-0.002991879531082048,-8.576544037157486,12.565153453655228,-12.520279324381736,-31.227579256873884,16.347267063039332,-6.79250500547561,-35.56309064232599,35.20495343385986,1.3803011009372121
9.914486364043201,0.0,0.0,-37.2452264227123,0.0,0.0,8.706040221599503,-4.8883442903610055,-10.680669204061935,-32.86406655845717,2.410942483162845,-11.915605299216818,-30.15708571582392,-1.1145642198212569,0.00020063340618577423,-82.42079643482494,1.0602818011581887,0.006304136228817013,3.356222287840465,35.12072956013335,4.957851756219893,93.54675292742108,-32.11253856366662,-1.0181587315828267,81.0297717363797,34.502904218559394,-45.17367652989158,-39.24308415886102,-39.489637688748445,4.750591201128925,100.3053941294024,0.0015904755444963023,-96.39177840008347,12.812645351252268,-0.0005853724693900969,118.397909348154,-10.46602163679216,12.642999250837272,0.0043125042870007695,8.698809038248337,6.545348697784354,-0.0056354246671358205,-6.97498079446759,12.307534982052532,-12.738041981167886,-29.58670860102042,16.191314951337677,-7.100246247822263,-33.13334596053427,33.71439495811238,0.8461633129456619
8.083683501625885,0.0,0.0,-34.053265844681135,0.0,0.0,8.440466338493946,-4.276938421142239,-9.715149613346016,-32.67635196141798,5.729798859120829,-11.332743821604778,-29.21926149072641,-1.9274033232813956,-0.0023975682482956662,-83.48833972064328,2.2356821072959363,-0.006912743624922594,4.976945747059148,33.95385051177932,4.7288188751815525,91.18507698446446,-30.46099315840517,-1.2606565621989252,79.24431603388511,34.48453351201162,-44.90090524860822,-36.87398257808849,-40.99193738968857,6.934425940036836,101.58252372030566,0.006196930888124595,-95.60239881078073,13.571915037256176,-0.006936177180670579,113.65089522013797,-11.21693170062318,10.99672303169362,0.005081876253278984,8.477144515852514,6.502593337721775,-0.001040375191674574,-6.472706938821148,12.14448419538054,-13.549673643807196,-29.024287715563425,16.345363852936423,-7.928432138582069,-30.70297298081674,32.43972609555311,0.13065043647886893
5.564022285090274,0.0,0.0,-32.142581672082535,0.0,0.0,7.997612127596961,-4.248349297018306,-8.764691003497381,-31.34074784465808,7.255379438945475,-11.439054370775446,-28.12722457414252,-2.552763305700026,0.0013070534888180495,-85.0570932727096,3.7046197368887968,-0.003298246230030074,6.278186789060235,33.21997482910279,4.497319584552995,88.26232931350296,-28.487620679723403,-1.7035216921549923,77.20713748862235,34.889692784051796,-43.62592618371344,-34.184085727188524,-42.37523387189361,8.770490940162908,102.7718196425612,0.004459280846648013,-94.30034176108533,14.690908402535376,-0.018750769270170813,114.29781134130107,-9.303318549566626,10.654750687788926,0.022868653469858304,8.067567610785465,5.363042159441149,-0.0027270485951479168,-6.000559481946893,11.756767937372167,-14.30076730887735,-28.46567118394676,16.268491790339034,-8.79036243114278,-28.80309074657492,31.400720913078235,-0.28672962584268824
5.134253257727226,0.0,0.0,-31.74407026383835,0.0,0.0,6.764050475020324,-4.333953661289663,-7.81960487667349,-28.69638354120446,6.828681290932879,-8.725500402548588,-26.909164579386513,-2.5575520886279186,0.0001486078768031662,-87.03800830428355,2.327895429714043,0.01258422454609373,7.143585946782587,31.971429033358067,4.725117207289004,84.89802996255125,-26.837316519959757,-3.947126962614924,75.30965073178325,35.42106802154674,-41.997183434110525,-31.12053671973299,-43.54429883938562,8.739137682337939,103.3533323466421,0.0007440961117042648,-91.87954060878222,15.3575486860098,0.004780867219551589,114.64685958251393,-5.898359268373844,10.997678784257733,0.002201014684499745,6.67755150469235,3.532220287372694,0.01258119489240835,-6.018449644959052,10.715945988472647,-14.39985077454257,-28.365111518676713,15.343279865167617,-9.296046126222276,-27.41885099380429,30.27093055878498,-1.1853892103213155
4.509575578441313,0.0,0.0,-28.821902676231687,0.0,0.0,6.000587145954304,-4.173555980161074,-5.800634907786345,-26.744277095000008,9.156032807018375,-6.955280783254731,-25.722279969279253,-2.7373812511969287,0.0003039874123614102,-88.77286808870873,0.7764884661026886,0.0008643086719756836,8.03613054760361,30.607267186621996,4.082688865625698,81.25393534143917,-25.156669262801195,-5.699782705976467,73.01161311781252,36.22105083817009,-40.73247584162966,-27.421031696437602,-45.015790002856576,11.937565311448642,104.74727498362809,-0.011340855344177878,-89.40317106045653,16.041960517984275,-0.0014452222384527232,114.95072098588261,-5.726223888194514,10.75431185703202,-0.002579782294826866,5.021426368984854,1.74088762615594,-0.00042900140496570337,-6.342739611794284,10.07539537254571,-14.608940135862994,-28.61032357066691,14.828731489593922,-9.744920873722242,-26.075360277504966,29.277116385411208,-2.308057072126182
4.428891903916611,0.0,0.0,-27.53053768043065,0.0,0.0,5.652568179743664,-3.473599557735444,-5.140198496940868,-24.63813364319362,9.519182195271021,-8.338306651559241,-24.718277762364576,-2.9082440295276606,-0.000110658159835679,-90.25196523437917,2.1774502250360612,-0.010505181224491329,9.283260457736263,29.691228094174974,4.177440225845733,77.42300019744515,-23.722279191209715,-5.519206076319721,70.75206886846041,37.06922621160173,-39.5964440151957,-23.7897426659387,-45.89824403051499,13.224635614262393,106.14081629749933,0.005112870175400064,-88.26620194916175,17.457447714348973,-0.007810015863907884,118.31314349724751,-6.718983646946253,11.360539349910763,-0.0012114646698370363,5.058438763354002,0.7982151843556499,-0.0026206137432870074,-6.163413773360489,10.135986664274737,-13.896550204805878,-28.48254408293966,14.618735992504531,-9.050215067181695,-24.627594079871177,28.44082242281792,-3.0486564022087475
4.482290024839461,0.0,0.0,-26.48274721613235,0.0,0.0,5.137262027326475,-3.37042737840213,-4.176123218132383,-22.235239539059236,7.619266630135206,-10.596028154225312,-23.610224717898255,-3.3427887665691287,-0.001391425958399823,-91.55875992681433,4.298203744886101,6.943344658378312e-06,10.59096795203038,28.235882426788347,3.753617704501209,73.78084474538092,-22.676522633757894,-4.52184701832594,68.85220715004925,37.52734417915552,-38.99997308032516,-20.968487021045714,-46.60278794165962,12.601231912208428,107.02898425451413,0.002547945192708843,-89.73092752361937,19.180178600667325,-0.00023110988356464505,121.34251472448351,-8.222395751045545,10.879289758918182,0.006453203761737954,4.619296206762513,-0.19894077297143817,0.0014508036098096273,-6.062438607490145,9.458737325669466,-13.155449007883673,-28.36114920219836,13.714961783270516,-8.618516858044991,-22.502024226072987,27.068158311792338,-3.7920995194559333
3.9812600942680767,0.0,0.0,-25.1517262688983,0.0,0.0,4.536012264310891,-3.6354133832726276,-3.417546926627586,-21.73890589509186,5.440727740445911,-10.333389317343547,-22.39810799822485,-3.281338135824388,0.0009208624181684158,-92.64079237264126,3.543019766007275,0.005855080429707228,11.956900118021114,26.069114434001047,4.2048155670741245,70.686976155821,-21.4416619266461,-4.9434766721973435,66.61893832350037,37.408919040165806,-37.7988954070676,-19.38272816210297,-47.41700805377364,11.072119866306803,107.78423367587172,-0.002956880289188317,-88.54806626159217,22.067429004924964,-0.011955126167331343,123.11662440734202,-8.343808269662334,10.439146779551503,0.00870584803887165,3.6282650159573375,-1.003218342431382,0.00040186341007583914,-6.127835191922202,8.317353806901881,-12.648744576956952,-28.355411729046658,12.469000564305553,-8.586821222846266,-19.751973642689812,25.10832977658831,-4.52354116907618
3.106587573755564,0.0,0.0,-25.645968194546352,0.0,0.0,4.290781021529436,-2.916325341457669,-3.1136991854101717,-21.48847538794041,4.595556064427733,-10.031634138591965,-21.403949030966345,-2.8414138837717404,-5.34608511510456e-05,-93.24530817488817,2.185611208596137,-0.0013041546188344837,13.09968201010318,23.92377922992223,5.163647193086231,66.79629515220122,-20.325653277791176,-5.952739803008153,64.29750749508626,37.003778078465146,-36.18534203270125,-18.12003366787802,-47.74996575195345,8.857519416341313,108.23993841372894,0.0014351862275727115,-87.23377377269506,25.866091730662927,0.025106553138196985,122.38395813186862,-7.222635595048875,12.210602452967137,0.003851614241716876,2.6418497338773195,-1.6559060007665223,-0.0011302476398733709,-6.210637834050923,8.061075814384063,-11.699571271032646,-28.469663260361283,11.876151772521661,-7.796481554465744,-17.666357388169658,23.245972999554233,-4.902682323605508
1.865633004016291,0.0,0.0,-26.035272050749835,0.0,0.0,4.310380872980945,-2.4275379040145615,-1.4139520321307613,-21.059433763204478,5.046697633808796,-10.374721649067554,-20.15714204734276,-2.5811195169230583,2.256819384462113e-05,-93.13437481454716,1.2848792082014844,-0.0025799674528460452,13.5502021646538,21.776233172981822,5.181225397414494,61.706493483699134,-19.08586368042717,-6.90362993681071,62.001452399223034,36.93533398283002,-34.747156079705505,-16.22851930179773,-47.987045164957,8.849964346908829,108.65987905554483,-0.0025687227956586794,-85.09859336156154,29.228224673301842,-0.01603131059896986,121.10571522436909,-6.841160032874,12.79137678839733,0.0005397986488430263,1.2650267709780367,-1.8527250905876638,0.0009487102742128669,-6.508731984301756,7.784318800535984,-11.044153891774696,-28.779437178860068,11.374075883691527,-7.290188475701892,-16.15400578174361,21.49451575956246,-5.07923791762942
1.077016944304087,0.0,0.0,-24.19087406220871,0.0,0.0,4.346908052883454,-2.719399080570109,0.49190450923699003,-21.83086692896198,6.02533493301431,-10.466711164649777,-19.247400688745923,-2.1870341148659604,0.0002127843780173435,-92.32076400056202,1.887177008826215,0.0025050273105754355,14.670538061284118,19.734187514675593,4.937586305296805,56.87461971542208,-17.550398070846217,-6.361551386894206,59.862588906724234,36.67238159517787,-33.87366043900371,-14.443559027094514,-48.09265704517557,9.19582851199714,109.28967206464648,0.0054583861733483955,-84.7261094271639,32.773477283808866,-0.0035290986804921713,120.47759120816359,-7.663373090875356,10.908233329065235,0.005988128627222748,-0.03165011205334089,-1.9300146567912908,0.00019398402757332588,-6.722135357228242,7.2798198635855265,-10.340847963260869,-28.988965303751367,10.642975155394502,-6.827630170276447,-14.074545476665321,19.766836738573588,-5.12240383112523
1.1299833838481939,0.0,0.0,-22.978787655451693,0.0,0.0,4.335600058433008,-2.3622796834317614,1.288604293162407,-22.151979371384595,7.852568831826087,-10.808005740075352,-19.289072311157877,-1.463890432493786,-0.0011318070017048475,-90.56514039432453,3.339778686571447,0.00025998106873286695,16.443519695071533,18.07570681553768,5.398795285344733,52.32488983226453,-15.905660795404525,-5.1077330929146285,57.52880193198233,35.95081907049096,-32.79890004005972,-12.7098954165417,-48.08928518138929,8.80368687071863,109.89975733959642,-2.8082900891253517e-05,-84.92778708002362,36.95558261355561,0.011260407175145419,117.60929725590921,-7.8537428741033555,10.71750662774907,0.002865767900820889,-0.3598681025272839,-1.1652004655400372,-0.0003233326970358267,-6.5263826616046074,7.094290104490039,-9.54700151006424,-28.814854022490824,10.17271586458477,-6.158122760572688,-12.017606183598984,18.32431594047545,-4.885322977206746
1.857161853798438,0.0,0.0,-26.556266442562258,0.0,0.0,4.393947384152155,-1.7437148604308144,1.7569139611104596,-20.602115048720076,10.588810270773902,-12.59251577629363,-19.66291130151315,-0.8994217446179731,-5.8444657215257285e-05,-87.71811940483691,4.202085794091974,-0.0009986531114066616,17.55554018108566,16.604517466452148,6.484809707399695,47.2173493175131,-13.871891115574543,-4.02905197409028,54.9721706634121,35.32601088328744,-31.21948464282789,-10.609417597544914,-48.35592952928208,8.975373981106685,110.64836879651583,0.0007065309543840424,-83.33740547723934,40.81287166735184,-0.002774277319087643,113.28386448001328,-7.242719812449499,10.621372669190475,0.002029474005729151,-0.09028526738532544,-0.6682799214043387,-0.0011429364232323283,-6.670212939341714,6.41257658815401,-9.303952747747072,-28.924066046083382,9.450383054473763,-6.193644301293256,-10.598475319005939,16.83136511743806,-4.14180873982695
1.9903694941535788,0.0,0.0,-29.968084298408222,0.0,0.0,4.548640559457022,-2.2858285821353044,2.9642678634095203,-16.732937949064823,9.801313768571948,-14.336562213690693,-20.40299727903337,-0.6928105999977261,0.00020967813253284606,-83.87962464320714,4.839988998490972,0.004067592275536096,18.512644819105994,15.446822645997543,6.535958487038732,41.003256020000556,-11.623860041705331,-3.4749561141467677,52.0483536271777,35.213652123648245,-29.85265163402465,-8.23667357817677,-48.024913185482454,9.662521569723303,112.31148678620421,-0.0001880078613640597,-83.23208932573705,44.07446554814741,0.011748037596493292,107.2024642368271,-6.953609126740363,8.9373685475433,0.0008059050023180739,-0.6227260893718783,-0.7609938075981731,0.0007241233995646477,-6.682081186633644,6.173723217601447,-9.160824210209173,-28.926993418672343,9.175448638330774,-6.151866248283451,-9.576048581475888,15.259526670664084,-3.3320541653657743
2.678703047769186,0.0,0.0,-22.93495174049506,0.0,0.0,4.494984263603605,-2.1826097725013027,4.0329542749915,-13.475470523253136,7.2065933726466955,-14.983407586875384,-21.477344285449163,-0.6754586806690227,0.0006155160865613303,-79.39485502922608,5.141829951034703,0.002414247597454565,20.121788228471452,14.390598224106219,6.585925310462084,35.196236597271486,-10.094009681769737,-3.6096124541919563,49.276429545065994,35.273398464332594,-28.95938744676776,-6.22941840326745,-47.1569131921941,9.45593913381877,113.46414887717515,4.119201092095225e-05,-84.10251509497715,47.464465025657084,0.004047907634282312,101.74595056375217,-7.213764586669394,9.576124995760601,-0.004992149011123213,-1.5114002879574508,-1.806872655511237,0.0009605635101544933,-6.390340650399638,6.342905659852737,-8.648466274654613,-28.665699837338547,9.139088811104743,-5.609514666383159,-8.212595429320082,13.740576616027477,-2.650523559793923
2.59905625232006,0.0,0.0,-18.74714202089345,0.0,0.0,4.813298369306792,-1.4647839805464216,3.105479282632284,-11.936229133081554,5.8669343373019744,-17.072302707739915,-22.302831387599703,-0.35017762816929465,-0.0014508908554698018,-74.0525757491553,4.590371718429993,-0.003474466948823779,21.362518639460923,13.107721269047353,8.818654102656819,29.870570476901683,-9.470966006746439,-4.337599707903634,47.11025405966113,35.35177991162436,-28.146221559937707,-4.560438538092214,-46.02084391679729,7.959742493626545,114.0710676735869,0.0020086881658058246,-84.80866481712654,51.670251473075524,-0.010947543430832147,99.34804147019037,-7.794733315222831,10.784395975291948,-0.0005131590462482178,-1.86800950998051,-2.3844702764737042,-0.001779084095904063,-6.3668268659037075,5.824251744605229,-8.148369557704752,-28.630032794574603,8.470674631197795,-5.3427237637207625,-7.0181588447228584,11.865886670206365,-1.6833269956062378
1.628958105939705,0.0,0.0,-18.25672361282481,0.0,0.0,5.632450313109097,-1.7217542511567319,2.796385638177635,-11.354883097864418,6.072792933142247,-19.500140749163467,-23.15751382379505,-0.05741565673188613,-0.00015271725008576703,-68.13742119178215,3.44817448106108,-0.010285212525710883,22.730844117391644,11.703052793206545,10.763398793825834,25.186270953762122,-9.43503719220703,-5.629571778579721,44.68216748517302,35.48831519004762,-26.541524935912186,-2.2974020248269555,-44.93281195370233,7.2031708183565915,115.04627620690476,-0.007063581240567472,-82.94122847811735,55.997397755633806,-0.017699903683468476,99.06581254706697,-7.044811145224567,11.67024530057218,0.0033100431228022956,-2.0317947268837266,-2.2094114909377067,-0.00013546048560204654,-6.286036146910652,5.084634382236634,-7.581062580549132,-28.52950274945962,7.572280533020566,-5.0977569727018235,-5.674061645822338,9.961909387814952,-0.6442697818584017
0.8449852245821922,0.0,0.0,-16.867490239039967,0.0,0.0,6.607148898509805,-1.9346812820918766,4.263726601677059,-10.866640806215925,7.024502732261765,-20.84043690906756,-24.079654297436832,-0.5909365398923783,0.001182269878467351,-61.99764183395186,2.488783064313023,0.002673781222221104,24.157247680853356,10.609943242575351,10.751078485529945,21.019044145329307,-9.016109957902605,-5.893149365164449,41.83588483623214,35.6285971931862,-24.452618609299854,1.8546733420297583,-44.19007905605993,9.240483196117124,116.24774927369904,-0.0027756375715117664,-80.34191147850207,58.85898066156826,0.004268334234550604,97.57127616078633,-6.452579939605847,11.780351950843135,0.001888968549655414,-1.6169059604115081,-2.1481839192734635,0.0016428282894131359,-6.041906923954646,4.308623976666163,-6.76689229867999,-28.275352125612823,6.5468979345169345,-4.636862523315522,-4.588353741251753,8.32382373130273,0.587305702347292
0.5384372742515825,0.0,0.0,-15.60613149156117,0.0,0.0,7.290737926899039,-1.2437122689415756,5.039665763975402,-8.328822660004198,6.5690591348178735,-21.695771437172528,-25.267012147291837,-1.2338528505071351,0.00031886975551457386,-54.796552083732024,2.550050499500246,0.01281517548803812,25.604994568955558,9.831338882299159,10.646729581509032,16.270146450395806,-8.333465878829632,-5.03372315987864,39.121354907680306,35.8018980188389,-22.589626373111372,5.926380486449105,-43.1920708649922,11.21286557606362,117.47658215313935,0.009486160042237799,-81.42971749111764,61.27243273607333,0.010319377893508404,93.85877674129165,-8.008636350731534,10.610702885327179,0.00478357538051634,-1.9046524676722347,-1.2610303485441965,-0.001588283256922212,-5.798169396315423,3.42900707519655,-5.927749193374806,-28.021336146113967,5.415928534703359,-4.192184095640932,-3.8883783150465017,7.081727563907282,1.7927874645553958
1.401755151256052,0.0,0.0,-12.32908799089835,0.0,0.0,7.704620960044403,-0.13439977399392095,6.176602650471782,-5.9114731161114396,6.470417367384523,-21.77803975030227,-26.445574766745445,-1.554027413692867,-0.0007584408723260125,-47.396402551937626,2.5694205112407564,-0.004800842544465708,27.04860457032682,8.876176499958472,11.370454838715137,11.995428264419068,-8.612694509678795,-4.853780250790074,36.26483441657877,36.114437777487986,-20.248225540985462,9.683151689188279,-42.05862277108996,12.770880748406409,118.6764057083105,-0.0031210541419203486,-82.27423697210727,64.0897554652587,-0.0037865082168744915,90.97201798131951,-8.527491344162115,10.360989709761453,0.0014024133546340258,-3.338812099158177,-0.43002002114872373,-0.0016855833691952786,-5.058538258253073,2.720929132859559,-4.930885888431684,-27.284265221136707,4.383955523112365,-3.5361187648373096,-3.3309898607853556,5.814742094956061,3.380579187805669
0.7716388761838932,0.0,0.0,-10.408681761591268,0.0,0.0,7.9431105756798255,0.16535691265605496,7.793115386271527,-4.598148542249662,7.0128591164895315,-20.39803039378999,-26.847856073301095,-1.9608468465111741,-0.0005628007605601949,-40.730515839617745,2.131860646964392,-0.007585240276487457,28.392475549847745,7.896944845134818,12.334803658931047,9.351628777828857,-9.65516378185176,-4.93865954322,32.80080724655202,36.64898053211191,-16.930276110905876,13.574698778500922,-40.351915610435654,14.21887164229148,119.86099551295648,-0.004813445256385159,-80.32515177858592,66.83152551458784,-0.00756780652918006,89.26144796839831,-6.617289398487033,11.025298774567066,0.0019358080225363602,-4.106970098208871,-0.463019837707366,-0.0023871299618142693,-4.133273594114686,2.4258481516515795,-3.998548702980031,-26.370554719432374,3.758413399898882,-2.7837028350034307,-2.474877967475683,4.174107944962097,5.591708441051518
0.3644180327270574,0.0,0.0,-11.012429654882327,0.0,0.0,8.169994954252674,0.12758853630042258,9.605355153867293,-3.4362614807307104,7.175175960329478,-18.362219839527526,-27.60571979999866,-2.309338250274354,0.00019457948635367346,-34.7554866462076,1.8762654521051336,0.005028293594842955,30.371347446573143,6.638957497192516,12.865462110848595,7.5194675315998865,-10.91603435434519,-5.589117095669547,29.73446869885071,36.75432960128549,-13.903654340756026,17.360626053321916,-38.25544620355083,15.572052317209744,120.64827521278949,0.0010098090421350628,-77.6086279966848,68.78399084200755,0.0070418887186239395,86.36765136386552,-4.588756828632964,11.085047518961007,-0.0023324149487851365,-3.9284907306830745,-1.477520856807098,-0.003255635996646377,-3.4223590474196226,2.028485630347031,-3.4050486238494293,-25.660702775091966,3.1661695759888984,-2.384422297554482,-1.371163915849476,2.522769175272072,7.154929703490716
0.1301103084658996,0.0,0.0,-10.191461164365608,0.0,0.0,8.600214485927758,-0.13464150025742488,10.863581657878955,-2.7647850960821003,7.288337030300522,-16.34974604992579,-29.012498533621375,-2.3890658389387704,-0.00021912347124994762,-29.05654316305482,2.185543695054648,0.0060860078442791865,32.625655702240415,5.399046463655663,13.518148545038429,5.520532773757484,-12.032550973002477,-7.413816010092196,27.279370182486574,36.69536835479987,-11.344286729925717,20.975080380729917,-35.775733648311146,17.08724726448896,121.09170524855723,0.0002298475214174741,-75.52299747935051,70.29349105706422,-9.09254916423843e-06,82.39949509538882,-3.8020260549073455,11.542674867555004,-0.001589853608819988,-5.497283909434259,-1.6633294554066689,-0.00283685563141047,-2.7352186792628315,1.6502983717772324,-2.718853425720178,-24.9761017713681,2.556529705604812,-1.892129988139355,-0.7924915371326526,1.2469936337795475,7.677001012259784
-0.19208992796661423,0.0,0.0,-8.796140317627314,0.0,0.0,8.440500190420565,-0.01142180100920804,11.29749108859261,-2.3926296116001584,7.81548955008916,-14.965439171678387,-29.709952577797292,-2.390844508103846,-5.314775363672758e-05,-23.558982754641022,1.9928238707214132,-0.005357153781339949,34.398027221666915,4.685584957978957,14.387582085763707,3.656535486518956,-12.185220631664919,-9.24908078431681,24.640215309460398,36.44179402788934,-8.905841144410967,23.944039848563328,-33.33823186857881,18.23525069395408,121.76526745168323,0.0035942065517308606,-75.37100888508246,71.56223089026265,-0.002948880438273774,80.78171266281653,-4.621474050896145,11.83168401341994,-0.0005996626355594712,-6.5006823207929,-1.9099451213604517,-0.0010614138474973776,-1.972961300053001,0.6103213031384188,-2.021946170343856,-24.208636116440378,1.330215146179527,-1.6406171287237954,-0.5362890280586982,0.6499508393807072,8.233031305337397
0.7314079661374296,0.0,0.0,-7.322123773973253,0.0,0.0,7.7657641801309945,0.6400585049653851,11.767016721358626,-1.0884345391318153,8.298270001327264,-16.64585396549963,-30.006609096132852,-2.1627197062020467,-0.0003906095375380454,-18.174306268781113,1.5126901694090447,-0.0014065432350487243,36.03644824877547,3.933862681967296,15.009989804972541,2.2343574975982206,-12.043919010217461,-10.494487689697133,22.266150848934213,36.49096356802767,-6.195945725483661,27.1712955742127,-30.817583224031114,19.681059544499202,122.49752174526759,-0.003341850139003532,-75.412771830436,72.15785856885783,0.0004977139830238478,79.17987183584984,-5.174477049883479,10.958814176898487,-0.0006206348333278227,-6.438444655920497,-1.7327798279997788,-0.0015002819228330517,-0.7696011619269537,-0.5558749207485896,-0.7446630443031357,-23.011765274731275,-0.23263538733535866,-0.8996642860292671,-0.5508093770848134,0.05171798407045832,8.947837346913607
2.409999038420533,0.0,0.0,-7.620894404455239,0.0,0.0,6.873870324488076,1.1920195443279253,12.743962470997447,1.0971159972945534,8.34740121890224,-20.498031093821645,-30.1088226458381,-2.172729135129506,-0.00028126935520611117,-13.115349217542489,1.0490244169134644,0.0009115550214208203,37.7584420999995,3.3781104175042933,15.540387930871551,1.4448603724447162,-11.875534628392966,-12.063782258501542,19.865888074150213,36.695735955857096,-3.69148784446584,30.420607258596295,-27.983421341523226,21.49653098447985,123.26315553727198,-0.0029373022675732853,-73.85694510376932,71.99309732565219,-0.0017730950897848496,77.87374548180327,-6.397754789071139,10.566289998043171,-0.0006489266672276576,-6.127749922714797,-2.8808785109753967,-0.003868207619756338,0.5398364798643744,-1.304644296968342,0.9235456113384921,-21.70972493771375,-1.557140712943815,0.3608612015260503,-0.6368970098358184,-0.36694019582344756,9.262747402881049
2.899108290286109,0.0,0.0,-9.928045101829525,0.0,0.0,6.42947489748355,1.3422581011054044,13.284129866596393,2.9945807748550624,8.101344629670287,-23.053661089128124,-29.974599936188756,-2.643776273034316,3.0449656473537012e-05,-9.182367090138747,0.6235210341457682,-0.000779029129817887,38.904441299076105,3.291968156025223,16.39948110733218,1.037014364738138,-11.668377786353384,-13.637090622971707,17.76910860397114,36.24050356863147,-1.5708528044324106,32.90075205179981,-25.18029351618854,23.29333724499203,123.44699677250829,0.0018606207830769907,-72.8150408475908,71.7281154055393,-0.0010271499324003449,76.90500617877157,-7.261089534093749,10.49343488629092,-8.313366544466139e-05,-6.281951778250852,-5.405053834580837,0.002343469613953537,0.8873207215339453,-1.8896599211156495,2.3208991141237134,-21.362044919900708,-2.627497121490519,1.4328692512261003,-0.8491113920355458,-0.4600622635945381,9.484176202023626
1.2702638871513339,0.0,0.0,-9.52852908892173,0.0,0.0,6.665414905948565,1.1151009288374865,14.176732066080719,4.201168583408613,7.774849313820034,-24.358185734999807,-29.855543066572167,-3.1930875486245625,-0.00016396936968980525,-6.6222418300164145,0.19960529571936936,-0.00029658774285558923,39.71191698063682,3.410501256293996,16.83024377312577,1.1646665459912082,-11.545370316829164,-14.923826457727065,16.451450984321152,35.63907406229249,0.11013000382787283,34.978387806997226,-22.28334452443749,24.818085003278334,122.98299463398651,-0.0005693828328041646,-71.7042413443629,71.8158773001581,-0.0017609653367420173,77.884239652645,-7.439632808883226,10.252538903193326,0.0002733144416763943,-6.943191871141777,-5.455443292733888,-0.0016395944369757168,0.7734289835053121,-2.3151599007619272,4.200611976192597,-21.457226293707418,-3.732353100182618,3.012969043789678,-1.3632934295784778,-0.4431336175509363,9.992429505587618
0.5544933257648302,0.0,0.0,-9.375090337868405,0.0,0.0,6.433355568010079,1.0168880914888647,15.62541111788627,5.616682467944874,6.977715240960532,-25.950406084266497,-29.55910376691173,-3.6288041270137357,-8.89268529411406e-05,-4.9060686293505995,0.19942634253177852,0.001540034430609743,40.71597404983155,3.24415879562744,16.076908088635722,1.735696663989192,-11.611229310581976,-15.784737776570537,15.606855462240972,35.645407496584006,1.2526080468932819,36.801723373885636,-19.498017794576946,26.423720385755487,122.52291997674081,-5.0235411046893996e-06,-71.17019446319252,71.5598315446019,-0.00048532979161976226,78.80677033119005,-7.362560466864241,10.058032652446354,0.0006275637122898315,-7.413188768398295,-4.740894609246548,-0.0007105309573801663,1.431118722161931,-3.2426874403248225,6.355347398881468,-20.772842459390294,-5.404823859008891,4.659898002773036,-1.8287847445359882,-0.32382835986944686,10.11799061300568
-0.2538990617440986,0.0,0.0,-9.03481560366683,0.0,0.0,6.307177068807347,0.8695221509537726,16.280115804588547,6.992531099838282,6.715687124180643,-27.155207027766174,-29.163611161409793,-3.6823528950283273,8.582054551963497e-05,-3.793062918690727,0.39406019803509734,-0.00014834227426758416,41.80786162102574,2.795213970008899,15.860636520724938,2.5150392714361325,-11.90339971660136,-16.67264251178951,15.090028271454361,35.782769878044995,1.754595970056392,37.517823961385815,-16.841094374642232,27.602428561457167,122.37488177532076,-0.00011465312402702651,-70.99594549007213,71.30542567892903,-0.00015429641357379384,80.51342536878293,-7.17704422206904,10.651523720390099,0.00027224937999456426,-8.604133443639775,-4.479930028393354,0.0011935714086729985,2.4669550943094642,-4.44382195549064,7.064350214272412,-19.763083677553283,-6.784256770623929,4.8617693635386985,-2.0936109215087746,-0.027853460041885637,9.946836804666708
-0.48299619636042695,0.0,0.0,-9.505396949819556,0.0,0.0,5.751004550489179,1.3103672511031317,16.420817368473738,8.209149023845177,6.47003310166916,-27.262823158552656,-28.88970127382905,-3.3533982201401056,0.00025659166042280046,-3.5051232796728136,0.24188364741234192,-0.00016813136879247837,42.649675976170215,2.829075896828948,16.40333731645277,3.4367110911390033,-11.720706640723183,-17.218180156239963,14.815455954455654,35.54779447435039,1.72963922807915,37.456406201641734,-14.275724299434692,27.854068222039192,122.16315810875383,-0.0014339327635616516,-72.99953148299376,71.333084920831,-0.0015897797375410726,82.95675220657259,-7.988659132155975,11.074603313953842,0.0006941723161323612,-9.024240942007168,-4.565977898600275,0.001180598832962302,2.9635415196999406,-5.376057404219881,7.52180889293397,-19.29682842125425,-7.819647399977987,4.9312861617947865,-2.6132855208484527,0.676524519486713,9.901543371163188
-0.6049402411362099,0.0,0.0,-9.383060690457976,0.0,0.0,4.889461806366395,1.0431505176431637,16.819669576482514,8.974823369424529,6.228659945703983,-26.78055060357355,-28.35293850053838,-2.9535634131665076,0.00024128976801209782,-3.9647531601522368,0.19267576789255203,-3.712000050635196e-05,43.22288924990465,2.9328997071096987,17.00440370328214,4.641126246220659,-11.812528209325906,-17.012697402310614,15.123178470840301,35.07241283507957,1.6005053030831653,37.21932032359509,-12.046062487843956,28.00867940885208,121.56547096563754,0.0027199756886267593,-73.0950013157582,71.16762365563416,0.0011711788033912807,84.05797732862095,-7.863231486478133,10.372688106770582,-0.0037982377601508866,-8.135257135091395,-5.600500183648693,-0.0035674871631487526,3.516088108918947,-6.125707263990613,8.318138535095096,-18.758402369909305,-8.81362883470556,5.3852258996736815,-3.235733955284277,1.2307819901016988,9.931747982097846
-0.8350582157347197,0.0,0.0,-8.719664912628087,0.0,0.0,4.1096750808149,0.5350069401293575,17.770001187830314,9.288383895509964,5.934958346328076,-26.44962763016657,-27.395284077646814,-3.1355513628260074,-0.0007242877720001949,-4.509375569850891,0.30407176483350407,-0.00013717640470058622,43.54248658416277,2.930911016135654,16.75249951342566,5.854565029102819,-12.280907543631407,-16.3513173403913,15.955560228635237,34.36428154093738,1.2134142644500574,36.922311651484044,-10.291750100234148,28.17351964344415,120.97248121165975,-0.0002373693425190069,-71.62780338091346,70.64609790547314,0.0028165899668149033,86.32121399718199,-6.918119679976433,9.474725662278965,-0.00011186015188008902,-6.914999094665355,-6.005790465010236,0.0007278874184859011,4.045179130946408,-5.910300079224742,8.657360132938129,-18.2040740019949,-8.742077478920063,5.783707229870855,-3.663885619669144,1.4941446281389146,10.059365698981441
-1.3430010965002586,0.0,0.0,-8.923388589163128,0.0,0.0,3.2467184041848998,0.6324921683399387,18.4058794238739,9.382270918616992,5.472369396408443,-25.583453643884035,-26.18807016308297,-3.319234437173235,0.00035865594208713415,-4.830221808940094,0.26983889579196996,2.49128583018375e-07,43.27151984237341,2.8243791141616486,16.52203937017863,6.350919680386379,-12.57883244234069,-16.02543667982632,16.85430190496209,33.21856411653901,0.21093534660382748,36.30355911299989,-9.094345473772648,28.50583583507963,120.44610714957854,0.0008575949288114807,-70.47455359075391,70.51919066832276,-0.0018723835371610353,86.30256023864744,-6.900748235305052,9.005429970021991,0.0006482206715837053,-7.499298692130822,-5.465956080541121,0.0001043950535553527,4.073671489707821,-5.617824746500371,8.854281490283583,-18.15095814468174,-8.54550734076936,6.079096830307041,-4.171478270543631,1.699964449310464,9.888280008108797
-1.6049302032349426,0.0,0.0,-10.094782184534075,0.0,0.0,2.4405632451128394,1.092813016766976,18.304307505783253,9.799592069415954,6.590968275683428,-24.91375908437543,-24.917900006538297,-3.434232015486633,-0.000327957388237666,-4.774968211269089,-0.15723900442974198,-0.00021377878904721109,42.50713768260638,2.833385073652516,16.44406902987584,6.242587327299225,-12.557229819902142,-15.606198160513411,18.03621477288543,31.95177157689323,-1.5493847340984366,35.32065338835638,-8.470956637031556,29.323622862422148,119.4452286072641,-0.0002490296966060894,-69.94587589949847,70.57851464882644,0.0007725844662451937,81.91798208557687,-7.054182019755092,9.014723260178958,-0.0011081494618792815,-8.600791059655778,-5.438671229935193,0.0009430258690288217,3.65528682804114,-5.520079696447319,9.204741985936211,-18.549150998083103,-8.586893639423327,6.443031156474418,-4.721900407140669,1.9734912098690496,9.616111007037007
-1.9999653804698838,0.0,0.0,-10.380885520428716,0.0,0.0,1.975782032790006,0.5361371371494944,17.823780165388545,10.0392395598388,7.0888571441562185,-24.38509180004058,-24.045149693617326,-3.4138016361394534,0.000416549612425831,-4.873645696124653,-0.35707312233415,-6.573859927586492e-05,41.89304376108056,2.916980172086277,16.67520145851405,6.216260929749933,-12.590284584578868,-15.53936197201245,19.545564655849795,30.503882730972073,-3.5587066348293033,34.06285356453788,-8.16089350407514,29.761691727077103,118.22089160780435,-0.001562504869404221,-70.63619306201515,70.59925749612131,0.0005536742260655028,81.08238405749732,-6.292611858520362,9.535022729479095,0.0013436042346245702,-8.665545056541212,-5.1061709712712835,0.0016559718030247819,3.10428875923663,-5.287820848669769,9.629275765887492,-19.06802573194366,-8.531443687867279,6.927488843750803,-5.0682757813063475,2.2614062117379787,9.415745932069974
-2.490724137534089,0.0,0.0,-10.863921439554398,0.0,0.0,1.7072129134430296,-0.062014668080829345,17.29066379501947,10.577965236602946,6.711971997349984,-24.49257601957961,-23.527426653258924,-3.363750499466995,1.3084530047646042e-05,-5.245666430297178,-0.108108929629238,-2.0130937296743084e-05,41.44523981614879,3.1984873321573017,17.24587761322882,6.288707945122318,-12.62447283626679,-15.169649954097556,20.688954794469755,29.10131988481262,-5.266875323398101,33.04864068566616,-7.93571067917369,29.90799283929948,117.62923971275112,0.0009887487389914915,-72.1332787912599,70.62885676999015,0.002419095505636493,81.58410983033721,-5.152473023896342,10.012332183091514,-0.000524547678812845,-7.70326115070362,-4.610715021578531,0.0010096079892767387,2.460363806085548,-5.2217555938802045,9.870511520848982,-19.696860210587065,-8.5608965045637,7.177663372397711,-5.2825169978743105,2.4881109022766057,9.368381752907426
-2.6894472312058295,0.0,0.0,-11.042086455281824,0.0,0.0,1.2907432739444562,0.0629898282544671,17.013562398751052,11.181564566511446,6.563486623867845,-24.84655610081458,-23.212324387205086,-3.5673132788113344,-0.00021888792712987696,-5.952409842457214,0.04572041666637852,-5.181228208032419e-05,40.94706012845369,3.6948056944720187,17.40176856324833,6.337293808032015,-12.363896026925142,-14.71114712537318,21.546646491187953,27.92688015247942,-7.133875819322717,31.897588604650405,-7.889563142809595,30.262587517590667,117.40558042752964,0.00036014244704160993,-73.513768540449,71.23644097760481,-0.004891542810683267,81.58793009448347,-5.772734302625685,9.830436249364862,0.0017438643845861304,-7.444835659292812,-4.731975166947113,-0.0002985872011170104,1.98021380976939,-5.011641477585977,9.632504798173715,-20.176556668963084,-8.276889282837589,7.035823265446769,-5.4985446254981944,2.800103371725693,9.363610046055339
-2.9782185368688108,0.0,0.0,-10.09761424900342,0.0,0.0,0.7728915104148338,0.3679735636563084,17.018992609712978,11.375550789631918,6.264315425175259,-25.37139208466265,-22.827013347216255,-3.624675706010481,0.0001749192603143361,-6.914620804574028,0.15551617915985555,-0.00013654272716401807,40.45419400373912,3.831196934688233,17.47670942643695,6.542132474315104,-12.283887551646835,-14.476799648232047,22.057173925089657,26.959541213324677,-8.860529101246776,30.56563692003272,-8.372943736111601,30.797035412222307,117.34329682688625,0.001159215989321918,-74.753478683234,72.58112515601368,-0.00219034022694335,82.85471972622045,-6.784749172255031,9.12376968941466,0.00038037007004907433,-7.684463342067008,-4.989492778283982,3.018001029537437e-05,1.985057163111723,-4.691176907415202,9.650855014093915,-20.153583316463237,-7.986958851530833,7.174968835154078,-5.444950590780193,2.756301581943261,9.114977478088498
-3.6063017414805634,0.0,0.0,-8.77554625273082,0.0,0.0,0.6180643548448486,0.6254365468988501,17.283526943240382,11.447848141096978,5.822235347647743,-25.770593615068822,-22.48766827417456,-3.4074255016600095,0.0002234096128263733,-7.605421080317003,0.15399719650539753,9.709775741624325e-05,40.1848110806883,3.7695699829561566,17.804532853921412,6.898393843279009,-12.265754455579904,-14.329367294796384,22.738199046129527,25.802384320784753,-10.422130299410684,29.773816981535195,-9.27923116886527,31.3991859957602,116.8452056850644,0.0026769224886904978,-75.04818454920247,73.84436680264733,0.004343282285924488,82.15895012207098,-6.634868160689071,9.685264807729444,0.0018880192928159743,-7.455070133217843,-5.242768133293157,4.683886406800016e-05,2.4234833518973904,-4.661387943975895,10.47368661314944,-19.672124129500688,-8.268136194375897,7.9537534713320515,-5.202047254721188,2.5131311694825182,9.011345209868313
-3.096996575798415,0.0,0.0,-8.10030597386787,0.0,0.0,0.4451763696700844,0.009494658087764868,17.58382169884115,11.70355437156638,5.099290967486209,-26.022888302144313,-22.112444298784883,-3.3791153103050107,-0.00022636554226358258,-8.000760545591037,0.010110384594257178,-6.211953450550937e-06,39.83211700028003,3.9339565924338618,17.842445536265934,7.082529520979275,-12.049972470844542,-13.997884057658046,23.70165448346899,25.055214634058554,-11.823418419382397,29.174588359094702,-9.729959098738362,31.93105258297926,116.0643165538291,-0.0007594092966131602,-75.40658404419499,75.13396545381488,-0.004286141053074609,81.92730001917779,-6.462426758441361,9.936247803126111,0.002567193672683439,-6.776832829685488,-5.331529954528653,-0.00020084377528738808,2.912340934826414,-4.2248781809881795,11.26459123511164,-19.115397901097527,-8.159762031288448,8.857772292398462,-5.13285368938486,2.095603967721609,8.99099025689595
-2.928396360692538,0.0,0.0,-8.474293259583764,0.0,0.0,0.4247970801307169,-0.7603503440996027,17.84127392332154,12.437097462529891,4.832167419808532,-26.176234102176537,-22.106113312030125,-3.459728284860746,-0.0005105755058592031,-8.483211353419584,-0.16355202016679368,0.00028530990473970045,39.51604910401631,4.375315613827407,17.345639548437333,7.017719825936346,-11.587008986981658,-13.452445179758937,24.31210334297062,25.0517673324286,-13.109265474525177,28.802094395252393,-9.788087686525726,32.81280428287938,115.72205724762513,0.0012166941325867974,-76.11593285173431,76.4316106640075,0.00218557252809474,82.60656273644096,-7.434578320774483,9.505088147070083,0.0005166574547729935,-6.235737050969677,-5.063317661541648,-0.0009466316371216053,3.5648717396960077,-3.510652742742094,11.755037062130926,-18.39560653762237,-7.680783387137257,9.585913698498581,-5.16612141034871,1.7668634947950128,8.617543330762995
