PaulMeinheit/Bachelor_Muay_Thai/processed_Data/N3/roundhouse/scaled/JointAngles/scaled3.csv
L_MTP_ANGLE,L_MTP_ANGLE,L_MTP_ANGLE,R_MTP_ANGLE,R_MTP_ANGLE,R_MTP_ANGLE,L_ANKLE_ANGLE,L_ANKLE_ANGLE,L_ANKLE_ANGLE,R_ANKLE_ANGLE,R_ANKLE_ANGLE,R_ANKLE_ANGLE,L_KNEE_ANGLE,L_KNEE_ANGLE,L_KNEE_ANGLE,R_KNEE_ANGLE,R_KNEE_ANGLE,R_KNEE_ANGLE,L_HIP_ANGLE,L_HIP_ANGLE,L_HIP_ANGLE,R_HIP_ANGLE,R_HIP_ANGLE,R_HIP_ANGLE,L_SHOULDER_ANGLE,L_SHOULDER_ANGLE,L_SHOULDER_ANGLE,R_SHOULDER_ANGLE,R_SHOULDER_ANGLE,R_SHOULDER_ANGLE,L_ELBOW_ANGLE,L_ELBOW_ANGLE,L_ELBOW_ANGLE,R_ELBOW_ANGLE,R_ELBOW_ANGLE,R_ELBOW_ANGLE,L_WRIST_ANGLE,L_WRIST_ANGLE,L_WRIST_ANGLE,R_WRIST_ANGLE,R_WRIST_ANGLE,R_WRIST_ANGLE,NECK_ANGLE,NECK_ANGLE,NECK_ANGLE,NECK_ANGLE_SHADOW,NECK_ANGLE_SHADOW,NECK_ANGLE_SHADOW,Trunk_Joint_Angle,Trunk_Joint_Angle,Trunk_Joint_Angle
X,Y,Z,X,Y,Z,X,Y,Z,X,Y,Z,X,Y,Z,X,Y,Z,X,Y,Z,X,Y,Z,X,Y,Z,X,Y,Z,X,Y,Z,X,Y,Z,X,Y,Z,X,Y,Z,X,Y,Z,X,Y,Z,X,Y,Z
-4.699000000000002,0.0,0.0,-3.977330000000001,0.0,0.0,-3.0261300000000007,-0.7607400000000002,24.37517,15.496330000000004,3.8288300000000013,-20.957690000000003,-17.25057,-3.83379,-0.00011000000000000002,-7.7800400000000005,-0.05284000000000001,4.000000000000002e-05,36.422700000000006,7.6284600000000005,21.45456,1.6902800000000004,-5.390530000000001,-14.683720000000003,36.17535000000001,18.678480000000004,-31.78904,46.08758000000001,-10.574840000000004,40.33489000000001,115.93446000000003,0.0019300000000000003,-81.08202,105.56760000000003,-0.00156,81.60911999999999,-5.235970000000001,11.46662,0.009790000000000002,-5.921480000000001,-6.46857,7e-05,2.442170000000001,-4.58379,12.938610000000002,-19.499380000000002,-9.117440000000004,10.287339999999999,-1.8766000000000005,1.77658,7.553870000000001
-4.258637776534727,0.0,0.0,-2.805444528279458,0.0,0.0,-3.139902628472096,-0.9688831013072274,23.929197408348198,15.221432556775873,4.1529538278265,-20.129628372707128,-17.378556456329832,-3.693830215543682,-8.980559980191325e-06,-7.737466098137003,0.03942719919127181,-5.576639178475295e-07,36.27414120016113,7.866686368149594,21.93152075302478,1.3742442573386444,-5.32586820921405,-14.879308178470495,36.441443738357314,18.844380161812435,-31.653478014775096,46.27719226365725,-10.633328127460661,40.30607312843258,115.77174784468296,0.0007758495361750271,-80.20746104892481,105.80866644564072,0.00010695004752523156,85.20812513228579,-4.307023255960312,11.965203098730745,0.002413737320043775,-5.570951104997476,-5.365949615329923,-0.00013065926186950322,2.8551588261768224,-4.431616770063858,12.700435060271145,-19.093557636297994,-8.887556804888678,10.12193749361917,-2.3252376667809105,1.7790304820677938,7.52078307079883
-4.419366541546043,0.0,0.0,-3.0311247779554824,0.0,0.0,-3.5250523720411118,-0.7884391486402789,23.657085430327122,15.313603338508024,4.503932946022638,-19.98494770801812,-17.310842088265677,-3.6503197639567238,-8.236928532087103e-05,-7.808503854313887,0.1418555001920439,-6.0229168520436384e-05,36.32201461045556,8.078758212933902,21.999320780827453,1.4134135717478227,-5.232445980151968,-14.881975682737801,36.559962638847225,18.79123558198522,-31.827743463575267,46.46260404981005,-10.62849647289003,40.51168706278128,115.98912272768113,0.0010022693966526904,-81.93111508126051,105.89580648879199,0.00046998085856600713,87.09091868842944,-5.845848848200962,10.910972563147531,0.007678055432390106,-5.471701431519417,-4.791108895591493,0.0008770873980628853,2.969550613473698,-4.384880173607937,13.090135276593708,-18.94968339715739,-8.989345055233853,10.504449595288069,-2.3966303959683617,1.8538801907721387,7.4684709331601145
-4.8358637344432704,0.0,0.0,-3.625894559121229,0.0,0.0,-3.5832262642573736,-1.169870598380219,24.52190863424262,15.624579668703081,4.99689749126782,-20.45865854895049,-16.983183038784546,-3.701042995498999,1.3291980256173398e-05,-7.8991288537617566,0.1627562625468579,2.607137036175901e-06,36.22616390382222,8.06233159591512,21.436495172509698,1.4515983414386477,-5.129564117114873,-14.721005519165411,36.49746377567835,18.688896880819936,-32.11273015301289,46.67594323139326,-10.74410992964935,40.809216840790974,116.09785220621491,-0.00020610569706296846,-81.75073197625626,105.68810198884874,0.00018250135803390543,86.97218329233677,-7.4243291361423935,10.202622635425278,-0.004734752886288285,-6.213556969059711,-5.530790803853262,0.002996221437781304,3.1856425039574505,-4.376270865629884,13.28719983733129,-18.719183651503585,-9.054685021861337,10.692293217042847,-2.449673927574557,1.7298218007768447,7.430509752730623
-4.860758235004487,0.0,0.0,-3.7924140449474213,0.0,0.0,-3.7476277848297923,-0.9904680957969176,24.894075363007357,15.514452580371389,4.725386605790817,-20.612460653939735,-16.831858129605774,-3.8042876541858366,-4.178891993706549e-05,-7.9748469533832145,-0.017377162650216472,6.132660290021235e-05,36.237449145618776,8.270894028881756,21.068358040306595,1.6366687976099183,-4.789029212708475,-14.500737457664254,36.41874400943162,18.641863969325385,-32.01807796781615,47.07742891490073,-10.801486004554672,41.075882664774866,115.81973902527403,0.001696727923515603,-79.72657606790509,105.32830394298061,-4.659241432537238e-05,85.84970759160507,-5.648775395914635,11.586234386311373,0.017677956425429145,-6.41563803167592,-5.920352787831179,-0.0005854748855052391,3.2686060075384624,-4.3626668949566785,13.6216218769765,-18.61127498538892,-9.1663828970579,11.010793639995754,-2.5322230702565496,1.7104184844982189,7.5288518244076705
-5.445192674531808,0.0,0.0,-3.6102239091808417,0.0,0.0,-3.7968213281776175,-1.0331852809964217,24.703359110109915,15.273498370603765,4.248841914953078,-20.863607898530763,-16.653345830145973,-3.827178809579591,0.00015186567624939732,-7.985035114115308,-0.14372234915728485,9.075603838838172e-05,36.33310241863418,8.397336493560669,20.923164297593356,1.923851982693374,-4.57806836767432,-14.14758209139363,36.31095107438083,18.58007210357552,-31.613537167474306,47.42990169197633,-11.014227779903523,41.33404297011573,115.54222982792623,-0.0001669975069335019,-78.43906956193054,105.10757097924112,-7.185260383355736e-05,84.54201727876276,-3.580920478921181,12.598676229590666,0.003415615853990483,-5.578553321672522,-5.864502981236869,-0.0005632310619383486,3.3696310125220212,-4.409927141063313,14.089476296884268,-18.47820735959746,-9.383967937381929,11.431619449594205,-2.5363743566704526,1.6649461890652382,7.610443334665576
-5.289241195240006,0.0,0.0,-2.955419872116398,0.0,0.0,-3.6444029067800954,-1.8078871578634252,24.222213157509394,15.148444942875098,4.46195573508795,-20.843104670883797,-16.291072205903316,-3.6368303040199015,3.23501111498893e-05,-7.740399665521063,-0.14138077453881534,3.214939322154184e-05,36.1463485645455,8.263453336647498,21.290736595779556,1.776163771900098,-4.587401797091074,-14.368544624763771,36.536945781195556,18.354523359461528,-31.854705688825245,47.608334428821934,-11.103712035704058,41.402090485954545,115.52701571291325,0.00019958677841099346,-79.14421534064032,104.90845973138993,-0.00017179929402009092,83.45425014065522,-5.028194243773225,11.833427202088986,0.00524223122517798,-4.615710927966783,-5.86075050662569,-0.0007558984770117066,3.2254076612396925,-4.094078539584243,14.215471393087633,-18.5935922126015,-9.137512376946564,11.66881423131014,-2.5682150061628364,1.3983479063254702,7.405720613363166
-5.6551932148382535,0.0,0.0,-2.644125002683098,0.0,0.0,-3.6768893148304813,-2.1829711732722528,24.134708841011143,14.942201571009072,4.974578474703637,-20.799892594993622,-15.896544656302337,-3.511263164843225,-2.0116067686993975e-05,-7.459021628822468,-0.16141433667997573,-1.526682452660584e-05,35.890074561276556,8.302421254941354,21.341875598966926,1.6045546185352022,-4.47862152498723,-14.247173632145918,36.6250418366657,18.369434414848325,-31.723275397276538,47.66913486104381,-11.242664302879316,41.64005949039736,115.4848706466516,-0.000261623734390508,-80.84967059252875,104.90494806188798,-5.978734680665693e-05,83.82801227532762,-5.840160597758426,10.984489395148778,0.002828928623161415,-4.392000472202272,-5.932155523598066,0.000577457537978719,2.9306911637598727,-4.082301000747817,14.168025357938212,-18.891280951295613,-9.108975241933212,11.628748640344096,-2.537520763399481,1.2666785537579337,7.290147513064744
-4.648237658864506,0.0,0.0,-2.0097019672866065,0.0,0.0,-4.7470784063795,-1.5161387806509363,23.694466034936422,14.600481770505725,5.0413078109146845,-20.17741105603804,-15.54216089315966,-3.350351030202242,6.349279903294759e-05,-7.349380425476534,-0.1246874707703781,2.8524966929000237e-05,35.85282367393507,8.320456694201084,21.73066890410381,1.6766592972754701,-4.477477209757449,-14.590042592009459,36.93158461904217,18.516760744420047,-31.539063100234408,47.87973595707042,-11.525779806031643,41.967394503958744,115.2956623936419,-0.0008919392130908256,-82.45012956415333,105.07230908432999,-0.00012391033215779237,84.4381183655748,-6.917893940246149,10.312360360712017,0.002783728544306188,-5.1522153164105555,-6.1185366590933885,0.0007911347517116977,3.0860753841193413,-4.107392254260459,14.569793754321777,-18.705869877300817,-9.281148795114099,11.996214530354456,-2.6517880475023214,1.1868028776243413,7.361143476311157
-4.0280532417528745,0.0,0.0,-2.3937955704629843,0.0,0.0,-5.123333719527256,-1.1854896642209374,23.69623000766638,14.752950138402195,4.990363090066206,-20.14584938654052,-15.447607505165792,-3.2028928571905935,-4.3378908585629196e-05,-7.433133393799772,-0.059621698922947504,-1.1403182928967068e-05,36.17132218727208,8.181140569468091,22.01854685350872,2.0397821043269,-4.65138080858809,-14.595308772410407,37.19198323712547,18.61105822119812,-31.566598940158347,48.122751279506055,-11.71314877235737,42.024549905882054,115.06555424448585,-0.00014035046418036547,-82.01392997674641,105.24258114286893,0.00028741844575165234,83.59317885576907,-6.7068736456317,11.097100645241827,0.0036622750005547984,-4.823471967883857,-5.8209273797552985,0.0011508463144189773,3.3295032983918484,-4.06664572618547,14.913019507152582,-18.432211583680598,-9.370314134873894,12.333715300629013,-2.4675449653795996,1.0242263583858522,7.372561753699571
-4.9100052334713125,0.0,0.0,-2.6709447314783015,0.0,0.0,-4.474226894256183,-1.3802902855292507,24.068508322740577,14.690811009010813,5.1282788500692025,-20.558159185735875,-15.556838243279786,-3.2572860606559777,0.00013590541575486922,-7.517833374137335,0.015016470671617158,7.0924404963133864e-09,36.29895506719664,8.400806788567708,21.98731525961343,2.2659041613173323,-4.603664004392524,-14.008667462854923,36.94607144325371,18.77006544624808,-31.297414804427582,48.31990629384867,-11.946518178780531,42.32585040602729,115.00952209099131,-0.0006812369589896465,-79.80028538116018,105.30616386543996,-0.00014669198714533914,81.89184080223552,-4.913406939563632,12.511069286199614,0.0019221373666357233,-4.4775318003934155,-5.99319944113187,0.00020077974435802595,3.1519584647816163,-4.134881312076446,15.034672642031044,-18.603954977889668,-9.478678561479976,12.422315545032578,-2.205894560150635,1.1258088214409188,7.564723180554915
-5.501890669811474,0.0,0.0,-2.771505740610356,0.0,0.0,-4.070380922919233,-1.7414906839938475,24.40008347668879,14.619117906945624,5.073088819280254,-20.383113588066777,-15.717410495287705,-3.3623951243755728,5.812363383102062e-05,-7.623311382769521,0.060709821740775695,-3.207932229755163e-05,36.237808731190974,8.763869984704154,21.869395037755957,2.280619315250479,-4.4797760054140685,-13.574275621906684,37.082455474483076,18.809807571672817,-31.36065027321144,48.79079780343939,-12.315820429709683,42.80993630928945,115.20380558148742,0.004206030313963629,-81.47065167577195,105.28928199532818,0.00018578601605088812,80.97269638053103,-5.549566186777358,11.841145651421098,0.026597331577442717,-4.446778426551571,-5.84429165883775,0.00032526740902372034,3.2092325408284657,-4.283972960649144,14.841987330761333,-18.57169875517026,-9.545861705950095,12.185295586840716,-2.3445095910655844,1.2498528935103135,7.923972065731652
-5.462116943152911,0.0,0.0,-3.47918431364615,0.0,0.0,-4.255377204137837,-1.6146179392169107,24.693653275352005,14.885859849064518,5.086227323589872,-19.96930736588059,-15.961053295145893,-3.432941643531701,0.00012441899750180116,-7.688420798936019,0.036032490314443374,-6.1003896526495246e-05,36.52399870810449,8.768396491064465,21.616992551576455,2.44775928740617,-4.545699781073508,-13.765291955282011,37.42064003804494,18.58176013833688,-32.009610634888915,49.111638424556126,-12.68058376919938,43.11627783134598,115.51504125414678,-1.62367040160707e-05,-84.33309524104678,105.43356263914485,-0.001404418370974307,80.7622119795416,-8.925976775172343,9.133336361687624,0.012564093728776354,-4.233698164148221,-5.373757196599611,-0.0004181534659347348,3.4248598636678453,-4.238204450012512,14.80240466169923,-18.35642296422647,-9.488720330770661,12.165353948033921,-2.216190512474298,1.209738229015448,7.871544117755395
-4.954452544972166,0.0,0.0,-3.1218628845746443,0.0,0.0,-4.0761164994059085,-1.9108693797737912,25.071482750504366,14.703939658030794,5.059967571003786,-19.826690217930498,-16.21627240302628,-3.450469101333631,-5.71300012511418e-05,-7.488684331340729,0.022369214118041512,3.960722533740271e-05,36.70121269711654,8.757996888291824,21.54299213723572,2.4245252962094086,-4.594736684505853,-13.975371616790826,37.58543313511904,18.49081901824335,-32.31534040066827,49.10270313859982,-12.93012307608368,43.08712256547138,115.58553474017579,-0.0009801199769515917,-85.40072573243638,105.77522141406759,-0.0014122617531169218,83.17234215072584,-10.44450722366228,7.795828302393539,-0.009070555364254955,-4.077871575259681,-5.52409451898799,-0.0007940987812254976,3.6189458482355397,-4.176056038257811,15.193065900072222,-18.12637554326812,-9.57545531006352,12.555617483632153,-2.1927624744549234,1.1069959404711314,7.770969110398373
-5.113939984661779,0.0,0.0,-3.193080731880627,0.0,0.0,-3.679529896210222,-2.393310390834583,25.516226280831724,14.456554703656249,4.945617451698152,-19.827062144963485,-16.31389463587437,-3.3920593980161127,-8.72641176998684e-06,-7.35742255491589,0.10422282057121329,-3.778155970772548e-05,36.68205949731994,8.855112777552971,21.594455905207496,2.3271511568391183,-4.604453700637424,-13.976798609514171,37.72162084004148,18.769030778243714,-32.00421574225199,49.439088592145254,-13.168612162792515,43.37100014251114,115.60705572145301,0.0002998461426932425,-84.75457064195123,105.84932679814125,0.0019065263821157615,84.43232125235482,-10.038516076490017,8.458777017491165,0.005318688526949829,-4.324245768352962,-5.6132195847183235,-0.0005079305660047166,3.9398335303816028,-4.158178158947719,15.379426980034744,-17.788702998179918,-9.627686834892137,12.737443571923775,-2.2552535616270504,1.2020048940984323,7.7294942096425565
-5.588841119492108,0.0,0.0,-4.781318560641725,0.0,0.0,-3.528729359993465,-1.8346746762510284,25.840527342221222,14.651265352790446,5.421329786952912,-19.869846155311496,-16.50430000573472,-3.621765311180786,0.00031231072857149095,-7.3120205742329105,-0.01512148448476799,-6.417295124964404e-05,36.946499974136806,9.163787514012519,21.17616183626101,2.5752834069014865,-4.443049683336638,-14.09698229881718,38.317452130927535,18.93887295369292,-31.724252335539777,50.037221530370985,-13.252491352159462,44.17571882907146,115.5486991689581,-0.0003570865292343717,-82.4638454656774,105.53305177964157,-0.00216702377613126,82.98473188994724,-8.797886423689572,9.409857544692047,0.0005567256759337994,-5.12589530620103,-5.892827472320694,0.0021573112544131822,4.033274841569426,-4.359076855641375,15.497495692115807,-17.698020018912423,-9.857907156116362,12.772947409232419,-2.0874872153503032,1.3999589395372618,7.628293002040644
-5.93443471175125,0.0,0.0,-5.952781199766064,0.0,0.0,-3.18981564869699,-1.340397021539503,25.987999460752974,15.0108200840591,5.7789970130195645,-19.895709462174047,-16.907560645474632,-3.814534948020325,-0.00017555721549443283,-7.392710520907019,0.004161813841054353,-9.435745833777224e-05,37.33002222120815,9.336313139541634,20.666209337179588,2.886450050803186,-4.493795332817319,-13.920805672845633,38.7810084175841,19.267954447902547,-31.970653097362923,50.4061290516262,-13.296125039481572,44.64552955822193,115.58316335189433,-0.0007766730837382826,-80.79374856105895,105.154829455686,-0.0005358348744104251,81.40144046332638,-8.711884706786835,9.363702608504294,-0.0004416706721041585,-6.16514674825384,-6.112980560475237,0.0004295554024773678,3.899726148730713,-4.323192634054503,15.55394331965654,-17.824448242365012,-9.845403033579263,12.839502479932774,-2.025951673741188,1.210932219776847,7.692486759458955
-6.149984565643019,0.0,0.0,-6.899732379686191,0.0,0.0,-2.93843369934312,-1.0302046962577218,25.872867946285705,15.37151562898698,5.898488672645438,-20.01061115399255,-17.451319551924133,-3.899997655159063,2.2015776310198354e-05,-7.650586720728396,0.10275033876613675,7.79046450125051e-05,37.480538470994816,9.399895913692049,20.600772046449066,2.906653077321188,-4.668046138258102,-13.774344594992941,39.01976832119649,19.41415925259477,-32.197532230519506,50.62064850719167,-13.533485772854785,44.817845816778046,115.64331724029819,-0.00013639944174494688,-81.66829724124639,105.12828086602957,-0.0010017709192288197,82.4458947652203,-9.172456799374473,8.696944473215162,0.0005047728312942757,-6.892497131455646,-6.0018523792352925,-0.0017068290472122348,3.8910977608810757,-4.117887469750032,15.601390103539744,-17.8159506330315,-9.672184495819192,12.961185084491992,-2.23388195107421,1.082911862556392,7.823957268505951
-5.525469002559305,0.0,0.0,-6.631674677772911,0.0,0.0,-2.927695442122681,-0.48856836483732496,24.95761311570134,15.290033262058207,5.786240264139853,-19.520404430061813,-18.05928796587054,-3.950346780501752,-9.16329251542846e-05,-7.713037389150795,0.1435006708035191,0.00015961228765839805,37.51830499506802,9.588030551030386,21.495206342502915,2.785529265136285,-4.809909967513606,-13.93797118947189,39.625252043351,19.31366072112172,-32.28931851681843,51.139748145521175,-13.966611647186154,45.07633050185003,115.60539677726163,0.0004892207921508037,-81.47852519108781,105.23946840767083,0.00030866642702820704,79.60310553304336,-9.202159112803246,7.799880505918367,-0.0007847287721485174,-6.084484184427398,-6.026755473093571,-0.0009778603454138393,4.000369540027139,-4.134249622231545,15.746143236619828,-17.695187044370872,-9.7407718330888,13.091140797979303,-2.5485070204800198,1.1093259200516932,8.021404249786466
-5.196984251973435,0.0,0.0,-6.097043500713123,0.0,0.0,-2.4826455497046442,-0.38021123116050787,24.619674638183945,15.149430451195297,5.895401867389565,-18.99823014138516,-18.739858357432894,-4.107438743750158,0.0009095561859459857,-7.494198881552737,0.24882741938903644,4.352935624188941e-05,37.752216755583156,9.643751868950817,21.7147064028768,2.635053708450887,-5.055657503516074,-14.231374634686635,39.88517457533771,19.527683050212435,-32.06946892684293,51.8537785044725,-14.45543443449143,45.74887010708584,115.44085629950335,0.00010128310602425697,-80.66640984267848,105.43707426334805,-0.0005850395460627552,76.34376173603864,-9.237163404960949,7.4163235855252365,0.000416816378838379,-6.346428595957916,-5.584202594504716,-0.0031709378988184996,4.393575309146876,-4.435133649430543,16.35032000472104,-17.268060149549548,-10.242925774752843,13.546774863214225,-2.743285011219449,1.073180539563316,7.957367479398673
-5.1726946490588075,0.0,0.0,-6.158291948041208,0.0,0.0,-1.7690269866543527,-0.9165425828993172,24.82768854593475,15.078969865137147,5.921507702660462,-19.106201631526314,-19.5636033189575,-4.059589171429422,-0.0007892283036512756,-7.549444527826935,0.2569115771893418,-2.0984408011504574e-06,38.1237307191224,9.8494512064014,21.487802060705338,2.648622178172613,-5.081030285121242,-14.165182949345601,39.73483716241205,20.208661863362828,-31.344918532320264,52.803000238658846,-14.663402229270204,46.739534974888755,115.65507752584278,-0.002356377220220079,-79.63510171375471,105.45204745739183,-0.0011179909851536441,75.83011477852442,-8.516428655573955,7.8119825643255485,0.0016932750760557298,-8.403492705115735,-4.853518961252269,-0.0024285589581147723,4.843599111278597,-4.555995480547263,16.601729541208595,-16.803358425376192,-10.447749809652716,13.738243262010583,-2.9895408301340343,1.1611898533270322,8.054991147701099
-4.486870987815285,0.0,0.0,-4.513835881675136,0.0,0.0,-1.1266451175842653,-1.504445939032925,24.295767503738926,14.613788613287808,5.63594692932277,-18.823697669064,-20.410512576867013,-3.6439084454467907,-0.00027904885082451235,-7.759039275723535,0.36317087179439766,-6.568349241189433e-05,38.220761520924064,10.023724804224848,22.238444119159446,2.4473235623902707,-5.133789978954149,-14.25101343272897,39.84106084517663,20.80789837324172,-31.088066119390934,54.00791609365994,-14.893018474070544,47.806213874983364,116.03134637019559,0.0005864243852681094,-80.26118428638773,105.29625463547707,-0.0012184731047339013,76.76317024724933,-8.657736493710251,7.58259895387718,0.005698858748798291,-9.919537420297804,-4.821487103667975,0.002133289794592324,5.1619041683396985,-4.480247175015451,16.502003001037234,-16.489008370407184,-10.34065749205156,13.672709047692493,-3.4802092572975556,1.2304399101333885,8.313468492351817
-6.141418778442383,0.0,0.0,-4.526294351056306,0.0,0.0,-0.1415775071549877,-1.248547450855299,24.351051483390094,14.665369791163306,5.646274506269474,-19.34101313999684,-21.571556940650076,-3.7419474990750685,0.001940378348228222,-7.833805602282493,0.520972772693899,6.868438321268998e-05,38.923807751856145,10.138718426913265,22.057908350005402,2.641649241446069,-5.28262959879749,-13.73911945803008,40.623251726777205,21.144169880018282,-31.563450318519997,54.895806770937945,-15.048028582122999,48.71566312609396,115.90886058831455,0.0027836200450745154,-80.65447634875851,105.0985620012851,0.001929172508553967,78.46778361390504,-9.625453973031604,7.342684980279275,0.0026895901262840058,-10.397770372327873,-4.531813558402788,-0.000512968264505467,5.597525425718681,-4.514069814051626,16.622953113023033,-16.04464577688244,-10.416575061508047,13.773960577202798,-3.3521466796993624,1.166921654347163,8.329547088221581
-6.345835780656406,0.0,0.0,-4.756056347949978,0.0,0.0,0.4987052787076029,-1.0115713714542853,24.34645858586781,14.750571474623303,6.004401449706882,-19.560142851982206,-22.821785081461652,-3.8270792037103334,-0.0006562110397456255,-7.8885707147379796,0.3727574967732023,0.00010313996000337155,39.631688999602744,10.186042257908403,22.247923639207492,2.8560742756878703,-5.546870657989127,-13.60466254214224,41.86648810838235,21.507605195568367,-31.70085212089491,56.08581016554744,-15.161903388109852,49.75953594778685,115.78236612036392,-0.0010157437189502218,-77.23430641530939,104.79535457240452,-0.003621815829937395,79.6545880061594,-9.505379405567552,8.047717842453205,0.0003272408341293962,-10.15437264858541,-3.524520951415542,-0.0033526406876154585,6.2643771586841615,-4.435089357059455,16.412993888504413,-15.391593967591703,-10.265950255665112,13.605817642229821,-3.2422046308688683,0.791920047262197,8.491921665047025
-3.914900800280768,0.0,0.0,-3.9697933457267225,0.0,0.0,0.5275605741523616,-0.7812905434494775,23.62100455843333,14.542726310744523,6.251877137859162,-18.87559181062022,-23.780984793333875,-3.5475875818970124,-0.0003886361481254865,-7.963722402329117,0.2389929004153542,-6.979563600059848e-05,39.88833087265715,10.164081468292533,22.857396728703705,2.655215351083819,-5.7491001892760885,-14.506858439742196,43.11310815144946,21.719290272271905,-31.611226693195416,57.46193070217867,-15.347855810526946,50.7211486943266,115.62149758392836,-0.0006622440232321997,-76.64287903043358,104.02787242074945,-0.001537393026837509,77.69490060745956,-9.645249629407926,8.618657848712141,-0.0009253503365131014,-8.55703679405668,-3.818575175859267,-0.007053121765133217,6.2619778708785585,-4.645543541247968,15.823483457392012,-15.460198749809445,-10.244323586026768,12.971848102565845,-3.423544663819138,0.5450532419072927,8.886913227493084
-3.075886418828266,0.0,0.0,-3.206434336808217,0.0,0.0,1.039836726684194,-0.3188279205510826,23.262581078416236,14.356473501346366,6.342907088915435,-18.62225162345069,-24.60687546669584,-3.555530646870656,0.0004067869171692028,-8.057346902914453,0.2639381620800569,-0.00011335266105801784,39.98192336738451,10.10793950429528,23.005822729711827,2.452067533902105,-6.030286296172774,-14.979240729416942,44.11236988653952,22.23856626658566,-31.422937940910206,58.66339851132496,-15.381105144744323,51.69974908107279,115.42804122782195,8.373374206123159e-05,-75.88091668364154,103.53345426905851,0.0021101533813945405,76.32428902303633,-8.956252056579869,9.510703099503615,0.002578966159567233,-8.790044328880576,-4.1722505978176905,-0.003167291913809326,6.187776681640675,-4.958159861318216,15.543457529086355,-15.579358475720323,-10.431323168117686,12.590660264334662,-3.470610274794368,0.2358460984332168,9.353916618839763
-2.622692113173982,0.0,0.0,-2.8104485470264224,0.0,0.0,1.7483405579043998,-0.018353090758279806,23.087369561133873,14.199074581323563,6.857037088669648,-18.649651883654933,-25.472862952530175,-3.6139549902944603,-0.0006602019484741108,-8.212034591973199,0.08004522568903844,0.00047043161025800244,39.843078477004326,10.032492499962855,23.655724884648116,2.1231467717434636,-6.442985898290347,-15.033785734374254,44.7094605506291,23.16667607769667,-31.276798740895725,60.81405539706827,-15.29087561236426,53.724701925535534,115.878219515355,-0.00556480359636122,-72.96082669514097,103.19196992604317,0.0008315063612110632,76.55813533281442,-7.85827901383643,9.66463762180727,-0.0014195869093904646,-11.225085591114736,-4.237011013145757,0.0006329590067580611,6.367813764946098,-4.766268729151525,15.773248511038544,-15.366792028572489,-10.337929951652322,12.87916062244717,-3.5075672348166576,-0.5110887904561806,9.845828070090864
-2.1039977043015554,0.0,0.0,-3.0843734491681367,0.0,0.0,1.8952357320583573,0.691114238984317,23.226443353113417,14.2221241156134,7.430011121288561,-18.64884595295768,-26.36653771640662,-3.891074689642578,0.000873344970317265,-8.845133495350682,0.015873465866756323,-0.00024389452703896318,39.80025213705875,10.018344033762792,23.656985369479134,1.957969930160646,-6.856438058834077,-15.24226562884376,45.32774046695191,24.04094586783278,-30.570121188340174,62.63998414627357,-14.879518779391649,55.432080704847735,116.40572364789425,0.0014270104575249906,-72.20543740857164,102.75635590462697,-0.0014455136628921006,76.5288442696462,-7.795071517841175,8.193283157509649,0.004902087198742677,-12.262728820233187,-5.298915444743713,-0.00024586808398661914,6.533591203299446,-4.026430411502568,15.983137291720187,-15.1343049012026,-9.727909188540094,13.35443501690229,-3.4149004722973633,-1.312948032624214,10.19919260051065
-1.3440200229604147,0.0,0.0,-3.5015581542439667,0.0,0.0,2.0321945280386218,0.9519193339415255,24.061503029503523,14.436916695830815,7.243088106660104,-18.841012124953412,-27.102560838025237,-4.372678090538935,4.5051255338421264e-05,-9.984761221221978,0.35949831327507464,-0.001401538126304295,39.74122170448062,9.795960898225182,22.8216128730308,2.0189549257387194,-7.511713985338492,-15.10417580992147,45.64917728858227,24.523622967850013,-29.081258046232232,63.948402357923136,-14.597670459588535,56.76876578938106,116.57642193492345,0.0005452536117913911,-76.59067625123596,102.22581465389382,0.00236477855405593,77.42187883826513,-6.819521149463216,7.346289688361631,0.010429738336366142,-12.40186994731805,-5.833898101384201,0.0027402732910727576,6.729890327186507,-3.574366968087788,15.807393001570949,-14.925714271353831,-9.243038251762567,13.358378163979834,-3.253278083911559,-2.0242847789249963,10.670053570609822
-0.7963895091467365,0.0,0.0,-2.946122805430731,0.0,0.0,2.020418430699828,1.5505259872688018,24.320341468683292,14.177936021504465,7.746222447200456,-18.414760989969334,-27.55310150454772,-4.403646103410118,-0.0002350902395597507,-11.502307044573563,0.5030246740026698,0.0018439395172138644,39.349530584172314,9.320578232411354,22.77767391699403,2.03611405231343,-8.27356907880141,-15.367244361474565,45.466566854340144,24.686051635296895,-27.55598395076396,65.18920652954078,-14.326855420750396,57.59894205721647,116.64579933028521,-0.0004617481283861508,-80.18495055575572,101.54715303973374,-0.00151521674723684,77.82803420104676,-5.544997243525687,8.561737450124298,-0.0013530731257106062,-11.819437614962276,-6.413166488343211,-0.006979546115287495,6.509337519561373,-3.482458505016677,15.09992519393225,-15.202036542701991,-8.896727472577723,12.728301756578702,-3.1360384073032357,-2.6777394251089843,11.21795032380175
-1.5745172708192314,0.0,0.0,-2.9444810938460217,0.0,0.0,2.838990745989028,1.6734709548651,24.234061322563406,13.514631178585363,8.914548306565575,-17.926014479775077,-27.821046595188378,-4.233927409902831,0.00015127728624891477,-13.688062582057468,0.48244007476831546,0.002933262659519828,38.51788860870398,8.913250390982837,22.588669713041796,1.9368263962353047,-8.732306918391275,-15.72431971214581,45.16342323849104,24.916481130604783,-26.58316602938662,66.09795972964622,-13.980597748724973,57.96093469621132,116.62793670540242,-0.0009356043172415219,-81.94951910194885,101.23704061907232,0.00010874263492859144,76.57349582821759,-6.53650382140367,9.080874166664149,-0.0022511291925286082,-9.529995862950049,-7.372143502593856,-0.009687269049772,6.150517742476171,-3.4205659412821947,14.570094159800492,-15.601225646268624,-8.643429709952802,12.254400764995065,-3.0693260073882738,-2.990410281919655,11.563970604552056
-1.6877626839362019,0.0,0.0,-2.205146548238715,0.0,0.0,3.7650546053639786,1.029330984268435,23.782664912011732,12.119901031745938,9.111942598297562,-17.27903165583169,-28.251962869881257,-3.639107512209559,-0.0007577275153989604,-16.566267705161028,1.0370076977527376,-0.0023142964163312347,37.91215738734848,8.399162166343451,21.900438619165936,2.0623794983042223,-9.265315005662984,-16.03261783255673,45.14533836262342,25.06569159781159,-26.412851945186627,66.78464858607876,-13.973033574104115,58.398823947950056,116.46716759600507,0.0016906064945336067,-80.31889899438592,101.4325046225832,0.0002589314638512267,75.04725355334506,-7.109638963122702,8.312461671095404,-0.0019392021894585475,-9.630654244748168,-7.009691430453641,-0.003928047874036334,6.0573511354828335,-3.240987137531232,14.101889606171735,-15.721964318587872,-8.303327523607503,11.88283269604193,-2.895958655284611,-3.188107338254718,11.971538036318742
-0.8356189667373919,0.0,0.0,-0.7794173025096712,0.0,0.0,3.2811448818017874,1.4122372046894465,23.095354039646693,10.0898167632652,8.518929319255836,-16.106598596293523,-28.743999406186067,-3.0272910826164012,0.0002595450346737775,-20.333419372654227,2.1794551139770433,-0.0013773637736900503,37.972426300208085,7.773569937672121,20.93475875636136,3.067071375002687,-10.117055085233748,-16.098463657050235,45.82801839683607,24.700459578575966,-26.671085904274918,67.45249026068466,-14.311042600891003,59.484044367573375,116.18684437390577,0.001794487560183126,-77.70349327604006,101.49834054640152,0.0006526975164017489,75.60816452574643,-6.303358505118565,8.717880547271806,0.008188741670452122,-11.912299510908218,-6.71550122973076,0.003969871822609728,5.300845352000103,-2.8427829490518786,12.355579395801758,-16.58707775639013,-7.285093423163723,10.398468113620467,-2.394949659241651,-3.4966131817104804,12.799938047757745
-0.9183097718607792,0.0,0.0,-0.1780722268787342,0.0,0.0,3.255422733987204,1.682041936573134,22.456183372787653,7.484191299178618,8.157026626069053,-14.524471581319755,-28.741939749100723,-2.8003883646226053,8.495017754429527e-05,-24.9878377024734,3.269426512290982,0.0028467983212317346,37.475950242389864,7.40795725328902,19.78288241198656,4.434347917240059,-10.982473229947397,-15.993949145824073,45.189927326821255,25.215695786935807,-25.51620948389927,67.96639708746972,-14.725863307093611,60.71647342094063,116.28513417210692,-0.0045202279377934435,-75.34917934852066,101.47520758228394,-0.0013541941214464989,77.05083103386409,-3.0312578450923766,9.241924649477724,-0.002578615003857649,-13.628696165695366,-6.847510308625377,0.0005567524256454351,4.150370313823109,-1.9696984016868533,10.407333474038783,-17.82480717120827,-5.748157727111149,8.90927027592437,-2.0834815639796354,-3.5866583377064267,13.398739226132982
-1.4449333456405056,0.0,0.0,-0.23572637488321954,0.0,0.0,3.999156351855958,1.3281792495202915,22.293634720567656,4.045928963155032,8.544670136129508,-12.939585993908302,-28.179894321826094,-3.0139249476845165,-0.0005265368621822902,-30.466192724092565,4.489438695546097,0.002999793060345005,36.19119988332816,7.035459332291988,18.259112553096234,5.827116966970087,-12.281378509914687,-16.013910604244437,43.9074007399908,26.188616158719476,-24.441661621621723,68.03353555330631,-15.765600157507672,61.695330964012996,116.82024737251855,0.002173830612103331,-73.41776633858855,102.22462406182868,-0.0031130267134362654,77.4297313029118,-1.2936579747483188,8.368052030520765,0.0018413788984301968,-14.855928357964197,-7.132429929806666,0.001868303532422915,3.0353478588954608,-0.9054659847512069,8.140589743351802,-19.02675511366763,-3.9119692057885342,7.2014383864078235,-1.8528364540453872,-3.4533389123322955,13.808547406887339
-1.5043122560858517,0.0,0.0,-3.132870612383852,0.0,0.0,4.591018084802172,1.0646772783845675,21.87318927200805,-0.12811697847562117,8.34037700338396,-11.190552479254231,-27.298030874463507,-2.9319098387807614,0.0010302325274355148,-36.93110648789765,6.02259840146622,-0.00995489107146891,35.011554758542346,6.592930887218314,16.88326269019445,8.021469668911115,-13.776638628403283,-15.55246514468321,42.7985823011677,26.840225818400853,-23.556891824653835,67.99964738669098,-16.711493625345266,63.89992772830523,117.45243985847038,0.0023721855201254177,-74.46372715362357,103.600375393875,0.004929517132217537,76.08623441020343,-0.6964731534670657,7.132023650820833,-0.00042677617250309614,-17.802109590665122,-7.093792374119041,-0.013894646693004437,2.247450939843652,-0.17439955385323544,5.731583946453573,-19.898645043470296,-2.328139692160051,5.241783775182736,-1.1729060223960206,-3.2452456711686852,14.246016533412787
-2.009436748987168,0.0,0.0,-10.58652842846837,0.0,0.0,5.442060090924548,0.8435010832729416,20.792206618685256,-5.2799960139131334,6.646055455540726,-9.618767728653248,-26.746881055946826,-2.76474227603324,7.863964859305083e-05,-44.009005731485935,7.762851068244344,-0.0031370612841646935,34.268236635149506,6.640150579308645,15.228615346107961,10.574408366163787,-14.51196764337825,-14.80914179766638,42.090853121478865,27.636953746319666,-22.64313745123188,68.09960302834286,-18.13290169124438,65.63563451626241,118.09783947683562,-0.0016118590178472475,-73.30385411125096,104.56900983549588,0.00039339400568419377,72.26337040456926,0.9193867574331316,5.3830467930178365,-0.007553316850600167,-16.99545313770543,-6.608611203952455,-0.003659566386404672,1.3686757901366338,0.7058158109277327,2.871361101974719,-20.8465275255862,-0.4331515502730367,2.924897981801124,-0.42502909267413724,-2.5948285547738155,14.334705699860939
-0.9946865134962017,0.0,0.0,-15.619923407795593,0.0,0.0,5.454412388526707,1.424968850670199,18.714851195400414,-10.268474274309149,5.275687799630382,-8.028384745818723,-26.550979007309365,-2.3854541871559487,0.00011249728368969335,-51.87708304883575,8.691400181922047,0.023358626905576836,33.61165283860971,6.885941276598302,14.011004538048798,12.959349704628696,-14.989440889779004,-14.991202240712491,41.73117224023962,28.327999915159083,-22.297861014775066,68.30866460461634,-20.967262060396443,66.20261727446862,118.45330480905541,0.0010954720610693506,-74.55064375574048,104.81350550943706,-0.005108207197699258,70.61664686256111,1.7926870413775242,4.595477454438473,0.007748480262002237,-15.467788999960595,-5.855665284757353,-0.00251615470589219,0.18446137454040104,1.4217331841369667,-0.7296170536928889,-22.06662405563523,1.592104121185357,-0.1369992836790772,-0.043648561797070266,-1.7241342110943658,14.723373282933231
-0.3935876476441832,0.0,0.0,-17.268983658394223,0.0,0.0,5.287663361464146,1.1677682281873427,16.567102267461536,-13.108924867973574,5.173348081850912,-6.113653833100885,-26.60802840850691,-1.55458449157633,-0.0005069146165322533,-61.088666532982785,9.677751443811077,-0.04578724108524227,32.534818281961066,7.317010003330958,13.388059029100473,15.297990061628775,-15.976410450084275,-15.287070563419642,41.66574595147846,29.122994548830416,-22.550153905191568,68.57642878142961,-24.806771313545887,67.81235563653418,117.75244565948022,-0.012311493823884257,-79.21476089464355,105.2449000675094,0.0019976913971946194,70.37834162009561,0.9550188495024248,6.116635015562678,-0.009216391101663744,-16.62455780586659,-5.6056102928322415,0.011899301635774824,-0.6947120691191293,2.0004469872429222,-4.428312889359395,-22.91303547733468,3.527077218029275,-3.3432901863806963,-0.2439248554405665,-0.7829750600067383,15.506588257199777
-0.2508881605553626,0.0,0.0,-18.37157832739791,0.0,0.0,4.786977454739294,0.9053583095636836,15.777071540756817,-14.378066639329958,4.432383154432136,-4.360476204445793,-26.463070044921476,-1.1649960201583205,0.000320954148228829,-71.28076485499687,10.55263352759822,0.009123316718554226,31.56359291323411,7.850981208659273,11.785905875228147,18.242179979803318,-17.379340605349025,-15.533864777209079,41.907926072141144,30.138872744016833,-23.055079602801957,68.88356192937268,-29.68472009178521,70.43083179480222,117.0277241327766,-0.00013938304319412263,-80.77024551939458,105.82584961946552,0.006891482087333843,69.22489100843465,-1.6287922779807789,8.618890021652208,-0.018326105378443314,-15.353563255168188,-7.083497621281056,-0.02504280237116732,-1.29389945207464,3.0812629700611978,-7.733424865928743,-23.443186661849175,5.774742915597621,-6.001387977706748,-0.23312919585361147,0.27635286510395896,15.945352323186459
0.23857234034787309,0.0,0.0,-14.489210209286991,0.0,0.0,4.543648551519458,0.9265326733691529,14.185320163107471,-15.854739267332109,4.98193683457385,-3.097502620256978,-25.699305669865602,-1.0565233482031968,-0.00011310808545140584,-81.46676528519146,9.114631398443835,0.06276970077650357,30.580773662471398,8.249451222139951,10.281208601446624,21.78653671381745,-18.518305477797544,-16.51659184889715,41.32573248080499,32.046744960969825,-22.67766955808542,68.92753696697689,-35.02527124816611,72.76607812477374,117.71048265784866,0.01604372053266538,-82.35510307472936,104.8443864273908,0.003150340739371656,69.41989827929517,-3.1644442461953397,8.815351079462998,0.004861693216601103,-12.24712470611926,-10.659601073264284,-0.027184499971239704,-1.9074766327978196,4.418050137071888,-10.43006425425614,-23.992316246189702,8.026313011503337,-8.005500755851573,0.20449690115307972,1.0118192591339918,15.639573745632411
1.2589402986359521,0.0,0.0,-16.856262444265884,0.0,0.0,4.500704673890656,0.6023105353666109,12.077221976719411,-17.313254965658402,5.734121587403152,-2.1056146634652686,-25.200555013504584,-1.0883505295444862,-0.0002354273056197509,-90.9083806167266,8.816668858836058,-0.04551687343558634,30.001339093017872,9.080382832756642,9.269240755843379,25.797313921586596,-19.31811361637187,-15.235633340169308,40.34626985225289,34.25386169968371,-21.404706898177515,69.67538646376968,-39.718368504157084,75.94699129779073,119.06929259898104,0.0009873440124642304,-84.27588524435977,103.30457764633186,-0.006480572420456305,67.81394184552445,-3.382939477287999,7.847325853090602,0.001081018598517668,-12.973526908507766,-11.428630158732082,-0.010199418972765596,-2.5586239890020392,5.741121520405072,-12.92461665809565,-24.57478510957795,10.185448158175051,-9.834861591913715,0.6645785160150351,1.783011711607149,15.256936747503062
1.0081452974526126,0.0,0.0,-24.18423988822227,0.0,0.0,4.66491315393526,-0.3291028762965111,9.975218038279793,-19.481087067914785,4.009577440204172,-0.09518829260798128,-25.767998613540577,-1.1743330905659082,0.0003303206078457123,-99.78027481871078,10.135226497014095,-0.0201020135367724,30.09432735732993,10.732381192253387,8.743426478498733,29.606062300067627,-20.22252188144796,-12.86338602703066,39.99966717623674,35.717184146935864,-20.83250345652032,70.1657031182369,-44.835744980478914,78.95899754117538,119.71065996778198,-0.004410836245597658,-81.11236930140338,102.48034482857003,0.0025694570971621683,69.1829078041846,-2.1786198170294115,8.312300872333477,0.0028514036513091396,-11.735839238863663,-10.485402963415172,-0.017486974793586196,-3.469143313150517,7.0800228731557,-16.141335686718882,-25.347256898940145,12.622148396108212,-12.349050157008723,0.9262600810698541,3.126263107126084,15.070142555104805
0.5271993244666573,0.0,0.0,-28.36226355584209,0.0,0.0,5.304211784850527,-1.4949641272897853,7.824008873941234,-23.47383087804386,1.0366417365398586,2.21354819906808,-26.488807896077645,-1.3915775976620233,-0.00018041953386834777,-107.97479627311668,9.833956654987764,0.018921186547161427,29.66224680177286,13.198690821987652,7.887968425620892,32.902551757193116,-21.467961760587265,-11.989605527587969,39.647287895024434,36.43901758026866,-21.053798072977994,68.30234861989615,-51.381263504325695,79.95839057516446,120.04458848686488,0.002730162854713338,-79.04175521263736,101.95846767973629,-0.0027967414689392947,74.50405090330992,-1.6405549963287216,8.286304512847945,0.0014607316731221304,-8.618580786990126,-11.372398320733346,-0.0072575758622290855,-4.146106450105944,8.485802939009192,-19.553517727105522,-25.83830050016523,15.182342476904086,-15.045648024662631,0.6253221063420555,5.443962333114751,14.90873219890256
0.3349578653923403,0.0,0.0,-30.882930541005873,0.0,0.0,5.613189616786954,-2.0589684217807203,4.991204046614927,-28.100056288820067,-1.8771786036359603,2.988911517507352,-26.397245573109842,-1.6660008102260566,-0.0005411551169665405,-115.31618302677028,8.345344167404102,0.010678459816951012,28.725117031215884,15.560819492561903,7.297098639368852,36.678421872009665,-23.6508736485561,-11.269224200931482,40.23297292022479,36.70183580336475,-22.341902150337017,64.55736370257785,-58.43320212876347,78.47349125990274,120.30867007861649,0.002592246170507546,-81.2324383010111,100.94092739926431,0.005482397056776176,80.06382846212604,-3.976277353890802,8.539856947985955,-0.006380469724299401,-8.096483834965321,-11.98047433990991,0.0006971294980461337,-3.8744200852010113,9.752045789903239,-22.248836445223837,-25.40808346448845,17.339831727598426,-17.137069765520224,-0.29458844274452667,7.8271450046866775,14.666716181763976
-0.035720660562507146,0.0,0.0,-34.534631791948584,0.0,0.0,5.704259331130123,-2.1172902114578913,2.1354943771083614,-32.06889660975543,-2.8401465660822285,2.720422991152046,-26.326803747110954,-1.7181327814408254,-0.00016134227902739876,-121.91484843309101,6.762199852545616,-0.005960108390557045,28.291082286018362,17.633281461257123,6.978255729670664,42.40267479324123,-26.00813620364825,-8.356911242840578,41.95110201984018,36.75206686719278,-23.77205792427182,59.1278989094722,-64.92844755861583,74.23826498403395,119.93299658846517,-0.0029312706523320683,-83.58871927359341,98.45655372520173,-0.01497309451473196,81.36235360739796,-5.228661069941332,9.615091019733855,0.002371135649015573,-7.547563418477836,-11.912472909974987,0.0003244468010285621,-3.598797736294583,11.310343756139545,-24.66231294839114,-25.025693576688845,19.658769662111318,-18.86373926383418,-1.230964623471506,9.937794496748682,14.17553450217775
-0.2750601721061764,0.0,0.0,-37.6432442333566,0.0,0.0,6.039966362699889,-2.9308840631935436,0.6301490760136113,-34.63100335106141,-1.6446323682953612,0.9015910264845379,-26.358010860734115,-2.0119761732172874,-1.88515956283671e-05,-126.87310078963381,5.128839458460815,0.0007574865602731984,27.638134145779638,19.276541075996107,5.082051616138419,48.43881159970738,-28.428147504611257,-3.917256472402406,43.016856885363595,36.99197494611287,-24.160965856620653,50.93253257655494,-70.36430989013827,66.91381457838244,119.32138881448982,-9.354341908086545e-05,-84.63477337925566,95.14452703605069,0.016436031886162536,81.40229326355707,-4.915752357630564,10.02563253900256,0.0006799083179340371,-7.064183684625286,-10.38245354622498,0.001174185392030954,-3.8836029247978767,12.212959876572562,-26.458706161037227,-25.18985440192689,21.140122822743766,-20.26028156129849,-2.2899127473013055,12.108022436584868,12.585161552314919
0.09073009317218933,0.0,0.0,-37.83516627414723,0.0,0.0,6.0574152879034235,-3.703657529328253,-0.8810588780004912,-34.307916912852185,-0.7551961442736468,-2.677500867819156,-26.28615431998126,-2.1898540841970355,-5.20825730716587e-05,-129.2298288967201,2.2386409815994157,0.005149223155868356,26.503756469281907,21.447645864714953,3.036143534128802,53.40161386047937,-30.478242441987074,-1.705537761990041,43.5529670935367,37.48034189702864,-24.496319458721064,41.00702598105616,-74.05792740748875,57.53711396006058,119.53127723537432,0.00037498094300864173,-84.80897422996375,90.68019791215382,-0.005448539722841647,81.5107892067034,-4.839759936465951,9.874300040724677,-2.9686775955709958e-05,-8.500500699751413,-9.680267911956403,0.007444099419831148,-4.146280567721507,12.528090754705007,-27.597154730393342,-25.333361100898877,21.83681312488167,-21.251397836260708,-4.0136442936724,15.126131124504417,10.062776674639885
-0.09712578184660206,0.0,0.0,-43.19381683989921,0.0,0.0,6.180422027976221,-3.670790051552731,-2.229828531619102,-32.03608805930746,-1.2334025674405542,-5.1580304188190125,-26.158729916027436,-2.4075168632867765,-8.460334180976042e-05,-129.07612070029813,-1.2602036348352226,0.010725358132190705,24.794131341242654,24.508288597742172,0.9407441238166021,57.85884137651835,-31.904331173305366,-0.5704736864196728,44.846400858970114,38.0805066173968,-25.752131943923974,26.482477444240217,-76.10055622458677,42.715647539064435,119.9973105086174,-0.000677069694929045,-84.99102887824307,85.43499777728057,-0.03985624058991731,79.98424210519244,-5.235880027228135,10.172821337144276,-0.0008111723563764017,-12.587516142685525,-9.438077744669512,-0.006230126545149428,-3.8742957014595314,13.270462142198113,-28.89005481986146,-24.975694691438058,22.983797145181473,-22.23319875802639,-6.874247486664948,18.77614986155514,8.077544962271142
-1.327368954609412,0.0,0.0,-57.892654608165735,0.0,0.0,6.427775165459035,-3.7403485004988024,-3.017402710879674,-29.230338447156175,-2.078186749306977,-7.024613355449508,-26.365397905432392,-2.4965871162253794,-0.0002645099263887596,-126.68490386992602,-6.14395145730737,0.008255600205948026,22.633995820846025,28.30095991906061,-0.60715707958264,62.939507670412766,-32.34558610449111,-0.8471159259144901,47.02305163681498,38.592014570747956,-27.15681225890056,7.352940916350621,-75.9964698212939,22.07630603348698,120.01990733662007,-0.0016497882287506982,-84.75714797408257,80.69786691643172,-0.0003518366827544062,80.74513816584518,-5.977464030927761,10.519199906922744,-0.0015677946391093023,-16.01397626728376,-8.04044074489674,-0.0013215959357743671,-3.148867164323339,14.058757514197705,-29.53123755271993,-24.272704537752155,23.943606634990555,-22.55726070890159,-10.866305816947653,22.55444877781977,7.659520078120364
-1.5735362035519112,0.0,0.0,-67.58668853432417,0.0,0.0,6.464664443646535,-4.343180578781958,-4.1392109649805695,-27.956846784164306,-1.9914211443286407,-10.248439342677681,-26.502379374488083,-2.349790345689373,-0.0002218929833432759,-121.87824628632961,-12.68954941421716,-0.06181896947776645,19.99161584348128,32.17150248990417,-1.2588890764876275,68.37518057742166,-32.74992215295449,-3.570161580759347,49.54917071411078,38.70966992727128,-27.94492914469985,-5.561580302016723,-74.73969407226808,6.912505850471523,119.47064359119128,0.002547906568709431,-83.69404484673284,75.06099210699834,0.014897447781531398,85.4689669983406,-5.968068037509318,9.26475674369405,-0.006643574388166599,-16.460540324817444,-6.974231188039429,0.007507240200697429,-2.955611734652628,14.521094742961631,-29.355071434177994,-24.182079382363675,24.313054235242582,-22.199837070966556,-15.388636579027606,26.508458887139472,7.429740866394141
-0.8082377487323927,0.0,0.0,-78.38200621470239,0.0,0.0,6.724878776420223,-5.412996195104898,-5.067465487640341,-24.94369263991766,-0.16660045001234672,-12.078501773174462,-26.235142088415255,-2.0768977761019376,0.0003530319825915195,-113.89314230839037,-17.82878900352924,-0.04531248216275076,17.203146576929928,36.00399223587267,-1.2648462565793277,73.15005348185413,-33.499106434627016,-6.117968343321319,51.786483630522085,38.41294134615727,-29.10717973104143,-11.763566007679943,-73.59341533737626,-0.8389453654054158,118.68981546852488,0.0011023996917006132,-82.11593264376644,67.58568616195353,0.06506070012113646,91.42579773251887,-6.18391069309746,7.6593366853251865,0.006131739456761109,-17.073638747729234,-5.974296321710694,-0.007105601494008269,-4.045882636305527,15.847091837689824,-29.611307949517503,-25.456722754314963,25.638218157215412,-21.922178448995393,-19.43643033553139,30.415575514383715,7.224050597403363
-0.8391664458631667,0.0,0.0,-77.79938548063342,0.0,0.0,7.058058435498346,-6.534076687065299,-6.408891154606981,-24.225413040130903,2.100876073027146,-9.716786301214382,-25.725162679825743,-1.5558724859169213,0.0005126391257601977,-102.97512608009454,-16.83170184751328,0.09243319064473521,13.530891758854064,39.455019708904956,0.9020957500893122,77.4569528487581,-34.180721332727344,-3.688533490495175,54.45070297043162,38.125331793041,-30.937598003256202,-15.066735689440161,-72.55072093143295,-4.910067567717217,117.90883540753688,0.0013974746935803842,-81.74396857579225,60.204735376289236,-0.03421135140276754,95.89073853374666,-7.060863780166249,6.898518645574331,0.006465209109404086,-17.788072619462604,-3.3960071396726494,-0.0023176103848708556,-5.46951033003333,16.890360517385645,-28.968415164715655,-27.166114378287528,26.381946550177542,-20.85736495826653,-23.458217330607553,33.170769989814005,7.700232303688087
-1.082746930542755,0.0,0.0,-34.28215477432831,0.0,0.0,7.593692724151495,-7.010892947063425,-8.299463652815792,-30.73331645021952,3.389153768649918,-6.6805253014994435,-25.587069769665028,-0.9076832407126442,-0.0003592654668822611,-91.19160244362962,-13.057612982348354,0.023180398433470327,8.45474557165647,41.3348767770435,4.071785077566819,80.73334150195176,-35.35152059096858,0.32589750812152124,57.09226803532423,37.87319641235547,-32.34296364679663,-16.79509777153001,-71.87000202005821,-6.411890554853952,116.80406208789087,-0.011227706358368375,-82.36017472352113,53.42220155589135,-0.03234353731857724,96.57038317456701,-6.5714456823844865,7.977998286760137,0.0041710679052296695,-16.417503718388204,-2.0943455961231408,0.006912974751068708,-6.3404819170952464,16.82524474725988,-27.59348740171567,-28.225300994103435,25.832995408325516,-19.52363745022931,-28.044636776708376,34.24083880626996,7.5312441876583
0.040825634685007064,0.0,0.0,50.46830470039639,0.0,0.0,8.504138926002723,-6.274410843422095,-7.67449647515635,-22.65252345727001,14.68911613214089,-6.423663639221579,-25.65208643084679,-0.330024657547553,1.4071326346590534e-05,-77.51944550256505,-9.79002628207508,0.009499038825721326,3.91225759875007,40.591178891048415,4.250205235059534,83.32753884738267,-37.55951097836675,3.2037554577993577,58.848555641314206,37.186807209138294,-33.51641881204506,-18.206143393838225,-71.91175566282055,-6.2329844301150334,115.27387714576453,0.007872447762897779,-82.69132623431769,46.14016949272714,0.04287485060788412,98.6978404539902,-7.643479011822192,10.017091757686138,-0.010924415644185295,-13.912947971941096,-2.4546296496240942,-0.0003627842446271779,-7.423916422613535,16.48569865884612,-26.304698831280767,-29.42390088613824,25.056644796379494,-18.39584091917007,-31.699553841944073,34.54075760796701,6.2458504574851155
1.5512465560285438,0.0,0.0,35.62472248301214,0.0,0.0,9.25491034843533,-6.452230756136321,-6.33333170463526,12.804794018875628,35.91803097496852,-13.238362735532382,-26.015473671022427,0.4170638606593291,-0.0014625820866142948,-61.41743647206231,-8.322958748374093,-0.07692437657473211,0.5164658604605138,39.142215133475254,3.6572223822275816,85.44661774678734,-38.618849987290204,3.610465491015093,61.858278328570776,36.69993822982579,-35.366724277095614,-18.07741959984596,-71.3464166121496,-4.864292665493471,113.89316973305895,0.007202935421958522,-80.09428990898456,39.783343157420205,-0.007742301652353335,100.93474084904156,-8.72395371975785,12.219247318050215,0.003769776918612663,-11.891833158978919,-3.552217043054333,0.002968121579827087,-7.995326290883732,15.698151008921306,-24.663728733945568,-30.069305965248923,23.735043093580227,-17.115521244738463,-35.21340676045065,33.67965423919933,4.769146273622435
1.747546544956386,0.0,0.0,-8.055671823110515,0.0,0.0,10.021757645756207,-6.877098533057145,-6.312370109227731,20.257411381128943,29.69788035051664,-10.885346221970973,-26.585146762332236,0.7092162217252859,0.0007449328119682607,-44.53764380030459,-6.123079265047373,0.1182452689745216,-1.3964108425160409,38.27453305893039,3.6605416115175107,86.92305886055027,-38.258635613275345,2.5542773117098942,64.99038244465676,35.36366643014385,-37.03913003859714,-20.205205856341504,-69.81400252095567,-7.371744466032021,112.7741214571474,-0.01561521374554688,-82.70743926831362,35.32378823085763,-0.005015460170369913,102.75308261321128,-8.339906178935705,12.612592357092337,0.001433250423795324,-7.5009493263485965,-3.629614299483527,0.002278281891617192,-8.121566812566462,16.1098425533416,-23.931903128355014,-30.35085037289714,23.850972002323424,-16.233460726623733,-38.1473393206362,32.17492300097663,4.173223519145758
1.66472631976245,0.0,0.0,-8.927887087059514,0.0,0.0,10.375830635038476,-6.602706645203567,-7.088559373789305,4.16251330047895,13.999500797035136,-5.95888039149877,-27.419423297547468,0.3670956061854065,0.00026016245360387417,-32.878405555670945,-4.754741142226378,-0.05587684648348432,-1.5897026766847533,38.32887438286363,1.692159109200597,86.60021706266525,-38.62278810649308,0.19464414282162634,67.24751766732015,33.170453086855666,-38.3820944991629,-26.890208423886616,-68.14564108068392,-13.901017798308898,111.72647453212981,0.002340355394645757,-85.75454644517372,32.067834763331234,-0.01478803163296519,104.37995163675873,-7.4848769941606035,11.226130026886405,0.0010379579605919542,-2.0570796148012187,-3.433290385718535,0.0035456211308614333,-7.742791636671811,16.932548373831448,-24.936744777779822,-29.994417231175547,24.977094837967044,-16.8707493792889,-39.800340924193975,32.47937884280678,3.357678671296819
1.913924291832322,0.0,0.0,-1.634769555405716,0.0,0.0,10.806641255362715,-6.5504216486980065,-7.648786114963459,-7.915569429922869,14.63488129381998,-6.075352726739709,-28.532362785481663,0.39874589040656205,-0.000900970293614375,-31.898155549630747,-7.875393071744899,0.037037168941607024,-1.4921585071823102,38.696247535093015,0.8052734713106053,87.27509036297901,-38.19734764759183,-1.3416353681659166,68.82731802310133,31.605907628805348,-38.87281986121438,-34.92240697493027,-66.81894370342525,-20.206489376007536,110.48439337672491,0.005487819881241909,-84.90640710324968,29.808218923739467,0.010876133261782401,108.63283820626145,-6.595845080738797,11.167323502216329,0.008773325345491176,-1.0364942252967797,-2.981022322378516,-0.004168588609443748,-7.512849267020011,16.767235836855487,-24.954145536075284,-29.73333591780011,24.830376513656184,-16.956713962646003,-40.4445060332435,33.51880049866138,2.597329878054744
2.5294048433996266,0.0,0.0,-5.751467328214259,0.0,0.0,11.605240894934656,-6.398368889593117,-7.638154252610185,-14.493817193545201,15.300119086093927,-6.465826999902104,-29.649989833973045,0.32915903712393774,0.0010888464962130401,-38.324361689822595,-10.653367568598009,0.00923704380086935,-1.9083920817552844,39.82619208858223,1.7982750587029304,88.07708835379312,-36.35254023980604,0.10624974121456685,69.94511159465375,30.39315913388074,-39.15996943184541,-40.309595250755905,-65.71602270580954,-24.357533054389073,109.72980218900376,-0.00018559478504301467,-82.60416432355125,27.61480930384277,0.01996451258144873,115.90567078052402,-8.743849419601286,10.814286527297549,0.0114002942976733,-2.9250347856003858,-2.2047755124627835,0.0009541606424265433,-7.857663987363338,16.57172383963688,-23.960944534218992,-30.16178081748318,24.288972496279914,-16.07003303013733,-41.26074568347078,34.148033266808106,3.3411270496031182
3.3405991123513763,0.0,0.0,-42.37598865716172,0.0,0.0,12.64040025535308,-5.999057416546442,-6.813059119423976,-20.214225829667058,15.382997032056865,-6.915752748108477,-30.823912269294734,0.26346020443733403,-0.0001926232387464294,-43.698591380234866,-11.543391245460242,0.00028726217760760233,-1.2322116625315442,40.2351161792746,1.5676578816413789,88.84463947057614,-34.67268996536723,2.5209315054509966,70.70036716415463,29.769555475338084,-39.681491992285736,-43.251381483889574,-64.29505920488899,-28.617749478756853,109.61230227808704,-0.0008559898321239534,-81.03375342933974,26.051929687608272,-0.00834282920833187,121.31760905006276,-10.40573644731006,10.79311998983769,-0.002851582696101247,-1.3422381628174327,-1.7910027281520962,0.001332009048001077,-7.911121411611068,16.718306684880627,-24.207833942311485,-30.21190971796888,24.51435660709318,-16.249258810278768,-41.11426078602129,34.31568550061815,3.70871434807968
4.303701304590534,0.0,0.0,-58.61956975845951,0.0,0.0,13.258739268655853,-5.646771992895438,-5.283332650924611,-25.39344673417287,10.701410848690267,-7.377192230147565,-31.791100906877848,0.3962645726649509,0.00043802638320004493,-49.50687545212701,-11.17624854194101,-0.04276357646882538,-0.6164120245380137,40.10078101672775,0.8912543439767184,90.00932553573338,-32.64445420037371,3.523672133676076,71.22973410422959,30.213455419137297,-39.93929541870992,-45.49471849756831,-63.283175647934975,-32.77203518461345,109.37321562425241,0.0008328359448412286,-80.51295328741294,25.842987315907042,-0.006073272892274829,122.21884503212269,-11.081228852570558,12.1308916211703,-0.005545704697923001,0.05360532427108517,-2.6324835708549252,-0.0003182140184490108,-7.674367869168465,16.231373760957187,-24.19381368446578,-29.893571024843187,24.058623100266928,-16.43796641764622,-40.92195969456479,34.30519255925798,3.389137687616033
5.552498864532221,0.0,0.0,-52.459774722348996,0.0,0.0,13.348127970419263,-5.385700563678615,-4.674208439109834,-24.115885410733153,6.760210437229506,-11.495171190258523,-32.50158049512934,0.9440377496559798,-0.001158910966255734,-56.96572281553223,-10.141525058890597,0.015041848687853783,-0.3454015138288873,40.33727961314778,0.4776924410249888,90.0853156100747,-30.703607354822744,3.1129775540521196,71.08152489448061,30.649485832503792,-39.857109095168454,-47.818833579535784,-62.749825473132866,-36.44023705894641,109.24773876085249,0.0003235603557034108,-81.0046585776696,26.388284359251415,-0.0005008185122427341,122.58940888516076,-12.322473339816336,11.982235737737382,0.006627741575756393,-0.05736841680863673,-3.5603972524247895,0.0011137037363635673,-7.449033808702945,15.261251682872327,-22.677512497893225,-29.681221817533824,22.608555463996247,-15.36630266177717,-40.61107345803239,34.86033410975549,2.642294089322498
5.648884062249381,0.0,0.0,-51.00971713707273,0.0,0.0,13.593937045200917,-5.67284345083911,-4.267356828463437,-23.10858217138097,8.946558973716705,-13.285588748703296,-32.87929539409295,1.7112707426542906,2.495579838855584e-05,-62.68817136729406,-10.479462468470935,0.02289127061447192,-0.03527692057084093,39.84235051539412,0.6585459935502025,89.98669109234493,-28.572763976714548,1.5491304334200702,70.57075351756438,30.713774375284515,-39.93171457770701,-50.364915726146386,-62.556915245309675,-38.84962958307942,109.34770171721264,0.00028705998567285816,-80.92979110744247,26.301512018401453,-0.0031580383895854344,120.90279855602746,-12.819172867264394,10.743492318038594,-0.001794696944924907,-1.078860071381492,-4.4427441965200325,0.0021212995851921687,-7.822296244239911,14.868276347156112,-22.128188443249087,-30.052287045482426,22.044101548659985,-14.99622816815456,-39.593127021055146,34.86787775333222,2.68070721751139
6.483620617383907,0.0,0.0,-48.61556303865286,0.0,0.0,13.967501320032214,-4.780378479400535,-2.6327026062186825,-26.242770973956347,10.190415030930195,-12.563628527207031,-32.96157324970246,1.326523146536962,0.00045047440739538167,-67.45244411582402,-8.014458482473257,-0.03239945240123706,0.7668011420508822,39.069219798661756,-0.8989288901128505,89.45057532903289,-27.278583467579278,1.043377212642297,70.1657615250166,30.97002198259966,-39.636809236345975,-52.59984846556175,-62.297200218730836,-41.39697928523971,109.46760109128006,0.0015774468674138007,-79.75076723812272,26.44307756036676,-0.00043386234007695604,117.8786127714605,-11.197865151175142,10.729810307432036,0.0005486575260039138,-2.4678895453840073,-3.9878355409013064,-0.0030429145509168047,-8.595046801118476,14.611488545887463,-23.39650572517263,-30.6456985163112,22.268537898903976,-16.327433437944755,-38.363271769583925,35.114632393013366,3.264551518161998
6.001463943320596,0.0,0.0,-44.28297589890719,0.0,0.0,14.179323690519945,-4.02722611146045,-2.1340610369764526,-27.7670555446047,6.076099754059094,-11.182432719808821,-33.183665184527904,1.3483241681477343,-0.0006983254079568117,-73.23421681921397,-4.990592510225021,0.007680388774376769,3.1329841489782955,38.592426418444425,-3.2390076923478075,87.86860135676196,-27.059291930759212,0.16333549585176674,70.07095279685633,31.783458424618168,-39.532580470473725,-53.517668616321465,-61.737398606607925,-43.7550845655526,109.86142012545224,-0.003426544856783344,-77.91228943640584,27.44215472435928,0.0013896117419916793,117.07043255943108,-10.24597826780007,12.008852461376096,-0.0017119561577220992,-2.618859063993396,-2.9349829186156033,0.0013174008710419736,-7.8009582258338295,14.199462547423803,-24.13611650169409,-29.701402691623034,22.154516505772357,-17.21152310839858,-36.653464783133394,36.237396473241695,2.6619908418883176
5.346004266981593,0.0,0.0,-43.10449340654663,0.0,0.0,13.968163415176758,-4.666177563350393,-3.7039352624179185,-27.407523155478398,2.9627711935056853,-11.791070945496372,-33.54190777251965,2.3229075612554912,-0.00013407015769295128,-79.21452748812365,-3.0228257654856234,0.003637369390523699,5.921100751911572,38.053043840862394,-3.4769162482547062,85.66215020811842,-26.46575827419956,-1.1529048808522921,68.93789706018104,33.10267794015953,-38.864649311605454,-53.69999225598474,-61.731500076897895,-45.37483612950962,110.90866197962076,-0.004301078138243347,-76.01109532631564,28.937429155713705,0.004189896258019346,115.97048143215248,-10.2129012874156,12.547567767892975,-0.0009123357693388062,-2.430405131768182,-2.5549604797614727,0.0007405960097023249,-5.936066016533967,13.702478073770395,-24.78627254947127,-27.68128381640225,21.927703373083204,-18.042798603958516,-34.586150946005375,37.31669380264126,1.0998041550484705
4.375462458931984,0.0,0.0,-38.0679125443894,0.0,0.0,13.588948893416832,-4.696277853893387,-4.701564445782265,-26.748814915944436,2.4138498861039857,-12.370917525519172,-33.528034745883566,2.569154900617267,0.0002968156487362717,-84.44451394285285,-0.4429923127850017,-0.017842840742193264,8.297570361106917,36.581307439462535,-3.2594195826831025,83.52084509952955,-25.597041624821106,-1.099359207510905,66.97036027079558,34.83787439144855,-37.48324110145079,-52.525909004456544,-62.20677639756502,-45.97942711639234,112.46137016348736,0.012757399883593049,-76.66958961713036,30.0814597833809,-0.009655492109194065,116.16823829416562,-10.114309532286665,11.7413739234691,-0.002092341185852273,-2.5003812329943518,-2.239678229149796,-0.0021887051199049805,-5.466772407910707,13.806233007096866,-25.5406114028243,-27.130354966494572,22.295076677792665,-18.7361816044789,-31.998043395374957,37.21826039051894,-0.6698262166540023
3.5042386752940913,0.0,0.0,-32.2903376916422,0.0,0.0,13.289502068940717,-4.351401842083839,-4.173236127865647,-25.03778452904249,4.237826804099871,-11.799326931538,-32.883731029860826,1.6897577393274135,-0.0018388946255815171,-88.82417479825222,1.1604981297185617,0.016347835825556708,9.512994125014071,34.88473201457438,-3.393604150553801,80.66833236820598,-24.03299145753906,-2.392162254167579,64.95967994606727,37.083695783559776,-35.50509748774314,-48.860190075047434,-63.57153029803839,-43.535982702269095,113.74321447247073,-0.00572783944446123,-76.47537326251069,30.827701294996356,0.0034140669530898357,116.03343783291359,-8.9386610703564,11.44981718133696,0.0021583514214925294,-3.0604774460396222,-0.9739686454159641,-0.004532695963254796,-6.472236026643836,14.07862431014105,-25.11402729930182,-28.232554281845264,22.394982889994253,-18.211358369483563,-29.684471440204998,36.10543794805196,-2.226768125581585
3.264817653025803,0.0,0.0,-29.141082259900372,0.0,0.0,12.747910040422097,-4.016181028830423,-3.947805939699048,-23.56889591176353,6.737697957582754,-12.298504242681856,-31.808380529838715,1.172590639364423,0.0013360245908037064,-92.59883259246405,1.3464487492906694,0.005212594663391476,9.673811436929155,32.810687558132685,-2.243175108620381,77.11332075378043,-22.029521457631297,-5.044554656273647,62.713882450905814,39.510427721604955,-33.67239223381019,-45.09941994407936,-65.14610986363718,-39.88265678069067,114.3419360757291,0.0017352194665850528,-74.35426074867753,31.607975695427747,0.005791490730774807,112.34019119969383,-7.856136872424607,11.83483256294597,-0.00035423322997063457,-2.679904701962893,-0.4753845339010687,-0.00028966493781409637,-7.6242359750458535,13.640013622072026,-24.498782082622,-29.39625839822437,21.766143068624494,-17.788213872942833,-27.281020926997147,34.524601788816554,-3.744452785478409
4.1141176733694875,0.0,0.0,-32.19374715487271,0.0,0.0,11.833310552473234,-3.2047179515273134,-4.13857997658484,-22.01365050720351,5.995884909851505,-12.025707261644213,-30.81790892233823,1.1041108237722006,0.0010092157113886324,-95.5410083031286,3.109079613976171,-0.008652257327056632,9.903098342493019,30.17356292084237,-0.5842023445049795,73.16454472972126,-20.314723384423793,-5.847719228945836,59.83724982782088,41.605735597146705,-31.975884171318185,-41.753466293162376,-66.34829979801698,-37.07502152237662,114.81633173593086,0.0047845233133184985,-74.36157890683054,32.48071552902501,-0.0025313361205187967,111.70653488879918,-7.94387835593073,11.983241177529074,-0.0049641850509719145,-1.8591380555534789,-1.1661290067643377,0.00027162725036858343,-8.701983480955803,12.523598014995095,-24.56840292842205,-30.304696900448505,20.753801561138218,-18.298532387946416,-24.352629497028012,32.93366905421197,-5.119398584060695
3.143348926011043,0.0,0.0,-32.507086261127874,0.0,0.0,11.16302300121423,-2.574258183190973,-3.7326393578930706,-22.413457226446617,5.210961658084235,-10.157373715018764,-29.957041695835592,0.5251351252652224,-0.001404446623888659,-97.34906553816397,5.446701568172175,-5.641533893739758e-05,10.886680704910122,27.621375839963992,-0.022774836467507952,68.79036490471583,-18.93302761931246,-6.1385966672559205,57.21173493701659,43.35277059089349,-30.236952063329806,-37.68213845825989,-66.53177947342563,-34.55342713140058,115.3678536124083,-0.007536832882377579,-72.02499981192268,33.85397372874628,0.002380092034805807,111.659817239799,-7.643956429823373,12.393946143991943,-0.0011235616408779648,-1.8673167539268076,-1.9376104451671528,0.0002710476603106584,-9.431334817039255,11.91413016587195,-25.135771531338424,-30.87662002793434,20.39029380576104,-19.088342058389834,-21.254922735357702,31.21141011067458,-6.208271788880234
1.9338898975946985,0.0,0.0,-31.92056357037941,0.0,0.0,10.556580725596072,-1.91151872697084,-3.332830784577012,-23.01421514071632,6.220189685422448,-7.893674377580599,-29.09704289226672,-0.32596259945987993,0.0004994600864698366,-98.55682842383398,7.0730599627668065,0.0012100132246666221,12.394793433454845,25.05682587437496,0.2714733428132089,64.64697054074975,-17.906080113938803,-6.4506398683329,54.514764819726906,44.617852195382135,-28.35618452595446,-33.83562946597248,-66.14409975126861,-32.37467738362365,115.91060329508917,0.002356165790367621,-67.79153575223933,36.02816168381496,-0.011820386147085563,112.61597753747283,-5.508405416897731,14.592320804537719,0.01756616616672734,-2.4539613026916616,-2.4459375126798015,0.0016598465227226778,-10.463296055979953,11.19429646242464,-25.20623073399533,-31.80327828007994,19.745222059043417,-19.436309024924302,-18.001271028289462,29.21873331806177,-7.009477921147609
1.4883391337692746,0.0,0.0,-32.03662470091621,0.0,0.0,10.162980238779618,-1.4925923292518088,-3.7013334963321562,-21.691280929872473,5.656421998769664,-6.724600819350261,-28.48413101232967,-0.9043779684919719,0.0014585126517422577,-99.5704726654576,6.58003943545587,0.0034470130981942865,14.04674907962359,22.62841139489564,1.5610698914854686,60.89953146441656,-16.601769771840498,-8.013708671150994,50.913157287349954,44.84688337366917,-26.308734299308266,-29.782937395252254,-65.93401031714033,-29.283185435278543,116.5493383851182,0.01901280279355901,-73.2188716805714,37.85725890133203,0.005836212648641508,112.88805737722825,-3.422329858579762,17.230100935741927,-0.012290500491525722,-3.5154012957356646,-2.9984045951345872,0.00013541793302439907,-11.621516361321897,10.585050048303865,-25.308847843119235,-32.8694133519807,19.21416426581422,-19.770581812114326,-14.912199146247016,27.06729168155721,-7.104458447916406
1.1203827243395654,0.0,0.0,-30.05123637705527,0.0,0.0,9.880070402751763,-1.396870611612766,-2.9977093204175658,-20.96649227877182,6.389929095850727,-7.586665449410592,-27.592189774604496,-2.1806187154474594,-0.004513952562556144,-100.04060253984336,5.589976122356853,-0.0017824130820042819,14.889374711947093,20.25887145716996,2.6071648891837107,57.282972459067864,-14.692560254414095,-8.845367468711538,48.27754564151823,45.598411220912105,-24.917817256019205,-24.3243278770561,-65.63618553910074,-24.7173779174595,116.94011715408975,-0.0027278473901745227,-79.88416361885636,39.291307445141214,-0.007009842865022252,112.17318278662248,-2.070542831715304,16.723053726390823,-0.027747829850768502,-4.004187069265225,-2.845009502066722,-0.0005445789941024456,-12.356778792500577,10.330616411542314,-25.779908802398495,-33.50795189691774,19.14446662054836,-20.325263467942268,-12.656339647638445,24.186706577078244,-6.110153894257098
1.1004855771057724,0.0,0.0,-26.677416969374903,0.0,0.0,9.071526172128758,-1.296349002653129,-2.055378386705281,-20.64495616109228,7.258623556211403,-8.362036566571778,-26.578409773725486,-3.2927675525290545,0.0018974188753792215,-99.8605289334288,6.147083122494937,0.0014889530038213225,15.200226720776726,17.708103897922335,3.7901601660140396,53.136620976408885,-13.114910500943399,-7.681629255872318,46.42250385763103,46.82833008767487,-24.43454199974169,-16.72696953898241,-65.37944250489564,-17.935457352408978,118.11855929701231,-0.007639462233042027,-80.59251000561753,40.587286669684715,-0.00015214048934907118,111.357686172141,-4.286922278337545,10.753757216809195,0.10195743409507615,-3.9221061040434515,-3.3720205907310765,0.00012223159187829457,-12.523170409443837,9.9285714119205,-26.10308445662159,-33.57901995610157,18.883924687624347,-20.79230125965401,-11.147515356056559,21.17851564036706,-5.221901957762056
0.249334812941042,0.0,0.0,-24.866793521855016,0.0,0.0,8.088737362822346,-1.552009163510621,-2.565070261316044,-19.203291523114267,5.7835191835231745,-8.922500739414925,-25.533704165701643,-3.0416444450898523,0.0013820990895371354,-98.64243951280758,6.920775758486519,0.0004992961546762866,15.884213275341663,15.102835855983002,6.4981887200509965,48.45039512553831,-11.953928335723287,-6.50676199472376,44.774238575288145,47.67832067992051,-24.756589517000123,-10.404417153549954,-64.97011987441519,-11.468140018282305,119.44943518416686,-0.001288665767266894,-79.0214017948259,42.89935573336046,0.014803852691811467,108.41491356454955,-8.433838138204333,5.275438245815806,0.000736970316093253,-3.849362809770903,-4.227805301524728,-0.00018397051824651516,-11.992332158541487,8.94481160158729,-26.301448536797256,-32.90213072398105,18.035471101819546,-21.356291287825915,-9.476059294581344,18.4918226557741,-4.582402936383108
-0.07249785131513313,0.0,0.0,-21.96872596650959,0.0,0.0,7.338292252834887,-1.4372377687039102,-2.5642125292510287,-15.474758290299764,5.299104809968546,-11.489335276691575,-24.43114661292954,-3.483510259354931,-0.0024484900691708364,-96.5539472458097,6.631573980840861,-0.005399830520126635,16.67016688949774,13.423877223750194,8.385156348648136,43.57772249092746,-10.885846580561742,-6.72840425230039,42.61009903489683,47.59996601369788,-24.759161424143798,-6.353583093019031,-64.75519168817632,-7.22513494322793,119.72286765119806,0.0014789812088507415,-77.80872662448841,46.09872735524704,-0.007832662805735987,106.78663953544256,-9.986302449249331,4.960086147032818,-0.01771712103525935,-3.864520741977785,-4.061128344749751,-0.00044876524586189335,-12.113660212856841,8.016683614225188,-25.597542956026356,-33.02011704033673,16.920007122574546,-21.02169997319682,-7.6459001981399375,16.64771136576529,-3.225198296808493
1.1167246021585082,0.0,0.0,-16.359253504151322,0.0,0.0,6.779929192195638,-1.124169304399404,-1.6575288825793697,-11.498027794441503,5.784280477538795,-14.464046844167669,-23.903461135663747,-3.9338737883730728,0.0004915421351924577,-93.69380081139346,6.779271376326799,0.008762192440309104,17.582905026721956,12.129920092195908,9.602472522781236,38.52192114555445,-10.165929417071217,-7.1531730166797916,40.000236147013766,47.617801059867254,-23.86079277657144,-0.6426762290173542,-64.47311650538477,-1.5657150019016242,119.45064906948276,-0.00393669921750952,-78.92824582693882,49.15242841014641,-0.003351955302723961,105.9578819814405,-10.69790492794809,4.614542209504787,0.006123980381054767,-3.701538631928596,-3.6360422502586394,0.0006606405733557992,-12.502130362819361,7.308481559023218,-24.380405527222916,-33.50289634731502,15.827255518297255,-20.111548855493318,-6.015498953685327,15.33530944191056,-2.1131675248273685
1.5403834805112666,0.0,0.0,-14.319877181804605,0.0,0.0,6.699314378824636,-1.1805928188781882,0.6403463825652872,-8.976078974526333,5.418061845948891,-15.946470454223014,-23.854435655088036,-4.030325576266551,0.0002174073920968459,-90.16670239593866,7.058245986886178,-0.008230484448607037,18.957049316195953,11.08326689095363,10.698415987095752,33.71672815413615,-9.60178012924999,-7.681480679098458,37.34644146900477,48.24085699031598,-22.24282346353551,4.988343043354402,-63.907550561274356,4.2287694165689285,119.52526730750574,0.0009698015801827257,-80.8092668986648,52.91382825073153,-0.006912331106740114,105.10428988832817,-10.162808339294706,4.29425016050629,0.00010657620997100918,-2.99204881398574,-3.660331635266895,-0.0002402013344611898,-12.31029539207801,6.4345286445469405,-23.100028285303104,-33.394814631929464,14.555162009301279,-19.207336157383036,-4.346602747631738,14.259042189924234,-1.2234612281022765
1.3889834358250897,0.0,0.0,-16.3211515621432,0.0,0.0,6.571856071792438,-1.462892927148938,1.7516444894464183,-6.1233791937857065,4.4678254612975135,-18.140394735251256,-23.700559751381967,-4.036514836675282,-7.515648897886395e-05,-86.64376489547469,7.201807531517494,0.00211794347964577,20.057320451320475,9.770242836522426,12.028164555458629,29.171778458533854,-9.297898764422827,-7.9349588493486465,35.06164081272899,48.35017985632529,-20.981903070188057,8.626925132544141,-63.65157312306879,8.340667760115421,120.34939699142795,0.005609257595798116,-82.3646162703443,56.91659858003021,0.014924878825361353,103.11803103663811,-8.762019078185737,3.4246336047239603,-0.0013438717554292113,-2.686598049324767,-4.524350210898345,-0.0031939967298511914,-11.956712759198998,5.779136362696703,-22.117466600820123,-33.10598992174265,13.591793347145337,-18.511180772960984,-3.1089854417302774,12.75854897051608,-0.12362850671003354
2.2035539734439444,0.0,0.0,-16.265434334148633,0.0,0.0,6.282406587894537,-0.7450271726332424,1.918889659798232,-3.198685526595408,3.961176288025603,-20.76219964704614,-23.586455303799845,-4.435253939908727,0.00037153564036624683,-83.1559521815485,7.998610941947486,0.004707701094242054,21.034277964942447,8.387376921588428,13.088136359823526,25.0126579026707,-9.099346046318193,-7.329246112908238,32.99855378658387,47.80539619503294,-20.24896562393656,13.488831318247067,-63.196977063680905,13.385752784104541,120.83209700617155,-0.00046597767468240815,-82.87110760884325,60.647891087709,-0.0019522256073992933,100.78742233487255,-7.732243207593823,3.871253431579992,0.006221391455817666,-3.630472481580876,-3.7326676831265218,-0.008023329052503716,-11.514047495237172,5.805494863223743,-21.694622651901945,-32.7173455865027,13.464416997351877,-18.097899632847916,-2.291979314927297,10.738806165954642,0.8187389781134037
2.158102568485127,0.0,0.0,-12.821289412221187,0.0,0.0,6.4139176925198385,0.3242439462856685,2.7629554044515827,-0.9607192562775271,3.5108021843633805,-22.593725456407338,-23.680125343769937,-4.980962846412189,-1.9983100913371363e-05,-79.08277579465683,8.578514819006868,0.0046671617674039975,22.364877739791297,7.510645128454572,13.86970919825031,21.364821173217607,-8.462605756597092,-6.92307333718508,30.986382703677155,47.50697950122789,-19.60012241494854,19.568039871954962,-62.08033665303575,18.926312262666627,120.53042825163413,-0.0019365812829994164,-82.93702494535724,63.91109608872693,-0.0072023034298266606,99.41158105616155,-8.42397342409762,5.850990951945354,-0.007188680414844105,-3.6696456563116833,-3.3841689985456127,-0.006338239000444093,-11.033798359681136,5.976155216470601,-20.563788408972158,-32.38423637426922,13.215235578017605,-16.957036226392887,-1.3198609674586954,8.799706890865096,1.4695467654435725
0.5200394189055987,0.0,0.0,-5.421903797309832,0.0,0.0,7.059710534195696,0.13846223058785415,2.794133006040384,1.964217234982484,2.4146502448397325,-23.104724501840117,-23.778043503748975,-5.105553830163083,-0.00015804352362431566,-74.42346610982351,8.06427034494313,-0.018193201118961177,23.548082499962927,6.512164552811388,14.790972609485458,17.37720851744196,-7.9496150682523705,-7.758852575184488,29.4121171638336,46.90350239958229,-19.545398127124272,24.716779821321357,-61.00166520190198,23.331106144260747,119.98248543900813,-0.0010830879894544322,-84.0766878090348,67.24193366379947,-0.010434279946605922,98.3746221778159,-8.904942849321326,7.294199989587105,0.005186106754921936,-2.8241392676002013,-4.750452513153767,-0.0024938439382781617,-10.308162923700264,5.908532215712477,-19.11373708823006,-31.81083383695868,12.62539121685789,-15.604891770992499,-0.6470585705427431,6.797949477896772,2.234881995102643
0.9926618709664135,0.0,0.0,-1.8191394715206288,0.0,0.0,7.530031948860152,0.3964045863587761,4.166368406568367,5.340505777807744,2.0808930662998435,-22.78532027482819,-24.23180587870862,-5.7438276294692505,0.0007054926953511958,-69.34783338450353,7.603832231146284,0.006733242014968779,24.972179438632153,6.005145240200366,14.8764467266791,13.884489002453897,-7.538571316273918,-8.063570841676574,28.1951848950092,46.1434791569955,-19.761270605610065,28.7086441867995,-59.86326593495129,26.756735079254618,119.61837531569638,0.0023781040017513853,-84.9876342788055,70.85021285366753,0.007413316908646253,95.49765943047193,-7.6152334269170625,7.275440535591557,-0.0005199960187830629,-3.171788570389101,-5.592850108273074,0.002653143500155271,-9.353740044950113,6.126747201065634,-18.122499453335028,-30.974354189246053,12.466052715205418,-14.583535852691332,-0.10766200685876853,4.780036122052161,3.79568765573354
2.560233455450562,0.0,0.0,-1.5188884342003977,0.0,0.0,7.2130124517902665,1.528041878812954,6.705845999884622,7.829057615205582,1.1868611773857851,-23.01145073087484,-24.86839911019091,-6.498147257713353,-0.00048112965222513865,-63.52004451812717,8.29088053342613,0.00829825635251481,26.43605817235576,5.802532042291255,14.999829133901525,10.722521290891796,-7.783722983972791,-7.654727844908328,27.74108185645515,45.163267227687484,-20.319740380731787,32.513375173902965,-59.083867756195296,29.97195872894963,118.57690798778363,0.01058740867327033,-84.98460063628728,74.02973694454907,0.02298277367503639,90.47232336182411,-6.848240335094152,7.186910718237433,0.0022283347114956543,-3.335957629169519,-6.638925208787201,2.648003499310671e-05,-8.641263674470766,5.827899835865526,-16.834804415026795,-30.35910883219485,11.715421543482456,-13.47919697406684,0.4954962728590934,2.9070695699633435,5.5597074737675465
1.1929004085235293,0.0,0.0,-0.6363229741231253,0.0,0.0,8.05434714927129,1.6387261845702907,8.2090028722039,10.417561733424392,-0.05870175958144579,-23.393766861657202,-25.581125058496,-7.364374269219063,0.0011338817043401947,-57.321415277008754,8.749495013247168,0.0009055509855803153,27.37104824944577,5.416857454935542,14.910683363557864,6.896046729633316,-8.657609019518143,-8.673932347482479,27.83511955368035,42.91488079204911,-21.826762144014435,36.790163188758555,-58.7908894026917,33.832394244007354,116.68425733341115,-0.014473609621099915,-85.77537362159741,77.5058095291361,-0.013031726632520686,87.21513454246005,-6.829496881418199,6.622666089199079,0.007183017636952741,-3.228839130974869,-6.222487872649595,-0.00943522448774092,-8.423717198032149,5.5431608952156575,-15.509262824543892,-30.234718064714315,10.961881710995982,-12.337494129051628,0.5727588980187398,1.0418530285784786,7.0412224606784015
0.34732141751178686,0.0,0.0,-0.7167215501825192,0.0,0.0,9.070939567591346,1.5876700451604875,9.823208189713098,12.802259654860153,-0.681450562362625,-24.151400577191392,-26.34058930906213,-8.223262276222673,-0.00015580284615898204,-50.75639638892361,8.632641260601247,0.0015440360539220517,28.958411543033513,5.3055864245382,14.577422601782592,3.8529915879009775,-8.886319110676512,-9.924848449862171,26.833599212951537,40.73813420390834,-22.401820235183962,41.43460392991238,-57.91657339702417,37.72732191590787,115.73885079291726,-0.00024301599153799837,-85.86801602528011,79.79778975866631,-0.019495002134627737,88.24751544312512,-7.652295697490713,6.073875888929111,0.00031402835360216095,-4.660056758742011,-5.5560208760317735,-0.008250602152025603,-8.638795368836789,5.67732422091554,-14.043989554174704,-30.57301708386635,10.543086541151858,-10.909162879367095,1.0412517704251387,-0.634423942319493,8.210456580371638
0.8536550620112153,0.0,0.0,-0.5221789040209325,0.0,0.0,8.862876821311787,1.96803563570045,12.915017518289803,14.613023511625855,-0.8493894073494591,-25.295043421064577,-27.07093912896822,-8.58307271019432,-0.00012038809860061509,-44.007398682140604,7.771321502826117,-0.003495151051104657,31.51030686746015,5.509323361818524,14.192025072181485,2.2564711378031963,-8.282839547404249,-10.81119890192695,25.616788480112785,40.22676151239459,-21.579325887528952,45.711882024072516,-56.29992900140457,40.3411328764167,115.13969268331145,0.008159932419374358,-80.67313816731459,80.0704819826068,0.006425905128191238,86.05572447178842,-7.862846312326071,8.800213423145816,0.002783314401355497,-5.729598981111343,-5.875882779125506,-0.005876425063913525,-8.529022295970744,5.889541726800552,-12.498444182126644,-30.58251834393627,10.163969495272983,-9.379002517187816,2.2056140318362356,-2.1257988557199914,9.005724407209096
0.7332859043782541,0.0,0.0,-0.01419903489110456,0.0,0.0,8.66778997402122,2.741117003645057,15.153689933759141,15.847146300743054,-0.4303687890497462,-25.409475064597654,-27.593449916663136,-8.731749475543578,0.0001546415611045424,-37.57858926101905,6.155291086788923,-0.010809298184807177,33.292805736198396,5.595954511161457,14.064681185413972,0.4209293612695124,-7.679815514356023,-12.536668780322296,25.094716177006767,39.62982129451365,-20.673630004309384,49.46230149151789,-54.82240684652563,42.94496615519011,114.22219341644966,0.0012218396314587635,-77.71336464337595,81.41767140278945,-0.007555400976633319,83.28133176999631,-6.877623099804822,9.171106203048133,-0.007058274175577636,-5.399547477873431,-5.312724468507639,-0.028864907957564884,-7.414455688567335,5.8513376343338335,-11.22951662990922,-29.53999898872351,9.653862990137439,-8.206261489956926,2.547447016441146,-3.5929271530762907,9.499692322379206
1.6129267529107014,0.0,0.0,0.6803393447812742,0.0,0.0,8.211704097372925,2.2195497238288984,15.505130987678353,16.266742248721545,0.17998677455946815,-25.02496242911365,-27.94825170046355,-8.419635198980298,0.0007584833673385464,-31.1444234678117,4.780805603762824,0.0002711536441504531,34.316161203480604,5.622778513382244,15.450528566119972,-1.592783220824005,-7.406832642255103,-14.100611484326105,24.004975738718034,38.215168533378844,-19.703757336742967,51.89073982812767,-53.6995264486685,44.92834354881684,113.46488654226742,-0.0022839900633571286,-78.18889653554912,84.12148901836369,-0.013616215186670024,83.95231380993604,-4.489559975836353,7.951784889742739,-0.0029965549998695047,-2.538853014971335,-8.299991193529715,-0.04661427168230583,-6.393426731977809,5.888307080791494,-9.829336927114682,-28.59180964626351,9.162663692146484,-6.884602875562166,2.7011035547452473,-5.116608917033096,10.010724421777192
2.312323337353859,0.0,0.0,0.9159924919481544,0.0,0.0,7.670771834996485,1.7704680813139064,15.893768665019428,16.187123481568452,-0.22039257130788042,-25.847780280424605,-28.546784593139307,-7.697257466946993,-0.0012568414416615622,-25.370472463770394,4.209259885372385,0.008124792288451624,35.8869798348971,5.641016103638198,17.12236906473844,-2.5070273078769127,-7.148836024040653,-13.575328549562858,23.683300035650547,36.40228464419226,-19.125702484817587,54.62275513358759,-52.636928430168915,47.11728058508447,112.59787500355569,-0.016634815604490937,-83.1478757186899,86.54681815171584,0.011343033666334336,82.23870896153227,-2.9036102832824136,8.277716886703802,0.00013294805519745536,-2.219825986822094,-9.40388199951958,-0.0031222203910729047,-5.658813978443004,5.830726818374502,-8.188523797337467,-27.92095902980642,8.491802825585482,-5.377625336328699,2.946947104225966,-6.348182347236087,10.553052467745466
1.7282945609788716,0.0,0.0,0.24193837914135316,0.0,0.0,7.581090975213911,1.1460497288314602,17.42410059393555,16.21234099199516,-0.05695382484313349,-26.8395530702268,-29.450893817197013,-6.478903751791351,-0.002148298406380042,-21.054012250972136,3.8462825449931652,-0.00020292204596035831,38.21217205385902,5.566350965733479,17.771752443268195,-2.289843285858209,-6.779666074546801,-12.755034046910668,24.41475210703731,34.29438436859233,-18.97331519146325,57.20277257583954,-51.23121002335692,49.03796870611975,111.35757205325976,0.015538923944422843,-84.34102930908108,87.89745545458909,-0.005592328853948721,78.05995839345236,-1.3964769159889314,10.16988382088461,0.02214405138115871,-1.969203563368957,-9.222111623106779,0.0036195513272293083,-4.916941066544901,5.4045575570948445,-6.422014070792884,-27.211072955858935,7.430944234795344,-3.898137923202778,3.150490994276948,-7.078854656789137,10.632267411859656
1.3355252902648982,0.0,0.0,-0.03467217775475976,0.0,0.0,7.397791522680253,0.5178709075307603,19.042357788510966,16.18553566862601,1.3630441937949331,-26.231974325606647,-29.744930652160168,-5.552771122391608,0.0012157334032272705,-18.179885711971703,2.928308813644129,-0.003674118470156281,39.775480071904404,5.62945888573841,18.07562442934682,-1.8457179894309963,-6.528624761724669,-13.387183235614543,24.864304343775885,32.769056308707114,-18.93088137045635,58.76936834702244,-49.2445914333511,49.974909566320555,110.54463589360321,0.005292418979131423,-80.18380017043357,89.4809854683441,-0.0033733665000298795,75.76030675092831,-0.20503580177513114,11.58493406947836,0.012774896539285381,-1.9516870160393502,-7.5451941636381665,-0.013832667016891136,-4.282820043036567,4.578378995040228,-4.343257630692462,-26.583109890786663,5.880795124556941,-2.284684100839241,3.0800649950595256,-7.661841167313311,10.606848565125123
0.9349372634125749,0.0,0.0,-0.09645759259645327,0.0,0.0,6.821883624622123,0.9212988605619578,20.28424640638385,15.282880818050648,2.2948836450644308,-24.62132956796559,-29.657189752559027,-5.124453033516142,8.81264869435936e-05,-16.043527324524753,2.2874239397409415,0.0024161275643961285,40.57815799294054,5.697385803345599,18.656434942659725,-1.4323089788186725,-6.584025882844765,-14.417384161770862,24.80366761047717,31.719834303510996,-19.162163298452477,59.769652046106344,-47.229861349091394,50.547248056407746,111.09499499298552,-0.00037442860050375664,-78.84369110321887,91.67830565916981,0.011034278140246772,73.1712170123461,-3.669512494110507,9.552248009828977,0.027939154682127283,-3.3345955541503227,-4.972371724874234,-0.004730651663573435,-3.977099213221078,3.8805093059152056,-2.3003515304255187,-26.273349576816187,4.46206223425483,-0.6578690381279833,2.662458932287898,-8.277727763013786,10.569660392665645
0.2895724225977255,0.0,0.0,-1.36531012786766,0.0,0.0,6.480362375131303,0.7842385276938293,21.06441252986658,13.856616456542898,3.4043040247311644,-23.71988459762631,-29.768597060658898,-4.798465698361101,-9.734938036330699e-05,-14.34275606664732,2.214636410234835,0.0012749080837130943,41.29899127574572,5.912955869252253,19.625520950891996,-0.773655214616852,-6.813697929582332,-15.04693588490393,24.587898726895354,30.732197921957404,-19.14354795240879,60.670903756218394,-45.30501585835893,51.20119500717548,111.79614201362007,-0.0038373823288233807,-79.54967107408885,93.66648576197731,-0.00466461945332894,71.17872349072684,-7.051770797978154,8.134545306781993,-0.009830132291657244,-3.8457417675392556,-4.003275094441154,0.0033021113308113327,-3.4108812621320577,3.233216950277555,-0.436934206724782,-25.689780448389936,3.1577508190833914,0.8207882822079784,2.1495796112765255,-8.933357193104534,10.252114545182401
0.29687471722462677,0.0,0.0,-1.6003913704247121,0.0,0.0,6.013915999222303,0.7638674252952095,21.148688549909785,13.957279527836809,5.032929210165359,-23.836739051315185,-29.67464516569789,-4.810679573839096,-0.0002915651311905686,-13.509323789268988,1.683895903091039,-0.0010544206168666846,41.482230696418355,6.491059764908423,21.114466583038052,-0.04930492817016912,-7.0475750438946925,-16.390280191936437,25.61180668315431,29.46099316327144,-19.741029171999436,61.53302419914441,-43.450914825414834,52.494076177637695,111.1847855548485,-0.011796589976290078,-83.48127399478503,94.90123731011789,-0.0054108320391480355,70.82990587043052,-7.730318512692719,7.527731159948328,-0.0059392057486036785,-5.695467246838097,-3.5597884528487,-0.0019492743072108357,-2.613165598334424,2.6822827754768515,1.388921647666564,-24.86389966427193,1.9569954321425747,2.3009967538571385,1.5899935304019017,-9.591112261537042,10.168419282860267
0.4401101582879637,0.0,0.0,-1.7616980761826788,0.0,0.0,5.337119971458048,1.3589236341829698,21.84099313988128,15.83507327416364,5.049807104792899,-25.366078780764415,-29.431412586406424,-5.331342593491816,-0.0005285307711824135,-13.02973321983916,1.362200135226923,0.001295769241473676,41.47287900088529,7.237638517765141,21.787962749498572,0.4006539265019979,-7.104088801283428,-17.034139740520377,26.469983111980426,28.478495462377534,-20.43967283449448,62.300348523552465,-41.585805613687114,53.92174502473776,110.69360300408225,-0.0006175545886250848,-83.26294760470768,95.58241400831167,0.007202434825770782,68.42213794866561,-6.828597638798915,8.218244309095443,0.008289325758569391,-7.150040737717105,-3.6390229880046556,-0.0021964251375124542,-2.321800726518042,2.856113008002925,3.306159225084601,-24.53366062610403,1.3933069888785161,4.140178047136411,1.1218196051695934,-9.964315382072593,10.03222333596807
0.5875266019171932,0.0,0.0,-2.735962788066495,0.0,0.0,5.206372537076773,1.4650697964581179,22.921664878220117,17.656086441806792,3.1317641889487753,-27.202670384801806,-29.76566633928713,-5.993924006281804,0.0007855367527661884,-12.174995636442228,1.6812296775464395,0.00036624647876441036,41.92439620507971,8.259454693034032,21.736463071544787,0.5927642811229874,-6.733525282860641,-16.05167630159659,26.41378718376701,28.240964569702065,-20.52142312817376,62.93033394392512,-39.5945201463666,55.1454040862041,111.20760586397655,-0.006462676987870261,-78.3945507016146,96.78570172710673,-0.0020086273324739943,66.74635374098412,-5.827231530915604,10.5658557900731,0.0025933215132976756,-5.941391757980467,-4.208853646735247,-0.0016034818609113322,-2.275893757663284,2.6485949202168992,5.554740743047415,-24.410285714946532,0.3534021731438867,6.141970377663336,0.7020787814317656,-9.738438899121824,9.29019248247777
0.4529462761335371,0.0,0.0,-2.1034247090539915,0.0,0.0,5.209657130966793,1.7380851054493665,23.03719919227,18.88550832869694,2.584364337738894,-26.593398842738658,-30.666654465451956,-6.252035789643495,9.352525949650475e-05,-11.717017501263955,1.2137670875807314,0.0002750830827955125,42.484800601212754,9.440307393629636,22.02559028206269,0.6892477115247336,-6.063437208418275,-16.00846037260761,26.94661866398656,27.730401575310406,-21.422489921108205,63.45213035639567,-38.26015248799478,56.54280784926721,112.01401981508432,0.004665627167574539,-77.99937795155857,98.14244236684073,-0.009360130876706932,67.68969482597761,-5.698941980027609,10.471351826923495,-0.003506189277441569,-5.6251746036669905,-4.516606135901056,0.010603036786196143,-2.542087326425063,1.962936928476205,7.073164819976657,-24.61039041656948,-0.852721119739372,7.28972029434894,0.18346079433588677,-8.999695384755888,8.702570501837357
0.6529220697447958,0.0,0.0,-1.2477607026104145,0.0,0.0,4.904862858667158,1.742321602710808,22.353073909116947,19.525525014585874,3.474009970323701,-24.229724052961338,-31.34549291390156,-5.782747275114752,-0.0006204873790510043,-12.19234003954105,0.881809069879016,0.0005950438935312169,42.77385530566744,10.43901458004291,22.582363650401195,0.7379162803947157,-5.659237384860717,-16.95672594829592,28.260588946121924,26.781075665549313,-23.377960469524332,63.421327129507276,-37.56938935027092,57.22482659087707,112.80497193527431,0.0013987536480748464,-80.14521427973425,99.36919387440489,-0.011282136490564924,68.43308663393135,-5.7431503204284295,9.57886757214654,-0.011900635893370792,-4.518607427484382,-5.646483925230264,-0.02232018785725325,-2.6980579109152165,1.2012682893191935,7.7659650684333315,-24.738919243194132,-1.8186898267154836,7.645675108012506,-0.6150386356153645,-8.02243451130679,8.648717079748263
0.9113862867045514,0.0,0.0,-1.1511865083766,0.0,0.0,4.69351850971028,1.0310858502400986,21.71594825292626,19.62835632500739,3.7669782888396006,-22.389092097745866,-31.393121813226763,-5.051365819160613,0.0004177656489236612,-13.278751681573144,1.429733954034633,-0.002537967556670321,42.710233277950756,11.351730568443692,23.174793268988914,1.123827520504788,-5.531773250111912,-17.226692670733712,29.321917734811986,25.98555973855202,-24.938662620631934,62.58822714131604,-37.544058479090765,56.697031457790466,112.54255174434182,0.0026196356560820593,-82.5772707053586,100.70961523237101,0.028895294419519806,64.34499859247776,-4.938447812407183,12.458306135850364,0.027041149065526265,0.264450261099891,-7.492605987328844,-0.01383570264465765,-2.4370872745208034,0.06047750730406139,8.507328929987903,-24.458539739175986,-3.1542511910330404,7.905201168480746,-1.5154563276447288,-6.77612014094547,8.838094083018829
0.4039459998599345,0.0,0.0,-1.3882629601904402,0.0,0.0,4.279043509271998,0.3821886179418235,21.94778298529129,19.82845793965272,3.0759965265094773,-22.2275295087959,-31.233929873533476,-4.8357537022025685,-1.919401936564144e-05,-14.872995192913743,1.9654089222974631,0.00028419772645802777,42.953611100819586,12.2941461699364,22.903118923357987,2.2476997159723604,-5.136413172876358,-16.218454418450182,30.956407277618,24.86721387347936,-26.154103195511876,61.530980300813525,-36.61247442124398,57.05064888423841,111.09479029600874,0.014209892621856127,-80.97929132444679,102.87605987547786,0.004768234317774332,59.68437688918154,-2.4524717701109204,16.075299425839443,0.01172500349228452,-0.7422729333306444,-6.563109161865271,-0.03099207679193802,-2.489694041509702,-0.5769981709181788,9.448341516422275,-24.475234043518412,-4.0978520409708175,8.540099437853288,-1.981710028496833,-5.565920048974082,8.654043278213294
-0.4535818138371735,0.0,0.0,-1.8749168701744674,0.0,0.0,3.377499378170906,0.49209652244359314,22.39726803030275,20.015555032862952,2.843494337651098,-22.592994987110483,-30.68574299972689,-4.89286549287828,-0.0014732813787698693,-16.073305683323714,1.964367260355349,0.0008535375810296995,42.87407518523961,12.769498824732533,22.793717540569553,3.1080734291593557,-4.800150021888452,-15.326708210259739,32.52095280104532,23.29094235542466,-28.005753876649642,60.559960272560566,-34.62864651094741,58.02130182203303,111.07907717158929,0.003246693433635087,-80.26304913005077,104.79402196562683,-0.025976345948067275,63.905995333006146,-3.3303182301058785,13.497784240023503,0.046134548814312,-5.758972993916839,-4.872845596699635,-0.0010724215588484233,-2.7247164204712315,-0.4949558251251907,10.411828860551559,-24.650735181967388,-4.381989210007964,9.466879011893484,-2.2873169512269866,-4.961454861982906,8.170567433253217
-0.45953635764076833,0.0,0.0,-1.8857284122353695,0.0,0.0,2.1262762146357486,0.27366991797062634,22.718736952947758,19.926734469971638,2.8661335139137676,-22.929839897819004,-29.565676542172383,-4.887593929903103,0.0007002326610645634,-16.562297882636322,1.878620646139966,1.0155092274360313e-05,42.34884300890454,12.637652818482863,22.909966204872653,3.495477515909079,-4.8081654960581925,-14.84727699716393,33.650721176373914,21.886002472144384,-30.209184736366886,59.074490028468624,-33.429555607464266,57.1662162453641,111.51491290072084,0.0012828839391287507,-81.57944551624887,105.26440138279187,0.009401491592201341,69.6954189756899,-6.096944549138408,10.223129199064665,-0.0010600562965992525,-5.659165669728212,-5.01183378247462,-0.0025792218297625855,-2.4000659663945867,-0.5780530846625591,11.175862160482236,-24.27915158015712,-4.744087066898856,10.146889752666658,-2.7048149935270356,-4.725904341026553,7.96857364788665
-0.747862566313576,0.0,0.0,-1.3826805205841894,0.0,0.0,1.360531421641814,-0.6042739570575207,22.482566623499505,19.506050510606343,2.7021371997513093,-22.605714810251612,-28.59004330788842,-4.353627944451062,0.0008046166953989337,-16.48456851021397,1.6784538333690218,-0.0003231550407511588,41.898930582123135,12.604650239335335,23.402222316727276,3.6114178073160157,-4.621974685478115,-14.831120068880617,34.31579407182583,20.793783542293127,-31.546716922474964,57.643676070800595,-32.458892997132644,55.81943438887895,111.57566040090084,0.007402254835896151,-83.12082654566129,105.26303119077043,0.0037711873708686527,69.3524380491461,-6.585000402919426,9.36922360490847,-0.008205420403163575,-4.313422825597947,-6.477686015492699,0.00016306845601300995,-2.0290632203055576,-0.7380383625146529,11.48106802857437,-23.892582449937272,-5.006246419601672,10.371324520181904,-3.103622083315892,-4.4696759497256515,7.916232731928608
-0.4860166667301562,0.0,0.0,-1.3154396546240532,0.0,0.0,0.7098973587813712,-0.9184928637293608,22.957141985911452,18.9832584944172,2.4601265633180405,-22.178092218690562,-27.65010572074289,-4.19859256090982,-0.0013579277032116043,-15.928268086738594,1.4009765546835191,-0.00010753751889955413,41.437951231529006,12.950922099587002,23.359891111004195,3.4381575048452815,-3.971398669940675,-14.66341946797471,34.634845982526066,20.160552359466536,-32.52064715532205,56.20524553804237,-31.302480798338287,54.947291918843334,112.08766739903191,0.0009107346836757394,-85.06685834091802,105.96546602236268,-0.015520438314040153,71.9888838314647,-7.033626182900753,9.606151336001096,-0.0014231888709871983,-5.552233421206803,-6.600413076747956,-0.0037226361293361044,-1.882094158582858,-0.39113246262014273,11.523860700157304,-23.731697605572393,-4.700201337106097,10.540788653651038,-3.4608540864349426,-3.899187625118258,7.864533818634913
