PaulMeinheit/Bachelor_Muay_Thai/processed_Data/N3/roundhouse/scaled/JointAngles/scaled6.csv
L_MTP_ANGLE,L_MTP_ANGLE,L_MTP_ANGLE,R_MTP_ANGLE,R_MTP_ANGLE,R_MTP_ANGLE,L_ANKLE_ANGLE,L_ANKLE_ANGLE,L_ANKLE_ANGLE,R_ANKLE_ANGLE,R_ANKLE_ANGLE,R_ANKLE_ANGLE,L_KNEE_ANGLE,L_KNEE_ANGLE,L_KNEE_ANGLE,R_KNEE_ANGLE,R_KNEE_ANGLE,R_KNEE_ANGLE,L_HIP_ANGLE,L_HIP_ANGLE,L_HIP_ANGLE,R_HIP_ANGLE,R_HIP_ANGLE,R_HIP_ANGLE,L_SHOULDER_ANGLE,L_SHOULDER_ANGLE,L_SHOULDER_ANGLE,R_SHOULDER_ANGLE,R_SHOULDER_ANGLE,R_SHOULDER_ANGLE,L_ELBOW_ANGLE,L_ELBOW_ANGLE,L_ELBOW_ANGLE,R_ELBOW_ANGLE,R_ELBOW_ANGLE,R_ELBOW_ANGLE,L_WRIST_ANGLE,L_WRIST_ANGLE,L_WRIST_ANGLE,R_WRIST_ANGLE,R_WRIST_ANGLE,R_WRIST_ANGLE,NECK_ANGLE,NECK_ANGLE,NECK_ANGLE,NECK_ANGLE_SHADOW,NECK_ANGLE_SHADOW,NECK_ANGLE_SHADOW,Trunk_Joint_Angle,Trunk_Joint_Angle,Trunk_Joint_Angle
X,Y,Z,X,Y,Z,X,Y,Z,X,Y,Z,X,Y,Z,X,Y,Z,X,Y,Z,X,Y,Z,X,Y,Z,X,Y,Z,X,Y,Z,X,Y,Z,X,Y,Z,X,Y,Z,X,Y,Z,X,Y,Z,X,Y,Z
-3.5145700000000004,0.0,0.0,-5.741530000000002,0.0,0.0,-1.2351300000000003,-2.12129,14.107200000000002,14.540740000000001,4.044020000000001,-24.126330000000003,-21.569400000000005,-3.007200000000001,4.000000000000001e-05,-11.145,1.01043,-1.0000000000000004e-05,36.97578,8.678490000000002,18.56818,4.960530000000002,-8.105990000000002,-12.173910000000003,35.95052,15.775390000000002,-28.643250000000005,44.36528,-13.13144,39.98031000000001,108.16967,0.002310000000000001,-86.57644,96.80339,0.0028800000000000006,78.07772000000001,-11.09607,9.591120000000002,-0.007180000000000002,-3.0164900000000006,-7.49941,0.00073,3.3728,-0.14570000000000002,15.539860000000003,-18.138960000000004,-5.956330000000001,14.379800000000003,-2.8308500000000008,0.13618000000000005,7.259210000000001
-4.400152946250473,0.0,0.0,-5.229633449344405,0.0,0.0,-1.0762021198971967,-2.3903241295745024,13.85265028202968,14.471993676457894,4.111195302473333,-24.237323081264755,-21.591179416456185,-2.88310768096584,-6.541871637113662e-05,-11.30799866483682,1.1381834249794913,-4.625631744048412e-05,37.073865748318596,8.939642328017564,18.755597010672222,5.1719372632534215,-7.961894011433467,-11.88164496926351,36.27442801162036,15.781109170318683,-28.484962955729536,45.51424608505924,-13.075425036503162,40.6410547465139,107.81935917093178,-0.0018165055924814861,-86.45480277808464,97.92614136670346,0.0012636397908551793,76.86069273195302,-10.518234798660309,8.036485941676506,0.0005977037835512872,-3.8730074336554385,-7.082746061088248,0.0013095768948254163,2.9465758982608583,0.09751872909124518,15.385853671850818,-18.57064247108145,-5.67357579548749,14.325442802118033,-2.4281010252997417,0.0703680705690635,7.267281562962765
-4.869922226342637,0.0,0.0,-5.304117938036572,0.0,0.0,-1.2597343044046925,-2.518736665632178,13.806275738249767,14.48361779964293,3.98387898977593,-24.017462062625015,-21.36285913589003,-2.9555323127798454,0.0001621942909742331,-11.312932188220682,1.3898325935617022,9.926642006265386e-05,36.89265931295716,9.009812747342988,18.7437473433128,5.11805656448734,-8.084509024155233,-11.892863582464111,36.62705923046195,15.305829762404395,-28.520017065080165,46.28253556286296,-13.160007195441308,41.08645871602464,107.67870700598863,-0.0018181179929122509,-85.1354129836107,98.95376844913034,-0.003600885601120832,77.2188745760788,-10.545495112742925,7.158881615151582,0.0039831559896391245,-4.9122328918216756,-7.043157047050907,0.0012575567457614742,2.5396828812307226,0.15417530292070847,14.98270248494079,-19.01297717004017,-5.472889808175009,13.969549035127832,-2.1645665169933954,-0.11465784849825623,7.522310885674322
-3.4731630377717146,0.0,0.0,-5.034657578574151,0.0,0.0,-1.8802622895983463,-3.198667495057343,13.487873564418095,14.234813066930682,3.6837575519006687,-22.942170610834147,-20.95797955914255,-2.7599780598708192,0.00025530704360742775,-11.167067957398203,1.382057305322435,-0.000142391763357284,36.4634787390946,8.874710051533624,19.2075039229808,4.856461956076249,-8.27912764847188,-12.583519633549791,37.301476699742636,14.624963390532859,-28.66672598982883,47.07161902696102,-13.215536681241053,41.09801034314259,107.18402085726903,0.0026939424984573656,-83.82060769523858,99.58060548696047,0.0024023417435806377,77.84980699545244,-9.364833320331783,8.25787903748357,0.007943976016597722,-4.577302866451679,-7.0376197244756575,2.9536217248960632e-05,2.2488364076147773,0.036562467552496265,15.273614919604027,-19.281114541342863,-5.689102600807557,14.198041926580514,-2.1458169652521395,-0.32691382285805015,7.639426003221834
-2.8433963027975726,0.0,0.0,-4.901006972719086,0.0,0.0,-2.356681030145497,-3.4114302355998904,13.254918535723796,14.131818373768347,3.74057546372683,-22.236359137922726,-20.695419261801078,-2.6167816626175746,-3.105614348052632e-05,-11.087126192566078,1.1303486608689215,3.984334353945144e-05,36.13711832701819,8.845601736289764,19.440994377581678,4.599549769054972,-8.158402397133305,-13.463040767850037,38.23537779456669,14.283906145312962,-29.207414166363773,48.04867148726485,-13.03350202030752,40.95116803218145,106.70655833784156,0.0019972201390085816,-82.33110666479118,99.77901179292043,0.00292755958528713,79.18284148174045,-8.626942337035219,9.294028180127293,-0.003366380373284896,-4.888875580852317,-7.232037397443314,-0.00014444221057655708,1.9438035742623223,-0.11762324097635765,15.558025066933245,-19.56517442897726,-5.936871584902752,14.407135958742003,-2.1706403737532365,-0.4551798682729145,7.504135862750027
-3.265569975308785,0.0,0.0,-5.191194152980118,0.0,0.0,-2.4777578465995687,-3.0460990616990644,13.480834926476964,14.287587630906291,4.020108191514823,-22.303462670371914,-20.52799072358792,-2.687883200281918,2.861469418751002e-05,-11.077197752801561,1.0061159298929347,3.479152413500633e-05,36.042187188881854,9.042013048899896,19.33600042533784,4.625536694872877,-7.921661206680166,-13.555002866903868,38.80587268797692,14.260487061642502,-29.47796751931368,48.92861393844243,-12.475798318012526,41.08970151068283,106.6555079401892,0.0003318985611098529,-83.10208810765931,99.87991457228243,-0.0018567439486991924,82.5447769196494,-8.174557738681182,8.966873017984708,-0.0018590453910363434,-6.446077336974523,-6.929800499319455,-0.0034525204810600743,1.7808485396840594,-0.09305211658281307,15.546358038476622,-19.72830119402479,-5.9097319004385716,14.405289943762112,-1.9118294543642085,-0.5744238170542121,7.443966677178103
-3.739365048357835,0.0,0.0,-5.713986214210121,0.0,0.0,-2.4119209902323573,-2.9608940658910123,13.81984669966074,14.303164454653952,3.8419680968987517,-22.50754399306707,-20.384540984840097,-2.7130078139014175,0.0001470569361768899,-10.905243513782844,0.9951227003350689,-2.803996468276064e-06,36.18124009402222,9.144032159050525,18.933006507629834,4.762058733637159,-7.702888199946317,-13.289164853757143,39.08527954244958,14.048892360379112,-29.58499789877682,49.6423593404018,-12.275067744596406,41.394604870773456,106.44761648349063,-0.003877570706798169,-85.79056145551976,100.19443734833251,-0.00038656268439490004,84.51627983792928,-9.331057040253528,9.57832647909087,-0.005975891079688038,-6.914353639086475,-6.439676722808956,-0.0005589950638626967,1.6681766119517074,-0.2248053295229921,15.590332940660762,-19.84187079056102,-6.048435724798429,14.397849746369634,-1.5284449732819265,-0.5537461769571155,7.463961866161599
-4.2556824385767875,0.0,0.0,-5.953435690939671,0.0,0.0,-2.334267445582107,-3.536860475161483,13.957875684062387,14.153938429904047,3.549827337447347,-22.755736478114404,-20.275596239194034,-2.6332576501831766,-5.089910013888624e-05,-10.768746869003394,1.0260762906230423,2.8467942385902695e-05,36.2512821223644,9.072908183746152,18.721609542118216,4.75952944285293,-7.627412237891677,-13.046891339132442,39.820762935479,13.749237092927434,-29.73154750696378,50.42036370305797,-12.337533580772087,41.46685854156122,106.08543309028978,-1.8578771340199914e-05,-86.20315375823218,100.5659072342368,0.0012648368729076766,84.3121048187426,-10.375127531627578,11.093140982745256,0.0065696216183156525,-6.726584337990553,-6.659288808475331,0.0034653981420535783,1.5580352595634486,-0.44408718297971067,15.706804538274541,-19.949660399274872,-6.295148701748047,14.42597475675237,-1.471558087826762,-0.6456628263243986,7.396276908983438
-5.218987944761016,0.0,0.0,-6.597555523547663,0.0,0.0,-2.332971302924089,-3.6593368056118107,14.354497048887733,14.331061042598893,3.6390334219326124,-22.909527708550094,-20.019007789983984,-2.735933633201831,-0.00032098979921982843,-10.874895230819465,1.1137835643896514,-8.272117901902936e-05,36.23321859503561,9.014601566743373,18.629438359129647,4.964179190350571,-7.794784783470962,-12.758275265495456,40.75532352864709,13.538248295994318,-29.81243051468284,51.14861333613952,-12.107527294412627,41.413536285218775,106.21399558806722,-0.0018413511373495015,-83.25187032732232,100.6489535887334,0.001053175306628631,84.31075866898581,-9.295501850107177,11.977114196794833,0.002403539533594273,-8.020721526895496,-7.300351702537932,0.0024370737101913594,1.5133613659210658,-0.3270594928969213,15.923346557788475,-19.96890117461366,-6.265601615078902,14.6718115206199,-1.3897944438351082,-0.9475761735062364,7.489870542779342
-5.987311213595355,0.0,0.0,-7.240917546953145,0.0,0.0,-2.527981982872583,-3.2238152358432948,14.571558643480559,14.594229705399451,3.5019512911267197,-22.56336076391706,-19.717496835494824,-2.7688767890280657,3.787207289792376e-05,-11.132376736428883,1.1816672089108082,-0.00010085669170168883,36.08571702373033,8.993644303752443,18.776010838627364,5.17533375875067,-7.978653182597695,-12.722081878057228,40.8351288328989,13.611699828569195,-29.47630020160141,51.55257423081403,-11.642772399633037,41.321844537197514,106.60524793025046,0.003661762552103295,-84.00243353120787,100.38100000438446,-0.0005428131375242482,84.16676634800788,-8.217192744414763,10.90472644646309,-0.0040254909336121724,-8.055518520835367,-7.713361326744695,-0.004017768400157254,1.3945045212728189,-0.03980903228415209,16.307749076173447,-20.03869525837414,-6.1388773541813455,15.137371232154376,-1.2319460395831938,-1.1759441708843779,7.537457306699239
-5.696160100593638,0.0,0.0,-6.460500324214153,0.0,0.0,-2.7544412055135608,-2.9133793657813913,14.38426905806068,14.40390529745778,3.387799823727212,-22.319338658579166,-19.556007145880308,-2.739366566655114,-5.932402490041252e-05,-11.07865949328392,1.2400452228892862,3.081001618850135e-05,35.8723952519883,9.113385933440536,18.94739276598504,5.090012351736599,-7.958366634716849,-12.760836907992584,40.814385791885556,13.69135032091962,-29.12018613531523,51.85537196582581,-11.423609565976722,41.47875199101622,106.70714184910713,-0.00012154759484354796,-84.6689915453963,100.27876097023245,-0.00011229190247749493,84.19490313383612,-7.532730090395217,10.562693526146559,0.002968343376964035,-7.795877287064119,-7.648077131078226,-0.002318873667839242,1.14320798510329,-0.19052815971003673,16.48036478243466,-20.27878349479907,-6.342244705889051,15.243619083897523,-1.204345211137595,-1.1970631680211852,7.48781904757138
-5.41014136600514,0.0,0.0,-6.217077963786518,0.0,0.0,-2.8425452388636767,-3.2440371032670576,14.286278433501998,14.32204748045306,3.507166302751825,-22.674921058064484,-19.517780442038173,-2.8586444737077183,-6.0072560658929734e-05,-10.779403270053841,1.4983541068723305,0.00031399864303084234,35.93706471433429,9.307584810705842,18.71677431897885,5.004987154558084,-7.856849922199163,-12.431011523379635,41.2540636380355,13.44658340765258,-29.14657899715674,52.38565110034715,-11.674248402970402,41.63145964769673,106.75124953067919,-0.0004852482035110632,-83.33114225730581,100.46670117133007,0.0004069116803728034,84.44171757485059,-7.612508822256713,10.735452218255507,0.0037837745814993233,-8.225220928075155,-6.798933953842111,0.0002022046887388594,1.1881438093593075,-0.41307864669222305,16.303841983313596,-20.26053346820306,-6.484898880903897,14.996427848157474,-1.1535386804968852,-1.0685445616064313,7.581075908359689
-4.454042945892144,0.0,0.0,-5.889352818001158,0.0,0.0,-3.0213959037519045,-3.843349797530558,14.038331599723445,13.909405748122001,3.4718846831034407,-22.357495053156814,-19.57006884788706,-2.7530625912703033,-2.0375039211948058e-05,-10.556292521775589,1.6140406423466305,-8.88293600273127e-05,35.970727357517084,9.509603244703198,18.838852314938173,4.865560498427984,-7.673479455008847,-12.507194802885373,41.57906935656858,13.421202885298786,-29.257172354168567,52.7280124150915,-11.835739733157032,41.76335778460522,106.86366452942468,8.161214430674733e-06,-85.62448793103422,100.54044398175611,-0.00093539136739266,83.64953216410491,-8.632183143104069,9.587882993265078,0.002373933664837229,-7.963269375077801,-6.706905945272479,-0.0011961985613798418,1.301208610805354,-0.547755681681597,16.43416886887544,-20.14025380517898,-6.657889877382662,15.068974067925632,-1.2799985718659552,-0.8377809890243099,7.5564329857550465
-4.939419847654003,0.0,0.0,-6.393182862114084,0.0,0.0,-2.94809159791573,-3.713457526976852,14.021028234364913,13.856678789400728,3.632130973782498,-22.096904427267173,-19.566063030149053,-2.820627633194042,5.762208176801155e-05,-10.456227220909074,1.4862801939194423,-5.46855792814421e-05,35.9738906465883,9.586896338576732,18.782067620396873,4.852663646045626,-7.6019980690261715,-12.779929863167228,41.913445305887976,13.622441755227548,-29.498164691238255,52.85667941616445,-11.901544152871615,41.96237358443196,106.89436561446693,-0.001044193408107053,-88.50076087428698,100.5265039309049,-0.000946100156255712,82.86822361449694,-9.455486399956254,8.48833572537334,-0.0014872522481003,-7.3455187387145715,-7.205695170204349,-0.0011907205426177775,1.3307760222403304,-0.5992718239438487,16.36258540382584,-20.119968692746895,-6.679665587366372,14.982924962975924,-1.3454767479791696,-0.7906493426691984,7.521779877061103
-5.179790427771784,0.0,0.0,-6.774766555190654,0.0,0.0,-2.690950465333158,-3.6443878175918063,13.903697899944483,14.13472021198358,3.6660906711493433,-22.556071458201572,-19.701435912515045,-2.944187647960822,-8.766371419537984e-05,-10.29277424482277,1.6358243702383546,0.0002487048758630891,36.06170251107883,9.520431085112957,18.80348734567493,4.791939916066836,-7.756664439594964,-12.40403024169562,42.286399083175766,13.616937890290894,-29.724866284248918,52.911965979434385,-12.228611672405778,42.00694691635051,106.954451998844,0.0001757440794167604,-87.20849187478323,100.78727732201583,-0.0007752559095355892,83.16519321797642,-9.32480178488216,9.143066758027206,0.009783230055941061,-7.584407161491586,-7.0659520624706955,-0.0008029412882951528,1.6946548955196559,-0.4611648339348001,15.965777201559103,-19.788977939202542,-6.405928188120616,14.662116933945283,-1.3455771704289414,-0.9514545232120639,7.634105119790846
-4.850155224438503,0.0,0.0,-6.50269829162272,0.0,0.0,-2.5446247632525205,-3.7342302157613667,13.811111657047006,14.018870166980776,3.4245671464075937,-22.594515125672157,-19.90453518050976,-2.8692806949319816,-9.049506667595597e-05,-10.214033395778147,1.8466018025729476,6.462018522242875e-05,36.087226218698454,9.408060854417116,18.944359999155818,4.68214365380571,-7.9578713396573395,-12.321224548669417,42.66504228769305,13.525472238783498,-29.805210958691692,53.01846015769542,-12.481342383466888,42.16014750392084,106.74282108186483,-0.0007679775682361671,-85.37561522490483,100.8862542094844,3.0382981788774467e-05,82.67654965924062,-8.803722853590495,11.28227014150208,0.013730455256708317,-7.631446664784778,-7.002326405847677,-0.00015129028683105795,1.9103081512138134,-0.475358362439661,15.945562571260561,-19.57584888750908,-6.4117383353848645,14.637966789697,-1.5080624005297796,-1.009139821545693,7.655281345565131
-5.256577189121413,0.0,0.0,-6.707833434053983,0.0,0.0,-2.754233940792483,-2.9216955783541447,14.183822596789774,13.964927316943282,3.7377563416830877,-22.318392490679248,-19.887585945368016,-3.038842771281905,-0.00014653459852393625,-10.303590826293002,1.7458116879345271,7.006085788581731e-06,36.114325592953044,9.320652893848617,18.646931812357856,4.706625863850421,-8.031889089821366,-12.926561317831728,42.839872303551786,13.717472267610917,-30.300832584517146,52.98874115369617,-12.529007039804974,42.12314246589106,106.81951831424564,0.0011519724797569365,-86.98707357918508,100.9345200474517,0.000943823349756658,81.70974240568793,-10.140961427156807,9.897988328763798,0.02049950819811661,-6.996740850473233,-6.992892973669015,4.557800622352875e-05,1.9444361306218343,-0.4014347613645856,16.058411959594753,-19.52777245630153,-6.384258728509051,14.770865439000167,-1.6639396975572012,-1.0952456347707096,7.553667901161357
-5.1032164436512675,0.0,0.0,-6.056693993594791,0.0,0.0,-2.861802716475752,-2.233619808993832,14.190630569867723,13.787621058306867,4.542167797533863,-21.748713844214,-19.94682807549816,-3.1539807337738752,0.00014947621222621778,-10.300240503372747,1.5247369039113998,-4.433227545683582e-05,36.06299535849744,9.434902239020635,18.564948887968125,4.577133274898377,-7.893800750342944,-13.665199929959709,42.792954948898476,13.949227998717866,-30.4539755003097,52.951265172000326,-12.749784626535314,42.08348541239447,106.99076530535906,0.001279070268943461,-87.27322369095654,101.14650852125253,-0.0004764468870677225,82.11520684725323,-10.420973566732453,9.097974720142702,0.0030424422886895816,-7.121285035483343,-7.027824311977459,0.0007459246792677913,1.8393011111165078,-0.4815697054166898,16.070519494200987,-19.635046258956454,-6.463270405315455,14.75268069052989,-1.815307430380846,-1.0158096576804776,7.520916382664524
-6.12862126353107,0.0,0.0,-7.066736727865015,0.0,0.0,-2.0016545662115246,-2.3886783814285666,14.273326149510366,14.100330968301217,4.87964753861665,-21.874098769396966,-20.437953888913377,-3.1887527008978016,0.00027000783015294433,-10.293187467991498,1.4586727383246432,2.8700543008745844e-05,36.33380909936118,9.656427390910661,18.275122220696165,4.635779682935271,-7.738647110092957,-13.36157680591102,42.93630213803221,14.034518518240706,-30.12428031473562,53.12371131523184,-13.272843988288624,42.578267842167634,106.84413586998892,-0.00021522900249247787,-85.45847072853299,101.2384612322651,0.0009332651687359089,85.00046306866521,-8.507414257714634,10.834768909504824,0.008009471352397773,-8.519693530115244,-7.197721023575945,-0.00011813400481790018,1.9518196152266256,-0.5560716834299353,15.959799717827238,-19.536303598488477,-6.492049947163049,14.621536596255147,-1.7630564942928855,-0.8858128805316274,7.597953371128689
-5.760267333214778,0.0,0.0,-6.559775676726759,0.0,0.0,-1.6064318805889002,-2.851672625195227,14.030573050587165,14.011115746144295,4.487855039005219,-21.904022241871317,-20.94939547083266,-2.9678851002144615,-0.0005173997621777486,-10.24418258811799,1.3772261302415607,2.7103406184320436e-05,36.54994224689716,9.642438281240544,18.621307507917457,4.636003330338959,-7.7961670169977415,-13.125546305511438,43.128019040064665,14.405688029985715,-30.073731606409368,53.40230957424453,-13.750764000174277,42.93996331579673,107.22733642167046,-0.002364329415928146,-83.43660598440233,101.08829262288734,-0.0014431762138476163,85.37339694184871,-6.20655561627025,11.562856638537978,-0.0009070634755514015,-9.005468175377422,-7.388481442973773,-0.001428055223311006,2.617413147017962,-0.6824032403096217,15.832589084299281,-18.888186536999683,-6.562979652446635,14.455811339961208,-1.8449080967367193,-0.9775645087494834,7.7128362471612535
-4.735470963154453,0.0,0.0,-5.302995349611383,0.0,0.0,-1.7148186239712315,-2.482331838862214,13.611058849159766,13.630966611921131,4.607753195988981,-21.778154868688922,-21.315718073902733,-2.8163874187900007,0.0005452408629504651,-10.008292592633424,1.3294018382565786,0.0001062298739782151,36.75146527764865,9.4579961640371,19.32534725829303,4.579745285448095,-8.071095338369997,-13.306187430280975,43.13610958583684,15.050490110573906,-29.979343050558803,54.115668259726675,-13.987862195326842,43.29889456432268,107.9712450748255,0.005104282271802643,-83.08159469680577,100.54628145763563,0.0008877120900255376,83.82753474741804,-4.951966982506781,10.159308685694727,-0.0027726613826842095,-8.925085953209816,-7.576410610918463,-0.0010920443623629883,3.0682039797252183,-0.9145956362376361,15.69494652645868,-18.460312973653092,-6.728519397895636,14.241168551680506,-2.01605892340987,-1.268125177172601,7.780363206583925
-5.89881632396503,0.0,0.0,-6.795093517355213,0.0,0.0,-1.2005114814663858,-1.9700005729330456,13.731855105666073,13.917549522079549,5.192588925164728,-22.473525560903962,-21.90475583580074,-3.0011673045811462,-6.807022779401563e-05,-9.792831500711843,1.2731131911619507,-7.414165371624827e-05,37.25636593618097,9.53401869822275,19.151824635540343,4.7408353709640805,-8.102648467082131,-12.978195140316247,43.29304519911912,15.522569779843982,-29.52628884654607,55.21519824667817,-14.079638566570468,44.324315295563245,108.4086057918207,0.003594467015161971,-82.31683444817018,99.94386398618391,0.0012230268425705584,83.9817760529381,-4.164367904085159,7.780127752187536,-0.0014758185961335568,-9.785191425652412,-7.5510737263914285,-0.0014662765702933103,3.3778915222475496,-0.9221078691539398,15.961991165866147,-18.125697525077296,-6.833428790968727,14.488544314361368,-2.0973421281625346,-1.4221661130566743,7.742299155055849
-5.205584175201155,0.0,0.0,-6.18223697305418,0.0,0.0,-0.7028568949703832,-2.2710164769975765,13.35590622574554,13.299165677842106,5.556993225047484,-22.275380420739374,-22.68791024798184,-2.8037131237061734,-0.0009554760354938705,-9.579059202657115,1.0372505492621662,-7.924331338790948e-05,37.325584334185784,9.801109962836021,19.503616361287847,4.473924185272235,-7.99624129355967,-13.118128699431303,43.945509937484175,15.668054911798842,-29.671794718731626,55.794794609966345,-14.124087959747392,44.96852782166714,108.14632023909333,0.003148503055136295,-78.7750292007775,99.92166162079477,-0.001434239209302326,84.3417437885259,-3.5733430667670425,6.744003521962101,0.0077356975708070186,-9.760888190320996,-7.428113457877202,-0.0010244624781436246,3.950627647255571,-1.1616746615464402,16.635602332060706,-17.498378099505466,-7.302945719183808,15.031702059830437,-2.5952217272010603,-1.3818027916925544,8.05643802804621
-3.3378576325240132,0.0,0.0,-4.624236530913316,0.0,0.0,-0.4707406689967299,-2.2404725344410092,13.593316718806827,12.367693511179938,5.945749057307006,-20.725414616481846,-23.14930956215979,-2.8590691637443895,0.00032965766801363775,-9.571427900717335,0.7065933542984856,0.00033510366173792824,37.26528083555335,9.897354677746996,19.84928298911942,4.3910244934188665,-8.209267979949088,-14.372006509274692,44.63601467647377,16.167108966069957,-29.978581418849384,56.075839901243384,-14.037827984209162,45.267231336041526,107.8457973548999,-0.00042289491274351265,-76.93020560141079,100.17211561105455,-0.0014698454451847654,82.92236138388552,-3.139729901822,9.029992886059476,0.006171281347354052,-9.187280599068552,-7.265481032124479,-0.0006171953767819743,4.3427401069116724,-1.4486528599516504,16.921972530522037,-17.091542313078854,-7.6747205956168925,15.194675208781602,-2.9096574293521598,-1.5768395876747223,8.431070796312147
-2.4508125074456286,0.0,0.0,-4.199034196388889,0.0,0.0,-0.2795530719469364,-2.2745151287595013,14.193967176747412,12.285357659995366,5.990511408377722,-20.28511576697554,-23.444914862556136,-3.193001047914516,0.00039374558552364235,-9.498017220322476,0.6794407858254086,0.0003906198220942506,37.45285970882496,9.603798228618942,19.319984808328346,4.310533067412072,-8.61172088161511,-15.147330997489952,45.02577634711675,16.951051859549384,-29.476985263009322,57.215017059648964,-14.119385103025158,46.347969170507824,108.38638562106338,0.016308295487718522,-79.70050437663535,99.82428732615264,0.004093513726574922,81.51195651632078,-3.9488892365585784,10.009013751824336,0.009735780250906054,-9.623373173200196,-7.866436027112039,0.004368937967685631,4.4295392775714735,-1.7107082202918278,16.812876482600757,-17.028686027409123,-7.878754687054968,14.995522946944565,-2.9299669413912057,-1.859549331388696,8.214454871946682
-2.129839683700735,0.0,0.0,-4.328720075065808,0.0,0.0,0.07013613189948759,-2.09933579145629,14.287148867645563,12.205089622251634,6.104316084930714,-20.635941392253073,-23.99964881381386,-3.1804988881670115,-0.0005889638051220639,-9.268711357061937,0.7163850867355179,0.00012003948193555641,37.719407194093,9.281042272096352,19.08692067925921,4.0095721593771305,-8.849879727370892,-15.40609753017615,45.402187346053864,17.38838054129508,-28.92305035680635,58.66915939402524,-14.33727932133176,47.38428404369737,109.13946104454045,0.00462482523116337,-80.95776563753154,99.08691942475625,0.0007249514345142215,82.44409474077727,-4.493406674268729,7.816431363878501,0.003469109656012118,-10.695869838372605,-8.274317076982511,0.0010283971208363604,4.708990447758974,-2.1130246103274164,16.986229130651566,-16.753017027126695,-8.316565371937903,15.009714807140208,-3.045608766895143,-1.9081412092644423,8.14491066554484
-1.9675799013158388,0.0,0.0,-4.808347547509172,0.0,0.0,0.6354716762505503,-1.9005596618029956,14.049555536017916,12.022600252208106,6.409879406471187,-20.778144232460345,-24.75341809462469,-2.8868410113429346,-0.0007067644239956441,-9.38486427960577,0.6444802530252943,-0.0001157912909226306,38.15347236345186,9.130387092637628,19.546654797192268,4.183116854277415,-9.087872686195427,-15.336825283524762,46.31656091508948,18.0318385196746,-28.933602636340137,60.132944366274145,-14.16865567988815,48.055049323238826,108.9997884810136,0.006102159205215328,-76.55296374571518,98.43075089036674,-0.005123327256068117,80.93195291509706,-3.3946783556403948,8.211802357994815,0.007959867604535712,-10.227955296945783,-8.262581724108346,-0.0023670767120918786,5.155298066520763,-2.4215837793877535,17.18376001387132,-16.303949423074503,-8.675946344988409,15.081308443476319,-3.062383051476912,-2.1397723268441795,8.56718631989196
-2.014748636706789,0.0,0.0,-5.611504921220237,0.0,0.0,1.2418273016225465,-1.9136683771206542,14.37636395305508,12.317833765110018,6.592147442027224,-21.406034061052157,-25.45558316278033,-2.9708922285373447,0.0007947622116738481,-9.964043753935394,0.7367094606519529,-0.00016192240803823195,38.443194704809656,9.047303889892333,19.317339077894463,4.48730875778479,-9.457663716098342,-14.872981265997925,46.89339441111245,18.992353594170496,-27.67234641402448,61.77966000117086,-13.571810223584682,49.36922129145792,109.36500174335903,0.0041447492700038635,-75.46236071485687,98.00302499948523,0.004310451629998613,80.65589672460356,-2.9428191813379434,9.488699706192612,-0.0017567829087729151,-10.559537207467717,-7.1294463223601525,-0.007053806392921653,5.074722642587155,-2.5645932049504676,17.18134863803875,-16.392805915101675,-8.808160531646019,15.026096002959655,-2.9959083584884927,-2.51056620427208,8.778239397327692
-1.774350964835551,0.0,0.0,-5.210347808549854,0.0,0.0,1.6433391101920896,-1.9441457784120912,15.182109234475416,12.51408632870496,6.893159535759595,-21.690196377200937,-26.069702501508214,-3.3268581635803742,0.00022361292512963052,-10.864615718889207,0.7108426158375449,0.00031297469830154743,38.23232452251879,8.939908544612319,18.725533897219872,4.505996069317342,-9.933412363366944,-14.695626869689125,46.77446049907151,19.938997719327176,-25.910347719536347,63.390378411686896,-13.185088381165844,50.432447899169524,110.59298573676809,0.006649564375642401,-77.88272467479855,97.24589117968544,-0.004535099312231829,81.61473722778142,-3.3094862787680066,9.640323637212642,-0.00023864581848915314,-10.457051760042177,-6.639332537552553,-0.009047168913769305,5.292489239323914,-2.439787873485435,17.175584722744613,-16.168585157134288,-8.689902678182227,15.066884479820146,-3.307274056120331,-3.0156510464242086,9.057220403220116
-1.79562336184856,0.0,0.0,-4.760933017816017,0.0,0.0,2.179243423478849,-2.2617850315346284,15.592073431839555,12.280837583347857,7.1476207603513195,-21.433913597811245,-26.729406079741793,-3.3619119124333,-0.0006602683281656405,-11.627329167525518,0.7001692575404002,0.00019428907459129226,38.0299913449645,8.707463665252078,18.474481874522056,4.485646237726296,-10.475405893087265,-14.628410815926069,46.66690289681557,20.78888851070646,-24.97700743634537,65.18611736716547,-13.031990843317281,51.5734501104162,111.65441688870756,-0.003209786467414701,-79.10936871400811,96.29533862369293,-0.010221313041588749,80.37786087714662,-3.509957042655101,9.310483010034755,0.0017594534555141735,-8.867152719442586,-8.270233040867291,-0.011825966901986605,5.749097769735334,-2.4400267474882695,17.17842054817264,-15.711719020370174,-8.691160102153312,15.069455898675015,-3.611255162551161,-3.4676165312794818,9.60981532140046
-1.7674164027333548,0.0,0.0,-4.936756637052352,0.0,0.0,2.674927591726065,-2.1604501384013015,15.541377200764739,11.991373346100206,7.276586869563809,-20.96458818889271,-27.455943113067278,-3.3237503268597286,0.0001380594850418526,-12.491630018161734,0.7585847585936777,0.0003371861733883455,38.110995180608846,8.60685735046539,18.366113448884718,4.5790011195948015,-10.784372467425857,-14.888763182005674,46.77952714823104,21.941183394245552,-24.32565204923376,66.65121747347557,-12.965877876076721,53.067763170083396,112.09967957589119,0.0008703548361071812,-79.74751298679601,96.4937629826286,-0.0035120294325662062,80.4315664339357,-3.5512538320424727,9.000307912173792,0.0034404293944354275,-9.024815457515375,-9.095457479344365,1.4493232463544276e-05,5.465029335436434,-2.3489725046369996,17.08649248033454,-15.999851688555685,-8.572806802137347,15.016697872279302,-3.513555492096486,-3.6200974424805006,9.849283002529518
-1.7915570925041966,0.0,0.0,-6.109270990709534,0.0,0.0,3.0761134180964995,-1.4758924569689515,15.19734746786457,11.905277026162647,7.920474491791806,-21.025363982236602,-27.854275122189854,-3.4448369696876395,0.00015177639056241263,-13.826865123151567,1.0580976596068403,-0.00038628704230008376,38.2501855679381,8.492339844114557,17.907111968978874,4.851664675901383,-11.065612688747573,-14.924821997999064,47.273819598473736,22.856548427378545,-24.04453347012691,67.98820232652066,-12.968937684166919,54.55480598192207,112.0022803160065,0.0021728138660525574,-79.57168140854915,96.86076328486685,-0.0011375464168621237,78.8208906012987,-2.5855747198696317,8.74360007929037,-0.0014080568604551715,-9.86455894259187,-9.932524969670625,0.0017050862857606818,5.1052048364278955,-1.8587348458737052,16.653547216903824,-16.376204896567664,-7.958224128982574,14.791189697972355,-3.17765065436549,-3.723695020332948,10.022269862174493
-1.3647643916741246,0.0,0.0,-6.59137505234907,0.0,0.0,3.2568727307428516,-0.988320603896746,14.856659578135652,11.405148707522185,8.5928499635454,-20.736731428934046,-27.91904430742406,-3.572860164018061,7.616141857897895e-05,-15.606602296514552,1.4846696345485897,-8.65172097748418e-05,38.202241637512586,8.19717251798294,17.541648692704918,5.3409589113396105,-11.650227936747404,-15.059439530557274,47.52657168795117,23.61657797939001,-23.756549400123582,69.0187859931743,-13.026189419460191,55.8900322578428,112.1056811715955,-0.0002704713593814619,-78.88571174971128,96.63575178745188,-0.0009172817378684158,76.65815095765122,-0.9138724763301793,8.06427144384527,-0.005595922591455646,-9.790023846376815,-10.784056371641597,0.0016423909496304581,5.08019604340854,-1.698307084835309,16.00202556152335,-16.45558571796477,-7.570198228228065,14.239093746222602,-2.617620311446817,-3.9876209491953456,10.326859700704096
-1.2340131511633914,0.0,0.0,-5.708102868082625,0.0,0.0,3.616625040835735,-1.1807988590584948,14.696749539201715,9.93276428949161,8.419653669441589,-19.488709426356458,-28.029363418943287,-3.592283133094548,-0.00015930248674236882,-17.946147032327637,1.978945318188935,0.00033761170292020146,37.94060664772991,8.074481535171925,17.63719307402558,6.154854448477915,-12.370812332731102,-15.257014958699031,47.42792702575092,24.629688925998266,-23.199094895540355,69.7802016318998,-13.543634928544488,56.817924043654706,112.26059807857716,-0.00041875922399632804,-80.13461550731684,96.47985071990692,0.0012224337900173063,76.27321833086329,-1.2578497422179808,8.295284081320156,-0.007464858158731877,-9.46699879615187,-11.184190407863557,-0.00261336431791461,4.685102080223591,-1.9411771873790302,15.31827548000185,-16.92512723450995,-7.544786728380367,13.507910028451558,-2.0460636776312158,-4.174643607244738,10.778038136673398
-1.8029255777894493,0.0,0.0,-4.140410434214859,0.0,0.0,4.0141752882780875,-1.3753399270143836,13.85694927199536,7.830171269286436,8.66392546405291,-17.925625897249162,-27.956803208038124,-3.366405216874736,1.4275669278633312e-05,-20.900829284755282,2.5088873067866153,0.0035597757578636384,37.33791502294651,8.009991072872612,17.976974791945537,7.034629152521815,-13.088509862722349,-15.324460358427057,47.14114879550798,25.209220080224178,-22.602416714937412,70.60352391652017,-14.556395439158205,57.5404386546029,112.2731618784735,0.004976316365764382,-83.85004750889719,96.39589441192376,-0.0016577260905000389,77.49929521800007,-2.819855695923284,8.863659191913406,-0.0025536904647823345,-8.517714925845135,-12.74156098833301,-0.016125147513991404,4.273767680818871,-2.1545044342531527,14.5489325586169,-17.413446940023707,-7.459417363719024,12.707741468206427,-1.861797294745564,-4.069692457773054,11.387213776630562
-2.3584021177271226,0.0,0.0,-3.2190330649256644,0.0,0.0,4.281648230946593,-1.3184825309326242,13.033347110493306,5.815280651405034,9.282596888954135,-17.118753199368083,-27.56890360087789,-3.2878878911995155,-6.654951856154863e-05,-24.278570862531616,3.3669369082761107,-0.002769068638805182,36.5235879617985,7.741066325835381,17.451001816568763,7.8543568134866915,-13.928430510713222,-15.129569690584432,46.7933965910293,26.029627558411967,-22.26266013809134,71.47546186977524,-14.92721538877675,58.661992887705885,111.94836856859385,-0.0026145584605244804,-86.91338125222612,96.80796831011502,0.0007670863901570633,79.14137543107611,-3.630320585345696,8.988974515019734,-0.0013977008576599912,-7.974906768269166,-12.73379771072971,-0.005294223875049663,3.7563335273096676,-1.925743179986978,14.05416291899633,-17.961029358145982,-7.064025343198885,12.329892460318195,-1.727621242830009,-3.9299300503441814,11.462701006042783
-2.444833864193268,0.0,0.0,-3.3872493538429898,0.0,0.0,4.49261730513223,-1.3666780106108252,13.130292198744115,3.9388305415036724,8.950397293647375,-16.890281615440138,-27.284993973053382,-3.259717096359941,-0.00012311002240503503,-28.223994386323447,4.766197867364278,-0.006530160217478673,35.96584987114911,7.144436536153969,16.296423157652022,9.050689709360428,-15.10224210105729,-14.423011597066134,46.87856645573399,27.028607751371236,-22.109183629653657,72.13667979978122,-15.449630418214998,60.05592524903567,111.12858272466794,-0.01195693511911469,-90.91072677947358,97.7729303922063,0.011071915968460104,76.9430651287254,-2.7355585565474585,9.37485394264328,0.007106671007937944,-8.17113045926712,-10.558265085005052,0.0019498401396494777,3.391057178184666,-1.3219772581442448,13.163584258337062,-18.371078908711965,-6.173472148038647,11.722562634127248,-1.186129741818135,-4.136935891449019,11.177910819875342
-1.7200388365813475,0.0,0.0,-4.054634466982037,0.0,0.0,4.373045996690271,-1.198988382907191,13.115449399548748,1.3678216437948594,7.960426879909923,-15.911734589680108,-27.06458957591031,-3.074341346404887,0.00031022286003563453,-33.007896343095304,5.66110126705302,0.01002863930698049,35.39297342178808,6.516619967656179,15.573703668750785,10.678243569176317,-16.266432036303428,-14.09938948420206,46.846297119434595,27.881559432842646,-22.499143394253892,72.41942597374963,-16.66438435402608,61.38258937862386,110.404986187366,0.008301213030589118,-90.83265034543066,98.15159448202789,-0.0016744279737786506,75.79325506962752,-1.9227943977006579,10.832155738531847,-0.00031654530214946235,-9.833036584063812,-9.263235588122873,-0.0018856571264656134,2.953867353868238,-0.6076113936666908,11.699742819193096,-18.89027427303523,-4.9665855877102105,10.623769740561471,-0.5067182487817697,-4.565561701928707,11.182315840962985
-0.8195155148821462,0.0,0.0,-6.1315567015182895,0.0,0.0,4.3341067624384895,-1.3323784758778483,12.265790804601144,-2.1476600893129625,6.51943763916438,-15.001050403346692,-27.003758597285255,-2.8069115129194144,0.0004611125445239906,-38.61930271159384,6.351403886166234,-0.011658306532356007,34.58250215737757,6.237596670134282,14.614161583151803,12.31788621371412,-17.05880572506455,-13.976141158843973,47.13541356801544,28.55146070405994,-22.956755352691083,72.69155301265545,-18.498158914864764,63.00199373866913,110.18799741519715,0.0008177666117482151,-84.18082057329633,97.87985728844994,-0.0015077639632404994,76.42869571173352,-1.8369590134172324,12.314817877278822,-0.0015290316433311292,-12.425748179048282,-9.549714069015254,0.0034979544960248537,2.346245239750584,0.048265046724134876,9.895537554676029,-19.59724039674788,-3.685237145446375,9.1901955224454,-0.39527985920598596,-4.655727625369864,11.501771603920789
0.16591086967130683,0.0,0.0,-11.421957761345537,0.0,0.0,4.310477115953525,-0.961969099076556,11.777870163455649,-5.909893954169497,5.153719336751029,-14.6131890619142,-27.240694457422602,-2.310836678263821,0.0001937411369434984,-44.901563403940095,7.189941528041066,0.00812828431701842,34.12853267157565,6.031464462644064,13.354937915142495,13.989604182745264,-17.504330699825026,-13.983866826196461,47.212605729311534,29.876294194168246,-22.398228400658834,72.99231071714387,-21.389845869752566,64.31031888338038,111.02886043516877,0.01398582452581785,-83.41676014899761,97.2662307602494,0.0031544751678040882,76.92856779928296,-0.08061837515481059,12.698957006464545,-0.009118959948017272,-12.247918694170576,-10.262941891131543,0.00029379464675375233,1.8729533274613337,0.4398686640895001,7.800533515148785,-20.17706658621585,-2.5374001510829554,7.391753045447838,-0.35774352473803306,-4.297549261729755,11.45933470115777
1.584654672866702,0.0,0.0,-15.059366043059896,0.0,0.0,4.24773382595861,-0.11811493401456813,11.153244056547823,-9.571374844651555,4.611316983232605,-13.590498862973135,-27.667433647562046,-1.2946568359583723,-0.001197124003084083,-51.513739260569736,7.423530431940925,0.006666756662301056,34.02696429129912,5.925031147163562,12.74574806618208,15.736654828569371,-17.47156050940887,-14.489143229680446,46.85689142314633,32.25048539083372,-21.808666630960627,73.21526278331756,-24.892718735182928,65.11191199651566,112.1276900578166,-0.0007842285462379542,-85.9902033143848,96.69524185741204,0.0039254183901551165,77.68570945199819,1.1346781981561984,12.023133457009207,0.0004063407036348375,-11.06215697957854,-9.28674090509572,-0.005784277694045947,1.1768351753731074,0.6223152080451626,5.8336790306642134,-20.955229147544216,-1.6286204067620587,5.636825800286701,0.15026804408983357,-3.6157065056399746,11.049091582588298
1.7784669724155338,0.0,0.0,-17.778225276564203,0.0,0.0,4.9140256021253474,-0.811216348290704,11.2581706946258,-12.481453749096099,4.57332522923285,-12.7741500988673,-28.15803294475809,-0.5163885075109617,-8.762083633707807e-06,-58.67569460113901,8.439706467546374,-0.030332370268406853,33.64301192781847,5.906581095747331,10.970197542689005,17.672575591232267,-17.261242202881395,-13.129408041474239,47.42549255457287,33.63306303306567,-22.705320585019123,73.45357003840718,-29.389007822091145,66.61941715687401,112.34070395077278,-0.002600966628920139,-88.78900596412147,95.9877433825967,-0.011143551045143012,76.2069076372392,-1.4508397369830512,10.615668994420252,0.020659975525271396,-12.254029326582064,-8.716941549260254,0.009238325822297788,0.3115532808024121,1.6585619933151179,2.872354397059935,-21.90367378191958,0.44850376893920985,3.286039948336047,0.3117577684851261,-2.854598554103509,11.56617542588689
2.011976346883176,0.0,0.0,-21.531200592216898,0.0,0.0,5.449168257013357,-1.0658435573450509,11.375210405235281,-14.88281592287659,4.231852276449285,-11.236708007605303,-28.24313321579497,-0.23358087684840284,0.00037820968049886045,-66.3107479897951,8.937076406793762,0.01998060309726786,32.6570677041256,6.166442688854439,8.520097316606174,19.714336789136947,-16.986678385342326,-12.097805533869552,47.89794677015973,34.98338386480373,-23.66665658574287,72.99324808519515,-34.430995301966405,68.95368193760021,112.76939134773043,0.0026009890618126173,-91.52392975528493,94.17725646574553,-0.0072803826516785975,74.58381531760502,-3.160753408211736,8.77820534715852,-0.009866901618167103,-14.541311890555862,-11.55111831752251,0.022508018528818306,-0.4904245667816357,3.0000765098575215,-0.5947384159785463,-22.765310242253992,3.0017425271268436,0.5862597136428105,0.28031973629454243,-1.8878574635807672,12.444314413096135
3.0034342987897973,0.0,0.0,-23.999294731901077,0.0,0.0,5.626334193558666,-0.1347897087227617,10.731994525382524,-17.203727507059043,4.0263669983414285,-9.166122004161426,-28.157526656228033,-0.1390348131369403,0.0006384941561644221,-74.2390327528943,8.474560632778756,0.02128031394199776,31.865456903950555,6.66226899187764,6.401965709365234,22.363401625794364,-16.670896453385875,-12.032004797500727,47.85294517162006,36.74216649962161,-24.112571802335765,71.21340843125378,-39.89719566292435,70.43928098786009,113.32071738800231,0.007009491362987085,-92.06207126169879,91.38600022176861,0.028260683497053667,75.99556728729563,-1.884995214500534,7.242716000436587,-0.007878756511499635,-13.486428861894824,-14.35117683190882,-0.014936416500807567,-1.708475294110912,4.065896023022018,-3.7129642888232834,-23.998717723383706,5.168193730061962,-1.8957872242869047,0.8832047102402005,-0.7006504253580368,12.979596178025426
3.5877343027604933,0.0,0.0,-25.309956169115466,0.0,0.0,5.491864667139832,1.0537688621517123,9.111864948940626,-19.47022759220201,4.8648113269955555,-7.833127381106866,-28.209172227362696,0.3324515749453211,-0.0006162327253980906,-82.21980910083718,8.932015453560409,-0.01817558902403185,31.634438860261326,6.883952299318126,5.046116082715707,25.49971065974816,-16.527048128519063,-10.886759756860139,47.75535500850235,38.40877757569351,-23.94503478260323,68.47818245127584,-46.25799510739465,70.58893956165709,113.91017455725148,-0.0034180507065985598,-90.76299530496308,87.73068573545144,-0.005330459856243504,78.57658623895567,-0.8040936698111469,8.359054143569168,0.018189913122274734,-11.583009811322876,-14.090081745922706,-0.007637905004669421,-2.9726880788733885,5.495361926961087,-7.379561734718591,-25.243835303096716,7.8764004341867215,-4.753376048421545,1.4789952378613485,0.33139007283501215,13.233057342986429
3.369364235636613,0.0,0.0,-24.982843188086047,0.0,0.0,5.504470880407097,0.5881265303678117,7.466782350837494,-22.927494543160364,5.2384296749223225,-6.469686020648235,-28.71368157639962,1.5132532245278312,-0.0019447846659745862,-89.8027662111964,10.37354851032363,-0.022977389151985175,31.399231153305266,6.84970116446701,4.536813385213799,28.805448102525244,-16.567952567756937,-8.005695193373905,47.320105586665285,41.851977151215294,-22.923270285330307,65.02927475271878,-51.43475904520987,70.93451623224992,115.01122564644068,-0.020591465162293137,-84.53367386232462,82.33139776777374,-0.099625505044,78.66420519771067,-1.2801599271681945,11.309649861575853,-0.0022513313751764607,-13.185583521007393,-12.852492981863158,-0.017631288724548014,-3.925838506686359,6.9019251449180645,-10.237305301096052,-26.171041464762933,10.254334032544097,-6.876458015624063,1.7271062308204077,1.2632680064939386,12.935156042519504
4.413922073618493,0.0,0.0,-25.884193189173214,0.0,0.0,5.433767239475025,-0.3065938062351587,6.4116552444423585,-27.41174136922135,3.5173374916280946,-4.161448614843275,-28.952477040087032,2.63887246001167,0.0008924184943724386,-97.39037818931656,11.015737869116496,0.017681064901996533,30.690258367017805,6.640881212706427,4.3361841685644995,32.716678901426135,-17.51115234565109,-4.7711411561814465,46.54240909684645,46.89788828961429,-21.49980215739754,60.67639491318979,-55.38040434586831,71.08790474061661,115.93304974810455,0.007040680949339677,-79.57632768052225,75.18493186210476,0.05184383169807592,81.65480980400054,-3.5014235984367943,12.557195145905832,0.000678609181015743,-12.522966000582977,-12.153676453194224,0.013443033065458597,-4.555148193247763,7.476915375568583,-11.626726864759659,-26.772674872448967,11.308120156958815,-7.953968752096177,2.106839568123306,2.1033539233274503,11.965294803840111
4.849823771940483,0.0,0.0,-29.205453996107565,0.0,0.0,6.004881723190991,-0.7885735711016206,5.014750475798525,-31.171198178469595,1.4581522097075903,-3.068029469873338,-29.321646024429008,2.99610688355054,0.000624218823906103,-104.66675954608586,10.448683348412937,0.009067290894370946,29.817841575165495,7.529927515164562,3.7740491444449167,36.4609346294334,-18.417602394689464,-2.782069870312859,46.74663096449754,50.60384871908791,-20.74930114348568,54.265018587038476,-59.29732976883681,68.03004210987169,115.99358952984686,0.0062784606233721235,-77.58886906689392,67.0639866486767,0.051033006381207655,89.76384117959185,-3.9197029838689947,12.825599791170408,0.001270329314392108,-10.0875187247652,-9.572364320425024,0.016730207941889896,-4.9902198112929765,8.222576017484126,-13.764695851034503,-27.14109735252122,12.798335310245013,-9.671431955046959,2.0314688789701263,3.847049259626546,11.346076005933677
4.761245215051201,0.0,0.0,-34.91145419856948,0.0,0.0,7.137205897943952,-1.4271612655395733,3.8295411106881128,-32.718042734792874,1.3828689336296323,-3.649222478607276,-30.206464736476832,2.8085077274754537,0.000673721289127157,-111.00623500789692,10.083866185677127,-0.022028748806236915,28.775049264111875,9.649614518262148,2.503520345270336,39.70360474143118,-18.718442135318693,-0.12562660113389912,48.16014418644038,52.90196749253663,-20.4358506110669,43.955193027993154,-62.80674864253232,59.74350148594128,115.89333995834599,-0.000417222809576972,-80.30218982180607,58.644484486580374,0.05072178097566972,98.11991646505062,-3.3995986032425876,12.183223083501828,1.1100490111134672e-05,-9.638020392888698,-7.473769341335002,-0.011107863097993277,-5.50880658298945,9.40821259528844,-16.425976124304807,-27.577066906520148,14.886648774539186,-11.721183487227835,1.1899857801752318,6.446160707694261,11.390300831166842
5.557897026955456,0.0,0.0,-38.36765436191037,0.0,0.0,7.703552683896574,-1.9438097700580446,2.3030676478530885,-32.16859428642767,1.6942868163978901,-3.8147525023613404,-30.789191641916005,2.831338410909593,-0.0005916068252663601,-116.97478091385678,8.884792006300199,0.008972962728180496,27.58856640802601,11.440299655973195,1.4041354901219967,43.86750080535293,-19.71878553052757,3.4514125149383332,51.13860220678843,54.67296716471933,-21.470321223717534,29.970224455799237,-65.64430943642432,46.66680048372812,115.60133863888791,-0.0034726840356018984,-84.3673077922789,50.89408311217567,-0.016980664979138367,104.66181643788049,-3.8296605457554573,11.149828614898343,0.0021973850769363298,-9.12924648358686,-5.656976280979399,0.008047534847884482,-5.5738936402380626,10.195616412740852,-19.32764960183518,-27.469775036368876,16.687219138432273,-14.170272498704918,-0.06504001619377249,8.921996927986067,11.300925651007704
5.001860524999356,0.0,0.0,-37.72398158009432,0.0,0.0,8.5705636018609,-1.9446382038936485,0.44857732998660704,-31.78143417511985,2.882026305339296,-4.831864276005321,-31.178854947025304,2.875992322604582,0.00018752518446141518,-122.34432731851295,6.049174841671852,0.01334424077209104,26.590311069477696,12.809052983650634,0.33923151125612533,49.61276234922542,-21.218955055817034,6.878408702581709,54.16372265065503,56.4037690414351,-23.32764958106325,15.366236156843065,-66.86867197482664,32.72308850984177,115.06425581125272,0.0030706451089065677,-84.36191733686236,43.21830202654926,-0.06992347166092214,107.06272415191617,-5.380425306645932,11.418427004029851,-0.0077556679181421855,-7.778236603961741,-3.3063011785121543,0.005208203575842964,-5.71840049170929,10.593418201310152,-21.889499711080123,-27.391990298462716,17.991885173613593,-16.466852626404954,-0.9674903587740358,11.53858543397519,10.312085832223943
3.8359764937292002,0.0,0.0,-35.94979561953109,0.0,0.0,9.761157667346364,-2.162425881378907,-0.7546862695907011,-32.29779407963187,4.955580656147934,-8.612217864893914,-31.682150860145704,2.508729689627219,0.0002443043730953423,-125.8633236495806,1.5828978816357189,0.007183241302196866,25.275826621586578,14.460686186899657,-0.9458498899931262,55.452415560962955,-23.070234724874584,8.297643395535252,57.12606271026658,58.80675003488421,-25.175924489528246,3.3882747134578,-66.52243393526858,21.18866517272563,114.48965550407364,-0.0021675313870303772,-82.54709628956817,34.78423007080996,0.004945684895204533,108.67851876441566,-6.861582134076779,12.58314104111137,-0.0031630163580274413,-7.263420990162923,-2.626604820316437,-0.0018274109405652886,-6.167819861979205,11.142523158206396,-23.056205423127146,-27.773508262224517,18.92482688948607,-17.376165707012202,-2.0372873754574643,14.109051491538986,8.272459827558388
4.848906720988847,0.0,0.0,-39.742343584512945,0.0,0.0,10.327363325882056,-2.857341341867947,-1.9156010612794605,-32.90696468680314,4.298873863226229,-11.332930413831793,-32.0450018172239,1.9882157480064724,-0.00020396381740319806,-126.53308350005413,-3.7774678501704755,-0.004483020368771164,23.252225505293246,17.079812790418146,-2.207836459018031,60.066122216623405,-25.35855407380646,7.097402840659892,61.885507580601406,61.250115193757345,-28.12545868625864,-7.648542506185361,-65.21588042005654,9.026619113236169,113.75477552068902,-0.0019945887606885745,-82.14238613522704,28.157266777743207,-0.000627158034870344,113.29383146419718,-8.251737806389556,12.32707459276383,0.008929027320480988,-6.605595597270634,-2.180400430956196,0.00678187501543402,-6.718165848856347,12.092170262672546,-22.976146515138225,-28.456474562861803,19.778381900197108,-16.92722985685754,-4.095547441199814,17.042524396271325,5.952619588401206
6.600068783782177,0.0,0.0,-53.756984024519575,0.0,0.0,10.63908348560071,-3.143745264540653,-2.40217719006868,-31.05720275630454,0.3711413605925844,-11.205503198690968,-32.37998272387555,0.9937086604983781,0.001444000939163125,-124.80437212724446,-6.9613534921829014,0.027844250541958965,20.908196903325646,20.426644023086997,-4.214209078740287,64.2334844127527,-27.288233763492528,7.3820897115932125,67.79886733712243,63.39753026876347,-32.1350330060656,-17.00028593738468,-63.5035074033614,-1.6654840233370574,112.96808995719286,-0.00241477344275905,-80.87228856758313,23.371494155496688,0.004783803682200709,120.09126887939163,-10.000351054591446,11.109762995218642,0.0034334528339388997,-5.247702001126359,-2.0226317744199718,-0.0019133982991962246,-7.518254573687377,13.08179688220585,-23.28446781605683,-29.356269803520703,20.8090105220462,-16.833514327819827,-6.9099328604076655,20.666481266402474,4.226193167921829
6.949153778985267,0.0,0.0,-65.00215767355346,0.0,0.0,10.93928296269892,-3.7898584130538526,-2.8573684218503312,-28.381268258327694,-1.3975627355418614,-11.56800421118206,-32.60752507612382,0.24799331459764137,0.00023470205393460894,-121.03751426556998,-11.316060615438712,-0.034933765135931376,18.13177599986236,24.049250197961822,-5.635730173875137,68.59909590167317,-28.058925892090407,5.927025708779569,73.75783442315279,65.21051012862031,-36.66054971375083,-23.320753335593004,-62.31145024777016,-6.672532014961649,111.90760019293586,0.0024909054316066934,-79.11926584895546,18.71271780277943,0.07572433757985102,128.97547811360675,-10.610327509042113,11.90995021836689,0.002121956852828193,-3.385589973072379,-2.7336982974428725,-0.010905752433762822,-8.600466953042467,13.33981877344592,-23.489357388447527,-30.45115619854026,21.122722082650927,-16.928967272559127,-10.089665045718329,24.58939973557321,3.0930379905112213
6.373824475468467,0.0,0.0,-68.29444962962968,0.0,0.0,11.191683591595119,-4.526931633507703,-4.480242351202857,-27.77869089517997,0.4317692113414111,-11.780463978684367,-32.45223622082402,0.13938988562708168,-0.00019006088195454328,-115.04806850813607,-17.31038966904226,-0.09863820791884417,14.983370681644914,27.669086167165283,-5.4945448778725465,73.23388960084753,-28.6300432794538,1.8406072303870527,80.96275315857379,65.89490174989787,-42.33108096282563,-29.16662181033858,-61.04565110665799,-9.819214996427583,110.61192134171525,0.00021837437129415988,-76.52398694453966,15.333992572482353,-0.014343582857364163,134.50904866347807,-9.937650202884933,13.474234027709493,0.0019285077733932298,-0.7942702897636632,-1.9915907435350801,0.007389931000041387,-9.29986893729452,13.437497788623137,-23.162907049491075,-31.20277045374292,21.095038225001375,-16.5740544764847,-13.467687736218602,28.2830107795781,2.3692594829003535
6.499144193282126,0.0,0.0,-66.91766435949728,0.0,0.0,11.429319058257972,-4.5178796075039,-5.753531095121011,-26.74763983641415,2.31023791928267,-8.380460250275958,-31.949546431961934,0.05981012094600538,-0.00015290976847988146,-106.750495417959,-19.047203089786393,0.040897912481540365,11.160249218139148,30.962705189074708,-4.376461017429724,77.72174441696313,-29.573312887098467,0.5632319278058083,87.71277579553436,65.42000717435681,-47.2961558055325,-34.77242540863438,-59.437262904337416,-11.940598012965056,109.59057880309761,0.0042362622080791635,-74.14572393857568,14.134441231642604,-0.01857865662900268,128.85520430972832,-9.195678005649096,13.250029984284675,-0.007980431761028967,1.7926450786173571,1.0183139548349827,0.004785968719608111,-9.715450469775147,14.568194225589528,-22.635216148412745,-31.845050936668276,21.951354684971932,-15.60814958692281,-17.31666857408943,31.388178562007976,2.051464788334822
7.33245718432305,0.0,0.0,-64.78929000589815,0.0,0.0,11.489318995288109,-4.558731439484691,-5.871275076358403,-27.017860751963568,3.1624000550925895,-3.974781930636808,-30.828590808884492,0.12241648136797266,-0.0004407651501296069,-96.17639546635547,-14.668598177577765,0.06788085544396133,6.256042799893334,33.224898730656925,-2.217874855493906,81.45693755588175,-30.174645081149187,3.733288549657419,92.85946272177583,64.35751407128127,-51.18943312509043,-38.08099705748156,-58.24799294949031,-9.685463303724777,108.53261632595277,0.0015533041545433362,-72.13214782872755,13.520737054964338,-0.00521167076203505,119.71199673161819,-8.717572218962296,12.412389292674701,-0.002762576587996671,4.830497789833337,3.825705913347553,0.0077959837974617245,-10.785412327536976,15.485481728425594,-21.19780142849812,-33.20560259697209,22.273945395800627,-13.846195539215882,-21.130308935730387,33.27957039332534,2.0641945049414283
8.019205054296762,0.0,0.0,-61.09315999198701,0.0,0.0,11.824530646826604,-4.207234265058514,-5.388335035217916,-29.56800559396815,4.21314539629751,-3.1182673752759333,-29.866786657645072,0.4691140685401494,0.00011493154504479379,-84.22140380735505,-9.142209216885453,-0.004801465002482594,1.8121755413136267,33.82584740352811,-0.8622945665443178,84.09362787182796,-31.639740215309185,6.151119759755759,96.11256935453119,62.34516895823957,-53.79146951689531,-40.25052561382825,-56.78494366346032,-6.495996965909353,107.44196558331424,-0.008847872994318107,-75.08267417514031,13.08838296401448,0.005361818887560897,116.22708082344131,-9.220937623705405,12.986590503726356,0.00015157905745416482,7.699902571701225,5.673735114209177,-0.0025099568171306507,-12.261305837300291,15.537437053527787,-20.38941377887694,-34.76639977147994,22.024333977826966,-13.047565811344256,-23.96973867192845,33.93522146470607,1.2773616203789826
8.540680753166601,0.0,0.0,-50.0564433609724,0.0,0.0,12.248167736970265,-3.0151199526960824,-4.502432144400883,-35.34180731061108,3.9810495942095088,-3.038553434123675,-29.322465684469268,0.9014703813386925,4.416520554109735e-05,-69.63634428967131,-4.0142165305494935,0.12361314880524019,-1.411330751922268,33.8476124586144,-0.6527869361515125,85.36537860907052,-33.483281725503886,5.965101292194125,98.11531164689073,59.66053260375883,-55.16246894856537,-42.79992649103219,-54.80423007857635,-4.067382753780891,106.61335885004144,0.006477850590099226,-78.83487230515826,12.916049371343702,-0.001924613195640727,115.68558283877273,-9.241595122301181,13.711056017294503,0.0010034839542844881,9.541567069683428,5.490502162057397,-0.007046899010416398,-13.30351754305338,15.583628534586634,-20.652849455091307,-35.79128533621526,22.16411061303289,-13.281552084757612,-26.12254811604862,34.293927273209576,0.32888495804869194
9.450282105746147,0.0,0.0,-3.4196238036895235,0.0,0.0,12.388381700384873,-2.439310023906217,-3.0649556264014874,-40.888671261443655,5.353280626871693,-4.330982857912133,-28.70840726717455,1.0725359350465988,4.584216891940521e-05,-54.26044888753646,-0.8648533812669055,0.0016329915826416488,-4.7921166557865185,34.037093027874306,-1.2220021804786478,84.99269867929081,-34.11158743637009,3.8856663381579937,99.6527013421828,56.43485472760268,-56.0152814038745,-45.36221385683399,-52.62449337891722,-2.0913159210423666,105.27628627770866,-0.005124098275302387,-80.84973523993978,12.642765885065407,-0.001092614892462927,114.19957357822825,-8.92485415079113,13.444841037106364,0.001070640966202858,9.316543503236627,4.57063175650984,0.0006140465261135646,-13.960364813763071,15.607037781969705,-20.373081357517584,-36.477768233340576,22.082608629372892,-13.00313591387762,-28.771831689812867,34.75304187341218,-0.2571467849080831
9.940507347698407,0.0,0.0,102.02828631370903,0.0,0.0,12.52946383382367,-3.0641765700088825,-1.5906102066917869,-30.95455716096639,5.531949555891196,-9.523688417383404,-28.417185929723477,1.1027208440059975,0.0003943393325458208,-42.09894832710996,-2.716150409115194,-0.1152595201803949,-6.883090454800037,33.96660194752173,-1.193265579328612,86.36863598652947,-31.772737083243577,-0.7847805083599326,100.83060788289745,53.92513543995041,-56.231739750987934,-46.72246988240099,-51.04039721684725,-0.3169056054675302,103.94598171669254,-0.0030959044035441803,-83.73620022618496,13.105112165936497,0.005617057210211209,111.59576232426309,-8.036702225271021,13.35996464344721,0.003349818456209754,7.838191812556972,5.666540558633515,-0.003786804391533455,-14.614240945249204,15.231800838864917,-19.229762569697655,-37.175489792448786,21.313547637040035,-12.062334979460294,-30.766456779268054,34.50603065241256,-0.43306641041773186
10.49168061796092,0.0,0.0,100.53521545225622,0.0,0.0,12.59581499868462,-3.421718188375854,-1.5050368348437013,-9.935748944443596,4.437570187756826,-14.727564128052453,-29.070777463654785,1.6401165383753913,-0.001592053203040353,-34.9265648751544,-7.25088641671736,-0.015112356963907256,-6.546533894135409,33.60039139750415,1.4490716718817336,90.33684832535687,-27.113610401541763,-6.083687102247424,102.3462419728837,52.04921328743621,-56.69280378135931,-46.462213389851236,-49.63127868358713,2.351027297798506,103.24456083820655,0.0061500118205652515,-85.50339830556,13.08644262754172,-0.013517962516539247,106.3880220540507,-8.041439799541482,13.320794282532374,0.0012664188325237963,8.269247922655634,7.021614775692411,0.002458205865029931,-14.531708265017325,14.48844437120487,-18.382698740255215,-37.05484995808621,20.313112168484572,-11.558224257062461,-31.40558499272422,33.18372266546556,0.5293933359167751
12.314988769827947,0.0,0.0,-19.093852758724672,0.0,0.0,12.829250523350096,-3.632764602370177,-2.5535269510098026,0.35767815337802217,15.4589748846404,-26.76580974437949,-30.250077811867794,2.2126811794485874,-0.0007481914872569157,-33.820988380656274,-9.102205729457836,0.029640589824985776,-6.197207348472745,33.69349467337069,3.1011838269051006,91.72276214748473,-25.422903463242232,-5.848925861123695,103.33091206357446,50.5139931834652,-56.624087807458594,-46.73251042557291,-48.07714112864213,1.7670034378211465,102.9252876059401,0.00033073742193637365,-85.6985521438921,12.998494849268905,-0.016720315162002498,104.4360637153342,-9.705504388440254,12.98833702854822,0.0046097784265735735,9.65324574859312,6.261767099671027,-0.004832825761990054,-12.657656495825584,13.597562069394954,-19.024871931613067,-35.00288923052935,19.727382091806927,-12.532943261452136,-32.55403526585447,32.922346945204275,0.37015344438909753
12.62229356092583,0.0,0.0,-64.8598118440896,0.0,0.0,13.55114475234469,-4.042409668107304,-3.30998083754238,-4.467627892671847,23.640705954905375,-33.44669177451126,-30.882986260651574,2.2974614581859067,0.0007073004482139642,-36.85418170272207,-8.053037874824362,0.0007826790239172968,-6.98837921302539,33.6325283909552,2.473382326764718,89.9344757966625,-26.81982700039823,-0.8089123869573728,102.04089677124465,49.53609167311304,-54.71031779312795,-48.536623542587265,-46.46707238802441,-5.322309250023957,103.47008988506892,-0.008714087774249675,-84.83776664761746,14.485549953184647,-0.01811782980214915,108.38101844322446,-9.92083926573952,12.23639212462188,-0.007931022326576396,10.742879390910387,5.6197348719839635,0.0018114992679823371,-10.513339928091652,13.098652587331326,-19.61653247936477,-32.738055818821806,19.48405930202527,-13.299247566398725,-34.103601249930676,33.77070231301421,-1.6994789705412712
11.766028236646719,0.0,0.0,-30.142774408729238,0.0,0.0,14.358646577948887,-4.724580944516127,-3.246350008851541,-22.16671521183826,20.61176623011866,-27.116597393198386,-31.240807749747596,1.9693589872202268,0.0007420205953305203,-40.1244991646737,-5.913584228320947,0.007760419705609609,-7.497641566911875,34.02000959410889,1.8609470988578645,87.67043344868607,-28.402775295455072,1.6391759580169034,99.88833568068173,48.38631355502092,-52.667040769488864,-50.24854177057984,-45.616401733682,-8.673023322530026,104.41435072408738,0.002969957258455806,-85.80418499073923,16.371148859385638,-0.0013403065881885062,110.41247986159927,-8.490437806732757,10.719644244664202,-0.003327444946812695,12.085114222659135,6.335965248218858,0.005868318594330255,-9.875831418868751,13.384718321355603,-19.127962632184506,-32.183141426279704,19.568579302067224,-12.717258599647092,-34.59445754559619,34.61758068393007,-3.3522053104514686
11.781865396605088,0.0,0.0,-17.327129956976865,0.0,0.0,14.507765057251321,-4.939512506307132,-3.233936558083366,-30.465787529917886,11.70213743033544,-21.95731789755931,-31.837184988559063,1.8945464096908815,-0.0005193646348591054,-46.108877930955124,-3.4341922752704623,-0.007543529416711763,-6.981531585231725,35.189988522498055,1.6801593939409978,86.18229266916298,-28.95324464283438,1.723023493904296,99.05830794795577,47.20514115000898,-52.628841494875914,-51.01768402503703,-45.43783250645692,-5.72179835065818,104.37200805422779,-0.0032858554276831466,-90.32106045880616,17.359728909340017,-0.0004584735259751271,110.43623299775375,-9.817132403065413,10.18615297014852,-0.0007718982141303982,11.832243130282023,7.4441968409299895,-0.002898280998919007,-10.426770846868001,13.607659162756981,-18.479233965154787,-32.82000874550835,19.534906587453868,-12.008173052818904,-34.276902560282856,35.60879265333248,-4.308509547773334
12.496884833640932,0.0,0.0,-26.351813671191024,0.0,0.0,14.176108267597728,-4.499286436371276,-3.65545470879522,-32.107295473522875,6.61257563348055,-17.797423406393687,-32.37091231066349,2.3197572855779742,-0.0005262799728040758,-54.99791744563976,-1.0426453690626998,-0.04740712805770521,-5.552913635076847,34.84561238338629,1.8758481829989937,86.90169895456455,-28.09932082754149,4.012223356400115,99.03366821382816,46.67124779824613,-53.110332627348704,-50.82699897238365,-44.380615414418784,-6.303792480571637,104.39203304100147,0.015780802180340666,-91.46143386925671,17.30252265902783,-0.001335479074451895,111.99178494554351,-11.28166256889468,10.579004289047834,0.0019477309826502712,9.814520432911744,7.223986648297622,0.002771267908560272,-11.194866538370945,13.648446556663897,-18.281135881494173,-33.61002040976955,19.499223474911805,-11.802840548682674,-33.542028198218205,35.550397866449934,-4.66872530473946
10.13695513005603,0.0,0.0,-33.52775466070949,0.0,0.0,14.600492401279512,-4.641334415145328,-3.3949072574262082,-31.979691994136505,4.517856799626116,-14.40875787579804,-32.619761333073285,2.4261453180638672,-1.7327477257650353e-05,-62.68969528661434,0.23171798706146382,-0.0034966217418015435,-3.9373735622351913,33.857167767801315,1.4620240096017185,87.15605084013593,-26.98078298793001,4.4939126189443455,98.33540491985963,47.49222771677882,-52.37629083815779,-49.982058117433276,-43.32546386621864,-12.033969786971582,106.04649838623597,-0.001015875366353163,-90.0004925563747,17.539780229877806,-0.0007361145807998711,115.51103858242675,-10.326886612196049,9.376798211926518,0.00014428194989705485,8.792045933660862,6.558433651640364,-0.000910434345441416,-11.497297251650561,13.38954428905779,-18.04569629934106,-33.89705052443025,19.172611981939934,-11.683139817055816,-32.84790734205277,35.26861611697011,-4.536090731444915
7.357176945579208,0.0,0.0,-33.60173396715984,0.0,0.0,15.062470050861014,-4.070508858474877,-2.4625430244744297,-32.566011241842126,2.087292640682561,-10.927569730226194,-32.51931066414426,2.0202884081339305,-0.00014337817525947734,-69.19138886017873,-1.7961458845767362,0.04572145960396821,-2.3223939033768892,33.01852512273699,0.9482265836637707,86.433195347258,-25.66966406495091,0.9440760109965635,95.74144279628071,49.06215433940562,-50.11966906523702,-48.86806546547844,-43.609717918353475,-15.267695855092345,108.06685262738145,-0.013719871816925763,-85.13267997511744,17.585272122537525,-0.00015485899473141306,113.92914755746501,-8.214538087597333,9.45343385693358,0.007541217708668014,8.021892077484985,6.168323040762664,-0.0018798037431816941,-11.466573989736595,12.988072299101646,-17.54884369500532,-33.85368484484801,18.617132467802204,-11.372056727928154,-31.586993210046334,35.291995940068524,-4.78200297212791
8.204195225506732,0.0,0.0,-33.8998888918352,0.0,0.0,14.568885627613593,-3.3069038453397037,-2.2009575333460836,-33.48554524603728,1.668536153205262,-9.071083841183336,-32.27880420277908,2.3662628447099654,0.001108301306050562,-75.41682999195598,-5.530086277606317,0.052089223870313166,0.026571990087552705,31.65992095780256,2.617488460142253,86.25937558794297,-23.55670346556575,-2.7394650192751953,91.95447337587444,50.8293764600317,-47.37802316879795,-46.89696603028493,-44.550629924361665,-15.054669303426403,110.33965663154449,-0.00112083228961445,-81.33107327568683,16.850861433831227,-0.004240690149814625,110.31404266816192,-8.542993121912238,9.844449271362794,0.0015721961847924447,8.053840151718042,5.454019953161551,-0.0010816034506537333,-12.093277393506508,13.404830319865114,-17.28487538380918,-34.55483077662417,18.904341850808297,-10.953272211348946,-29.092246797152736,34.62944508514651,-4.9096808929149915
8.904036942373581,0.0,0.0,-33.588848692763065,0.0,0.0,14.124593545010715,-2.8964871102862295,-1.9616621846051174,-32.01401672610957,4.234617229794632,-10.225296777650291,-31.91175900155262,2.185829820504394,-0.0023718749027306207,-80.96853782805061,-5.747433762571889,-0.06060252208657131,1.9446381610640873,30.367879883790085,3.782777738517485,84.87077319286603,-21.926752100169544,-3.742105338299441,88.01770433779573,52.52350605663087,-44.95939575337303,-44.52962997638118,-45.49362877687722,-13.745233014453312,112.34911792808387,0.006165460794563654,-80.38885075838331,16.60828201847445,0.003464937119357135,107.49725577401199,-9.428148429370285,9.3394951106484,0.0004229905848692444,6.778853133210992,4.109841480682102,0.011089605523922052,-12.926598093175194,13.48469262625663,-17.214830735754724,-35.40391776901323,18.952099875683253,-10.854447553513515,-27.04430479616365,33.777983362132225,-4.781376790508551
6.890477760707843,0.0,0.0,-32.056726811108895,0.0,0.0,14.134933104889052,-2.5028342530220353,-0.8957269603473386,-29.853808949036548,5.729283144761154,-11.920774857365592,-31.246357178642437,0.8893045530270345,-0.0013299853163213872,-85.67419253100385,-2.018895014155533,-0.027611459126451788,2.438909036526196,28.99671200351645,2.747127263953496,81.29081522374486,-21.322198697157802,-2.0588020632728337,82.83263271538951,53.81425221553802,-41.523050143347696,-43.57776071737062,-46.12062995401774,-15.14587250774891,113.9610624622431,-0.00220147156509327,-80.41759869892104,18.076705517341246,-0.04443080392980982,111.95035603763904,-8.939260573437027,9.493352553566162,0.001885605099271156,5.105553262874795,2.9143737913442154,-0.0016780800681146992,-13.663802165009178,11.985359516078596,-16.469717780704162,-36.00967521487512,17.288935193858116,-10.748932764287707,-25.764765008128062,33.39759146160881,-4.994409075794383
7.038320935919928,0.0,0.0,-30.893476095854197,0.0,0.0,13.580686849485506,-2.0756983484648304,-0.6111255503420486,-28.081868499271078,6.3419230821941746,-12.381277919291229,-30.7816877748976,0.2705443277743072,0.0012449926013558426,-89.95437412176783,-1.0247074399655611,0.03380085884936277,3.425301672508047,27.069607178656458,2.4144485975972376,77.52991412802892,-21.147524810872692,-2.3074871846444984,77.53922124984857,55.11586911756612,-37.888620603872745,-42.67073493302668,-46.777377640497015,-16.880109101160816,115.52533694016381,0.003545496616589911,-80.96630032330788,19.679490493307775,0.0029908614524941013,117.83566923971829,-8.684417766971839,9.556532547035806,9.113554000318637e-05,4.846856820978669,1.813790531482888,-0.00445174166824587,-13.724362300692206,10.162071868181531,-15.92205529412212,-35.908308853570716,15.397948771475896,-10.95046767000692,-23.797023506681757,32.60495291833368,-5.71827157180399
10.234105993983993,0.0,0.0,-30.308724673362182,0.0,0.0,12.355598141344252,-1.2052399423632347,-0.007993569825536714,-23.580744156539968,7.551412818720949,-11.387037618680559,-30.543446542773452,-0.3768482588373388,-9.682194837847295e-05,-93.89382724850574,-1.4548960496235737,0.006705375459455017,4.925378499909403,24.84383643200013,2.4574080056878396,73.66496472574106,-20.683969262052766,-3.182664026511001,73.04272345675237,57.42829293383951,-34.74543819778331,-39.63601382720075,-47.74441056867694,-17.098989812857848,116.81513398448737,0.001167979089637045,-81.59117521112547,20.736104529669944,0.01137924110148503,118.17862306444336,-9.510990788693348,10.080908785912365,-0.0018379597048035223,3.8650742310987694,1.0796681211013444,-0.0022598667396622647,-14.208690198206632,8.813716437530125,-14.97137271032331,-36.32967713800511,13.795575033738745,-10.578415778585386,-21.751661607314066,30.874811048223116,-6.6630173049635495
11.658313269505712,0.0,0.0,-26.785298397695858,0.0,0.0,11.298037364230236,-0.7776489113216272,1.2505508623557213,-19.619708124058146,6.929829615932903,-8.900587567531215,-30.15203993696868,-0.9224620234704133,0.00018377186199992242,-96.38415500635077,-0.18385149307878929,-0.010361684078366686,6.565548448347812,21.77266029077954,2.6000954096261624,69.83623944586046,-20.38414783451423,-2.1010427475329934,68.29294537351215,60.11845172569534,-30.941040248269722,-36.009484775865175,-48.42876744545445,-16.910352095702265,118.03518830134955,-0.003926583701907615,-80.75189344365913,22.00859121656452,-0.005297261105727274,117.8523728590749,-9.1079489866088,10.62029406564182,-0.0009416991586812995,1.902683841835051,0.413144748959947,0.002633758479176649,-14.90542823422859,7.736471568279517,-13.893447340664139,-37.006862623230454,12.39604933609487,-9.980069941433928,-19.613406799607525,28.10652971347497,-6.997131330478719
10.583389256234039,0.0,0.0,-24.547356538242504,0.0,0.0,11.044118297214526,-0.5801513266295707,2.5445448655805882,-17.511356584102707,5.330913268899166,-6.511684510651429,-29.6759353522964,-1.1672693106670045,-0.00029307985824060745,-97.5491081476132,1.8496720179238304,-0.001540820262832092,8.129569352869046,18.58290755232295,2.783458267183304,65.29185164610678,-20.526916550409375,-0.5085343387521705,62.19743520008532,62.07252812911818,-25.659031711581918,-33.192249323863216,-48.99239868317617,-16.248952669349197,119.48062761416234,0.0007073672821187399,-79.30490815570023,23.589141330320103,0.004179496027058848,117.55306053875712,-8.292715196787256,9.982003183891456,-0.0016878913445906773,-0.010048694870671466,-0.6618447432212459,0.002056443800351466,-14.833029867917132,6.804848866865509,-13.284757683521818,-36.901319854345104,11.305768962724892,-9.766283200994723,-17.298110681511055,25.441704522579933,-7.20397608394834
9.198521888128447,0.0,0.0,-24.864568422928784,0.0,0.0,11.318255961439073,-0.36741431689030224,3.444818961920124,-16.5909203533501,5.155998768643406,-5.574488995441869,-29.391475721298146,-1.5417528458843577,-9.432116090377722e-05,-97.58081309269629,2.504053849346337,-0.0009916556421635065,9.914684936684473,16.346031249568977,3.01270162869335,60.2654227855788,-20.186330379541072,-0.3946329857756461,56.29092179078334,63.218528762231756,-20.762982384125163,-30.50864539833995,-49.59300397966476,-15.143368267618408,120.37144314600731,0.002213546534239695,-77.0933586236523,25.507549355186928,0.0073431353572200935,116.67079566192942,-8.361795346513631,9.820101937773149,0.00033511193357418765,-0.7326485363235841,-1.5331959866452922,-0.0015190670132309728,-14.588017403182143,6.094387178563602,-12.544545270933549,-36.65256847029963,10.37102971249256,-9.344007640807602,-14.763028750812177,23.564075661037492,-7.507472649172737
7.683456992995742,0.0,0.0,-22.34187649619915,0.0,0.0,11.416553101979924,-0.5637015284467625,3.784345048616625,-16.6396496512014,5.200589263542706,-6.131697787900681,-29.304506795808866,-1.507522798003852,0.0002778360780620215,-96.06304426974764,3.9365182393666247,0.014048276248564848,11.477351237590867,14.185014493201827,4.592131769690717,55.36926036310656,-19.10716063251716,1.4822595971755088,51.5819457359384,64.47179310861425,-17.00598014277417,-26.978132431841743,-49.98965072763889,-12.798009989769168,120.95091051212492,-0.005878919293402128,-73.42081696599723,27.78607342176003,-0.01482894880358208,117.4858883415626,-7.662831449311182,11.06265115460103,0.0073510866373857845,-0.18183485913410094,-1.5041822614058071,0.0006558754186787665,-14.098241752314605,5.493636702928781,-11.845318158426902,-36.16580007306077,9.552947858879334,-8.918582769481217,-12.66302796667956,21.16045666045049,-6.963172731943677
8.631947117915049,0.0,0.0,-20.462405309608034,0.0,0.0,10.734806210218942,-0.40011534796011305,4.242304105292598,-15.646319131554057,7.50932488289845,-8.317752774625813,-29.163042733701726,-1.4942476849701725,-0.00015560625772630704,-93.20968302643459,5.441202816259829,-0.0010073232747907297,13.047400820889852,12.414823736358619,6.23208918493367,50.32678905838077,-17.763201497286303,3.6085532021625406,46.34760933674972,65.93121284700204,-12.736126863017033,-23.373902592563883,-50.06636336352518,-9.61949426603577,121.59162801747371,0.00010550248603441915,-70.47598945742683,30.10819405545153,0.005490850890262956,118.87690419385575,-6.480716721526643,11.71442853101043,-0.0020454727015910565,-0.2081038642840012,-1.3587364437390732,-0.00027244333292488317,-13.919351335213495,4.619213807774338,-11.529124111173887,-35.95324120549925,8.624232198210718,-8.955390658775764,-10.613350400547686,18.871857082966244,-5.991856356805955
9.498967526342883,0.0,0.0,-19.615896866981725,0.0,0.0,10.47392227332737,-0.031193774595081655,4.772633407379142,-13.662990289969716,9.628096956256883,-10.403291558113333,-29.299517470377843,-1.6224848940817889,-0.0004227946227612366,-89.27010900512317,5.025505151958235,-0.014886429905821359,14.772186370835056,11.31461003328092,7.752339848058789,44.81623428167536,-16.234509784026162,3.3103305803655245,42.003632497691974,66.62777991766298,-9.294660778899281,-20.436275409258894,-49.980030560180516,-7.166451543129396,121.91966909301937,0.00190813183683486,-69.8542538651781,32.58563505611851,-0.01004188675209836,119.28009769305605,-5.591637780527807,11.172183406712511,-0.002891109565477294,-1.3466126558090687,-1.3543174001970828,0.00046404326059545985,-14.005645156924851,4.051107959152054,-11.223404533580352,-36.02656036873799,7.983274868890951,-8.885130669750666,-8.605230782392047,17.22213531581146,-4.526892187306056
8.113975893618253,0.0,0.0,-17.07067486774267,0.0,0.0,11.027196363251939,-0.2484391862380093,5.112464743066488,-10.816972625519098,7.775716897021875,-11.897569244134367,-29.921694279888577,-1.5549261293024736,-0.0002393122574301502,-84.22427624935897,4.703663079519659,0.015062598011821627,16.43945213167921,10.197660944056853,9.161374803823543,38.6789663191096,-15.07921123278999,2.947117365000715,39.96737010491235,67.03303079262231,-7.624375881567541,-17.814228253780733,-49.52557026523006,-5.926134824369301,122.06173573597819,9.981317045811233e-07,-69.0717564906155,35.68883660108215,-0.011090587574164408,119.75709126537495,-5.437069737407587,11.392719585869688,-0.00039148128524360163,-2.3746542449417207,-1.3626250434770646,0.0005589492474149523,-13.572002515634155,3.825340597020849,-10.833861927152238,-35.60395437689082,7.62823353752822,-8.606962031725935,-7.211396703764649,15.638869516678271,-3.054231631573274
7.785870337423678,0.0,0.0,-15.296688550472844,0.0,0.0,11.276221287885146,-0.6083768980428698,5.69428154193645,-7.73547592111813,6.601651158075139,-14.964575366874406,-30.500239161199712,-1.6381748169785326,8.58706814789887e-05,-78.40193956926672,4.6113516367348995,0.007134280746320323,18.00762955657951,8.94486338027337,10.052889759233238,32.47021825197723,-14.564886356879041,3.0422421577174887,37.398825480168,67.63200656409525,-5.0971550024798775,-14.682516566306044,-49.27232399128908,-3.77156329269778,122.25775584274594,-0.0004165202747323305,-68.38029232865047,39.02550278288496,0.014702537902646641,117.15494596227846,-5.523239155157795,11.604032609396532,0.0014801720295280559,-3.2283253629347173,-0.7714706701109931,-0.003224302220729817,-13.278503113354626,3.1755694487723196,-9.91620127592454,-35.33037670682658,6.6822127539338245,-7.99706124109436,-6.002314453482644,14.044397529165531,-2.316587232508011
8.738139665811383,0.0,0.0,-13.187332411166583,0.0,0.0,11.187490866486357,0.13789551225113714,5.861615920926892,-5.342943164185734,6.1647129500962095,-19.709164201582603,-31.014055935477607,-1.9547910745182073,-0.0003819981717473255,-72.15299638234066,3.2840458511702795,-0.01649143257440997,19.70214579774929,8.275361691665422,10.97645289422672,26.97785570465579,-13.75745620211742,2.098043048559362,34.63415199228294,68.13684151292306,-2.4403928527904606,-10.59164128455367,-49.347866385214544,-0.14870671784019995,122.43690374366346,-0.00021625597750201647,-68.01735618918511,41.9502459884021,0.0019135894601141365,112.08798442820449,-5.669005167345015,11.290853677301556,0.0008176395424996397,-3.1982087481300114,0.18103322629233096,-0.0006221518196805138,-13.098462212931851,2.747024881816468,-8.816221023446811,-35.18778689422747,5.872309181675203,-7.134898971885957,-4.665799162992593,12.79323220383446,-1.4225935725849241
9.291398025909492,0.0,0.0,-12.698379331923016,0.0,0.0,11.1369832079744,1.090634006707302,6.289871227762533,-3.4127603578455368,5.339983532697326,-24.06140807722706,-31.75803379548087,-2.3228044841825,6.735713885257227e-05,-65.57678417413531,1.4344738362101708,0.00530729182997984,21.382732198714116,7.646750565964942,11.959763031002879,21.935353629219662,-13.206951559661507,0.7283227242085818,33.58274820981565,68.46869973612823,-1.5289628464138172,-7.39523421349857,-48.858120861050985,1.5293711398198733,122.22547195638913,-0.0010763129157081149,-68.5353430057297,45.481454941022086,0.016762365912748975,107.42166402048309,-6.736118150234846,11.623326787215012,-0.0023297237324234085,-1.7006049041964062,0.6199649744772012,3.18609941805347e-05,-12.547943549820802,2.7007859735503437,-8.16189874239179,-34.66516936196762,5.583536856179703,-6.543796459754768,-3.6249660438748745,11.451388525640812,-0.034773230769380034
8.689736097790151,0.0,0.0,-13.001303878821718,0.0,0.0,11.318116663986256,1.8994950778416388,7.378003303586743,-0.6826855373361221,5.1238738484841955,-25.982727023183887,-32.564623391404254,-3.0995335452490735,0.0017540026372405801,-59.27695553999134,-0.3855340291236391,-0.006827755605678129,22.868153377622967,6.609357946773732,13.029632435207231,17.532478974614644,-13.536193972114013,0.01047155395326868,32.95270732940502,68.79534272677977,-0.4854184231319515,-4.7035823983757545,-48.071467577738275,2.29417033691728,122.38910220861926,-0.001100482092755242,-68.6528622338561,49.82701870068105,-0.00021137255004867158,104.80381883531285,-8.586458203426801,11.279545783520165,0.002726584794913334,-1.1268596233491777,1.1899418634215613,-0.001442082380232228,-11.688110633923742,2.0940495724610235,-7.709947796928138,-33.803776211838596,4.851439646500908,-6.35310516132389,-3.2961357972507845,9.554509491191105,1.64873568074621
6.838046024315268,0.0,0.0,-10.640793403107779,0.0,0.0,12.48143960280738,2.5073035694005656,7.690503503006933,1.6311248430570862,5.752650078565892,-23.95527572499251,-33.36964919555832,-3.3784653876471586,-0.0016305599435768251,-53.06063348297515,-2.4452531518204013,-0.015718860148913934,24.622897451670102,5.670758717535179,14.465342803189571,14.17073921139376,-13.922385645099379,-0.6065021252319033,29.77062757710275,69.1296343707843,3.7229379236938462,-0.6112740681146905,-47.68022252201481,4.967304250546974,123.38513635597488,0.0015547298314916567,-68.17520639897273,53.98173218891752,-0.03333056928361578,104.94796811856331,-8.21148789981154,10.147993232603035,-0.006015803951852269,-1.1564813268576388,1.2502815163432353,-0.0002534802823429207,-10.54646393208699,1.4042766721642055,-7.418023429748574,-32.654036578952116,4.102565573331798,-6.342384536987667,-3.138714531658551,7.87716670409315,3.352149968981616
5.437898354469362,0.0,0.0,-6.680113462827819,0.0,0.0,13.787019403036245,2.316889480161307,8.227592951051209,2.471268097281617,7.111069284837329,-20.114396383494345,-34.20804720765163,-2.563003893989011,-0.001315830213941366,-46.93558641310422,-3.076657310458282,0.01455507075568363,26.763248773865616,4.559570489995488,16.018712919847793,11.466317803019441,-14.615730638709522,-0.8104060190175233,27.152850499919055,69.04329374900107,7.111772480461522,3.460283079286312,-47.23885354692138,7.693523771673571,124.06409547234169,5.709125358640584e-05,-67.10759950100956,58.21278699852997,-0.00026503586881009814,105.19573001881729,-7.520188754488441,9.71562421935783,-0.00011694211652435209,-0.3232792689071483,1.1877172341640678,0.0010759611543460286,-9.457027534209784,1.20267230525452,-6.774770662359181,-31.585312522049616,3.6736648171979525,-5.821328379315088,-2.64164555058532,6.501301869112595,4.433960135670414
3.609370500197022,0.0,0.0,-4.7243145959633255,0.0,0.0,14.281258487935277,1.6929020618613366,9.53459725219408,2.2367243321654184,7.3542409667230375,-15.644887613803327,-35.042066038535644,-1.8858270945648963,-0.0004573635404311609,-41.65121822667282,-2.48932079930338,-0.0017210952245301355,29.000082017082136,3.1066590337400584,16.98308219130737,9.289488663310657,-16.102715149780824,-1.9473125908788678,26.074439464760182,68.59652407174727,8.419667325513814,7.191149652250188,-46.570124090653884,9.918425373634381,124.22343900422659,0.0019976759782517105,-66.31744806334903,61.74900047892,0.01547377770809082,102.49143952520738,-8.392129066478391,9.50226088285196,0.0005479661838688802,-0.5434716553714422,1.551424581270382,-0.0027557684804268025,-8.880448682721816,0.30055512329291967,-5.361855827673661,-31.040802606709185,2.3055515300081804,-4.851462326363627,-2.2032542457297963,5.135150857585274,4.817734751951456
3.0251565108393397,0.0,0.0,-4.105562729445947,0.0,0.0,13.90150657221118,0.9560188487417832,10.584147038053887,1.1916687879766579,7.160844709795824,-11.501463243354486,-35.863835492962714,-1.7971326607417284,0.00018791787781901714,-36.872245617421505,-1.3768008600668222,0.0106476076743609,31.435374801824327,2.0616774122286583,17.590777388466897,8.145452485125,-17.646485508661346,-2.6163078897727416,23.633714470483508,67.61644390526105,11.371476846233287,10.497299296738088,-45.677960049790784,11.093719664305308,124.86688586309124,0.009761032415873628,-68.19266478339826,64.90642996834227,0.001089792349255009,98.67344506385274,-9.184113510643387,9.434184322261029,-0.002107860918415668,-1.7796877948751955,1.7592394440672443,-0.0008248126560058655,-8.20417155115431,-1.1271393134682943,-3.973389282335887,-30.39255751724228,0.45944746514516493,-4.104325475409389,-1.9604217239735835,4.138996670853815,5.561402786465566
3.5111452209929994,0.0,0.0,-2.9387210925336635,0.0,0.0,13.160013082356707,1.1769060670252838,12.157955736081304,1.2287861073005766,8.536305664657977,-11.439822049813003,-36.33770931044811,-2.4776537713573163,0.0007109529833548172,-31.146676521961798,-0.17192598429343148,0.00165412106290805,33.9606550854659,2.0461737212972855,17.41362383832026,7.356072591426617,-18.021337802346615,-1.33500916785693,21.61502582680054,66.38934351662297,14.010470648428637,12.829066748156128,-44.47501752930757,11.186493632093267,125.7705306300916,-0.007427850822754433,-68.03290137286295,68.29135443737698,-0.0034147320119908868,95.81249519123186,-9.335986737685124,10.024878429205945,-0.0006190723092987544,-2.598486955054207,1.2704840576629792,0.0005208785413486218,-6.989183727970333,-2.0263488118626594,-2.478392724023401,-29.214347089409213,-0.9378887424182517,-3.0605810454659164,-1.6678410720271664,3.7348115819293746,6.7908846174596365
3.5258899153723506,0.0,0.0,-1.2182041769880836,0.0,0.0,12.48792498245757,1.4913253601278929,14.517205917860903,3.910147529454166,9.428265590719624,-14.665072471258807,-36.84988732141154,-3.1935002140704003,0.0003082712259223261,-25.19738803333633,-0.05629727689249354,-0.006150004712247675,36.52236048846237,2.015810254508777,16.99237815241158,6.376723164409937,-18.202649659313956,-2.0440716363404916,21.026564193319782,65.33015670091821,15.29349176802932,15.00785707288507,-43.27036359477988,11.711899427772378,126.58988616082823,-0.0046315464165160355,-64.56137324093666,71.30289199984212,0.007363662793106324,93.14112800718466,-7.719988827377821,9.824070391198727,-0.005708988501864789,-3.9116623626751315,0.9314497517738884,-0.0007016799942750042,-5.617794872283811,-2.4781802496557703,-1.1499625096653796,-27.869351681711645,-1.8584778406443827,-2.0026059474109212,-1.6224700476354477,3.0837012730291624,7.481562046257967
3.7099807239483655,0.0,0.0,-1.521721979378111,0.0,0.0,11.717910006902871,1.0649213772501658,15.549317844029963,7.15266036397798,9.438533452428862,-17.799800096775257,-37.26298763807606,-2.8554728506594054,-0.0005858187950543469,-20.51661285077709,-0.4778974343025156,-0.0037285675440056052,38.91461394271529,1.4461773660397017,17.93422063604687,5.819337682424282,-18.776733828976624,-4.388618792519134,21.610585730717585,64.09773532192233,14.938708227823106,17.399053728392303,-41.72431275210692,12.162690893077793,127.16318588507201,0.0025985212372193,-63.573406426847534,73.59303513346981,-0.00027922089289970974,90.98150968033735,-7.3074519496634665,8.87224528019438,0.002709049886147399,-4.96159686703121,0.6311516415987797,-0.0004628604876492182,-4.454030408716295,-2.9642952715339708,-0.05882355401387571,-26.724425292866552,-2.721262867218444,-1.1774177637840246,-1.9108797597819043,2.175601221269132,7.577860688066571
3.203952194590557,0.0,0.0,-2.577944954816943,0.0,0.0,10.89055217751095,1.606819700756877,15.104793051864284,8.825705977219988,9.507019288281228,-18.68718297954459,-37.090609090877514,-2.070284649988104,0.0008296819370771496,-16.37488408692773,-1.1232907666757173,-0.0038593010774166615,40.7429042951306,0.982936300642626,19.550691407727598,5.3815194015921,-18.972037347801038,-7.081784827664785,22.981030978273267,62.61596329614976,12.851484921070405,19.403895015326988,-39.826221553512546,12.531944724434187,127.21556566154841,-0.0009217388559615955,-63.30431609178316,74.91411868559601,-0.007988419258652714,91.3270917784531,-8.603959001686073,8.148977871549654,0.002354848683448566,-5.630178449056811,-0.04886499440084707,0.0016841487538742682,-3.6399395129410292,-3.639583351968927,0.8269814904141103,-25.929903901234276,-3.68140531831836,-0.6142521772045917,-2.295795361665555,1.7962527996952145,7.530089396164263
2.3764047073622008,0.0,0.0,-2.9137393205106403,0.0,0.0,10.02865716376108,2.2168985710609714,15.415001963073955,9.297543785216142,9.386568394747966,-18.70902453474001,-36.20888853625269,-2.160273812928195,-0.00036247143041063986,-12.575963118199924,-1.1776275755285923,0.004973209705081665,41.83795173220911,0.4302626298335522,19.805728264311018,4.7550675196312655,-19.26057951732414,-9.30712016080932,24.319380088909654,61.23620913502904,10.68562707614127,20.780014742781194,-37.83873781448045,12.743064055579625,126.47346022632236,0.008094804826527633,-62.00553233785465,75.60446022126686,0.003653084749010453,91.6108561670211,-8.103223172909527,8.468020947727329,0.00460915673945519,-6.904639524259392,-0.16562152556638263,-0.001907864054067952,-3.0865780990615588,-4.005809474833354,1.6269445608646933,-25.38791852391837,-4.323069405221682,-0.013221606866447348,-2.8374669449478995,1.6804151513006589,6.918399134639341
2.4784157861019187,0.0,0.0,-3.763768795611718,0.0,0.0,9.102660707519508,2.051812903495575,15.476036802424192,9.597104234312983,9.485817686166682,-18.87639849386759,-34.80522148836997,-2.6875993066239934,-0.0012226769500843623,-9.864492157062859,-0.7967499470860623,-0.00021546290693115944,42.48196098730971,0.19505805329693435,19.78459332987393,4.751544883338945,-19.686007324612163,-10.339344582164799,25.52580598970103,59.56337474184207,9.02185943563555,21.598124531859153,-35.982923825960874,12.505960849939875,125.6056288047635,-1.7169759494567407e-05,-60.85765910616082,76.21105101199686,0.0034857177289928003,88.93729979501309,-5.6925799052039,9.015831192364256,-0.003708423561824294,-7.651764191539591,0.4056580712886111,0.0016855099636970457,-2.0894999082194627,-4.443293130376954,3.1698606408693406,-24.398517081293154,-5.31185441153612,1.2487861849703292,-3.559127860971578,1.507435765840834,6.3395027238913695
3.2211940108649104,0.0,0.0,-5.644371444145042,0.0,0.0,8.243450305739175,2.21920574975743,15.571373684048753,10.008271381332865,9.693236511372426,-18.796937175879364,-33.46881028637979,-3.3796329778869523,-0.000760511494967778,-8.224452274429243,-0.15759383307913644,0.0007064691753003793,42.840287931900626,0.8516285499333055,19.91876974267368,5.524609710713808,-19.93576780925662,-10.437724269721409,27.468974603309032,57.40042675543934,6.43394991267234,22.350465844253495,-34.3035813340665,12.566945296617288,124.74752963861978,-0.016242608428344952,-64.77542369639013,76.05512701223803,0.001403242445024856,87.19749582850257,-7.317931976201572,8.65624467371124,0.012923397662612727,-7.071291999114023,0.3263292555271731,-0.0037022279261485127,-1.5381220997647183,-5.1443971279414065,4.67365798240407,-23.856657913786343,-6.529411661065993,2.374921260185876,-4.478805305914814,1.685372472021335,6.615833000649069
2.2092194949332535,0.0,0.0,-5.90996085153941,0.0,0.0,7.610294182170404,2.7621230674307657,15.987790922721905,9.840710601596776,9.29490029876988,-18.092538212415924,-32.36965611253006,-3.6264748279056405,0.0011185738591684468,-7.387454433715818,0.6858187969163737,-0.00020934615634522898,43.37592134268504,1.4309579592447552,20.50493269438462,6.673848535609593,-20.20674843999233,-10.799223121782418,28.641221729803487,55.09567857158099,4.2574230654409595,23.17744978085449,-32.811674937662076,13.386925918181166,124.131897110892,0.0033878277697115856,-69.65921125407802,74.80311847692509,0.004469742241786992,88.25509703599306,-10.599149236092826,7.630246462244008,0.00957717236512609,-5.4868434878920445,-0.6518346376067342,-0.008964574010339732,-2.0095163673627447,-6.018117160250976,5.217015385418462,-24.360135562779497,-7.543101957769531,2.544386989397901,-5.067093140256322,2.2404665038300653,6.642963088415324
0.3349303209309951,0.0,0.0,-5.238400413002855,0.0,0.0,7.120496766953416,2.36456163961988,16.46445411160142,9.462677566202325,9.051174869389783,-17.769852300118483,-31.173261502483733,-3.6225034898884343,0.0001626556989278056,-7.3122631474298085,1.2683404645176262,-0.0007961847134104951,43.95385008642634,1.4515258213203448,20.851201562796962,7.921665334503613,-20.58576555725054,-10.631207718838258,29.688702068128684,52.495798603124996,2.212031812045302,23.68073566024523,-31.473066957655675,14.264460131670717,123.68052708297373,0.009723651025169235,-67.99591576353802,73.19378228990598,-0.006406942471793065,88.54754512177695,-9.019387776433252,7.406404073596505,0.002458540112799299,-6.281665797314035,-0.9376921801942262,-0.005027381224453489,-2.1069819024196366,-6.658978130818773,5.529150178780493,-24.48609581121746,-8.253794669014155,2.587852180804988,-5.309155759908353,2.6266207016557375,6.057427475011357
-0.7695826106767523,0.0,0.0,-5.250291581790644,0.0,0.0,6.31445110677847,1.89614945900135,16.36476096568262,9.45490150602485,9.752652049317463,-17.134352862721805,-29.653887217590256,-3.6113000570977394,0.0005293004452505144,-7.68096372919029,1.2659633651232167,0.0005409083432461538,43.86777069995347,1.3039292824620894,20.993639203839646,8.843640776944849,-20.82476754673017,-10.390266199773453,30.79416408353248,49.62555680349105,0.18325060167117196,24.393756140550174,-30.32449954087819,15.213391730675994,123.47384760983009,0.00046958634930566266,-65.1003129073601,71.24214454959636,0.00652649265421218,89.17439618829054,-6.391573610351637,6.9519051331008646,-0.0016806038699418867,-7.053314303994624,-0.42877962859787827,0.0017266420326489218,-1.6743101814319097,-6.737386453165225,6.343366266680235,-24.041804482841403,-8.634103219965613,3.3136623673773236,-5.937196369040903,2.9838619282805676,5.274052634158461
-1.3525780684017448,0.0,0.0,-6.107367117259957,0.0,0.0,5.072172321773054,2.1316394561707206,15.963098326687918,9.819381270686854,9.995630828041081,-16.34570571081833,-28.075336423628734,-3.7283328235967867,-0.0006068869821767177,-7.847889799270017,0.8242914770495556,-9.439322068647047e-05,43.847500500652394,1.372635843843681,21.30354114890284,9.781280910543764,-20.60539103732012,-10.211922850009756,31.727249241639782,46.78238460152798,-1.7035317597555215,25.00350746636389,-29.312923269849684,16.216566149701336,123.26307533644272,-0.003993281020899184,-65.75858320808773,69.11786980604565,0.005038880759015363,90.69639982632224,-5.919350900320321,6.140808842913882,0.0017941923945935607,-6.328342101116536,0.025372766489847917,0.00039370245778794823,-1.461768913433565,-6.246887606430934,7.147241053780876,-23.78090508231026,-8.484080864820754,4.2492925474737016,-6.1945846369092346,3.4167950093383133,4.675351312067421
-1.5075573480994655,0.0,0.0,-6.509352045928315,0.0,0.0,4.065033979275085,1.6983705696316247,16.06475195843282,9.817372396705231,9.923111865222388,-16.344702955486998,-26.53390309553959,-3.9939293421547957,-0.0010241933636811694,-7.568957893790075,0.48106322313426464,-0.00021291461114261788,43.9676812423356,1.5264371517833615,21.012153898785982,10.551098495859387,-20.088880799246436,-9.367372938062658,33.27160963896883,43.667682484241396,-4.212100795272356,24.68236220793313,-28.67127603998059,16.534589423138357,122.51442635602619,-0.0032874924727788533,-68.25172597164737,67.7812280542085,-0.004906970865364162,91.12755785439109,-5.431780827009901,6.065201532706237,0.0004850024254826145,-6.823289676804174,0.08341931676533874,-0.0009368633002163706,-1.3818779991469348,-5.694329580054707,7.3423996946053345,-23.664766536318943,-8.046506830010161,4.642641502967906,-6.124706688270823,3.7559253201276466,4.61036928472861
-1.0402141505649696,0.0,0.0,-5.927784193238906,0.0,0.0,3.2793556962651857,0.40957473588621524,16.36125750135228,9.514094638963979,10.236929209206025,-16.691320429506195,-25.17444038248581,-4.075107080647733,0.00026145522861337737,-7.2995862883947815,0.3515645284844591,7.077367480883625e-05,43.60488865136884,1.669521067054696,20.710921420781055,10.811766132251442,-19.67735581320364,-8.68417818471346,34.589989945079026,40.84549466027841,-6.590196689814516,23.89813244621819,-28.210314050474565,16.482883381736045,121.71277633632059,0.0019440041401305361,-69.59462442097775,67.35896255484481,-0.0009308002174159662,91.02366555803343,-5.234198585616741,6.68774583733679,-0.000988916139456641,-5.989496251290767,-0.3742592395137445,-0.0022308259965179455,-1.1136110875947982,-5.740984403529512,7.654664544021812,-23.389072240649334,-8.207469512163092,4.915213023235863,-6.486468582458517,3.8860014645734675,4.805227401944462
-1.4892429948395738,0.0,0.0,-4.803844850541024,0.0,0.0,2.63726367134595,-0.16026083581756168,16.091059804670742,9.275446719462419,10.535030286914989,-16.736160628545708,-24.02832659175972,-3.7802302131492262,0.0020741053517062745,-6.88169611426253,0.23066432852347624,-0.000140057749501187,43.07254279989158,1.721865517845616,21.262300005036426,10.741441047507857,-19.37048002042684,-8.744576021980796,35.22683741890444,38.459051010043346,-8.57385487785582,22.702638658759664,-27.633209753680955,16.700751771678082,120.83179057533816,-0.0020015483907881845,-70.46844221262148,67.58211198786387,0.0014248455998120422,90.9031201508532,-5.815041537166499,6.953780262574993,-6.812252555116652e-05,-5.805442845843267,-0.7248646315898282,0.0007068532882982939,-0.7713622781523131,-6.08343398584809,8.09481617002751,-23.05128135998855,-8.69033301708709,5.193537140226919,-6.712283614545239,3.9761885258995617,4.713670047366873
-3.5716509530032186,0.0,0.0,-5.290059333192664,0.0,0.0,2.088078358540129,0.3150035134684866,16.017476286942163,9.61414839089357,10.406474192907448,-16.854634008037376,-22.844411934540364,-3.6361599836549834,-0.0008727382135892368,-6.189641512309621,0.20004931836688783,7.02219892011744e-05,42.35385959805758,1.5900430665424539,21.57818292545504,10.15024455695585,-19.094684688938397,-8.992377048049205,35.529726509245926,35.9067943796935,-10.657605487394603,21.21219500151876,-27.208874441098914,16.939734401218054,119.9808015437461,0.002082951630655601,-70.80035521352838,67.97194657062393,-0.0005393152235746156,89.93090123363939,-5.114340807785447,6.899739925322588,0.0022146827975205066,-6.1018391493511706,-0.4967258354187765,0.001180487071343621,-0.8411522350400272,-6.001547938453252,8.20233758628605,-23.11255543457644,-8.655090143339017,5.3250359377888,-6.6408533742413445,4.00970969426599,4.494632011971553
-4.991171076229677,0.0,0.0,-8.811400913890338,0.0,0.0,1.1786936982873508,1.2532040545378198,17.194462347053957,10.897439503859982,9.798370064592113,-17.619490774991842,-21.700820146756016,-4.302901470539972,-0.0025363176880252593,-5.641499135929884,0.2802131921959213,9.43447069966546e-05,41.65837779244698,1.7120314126924212,20.201667423586315,9.574144455344998,-18.678372876460102,-8.759892333274578,35.37163210013251,33.69374153450236,-12.27450604451174,20.12812398654101,-26.80992532212013,17.54136980410338,119.36667116067473,0.0020291856837378205,-70.66574714164373,68.36573226834025,0.0013760519818523651,89.1128649839803,-4.188608662587312,7.809737348321213,-0.0001128028598340961,-5.399997515907436,-0.42075988067073905,-0.0009686958546507706,-0.48044473204972177,-5.415001698524675,8.482261059904603,-22.708511552912803,-8.21768578655179,5.810170252287589,-6.606968565258942,3.9185721160680185,4.380384067715717
-3.9591726484883267,0.0,0.0,-11.00867081271479,0.0,0.0,0.46466109533612415,0.803411656561158,17.793893235223745,11.86959656858199,9.298073633563707,-17.837827457091176,-21.187979108729014,-4.598236871436644,0.0005002176522131476,-5.4528918580889965,0.4299826483456217,0.00014609482262605765,41.261345701760895,2.3695736327397197,19.516602657158252,9.382156735765614,-18.10316895831461,-8.232279619114296,35.157010103927874,32.03590340682691,-13.376122275171328,19.535907030350643,-26.1726260144657,18.5434651457391,118.7751632813662,-0.004910322091348139,-72.49643801052456,68.9849738388351,0.002803821528674975,87.86489856709011,-5.050144153973132,8.636478129702054,-0.0010979598039254001,-5.1125851163903,-0.9970904028525244,-9.045821177548935e-05,0.11929858639303803,-5.108361276802265,9.097207904579102,-22.066878860463472,-8.16523010311617,6.500028630162892,-6.772372540726206,3.818525225180072,4.498114404407377
