PaulMeinheit/Bachelor_Muay_Thai/processed_Data/N2/teep/scaled/JointAngles/scaled5.csv
L_MTP_ANGLE,L_MTP_ANGLE,L_MTP_ANGLE,R_MTP_ANGLE,R_MTP_ANGLE,R_MTP_ANGLE,L_ANKLE_ANGLE,L_ANKLE_ANGLE,L_ANKLE_ANGLE,R_ANKLE_ANGLE,R_ANKLE_ANGLE,R_ANKLE_ANGLE,L_KNEE_ANGLE,L_KNEE_ANGLE,L_KNEE_ANGLE,R_KNEE_ANGLE,R_KNEE_ANGLE,R_KNEE_ANGLE,L_HIP_ANGLE,L_HIP_ANGLE,L_HIP_ANGLE,R_HIP_ANGLE,R_HIP_ANGLE,R_HIP_ANGLE,L_SHOULDER_ANGLE,L_SHOULDER_ANGLE,L_SHOULDER_ANGLE,R_SHOULDER_ANGLE,R_SHOULDER_ANGLE,R_SHOULDER_ANGLE,L_ELBOW_ANGLE,L_ELBOW_ANGLE,L_ELBOW_ANGLE,R_ELBOW_ANGLE,R_ELBOW_ANGLE,R_ELBOW_ANGLE,L_WRIST_ANGLE,L_WRIST_ANGLE,L_WRIST_ANGLE,R_WRIST_ANGLE,R_WRIST_ANGLE,R_WRIST_ANGLE,NECK_ANGLE,NECK_ANGLE,NECK_ANGLE,NECK_ANGLE_SHADOW,NECK_ANGLE_SHADOW,NECK_ANGLE_SHADOW,Trunk_Joint_Angle,Trunk_Joint_Angle,Trunk_Joint_Angle
X,Y,Z,X,Y,Z,X,Y,Z,X,Y,Z,X,Y,Z,X,Y,Z,X,Y,Z,X,Y,Z,X,Y,Z,X,Y,Z,X,Y,Z,X,Y,Z,X,Y,Z,X,Y,Z,X,Y,Z,X,Y,Z,X,Y,Z
4.42168,0.0,0.0,-34.89482,0.0,0.0,-13.192610000000004,-7.885830000000002,7.704390000000002,-70.60938,2.720230000000001,-8.75786,-21.831770000000002,-2.8692500000000005,0.00058,-28.037910000000007,-2.8133500000000002,-0.06243000000000002,-19.92469,38.50430000000001,0.7404000000000001,79.42153000000002,-25.631400000000006,-13.854670000000004,60.24006000000001,51.191820000000014,-77.72443000000001,-57.134100000000004,-23.464650000000002,-29.445920000000005,97.82709,-0.07379000000000001,-85.22243,-2.6296300000000006,0.0021,115.67570000000002,18.439270000000004,-13.253770000000003,-0.0024500000000000004,-2.29228,11.239950000000002,0.00020000000000000006,9.4121,8.76474,4.912610000000001,-11.950320000000003,6.3851700000000005,7.761780000000001,-31.933670000000006,27.4136,-26.104140000000005
3.0037010800212482,0.0,0.0,-35.18722041691726,0.0,0.0,-12.124950662290994,-7.7251350973553174,5.588002789269544,-61.906601037899,7.20938099175774,-0.10036932997328735,-22.074239554029713,-3.380943187525921,0.00018051457400754923,-35.30286331670262,-6.162722260130794,0.1947494453279931,-18.625486357379067,37.670137693675095,3.5965432188286175,86.28640249689337,-23.397448005962072,-10.351878590811934,60.62064156447616,51.187733932004626,-78.29620783442085,-61.31822390579587,-22.671236943626575,-48.89335983324366,101.12209200926006,-0.041593236859676086,-75.96715594630315,-1.5088359871810466,-0.07893031846737499,129.71706178169728,23.36367605069597,-15.983698766939698,-0.05489313696742292,-1.1176634512384627,12.981786170165142,0.00916003882502596,9.060937600965518,8.328545363743748,8.220100741185814,-12.092709781128365,4.792561473670561,10.665594103733092,-30.286754715274203,26.516090030978607,-27.237494515147425
2.4723735564161218,0.0,0.0,-31.190560212227055,0.0,0.0,-10.679622634459275,-7.00851063953728,2.646212261601875,-48.76616064180315,13.889192716731813,5.186641161481011,-21.11588228811943,-3.1478328530697484,0.0010059590809188361,-50.136963377026895,-10.061619200857445,-0.06408579541686235,-18.566727895827214,37.76925660164847,8.111126054238506,92.36805674333968,-21.817722535546324,-6.646936150167648,59.07220504735077,50.02159820857739,-79.04925248833831,-64.25513898563477,-20.960601477325557,-60.6535277273134,107.10169850342366,0.13946089885922494,-78.31810760444593,0.9273839225464385,0.04682629776224286,137.33465411152002,21.648895323662504,-20.54474635499948,0.06645144323400984,-0.5052340942802598,14.428498174003598,-0.01631708416492341,9.911454254781868,8.01568435349607,10.315332699095705,-11.080552169165864,3.754862614993435,12.493437851339296,-29.31828189101743,26.733908312797528,-28.403684944033884
1.5075597215725454,0.0,0.0,-30.3702418883666,0.0,0.0,-8.927994659298028,-7.688587112368332,1.5225688102891264,-36.2979831168927,13.715429534840313,-1.6919847269137342,-19.815208284332314,-3.36206917449947,-0.001231333307289416,-64.20793693635349,-6.269657886598217,-0.1348890977830107,-18.011108301846587,38.225256343212806,8.325223577715043,95.56513670461345,-22.246757389053574,-0.47486489413124366,55.59245826747936,46.45973922246112,-80.22975849409772,-66.10289208541343,-19.472539549665502,-63.84827562569282,112.9034157081166,0.0006434560760232577,-87.70329206347316,0.5672985318178628,0.041036119402184504,137.55909611615849,13.06913922780689,-28.64613951592218,0.12192391189875215,-0.509920030542249,12.7286759940545,0.008308608966100983,10.401147447677332,8.119506797263464,10.420660794498131,-10.584959975780404,3.814443972157445,12.628284462381735,-27.971935637608674,27.191343634406792,-29.853436608275796
2.610412636076901,0.0,0.0,-56.14129236346581,0.0,0.0,-8.472975900535886,-7.746880890974549,1.137963735184606,-30.76173939304216,12.676283060510784,-13.972123092892021,-18.71767333225783,-3.556463269816882,0.00011571093469995948,-72.3110437540757,-5.91155065639854,0.06564412882422214,-16.64083987788515,37.19665683123623,8.249779096243358,97.97270673869211,-21.08896782718499,-1.902148231681999,51.45463570077911,44.58859186345552,-79.42327260648955,-66.77013036454812,-18.53118062355749,-60.55298633906345,115.86732791369738,-0.033750556798525004,-91.62499679193336,-0.9603213858594847,0.08126291429852951,133.1148606614804,6.8600951395872825,-34.992678612949625,-0.11020682907691733,-2.3794870498685574,9.30056304905996,0.009617825409618804,10.267243758478921,7.810988932825532,9.755408356868868,-10.76301911858663,3.7626174183006524,11.901047807531322,-25.827725159586304,26.346100327444653,-29.343134598342395
3.029307635725606,0.0,0.0,-61.14347995662503,0.0,0.0,-8.649008900135923,-7.467537130926176,1.7731642012884987,-35.105789868217755,12.953358718151943,-19.518892493924998,-17.730600249998634,-3.1109222685769717,0.0005873485904938598,-77.06363975472368,-10.951931542549406,0.05149893818901946,-15.165457718927982,35.20701506740509,9.473934500325953,99.24683301320131,-18.52206454494607,-8.427051646255347,46.113566982949685,44.9795327785337,-75.36440201348586,-65.66716746587129,-16.954960200025248,-71.89266612680446,117.34239760234465,0.0046944059983093376,-94.75572530976694,2.53052356517047,-0.4325755712410578,140.31114600662693,5.246631731845168,-30.62601081044909,-0.004326178837535135,-0.13685865619601773,9.637421058992867,-0.01428974303361346,10.72916811816607,7.808481367427404,9.426846925297337,-10.325404276165662,3.8771708923975288,11.595667415252162,-24.18307699066412,25.228239251780607,-28.3511038279615
2.3768044622262017,0.0,0.0,-36.33090699638825,0.0,0.0,-8.104206557810294,-7.339290425242922,4.216439525124156,-39.13394914208774,10.642107159678288,-19.942097238284987,-17.503579962239897,-3.273309057747444,-0.000957968131971217,-81.7607857917613,-10.874149420737501,-0.05904321703211017,-13.574388468243436,33.688374375380484,8.263620261954348,98.82635768022574,-16.235379395453418,-12.397272051938563,41.08949004430886,44.405011923504055,-70.44138365902332,-63.413211039782105,-15.39177684042191,-81.94027964365603,118.09707604414442,-0.0014417862980797183,-96.66551045734546,5.3498052813624435,-0.34220104279145436,147.6796471866594,14.694275256996715,-24.95271328858491,0.09652600912651628,3.191678892808365,9.079175969651665,0.003909181840856894,11.438256027765759,7.998821856701831,7.444312161601779,-9.755757042951247,4.762471972988057,9.827508432068935,-23.536745756823255,24.62994135654964,-25.30326052301025
0.48720681424036166,0.0,0.0,-31.34497777030402,0.0,0.0,-7.271084234486281,-7.765427309602088,7.537381202334557,-35.385183090594765,14.325891962312745,-18.79320572112759,-16.847800913321073,-3.4745246671677887,0.0008187748824877027,-86.30980489630231,-3.416819046241714,-0.03641011557097172,-12.514998444931651,32.775518527999,4.472691196559833,95.53091948365064,-14.853079031645176,-8.491076539712441,34.577975420713386,44.999060914145595,-64.22455687825479,-60.913844785279366,-19.509347664827494,-52.1487789568469,117.70717220560918,0.009358212239602677,-92.51001095434357,1.9092711036440602,-0.18486589056573824,118.17806456092502,21.865239936728035,-22.975488109452133,-0.05780680956374598,-1.8745512805091542,7.863545806582734,0.009216459956291126,11.811481622673096,8.576234207196189,7.5182191293403795,-9.396156611298098,5.274365695229579,10.105560266891517,-22.869541185375635,24.818930967817174,-25.244119102684653
-0.7906847396304367,0.0,0.0,-28.780231144131363,0.0,0.0,-7.104631215443848,-7.413895875980478,8.373173355575467,-32.43878779360529,14.175726653844025,-17.46705152682811,-15.502007214416967,-2.69949502740976,0.0017404808595567558,-88.97205225317913,-0.6166000469073576,0.03266451405769932,-11.021889920135061,30.43845485437155,3.9081545256615744,92.16863964403358,-13.049585890068611,-8.332639519529954,25.768107825862128,44.703813017170525,-55.285416418730904,-56.53845854432122,-22.719775196376094,-38.84505706645278,116.54870079954233,-0.006697995225056014,-90.16437205506315,0.6980962260213756,0.10143063144436008,102.26018223273202,24.636733559450157,-21.784678491300113,-0.03387158579006859,-3.412441372764463,5.793053908182048,-0.013132048890175257,11.325475696823547,8.466459165520284,8.224302276640392,-9.832102977899067,4.9196762574645865,10.719438064602578,-20.917960943094247,23.848648787224484,-25.56307768045924
-0.05552130538072089,0.0,0.0,-24.765437055807382,0.0,0.0,-7.418283912513379,-6.657875607245987,8.63375931452969,-30.89923457417505,11.251249291329442,-18.91519115239342,-14.116058270631832,-2.4246864730430326,-0.003286038405705489,-90.77098755882707,-1.711373241242613,-0.0011423522445323556,-8.864508786234909,28.47682305221442,3.79616797068592,89.30484858326582,-10.964722405342322,-12.721285319028729,18.710055088940944,42.590326759056815,-47.95196110080493,-52.307369767491124,-24.55764887018268,-36.261622640564305,114.89281138031522,0.0012992857350937925,-91.2846089999056,2.2268347181533383,0.011710143008170906,98.87562780761832,28.65473315836739,-23.409683259189052,-0.012233350813025358,-2.3064929140698087,4.856811921437183,0.002702907408357337,10.011597200270788,8.11017612844031,7.644353684069312,-11.173176992719318,4.794704970919552,10.053222644504059,-18.63167531739582,22.64483882296421,-24.99384020165711
-1.0267521173634253,0.0,0.0,-17.883501788757002,0.0,0.0,-7.4439722416494805,-6.401017744659968,9.141913622643395,-29.81029377307053,13.022476449903165,-20.457537354466048,-12.629556809490913,-2.08919378113333,0.0014538733697845108,-92.29058168985497,-1.8920276778888954,-0.0016516461087711693,-7.615949758656088,26.26829630143591,3.911273751574403,85.03663134925569,-9.414192882801196,-15.102838928021736,13.430486559159053,41.09975249793723,-44.21948376805639,-47.993973806252285,-27.15448369732283,-31.95650191295396,113.93975832534822,-0.0014531471702867265,-92.25322021048162,3.9726028693380564,-0.013941958166050818,97.03833000099795,25.487763352876016,-23.700475485341087,0.0025284235840596935,-1.5375611304412247,6.520723156199153,6.37135496982643e-05,8.40375252830035,8.168017427639812,7.600258134936289,-12.785584747414278,4.864413472255187,10.033349029536746,-16.63682432685853,21.464337681049,-25.25156419931597
-1.8357944458529538,0.0,0.0,-14.059478599213897,0.0,0.0,-7.619541672730167,-6.825166880080031,9.91351510452805,-29.041326943440897,13.45279338985423,-20.298236061423445,-10.821777372457136,-1.2128181375127376,0.0013310678240046605,-93.01508797330567,-1.6149483705514351,-0.0015478978483730304,-6.915453141060179,23.02034485120908,4.609326162873732,79.86452848979515,-8.315028336352386,-15.594002753878666,8.080540622248297,38.67228607374657,-40.32593528254636,-43.51844758607615,-29.75740249030951,-29.988074645046247,112.4758009059966,-0.014145017143359443,-94.15827898009896,5.256685774349344,-0.0017411744785817943,94.05590721483114,22.553888348443394,-21.94095937964404,0.002643288979336612,-1.1062849857193215,7.193785835706424,-0.0036409281899466767,6.866350420305239,8.033845389004373,7.881725444943879,-14.300895221048394,4.638630497307855,10.245450014176608,-14.711035885013587,19.592581506078215,-25.66050193520735
-2.071276938650047,0.0,0.0,-18.64471853761434,0.0,0.0,-7.853599997059138,-7.431449071113917,11.131254296832068,-27.4161368012825,12.350157071628432,-18.86369031626443,-9.264015428176878,-0.5864467207049343,-0.0003303657814275725,-92.22203421621391,-0.41909078582701365,0.0026140255364610126,-5.695280570579705,19.367024632628308,5.29808307728246,74.59141256973,-6.83882651592032,-14.145082375032493,3.069829811194367,35.606930055220516,-36.011374916139495,-39.14596838116484,-31.77419601765438,-26.279837613709418,109.51102963033429,0.02310695498065455,-93.38170786093865,8.13741301259468,0.029993836075668582,89.90013469306669,19.771556877063563,-20.475388761914296,0.003159159027820729,-1.9510522403273942,5.161355459452745,0.007738681600160364,5.3358931977374455,7.431427567838027,7.495900723417925,-15.83881636700519,4.2149537056820945,9.669655156121754,-12.46169087399932,16.937145981912497,-25.323782460713563
-2.2449430854268013,0.0,0.0,-18.275770423621374,0.0,0.0,-7.685213511558089,-7.277631206747845,11.475127313907723,-24.419170274327175,12.76071746460817,-18.27482496214495,-8.43308903028292,-0.4216496927073184,-0.0006358546617261658,-89.3850920244057,0.6908581603033618,-0.0019647416632288897,-3.470494813732022,16.356787125252943,7.137161055048026,69.26121076155424,-4.717837567937639,-12.582146883812445,-0.4989333388392363,32.78743437137517,-32.107690631314696,-35.24444719339347,-32.65855086692552,-23.34958494111471,105.43006181892646,-0.0012757409060119224,-91.17845614328718,13.23454246281893,-0.022005640615664915,88.9367753862005,17.64922130547224,-19.71474270084232,0.008900340586403207,-4.863008575401785,3.3363902714218194,0.0052288237424983055,3.4942532679970393,6.987749412117171,6.5712152831393205,-17.722386836241416,4.132973205759019,8.651220205303593,-9.511637092227774,14.350815960490749,-24.045441356282605
-1.149831802046863,0.0,0.0,-8.900901610344357,0.0,0.0,-7.49467829987601,-6.619532590346891,11.291160576649549,-22.80930166767146,12.840710113630244,-17.183920634387388,-8.263303811006791,-0.30847551426794323,-0.00015444316540095046,-85.31087694174923,1.383562322849046,-0.004829095081917548,-1.492369640153493,14.25128980317412,9.183792152625095,63.068924214513885,-2.370563440699167,-10.74069853625345,-3.0636630287452737,29.850155483433106,-28.352899159619774,-31.024762605268812,-32.74055533180119,-22.370268162882102,101.21406418280438,8.110559008167907e-05,-90.98718195837479,17.795639135229244,-0.015354803179119435,91.46150731989594,17.384742517920234,-16.84680960146399,-0.002289250942717111,-6.249860316492736,1.659564798262376,-0.006089233453639701,2.102216980873028,7.069337429108245,5.268481925768423,-19.18327834161395,4.677658550328501,7.472290487092494,-7.427792002186478,12.490011005514546,-22.227858037073673
-0.7218565240265699,0.0,0.0,-5.227435885314967,0.0,0.0,-7.237541395165374,-6.344789840570755,11.511962223976518,-21.103692432057883,11.768742461600057,-16.26233233052376,-8.607835817159305,-0.31363014035491654,-0.0004806114439625997,-80.59473810872593,2.731649501797624,0.011930245661233197,-0.10651385689457335,12.280210061174323,9.70658558835828,55.99784079302144,-1.3364752671255484,-8.136873907123404,-4.5825398927248715,26.83704816777488,-25.04805619430387,-27.167998763281012,-32.705831959844105,-21.754375472564508,96.80524732863435,-0.020635130117945495,-91.53561901625247,21.962300553341393,-0.014384782866752894,91.9931789876798,15.837947267806904,-13.496032259650466,0.0022364028714621734,-4.540262047307325,1.4455498372084534,0.00182947351113064,0.7394898336321775,6.994559486325934,3.5382552322982233,-20.616778888058963,5.232399150106072,5.839329887496459,-6.365591090478795,10.836264609720939,-20.678672180371567
-0.38275233417213556,0.0,0.0,-4.2224973288875445,0.0,0.0,-6.861751800341059,-6.060937970969126,10.780383333651061,-18.449182416771453,10.784047235263174,-17.04487824632401,-9.494801012238968,-0.7147766535032081,0.0008046844857222085,-74.84120017443337,3.943452476685262,0.01898266064260485,1.7365280316679237,10.852764416289505,10.851037480874846,49.28707133766663,-0.951698116956951,-5.94416442967509,-4.982403875662609,24.373308508861935,-23.356109074445115,-23.97111125875647,-32.77337002307921,-19.850237586567015,92.41164269732832,0.004511574104803395,-92.2986714634101,26.47296094461423,0.04416916702255458,88.28352831903905,12.873055489174373,-13.334985703364781,0.015912408612054094,-3.453011509638962,1.7854056715860687,0.0002850595266825612,-0.5798492533770694,6.3849845567417916,2.1627270931198157,-21.96043237276634,5.162539431023255,4.338807706068491,-4.592928646054219,9.332139253865948,-19.327986234634277
-1.31245,0.0,0.0,-3.1096900000000005,0.0,0.0,-5.8609,-5.44077,10.383979999999998,-15.984019999999996,9.9409,-19.438429999999997,-10.923379999999998,-1.37775,0.00121,-68.48438,2.8086500000000005,-0.028479999999999995,4.084180000000001,9.29883,11.400380000000002,43.53193,-0.42179999999999995,-4.726249999999999,-5.392060000000001,22.26785,-21.73459,-20.074839999999995,-33.16986,-14.841580000000004,87.41623999999999,0.06181,-88.58279,29.801600000000004,-0.007019999999999996,82.39033999999997,9.777239999999999,-10.938240000000004,-0.023209999999999995,-4.497029999999999,1.7218800000000003,0.00501,-1.4417400000000002,6.42957,0.6309700000000001,-22.859319999999997,5.75947,2.9314299999999998,-2.6780300000000006,7.432890000000001,-17.474980000000002
-1.8199825886942576,0.0,0.0,-2.7349427330255565,0.0,0.0,-4.938942538353038,-5.142237020148943,10.175824606428183,-12.774232678093474,10.24982774711579,-20.291891442791965,-12.225558284398806,-1.5121783937582385,-0.0009963996760643948,-60.36663064893425,-0.2114731332994666,-0.02932989830238116,5.419827524486337,7.616830337230331,12.676898088760014,37.021510235566154,0.8221799423742839,-4.221504614878492,-6.165678384426556,20.32697815428615,-19.704605052912278,-15.764872046384292,-33.00715178466575,-11.561761216454942,82.31230786186757,-0.05896839278305283,-88.76404022525398,33.53159654694621,-0.027176608292670625,82.23495506289157,6.2876975693417245,-5.41599634974047,-0.01644829495768628,-4.134915681303405,3.579830579570731,0.010816850342666303,-1.917213560455275,6.8213388529332555,-0.5895620015857148,-23.369217009030496,6.56719932452991,1.9403493630598752,-1.8646637871907266,5.730686914277679,-14.67266955263047
-2.2964983671926755,0.0,0.0,-3.230029423825869,0.0,0.0,-3.3882527767538817,-5.048510352044768,10.18565321419892,-9.591012038970668,11.267215734834163,-20.23471340627058,-13.23490390471284,-1.592429791641805,0.0002136693073027515,-50.9540267601006,-0.652767374235213,0.039856062351536,6.458494964534731,6.473842015313831,13.747765408737436,30.34640004865296,1.1438464486326654,-3.284569097180578,-7.104673028963397,18.455469027178665,-18.48255347103591,-12.135636133095364,-32.68793685912968,-9.233653762938543,77.65724615747342,-0.005710412167766424,-92.70871296709575,37.440971234494285,0.023876171804040242,82.56416415523982,2.4498392660288477,-3.0405687372535986,0.03727227882571577,-3.376606436700232,2.8435109920090262,-0.0003222944197095219,-2.7902514662664966,6.545621070741363,-1.3301003661899322,-24.237943548709996,6.57955002727855,1.1497677223349256,-0.9297846651231269,4.63992891171418,-12.358592113748449
-2.96843922734288,0.0,0.0,-5.371324268337233,0.0,0.0,-1.5037568662054013,-4.611887217010684,11.436347828224813,-8.26087209264841,11.891574148316838,-18.467086478273412,-14.143172012563502,-1.7514378336157812,-0.00021292890277780155,-41.21841091153903,-0.12999914704803892,0.004872115344348084,8.247999619058817,5.28789769964365,13.677247592699871,24.92311145991679,0.5271233248521385,-3.0266913535953197,-7.875236486649036,16.472024404493975,-16.82826704367995,-8.78862991202155,-31.951525498173154,-7.0062506699676605,74.19847553867363,0.0281783464967108,-93.11841357331468,40.93093567974872,-0.036475136870294377,84.84660301861118,-0.2505529114533205,-6.4263181162532454,-0.005390303326006655,-4.591474709640809,0.6798048940787419,-0.003105412515063906,-3.9055814292778845,6.231782121910811,-2.272358260832768,-25.343916667865756,6.629771105035979,0.1568547046741987,0.706025117536921,3.656139611084803,-10.205118531615804
-1.5170693781090006,0.0,0.0,-4.468490666143978,0.0,0.0,-0.28194291780125047,-3.4268932141136763,13.489966895011834,-8.103231371104874,12.105718922097775,-17.4350085591444,-15.399300290470332,-2.1134590106107582,0.0007790266419027352,-31.380364886160926,-0.8393637854739523,-0.017691543721278107,10.281331827107042,4.185595285671827,12.412783514038349,20.32671620225679,0.5420150575961663,-2.975626964913022,-7.824015912806841,14.740732949811063,-14.674131717684071,-5.4138303271754395,-30.7743415699277,-4.928718620231337,70.34195298393685,-0.037312089878999644,-93.97294637449927,44.73600366850927,-0.00282605529352698,87.6012267440969,2.1204829452834884,-7.763105136354236,0.010884560103256726,-6.300637129046013,2.0469582437068663,-0.002090667534186714,-4.8377780758131355,5.831811338158247,-3.672855928348762,-26.253842858142157,6.766273381891425,-1.2956505499024389,2.183420528912025,2.9026207297630533,-7.41617081086106
-0.8325125598789385,0.0,0.0,-2.7714096319273285,0.0,0.0,2.045951773359404,-2.8540221208609604,14.979274025376741,-5.6671245423778664,11.172571290120485,-17.172152054450255,-17.25218029149144,-2.4413193862202878,-0.000905765405238871,-22.41653074881922,-2.2422248695184805,-0.012887493080413707,12.1624060823396,3.7327537119198926,12.10370403790403,16.445099468608408,1.0785095393860964,-4.166725414501969,-8.107348919349624,13.577152857273255,-12.4632166352954,-1.8780063978947061,-29.703743558879214,-1.4340309376472606,66.45998668575126,0.021447630893183117,-94.08604121021894,48.274915948897856,0.02772313930627241,84.21821742791072,6.150023468341836,-6.515177459459268,0.009797578665915282,-8.154912651954543,1.2431016948798792,0.012633225460545013,-5.5428881957479765,5.442302309780897,-4.553522840125876,-26.932165314233373,6.723451021287736,-2.2604442367162143,3.2104498352022413,2.492992983390748,-4.590552753835828
-1.078155241331197,0.0,0.0,-3.864643110304507,0.0,0.0,4.886409277151496,-1.729883394013492,17.371403075883123,-1.7212420286684447,10.597114186068021,-17.560708726991304,-19.225501476411953,-2.897683573039163,0.0007742877735298224,-15.04451101797846,-2.5180109717525405,0.016221055676545953,13.975399167419793,3.149064489433872,11.40409178609341,13.787117465019314,1.005845577525953,-5.537220322777449,-8.918556156003614,12.410283999629984,-10.90593748413824,1.1815047573391941,-28.26434358936251,2.2617918497461362,63.01829017863304,0.0013325199809692625,-91.10289207711006,51.951832409153674,-0.0006133657500408434,80.60032159540205,5.080531308074678,-7.816760348201671,0.011769015455778254,-10.302796488857064,1.09967582623403,-0.008355699293690316,-6.400524875800524,5.142324852682995,-4.466268386704435,-27.77847452753417,6.412435365972852,-2.289102430244007,4.264942901659998,1.9813606857317185,-2.2340309839647516
0.028155824862270647,0.0,0.0,-2.2971061319554114,0.0,0.0,6.345691862986855,-0.9341989839380787,18.992523299019496,-0.8448907616417579,9.70472860530461,-16.57269268205329,-20.859638256775774,-3.46409318704946,-0.0011936386442217507,-9.36768920941969,-1.6876581550654117,0.003481537287454286,15.00621324514739,3.084495972205879,11.246220998241824,11.48955088606833,0.7501799218636215,-7.288102131781801,-9.217632563141525,11.7302072445309,-9.770011153195393,3.541873956032387,-26.420342081540124,4.399759003897421,61.092092318738445,-0.0054685337105500305,-89.85294415357842,55.975553935082644,-0.004102742634003974,79.78259051061742,2.4603692814094615,-10.29213658619422,-0.007161468358351347,-11.857782463182984,2.316499228498133,-0.0007813480134071933,-6.616542433814841,4.954389910427057,-4.6622080139397335,-27.983834544513165,6.3085667999522,-2.5408855916395727,3.9974451507600937,1.935163286981424,-0.6195038797771802
0.6619673136441551,0.0,0.0,-2.577730055221867,0.0,0.0,7.737321429660237,-1.48020150133454,19.978624707862878,-1.1807934630180188,9.241630681884978,-13.955353010185814,-22.659290320727365,-4.1908299381002365,0.0025459985029475042,-5.9308746199368265,-1.458105128985778,-0.0055001547441197625,16.308493119397536,3.632864893187763,11.533111432069086,10.507442058634117,0.8035278165398415,-8.477156546112164,-9.483211986110431,11.039229425157536,-8.396653964438517,6.2184931199308195,-24.66652408818244,6.736934934041647,60.589957668852385,-0.0021484206652937587,-89.98742162136622,59.05717468208735,-0.01167283708280681,81.66880031722455,1.9460064514906892,-11.83546813485249,-0.011775925512079774,-11.954926973590482,0.5945540678878938,-0.0036247456339306714,-6.122930647985908,4.495780594062513,-5.15571020871599,-27.463149475882005,6.060520269275298,-3.1696075065785823,3.195411428931231,2.268648819621838,0.6839602068574058
0.18286043082325698,0.0,0.0,-3.6167174282428247,0.0,0.0,8.915393571859768,-1.3766273636840627,20.26716709433556,-1.2095391329374432,8.790134130916336,-11.7678331023089,-24.706812079091435,-4.798225871209077,-0.002019817884471451,-3.5964485329605274,-1.2158114668862774,0.002147922322525567,17.994654898519197,4.293472485109302,11.68790877181228,10.19478290855712,0.8862137037840176,-8.98056507090779,-9.620351483183306,10.33240903610871,-7.230586217220388,8.814530739207532,-22.396013517749925,8.949352331390825,59.21446479621888,-0.006163710531953585,-92.61310627507483,61.15980901187386,0.006581056553426106,83.66752666461223,1.2642606627816975,-11.098498703265331,-0.0014058648424285993,-10.845582351103964,-1.5152409517202812,-0.0023383249241685604,-5.346846607136185,3.874730842436621,-4.921440053255271,-26.669139408291244,5.397028811138287,-3.1779152882377413,2.571691326225731,2.5979935056048102,1.2122275545438719
0.5921015728105948,0.0,0.0,-2.1293055395509097,0.0,0.0,9.592091384894921,-1.0147433346845065,19.628168708369664,-1.018142986990722,8.072591325578209,-10.121181688821345,-27.238549282735608,-4.719706796381489,-0.0023626083626791094,-2.2621686923648223,-0.5200251081802556,2.3374946001282514e-05,19.18319988957557,5.180177217271162,12.659976446053507,9.799447805221197,1.067887070823109,-9.54543793309287,-9.957757656647473,9.998095259943677,-6.634042596363155,10.67915896398853,-19.420724163854274,10.689684483125315,58.534980906421566,0.0041190610558896725,-96.36185773823661,63.165357091701964,-0.005722204360800685,84.18781807439174,0.04731033193819468,-12.110527317244413,0.011239357800275507,-10.996900172500489,-1.754227408549774,-1.1842689444566487e-05,-5.013366644674614,3.58196144240937,-4.130706486001904,-26.340526242426378,4.837360013839147,-2.5468341765022853,1.513441440726248,3.057353963135956,1.1633704128457545
1.1741467794479898,0.0,0.0,-1.4932267202034373,0.0,0.0,9.869664889585566,-0.7986510223195592,19.17153844009163,-0.7835263700005295,7.273007988019359,-9.273496625655804,-29.716530736127837,-5.236245073251446,0.0036771371596910985,-1.9703583814090022,-0.12796531771005598,-0.0006148863645650729,19.86818317296381,6.4048577383920495,12.446686517304432,9.656387636330715,1.5934373695493895,-9.333789393301233,-10.061555652919889,9.668686909325764,-6.098014912598135,10.820262633350493,-16.362487117335633,11.890909878950232,59.05614506890384,0.0030538610124659733,-100.52520261133304,65.53480845725994,0.00462305250846487,84.5292862517847,-0.33644816953640744,-14.247587905370603,-0.0031624110143917633,-11.949084145893213,-2.1722395290973426,0.0017119320231699885,-4.762777933071449,3.5293268429560474,-3.822701632549431,-26.09307810239347,4.6765172542302125,-2.2786912751492356,0.29954434071454156,3.409629989883222,1.3555106547574136
1.8855037518867384,0.0,0.0,-3.5251979379096925,0.0,0.0,9.44085542174385,-1.0264289242762104,18.360978084858903,-0.7261772115074714,7.225892734884818,-8.828361449164495,-31.815809278983753,-5.728555192149076,-0.0014161370323551332,-1.9913762003139581,-0.11242273436371647,1.2368145847902641e-05,21.525198842472783,7.348429938327588,11.290002106615354,10.756817870818681,1.9235921800216498,-8.716624549618427,-9.725595131030515,9.01335128027936,-5.33686831793301,10.723606372891835,-13.71026211722015,13.007251266154997,59.78769082670857,0.0030112884471982086,-104.80148886115866,66.58548917529541,-0.002428574677364893,85.357126148791,0.7762529025337381,-15.66272958055032,-0.004768321124007227,-14.177912382019164,-1.9981594968994496,-0.012453098277045854,-4.558851122569721,3.101625946254594,-4.560783131676247,-25.86391581094073,4.545959653702475,-3.123347640350362,0.18117946707990407,3.802486955665519,1.5727127480796301
2.197399291824989,0.0,0.0,-4.578719815265938,0.0,0.0,8.927139088884761,-1.8738061487952284,16.204064010647482,-0.622021669734285,7.8336575015181635,-8.305108495356482,-33.307328842066134,-5.362885475440739,-0.0011127525431997205,-1.9316689815487191,-0.11886237049615798,-0.0001256440711611665,22.535508357049345,7.899139602851742,10.99609965994003,11.399845331523657,1.896904920502327,-8.345394657113637,-9.054505956494639,8.454833663504514,-5.1767825929605085,10.43173678733341,-11.71725794132531,14.156181431120427,59.95943684398183,-0.006317464401938562,-107.1168021675105,67.06251281321501,-0.0018524559253874535,87.52815790627314,0.6501082884723264,-15.656698549881337,-0.003348653632414402,-14.098898563402683,-0.24273063341757,0.008530143101721635,-4.6348208821331,2.9702928432046805,-5.343597874933807,-25.91855947232221,4.707478654394929,-3.9019246943814405,-0.08271461299257585,3.943647033805332,1.6702266410236943
2.643128814983642,0.0,0.0,-3.9224828656013426,0.0,0.0,8.4394494212969,-1.3230665836869206,14.216005786063922,-1.506011318217708,8.840901670077859,-6.918760100667787,-33.88523457503183,-5.424715506444437,0.0007627975399436849,-1.5499336373350143,-0.2884998459966951,-1.9498135778160906e-05,21.599221749280307,8.095683024979868,10.534045188323368,10.682044991173361,1.6398798088239424,-8.027416108902774,-8.042918615056422,8.025597562123272,-5.4856377145211015,9.959785850011553,-10.33848133655838,15.996409120505716,59.8545761866226,-0.005043060033347435,-108.93643561278488,66.35060606618543,0.01652619805065936,91.82904130925296,0.22422498732669674,-15.426459639856626,0.006407022289212155,-12.392639697171276,2.8820508076721123,0.0028031576700200777,-5.498229542129896,3.029557971087519,-5.124626877078828,-26.789006403635433,4.683316976207204,-3.675897471805762,-1.048489284732718,3.4949157021807,1.9632625470101732
6.530431882471631,0.0,0.0,-8.130405573432254,0.0,0.0,7.209963780959747,-0.8588850523799568,12.002814840964074,-2.2254425192196665,9.681541025022144,-5.411975912277549,-33.53359919756628,-5.638938373612226,-0.0015356447677317673,-1.2893138446719858,-0.292380373072002,3.8488802649324977e-05,21.5412314606076,7.608617614763514,8.42465263722707,11.205569459233704,0.9871636307954389,-7.562478346458865,-7.709770969186262,7.402604435622684,-5.5758294735927905,8.97935755150742,-9.837291719512214,18.44315052130754,61.152182373469344,0.0037786656715358257,-109.62947895584257,65.1021478760873,-0.004792815522088233,94.28238489428996,0.7610734415711196,-16.542591448544634,0.000618826163571606,-13.539049990571694,3.589889125276031,0.0006754148993991384,-6.269704926102309,3.134989201540794,-5.1698652625842465,-27.56259366697696,4.79795377624639,-3.679722449198409,-0.6632013242967797,2.846292654301025,2.2898971418440577
9.813011474861193,0.0,0.0,-10.93661598898653,0.0,0.0,6.452911485271496,-2.3063384036328216,9.046517762539366,-3.08240817642784,10.227820337049181,-4.316969718502066,-32.371920047273136,-4.939844282211894,0.0017793822163976111,-1.3884261250432055,-0.3280817281588877,-5.592404669143901e-05,21.22475154939972,6.768922279888647,6.340783571006026,12.01328642670827,0.49692513841836017,-6.838650830791233,-7.788769756687371,6.686999344530305,-4.954617861873555,7.42148409364055,-10.069671293462054,20.72722032863436,63.36598667561206,0.01027327717808564,-112.0755005855621,64.79424109324671,-0.0019900287812370204,91.38735114891382,5.811145047466198,-18.390398621411112,-0.029524547293432603,-12.800125967792022,3.2136805713107806,0.005777981788441874,-6.283106276030224,2.785977235873597,-4.93286181202011,-27.57129717261199,4.386814537918035,-3.5856113884454195,-0.3725931082782762,2.553836628010526,2.387603062016442
6.17146,0.0,0.0,-7.580800000000002,0.0,0.0,7.177300000000001,-3.921219999999999,5.29499,-4.370950000000001,9.89885,-2.5848,-30.977369999999997,-3.5209099999999998,-0.0005700000000000001,-1.57973,-0.6632499999999999,3.999999999999999e-05,20.10752,5.761989999999999,5.81774,12.334659999999996,0.03599000000000001,-7.21862,-7.805830000000001,6.509499999999999,-5.39798,5.336329999999999,-10.14427,22.15563,65.11861000000002,-0.00957,-112.58162999999999,64.48292,0.00741,91.81132,8.19654,-18.96803,-0.012729999999999998,-10.546220000000002,5.47855,0.004600000000000001,-6.40218,2.53572,-4.65759,-27.68979,4.053800000000001,-3.4198,-0.33878,2.06263,2.20674
5.375954153895497,0.0,0.0,-8.152170144994695,0.0,0.0,7.305940116310812,-4.322891959795851,3.743039359789645,-4.461862476059899,9.88267205624169,-1.8767879622853687,-28.863629606672063,-3.134846376671383,-0.0022837955650904227,-1.874944657198563,-0.9825454832414915,-5.0688755021983444e-05,19.11381457468983,5.126769888886807,4.104550425741186,13.146252840581667,-0.1306197150397594,-7.541265064537369,-7.477420796763124,6.74528343214791,-6.616858989322531,3.8501709271719147,-10.362760371641519,24.058463817622545,66.98711703138243,0.013511717404599017,-112.5940750369876,63.200467895556635,0.005143609655814687,95.3669648169824,4.2126486529369895,-17.767265239338574,-0.0030746006695164018,-10.172906908229837,7.5699548076409755,-0.0044235598385736295,-6.226190079470511,2.780870232545878,-4.842048709787641,-27.51627509247706,4.349124881024632,-3.5026989768542935,0.20643700418338373,1.5560552719040799,2.0363615201169742
4.72815806622522,0.0,0.0,-8.818040463625966,0.0,0.0,6.92181057555211,-4.7539767036809195,2.9347269803039393,-4.984332574093913,10.342446765816053,-1.472022356460352,-25.97760580079091,-2.5302964999525313,0.0029620522412606067,-2.1222919256276804,-1.150574886892424,-7.466302115375326e-05,17.519166864452217,4.80435823180874,2.6566743857941817,13.648040810831914,0.0338773328474125,-7.201603903051918,-6.652607169410792,6.967813782408849,-7.868983725593732,2.457728171399338,-10.57761397798646,24.696237941056083,68.56276967352115,-0.0005023941412850774,-112.88354798692207,61.49840204455788,0.0007573215631219471,95.40377758453779,0.8126772605798956,-17.539267648112467,0.005000823734392392,-8.49414526255747,6.247886202107983,-0.022691341246497194,-5.809246116589277,2.9521452064119043,-5.034268764031969,-27.09984241828941,4.578423759229451,-3.6197395664333563,0.3514857923283858,1.3515563060874964,2.2942138106938272
1.6011296787551395,0.0,0.0,-7.783488383481814,0.0,0.0,6.769986449225602,-5.202790039926432,1.666866756327709,-6.013884812383746,10.519339848617138,-0.7263922437199436,-23.080718165426116,-1.9544573176086084,-0.0007006625734933099,-1.974431060834335,-1.2419841810273875,4.733977278530797e-05,15.878538134284657,4.879032222813527,2.094282825910376,13.805250051613314,0.41552736386151296,-6.782895773271941,-6.468077873335462,7.167341878943283,-8.587051010177284,1.0513141696227652,-10.822593130044764,24.725716046750946,70.2241641598157,-0.00016931060276045214,-110.67300873815108,59.571797684339025,-0.01233351234182502,93.05976512428356,-1.9975394497702086,-14.6575072769318,-0.011433769020904982,-7.033699034935254,4.53441762417683,0.0060923728107364905,-5.7423455397576175,2.9159322825057075,-4.734889118687563,-27.038526129219225,4.4361081156753945,-3.3535026003574884,0.2536233752155104,1.4000729788559398,2.182536519193291
0.521517720168254,0.0,0.0,-8.886412621529677,0.0,0.0,6.465273449088282,-5.14292266219911,0.6281374842813594,-6.344435592835265,10.173219647772246,-0.30503069430414137,-20.849529854538467,-1.5674238377107392,-0.00030914127353268953,-1.7842121600115939,-1.1929725040704366,-1.510501754339695e-05,15.319485550602147,4.855072066105863,2.130026264586136,14.658403491241259,0.6221074970012948,-6.333315103490598,-6.03165932095819,7.4984189318950305,-9.672406589233514,-0.3489279145086068,-11.5425226448754,24.972582956456485,72.14099004268019,-0.004787034850533848,-108.16933088000594,57.228771972164736,0.006440332006398985,91.31513043090945,-3.9079424067916846,-11.261432465999922,0.00429320320644513,-8.171915998608796,3.291516867603084,0.00512158495170202,-5.7999213499939115,2.6411520972908686,-4.073781237464678,-27.101809559943415,3.9402335691659967,-2.8367012790479444,0.7391867739626931,1.4045137151609963,1.8443300452202063
-0.06261726986129981,0.0,0.0,-9.852933702746556,0.0,0.0,6.502368791963864,-4.830090946292361,0.6736316065325254,-6.381843806759962,10.065991935517376,-0.0166186470555353,-18.772509239803306,-1.3372147122202473,-0.00039565691448971825,-1.6253045793124896,-1.0824538608959364,2.1880414979917966e-05,14.527338313494155,4.638586322608628,2.644153956112643,15.228749511804033,0.6051760533992874,-5.631904946311121,-5.337561262050153,7.943650747538763,-11.416609299294024,-1.614230026702764,-11.89914578268553,24.01604615656134,73.20081159132897,0.002019247510438207,-103.77205915471215,54.50903392528577,-0.004609540044404765,92.26345811762138,-8.481258228241712,-11.137088616158772,0.023669961789135587,-8.276923954056194,3.0736245266854105,-0.0015021205696790596,-5.448965194507029,2.6391508505865517,-3.6525740594563065,-26.75786313537846,3.785492634882543,-2.444535058706554,1.0889223009720763,1.249034443437588,1.3407386496649418
-0.3275106878006201,0.0,0.0,-8.909230561774006,0.0,0.0,6.647297156735937,-4.6593200952382485,1.1929623290388949,-6.754393205529973,9.772562564027847,1.11531012844478,-16.978127653177946,-1.0542998260697685,0.000435116897491909,-1.6010742848331099,-0.8839469269459949,3.68487352784775e-05,13.178989832241248,4.08966777458896,4.034000051826613,15.237104444898158,0.23166632687269473,-5.060878803580218,-4.37688878370843,8.511536586235714,-12.866462676906718,-2.336786779959701,-12.044680514445622,22.68129967109598,72.94654110017514,0.001861064677257722,-101.9186110797206,50.7030241294762,-0.0012326709934124068,92.2474181587455,-13.639716106791317,-11.017121480468461,-0.007879329710811456,-8.241035014814955,1.997889370928104,-0.0012288319803956636,-5.0941943377680525,2.55148780192017,-3.578662376944975,-26.40215973616162,3.6769944766901093,-2.4075166518412434,0.7732249837651227,0.7396898734601238,0.9915258187718701
0.5283803220464424,0.0,0.0,-8.509750277084061,0.0,0.0,6.705368496184888,-5.064269792854694,2.7202842119887776,-7.257374331013523,10.265380176636869,1.3565002672087048,-15.780491616160326,-0.7895972849761571,-0.0001533799695862257,-1.9643033322347325,-0.9112462578681845,0.00020594386871464817,12.745386038229228,3.646586801871359,5.093424035786574,15.91554399480809,0.14286979112068424,-4.57082994967198,-3.3849245551626397,8.854264341791124,-13.92912649280507,-2.2030430737427262,-12.501722224974621,21.80908320356154,72.18995840009737,-0.004992271051102115,-102.27779270689663,45.72737804248568,0.035658531204518576,93.3820370229215,-16.510730694685233,-8.147829461957535,-0.0142133640333312,-8.516467895566423,-2.835327030795306,-0.003481595640187981,-4.339474232268758,2.182116688410661,-3.0318353331787415,-25.64716262367907,3.1343336297504822,-2.032061297131206,0.5521518548333431,0.6049978928977151,0.5664227247860498
0.9124062628978007,0.0,0.0,-7.9044692734535005,0.0,0.0,6.895372002684912,-4.684301007734856,4.0211097741166615,-7.972318280118761,10.58028363117178,1.7455264646911213,-15.140505693640547,-0.636793788317982,-9.192481269390438e-05,-2.4308352314839854,-0.7946874413007045,-0.00019513872923120553,12.379194895493606,3.4372392336779685,6.267119196024776,16.392153200869892,0.22343363469514188,-4.210104948835139,-2.5159924400950673,9.098791321248447,-14.290948512629626,-0.9455172742955541,-12.500510189981112,20.68540685275442,71.15709417576112,0.008162609159703137,-101.14801022590386,39.93452172226942,-0.04663295142425325,91.64750006766891,-17.147509325094298,-4.9747720270977105,-0.0019323136927738873,-9.928348236695404,-3.5187958076616694,-0.018377423058858516,-3.282899905823684,2.277408801726601,-2.525800474442531,-24.598172504582195,3.0393263803101527,-1.5256257629857106,-0.24962226220523095,0.5436896449121812,-0.1096195703533443
0.6507885871074827,0.0,0.0,-7.475896191859728,0.0,0.0,7.342195235993247,-3.5721866914506717,5.144509122497347,-8.567981467397603,10.658270682418612,2.680724626702288,-14.81645427573265,-0.7253902642530093,-6.800462997153968e-05,-2.820340122995993,-0.5624176736257768,-0.00016539710785960115,12.179602904648512,3.601087317621826,7.082016594717288,16.930006978795166,0.45141751040726236,-3.4189476859149726,-1.3294462115123105,9.303566428471903,-14.57624382265515,0.200689536460595,-12.075341195245537,17.409457464330323,69.0338343709604,0.022210140867555676,-96.47495434377952,34.875969598807195,0.017199721450935193,87.96460461121133,-16.858132858644442,0.7853144669081201,0.005237643226363239,-10.21359961796767,-0.8967907684929686,0.0031697426202349243,-2.885883875774898,2.34603371128984,-2.1002954591533047,-24.206006565975162,2.9487011560124494,-1.1040289210210432,-1.0601987137014386,0.4866563074204195,-0.6109419729740059
0.4977435517884731,0.0,0.0,-8.577511764337888,0.0,0.0,7.538748688775431,-2.7310153074833283,6.128432627320696,-8.934446363652434,10.83639875818804,3.9058630909313004,-14.599706594623388,-0.9824419870096466,-0.00018290349300000447,-3.4967116228808544,-0.6985736710881186,0.0007694907917453685,12.816104361515187,4.03493020229323,7.058944277200181,18.414391296947542,0.9757807078853531,-3.1251823285353177,-0.209606280500033,9.452029437162675,-15.106254360227343,1.0977222373833155,-11.48641333159998,13.267071715388632,66.567867425673,-0.015148615433089124,-94.89110771198668,29.569779560238736,0.00874497825366461,87.43011181415865,-15.674578895219014,3.092450182058593,-0.006795437366490424,-9.558228108813287,-1.2921324064400033,0.002386594905024967,-2.990845063385333,2.2401409934120435,-1.3715186976225826,-24.312734267399698,2.5852838699215543,-0.4634315580017875,-1.050914100098887,0.421272057813561,-0.7752868517935101
-0.029700109725723053,0.0,0.0,-10.159681386016446,0.0,0.0,7.722376308347521,-3.060414587100669,6.510376943382821,-9.405322323860304,11.398906140501674,6.2693589149758635,-14.388216204613384,-1.0266074978156796,0.00012838730495881386,-4.34638260897047,-0.8411331393781899,-0.0003398884456217383,13.168901802874627,4.466646741895261,7.612918166101505,19.731985328185125,1.4526839930048479,-3.4738479754136815,1.2633836650064234,9.753969688420637,-15.670744979972168,1.7319764943008376,-11.062606054553562,9.326377530671442,63.36038802655941,-0.006418271840031399,-96.38051665854586,25.075276635333143,-0.006479241083418739,86.08177410971705,-15.899696715140946,1.6539818603859315,0.004561082015328575,-10.196604774615178,-0.6326039888076317,0.00032297936601978516,-2.2570420443053694,2.5936587902217685,-0.34064527388222615,-23.58416372442031,2.540053278362752,0.6256594698506418,-1.301881274561881,0.2218013397554148,-0.8025264802283486
-0.3031224935013427,0.0,0.0,-8.914739269119588,0.0,0.0,7.905200344907058,-3.5220226773081538,7.203654512874475,-9.580875486718204,12.725888465927556,7.968540181384961,-13.906169882332689,-0.9337691119421222,-0.00027048991225433084,-5.145767679323912,-0.4855696192450167,-0.00035524919100554566,13.126457116760887,5.082680522157112,8.924640666574899,20.693782839851217,1.8762243842841024,-3.303507443469555,1.9729299783794567,10.048163349105444,-15.756387187025542,2.150163425507742,-10.85534683123402,5.642445869480263,60.33672627742933,0.014469028981822767,-97.04508428190164,21.459021272127128,0.004656673643170756,85.3681867923167,-17.250947142585584,0.8137642342855141,0.001533839462120351,-12.663296822057095,2.029251123926654,-0.014671478288764753,-1.4642220011537757,2.804617524105999,1.2727232045788328,-22.77998823658168,2.1505612800885014,2.2049557070187573,-1.6114403762380385,0.19643080756286985,-0.7341347284895321
-0.5985468082722607,0.0,0.0,-3.6566410610399136,0.0,0.0,7.558391936194826,-3.7614662458676626,7.916985241230314,-9.407514358434247,13.638543281546115,8.523698025274456,-13.425832972475245,-0.8971870027550568,-1.3477467272656937e-05,-5.784290964471076,-0.2911489577996495,0.00032382387909889946,12.690369021778201,5.978457263970122,10.119197284355256,21.02688903596703,2.576322231144923,-3.6643898392762884,1.9827059079562608,10.193704989999855,-15.177926884009615,1.9829616921749493,-10.944263710936697,1.5187103274101492,57.398255457086094,-0.011959347245774637,-98.33562370100442,18.43673362229347,0.004314754772719536,84.09793461505727,-16.66424281620048,0.8766382910052234,0.00043149129447650123,-15.346573916317757,4.224604323607205,0.0033191020562479893,-0.9437177043271912,2.7711147243933594,2.744720090253549,-22.232162573189093,1.5851941929490498,3.563297239770872,-2.2249571629828058,0.4394516851200208,-0.7945796130446521
-1.8830438586845692,0.0,0.0,-0.47179459434582577,0.0,0.0,7.297869816338671,-3.0581268052962316,8.538705407599675,-8.680332623812173,14.594739829696334,10.15899840068412,-13.21333845567797,-0.6469643433590349,0.00040068358744828336,-7.150081727015703,-0.0945472220500505,-0.0007104859323271453,12.767976619744655,6.391959551179039,11.070639160965644,22.005094709325583,2.779060017017079,-4.523225664467913,2.852400504069328,9.353625939536078,-13.269486618655812,2.2305891558602386,-11.406727023649903,-2.453395252755659,53.46574523912417,-0.012789017307814227,-101.2267464410136,15.39635033458572,-0.016502419405723036,82.30532738224757,-13.921490357563014,-0.2941486977365843,-0.010171074783745659,-17.366230506688566,5.399539564971835,0.0014026036869842849,0.1473487723854612,2.661579441610041,4.8196817042466265,-21.081006677971086,0.731568589964598,5.455551200978288,-2.7624726838009717,0.5634431820255489,-0.7011304520246067
-2.4527031217038533,0.0,0.0,0.07516705223165333,0.0,0.0,6.667841236312084,-2.1979080779307334,9.807252726724228,-6.860747612084864,15.827664317541979,11.282495929341993,-12.600374181689828,-0.6282875223063543,-0.00026732791904798326,-8.79628845003589,0.05577618615136694,0.0009452235041498423,13.07915632697806,6.494745381110879,10.842070310905433,22.859784473893498,2.375373447585779,-4.799229822851957,4.101493739433536,8.323509906968633,-11.580060820824341,2.735349740213444,-11.8260113930698,-5.447166935492745,49.09864266422063,0.028471100633517772,-101.24588709871303,12.483344096358074,-0.004301414885997661,80.46982235670181,-12.304676780549135,-2.09763902673232,0.0070591431963561635,-19.479256953716607,5.5184427836305305,0.008116607195204692,1.4765712821443144,2.588078508721301,7.080966706505599,-19.658701516609078,-0.153266294925654,7.535301649176375,-3.049587960168265,0.5901712537034414,-1.3476324839916307
-2.8731432501754433,0.0,0.0,0.1769947106318168,0.0,0.0,6.425378719016428,-2.2477533640588,11.240631192201185,-4.081215416670399,15.44613208549736,9.923873841732467,-12.414377251188588,-0.8151708021164327,-7.0622046427394e-05,-10.46576413128189,0.22400494220864314,-0.0015860493602080524,13.536522302898364,7.00461196008554,10.299015606883021,23.439671901089767,2.247640483803275,-4.039520285714374,4.984080990528552,7.819845664116498,-11.332910549713354,2.3200467891067182,-12.03288932083373,-10.027000792873007,45.10069818374077,-0.01966118657766083,-102.02418950299031,10.903207574151075,0.008420195241262207,83.76597506253437,-10.772530579973475,-4.323764772158218,-0.0018850537859713885,-19.26667469751194,6.802286517402578,0.009315731281480815,2.1122035147700475,2.5629632827723303,8.395396835633552,-18.955501133550477,-0.6494596616950509,8.751342036061118,-3.04872601180674,0.8286393864742441,-1.6112267649684828
-3.247180000000001,0.0,0.0,0.20638999999999988,0.0,0.0,6.1066900000000075,-2.4225200000000005,11.047290000000006,-1.6121700000000159,15.295569999999996,7.479380000000015,-12.152270000000005,-0.5753700000000023,6.999999999999799e-05,-12.642359999999986,0.3569300000000013,0.00018999999999996542,13.832429999999999,7.619159999999997,10.869339999999996,24.02991,2.176080000000001,-3.4108800000000006,5.7119699999999956,7.0474500000000075,-10.889950000000008,1.9459099999999998,-12.616659999999998,-12.151730000000004,41.12953000000004,-0.0022600000000002527,-103.92269999999999,9.046200000000017,-0.005589999999999997,84.91584000000003,-7.886390000000019,-6.518739999999987,-0.005790000000000016,-18.55739000000001,8.108119999999998,-0.00016999999999998806,2.686589999999996,2.9572299999999974,9.312789999999994,-18.325960000000006,-0.6104699999999997,9.74817999999999,-2.863330000000001,1.2696699999999967,-1.2737200000000006
-2.7743162112865094,0.0,0.0,-0.028057481887244266,0.0,0.0,5.19689699229652,-2.298879163250996,10.755488147602732,0.5139433151956374,15.111621004532045,5.707502401971039,-11.341509559169527,-0.18168586039732354,0.00043620150683665207,-15.131108517176672,-0.13065038062326378,0.001724983837067826,13.901882155912835,7.918712339399546,11.213888173377923,24.34557347353681,1.837443974541918,-4.078253940687529,6.5586159538981805,6.27102754678673,-10.30806495113978,1.9812510016341913,-13.445820673093264,-9.575090843339993,37.16947715521904,0.01290590084104002,-103.62311923897168,6.933924446465968,-0.003292236257621686,82.37898557239122,-5.800961858718555,-8.66100348231487,0.0018480574851836692,-17.970778939467614,7.8345005001003365,0.00041155265801583863,3.338412397426462,3.037146599736557,11.218992298465297,-17.545659368857343,-1.216476525430052,11.554752989942756,-2.6923484855716486,1.6839927687135487,-1.501292238356372
-2.2754830795657854,0.0,0.0,-0.5750622387341676,0.0,0.0,4.731448288263643,-2.724275620775933,11.47390780591377,1.8049411634516168,14.05461512595699,4.30413810032875,-10.69241463098688,0.24501503731885338,0.00029705755892281405,-17.590864715994798,-0.5679526671387373,-0.0008174727097524693,14.111781405066804,8.053511173218993,10.977638711058551,24.604931572180988,1.2081724934237108,-4.960791906108614,6.904698843945416,6.010693055505239,-10.190985945783986,1.3916549864837524,-14.05597930923225,-3.5707798382710285,33.938564325212695,-0.005582547103384531,-103.33545062008554,5.7941614619652215,-0.0037380183125093765,75.83317183703022,-4.429688165041591,-9.44978079873605,0.0013212171799646068,-17.251201390558503,6.5731309161609275,-4.935891906330056e-05,3.919677075920685,2.7982161761130526,13.971478077835418,-16.7454501662972,-2.415037829858288,14.041403137639891,-2.097904432906516,1.9044783808118684,-1.6498772863463587
-2.590517769619439,0.0,0.0,-1.0174624702725763,0.0,0.0,4.485661348472767,-3.357368161576855,12.45457079140812,3.0618024556871606,13.066417694431827,2.0676409278252303,-9.942365910840048,0.16293432923322743,-0.0012637593133887875,-19.886675889365662,-0.9988691489624358,0.00045775453172320046,14.017648374365612,8.532876686198954,10.754190488041651,24.571331860470405,0.5978038123301246,-5.564298204897124,6.9539828940481705,5.73619665522475,-9.67443856763054,0.4101015448099576,-14.2503210923153,-2.6375705256815434,31.569011063611757,-0.00018642846363040386,-102.6123992741178,6.019597213271166,-0.02798231748758983,76.40479387491769,-3.7325595498042574,-10.089216303509106,0.0002740863960058873,-14.928307177352886,7.7438615799405675,0.015595148437065854,4.233868167691552,2.966139392815772,16.386667804709052,-16.19806823077776,-3.1045750083904964,16.361685624853614,-1.652969866671175,2.2401511920357704,-1.6368069528085316
-3.591764046410315,0.0,0.0,-1.2055997150889484,0.0,0.0,4.061771168634375,-2.668606491449557,13.39237360036597,4.261097203106667,12.600179566613509,-0.969692111140494,-8.585976765389686,-0.09593457931140097,0.00011827864713331968,-21.613156797397178,-1.329907400671921,0.00013911198110761342,13.272045714738667,8.768858678960628,10.845040032277902,23.82602885716244,-0.2341985880347648,-5.648346123397915,6.825594915490517,5.538321975321909,-9.302724741032884,-0.9095345984438532,-13.799504615259476,-7.708323907527738,29.950547284259695,0.004388120523897992,-101.18081839377558,6.973139045838494,-0.0022007085200257772,85.92520223367771,-3.7508733529329223,-10.317324592752966,-0.00019405192318218368,-12.32914976626616,9.202541578090223,-0.004270165168879253,4.372932320165874,3.5224066278072637,17.65719161826311,-15.913072238085634,-3.024385794008734,17.74643237644239,-1.2704072404383322,2.158474546248118,-1.4268204422010613
-3.201349334773878,0.0,0.0,-0.3365312518904812,0.0,0.0,3.4103720772074295,-2.8981170840185104,13.832563067740788,4.656536613650644,13.2361851045849,-3.5711809051344745,-7.6501521453436085,0.140147079470778,0.0005019820436799145,-23.219010792566888,-1.6315153264370295,-6.11847744878136e-05,12.54789204709287,8.572205048128087,11.380540656303546,22.879951906878016,-1.573470400166778,-5.8140925237452254,6.7327821756516375,5.515915483599723,-9.096648941590383,-1.9094520571881943,-13.699833178097283,-9.452133868053341,29.223301488644612,-0.0010960145381982524,-99.19774929096234,7.662295735821526,-0.0017926990512601112,91.84718129374662,-3.7133861690498304,-10.456702878797028,-0.0006881929877352474,-10.377199822995422,9.645175245121594,0.005226163566448619,4.473923025203424,4.0093867435305794,18.965414883988558,-15.652612679763692,-3.0182873746949315,19.141625109809628,-1.0620663134641402,1.7127108576988603,-0.9507802406749472
-3.3308219117636613,0.0,0.0,0.36105646236986416,0.0,0.0,3.218709917990663,-4.150139921592562,13.88742038237826,4.4630684308361905,12.561133572752542,-6.196232360793231,-7.152185726141202,0.32742107208440746,-0.00021756667411113717,-24.46122262125636,-1.7443243937616133,-0.0003920313672984257,12.407282511611859,8.560260349104043,11.743765105138964,22.136831928710933,-2.9493748493591836,-5.681549709640395,6.6087981347133855,4.959021756911612,-7.540489884510207,-2.7809259966729996,-13.861455310941142,-8.663130078383134,29.018177052649207,-0.0009028220893132989,-101.51066923205762,8.694848463271729,0.002768936148937022,90.39185752338288,-3.5918685229090035,-10.194100630073343,0.00047511560619466176,-8.431633740630739,9.652177547773174,8.289460095776224e-05,4.524096713614187,3.9480132985270857,20.847064510741482,-15.369275170940583,-3.718315405173263,20.88743197669635,-0.6238075569229982,1.6012440799782672,-0.740978702631476
-4.410657642879404,0.0,0.0,0.5553705031715854,0.0,0.0,3.0478046030517016,-3.956638360063745,13.671290208864807,4.282576521001896,12.48874734322063,-9.309984729350314,-6.583340518044862,0.17742678255494831,-0.00022313717700936625,-25.55365942440921,-2.0194332329428484,0.0007949830948181056,12.031156645567032,8.613815368282113,12.030046173770826,21.230621921150764,-4.2576275799865,-5.263104648217822,6.2815905509146726,4.482430867474106,-6.497725335726124,-3.3623707005556933,-13.651086683757267,-10.64500579973322,29.494095032867488,0.004991740720035824,-102.79750844279444,9.30294996343765,-0.017287392483594115,91.11657829794086,-4.077468022504039,-8.778588162980238,0.0012478914936390967,-7.905380854689958,8.598318747935263,0.0007192139024209881,4.46262477540861,3.9588005437558462,22.29354166964999,-15.236835101623162,-4.196912409832802,22.252090531894435,-0.4290508992393455,1.481077321641163,-0.3241412685469937
-4.6274367655996596,0.0,0.0,0.49823072266891955,0.0,0.0,2.8752485809973267,-3.5402610117430817,13.146871082389906,4.415236525049067,12.852899231409063,-11.137318313930026,-5.842068611448658,0.17267736689001875,0.00010613036547974887,-26.121151454428507,-2.1173429309128986,-9.99044627939477e-05,11.597635809438275,8.524467924849038,13.054134737584207,20.335486615907396,-5.645105640675529,-4.84923720377041,5.748925173556137,4.485057544829434,-6.3654419349524005,-3.8835044475322835,-13.500932094133884,-11.647864398603991,30.874711591973675,-0.004675620133482679,-102.3452297268657,9.976890774356702,0.006210419137063891,94.12991197160031,-5.350991787126178,-8.093150329355254,-0.00047076034918951907,-8.718757690613966,7.900383273140069,0.0021012162156208657,4.57253838389684,4.354238910812666,23.996668638195246,-14.873277138875572,-4.393405652176214,23.989930614251087,-0.18151582950821776,1.2123558811250712,-0.08419653622072967
-3.441699090472215,0.0,0.0,0.07406189868633252,0.0,0.0,2.314499815363029,-3.867109382258416,13.067313980880616,4.437125325922714,11.882871585621404,-10.947035872548474,-4.964974512003424,0.26590098542388135,6.17577942354445e-05,-26.05295868033777,-1.749096048755233,-0.0003296458125458274,11.659695619522147,8.23905908768066,13.803265667754259,19.788283627311547,-7.300568293335454,-4.967903278955275,5.326954884962622,4.484691662941332,-6.756630321400629,-5.077145050871895,-13.380835579035281,-10.815572115278892,32.64142861178564,-0.008996241797664456,-100.33021459177391,12.17631819373821,0.017441314770457756,92.12816825523662,-6.878121212547337,-6.662461354879193,-0.003770282285521353,-9.306225864400613,7.255499128865834,-0.00016327369008850304,5.024973716077162,4.509837479957292,25.267210961184027,-14.22390525702357,-4.6662950430900025,25.240597415955445,0.637750455933007,0.7700085330392838,0.23085480270530978
-2.943344918467558,0.0,0.0,0.01667777319273286,0.0,0.0,1.8783815012242562,-4.118288691509646,13.931230717870948,4.150244871726238,11.103033266300507,-10.483405221570056,-4.3884270702291985,0.32079229678978843,-5.539902561620116e-05,-25.305871748693804,-1.6503540906006118,-0.0005806110823684694,11.794557963918205,7.978102841703843,13.094035837956113,18.94652244964385,-8.859245084955935,-6.149775148778545,5.3994183516179355,4.280455979886527,-6.288527804843779,-6.137597533854856,-12.794433733185244,-13.134009440579423,34.33406772614732,0.012881076863254343,-101.22123140634895,14.939349861684345,-0.02062812082368072,92.96438289006073,-8.467461727800833,-6.1013023361770164,0.0008416009269981256,-8.610106182418471,6.695000783788009,-3.778678920520869e-05,5.26205827490216,4.371067156066275,26.175807278737615,-13.847291643338998,-5.094958181116242,26.053540075996494,1.201768307158735,0.44597866935983294,0.30063669641866375
-3.3974287782899717,0.0,0.0,0.16070867445278272,0.0,0.0,1.4015954429173243,-4.568487424811191,14.180074193615425,3.652584119913701,10.71046152463812,-11.085634244562094,-3.7541871633694917,0.42028870199712987,0.00012631210567397985,-24.114929823195446,-1.232532052582696,0.0016907446683207359,11.911341825665154,7.9417864982671205,12.704613023695323,17.9742895088718,-10.153746492599607,-6.693510436104189,5.48560642903987,3.9053305740568183,-5.287659913619885,-6.843863681340156,-12.611419787040955,-13.63160356043888,36.0132599097893,0.0005608144751258785,-104.37383453432994,16.653063020809736,-0.001135846543184354,95.041928369717,-8.906955525607414,-6.938069915493174,-0.003014994714983937,-7.986008082685244,6.499205205011195,-0.00023233708150818523,4.918637272711357,4.1376369396555335,27.225871050535442,-14.026814876625203,-5.657048759352916,26.971425466401268,1.7602843276959712,0.4890610373626942,0.35430269417371846
-2.3779407769807452,0.0,0.0,0.17497649876762222,0.0,0.0,0.6190865850360567,-4.793619464707755,13.239488206557407,2.5430028877100637,10.814919909012996,-11.259946807359391,-3.0202654422797,0.4733329487177864,-9.214533399641288e-05,-22.525568655169742,-1.0831199499497262,-0.003265088703404442,11.694676534565032,7.905557218568239,13.28977935225475,16.62575859424832,-11.359912775210947,-7.61750422321598,5.26449833011099,4.112504921305237,-6.092928482501901,-7.664180959295173,-12.694689323069955,-11.896006721501005,38.23317266619825,-0.0179214029598898,-102.55401147525333,18.67431959080893,0.0181089404235871,93.3869559990432,-9.174613683146081,-6.064200606724186,-0.00253988762906709,-8.55327160833978,5.629480575203163,0.006687649759284486,4.794212632225156,4.0057571046041955,27.488417565935837,-14.111913271234572,-5.866734650506965,27.177417768561508,2.018096362768635,0.3857124189931471,0.5990593508107578
-2.1726168676825957,0.0,0.0,-0.0797563811369698,0.0,0.0,0.20225293911754263,-4.51266749873571,13.519322773003605,0.936549869474074,10.723721846088855,-11.053110984994685,-2.417206150248438,0.5276634325770314,0.00016546498355664475,-20.703166036103923,-0.9623058392745013,0.0022512940685863662,11.247955564281543,7.5634936904393,13.27159251384101,15.174645596834488,-12.661408515756124,-8.716704817339837,4.721744963680441,4.657653905041524,-6.510020604978366,-8.133569935935776,-12.67435310491343,-11.01144627124207,41.106541538010624,0.00806977104958565,-101.08341827603972,20.537613672044372,-0.004412537379823575,91.59909198109105,-8.911525112568214,-4.952099766794077,0.00014724323254824422,-9.198122055116107,4.728064503271397,-5.9654308998744406e-05,4.788727848201624,4.190454377087249,27.705077885256788,-14.075007264371495,-5.761928093436093,27.4430476745108,2.040954399241387,0.02260033463178407,0.7738099294061579
-3.923780822532611,0.0,0.0,-0.7409022618185545,0.0,0.0,0.21109171740513277,-4.977644391450171,15.262026988117498,0.2977920567860079,11.374765032957171,-12.451321396022767,-1.9680810465344911,0.4452483429415296,-0.00016049858828246898,-18.95219548564487,-0.4005016010194913,-0.001107472800488932,10.795211011680719,7.4775835878395425,12.534889275861616,13.911772334012973,-13.65099886948315,-8.11293675639288,4.269555816168945,4.677002796322053,-5.679704296048088,-8.113372210467393,-13.124479408995617,-9.380415973431642,44.10748883217209,0.005701341190364402,-101.44200358271323,21.34594079686164,-0.0026257333034929928,91.88225988390047,-8.491842377969922,-5.170748966864429,-0.00012596679317469585,-9.440953612259511,5.316493659575993,-0.007490911357092899,4.618434148835502,4.2605604787822635,28.49861322379227,-14.107675878229603,-5.950532570760445,28.21886364767425,2.140673430174301,-0.14496313498085975,1.2433719490333228
-4.550033426855606,0.0,0.0,-1.3212206325652738,0.0,0.0,0.019580460798618058,-5.1501365410822535,15.293456135690432,-0.5031002119080252,11.235023786990295,-12.965614546478921,-1.7124230139405543,0.2020200955210891,4.919139916958855e-05,-16.738366137356987,-0.5387700783528873,-0.0005048340343064297,10.658444584622101,7.8194887061195715,12.411039318718025,12.445306102906281,-13.970990781335413,-8.590414316865601,4.059852025501709,4.852477052538161,-5.134840631907213,-8.005038113858673,-13.1059385724496,-8.340113389757795,47.14086075791522,-0.016766565936281834,-100.32738675802479,22.556239678706767,0.00028359109647653605,93.22330270301943,-8.173272811853023,-5.070183793466638,8.783460588910885e-05,-9.317310428902026,6.04499157814883,-0.0014178093372739506,4.388333899172068,3.8459346490619124,29.152974685873236,-14.238320457273439,-6.552337955541152,28.70734795041995,2.266720010127441,-0.2038851966694194,1.4461370943790415
-4.237498123301336,0.0,0.0,-1.6583222080986462,0.0,0.0,0.13755607462122238,-5.603031841540405,15.20996172232944,-2.551919219661169,11.643861179100103,-12.749165119697471,-1.6897294273486048,0.3678887932615098,-4.2592570957324546e-05,-14.69817909273877,-0.5659286919121717,0.0010326212607747324,10.822350569069151,7.648204961459221,12.518850442868617,11.514770561066081,-14.642594814111575,-8.801194468409399,4.047278943101055,5.456427822329029,-5.236236626995809,-8.09078852511047,-13.10501782961053,-6.483680553932858,50.03667458520598,0.011120111774197649,-100.53849677677195,23.953710685283113,-0.0025543592701773444,94.22055977200023,-8.466940899120505,-4.773850642954008,-0.0013010163740215948,-8.940818659791917,6.696194823961045,0.00010092239736515031,4.39815383021139,3.6652228020539592,29.274631035327793,-14.21384853563334,-6.76235368609242,28.765080013358066,2.7230149157808254,-0.6810739221383074,1.6971508127634027
-3.7078599999999993,0.0,0.0,-1.3001000000000003,0.0,0.0,-0.31001999999999996,-5.65639,13.823460000000004,-5.53135,13.154079999999997,-9.759689999999999,-1.8822700000000003,0.57567,2.9999999999999987e-05,-12.785059999999998,-0.94462,-0.0024699999999999995,11.30417,7.29308,14.16591,10.88778,-15.448270000000003,-9.80589,3.8270299999999997,6.137409999999999,-5.2199800000000005,-8.24887,-13.365269999999999,-4.22584,52.99266,0.0046,-101.81844000000001,25.45934,0.004649999999999998,94.77742,-8.87988,-5.57408,-0.0009300000000000002,-8.497970000000002,6.1907,-0.00189,4.27057,3.5652299999999997,28.71673,-14.442539999999997,-6.678919999999998,28.201700000000002,3.3984299999999994,-1.3584199999999997,2.07046
-2.100248843525019,0.0,0.0,-0.952936840090371,0.0,0.0,-1.1080276027890479,-5.43086933295357,12.881203859253468,-6.07606663323037,14.26372047833975,-7.160997380480179,-1.997619642338565,0.6785850093393528,-3.631469783660125e-06,-10.781748296044302,-1.1663449121193334,0.0010327441990394875,11.48028445679322,7.090124368894605,15.223607428131746,9.678221066232316,-15.964479451986154,-10.845198151438565,3.170505192694888,6.811918399558146,-5.012226322907298,-8.388788492421405,-12.96822974508305,-3.779259804769696,56.388060089227565,-0.01061126740354641,-101.69831625888615,27.138880078066602,0.00327281267121824,94.38852040065473,-9.718795715212146,-6.243747877007784,-0.003292248093865117,-8.53166584011557,5.109830739416849,0.001798967511425123,4.07846354633893,3.4128948488386817,28.683745504758033,-14.64611900299176,-6.812625651378912,28.12106707680572,3.641476969552793,-2.0646713096583915,2.3654433874749285
-2.2778890368235114,0.0,0.0,-1.4008876466881277,0.0,0.0,-0.9559553307254403,-6.019511528794212,13.574446800916366,-4.187829038474098,14.985566943549122,-7.494472451805186,-2.0805137828912454,0.5616759199435885,-5.227346822943918e-05,-9.117457629491428,-1.0067131841693138,-0.00010805013362053056,11.779437208142514,7.3853512043142775,14.436693305458629,8.719056373461703,-15.901874237323526,-10.86993530892296,2.7404478653294286,7.278883463256892,-4.427590112469892,-8.437287115490888,-12.534932109604275,-3.3943882568409425,59.55962994415772,-0.0023197005880291927,-101.07698182645794,28.892908633589574,-0.013100150729114348,96.34758448371622,-9.668984638136134,-5.977232656986851,-0.0019775137825631182,-8.746906959510891,5.533432042301143,0.002768432240055728,4.077027362630389,3.6055360612572454,29.03585521593327,-14.579099425755896,-6.742764580677097,28.51849077533159,4.013839544559477,-2.5660043030242017,2.4615668454176123
-3.003791111205978,0.0,0.0,-2.02761122418733,0.0,0.0,-1.0233954387681394,-6.717758021330305,13.958658805485925,-2.14723799447012,15.1794280525065,-8.427969672372859,-2.028405352456257,0.34559324979146466,3.066717507891947e-05,-7.559926426184204,-0.8454772273980259,0.0004596623289061945,11.900092285533242,7.8625653974432055,13.909982615061544,7.84828258440334,-15.526812993996574,-10.655490159424135,2.45847303558261,7.809560574404585,-3.553675703815732,-8.092074929263326,-12.511295627326746,-2.1791865843379505,62.1125334971386,0.01216826010182819,-102.11731835595702,30.661649570981126,0.005458353048490188,97.51991380702556,-10.15390121611603,-5.24676449503324,-0.0038014727095134104,-8.033885605335167,6.79254225861315,-0.0009109402934397394,4.475894706967192,3.905263357129646,29.178569307435765,-14.144100261183821,-6.504271774827158,28.750767386913356,4.178939829630157,-2.9122234957555886,2.725844018424791
-4.194837130839443,0.0,0.0,-3.5778333731022833,0.0,0.0,-0.979724042809504,-7.343746484596371,15.17113538898933,-0.1723146032332856,14.205645703702853,-9.795416051368054,-1.9858870467784413,0.3706835461919025,8.250462653020839e-05,-6.428098853234528,-0.7478968079356554,1.4562129450468303e-06,11.704937199941456,8.340482633108637,12.636494781851615,6.926420792937,-14.875435189200935,-10.275160831388803,2.0373216434778754,7.824036051386895,-2.057126459320394,-7.934979541092483,-12.48460478201237,-1.4080145415583791,64.41985924689222,-0.0045491901495199735,-103.78177095703877,32.33171275965296,0.002741484404746602,95.00782707809839,-10.396750786600133,-4.1882023505679635,0.005561958900768555,-7.492382397779097,5.689777934022577,-0.0017687716389382059,4.660762893433435,3.6255570855497754,28.79674475854162,-14.036231595999036,-6.647385157319228,28.297320971166922,4.0187666531466775,-2.8821595610011643,2.9515596778745947
-4.54525115687317,0.0,0.0,-3.764252120995544,0.0,0.0,-1.0894273418020193,-7.307937576498856,15.408120695267762,0.9566059452514935,13.884997683183752,-11.27180834999397,-2.164444970570289,0.38354332457357637,-7.777301720764816e-05,-5.178994204375343,-1.0656767253759527,-0.0009339848306706687,11.841540090406607,9.07864521975263,12.04259045168628,6.332037788673799,-13.725733054247453,-10.52966921869237,1.61809505738298,7.959251395539271,-0.45300165309834745,-8.090252488967513,-12.46260416038862,-0.8005786836737239,66.84973765031705,-0.006155520460703431,-103.27303791683725,34.30981614672887,-0.007244322778694968,94.76883068548423,-8.786299835919506,-3.116991601163941,-2.7462546094642395e-06,-7.677760217600679,5.293608474127499,0.0016198723138400074,4.464954402227159,3.3050517525533927,28.743945429718288,-14.253413426266132,-6.934051226007741,28.143532559364814,4.142098455984578,-2.5216300622391605,3.011022615640984
-4.542466869973191,0.0,0.0,-4.376866296016923,0.0,0.0,-1.3699089179385366,-7.619759537627315,15.083860246258753,2.2531938171173627,14.14184356285987,-12.15181808969013,-2.3286062495129087,0.6705641860494,5.724457090704347e-06,-4.265963336515229,-1.4362535415650708,0.0004419887205652107,12.041062597943744,9.516539930404189,12.283832179024344,6.153161729518583,-12.80531983762325,-10.927762696806631,1.1582725535091771,8.45374354997107,1.1364091470535498,-7.685448892351788,-12.3664321083374,0.7850451349268143,69.85027730790719,0.01910860298703095,-104.57917501354247,35.95342903050624,0.00123811950850706,94.71508075932947,-7.083743505099264,-2.742717565567096,0.002969451626677149,-8.714575661487405,5.5058265964914055,0.0009551503753340032,4.6352324488948895,3.6006932013341943,29.79232214226459,-13.887381074463782,-6.9880303367523044,29.237690907935637,4.227325688478233,-2.629103081453333,3.135998721306183
-4.805437900990594,0.0,0.0,-5.598756294865761,0.0,0.0,-1.6220750671039768,-7.943447996368806,15.815909538351995,3.555498704698566,13.596876121952521,-13.117050970128359,-2.2242994507364,0.7377491756767134,-0.00014915243390438808,-3.5487102859134065,-1.8583762749407846,-0.00080576008101874,11.943479100365998,10.301824549945948,11.944030911013336,5.750137435607516,-11.533334870163335,-10.401754100215387,0.41216470464674676,8.7384708760399,2.7983545249373343,-7.139995822898641,-12.024563973721765,1.7702148407457914,73.32262960853771,-0.025619502144122057,-104.33901987942288,37.53889150178499,-0.009376081405872427,95.63479001420275,-4.4173337433003965,-1.8399144622260666,0.0030154366547716226,-9.394735093621764,5.69789010222172,0.0002767792570017422,4.896059077417685,3.5276038060322046,30.69311967495612,-13.466256270251776,-7.341795464251011,30.073979008425166,4.004990486887831,-2.562797984525954,3.017803319721085
-5.306860153093831,0.0,0.0,-5.279468148858874,0.0,0.0,-1.6246560046230476,-8.282078883876288,16.140313474993903,4.196967852731237,13.287379846012188,-13.61880011039851,-2.2071501066574077,0.42203994739308376,1.0640734099503895e-05,-2.9777379351364104,-2.134835757177634,0.0003189353046849364,11.974498884614714,11.77734794374854,11.759086698159152,5.4159776245257865,-9.95860247974532,-10.183165400683812,-0.39873028731961424,8.914715812329613,3.8023919923849845,-7.1863276645587995,-11.81352439470923,2.41808509587002,76.56274411478643,0.018505658053920675,-103.92480468764714,38.876964084647305,0.00486740787231632,94.9513076658461,-2.2138322483351,-1.4426515461777059,-0.0024500010906950585,-9.395530055893321,5.219812375196747,0.00023202844828085868,4.917701668012719,2.9894816411975826,30.404610343028235,-13.519758698212119,-7.761480700296189,29.62692422388274,4.1200071420893405,-1.8978074084793537,3.2088244165827287
-6.837070323771105,0.0,0.0,-4.663339485306666,0.0,0.0,-1.7283272837627695,-7.6030185320152315,15.298628914997911,4.431307748317272,12.556764579004332,-12.776795348122493,-2.549738068148021,0.1683780048090447,9.649296569055633e-05,-2.502891765636879,-2.0469306636818456,1.9128452478709585e-05,12.266151459472827,12.936124239435756,12.334716309730783,5.225920440446574,-8.921715853152723,-10.940110697324318,-0.9562466744559802,8.799645035921065,3.972397772568634,-7.515929773161667,-11.992748626342921,3.296364011575286,79.29029295190509,-0.021355084528702453,-102.64727974974898,40.66983750343435,0.015529897489944551,91.55634112539394,-2.9839566174420162,-2.0215847384674275,0.003808736402314411,-10.213254034148937,5.332854494111602,-0.0020655849875924506,4.954041640902101,2.7704008149862975,30.33602884987957,-13.50538620191843,-7.94763338567758,29.491357868711106,4.224266365447477,-1.1438953249672745,3.6574427506774887
-5.6254565740454225,0.0,0.0,-2.8726019488972834,0.0,0.0,-2.088248065590938,-7.078993602172175,14.789355180498934,4.153612056208519,12.043247949046831,-12.293344922881083,-2.8403883897941578,-0.0653586219139883,-3.159343191964161e-05,-1.7857737101158513,-2.0565945596978574,-6.948575582380886e-05,12.394205366330981,14.245452487481277,12.086105478578617,4.525809993409388,-7.572560542654287,-11.696493979649741,-1.1548215462936056,8.536460855811443,3.9213329830039023,-7.502076606032402,-12.279527701022364,4.253704646766637,81.68550046182851,0.014310986685003014,-100.93986875133994,42.224725391595214,-0.009429151755492462,90.73003847222813,-4.685165677266337,-2.5076149717972367,0.0013680560979620325,-12.131187846808762,5.2537604978546435,0.002971827796678504,5.1045336812850834,2.418301121062238,30.418781982356883,-13.355883149401464,-8.307789170746318,29.457950749681796,3.883835889453659,-0.034069939446502474,3.5638161377559947
-4.37355566423325,0.0,0.0,-1.718827308509544,0.0,0.0,-2.2100176118884196,-7.5815659630500765,14.709298222148739,3.8704660911692668,12.532529030740472,-12.169543435362701,-3.289840625295195,-0.2375907238079849,7.447122540612736e-05,-1.1094228530746266,-2.003703094416349,-9.639942505054184e-05,12.548398841040862,15.50374644556643,11.817287308320093,3.9294365314863953,-6.3906458753601,-12.088063393203187,-1.1170084013465538,8.236510374485603,3.9148286153033807,-7.811719264246927,-12.640852453369943,5.331143029693038,83.68638192205586,-0.013321746962171895,-100.18579997404066,44.20882358931242,0.01254690639040873,89.67773380181993,-5.105785102026545,-2.4004860558082313,0.001681009254084066,-13.285671571956739,4.010191478916994,-0.00027468592129699187,5.415349832214217,1.7673794653784785,30.587080424978826,-13.045994381186878,-8.978482368398423,29.410825509807125,3.7213286645742656,0.901958662744045,3.6623588952305144
-4.316769075700241,0.0,0.0,-2.5501965275811607,0.0,0.0,-1.9626282897508254,-7.979657501074634,15.112704664932874,3.9200729782647223,12.444132048184898,-12.339425133086545,-3.7360704686587143,-0.31762138764314335,-0.00013181977427593092,-0.51049301122521,-1.8645088799956486,0.00024818866104722785,12.748563127097873,16.46835904129703,11.472504933637088,3.5423594469315147,-5.512753449476981,-11.854664157241563,-1.4653004264359544,8.070905817357069,3.806689254497822,-8.199632706679383,-13.195196081808554,6.29866660236257,85.71230487437126,0.00015180482610006887,-97.39403629587243,45.83531787987782,-0.0017913661071373194,87.089923371582,-7.267780109083485,-2.1116862822157363,-0.0009978214202708581,-13.56620141101914,3.044511226896381,-0.001165589123123688,5.412182336193722,1.3591740751515928,31.18621662603362,-12.961150678675375,-9.554986832120735,29.855898554896754,3.7495288572084315,1.6728648551303222,3.8131574471804583
-3.7744717356636337,0.0,0.0,-2.613766669267042,0.0,0.0,-2.070342850744227,-7.770312832139877,14.151359665493857,3.5925642257818873,11.91003362512984,-12.214333005238812,-4.121854449175728,-0.4531922438895562,0.00013580898637306708,0.012041903045951959,-1.6586925413031077,-3.823938249779062e-05,13.056180721018338,17.239102864664627,11.317701229141537,3.277043397497865,-4.800767419582768,-12.104646286331569,-1.554785857389456,8.170326199974513,3.5995427297662133,-8.264568036222402,-13.53562938728132,6.733779404612943,87.47372555301672,0.006767980407126157,-97.69266353076372,46.88643046297904,-0.0037331182976172656,87.5088002050802,-8.591465743411291,-1.8813553587349308,0.0007758322220108122,-14.116736487237407,3.70225829373924,2.3269500023898267e-05,5.372167009668678,1.438682049061746,31.392467837067286,-12.95898135095248,-9.544446550777174,30.07974264818197,3.6698298139550825,2.309858262522219,3.8309087890182867
-4.159355337667467,0.0,0.0,-3.628094300251634,0.0,0.0,-1.697925785013311,-7.0975260104183295,13.965857375924447,3.759165364331661,12.245550923164263,-13.27674278533427,-4.518219338060545,-0.730941738691449,8.412978892308208e-05,0.3158828115247104,-1.8190844162503903,-0.0001365622135729493,13.502921974342598,18.058592576280972,10.446431699747908,3.2955813136134364,-3.8674285774347488,-11.454141940694186,-1.2690338273294242,7.94105152935482,3.219185878996186,-8.100021111654081,-13.718706413542423,6.784522951720124,89.18726388346232,-0.012638269351613626,-96.27360839114606,47.41284417597899,0.0026270418383292954,87.93460758268677,-9.293966536737193,-2.056746816151581,-0.00029451367486386454,-14.898748410369087,3.308137384180948,0.0024593161378809124,5.727395629972857,1.5242496096512412,31.312324471412055,-12.614059642666858,-9.438014261580625,30.029930041135454,3.5846967515490253,2.9591523800156674,4.168044717684233
-3.2267072841481226,0.0,0.0,-4.8618755230894495,0.0,0.0,-1.4214125092437846,-7.166444176739592,12.855797679116714,4.015467430160599,11.848152409263125,-13.168879034310386,-4.694622439874948,-0.8301783184687346,-3.548721195358317e-05,0.48395180928120884,-1.831334095058125,7.832095772170143e-05,13.661567668036813,18.73573919861607,10.153293011158517,3.2438937557758307,-3.088908042359733,-11.727692826876378,-0.9877634059069446,7.613343468337073,3.2204139064870105,-8.40248429659772,-13.966610737113538,6.740326224935277,90.47008031507227,0.011332880169922824,-96.3876208491611,48.120847633769394,-0.004323406756944529,88.6089731646927,-9.540640144418536,-2.1968191290716206,-0.000708971502577799,-13.91029188855309,2.4805595522694435,0.0014402210615713238,5.9336189212201615,1.52679311646838,31.756677925292742,-12.32523899526716,-9.575070143445306,30.458342234005816,3.570245060169737,3.4715396759216643,4.2805043867527495
-2.140940723336195,0.0,0.0,-4.656087270752835,0.0,0.0,-1.4658515709173985,-8.389761010290988,10.984267140810232,4.054743149745597,11.08940121768434,-12.989526995746669,-4.52070821375857,-0.8209932479609254,-3.842040774626265e-06,0.6843868500692697,-1.7568313105825744,-5.52375411322768e-05,13.576695076809038,19.218542224348646,9.625554273355156,3.0604977502023116,-2.473291437843411,-12.140713789659895,-1.1169829029959193,7.822524699917645,2.997507810570432,-9.141092300010683,-14.291509747208146,6.3955657285741125,91.57906852381699,-0.0036116849378925184,-97.65464969665899,49.46317637230034,0.0026581624799479927,89.09235018979169,-10.0035437854442,-1.5194939938590355,0.00011094882265577757,-12.467430291469064,3.3325870675574216,-0.005579910205404216,5.958817752758855,1.5026492521137786,32.12954985612671,-12.231304164387808,-9.714589490735538,30.809806089166443,3.512689073545025,3.847017534914596,4.197877621061462
-1.5783999999999996,0.0,0.0,-3.7164399999999995,0.0,0.0,-1.6383100000000015,-8.101780000000012,9.552770000000006,4.020669999999996,10.843439999999996,-13.003739999999999,-4.395580000000001,-0.8899899999999987,-3.0000000000000418e-05,0.65064,-1.8682699999999977,-8.999999999999918e-05,13.84702,19.784559999999995,9.004380000000012,3.200959999999998,-1.8013200000000085,-11.972660000000007,-1.3120299999999983,7.998490000000003,2.7374100000000015,-9.462060000000001,-14.56793,6.21785,92.85778999999998,-0.0075100000000002925,-94.07646000000005,50.33627999999999,0.0003500000000000933,87.41208000000005,-10.611479999999995,-1.1449599999999924,5.00000000001066e-05,-14.30539999999997,5.352259999999982,-0.007890000000000308,6.059340000000001,1.6139999999999992,32.1655,-12.118060000000005,-9.62001,30.8797,3.624929999999998,4.388209999999993,4.332469999999999
-2.478041715402561,0.0,0.0,-4.352544790076437,0.0,0.0,-1.3635335509627748,-7.741958285896079,9.901045752493111,4.425015362738881,11.13092136245938,-13.086402445463328,-4.343208311593835,-0.9775612946888935,9.155265239976697e-05,0.7091453384298065,-1.9374433739499877,-4.477052650841889e-05,14.20167528919271,20.186027199090518,8.076685446876393,3.400248451435528,-1.325576267288524,-11.882048008042133,-1.5264300367716022,7.845045750304524,2.6317682176381516,-9.404499423045444,-14.802723896197454,6.0626257184839405,94.39354645861833,0.0073876628867970634,-92.81007742620159,50.51707007716352,-0.00031682144910598857,87.22579566598453,-9.794723435748999,-2.233267882385854,-0.00718484575281007,-15.440275759539704,6.101386125300492,0.0038260855046247373,6.364584220758467,1.6965570541905282,32.237648937833896,-11.794805176593377,-9.564058109710038,30.975287307656107,3.9117912268001565,4.889017803573432,4.318956136038197
-3.9278128011578635,0.0,0.0,-4.5396618978915955,0.0,0.0,-1.6142567961064263,-8.481277081587262,10.326646473227951,4.647137808912071,10.820721435362373,-12.956438288219907,-4.08815558107255,-0.9414513049110943,1.189146121972516e-05,0.8077794458146028,-1.5838839494945018,0.00013596496411419755,14.350908556705685,20.434558526069416,7.660009208031007,3.468466848735016,-1.144529196876509,-12.061414277291828,-1.4209148438542727,8.008926606247043,2.620042768331124,-9.499924527429465,-14.907306747144606,5.676156434806617,95.36948137515402,0.0006375465239233532,-92.07537003775883,50.90924861666578,0.0028183926333218453,87.86560775237693,-8.4809450610891,-1.5893735485279612,-0.0031789314282555455,-15.447126404232852,7.036580046730872,-0.0004523781562394857,6.6545946010431845,1.863609975443754,32.621401940871635,-11.422849048818003,-9.524572273663518,31.39763057666487,4.138433626372879,5.268061773642854,4.038609635831993
-3.884487923256932,0.0,0.0,-3.757261302743948,0.0,0.0,-2.6689741938818883,-8.425372222963857,10.41364107139764,4.2144757537640665,10.494920541748701,-12.408401071949912,-3.3836702646860313,-1.0791931518595956,-0.00070592001649819,0.8702688080483351,-1.3326600380269344,2.799390948715977e-06,13.487279628582984,20.708171831127483,7.930139462404082,2.981098941968142,-1.0327843618148926,-12.167764434956915,-1.2271214229786123,7.6891540305170585,2.705957999900295,-9.661882614644941,-15.088163673814153,5.444397875768465,95.37129818475192,0.0013943852574585319,-91.62971903995214,51.098594376269226,-0.003014375836051986,87.39613375960035,-9.729216013821546,0.24855103962584196,-0.003926603451470742,-15.325354606173926,6.88668610484865,-0.0008081519431844249,6.368239716953157,2.0537140608758255,33.39093611115614,-11.54990870506202,-9.58140251366769,32.19893079454585,4.024978847317801,5.518931960019775,4.127931981128299
-4.5454697745386765,0.0,0.0,-3.5445915312596563,0.0,0.0,-3.42693444061247,-9.021313931967091,11.11884291480655,4.159956561250623,10.585573248432997,-12.29257893716265,-2.7925341689943712,-0.887065709491557,0.00047084612159320656,0.7245331104952768,-1.3054840517173252,-1.801443635182778e-05,13.016168269807718,20.895050036451543,8.097681160519787,2.9852275588294654,-0.8761123807025205,-11.897347370159862,-1.1680764372899737,7.42349449785972,2.576008752419207,-9.228525610962167,-15.452907731414152,5.7350749227299,95.68975732098892,-0.002261484482909342,-92.01431718341824,50.13257059069108,-0.0007104251422357535,87.15401818987752,-10.733198582081366,-0.2628812440661041,0.0017820868023669504,-15.478369867681032,6.213492478610416,0.001727369817624727,6.180841148489915,2.423614580356886,34.05628601102161,-11.586348116276275,-9.433009700413102,32.95552464568443,4.253490664130798,5.780178747921237,4.3601887288947765
-6.169114757260341,0.0,0.0,-3.659254632324129,0.0,0.0,-3.6664550588271467,-9.835981183244758,11.858553593495412,4.56743265895063,11.385839106002582,-12.830137177305916,-2.4380648894156773,-0.5156256299805874,-0.00012098272709321333,0.5482643216064861,-1.395216402547316,8.072857729584325e-05,12.909625826520742,21.172907116366268,8.257447535209055,3.1600010884308047,-0.535556779526612,-11.357788629758526,-1.0915535348804721,7.9354283517064985,2.6007991229402507,-8.959327411963933,-15.460853490409766,5.858885180166301,96.18264359047762,-0.0004734650484112694,-91.23451608034729,49.96939609089624,-0.0011592340459008314,88.7439230809146,-11.381036577125068,-0.42735226877429955,-0.0045838392273788355,-15.468601140416888,5.865404765495287,0.002162526927001332,6.226726965161166,2.7992203434060445,34.030195427246134,-11.527026536782474,-9.067355675571793,33.04645872652696,4.525979674676963,6.076143857287209,4.237376839126536
-5.9771386685945815,0.0,0.0,-2.637480777328089,0.0,0.0,-4.3680468931909076,-9.222527261117076,11.2812890124932,4.367865666828793,11.9563270547176,-12.167176319490693,-2.114275351946675,-0.42629364451060164,-4.443549339645591e-06,0.4550591198383949,-1.5351967606850812,-3.169599483277453e-05,12.77266735431056,21.498839382774285,8.877597850059418,3.209822658028315,-0.1679325732378275,-11.811959651231703,-1.2507492030801501,8.192824487106536,2.990535497140439,-9.031502779597506,-15.401544970364114,5.773321928157172,96.59366533913416,-0.0006330990071464112,-92.0653533050541,50.15724150793276,0.0009500062305794991,88.50392812835909,-11.975149699916383,0.7961104335340956,-0.003778671649365177,-15.130106788662369,6.702953627000795,0.0014812452344767544,6.376369713378268,2.9747916585006995,33.95324310731788,-11.384372922184655,-8.87670167572413,33.0265643230473,4.7296801018096035,6.322374264257064,4.039346458836083
-4.95351565797921,0.0,0.0,-2.4206445583195015,0.0,0.0,-4.8751856802846625,-8.854060798956766,11.217688812238757,4.179379001236388,11.781031134996558,-11.430812471508421,-1.893418992453964,-0.34033788625397027,1.2200196362070194e-05,0.3724867117279026,-1.5972870202274154,-2.315157708356661e-05,12.500889009357111,21.712810875263802,9.308169957485363,3.1572316952954735,0.10933759117274126,-11.997554718597675,-1.7692444303593748,8.459509558797016,3.163982794079167,-9.45942949508069,-15.437827775534833,5.437375101854459,97.44576415040667,-0.0029073137756883303,-91.83237355151888,50.561744024123115,-0.0016399854999635199,87.77113364716304,-12.286195375494206,1.7478649681633394,-0.0009387799881879346,-16.027059434320403,5.5299998102845285,0.004910980756392192,6.538677795025505,3.0346748454676367,34.0583668857059,-11.198110085301844,-8.851670833661352,33.14623854027967,4.89716581801696,6.654270233291662,4.135388406076464
-5.593871514469581,0.0,0.0,-3.3765203581607195,0.0,0.0,-4.7865060974539535,-9.345333452257224,11.187357061257924,4.525648009079865,11.12764036640781,-11.022723579334482,-1.8814713887726056,-0.15005807131047988,-5.5099052571067165e-05,0.48682096786195744,-1.6645480218790687,4.6847171808941715e-05,12.91753353983775,21.799044721174095,9.317946609257502,3.3275088929371996,0.3447857594634468,-12.2636833132594,-1.4782992306981309,8.324630118892935,3.040948440832356,-9.537751949490325,-15.557402923854847,4.462887716512744,98.12914013154135,0.0018281519309015436,-92.7229069272967,50.28456494640174,0.0015240230654575452,89.03667716074854,-12.971382391021804,0.3839614085207464,0.006097435207692954,-16.44384718493595,4.527881550429563,-0.0009858074566486917,7.193793341007819,2.839736283836867,34.263891628840746,-10.5109489825954,-9.09983925022741,33.284115099756505,5.118068042656807,7.088987810337097,4.048774678434199
-6.984064516618311,0.0,0.0,-4.260932289479503,0.0,0.0,-4.408109749122528,-10.291658980784117,11.192190388896291,4.724585024908961,11.107343053928744,-11.046541982225454,-1.9432459811517853,0.06112923114788554,4.1000985936323245e-05,0.6415393341764091,-1.524794700551138,-3.361671512760425e-05,13.381003762781475,21.753257163837343,9.244676406767843,3.5639310833362434,0.31341489855139615,-12.603925681925288,-0.9139736018542529,8.458472522323799,2.8813865705977992,-9.275059368160315,-15.474029806740269,3.788563293816029,98.31287831290287,-0.00031331103559781575,-95.65363638019969,49.17222230726377,-0.0003576679332748403,89.12768747664278,-14.201546486927121,-0.6293223132927679,-0.0019896818482581786,-16.23066755441522,4.250453718206188,0.0009743351337734543,7.905671428050015,2.8995720360718495,34.801063238624195,-9.686890649732492,-9.20547834046184,33.820326590322345,5.459272199054232,7.124492977674781,3.8740139460171723
-7.068479211164677,0.0,0.0,-4.236331485557848,0.0,0.0,-4.120968393910088,-9.87869377717123,11.97318702130355,4.593730436417967,11.864549602443564,-11.557149030224446,-1.935062828871837,-0.11407025072966526,3.318397497595313e-05,0.7368316459655239,-1.6789699135672738,-3.205155076205549e-05,12.855399091129517,21.824562643191367,9.050990045803223,3.320314054503667,0.3603588602274886,-12.107948835212703,-0.674620190389162,8.95155449138425,3.200248721579388,-9.38614176921006,-15.585122826423033,3.6116638261957017,98.50223922905252,-0.0012944499469002926,-96.46259765352544,48.97806229193122,0.0025850425728361423,88.20264197901355,-14.706446025332918,0.03172974966045253,-0.0018486657533443008,-16.399562408053974,2.9335618998644346,0.0008261857820983978,8.169252034961174,3.031639676506504,35.286335009833635,-9.31676767023615,-9.225595224965014,34.32877010806526,5.329716148830176,7.181281674278184,3.821446104402396
-7.830411519160363,0.0,0.0,-5.248707733279792,0.0,0.0,-4.036056694420638,-9.56053561025813,12.690796895795513,5.007942282141851,11.878601217114081,-11.53892311972384,-1.8431755994217043,-0.20445536136682832,3.991280584850027e-05,0.3976884764630744,-1.8214449240020874,-0.00011073853166005383,12.710330462818753,21.859440569834508,8.678862833398469,3.5682378661057297,0.40123582582265294,-11.830998560025266,-0.8806562121365111,9.232172719804831,4.271134107346018,-9.498587149838995,-15.404104474069284,3.2970059942212853,99.17690581214977,-0.000473645987604745,-95.97992158883575,49.32560786641036,-0.001670232594152948,89.19094535393404,-13.373318377029843,0.24495226065416467,0.0003525150631938975,-16.261395847953175,3.227514890330784,-0.0004466036741234023,8.239386445017278,3.5554337963857634,35.493736544007746,-9.178513793328186,-8.788015505252597,34.687817626597734,5.540147486816021,7.2340399032621585,3.609207147013137
-7.119343827929017,0.0,0.0,-5.125028977664902,0.0,0.0,-4.201922348839618,-9.793755130735576,12.310769521366,4.858626501705608,10.829232917665006,-10.692406269975631,-1.7871772798984908,-0.149122068027094,1.8283417451942115e-05,0.044218045455940644,-1.6784368564733267,-2.423242787682538e-05,12.74430570755791,21.963238312259943,9.215442174323849,3.972858330322976,0.4166519666876868,-12.296946976210496,-0.9919256654785197,9.321535885405405,5.264250788100329,-9.968067135681732,-15.310309897409743,2.7778763082840294,99.74127756791754,0.0014355945276800406,-96.4850241409229,50.60066229223578,0.0015644882131228834,90.4812816372369,-12.549077861508342,0.6886651190993903,0.001463936414651852,-14.726446352742604,4.234877558626151,0.0034806501872895208,8.335741953815745,3.72120086725522,35.91067701422212,-8.986793483183028,-8.754018047403614,35.1397205535192,5.947646725349454,7.292328514623587,3.4153733354500204
-6.856271943713231,0.0,0.0,-4.727956915801382,0.0,0.0,-3.9189156722053053,-10.108945389778132,12.31193132554282,4.605810065285545,10.751831454625634,-10.269019038752898,-1.7373724996501874,-0.03818070541725319,-2.1917829413926588e-05,0.05087593582530914,-1.6325334788743184,4.273596840248468e-05,12.52903088922576,21.91962107396122,9.538058563024729,4.008255460099859,0.2925723874922714,-12.170409366985796,-0.781919840222317,9.423375308619097,5.871971840092495,-10.197835238647755,-15.36252745365918,2.0108105184641123,100.37496587935495,-0.0003648544028213475,-97.0650393712623,51.27964148290378,-0.0009294320823409126,90.48454284577628,-13.820382925131076,0.36074933575508356,0.003728582599855371,-13.19458900618864,4.663166921774735,-0.0014284594961935908,8.626468334572667,3.590287888273744,36.01434345585493,-8.680160400427217,-8.909800602182207,35.20024569152426,6.004974587549357,7.355526612807949,3.487989981622821
-7.396850172073485,0.0,0.0,-5.268939878204882,0.0,0.0,-3.7050444550934687,-9.931174566193363,12.674199654247818,4.795536688828506,11.55120100133005,-10.433304930249875,-1.7195760022794584,-0.01742722548262144,-3.1825586113747815e-05,0.059993093607811056,-1.7958341916835865,-6.182147129645723e-05,12.565391925090598,21.78730594583535,9.019056737835855,4.067488449098304,0.23019046835379894,-12.257794585399893,-0.4451488277157043,9.808908924467682,6.725560842942617,-9.799703409105895,-15.39294814934033,2.1295081490996335,100.86800889339253,-0.00039675747339620697,-96.49326022166859,50.22838518263612,0.0018725811468171753,90.32013122514894,-13.53223080454609,0.40454240633876104,0.0027961403981328556,-14.317344655439733,3.725574500762058,0.004256597251705672,8.903126110930122,3.720718839572913,36.27162434254784,-8.34270802593272,-8.861498562654655,35.487606460291204,6.140999696174523,7.302993595220232,3.284363442176722
-8.175854954932959,0.0,0.0,-4.677248740518273,0.0,0.0,-3.376845838508591,-9.519434108206314,13.041412645370425,4.53084463488277,11.811846184695352,-10.899807625210757,-1.6378508188349143,-0.16157889581144358,-0.00011363462236569222,0.26589971718399563,-1.8678418539259565,2.5141065384466374e-05,12.23038717548785,21.784316670501347,8.87218687357579,3.80081481249089,0.2417872381141718,-11.906211552159377,-0.38654572811043986,9.987128877849727,7.760639700027557,-9.718704842935313,-15.514945274608237,2.309345265474864,101.45072292344564,-0.00042961557149322373,-96.36889930776407,49.31614941448502,0.0019071389180846266,91.65720871857891,-11.917191165162555,0.123839286588889,-0.008064556350809935,-15.20253869485994,2.7191708435921664,-0.0021804671072239152,9.03302436773318,3.633697371757795,36.48727226950325,-8.170716096844435,-9.008358002676275,35.6695991305062,6.184383849024927,7.304012256713675,3.0536002175436145
-8.378161612738142,0.0,0.0,-4.3145741152705845,0.0,0.0,-3.2285836091989677,-9.511128918292913,13.966422981883632,4.193825795487819,11.006218984733586,-11.160343516851471,-1.2065070825088704,-0.04040615480570888,0.00040842451395484955,0.27507889582335066,-1.5960520534422757,-7.330951993679174e-05,11.391354901386885,21.530322328743804,8.702786851191242,3.5353004599201663,-0.07013306239759506,-11.122047254131601,-0.43658455089867393,9.880161998036984,8.596992318716282,-10.306343383970964,-15.567750553928196,1.5273831095769774,102.34164657415434,0.0012210413171981453,-96.52299263902906,50.42717249434529,0.0015471144924423005,91.78271032836855,-11.347744250153992,-0.506092688664624,-0.0072615238820800615,-14.844637739924188,3.085112082145727,0.002488241162763731,9.123151581829745,3.536687497564605,36.23353765789274,-8.13940982447925,-9.025980066328952,35.39559939196749,5.983822847966148,7.269629935010288,3.3177255217093338
-7.605990000000011,0.0,0.0,-3.6950900000000084,0.0,0.0,-3.3832,-9.967989999999993,13.912190000000011,3.8215000000000043,10.490380000000004,-10.908310000000007,-0.9463099999999991,0.3576399999999945,-0.0002699999999999919,0.21055999999999994,-1.40125,3.99999999999998e-05,11.289019999999999,21.300220000000007,8.744119999999995,3.6455799999999954,-0.2125099999999988,-11.287209999999995,-0.24598000000000297,9.89307,9.641519999999982,-10.882689999999997,-15.296260000000007,0.4484600000000086,102.95418000000002,-0.000799999999999961,-96.16645000000001,51.64070000000001,0.0007699999999999368,91.90059,-10.725230000000028,0.44127999999998324,0.004909999999999917,-14.036610000000003,3.179130000000014,0.0028399999999999858,9.150800000000002,3.54073,35.995400000000004,-8.162159999999998,-8.95148,35.16705,6.137549999999993,7.281180000000001,3.362970000000001
-6.9251257211250765,0.0,0.0,-3.109460739786717,0.0,0.0,-3.554083667700516,-9.73331644549185,13.012813918240202,3.6267680644824987,10.822472444122752,-9.846644329142519,-1.0878609103439452,0.5449801295899983,-0.00016292627671976988,0.273692505624854,-1.542679745722454,-2.2092899568391705e-05,11.777049428063778,21.009812565945705,9.540944260920611,4.130030862863345,-0.38005799754169056,-12.048517533154913,-0.2654314800808172,9.972815469602978,11.056434362141957,-11.129166909006788,-15.184209712043371,0.13949698385127357,103.48995664775629,-0.0012553217719675426,-94.63246326559835,51.47929939030453,0.0014820497979346227,92.57059906608924,-8.614372623076475,1.4777827556500973,-0.008413229318760288,-14.441693656957861,2.3884756226855837,0.002761770644741653,8.942829704436146,3.5055686522141905,36.24442024304953,-8.318874543814612,-9.05891090279176,35.39674594546934,6.711675690923841,7.199157389923989,3.18714829137867
-6.975415129818351,0.0,0.0,-3.0922697323411543,0.0,0.0,-3.7285586131757804,-8.610014042336251,13.070927048658703,3.5454578180594156,11.627475412774624,-9.702833226467956,-0.9180847952785017,0.28257522528804063,-0.00013966082038787268,0.3910144087976708,-1.678591931120638,6.115514203745007e-05,11.05657302961107,20.744834897059313,10.032766960857671,3.8454354390324275,-0.6775172400370544,-11.72594760159054,-0.4739005455405534,10.103108354072193,11.899127604377185,-11.466013725082329,-15.033364005040099,-0.5851324462285984,104.38049203826307,0.000657969834113081,-94.07525228851557,52.444168383377296,-0.003969451236485918,93.5821443394684,-10.5044477287049,1.9363745357587772,-0.002653786539887648,-13.938981547444442,4.6927160831055375,0.008875289008688792,9.048287729962853,3.5379186696588674,37.06003730515078,-8.036310693087838,-9.268375305596784,36.194249552548975,6.402563064870459,6.993285858718626,3.100652643798741
-7.538266094127398,0.0,0.0,-4.489375746673324,0.0,0.0,-3.5330185157240903,-8.793900964290378,13.982529122384921,3.870910824537132,11.542715727228837,-10.640489263110455,-0.764247412189187,0.24263479194927612,3.721109322464728e-05,0.31725995109032024,-1.4404452507331045,-0.00019654282087866782,10.51455728153799,20.64953278231515,9.890707019228103,3.7455124966056834,-0.9283553174658129,-10.484790088234178,-0.5686876995731647,10.639109078157817,12.648246668130431,-11.713010337179696,-15.026789560879912,-1.2858862790918022,105.30653294532739,-0.0014128723952172965,-93.86421613868767,52.84961782715289,-0.00016523405760193388,93.67417674156293,-13.671190941703806,1.4892538896585008,0.0014941136223331347,-13.653438940374574,5.240046111489084,0.0022804107133158214,9.311272051922993,3.7955469354750804,37.76473104117385,-7.606481439272138,-9.227632930316558,36.95197463165345,6.257884192192368,6.890171649065142,3.101269562696493
-6.868503831074336,0.0,0.0,-4.375614319963349,0.0,0.0,-3.8516670576317553,-9.026883116170849,13.956273966239504,3.7560562974940126,11.692538093203176,-9.89940008955236,-0.5513234139836767,0.26928812785945444,-5.2153272500974856e-05,0.22656254426506386,-1.2385635177176813,2.639841114033733e-05,10.492068971760197,20.54644860862428,10.466618655909611,4.095416626943508,-1.2126936015818304,-10.792700347415868,-0.7192694299197221,10.959935911359292,13.667525380752727,-11.71594424645022,-15.096548005015693,-1.3459117669042862,106.05878999291254,-1.509395489538668e-05,-94.6390512644934,52.26619524251659,-0.000967998309696762,92.39772867181105,-14.280970527364117,1.4347779797750726,-0.0040992000793778835,-13.957655970669876,3.598128306671679,-0.0013529951846387852,9.387960045113928,4.017374851472033,38.1766365798747,-7.427773196412248,-9.134598444425363,37.41552363210072,6.593028830152984,6.7966189130913985,2.9428409907367663
-7.481920769352309,0.0,0.0,-3.3265199704429937,0.0,0.0,-3.7994106621447803,-8.42967653339711,14.538965494974537,3.423428393644716,12.668790554921683,-9.738103674501872,-0.31911433612602824,0.33425567133033224,-4.6519697645606005e-05,0.17182604198063245,-1.3700192136511595,0.00013255808150180909,9.784278554765475,20.12323199972291,10.535196088965094,3.696198997541598,-1.573869392668767,-10.670464424045164,-0.7621972672287068,11.040687088959857,14.126240946512596,-11.928957726037982,-15.462046994529615,-1.623193669923753,106.95681369981034,0.0046184442152770455,-96.76769440052662,52.094171222215465,0.0004865791228500794,91.53930698066289,-15.14862600273197,0.45445058958975854,0.00445105909613972,-13.228270365344047,2.928956301763111,0.00017683590399042283,9.668193903881342,3.8671957577925893,37.61935340285651,-7.278314232706259,-9.116848607831086,36.832529365290824,6.25390590187314,6.6430119454249725,3.1246220475939777
