PaulMeinheit/Bachelor_Muay_Thai/processed_Data/N2/teep/scaled/JointAngles/scaled2.csv
L_MTP_ANGLE,L_MTP_ANGLE,L_MTP_ANGLE,R_MTP_ANGLE,R_MTP_ANGLE,R_MTP_ANGLE,L_ANKLE_ANGLE,L_ANKLE_ANGLE,L_ANKLE_ANGLE,R_ANKLE_ANGLE,R_ANKLE_ANGLE,R_ANKLE_ANGLE,L_KNEE_ANGLE,L_KNEE_ANGLE,L_KNEE_ANGLE,R_KNEE_ANGLE,R_KNEE_ANGLE,R_KNEE_ANGLE,L_HIP_ANGLE,L_HIP_ANGLE,L_HIP_ANGLE,R_HIP_ANGLE,R_HIP_ANGLE,R_HIP_ANGLE,L_SHOULDER_ANGLE,L_SHOULDER_ANGLE,L_SHOULDER_ANGLE,R_SHOULDER_ANGLE,R_SHOULDER_ANGLE,R_SHOULDER_ANGLE,L_ELBOW_ANGLE,L_ELBOW_ANGLE,L_ELBOW_ANGLE,R_ELBOW_ANGLE,R_ELBOW_ANGLE,R_ELBOW_ANGLE,L_WRIST_ANGLE,L_WRIST_ANGLE,L_WRIST_ANGLE,R_WRIST_ANGLE,R_WRIST_ANGLE,R_WRIST_ANGLE,NECK_ANGLE,NECK_ANGLE,NECK_ANGLE,NECK_ANGLE_SHADOW,NECK_ANGLE_SHADOW,NECK_ANGLE_SHADOW,Trunk_Joint_Angle,Trunk_Joint_Angle,Trunk_Joint_Angle
X,Y,Z,X,Y,Z,X,Y,Z,X,Y,Z,X,Y,Z,X,Y,Z,X,Y,Z,X,Y,Z,X,Y,Z,X,Y,Z,X,Y,Z,X,Y,Z,X,Y,Z,X,Y,Z,X,Y,Z,X,Y,Z,X,Y,Z
-3.7146500000000002,0.0,0.0,-7.99411,0.0,0.0,6.656920000000001,-2.8260100000000006,4.626480000000002,-4.59793,9.376280000000001,1.7362000000000002,-17.078860000000002,-0.6218900000000002,0.00022000000000000003,-7.093450000000002,-0.35269000000000017,1.0000000000000008e-05,20.434510000000003,1.2845400000000002,5.5977500000000004,23.083610000000007,1.55628,-4.17596,-4.021240000000001,12.314040000000002,-8.728060000000001,-10.287840000000001,-14.642940000000005,4.267120000000002,46.748660000000015,-0.003610000000000001,-100.36841999999999,22.430320000000002,0.0017700000000000005,94.50337,5.106520000000001,-10.734450000000002,5.9999999999999744e-05,-4.092190000000001,4.749390000000002,0.0030700000000000002,-7.904670000000001,6.27552,-15.512000000000002,-28.833580000000005,11.445090000000002,-12.249630000000003,-5.045590000000002,6.518640000000002,-3.4133
-4.250721303381369,0.0,0.0,-8.589240218846097,0.0,0.0,7.16142704824602,-2.5243791987571917,4.356560085575111,-4.843237097415774,9.097632351245887,2.4678355449885307,-16.456042079223735,-0.3728627884144233,6.263407403233942e-05,-6.0799905496684294,-0.3501651452225419,-0.00072392855852801,19.553253007241707,1.5271774211475295,5.486931882125125,22.20626355015546,1.9533840433934668,-4.714720955274883,-3.978892707126456,12.39566406504621,-9.495575059156504,-10.516637319536125,-14.704602751921117,3.7761397026294743,47.63980128008506,-0.0025422058987434565,-98.6199883039609,22.726099104226797,0.001956933794997248,94.70985479747357,3.901995658946668,-7.415857722955017,-0.0061065314891332375,-5.288548475079693,3.899810279292936,-0.00496859621573791,-8.424489573326415,7.135636741503209,-15.872057322499044,-29.38985818306124,12.376200161162016,-12.276680625994777,-5.104302120303029,6.970433579757317,-3.3892701102571565
-3.3354509004091506,0.0,0.0,-6.576130576758561,0.0,0.0,7.581373797535788,-1.5677093792347845,3.3777993956520915,-5.867564627266322,8.793193700215776,3.2964640526210736,-15.543043094901817,-0.2100541321724274,0.000102917277815136,-4.937476745969463,-0.36481949727083957,0.0002449390522827488,18.42798738764831,1.9131895964048082,6.1996456668559174,21.141717499212508,2.4379706826279217,-5.024626023817908,-3.7414842595165534,12.735635829012171,-10.5069007835339,-10.52048874693511,-14.812055773532755,3.7598854043088026,49.61377114902411,-0.0033951234462792374,-98.05004763224424,22.915145744111914,0.0018928211975586153,93.86454623162987,3.469553143821385,-9.462304694510696,-0.01598677769771231,-5.249130299773143,3.4434222506008805,-0.006072346506769212,-8.322445306843589,8.025315173864808,-16.374784478932796,-29.320580491329743,13.385327392380963,-12.427211281349116,-5.603526498455071,7.413745474775637,-3.212474327991441
-2.7222454457622294,0.0,0.0,-4.323712695589328,0.0,0.0,7.929826385060689,-0.9560598907565284,3.06979228992909,-6.056253474560233,8.608506975588796,3.936921336789115,-14.287687775710143,-0.18612848912044933,-9.400893483118586e-05,-4.228222756474891,-0.2168228283796898,4.424597426451176e-05,17.459448743975038,1.9012751216885244,7.158782901362296,20.58906977845772,2.446217140652026,-4.95453647554697,-3.7234007265807283,12.885976896708318,-11.33879874798615,-10.325543969587121,-14.742064894524658,3.155739536107157,52.15803051772787,0.007516608055609215,-99.2723429462654,22.89451185208576,0.004934166886578709,92.04978068275088,4.39815612828867,-13.539384912904124,-0.00562943859616955,-5.7381852575370225,4.2902621770906055,-0.0017861948506303392,-8.97689995655351,8.0983049676381,-16.661391403584137,-29.958038305339823,13.555127485073807,-12.672753573302316,-5.45172377593499,7.420263195689681,-3.016361268285377
-3.0642623109382257,0.0,0.0,-4.105488946161639,0.0,0.0,8.15674841641737,-1.6026966323140437,3.8308891405932313,-5.806383793087989,9.155843993679433,4.26104389918347,-13.231169795430466,-0.2461035225128143,-6.59122093068563e-05,-4.141229032655638,-0.3821531057759666,0.00033901473377335165,16.444305392484868,1.7379528224150138,7.885488482178458,20.24181534569332,2.476946568069331,-4.43382343614954,-3.530239862033196,13.125626958608093,-12.310439777256834,-9.884170719570596,-14.28859974789733,1.4246015878903424,53.82795501090097,-0.0024895690346272053,-101.24875574132534,22.690427129282877,2.7935002536818895e-05,92.11049658801107,3.527984317086119,-14.360754319910578,0.0076505216847998735,-6.4084518769293926,5.27982261366671,-0.003061315026992283,-9.581028367280533,7.767310877907418,-16.100343194804957,-30.579347633041014,13.047041308216953,-12.261482881003664,-5.385825422478574,7.026315548567672,-3.022889530957752
-2.872670582302076,0.0,0.0,-5.05893355379864,0.0,0.0,8.025396352894315,-2.1552922111152153,4.320987154390622,-5.603578352013833,9.68407592604984,4.521234624648315,-12.68462203788356,-0.34679761589001157,5.301216585705948e-05,-4.766966420441631,-0.6726195953570699,0.0001150039261489505,16.086436792547353,1.73759037707147,8.74642906644455,20.634469252157643,2.6950281345295397,-4.176926727884804,-3.331714832670714,13.819184491018385,-13.22138947594655,-9.277651761825156,-14.283155864747595,2.1265131303853657,55.99406692152712,-0.009262490431745634,-100.53032825107206,22.563560591559224,-0.003122059320100986,87.00333576834062,1.2856026918429226,-14.38162975216421,-0.0025761956195281192,-8.405822665601884,5.7887555477482575,0.00173108288157592,-10.036462813280647,7.372971664187242,-15.13003869296065,-31.077298810612113,12.333942498597223,-11.48613880103731,-5.210112320630702,6.574355543462374,-3.2801810203121677
-2.483265146420777,0.0,0.0,-5.383386120823948,0.0,0.0,7.529342448097289,-2.471882958182574,4.443643490954719,-5.556806183705147,9.647685846530914,4.569791994410641,-12.127567703653718,-0.28095380537628517,0.0005458618491829691,-5.075290546278871,-0.7027482393697793,-0.00014633577267420689,15.59546370310926,1.6560622826626317,9.52015005034558,20.685467270769138,2.782268573218846,-3.8346740768056726,-3.031308104632246,14.26785965720694,-13.983648582461562,-9.05709782873998,-14.426457005284291,3.1137789397112665,57.89536105441009,0.00038617132503090506,-99.30307910843914,22.825467992134744,-0.0005641762150241623,83.67196421276462,0.4138595446252754,-13.56494940442549,-0.004546998901347149,-9.62570567656834,5.9465943434844,0.0017332898589796383,-10.372861869737081,7.259032160136919,-15.147361440158432,-31.403492461964422,12.233764823402032,-11.544406492145832,-5.170322589710255,6.32044673658434,-3.6104934818701366
-3.0695595013320394,0.0,0.0,-5.308322599902619,0.0,0.0,7.0165587258196815,-2.5791330379648993,5.128392996537047,-5.894667439911284,9.92791063156394,4.712489212914985,-11.470079068423303,-0.24375374835294983,-5.958791635646525e-05,-5.139851135691422,-0.7949879103103855,-5.365003432659854e-05,15.228430977053804,1.3492013955109037,9.607609052054597,20.745434020511247,2.6361117935698326,-3.1965421928696207,-2.4310926562694624,14.351033795474999,-14.508847374084805,-8.83751135254789,-14.26189824102362,2.091129833993192,59.59111683737984,0.010676034753639577,-99.51980826191193,23.539806437332004,-0.0006903796217835359,84.83974108917346,1.3615211715589315,-13.684612169062419,-0.003598753965938629,-8.378706371985356,6.22557458717031,-0.0012760948745607012,-10.821144145692804,7.7363009258734445,-15.402324730008752,-31.87073175119167,12.769967015685445,-11.610562039747409,-5.137443951653273,6.109975177974518,-4.072119775144398
-3.491460802535981,0.0,0.0,-6.4566779842883015,0.0,0.0,6.638860557245761,-2.359090451299324,5.959217361013705,-6.3152005704386305,10.834166275664716,4.648494508946239,-10.953276764990479,-0.6616365309019479,-0.00040587494590326145,-5.240953690316686,-0.9312302813415073,5.0097996906988575e-06,14.93952211717473,1.4043500582477904,9.433741492660772,20.907223517439952,2.636586308870876,-2.6772159695169053,-1.5889134154099296,14.768865563003073,-15.212298739107052,-8.222500893303964,-13.939985569710961,0.6774399974084511,61.61210715177406,-0.005789392407680203,-99.6941321917403,24.41057476775666,0.00268593173479117,86.19874534985513,-0.36355526949324346,-13.618772528362204,-0.0038750133380234474,-7.026261016748453,5.664334181094802,-0.0007931662559107796,-11.136156953151653,7.910704153421778,-15.355327115145766,-32.203533520712476,12.915993727100904,-11.501712548377071,-5.406405227027829,5.839479659747425,-4.5537090638475615
-3.6764501732305,0.0,0.0,-6.398559913974229,0.0,0.0,6.266368526919278,-2.3742756007202175,5.598973547377585,-6.723491492673442,10.84239679627365,5.682766074326456,-10.434636497208206,-0.9886358345769242,0.00044525265188234973,-5.646534171295644,-1.2195395970964822,0.0004019945423731779,15.00924037840241,1.6463989008759865,10.152872949115139,21.622750494146317,2.7944279348710954,-2.758687365041698,-0.437039757092156,15.207063891798995,-16.297601762271203,-7.8006508939816,-13.6905633417044,0.6195516811058855,62.95839134477425,-0.000473144520280294,-98.6457141256142,25.71914530915884,0.0014761600794675795,87.35099391097732,-3.176451297098309,-12.339186722207494,-0.0057419335304548826,-7.406486263939959,6.066190255439686,-0.0008425462894089352,-11.58474782138665,7.42237462143554,-14.845968388430949,-32.65021632642586,12.278849188878986,-11.198894510882255,-5.389544371821029,5.486671844105586,-5.017034606991435
-4.63046615300652,0.0,0.0,-6.658342194657801,0.0,0.0,6.267044762652525,-2.7184030483984145,5.250042563246533,-6.662700292219918,10.559371587072908,7.083043076473055,-9.729006086594337,-1.1011209141467093,0.00039892089797958683,-6.228146383199886,-1.270095335113516,-0.0002461418121208598,15.37592344641814,1.9571053884416152,10.995021317900552,22.869525647039374,2.9796461311926903,-2.76225912890212,0.35511017479783474,15.82041319073416,-16.998345026526625,-7.825908801813377,-13.39531658179254,0.9885142094429703,63.889220184759374,0.0043438997126137935,-98.60778114437208,27.684011571099056,-0.005954548025834921,88.71139427873636,-4.106057916179994,-10.370758320259473,0.005355748473274091,-7.89939099865305,7.1603438165152875,0.0021985828114353756,-12.422202718470636,7.404970257586208,-14.184442997156971,-33.53278144445623,12.026579896138179,-10.579202824028561,-4.81515490152212,5.11319064713015,-5.6841085279929215
-4.193355667526181,0.0,0.0,-5.5953266479657655,0.0,0.0,5.808050685740684,-2.060862711040657,5.220613665128634,-7.075262118104658,11.0753235014663,8.621205697660512,-8.65066167680945,-1.4403205392409655,-0.0008745427302854569,-6.560208751379596,-1.1157181769551676,-2.3544718924273757e-05,14.692774683252262,2.336847843657948,11.797099344942593,23.214901142230946,3.1533632775736544,-2.4641351375264438,0.23224010934872566,16.53654391749402,-16.433928464780468,-7.734773509341762,-13.197899358532396,1.8286158102049643,65.4757857344081,-0.004894085045553317,-97.89828675481913,29.163143720864227,-0.00174981990836434,90.13332344365162,-4.0549351894780274,-8.658050637858027,-0.0018480513357432965,-8.247074422998805,6.5386342654271505,0.0013332228948314175,-13.145514250864903,7.71991536558366,-13.38250194635473,-34.33275520538886,12.033490500467146,-9.704960030996068,-4.837609915140879,4.736972283004208,-6.390941104594764
-3.2337534077326575,0.0,0.0,-4.15780612992121,0.0,0.0,5.110067250644207,-1.1791522717478986,5.8912097436138415,-7.256592390790464,12.146384179634722,10.501727230559743,-7.376504183368828,-1.8967707343178686,-0.0004900855855814435,-7.252779226150025,-1.018545779223464,-5.959347659204775e-06,13.480158900490588,2.7975714087876113,12.533548478346157,23.275474182140734,3.475750905807799,-2.031085423518296,-0.10188179481338575,17.107522496543137,-15.95613540258378,-7.753496212229004,-13.493659737001188,3.4927166976102746,66.96109398706399,-0.0014782469554694177,-96.21790741106042,30.90616226167366,0.011780465716472961,89.83084869167823,-4.697260778891587,-6.832752830392898,-0.005129812525273954,-8.439038366245724,6.240357180776687,-0.0011111583029333408,-13.534698904219931,7.759491270063187,-12.500979645868508,-34.77776749554313,11.75428569247571,-8.858166249731827,-5.271023211390641,4.3168961890908735,-6.507936234019382
-2.715810480196504,0.0,0.0,-3.8796464193455313,0.0,0.0,4.9360152507919155,-1.4642075760324087,6.897692243677715,-6.821263825599289,14.134151951414063,11.690245859226838,-6.525020776543252,-2.082931621272597,0.0005265602154217765,-7.635633945801605,-0.9001519245958679,0.0003177842385500309,12.900580197640485,3.5947353832591817,13.093111900722377,23.50181719772996,4.071466043191851,-1.8485247777120102,-0.20942065523675094,17.37199307656841,-16.141010530943586,-8.127216562219468,-13.712943073826263,4.850462756700636,67.84399736756328,0.0003043201256389684,-94.94818792669844,32.73980301453431,-0.0018753446674206315,88.97290937799396,-4.895273193639111,-6.306827565443787,0.0012709879919126457,-9.168056368541798,5.712375623711012,-0.00022172611032801552,-13.708549820526288,7.623906685739533,-11.449705759938924,-34.99845023241275,11.250053164166298,-7.917576294417547,-5.250318565723984,4.156746814081597,-6.24930369238816
-2.1057078317818965,0.0,0.0,-2.888310155382387,0.0,0.0,4.425144341704772,-1.3433727539362341,7.422756484661913,-5.826797733465093,15.860854901078596,12.145494665302893,-5.967895376752698,-2.131983040125973,-0.00019339520447259127,-7.784340818059923,-0.5801365293355694,-0.000756456013691322,12.849576809596966,4.129775935957384,13.755514088701629,23.831912865421348,4.199273052137789,-1.6848412087502835,0.15604171806377337,17.667106909672633,-16.43459215732133,-8.318976393878728,-13.358118142813254,4.5613980612214915,67.88669373914455,0.0022980263917523904,-94.2674823850943,34.230065032776714,-0.008452453930221144,90.72334161264284,-5.244066617158161,-5.832210873328209,0.0002894240186247409,-9.458965645907995,4.396899058267626,-0.0013209727317772366,-13.986582604058936,7.396967131520722,-10.456838490430371,-35.30843684782512,10.680960439891933,-7.067437388205276,-5.023383986865821,3.8440354976025435,-5.878195487165506
-1.6778166721295582,0.0,0.0,-1.4802790276975197,0.0,0.0,3.416641466239238,-0.9128522374565213,8.182180026252974,-4.64933353041409,16.600754583387154,12.411803419348496,-5.213235187374379,-2.1178197470459006,5.256990430570382e-05,-8.634848144626549,-0.31307216465025084,-0.00037029358593867936,12.654099842652665,4.3116775378334955,13.908495742749551,24.147687647455406,3.9542591860893803,-1.6666754475210617,0.8506768154215268,18.095441014128653,-16.39470829135521,-8.355431208006603,-12.983444439996829,4.450152682018772,67.11115018359101,-0.0033728349022429317,-93.55487647046701,35.838351047326576,0.008875744522015573,90.9594811248829,-5.897969290919487,-4.423702417012203,0.000686297349508927,-11.301698945027253,4.230308969000897,-0.0042557164200467444,-14.201150539823796,6.988387435317076,-10.05536031178465,-35.513657069906166,10.155528302845392,-6.841170647796969,-5.011225324702612,3.3786567196237822,-5.660376729143441
-1.1380855862543113,0.0,0.0,-0.09406561782101747,0.0,0.0,2.613520191870911,-1.1755894306319914,7.64572248847986,-3.7904649411991658,16.425523250850702,13.077533489958851,-4.808991419716861,-1.8556564348548674,-0.00017090453425502557,-10.621653762724518,-0.6357352664561289,0.002915241465876975,12.45579020375692,4.691961659026312,15.168333616756051,24.54625011894407,4.129676900015433,-2.333174425375913,1.3404378498016112,18.30058938877416,-16.428342639011156,-8.506065068830415,-12.818110239078464,5.113262999298923,65.84147596762394,-0.0011757682752540403,-93.21000482294923,37.11698444063112,0.0013587394908951438,90.71928638728559,-7.567457559231906,-3.2524706364695155,-0.003696174747533098,-12.772972143510351,4.57447673868874,-6.879564200107472e-05,-14.618619288576115,6.284311726926705,-9.008302749339453,-35.931199660203696,9.121599793065169,-6.117946611815895,-4.8851774214954595,3.0699407598722663,-5.444870073982612
-1.9861185600601299,0.0,0.0,-0.19878160892522387,0.0,0.0,2.441719814302644,-1.9050312802933558,8.100905791878347,-1.6556032158715963,16.50054568431627,11.545848017734928,-4.637948758011217,-1.6337356265777079,-0.0001419023273654109,-13.239444825577047,-0.9608340116148733,-0.0017403480832986372,12.420937919657383,5.159753678807544,15.159107529973571,24.728994487361042,4.238289923996394,-2.6169970063968355,2.0046903829087666,18.353633334184092,-16.550746082993673,-8.193080044941357,-12.714380864962454,5.6565710675915675,63.90300436519406,0.019288969591378925,-90.63509566336397,37.32213609673604,0.0005591899189673679,92.81724662355258,-9.530665391311445,-2.4116092349454528,-2.9456346313182704e-05,-12.456391446480328,4.930704409960426,0.0030263897744249786,-15.032079798181222,5.783566876496427,-7.36383632679676,-36.374434980798625,8.060352168856628,-4.761493987630158,-4.773244581473427,2.944229787617039,-5.736032865415099
-3.139330763595019,0.0,0.0,0.06043826376233719,0.0,0.0,2.1877837061355816,-2.5813125835461994,9.043504571707372,1.464494989229093,16.267876442366827,8.291849886783474,-4.320599235955407,-1.4603501217331158,8.425816762480807e-05,-16.29349210182366,-1.0838410655567488,0.0001627133166205909,12.396844435056414,5.830194404170167,14.71106731859633,24.843325274929555,4.31064165344726,-2.2913082910042486,2.618905982046379,17.991623147591483,-15.99295315224367,-7.8508906888033065,-12.701208442181402,5.670078145155662,61.540057225646954,-0.009967843468451476,-89.11785550568887,37.60615752266043,-0.0003626212517817688,94.2507684282778,-10.102147065236268,-2.397547871528936,0.0018038937405156512,-11.764444689883515,4.499025923419695,-0.001990725063397784,-15.135143664480548,5.515406251182426,-5.664453537397561,-36.50803807234578,7.194683955119651,-3.2709804102640696,-4.577056721286364,3.1261297285564105,-5.869749138752957
-3.3634957736277973,0.0,0.0,0.966057784176669,0.0,0.0,1.903836502520695,-2.323649641959937,9.559949260518305,2.9992093575810586,15.811655662720568,6.031049339976861,-4.121796621633217,-1.1584545047091468,-8.39304419208542e-05,-19.335237968429382,-1.3927105210429185,0.0008549240468231873,12.395683195798703,6.531580777605931,15.136635615628638,25.056820483266158,4.424111445620612,-2.3865162394051054,3.187970470840043,17.396994589303116,-15.445737831377656,-7.405261654970653,-12.859599554302426,5.656571882699341,58.95853895066944,-0.006163454434435746,-90.32560547719937,37.4717946401088,-0.0024085843484282824,93.25302089375458,-10.57137042361066,-2.681914204561726,-0.00019995702539592542,-10.899190691738132,2.936063614655887,-0.0010921085098513665,-14.904741981595055,5.114222104183832,-4.104560045845359,-36.28645871924051,6.254937995079839,-1.9618757459667162,-4.390399160002307,3.3653540363602406,-5.271244778219476
-5.110397502933919,0.0,0.0,0.5798359822381769,0.0,0.0,2.0758191488410036,-1.8836326641786054,10.745881305140475,3.5358509970684,15.552104321023549,4.461186391478284,-3.9320539067983877,-0.9590107896385259,-0.00010191955074020882,-21.68446723377009,-1.7038978912245049,0.00024096174509435195,12.420192989537657,6.8657984979826265,15.036370454571294,24.935951999255053,3.996076354806763,-2.875694859376898,3.7014617826838587,16.639174687543345,-14.808665245461363,-6.890005126023454,-13.003704164510141,5.557136540347874,56.14509753033667,0.004536723949462798,-90.3443587936454,36.98379977021311,0.0008859496949604582,92.71203895432916,-11.223063860557712,-2.504913878563671,-0.0005954986054800123,-10.249271368346822,2.9570510346139,0.002727909425633359,-14.847330428362941,4.6736716346758636,-2.736274854515726,-36.22496973817978,5.347709809320198,-0.8472941736838826,-4.079142957884505,3.4147575308096902,-4.971853606526745
-5.762814332266414,0.0,0.0,-0.4784418212616616,0.0,0.0,1.789056838773544,-1.9386748121856785,11.648161901281215,4.5514653390324,14.665307849232867,3.449605094794329,-3.595473004014605,-0.8973032056391894,-5.8860936984173744e-05,-23.90866847821843,-1.8951730699006317,-0.0010710941944301476,12.581693122657592,7.102794209174733,15.204561662197438,24.927621982961483,3.221844419945135,-3.166188859535462,3.57189244769788,15.766395737595731,-13.377040538053825,-6.764429908963255,-13.248624095399531,6.045803135286531,53.53727107234762,0.001375403197852648,-89.74897400165274,36.90120289279372,-0.00034395262714927247,93.41175235064809,-11.398771461024353,-2.814098040837624,-0.00022787408640990197,-10.416354207749336,3.61313342160645,0.002934575076158106,-14.74425397890042,3.878934871016012,-0.942962269859274,-36.10013565840234,3.9560303993262997,0.5331169690948143,-3.1650583776366084,3.279366226108865,-4.961801920063762
-5.1827853679208475,0.0,0.0,-0.45075654181409863,0.0,0.0,1.3616934591843184,-2.5170619899515154,12.32956821833579,5.582652480617886,13.916330660321801,1.5241519973853266,-3.543697674214265,-0.8148859946205879,-4.412385311330873e-05,-26.211062498772954,-1.9336681829243614,0.00022345411479434004,12.532374723649895,7.259055840912499,15.225243574989744,24.667934986605193,2.193045656720416,-3.1438085592505036,3.723887372208267,14.881171024873497,-11.634119151264374,-6.506959537730522,-13.4478690391601,7.211390316175452,50.512825749629805,0.004355921521556328,-88.7798750958731,36.9419333792711,-0.004309661449340161,93.3478365636454,-11.60053978203606,-3.319074820316733,-0.0010300354640888766,-10.524471418785541,4.568601097712866,0.002757455126335345,-14.129143246130907,3.4967738559943236,1.020172948527128,-35.45952061666127,2.887021865402922,2.2217386200006914,-2.6580306884673304,2.7261060609124437,-4.808125456957353
-5.353300947215005,0.0,0.0,0.014027900196419148,0.0,0.0,1.5821316798657308,-2.732610426413385,13.471923972729009,5.9545968787473385,13.815676687258131,-0.6198339123560834,-3.7148394831960547,-0.8457100727000626,7.91710926272137e-05,-27.771421654348725,-1.928258824905145,-0.0007740152629002223,12.204359669940114,7.740966806970428,15.171372098000804,23.678707615009348,1.372842032653426,-2.8992872441377746,3.4190875423377602,14.03505507983911,-9.846641015995006,-6.341872613841134,-13.404424679290658,8.01530445042212,47.43104403267532,-0.000403774622778264,-88.2025141678966,36.316068154251724,-0.0003558066912951348,92.60729495167004,-11.861276028104252,-3.534697663759519,0.0011939092309702984,-10.256066224541888,4.445645345094927,0.0001503924720006274,-13.694701438035697,3.115639944143215,2.790582025892108,-34.98588154856364,1.8895785540066177,3.7311385351884785,-2.2919678364515375,2.406969687558211,-4.508895803806931
-5.843293451575564,0.0,0.0,0.18193423886526444,0.0,0.0,1.8925096185273027,-2.850768250448342,13.258322243822704,6.1255643641809,13.594802894995716,-2.02392755841648,-4.066335085286399,-0.837048755796321,-4.31730888968068e-05,-28.51081332574785,-2.1164918179957715,0.000576755855734988,12.471180629859491,8.613525291531007,15.671466170949007,22.747261190409553,0.8188591097709105,-2.8156740443872725,3.024202968312545,13.32761391507085,-8.445022274797065,-6.421338696517556,-13.174762264801368,7.966469609029564,43.92789882707442,-0.0035398928254792416,-88.4817751085454,35.7881608366416,0.005560908148787152,94.44285540809014,-12.382321021711741,-3.8382507764464964,0.002529186834957049,-10.063966594680034,5.810687956957617,-0.004278284557263923,-13.388971647437137,2.942838223131508,4.168388606845137,-34.640533400282244,1.2293921064939575,4.951042969899154,-1.479503354511717,2.5189734159852923,-4.26023608791914
-5.220375190584723,0.0,0.0,0.31563366615751653,0.0,0.0,1.766504977190953,-3.8761639628965723,13.419001406733575,6.114340887223145,13.210924943862922,-2.6844191333373075,-4.552172894778682,-0.6852926183249652,-0.00038409031849989737,-29.23951752029909,-2.6600738219974875,0.0006418032767141641,12.842548609783412,8.94688028325462,15.43784161394,22.005073331863905,-0.27949640604579207,-3.1609014473399197,4.029560129703607,12.617263581424538,-7.535736014863685,-6.059586652110588,-13.248553499481915,7.947799069000731,39.3431272462578,-0.00826675611050009,-88.82708751432912,35.24491567582008,-0.011069992520246211,93.60209817143439,-11.321130301044114,-5.601997974012406,-0.01910450209698904,-10.675672871988704,6.637309632179946,0.0033069825187870354,-13.118760799417986,2.6829457644791628,5.693037345263871,-34.314775461586315,0.43582595382333705,6.276617628111652,-1.1123265577175023,2.2741759144162517,-3.8352868698219145
-4.121808840978565,0.0,0.0,0.41414881176862794,0.0,0.0,1.367517713978902,-4.682483029487089,14.343723481450223,5.699068591868889,12.91980406666849,-3.51063453599811,-4.708538168656547,-0.7072619151766482,-0.00024676589274322773,-29.5219690725514,-2.8536350445657095,-0.0003081382970752068,13.272090256178618,9.130551083491973,14.950934721482746,21.371809987433966,-1.586603190557029,-2.9085425739030706,4.673550067210632,11.73859207263392,-5.73577964904653,-5.792041932373978,-13.44717042192126,8.005482554882667,34.87112946618858,0.026705574785517085,-88.26769839177467,33.93750931610448,-0.0072040287700173705,90.46489324742485,-9.364337960968362,-6.214837827501045,0.00117714526593292,-11.028484806831544,5.527449068429381,0.0029538416520015404,-12.967480279132094,2.149854160955781,8.031335817575624,-34.05675842966599,-0.9041101439727034,8.263309308104812,-0.3452102693316809,1.871999119385614,-3.4259956727829244
-3.0189937279617505,0.0,0.0,1.1705456286965428,0.0,0.0,0.8239048245733093,-4.385633569416752,14.40980909279299,5.031063626421758,12.1891265618818,-4.58104346912225,-4.19822032080595,-0.7671462766232394,0.00032879057414495936,-29.165329118324436,-2.774883484047962,0.0010105203173698199,13.250154986736685,9.55898451804864,15.082733218754239,20.37893716919621,-2.614390779884416,-2.597613414764761,4.925482041078592,10.658142180626685,-3.3746055021966024,-5.944155505447631,-13.217795363697764,7.166772771010532,30.325178627463764,-0.015136846389513913,-87.48815125874616,32.65357506312498,0.01187937417649018,91.57754989421062,-8.951489324638446,-4.108192626600793,-0.0024943114620866323,-10.715134695576257,5.913365654458889,0.00305474191833003,-12.231811263849476,1.9834865742115326,10.411822134369451,-33.18209494256374,-1.9128052548401717,10.424902553639228,0.590550596250266,1.7538460230394086,-2.9544276749630596
-3.003113203668411,0.0,0.0,2.2232132770667326,0.0,0.0,0.6472621431457191,-4.599318805617755,14.745017863496958,4.307879366140553,11.997039441146509,-5.41545068058232,-3.3424876932871075,-0.7035986280277714,-5.049433307698803e-05,-28.17858083269031,-2.7647060491970312,-0.0018145974781019318,12.820621388990146,9.85794179196789,15.062923868825752,19.017908404499906,-3.692198779418804,-2.790379198988937,5.474956008100285,9.597101990827719,-0.2591765309164839,-6.28116430894922,-13.165055463889285,6.346820929480474,26.113516352733683,-0.03280631552175864,-89.0672714330791,31.50960555816831,-0.0059894121987043615,93.07832493942847,-8.814145381827645,-5.111849244390033,-0.003441367407135923,-10.527230018950524,5.117393045732881,-0.0005415748014092918,-11.177804860193847,2.094041893428282,12.673522447194086,-31.962557595942513,-2.614711190622641,12.577946318300429,1.1554644361287414,1.7093768378938292,-2.515825538826791
-2.5198383567239837,0.0,0.0,2.440183043190167,0.0,0.0,0.25786943461911505,-4.608176976109916,14.535366339367373,3.423539112180796,12.312263097881582,-5.36906259493909,-2.678309626039839,-0.793560331693555,-0.0001440697022199924,-26.65260496989103,-3.0914954754994843,-0.0008942200261742927,12.589578847719018,10.287266123576565,15.84137681734784,17.734396906303193,-4.684020150187928,-3.775206780371065,5.921133450618223,9.12042650395352,2.749179872625312,-6.901593190668667,-13.298263298940407,6.357509849242,22.275298255786225,0.05949060918111863,-85.84094432324714,30.675748208941087,-0.005540319992781717,93.02494586531489,-9.13031433282566,-6.45952870680118,0.0012401235959328505,-9.729048518101976,3.230827741710698,-0.004251204606047208,-10.307359274335235,1.9850999456040677,15.07062871686006,-30.887907398143255,-3.562836053087101,14.78385437032087,1.8252112515979537,1.52068130795163,-2.2776246006737035
-2.435132579260289,0.0,0.0,2.1902410705038764,0.0,0.0,0.22612603726103947,-4.728413241742374,14.472734072734811,2.9659263001921228,11.971973200766113,-5.828918045872208,-2.4272910856770933,-0.8244883819546863,5.9807398257961174e-05,-25.31361040480569,-2.675107012858803,0.0016807501311297244,12.803873916964672,10.708614864593567,16.107368944352537,16.87560400579653,-5.747553490644404,-4.077172194676456,6.236121878105074,8.987915915269756,6.216951602559623,-7.175317662761407,-12.921562449702172,5.710432262004318,19.292307926212853,-0.008276757515699612,-80.8213138998558,29.67739284859503,0.017806654217339717,96.26622775484009,-9.812653684318986,-6.342578420053001,0.002072146332326916,-9.21117457034488,3.7034879981542708,0.0028521206178252693,-9.22870723668155,1.9263034657080735,16.476839292925593,-29.67437516841451,-4.110413699298413,16.08243905439543,2.4781080441534917,1.2556577888222238,-2.046437978707056
-2.4977257760447507,0.0,0.0,0.9359638755107278,0.0,0.0,0.33106755176592934,-5.48423049663465,14.336246869711465,2.8253076313712326,11.325509646150135,-5.959012794310127,-2.2473603724424174,-0.7818823432640469,-4.8271850904276394e-05,-24.030020049991666,-2.328005878980376,-0.0004112575553706812,12.83492310686041,10.980500966241452,16.154847553076664,15.988621435919036,-6.876337828109459,-4.566101218083766,6.399398523643802,8.57507082894714,11.526543975152144,-7.128673153346532,-12.589089667021923,4.704495193963706,17.832839842399267,-0.007017244309700965,-79.15578755710311,28.470821385233,-0.0020989662869435838,99.30724571916413,-9.478542852783036,-6.620992115118622,0.000599423282125218,-8.542230992527305,5.506467930989693,-0.00044139896202919336,-8.098997142208917,2.3116731713565732,17.622848232629337,-28.415084907628838,-4.148013013259111,17.293315271928073,2.738533199366859,0.8717898981140328,-1.4119066530035829
-3.6343861863530096,0.0,0.0,0.27941146010925144,0.0,0.0,0.4334662911623806,-6.046441552259974,15.120688198319561,2.3585902120718893,11.78657760108303,-6.664223681258221,-1.8989629622103592,-0.6877884212355446,0.00017122494245852503,-22.326449014775474,-2.2586538549039052,-0.0008523222096503748,12.736300514830182,11.20485443085197,15.799281522116086,14.931044879623133,-7.81696487453982,-4.935964468133341,6.041142622956044,8.262601815124244,15.687057230713963,-7.558368194770182,-12.70752080637488,4.114939302666779,17.84966532762489,-0.0022243117998964933,-73.79644888471411,27.641772061576997,-0.005613440758633414,97.603340145091,-11.327730563853553,-7.302568246253309,0.007734676162422474,-8.103609847995482,4.558442403596151,-0.001525689189405476,-7.040670873954571,2.7975013206227857,19.732669246668014,-27.10196854678489,-4.419537959979732,19.44521261280945,3.0411654841405,0.4497237800311145,-0.6929873210397449
-3.5846754930614213,0.0,0.0,0.8280773665765652,0.0,0.0,-0.18064841540534685,-5.869903967880113,15.320089654867262,0.7248602379064873,11.87883670618702,-7.128361265950142,-1.6672350817197863,-0.6294302561139602,-0.0001061335851824181,-20.26530829164196,-2.187394058859232,-1.1177457316983192e-05,13.075083575492899,11.514018068087582,16.000820668770952,14.055120728168962,-8.700625976771486,-5.893376440940363,5.431776418204933,8.04499970014574,17.96063265113341,-8.089888944815721,-12.760977338978575,3.707188820892088,19.077008912122178,-0.004332292097466479,-66.78878639425169,27.003204950002882,0.0022741303596041694,97.11137836943782,-14.701054335403963,-7.352091320269696,-0.005479663374847616,-8.336548171621384,4.4825658993248725,0.0027047661727773093,-5.77222770464192,2.880941155639758,21.848249684547486,-25.561603079681685,-5.061250757836275,21.467043918340107,3.689200334739779,0.12120199523999825,-0.28886893827263105
-3.6861030414975393,0.0,0.0,0.7226366113769583,0.0,0.0,-0.9193839551582533,-5.8258030925786,15.31453043454319,-1.5260635449015592,11.093642309641575,-7.567653771571935,-1.4721910580085005,-0.7318137390028201,-5.996327438955449e-05,-18.234186948977513,-1.8394623856036993,0.0018180160508609342,13.343885827498344,11.825261509465818,16.137784100531547,13.243627264804882,-9.625468556386304,-6.628388122836243,5.1221273575780355,7.739694435368965,20.947375590003727,-8.466365451280625,-12.853500234014863,3.5269713237582088,20.812809072429065,-0.0028115062899466393,-61.319018922327196,26.980381167753873,-0.0008698721491889392,98.11043743662707,-15.750473926594674,-6.096136602787842,0.00044790025292469783,-8.081221754088507,6.951418949940426,0.0025374774282200863,-4.3761038983952965,3.220101823350185,23.356899843371778,-23.946892785867174,-5.249277164925198,23.00599237881369,4.179580064397282,-0.29418422263179966,0.1466220379006851
-3.6498126642700033,0.0,0.0,-0.2672578376517665,0.0,0.0,-1.2886697084062249,-6.3747386168622056,15.21764312442328,-3.367110937779843,11.394829647590004,-8.257237853714583,-1.5229318447237379,-0.4796846773017729,-0.00024085177152953355,-16.34185853072637,-1.6678721747644039,-0.0017497359003271293,13.61715275150067,11.858150760647204,15.988675870826478,12.290960325455144,-10.424698522539241,-7.34560422979168,4.9120555836325535,7.331576410204028,24.462549158100046,-8.87660655471734,-13.38500773665882,4.375448977284182,23.41271091190701,-0.004581291998489751,-57.07644189017354,26.69610647443674,0.0017514107085304777,99.0504865127523,-15.315944348308662,-4.855252418289014,0.0018792907534404307,-8.192301867902714,7.263601809759477,-0.0013628942671972722,-2.7752541730269815,4.126476548266979,24.463650064701326,-22.157450482492795,-4.763032860874134,24.35462024483108,4.204365229089687,-0.795029430863931,0.4544328298195827
-3.0881737473437862,0.0,0.0,-1.217576975656492,0.0,0.0,-1.4819861667102794,-6.641667561133067,14.94130275559135,-3.926886896027269,12.420024393017284,-8.459575224259256,-1.7389031554859822,-0.22105925975796703,-2.4928434433171446e-05,-14.811558885259199,-1.6413403677608436,2.022213510176369e-06,13.80748833579609,11.852082558909219,15.805312117958072,11.26142072104982,-11.162379024755996,-8.408186122522961,4.394754791267048,7.039272946910953,26.147405595534963,-9.635495522386377,-13.702036953898684,4.420074259384218,27.10085489922765,0.005626645356075776,-55.77485824040152,26.51482776956964,-0.0012856843263841634,100.52270229600025,-14.395857718828509,-4.069889439812873,0.00014492650114521807,-7.867460422164951,5.840972587231607,-0.0013782164827426122,-1.1013243246597524,4.810115801944103,25.932156676742213,-20.237446875135362,-4.600588581252644,25.967606703002755,3.9770373501717837,-1.2571015052713577,0.6713423399467419
-2.9371243949654358,0.0,0.0,-1.9650664859510036,0.0,0.0,-1.6783170426023744,-6.686356531796005,15.348476863114827,-4.362295166110513,12.546740001338836,-8.025181172585716,-1.891387434321601,-0.18619031107169554,-0.00010695447491170895,-13.286095760356583,-1.3523309854010497,0.001151677826262711,14.052124247899235,11.812621562427347,15.2691071854453,10.319028459039144,-12.003847632709503,-9.492757174437111,3.8866156378659,6.889707332223367,25.756639836268462,-10.205912762836526,-13.76006512595084,3.3920356180301656,31.415057071904382,-0.011716246762378766,-55.646744350550364,26.75798940437314,-0.00017507901151111793,100.99375749334628,-14.267006225389785,-3.7800023926193203,-0.00010108844533280617,-7.586510282314483,6.243365515522738,0.00017404246899251004,0.5807755243549804,5.126445992038764,27.060837939612274,-18.36305641472036,-4.668400293982965,27.1375415174527,3.722679777374081,-1.7646365850068348,1.1019783388307838
-3.1339671673783718,0.0,0.0,-2.097986999644165,0.0,0.0,-1.8063379784905835,-6.30827903689458,15.484650331481571,-6.1451512549333165,12.983260242167463,-6.890452417068943,-2.424304721419492,-0.35888293641579877,0.00024488726641247753,-11.413895316772772,-1.242688076160922,-0.0003570432990651167,14.72600042821528,11.840847502861276,15.202798825481693,9.629946931065977,-12.6434139801287,-10.225823903312376,3.817864710517762,6.959927650537147,25.689122615023816,-10.70493055411821,-13.759487713398544,2.3880078945720644,35.45437861283222,0.018215567126521667,-57.823997559061944,27.26732318122416,-0.001977412174560024,101.31808733226721,-13.088795704815656,-4.057524189721715,0.00022101325933615852,-7.509330867633188,6.327111624900791,-0.00035035750043470754,2.2237202987110427,5.771621071891494,28.1362250309684,-16.521071112454717,-4.403579277356753,28.362910926686688,3.5758069057058215,-2.6240670911236563,1.4574129882695799
-3.986709285855969,0.0,0.0,-2.4623088674914815,0.0,0.0,-1.7079268940230028,-6.213191649340002,16.046003301438144,-9.136080417726312,14.190756304641129,-4.994027259832891,-3.125250059277201,-0.7079472857680567,-0.00011827920770430742,-9.634796721401655,-1.360345436195546,-0.0006104938640046145,15.744986273315696,11.927263113868209,14.503185864636155,9.416423661135122,-13.117907031085661,-10.645517049867602,3.7877217112466393,7.335709100709006,25.908147285162375,-11.272878357015333,-13.935449994441823,2.011400928332578,39.19510135483862,-0.002351301522685705,-61.39701959419837,27.888527968127075,1.413052103162305e-05,100.457322201376,-10.472119569316432,-4.448643778322629,0.0010545925541400583,-7.4406019714356395,5.781018334002623,-0.00027384374539037287,3.606341066504808,6.223926450044845,29.106726530168498,-14.95658447484465,-4.2837606222372235,29.42512158364815,3.7339675095817686,-3.6140838663275408,1.636398918814184
-4.5476268848493255,0.0,0.0,-1.7118639361751853,0.0,0.0,-1.5291205559565637,-6.164799189734645,16.80683551836567,-11.890721766850934,15.4654144892175,-3.2209224553230564,-3.642988650976247,-1.155221253300026,0.00045065410646541183,-8.101881981068134,-1.5680451341450916,-0.00036443640883262345,16.40867581067396,12.156068979637821,13.984795764048,9.111176729453316,-13.31271741122904,-10.861092511348618,3.594184135250964,7.579648867092392,25.68503951204658,-11.642764760870362,-14.55003764817388,2.3558595886010285,43.35768927944855,-0.029728575114596135,-63.89163608880765,28.244601817147995,0.0015421138016999823,97.03660350550487,-9.395920179487945,-5.192610374104773,0.0026271870735723487,-7.824560082809391,4.8479100048757795,-0.0011269687397410762,4.615702949684491,6.319325146456966,29.43644594655628,-13.885618762620739,-4.297479205030203,29.767144322015838,3.819241632618535,-4.241749113450778,2.079320067596915
-4.455990901004849,0.0,0.0,-0.7791981094943632,0.0,0.0,-1.3253638973798016,-6.340552981540048,16.850231551738723,-11.410305163094213,15.712934975052953,-3.1401197941719445,-4.358127665979078,-1.5095195898648817,0.00025783479996361225,-7.246730297190289,-1.514285585733646,0.0002517279718193242,17.11381988138568,12.550409852528484,14.294055734095624,8.876966269030154,-13.321442331757014,-10.487035992661104,3.4381271878625355,7.8819500103199305,25.52280612328429,-12.126388474764122,-15.075643149402582,2.4547667615765407,47.641703710725345,0.03665639301958275,-68.38255773859112,28.94951566737464,-0.003152542320472472,95.81148525991253,-8.750709993193778,-4.6669822398262575,0.005594326005106292,-8.8099137913697,5.316182356587033,-0.0029795251252551745,5.479766154480935,6.43778457367655,29.850459617024732,-12.94334508764571,-4.315418367230767,30.19614218090464,3.8731883015742916,-4.740025666536371,2.457946825154105
-4.501769715833753,0.0,0.0,-0.6059214672398493,0.0,0.0,-1.3320195412833855,-6.850365070165342,16.570909699433397,-8.554524851637924,15.062539650368802,-3.910975948247837,-5.169452091369864,-1.365693299663763,-0.0013206769356550808,-7.0251801526728475,-1.4156479562183404,-0.0002595658228883521,18.21880162471254,12.60872215699662,13.963777893314797,8.793712315554588,-13.366188416754044,-10.420358950568183,3.348598441996624,8.498191507073933,25.573134125323005,-12.542408127908304,-15.448082692839378,2.9941227633746452,51.898957963668025,0.025704449492490605,-75.53002019139325,29.762668759824265,0.0011930839238032526,95.48957050035747,-8.486823158796227,-3.2778962624721495,-0.005499066118061952,-8.992404686432165,5.649823412983143,0.0012244072900111681,6.423238080355778,6.500526331131713,31.125427270307792,-11.76033477282332,-4.653710421804698,31.422357717080413,4.001791275828155,-5.4151550515868045,2.267586684303341
-5.246075626906156,0.0,0.0,-1.1628839964649755,0.0,0.0,-1.1917722138306959,-7.541875027569567,16.39641684701685,-5.564631555215072,14.515289409535162,-5.549881956904765,-6.1588792182436505,-1.2629150374103273,0.0005630956135050053,-6.830349623162675,-1.3109065309062213,9.898717976951992e-07,19.33742434126954,12.975022282616814,13.419725950200664,8.625141065260609,-13.016396389509579,-9.716276657350209,3.194303840537209,9.127179414248166,25.47410598328862,-12.967207833937051,-15.733798762686725,3.637860305548543,56.07369804691659,-0.025001476035363016,-78.01589411930675,30.31512419240985,-0.00018642950393181663,94.70460903712856,-10.024159953452745,-2.3816817363719043,-0.002359523848396189,-9.18129611868868,6.027385010140868,-0.0005552656416807041,6.996629206958204,6.466060129231017,32.28083266702694,-10.964826386069205,-5.042648584519031,32.506928554583475,4.156696158669425,-5.7685034841776766,2.177104093445428
-5.42925739158643,0.0,0.0,-1.3264418864033192,0.0,0.0,-1.1031444637776493,-7.703922517917055,16.3159686377347,-3.218888727207008,13.77178243608185,-7.142846255602292,-7.247100487964846,-1.5743301833227028,0.0008974647252687102,-6.407018147228385,-1.2509888105235851,-0.0001652878890804456,20.104944390486505,14.07993150265237,12.936459505829049,8.202798248703054,-12.00965284253179,-9.198960333464784,3.160353344934381,9.727165610303517,25.388670247345274,-13.178405669623093,-15.855423745071368,3.5386028279049886,60.40652194650176,-0.00353702777885923,-77.39769099262416,30.585840017982044,0.0010123229804545838,94.56937128645711,-10.490085562828611,-2.1417862701413415,0.00100672998856099,-10.363556193016557,5.89427889197686,0.0026453602673585323,7.650022009937047,6.723552949916534,32.32859580173916,-10.295192960298209,-4.812299733537208,32.63189568147863,3.976310694164632,-5.660530336443304,2.3950508161217825
-4.348974278318991,0.0,0.0,-0.48213199129085155,0.0,0.0,-1.425691240585895,-7.817707459194929,15.642882685018169,-1.518650718585882,13.478860750517018,-7.337176515205653,-8.347436810545497,-1.5955739060318546,-0.0009546039794482376,-5.821236286721856,-1.4852002186358728,-0.0002235515737225448,20.9025728617312,15.202699035351635,13.144518285866809,7.692261865059061,-10.759614806239709,-10.405417783487508,3.896157075888604,10.680171693986399,25.49512348402346,-13.00520017705353,-15.813513015657602,2.661835698611089,63.771599487819444,-0.035779521432031565,-74.9249210871633,30.689726133862855,0.0006434923874821748,95.59366996362343,-10.432722563536037,-0.0009845791152373606,-0.003704714149848481,-10.74619469208915,5.152331691344443,-0.0004978198044325451,8.499388715909634,7.45097570170381,32.79952751854381,-9.334694700544032,-4.263592241510471,33.302164442730415,3.507788680230681,-5.598762372072406,2.511912785058169
-2.9614264116366775,0.0,0.0,-0.21613902353669814,0.0,0.0,-1.742190556347396,-7.962091253953673,14.84979159156953,-0.35867877855094826,13.618625393347576,-6.992138208280326,-9.289783209079133,-1.5099108535330512,3.9751085797411574e-07,-5.480525311666133,-1.7651677853503922,0.0001312206856176416,21.41978395806633,16.23620736246667,13.4123817048698,7.203321074681434,-9.585584825205688,-11.871020619627783,4.400190203612087,11.359449959192938,26.40340060419194,-12.932102432184202,-16.02661941088535,2.0759141366496685,67.22583502799782,0.0673672815092946,-76.24458471853019,31.018316589337996,-0.005870312389308207,99.46887863578154,-10.891277620676316,0.2615529773862143,0.002261154328854144,-9.557819316418032,5.522753646732993,0.002661740055670271,9.12619810530964,7.738973413731571,33.93963539670771,-8.469694879047937,-4.33316127421656,34.469621170297145,3.005197587678186,-5.416665132204569,2.6146611564106674
-3.050580704738716,0.0,0.0,-0.2814230117593901,0.0,0.0,-1.879300740606506,-7.44861241544997,15.703339911786514,0.8855674633184468,13.4253378731985,-7.663508781421063,-9.769322813390428,-1.8660305709661889,0.00017851495583299867,-5.316296910197055,-1.7575053917373673,0.00011352497124730275,21.415474398274988,17.102714986963218,12.470300049049833,6.610745849759971,-8.746133116089341,-11.901671153210525,4.244307781785122,11.315340497942211,27.27189572073308,-13.316144408516795,-16.654726046852044,1.8518734534889898,71.60275505345936,0.013911278100320078,-81.30522648962686,32.06689747189668,0.019217396102036887,98.19178512737021,-11.4709998044526,-0.5327270378775111,-0.0028399632838723497,-9.395252534936642,5.47313564912125,0.00870462896372165,9.578674144448842,7.066500130779084,34.21990251460348,-7.976018787988094,-5.0581486544383685,34.5317250170566,2.563138262852638,-4.910015887551886,2.784248106664621
-4.8703938239338935,0.0,0.0,0.19480077595766576,0.0,0.0,-1.8626995446103953,-7.268823274117526,16.630843288589773,2.382256700866093,12.828673687883008,-9.234348675437555,-10.007536764598177,-2.325275837610584,-3.784311254646729e-05,-5.348295787379003,-1.7053137238347034,9.361660101056485e-07,21.711594758250648,17.977909496401587,11.375757358961872,6.428121560521197,-7.910048518417353,-10.776077235285221,4.047775273322723,11.435509390366425,27.372729603918227,-13.605502543121846,-17.319900817228746,1.9790399906935041,75.84151577692177,-0.04473292994429024,-80.7190939449047,32.88909964227502,-0.0014168293474728997,94.61463177689829,-12.350822864466496,0.5059331389797443,-0.0065258876764087296,-10.133970109277989,4.617907447674765,0.008128277332405839,9.860077360669692,6.379740844736647,34.295011287349745,-7.698681259124794,-5.7354218731805,34.39507678999,2.46683386726594,-4.432866456163487,3.1023114423076676
-5.5870680839618645,0.0,0.0,0.02890964096842731,0.0,0.0,-2.067611799019372,-7.658176830733042,16.138726365795627,3.6022286065540867,12.344974533768461,-10.04584063271887,-10.420833859364937,-2.2872299282570157,-0.00028603039070494425,-5.137299891651223,-1.7157984285593941,-7.257955675977248e-05,22.26455106882784,18.811234473887414,11.442811997917838,6.3318715531190035,-7.021528754154771,-10.345050095987418,3.7157526030851113,11.562345647329614,28.292313106132642,-13.474553907539402,-17.94370128728838,2.4406204989351843,79.77238998729442,0.010774777010517959,-80.2625441399773,33.588456974355815,-0.003940662822392354,95.4802993595547,-10.732812687397995,1.5731704632362178,0.003063861039016274,-9.861048190349534,5.376482822158206,0.0027431329045656447,10.01351462274193,6.166291704122074,34.79036722967369,-7.449145827856559,-6.0871405197937944,34.80259695959441,2.4496161524356306,-4.011484368010942,3.1194453647513583
-4.703871963914099,0.0,0.0,-0.29813385069850207,0.0,0.0,-2.4574569721025408,-8.226542692767644,15.263837718191152,4.247014405489875,11.886044648840382,-9.532204440115176,-10.635983227688767,-2.0746575943619114,8.149942290750585e-05,-4.659975535655073,-1.7819081154818677,-0.00012615152292313274,22.352695764963954,19.537514332161564,11.914525959545308,5.84092935476751,-6.17570227901542,-10.999803287497663,3.3160975350756847,11.568034447920702,29.3184102242164,-13.582563936948258,-18.859868642033376,2.5747924330579055,83.45546486313472,0.017699965845282557,-81.00105455226573,34.55347373752908,0.001361002006486055,95.80414435438769,-8.957971586809983,1.632729705902478,0.00541965604429959,-11.094923580884979,5.13340276577119,0.004810403405889652,10.27613117698102,6.069063799461927,35.21026156645304,-7.101684901112735,-6.304892888717086,35.17400935075721,2.0799198959069067,-3.3045322817255744,3.091464945497238
-5.573267360825306,0.0,0.0,-0.8833337167708037,0.0,0.0,-2.6390177560139696,-8.75420982638127,14.948319712119945,4.930319289645241,12.12404421441229,-9.831792335874798,-10.743461556031452,-2.2114616423137003,0.0001689017591675329,-4.387178690440712,-1.8441638742207607,0.00012646492215349643,22.51491582190761,20.401661521293633,11.44438669277827,5.362147701225334,-5.209749910067795,-11.388776828349775,3.0542820029432103,11.878867515536243,29.41719058651154,-13.949092273241037,-19.758144069698375,2.5358265458073075,86.94482851671644,0.004789543605772658,-82.08386253695699,35.37765615288552,0.001334871755391172,95.42208685172037,-10.32357559342003,1.6482866355340033,-0.007527454154304902,-13.380352824877832,4.502325738556425,0.002908015950238703,10.91226894341375,5.5612037524938405,35.48512841013515,-6.425064362573551,-6.871208024255859,35.284225334958926,1.726583585996423,-2.3219551865715613,3.13922345647652
-5.58389406641643,0.0,0.0,-2.0223389395080758,0.0,0.0,-3.4302565246655887,-8.973881438076601,15.467223392213564,5.465198796127386,12.072297034923993,-10.159996389257469,-10.778500425338919,-2.566354612256011,-0.00010284044025916746,-4.005590719402382,-1.9555393563843133,-7.333822009710991e-05,22.921046641223704,21.512531855093464,10.353864681218306,5.004231225778596,-3.9738744350626143,-11.91359665308726,3.3174702366702564,12.191670128971175,29.81717546586878,-14.541313308256964,-20.50784225250615,2.226189562027051,89.74122283581781,-0.05005687206714697,-78.96536568175682,36.309807748888666,0.00022811329901680738,94.83215142705865,-11.655461799710906,4.244320740549617,-0.006696764179587728,-14.106907048872824,4.087454643063518,0.0005472598971831399,11.279536216078034,5.0667650955970736,35.79772583124764,-6.010014186526439,-7.435870727981918,35.43540685236192,1.688693106920244,-1.2306758033356948,3.167704885069662
-5.098268029077017,0.0,0.0,-1.831230059524705,0.0,0.0,-3.888450986614732,-9.05134357741599,15.545611974485334,5.846987790338518,11.933255325980522,-10.258207645037299,-10.762206843176113,-2.9243218217806457,2.9809397702758772e-05,-3.573917807775499,-2.1711140798991524,6.681949531203202e-06,22.69878866618509,22.6585878679516,10.008134900165542,4.424903598120031,-2.7971646366348213,-11.74525945367165,3.5506793654230835,12.165882894585122,30.841576069127292,-14.902353529129703,-21.03553800444457,1.0661841573004476,92.8037671745024,0.05955971216879716,-80.93848938136192,37.10213090565258,-0.0005588674244806126,95.17265040458125,-10.570781122261737,3.9793871979882516,-0.01645073781089598,-14.164852373773769,3.1155643544854867,0.0003265577376213987,11.462631716204786,4.984908120273658,35.98766327875701,-5.789679836654473,-7.570208311471892,35.593133888712195,1.2402436134134958,-0.3257907339957092,3.5862110987828117
-5.738496137702549,0.0,0.0,-0.9380382858397908,0.0,0.0,-4.018718041981936,-9.5595223217418,15.194345787123732,6.301374528925587,11.914804795071637,-10.417829345322595,-10.805541920455697,-2.924545473327753,1.4161874980608689e-05,-3.7809723237922133,-2.124357216435511,-0.00018919329461984153,22.43476872711741,23.257553407229516,10.363372651116821,4.094237051653292,-2.2600907361145004,-11.582573587049932,3.4847987067940327,12.047827109050282,31.16680605691335,-15.265557926920557,-21.605179670132564,-0.43038248885243996,96.31121571807338,0.01563651767633551,-87.3926571685363,37.623424962505105,-0.0017091652510887844,95.96279799571184,-10.070222372532848,1.673669245108034,-0.0036057630179182143,-13.704500922839362,1.792946846686554,-0.0034106000445611666,11.757286380629527,4.68759055921869,36.07600104306171,-5.488132102671199,-7.880256830566528,35.58898968834669,0.6808131626525058,0.30784912930635444,4.133605657172258
-7.496325070056991,0.0,0.0,-1.8463155779727893,0.0,0.0,-4.223815811877724,-9.98352800931189,15.073412918719704,7.089518859766098,11.025962489466766,-10.960589137693606,-10.834386825043262,-2.853476508566245,-3.7183149529547435e-05,-3.942559239900598,-1.8343732129759887,0.00018921591205416376,22.67271451908652,23.434800488917087,10.350129870616437,4.066518312485423,-2.098455129482604,-11.528617418795866,3.401342716370951,12.42417787988617,30.947438967111626,-15.603598180936492,-22.298978729117383,-1.1750366586269831,99.22046211992932,-0.013760448861147892,-89.43900528674988,38.06517761026076,-1.6144243180723727e-05,97.01535522351622,-10.790081212681708,1.2148479519834885,-0.0008432905275650104,-14.351591241292931,1.8245762611179295,-0.0060299443165673155,12.130158629748456,4.383856932061304,36.3866047101886,-5.0615048170108095,-8.262036506544401,35.796901174772174,0.6438063672993913,0.8062200309193905,4.384124028698115
-9.314065643578562,0.0,0.0,-3.6979339041737793,0.0,0.0,-4.544167376371397,-9.096211372196786,14.750880587693723,7.93719273649946,10.257514879394138,-11.527486947534134,-10.96344174718004,-3.114970576713175,-0.00012921977853986904,-4.12676233966324,-1.9142827306639827,0.0002393934389952989,23.028850033492734,23.617900430482663,10.194314085616687,4.337601619054705,-1.8500708758209823,-11.199988442399082,3.572002744602148,13.091605862001181,31.039424759576086,-15.480361384091758,-23.15257000883283,-1.5767263285120352,101.69451902014276,-0.022099323051449123,-87.23461257932269,38.29574936331954,-0.00042282035092695066,97.69816304996193,-10.740434626235258,0.33365600213727276,-0.0019568609794024003,-14.77474435540619,2.294500379234009,-0.0021481919976348678,12.527779273596586,4.536216385223382,36.83776386298263,-4.559934454956116,-8.249001882191719,36.276590704439535,0.7683655506643214,1.1067391609840853,4.582781835690948
-7.500814295072963,0.0,0.0,-2.3686930650841953,0.0,0.0,-4.940973238861906,-8.100765293704775,13.22775326988356,7.6597135081672985,10.35137822110433,-11.314654099621366,-11.258511484104245,-3.596612524463398,-0.00023346233330827303,-3.8461650546910104,-2.1594096760146577,-0.0006030181993791987,22.84605914594101,24.04128139134503,10.344151291173139,3.763610636228889,-1.4117122986835986,-11.488971981117784,3.6550923313285764,13.560175450255093,31.63772890739323,-15.444518926294608,-23.838646936281624,-2.9083092509297246,104.28783767026533,0.00928479540879312,-85.03292303560002,38.56201941674963,-0.00030623819194506023,98.63472743208327,-11.352760016904053,-0.2733144157767631,0.00012073653050969842,-12.303492697521161,2.098119071351451,-0.0022566482737031357,12.857369104135007,4.524217551652809,37.12003485411117,-4.169327163012217,-8.34300404587365,36.54489875855118,0.24110702421863028,1.425442665743164,4.60670451790244
-5.252224452522554,0.0,0.0,-1.1999129255297987,0.0,0.0,-4.492417306405476,-7.376417304658521,11.502515471234924,7.12499989986948,9.994623923761056,-10.875217529442487,-12.129884890014553,-4.023230081845873,0.00021927796652784673,-3.1256781368358113,-2.2067894356106708,0.00019824434964326314,22.84624214547491,24.657360119109104,10.90686497270567,2.6859033251765596,-0.8201931689876634,-12.01286957214234,3.5570727026858653,13.888434554324682,31.907675804601684,-15.845794687275472,-24.641645267222472,-3.6112192793174867,106.92347320173124,0.009744585889129707,-86.06099303106625,38.8843599743456,0.002656153325490693,97.9397378819068,-13.043740912859782,-0.4353701457583242,-0.00023549188519400455,-11.511226979244315,1.9084362006697175,0.00355507685309992,12.763052199409088,4.63559016981866,37.62595513448018,-4.147563318050952,-8.38366964172393,37.06527347609114,-0.22781982394080047,2.0284919150331753,4.167011998216482
-4.068379520863718,0.0,0.0,-2.0482212909111897,0.0,0.0,-3.0371774959585376,-8.151967687637752,12.052131797119719,7.5319820836726645,8.996776054166988,-12.386839578975277,-13.442212839945277,-4.457299857415211,0.0004261635527662351,-2.7431510451871928,-1.7634642444084956,0.00013315244018544152,23.355496260240603,24.983478669590166,10.862893565808422,2.082308770831584,-0.6725078992827178,-10.949868060196492,3.376873347649816,14.32754906428051,31.895497298878436,-16.14800574826436,-25.53243574836106,-4.041470916146169,109.20936906358295,-0.007180417955181122,-86.16625818857831,39.30765134913316,0.0008955503805681877,97.41158258160316,-14.643384230405514,-0.054669361886173086,-0.001634987752280146,-11.79454982410416,1.5825358859589687,0.003635575411971842,12.545287289860385,4.857805923656111,38.46681022459166,-4.167813463174701,-8.413326458400563,37.94110157016577,-0.3316428683929782,2.3553797059957287,3.531802284904659
-1.3999210162840936,0.0,0.0,-2.7877286649655866,0.0,0.0,-2.092876860471276,-8.564385925381522,13.949576936316298,7.942968712380043,8.798156461331528,-12.913544925699536,-14.585222621681325,-4.840843475521572,-0.0003716363870798532,-2.55426646081652,-1.4683833259233974,-6.414833511646863e-05,24.23624731879632,25.08530588681419,11.012937507071106,2.131252681063834,-0.6743377225973427,-11.076465611130546,3.5682936438373236,14.913873745786896,31.953188845708468,-15.871645927612132,-25.84717784465435,-5.4233768896381,110.95330755637808,0.0021121365806326606,-86.52073498985764,39.018072089987925,0.002248948184336617,98.92741275753788,-15.218273048404015,0.6962551787028043,-0.00016044762118793318,-11.940795386813134,1.488440510847697,0.001419484408037603,12.716749827210027,4.906652315419107,38.62483132548869,-3.9585282047692845,-8.411765787423938,38.107736575813036,-0.18172448854055592,2.493609375945227,3.2409313261145223
-0.7201740569074739,0.0,0.0,-2.6973225424157388,0.0,0.0,-2.0632533219793023,-7.259684171166787,16.75586987655984,7.611100318900201,9.579595826949067,-12.276640937353976,-15.448987753612629,-5.217368877035908,0.0002669831352480348,-2.201204848806979,-1.7741105498274836,-0.00043941475761305346,24.598053789367473,25.459468598725476,11.473558495817512,2.063449436196322,-0.19850778890315116,-11.996075725818358,3.6494317851482023,15.391328642106775,31.899449625694835,-16.1506933059539,-26.170228039923867,-7.193583662521802,112.35256623833973,-0.0011040675181953655,-86.98253785041902,39.34436929900902,-0.00029668960241649325,99.70746169697732,-16.081349296337418,1.5159886462848522,-0.0010637318002815837,-12.194608355506363,2.4566642140107993,0.0022768342369706156,13.18735120507342,5.010376516259128,38.49857023017142,-3.5121486141551927,-8.276285722645156,38.01605383517176,-0.16841679742161123,2.946682696195251,3.4826379126244094
-2.0353997613727492,0.0,0.0,-1.424622033441446,0.0,0.0,-3.0694887846090806,-5.671639998494019,19.91585246203282,7.2237697741038,9.808263473258679,-12.562849281436284,-15.933067589317364,-5.606405633633263,-0.00026263272713738877,-1.775532628726639,-1.9158345715739857,0.0004469306156410493,24.102341409101612,25.91341595407626,12.287607390792719,1.5640116457245312,0.2538344342616534,-11.635161940373422,3.1748921364015614,15.762654360679687,32.23160895745525,-17.00674952650046,-26.655028734564326,-8.868843363836113,113.83850195457887,0.0018464355387267032,-87.25647571722222,40.41407171744399,-0.0007985448854994398,100.18955723826234,-17.137262677986225,1.6270197412529288,0.002093870329178502,-12.098580199106975,2.8757624466668084,0.0016593509103967508,13.522409215897154,5.0851892297422765,39.179864818705624,-3.0186965989192927,-8.398705482607015,38.69493262819784,-0.3736152891654907,3.3532477150016353,3.9208629987215144
-2.9804719431235256,0.0,0.0,-0.7650443475248233,0.0,0.0,-4.601912014509408,-5.024793005630534,20.961199481656482,7.120860171416397,9.459513215792027,-12.673186684713992,-16.06447322923393,-5.414141223933925,-0.0009458235548752416,-1.4102971073338395,-1.8152465144605527,2.258785845387176e-05,23.552522532728016,26.12769462657593,13.506573178838881,1.2061168542433032,0.5092602334036123,-11.0583037796177,2.903589808634051,16.085253064870233,33.07814939805456,-17.790525220925456,-26.807680210107268,-10.7973794726448,114.88359434017282,-0.0020696326452080763,-87.19714880333598,41.27464524050436,0.00029930487202005075,101.26628617906987,-17.011722156177697,1.6541018272259997,-0.0005021596792598148,-12.284259749080075,2.4180732200160207,0.0002895887158824836,13.471931070639618,5.496582483299021,39.670369470067165,-2.9389049065177075,-8.142736123291273,39.286117055443064,-0.2651177775366487,3.702552139553577,4.32939866768422
-4.06282289565281,0.0,0.0,-0.7890183731734358,0.0,0.0,-5.550354412851141,-5.186627751765278,20.28673244468309,7.066194929990628,9.182018735638048,-12.125148179988807,-15.337398293028714,-4.947241600700655,0.0006456972066626476,-1.348938501597765,-1.9308955651554185,-1.5668961160680217e-05,23.1323496179678,26.366036534963943,13.957416937794186,1.209885001672564,1.1035433669275838,-11.357841207319685,2.654347256953409,16.549762234347764,33.460400743960605,-18.450847421441242,-26.970825669966914,-12.65991462299115,115.95337956687004,-0.0047504114519540345,-86.82428393910844,42.027690679620676,0.0019323641120771572,101.99634071482257,-17.858877103478115,1.8096922113148421,-0.00021620882406834916,-12.415406522635754,2.517919699463961,-0.0005955990457388009,13.604232943066775,5.743858072184279,39.84771153692533,-2.7554296298913292,-7.955273999013066,39.527562653262976,-0.13561345017659804,4.3473457989935635,4.75294545510593
-6.816216982671901,0.0,0.0,-0.6717568881407442,0.0,0.0,-5.626981729727332,-6.539413812566089,20.901906999335484,7.072800078030694,9.393799298355054,-12.357319473338247,-13.590945904747974,-4.326771408536229,0.0016142927043721516,-1.3213862590319136,-2.064700008683488,-5.531500324353338e-05,22.58445454600542,26.56512671556214,13.37695887069351,1.1836362656986534,1.878250582727971,-11.296356801924162,2.2580104990523084,17.13234343962751,34.1183157420432,-18.62949242488577,-27.57416132574551,-13.424913433808916,117.22791646072086,0.007893980989452709,-88.48409343390936,42.69026706654413,-0.0019190274969607065,103.52728768220916,-18.923745774429015,0.754434976523422,-0.00011172946890835561,-12.765869394149595,3.2410101706881718,-0.0003469281138359357,13.724492242473753,5.6889688469824,40.60609344920621,-2.458883384605365,-8.219409799199541,40.24369972441916,-0.07061073968791726,5.222231930826569,4.584536219678777
-8.278606465780515,0.0,0.0,-0.4567342463820118,0.0,0.0,-5.494597139080508,-7.611404130523774,22.556331358419325,7.092993592207814,9.325114427011394,-12.59370876555826,-11.953740227983298,-3.804070142102362,-0.00028284962917917924,-1.3368028205945148,-2.2105443672005007,-1.8283160529268444e-05,22.20404580712791,26.329329840926803,12.35422456369572,1.3410187145658365,2.229313113889785,-11.172741684632467,2.0339753868272537,17.345587782445154,35.29282782656253,-18.636707098546403,-28.25574977618635,-13.889753147269978,118.15485001578723,0.000958474723290436,-91.564854381701,43.461487251824856,-0.0006879846820952231,105.2182467433327,-17.913054884224227,0.45074654275044435,0.006067320546590087,-12.538182674697596,3.9293685586960887,-0.0001648742084643523,13.69255685689243,5.797417505869704,41.48775848885871,-2.2753950749234293,-8.35812495000586,41.12588233705907,0.1884710649206516,5.8174235925081,4.146282678109557
-9.105890733189018,0.0,0.0,-0.667561322923901,0.0,0.0,-5.258158980766867,-8.056261998148543,23.217196413348034,7.41228087029043,10.012129349371042,-12.465427548693523,-11.237760879690263,-3.4409375141900855,-0.0004633435716497228,-1.649856221734764,-2.3739048609578344,0.00024060188865054866,22.17069289158581,25.83927915231083,11.930372455994943,1.7913861748006585,2.074700636407142,-11.478711421536044,1.810756547661633,18.049239937437815,35.92471446320199,-18.914113810022776,-28.463446484904328,-15.156518992149923,118.84529242323016,-0.007439412439219701,-89.45694142242064,43.986686854546065,0.0007804780237237454,105.45970231937702,-16.63018896506417,2.1374363390396045,-0.0006767907477315317,-12.555501543717163,2.8663432620575366,0.0019852537295175494,13.68351696335114,6.2494421986786675,42.13185356242533,-2.1098768957373357,-8.098627196269515,41.873356603507524,0.5281497897456883,5.8975077022383315,4.146231488447415
-10.337618966286511,0.0,0.0,-1.9846920712124578,0.0,0.0,-4.903823038816656,-8.763594963248586,23.629405580807123,7.888822742115612,10.60803964794192,-13.041957011377503,-10.78884726248838,-3.2163323967945185,0.00011333088336833325,-2.079278702357786,-2.4707057621109714,-0.00012246364577383077,21.698673697852026,25.775435414843287,11.930660734180258,1.942317887003843,2.107088046482385,-11.037588099562635,1.7443498016676435,19.05770489483283,36.38025867045401,-19.19780886152525,-28.77766997135915,-15.656766533832506,119.36588158729005,0.0001087756200042289,-85.72475217497698,44.339339099856716,0.0006636327038523508,104.38080941109261,-17.44734313107993,2.755498356176657,0.001561804835269858,-13.116576670440821,1.1030075407102762,0.0007539194445769049,13.581120261858693,6.483779826792513,42.44249344543618,-2.1269470534651598,-7.95689155384735,42.237673771810876,0.5723185610510885,5.950605825880529,4.338446682298714
-10.150222535608005,0.0,0.0,-2.491445987930657,0.0,0.0,-5.362472965391385,-8.608194804309761,24.314504815787597,7.957355586316071,10.219321895833392,-13.333871636094782,-10.1443235564221,-3.2091328341387793,-0.00020871210041503455,-2.5017195722590295,-2.4603063223449224,-3.8204763721617674e-05,21.505086024735473,25.6479289442992,11.575343219321542,2.355219151266956,2.084550101310189,-11.020360145074607,1.9274051823640757,19.4376514983449,36.66272844836877,-19.35638280021295,-29.402256702046927,-15.540032986219376,119.80603985175107,0.003920644695012998,-86.44438921868316,44.851200241387005,0.0018009866749833096,103.48027340607699,-18.684581899981406,1.6247893679316903,0.001987126547889961,-13.450753381887408,0.7851683451086089,-0.0006217988270064517,13.539658600186591,6.036086893245938,42.2850006102356,-2.22455573839373,-8.345349092033974,41.96278039899106,0.8162520283108783,6.1130131729736865,4.465034103613616
-10.953330360995931,0.0,0.0,-1.9029737141967042,0.0,0.0,-5.770202526037576,-8.31597300858136,24.61222286820363,7.960819362296747,10.035981935362205,-13.595068261653044,-9.657218345328115,-3.2627037160986867,4.063720687945082e-05,-3.0194933782028883,-2.554006471175425,0.0001888384771249428,21.50482610692304,25.375220666134915,11.069193059265388,2.71538865418296,2.0173298416588508,-11.024605914531431,2.160037983463465,19.840012087437458,36.99164027709558,-19.39867811309777,-29.80997935574128,-15.07654028991649,120.09987806538395,-0.0012183230600087591,-87.39730372561368,45.460806568019265,-0.002640458742649351,103.37404161549642,-18.482577391681968,1.8760208858173804,0.0021890280089129576,-13.839938051338127,1.0498085256165597,0.0005951051532381362,13.612393211698636,5.8242898070911515,42.116620933424755,-2.2016248431814893,-8.50358709186104,41.74161476956402,1.0134464417152802,6.122525644356779,4.335535330764904
-10.881093232137955,0.0,0.0,-1.295372239485168,0.0,0.0,-6.145950490707398,-8.547063804093819,23.75176911400995,7.777166027903374,9.695317738916392,-13.499800973738747,-9.432449800033938,-3.1244285006653896,5.603321123984062e-05,-3.359926049574514,-2.5495788382627906,-3.1825846795918224e-05,21.28776311534758,25.380925802926647,11.815428734740708,2.7398775951427683,2.067113554960412,-10.942452950555115,2.5889325060415147,20.47176569585938,37.25832917885223,-19.239727564668637,-30.111854288751466,-14.310267510132267,120.15388111449414,-0.0005240921241877689,-86.42296537820918,46.22686752845072,0.0010973901437823978,104.89990598915304,-18.507126215451386,2.651797870584692,0.008378401941884344,-13.699260455791427,1.9345922637811832,0.004266011253367115,13.711063404412261,6.007741574967894,41.97959902881915,-2.1290454400100645,-8.289915639952834,41.659637635907124,0.9359133563647483,6.217763124202519,4.308453959653438
-10.016148228675233,0.0,0.0,-1.5104254173711542,0.0,0.0,-6.494085911291419,-8.903703675620418,23.433569935385876,7.659496757501499,9.565213485722534,-13.5765675020626,-9.365561700673306,-3.005951399990224,-6.109099293408509e-05,-3.422202714207458,-2.3305401829117445,1.565042601664278e-05,21.356268780118317,25.22016869164498,12.268843380023577,2.8244981579495865,1.8405061156071127,-10.761852194303996,3.415563818249293,21.198915622584938,36.774405465870515,-19.363578005918587,-30.254355224011455,-13.706870169998641,120.11440164972738,-0.00029130955642731954,-86.27856714379392,47.2970694873885,0.00784219691715266,103.62327040413088,-18.59757770589627,1.7209213691244656,0.010192677572448596,-13.916027568151993,1.373867328442222,0.0046848016981248805,13.745073334992618,6.029466242805927,41.49656389935616,-2.2115038717228126,-8.137429880499097,41.19886292571898,0.8686487775728511,6.144248516990043,4.820848437797478
-8.672923854594496,0.0,0.0,-1.2524028112679562,0.0,0.0,-6.824329194343611,-8.69718052457588,23.218672619337628,7.6941272480538245,9.595992387572526,-13.911076812540106,-9.197179086775625,-2.928749294581685,-3.939144441196359e-05,-3.389042586236288,-2.2922236656300234,-1.346034760000224e-05,21.576003908794267,24.90542794674552,12.16621855467634,2.8990718705430183,1.7003226119051336,-10.843014457725138,3.4759265114420086,21.914474743459426,36.24689787562874,-19.264266748223722,-30.50728737804574,-13.001395612289084,120.10079142703093,-1.914051838862558e-05,-85.26612079070456,48.018088445972836,-0.004649865071432021,103.8481943630984,-17.512351800233695,1.9571581843466788,-0.000484999193505925,-13.762781994161768,1.0865623111712523,0.002615450496185682,13.741772832219528,5.8998969930768155,41.362115039135716,-2.2523852224449654,-8.225191525747869,41.03296481832535,1.1069748530124623,6.146796359919149,5.057629466965712
-8.657035369701548,0.0,0.0,-0.835802506516402,0.0,0.0,-6.769846689779388,-8.429020620434262,23.547774994953816,7.72840936868895,9.302512160129217,-13.918547318561226,-8.962991766787198,-2.786119853569121,-6.617830291452528e-05,-3.4196286893212737,-2.4687715113529323,0.00011464121993283245,21.752555041468145,24.673326515909878,11.709338854540086,3.1331395875702635,1.766804834282156,-11.008983179750993,3.1425954086014554,22.583244995569363,36.376495153267186,-18.17211739983661,-30.99787014750739,-11.371906141819405,120.16655663745293,0.0004495086639026684,-85.60425053819151,48.12990508955435,-0.0020354501922956554,102.62704552276034,-18.177854849507323,1.4918279062898039,0.0043485109017107025,-12.912827950640262,1.096652591673116,0.0007189599079015475,13.723607262337001,5.8613688594972,41.56306798623303,-2.2235693589867225,-8.317237984674424,41.21644384686714,1.3733021220491097,6.132140601948343,5.053889222801044
-8.946972481758852,0.0,0.0,-0.9218126785429347,0.0,0.0,-6.72204868287954,-8.741468336545225,23.626604666320798,7.6290377948413,9.233665225292746,-13.940420531973547,-8.88773976564783,-2.6199630489916643,-6.18249772200589e-05,-3.4906360767086833,-2.5531065830150643,0.00011959125972310057,21.6729168710974,24.682463375502916,11.729741516924369,3.1894369574576014,1.8332679199882427,-11.005423293589278,2.9843828609202956,23.224883219886816,36.547272512489776,-16.818200135240545,-31.44146056075177,-9.425391927391948,120.08318208275021,-0.0012791395200478933,-87.32581325858918,48.11276714797578,-0.0007896460519411872,99.49456927640374,-20.84350288640198,0.7911122801815924,0.0013583943206900817,-13.200789970604612,0.3867764091509372,0.0020226225223277127,13.640253335939986,5.4593464234160285,41.67836901495797,-2.2955632840653752,-8.73531296592315,41.216362234458806,1.3484738653409214,6.184018791640039,5.35286312648115
-9.914830307090197,0.0,0.0,-1.523402153110096,0.0,0.0,-6.756456705925202,-8.756622721715672,23.477730346472253,7.673447512917153,8.90963070511168,-14.372695455472542,-8.837222506647047,-2.542623595757579,-0.00019458319943017804,-3.438156365533595,-2.401651027091647,3.248173359121078e-05,21.856001977801917,24.537527857415245,11.881922191334185,3.3279433243509393,1.7271798730289318,-10.915367350704754,2.760900997916182,24.064023507483515,36.77525228951047,-15.733505142699535,-32.14098276221786,-7.044870987189562,119.91750887525102,-0.0003253625468398418,-89.15921275630136,48.751264474618004,-0.004760621384242358,100.18450624484294,-21.228553203296983,0.2054778010736869,-0.00556707636571612,-13.68242392451028,0.14114797956169647,-3.243217550553253e-05,13.616053230659887,5.245827700825952,41.699899839581654,-2.3236721536280345,-8.946516730615915,41.177885686683176,1.4611050578344527,6.182854854885683,5.376489947623046
-10.282827226995256,0.0,0.0,-2.069545487049372,0.0,0.0,-6.749424190504028,-8.78789841557791,23.081344693706324,7.83634068106282,9.30865996641881,-14.348583648535971,-9.094564082117223,-2.4040343920954634,0.00036143702453111243,-3.3222372488761858,-2.5308868999857173,-0.0002035751870648104,22.311045514701323,24.405523522547742,12.10187374665114,3.4687862562114278,1.744258237633448,-11.198585214540657,2.699144346139115,25.12614282067753,37.04394541015512,-14.034432134665325,-32.6230400121219,-4.242664834331179,119.66003031296832,0.0034004388996158844,-88.65628056972085,49.32595120004142,0.0012561430969735656,100.89681175376431,-20.335663473251927,-0.3238784996412168,-0.00017787068471821976,-13.588997816050155,-0.46432885433621285,-0.0007219535752733988,13.902817818295418,5.595615089566942,42.153029525096905,-1.9117279347498692,-8.73347256923746,41.71383792462484,1.4511227590883442,6.015911523127892,5.149491983223204
-9.755146029890614,0.0,0.0,-1.643297676046229,0.0,0.0,-6.8147685910509495,-8.24228256833865,22.85906176141309,7.57526053143855,9.754572529968737,-14.42397737101847,-9.591826333099377,-2.78502659679807,0.0006109800695283515,-2.9738758825429024,-2.557518351751988,0.0002071788040780496,22.340104871654773,24.951996059751213,11.944707548086969,3.0107275557483724,2.072789195287864,-11.028706118143559,2.887268869326035,25.73854632748182,37.045210391441785,-11.297009040390778,-32.864924028268845,-0.9980205429126063,119.06054470719238,-0.00024466354675950177,-87.65166458593346,48.67252005991881,-0.0011232627426960074,99.79050803375098,-19.353710634657034,0.28107068859239226,-0.001071652160966482,-14.028536715959147,-0.1369582577932203,-0.002972078968394923,14.401937941192083,5.734027354719775,42.564590770349184,-1.3057542190705684,-8.711516596376242,42.150628818424494,0.8619257178988993,6.093232306390461,5.320313105635612
-9.581240262316692,0.0,0.0,-1.2910237421988913,0.0,0.0,-7.015656079365977,-7.658811803178902,22.345886919589617,7.221710837976826,10.051916584057949,-14.499031774051167,-9.797340814703347,-3.057650066639724,-0.0004977805083973901,-2.564586968629837,-2.435238990029844,-6.840734587437832e-05,22.29187427725055,25.323285760292283,12.161779000692952,2.590712858394607,2.218715850376846,-10.927599243117829,3.0243795839707106,25.954201802693127,36.8162825342246,-9.034987948359648,-33.38776748312273,2.5562648488890063,118.5628683356892,0.0015270583279870908,-88.71044219088142,48.11913362479018,0.0008892018853647105,99.0293459988559,-18.18015809199668,-0.14111324793986862,-0.0016088217652131713,-14.953849421795947,-0.09009000917452116,0.0002651589696599846,14.597647473433387,5.6846607844555335,42.46506808385664,-1.1366153540442072,-8.732203692282855,42.04067201424142,0.5589617218325401,6.268477245466227,5.557611853535818
-10.284566728392903,0.0,0.0,-2.0393037043597357,0.0,0.0,-6.5288722818050235,-8.18792706349145,22.57692593326817,7.163924579183519,9.826289602952214,-14.78946348105893,-10.318532305408683,-3.2946353245882416,0.00040990301005251517,-2.0767743438204964,-2.2973083789431117,0.0003445049978123334,22.72891982004256,25.539670047067727,11.98634391108811,2.355072712647363,2.3040679133703166,-11.096487591021937,3.0261032429100503,27.02751231643524,36.17930220542228,-7.280949247728216,-33.40152754792788,4.977732339554497,118.00237208374669,-0.006427214614197158,-90.50953852041005,48.35308174077832,0.0008962313596056549,99.09968616791649,-18.53703243714818,-1.372400843162577,0.0030554537742865226,-14.746605811172078,-1.4265610613097628,-0.0047857846377659585,14.724414904346505,5.66541389401396,42.00481704442462,-1.1234287473213453,-8.626088428816518,41.58955453535985,0.4455215881208278,6.263502652883839,5.773253473025603
-9.470859543741039,0.0,0.0,-2.235491120796696,0.0,0.0,-6.300103124551409,-8.312609723403613,22.163409530233142,6.918803318953059,9.722545602267726,-14.500241630383366,-11.229923303003877,-3.71367568681184,0.0002407934349199252,-1.738687238853252,-2.154937024404962,-6.260278306021897e-05,23.317911918355314,26.002324077535935,11.934833951938469,2.238945422573891,2.4438068331428244,-11.503711351883686,3.2311894497597495,28.048553309682553,35.614920711882526,-5.075117263922692,-33.13459800016395,7.384574802148478,116.85606249645693,-0.010785778473574184,-91.51187971174342,48.529242237423446,8.794198080601233e-05,99.63857082593134,-17.858625773625256,-2.220216023294459,-0.0008219578733763075,-14.196911229173937,-0.8822342664001738,0.00493935217370267,14.972067801617978,5.496325675264157,41.63530777133206,-0.9726267430743596,-8.68797656967129,41.1849307072803,0.30868294936771074,6.279926570545981,6.291880782794873
-8.237155945058499,0.0,0.0,-1.6526108711828533,0.0,0.0,-6.461263694461826,-7.728034389493861,21.315158212678995,6.577151252887359,9.841730874872809,-14.133827013221174,-12.088301755103911,-4.122768820325752,-0.0005297538931848194,-1.5243748380173427,-2.071732643408821,0.00016711472056292462,23.582828311637897,26.278604952564233,12.236527888906384,1.9374881130977135,2.388161818994142,-11.867755586643343,3.377498633153039,28.587613679670564,34.83060363158778,-2.4669126440308573,-33.18664519580432,10.620552961469878,115.17679751428444,0.03343567884962373,-87.61991329975191,48.86506180909929,0.0012262279212742427,100.99719844771556,-17.08933490702063,-0.9589877024394535,-0.008692397349328203,-12.904933722163383,0.8712005929250322,0.0031919630013575004,15.315805518156775,5.271604630200948,41.47239357764399,-0.6777771440955864,-8.859411497915726,40.96460340477242,0.05364759371891641,6.258153006142761,6.720345451594452
-7.777478512152106,0.0,0.0,-1.608738009345265,0.0,0.0,-6.32209640917858,-7.456002459774528,20.202935358095175,6.446441472614223,9.144624848658303,-13.825687644261201,-13.496702715194697,-4.39600654202639,-0.000180230612543773,-1.3305850539441215,-1.8304738607652795,-7.96132403553444e-05,24.671358488085463,26.405909167325646,12.470197787444814,1.9364236052464288,2.2270919689057243,-12.390401696416095,3.612637646223667,29.143590233281426,33.694501114720474,0.5239604805216589,-32.68428998806543,13.577252207278868,112.82378582374359,0.022057433664225096,-82.66256615521209,48.405193551529486,-0.0017888299755132494,101.7117469449658,-17.400521378458205,2.1026632232932294,-0.0038380283720138514,-12.535765841612813,0.6165144537161615,-0.0006563513457941477,16.004868419108174,5.048876499552347,40.53914679483108,-0.22109660765547096,-8.815466367617255,39.99835047114492,-0.012507841995159825,6.0230757936591415,6.887045136048624
-6.94732290478072,0.0,0.0,-1.965456657967587,0.0,0.0,-6.343057149667025,-6.660576818453695,19.36171648784136,6.590502942488913,9.268136036108686,-13.479270623676685,-15.031799963319516,-4.803876896703171,0.000827671684698526,-1.1593966233929465,-1.6948957534847633,5.510333518442191e-05,25.64949913551378,26.37385385158822,12.636526846405141,1.6757359247662078,1.9266241925201815,-13.109077639597627,3.8771420724387466,29.73356487899133,32.33396208362592,3.3050026512115527,-31.774484784101308,16.35033068242246,109.84128474249597,-0.07229535703602352,-87.63405964974572,47.790850449429136,-0.000969523521279097,101.09145853884932,-18.491740569072125,0.7564610089897263,0.030159164704485875,-13.364191660972512,0.40705990286818927,-0.000695554404313085,16.348960377091338,5.12259647006075,39.770882627979965,-0.05399644315616079,-8.529756615228193,39.27636630326322,-0.21821434118320635,5.662560605897996,6.9871696448609075
-7.073779003709195,0.0,0.0,-2.0657132735109975,0.0,0.0,-6.18381393135647,-6.095197106568695,18.64142832569404,6.76134396613865,9.606011156152768,-14.10110086214634,-16.681949750736166,-5.078926097264491,-0.00342364852748004,-0.849790256950809,-1.4134975631766165,0.00020731284092415618,26.431548975151927,26.193793030086844,12.867037635090698,1.113359269553216,1.4190063952912337,-13.08036379944652,3.848215031974242,29.905721068770767,30.47992530645031,5.612126709882921,-30.702114323194404,19.016174701306255,106.59763201216242,-0.057384699139339475,-93.82760483823232,47.59845633264529,-0.0017879237699228209,101.04631059568348,-20.527253577197577,-1.5435290074417407,-0.009729540614708024,-13.879185891356506,0.16891082086936002,0.00015846379843473807,16.652080495442178,4.906489407719141,40.0127023574989,0.296213917937414,-8.805030468826809,39.44852034993909,-0.3990403415744544,5.3826279098831495,7.193567261409102
-7.1840890087556115,0.0,0.0,-2.6525193170003716,0.0,0.0,-5.428018996195112,-6.254394982045264,18.006953750640797,6.771204337007939,9.643090223808088,-14.665735433866924,-18.70278062567456,-5.46600637033454,0.0009946131780008724,-0.5707115161147553,-1.388921815231151,-0.0002395262280835404,27.69381248599574,26.33679546726034,12.881077952325857,0.7543288384829464,1.367119706437778,-13.410258476161665,4.1420586502656604,29.940464659537156,28.59316461509684,7.878026308648296,-29.115563916996003,21.19777558019317,101.64714413095219,0.14668648674919813,-89.88592098902276,47.758548554281866,0.0006632585047175512,99.41989388269363,-20.338302720455104,1.5481883413114892,0.025749420711405086,-13.985953029851828,-0.8307460633183767,2.1853849169026095e-06,16.979431597713848,4.905015252528343,39.395123497962935,0.48018201603587257,-8.632424795582306,38.85100377405922,-0.463209412752311,5.189311131391124,7.578569787197325
-6.101735862288505,0.0,0.0,-3.425939285761738,0.0,0.0,-4.30604210895256,-5.507013197046882,18.34260899416131,6.769910114318679,9.391154130656258,-15.5378547362236,-20.70295047955837,-6.774796600361944,0.00327437507863924,-0.07736080301624415,-1.474332685790524,0.0001362184837819288,28.753715858978943,26.883219898791257,12.288918816020793,-0.11199922612213073,1.7189331738720137,-13.785764319762746,5.050298122788448,30.14950800296145,26.063248254005003,9.72524070426292,-27.245574701454156,22.790662847810825,94.2452055418044,0.0893158927570741,-81.08219402939457,48.682599229450794,0.003990367636219826,98.02597609984343,-18.305334994612963,4.44662061368409,0.018595961607518727,-14.126032428413337,-1.5551240091797784,-0.00022108094374629071,17.075916516506414,4.913334817279938,37.980383173424116,0.2558864267936285,-8.220342025441186,37.488300321697096,-0.7658842007203354,5.153677262889205,8.111617589073305
-3.9218989981773937,0.0,0.0,-2.7676429333157158,0.0,0.0,-3.703851056328275,-4.262055988094464,18.54481455895942,6.714294760130684,9.311486159046618,-15.904651406811904,-22.754388637741634,-7.697996644118456,-0.001937302094852334,0.36053657779833775,-1.414579242201569,8.492422378113857e-05,29.708381301959726,27.083286556123806,12.965516376751758,-1.136821288549926,1.6911595245171243,-14.491617680421719,5.028227858065601,29.82432676183524,24.09135052305333,11.559462816610067,-25.24841232712562,25.208504216975626,86.52892519765274,-0.0883797722489752,-82.83398208809803,49.97252574960997,-0.00026896323374875244,98.619756397677,-17.458430867690353,1.596092375684316,-0.003560169905935778,-13.616634916065852,-0.5853041143623843,0.0027845425753356937,17.30694273845426,4.686182253909905,36.64467244194009,0.18369058956907527,-8.04906060366282,36.135323428417955,-0.7653234006433446,4.942006754610642,8.61331828506933
-3.605486900597485,0.0,0.0,-2.6316192234368048,0.0,0.0,-2.942977372192664,-3.3923985531962746,19.400425756156203,7.116573261039362,9.862277942717595,-16.181697756290443,-24.570159791567313,-8.29012268939118,0.00017914122650361844,0.36958016906057306,-1.426009473826995,7.955732853149518e-05,30.695023799821122,26.864947500407972,13.871085640134073,-1.5050728434177916,1.2124969892899224,-14.972252401419464,3.9017071742988767,29.1796108582339,23.20811769649828,13.929617012868228,-22.790483867137493,28.695158791673705,78.40022104117885,0.006144902257390161,-90.38499937908908,51.38393332932519,0.0027221734717204618,101.06250835159476,-14.927315674505154,1.1585963689627274,0.02017857315894938,-11.984865706018823,0.41354240963797934,0.003200867437293978,17.723219582952378,4.5860230686816195,35.957518543272,0.44836119446594447,-7.9422195850281625,35.44472154242452,-0.1687095385475491,4.282001572875446,9.062384584229259
-2.604312328292294,0.0,0.0,-2.582461367114608,0.0,0.0,-2.291675802127599,-3.403664192959173,20.18369540225021,7.346592777986077,9.556751610424254,-16.424284939809784,-26.197133020356205,-8.512436880296736,-0.001394159387767712,0.14435938276567142,-1.3665326547724268,-7.509249955219153e-05,31.475476613709176,26.703888210482408,14.947773099437374,-1.9113969707392167,0.8805978954248227,-15.484497461398144,3.4474642894219607,28.500710423168886,22.377224248618475,15.413898645198387,-20.530191152877233,31.206048083575144,68.36393444321621,-0.016502735535670894,-99.11881514419055,53.80098202241286,0.006052925670889144,101.9361497310728,-13.864735830676965,4.470361138936167,-0.0014741533376899086,-10.296813576772765,0.2634869719966932,0.00725110550449016,17.76002210543955,4.446018976974263,35.05759217845139,0.29008629875464603,-7.8079614286212555,34.538145651399674,0.41474967183279227,3.9008798076770193,9.758964341528065
-1.2529985511017414,0.0,0.0,-1.7545865815116901,0.0,0.0,-1.9129371239213642,-3.1312957738509715,20.904558625966956,7.526583430412869,8.852430042913795,-16.419429911494195,-27.7206697128656,-8.340177965991588,-0.0005461558235999947,-0.21601878743836211,-1.126490935360982,-8.542274709894588e-05,32.334876417444256,26.353304890247774,16.09598850728592,-2.614117300647997,0.6885998528610298,-16.910155180459004,2.7622829440526027,27.47810219012874,21.80358598142991,16.93989844745545,-17.69916312733136,33.1525322018807,58.551612896696795,-0.15773939093532938,-111.13365152896002,55.369227894460536,0.003161740806712782,102.87873460627573,-14.8649470600975,3.39754409327538,0.012388801871650253,-9.798807696507415,-1.0948627961328774,0.011104400359248007,17.622099135423802,4.5334025127819615,34.62361883746705,0.06595652149236432,-7.594432883269078,34.1483449858913,1.3435869990682296,3.686168527275181,10.240965363258095
-1.7134942447954244,0.0,0.0,-1.4639494521215386,0.0,0.0,-1.3954900487012527,-2.895886256379875,21.430492590107004,8.721615311758894,9.471855276058399,-17.50765036654184,-29.442010217391438,-8.463193387764525,0.002340161522726694,-0.9251469228942559,-1.1019297465678575,0.001097484995798612,33.223468386937306,26.129966882852656,16.46989579883304,-3.5848344699092944,0.8009067631234338,-17.723219968551035,1.0422787483206377,26.280799448178957,21.00294421271373,18.451297216429765,-14.098713840137648,34.526385671175525,50.721813416640714,0.05423351455306654,-119.33753275656308,57.095177067785166,0.00970446878575244,102.4034621552921,-14.744014410488834,0.24780653221628568,-0.003847259634660551,-7.733032195341627,-1.1177834849716375,0.0064579372105643676,17.388446214175378,4.992008081164242,33.49379916183159,-0.37954420762369884,-6.815828252672824,33.20720829370887,2.4653279780368966,3.306770178427146,10.832516636465796
-2.436293983215647,0.0,0.0,-1.2440644631589437,0.0,0.0,-0.834106399256139,-2.600442556053696,21.18556556244865,9.73837453996668,9.709014062032306,-18.321068714504094,-31.019576950502977,-8.223404940564425,-0.0017038557064439663,-1.9156213064654988,-0.9001824382804396,-0.0001183965382771414,33.8793160431987,25.47337624254736,16.85051081178663,-4.7394939778652345,0.7004395249001859,-18.622915847270004,-0.5772432516382733,25.2353557485957,20.18038274678582,19.43063656212128,-11.241088967447707,35.44129447182473,43.529484651306824,0.13757440933019727,-115.72234318304271,58.71294308742056,-0.011109683422381828,101.6816331094662,-13.87019693252337,-0.5466181608976661,0.0008415415232846331,-7.5640754251734705,-1.5971585483633046,0.0017981009138636679,17.162402073983447,5.057383700761697,30.72786390974435,-1.1376398941366561,-5.900537372812148,30.59143487613326,3.467562380190822,2.854869596182229,11.821409219526473
-2.9335522222790273,0.0,0.0,0.40159970324443756,0.0,0.0,0.2598322943980321,-1.9061648429554883,21.570178386728266,10.286812910550918,9.551787163937949,-19.020928714164747,-32.36039060276773,-7.541525641591605,0.000745511783870027,-3.6379709986311415,-0.33453193513125284,-0.0005326401007026946,34.57871678062718,24.215741627065533,16.455069145869164,-5.673801578999427,0.34525077049916525,-19.562406224315655,-2.6474963676315735,23.88050490226737,20.81614318485174,20.45557614162041,-9.28426365281067,36.83460815372834,37.919905712237124,-0.032979162236058186,-110.77006685408341,60.49250686501574,0.004374283778089464,101.00145119590505,-13.626499414887391,-1.7774151104360756,0.0017532518037848693,-7.131237080704845,-0.7661025032960183,0.019078996565663215,17.22995238949731,5.179749957967829,28.209222842700882,-1.5178493103162045,-4.987417544238479,28.241087882905788,4.568929129229669,2.525085900571774,12.352741105734278
-3.284378622001898,0.0,0.0,2.0959835452417126,0.0,0.0,2.0713699060086994,-1.0157599145206115,21.29847663530991,10.774662972793935,9.039925012062195,-20.550518490993316,-34.13173957148988,-7.144242264305813,0.0003968301206357922,-6.139642456652467,0.2612759919129569,0.0008252981053473832,35.11990742388648,23.405840847241148,15.575712908384096,-6.603915509700932,0.30029143492588545,-19.43468995108559,-5.430984473463516,22.60442203228388,21.673624135069133,21.508523670705447,-7.694500009290699,37.487269455527034,34.88211279839092,-0.010051071841085512,-108.74886771800361,62.48300682280846,0.015101765699861673,97.8902297345747,-13.234090854555662,-2.520951765107355,0.0048154956714255605,-5.548159626206219,0.566012571113964,-0.0022286825549737393,16.98978771730851,5.655868723599691,25.268791868656738,-2.231592865442401,-3.584748104513138,25.620625060375165,5.702086955061308,2.386258401350225,12.730461301009903
-2.088315116962701,0.0,0.0,3.3938736974591874,0.0,0.0,3.790703911049834,-1.36758702092914,19.51753139411884,10.366956289842266,9.735064882400215,-21.074841116320194,-35.593266653537505,-6.286004525339962,-0.002050426237565062,-9.410331728499647,0.9285032772324211,0.006180583248817272,35.015591129882786,22.68622492554401,14.82598911082385,-7.771831300262619,0.38323940615289614,-19.984396105305603,-6.825923120456052,21.902970761357295,22.3232707428134,21.75784881919014,-7.073791939009595,36.915618610962134,31.788240882825363,-0.012905439882403356,-108.38470830174853,64.27048595023933,-0.015301678724131141,98.52074974464475,-14.506808068995735,-2.16562440195628,0.0003134526167133849,-9.968163466833294,3.1959120341051674,-0.054548462418148404,16.663802145765054,5.879557935206614,20.680017442658148,-3.2195507132304564,-1.845336723220329,21.388571457330716,6.764466205967149,2.297355344368453,13.824244571776115
-2.176180913402479,0.0,0.0,6.763834980164718,0.0,0.0,5.318054309647287,-1.8186057521015615,17.97724629984403,7.414522276557229,12.012874277165817,-20.93946667018557,-36.41884041602627,-5.952380398305717,0.0012410129463516998,-14.153805764438639,1.9256594491592796,-0.005940539825198987,34.41145242570536,22.087177201532,12.385086995392845,-8.500457190005399,0.33760859939664994,-19.762578947776205,-8.092506684411662,20.869175873618996,23.623687769887862,21.67079582604604,-7.305691351277302,33.896115703432386,31.68720834671759,0.000763998592218966,-110.41652741287416,64.32073172863859,0.0041210417137038866,100.70927383412143,-16.05981608437416,-1.159922520674268,-0.0028646941324787225,-12.419299880741855,5.799618494770854,0.012988256037062542,16.64333984208633,5.41470862551316,15.287670985906196,-3.8741722825159,-0.4273355271429218,16.191188813051596,7.384058450675917,2.5661299566340734,15.449183188626568
-2.8839814722286805,0.0,0.0,10.622301379493328,0.0,0.0,6.305932173998809,-1.3489166683503846,16.738702602225526,0.20862460705723268,13.528572004999424,-18.161753456172505,-36.7192637953995,-6.070776465822391,7.038340667698609e-05,-20.323217696391932,3.4870082485187943,-0.013022909192410838,33.22270672598429,21.48558051519237,9.350562116294254,-8.597275750376781,-0.413475657589642,-19.093976752738183,-10.309297822378138,19.761171771669968,24.80948943446908,21.424915362901665,-8.206001527294616,29.44558206856607,36.135519272758664,0.004503676245932347,-111.19528205924045,61.81537967554441,-0.036729006784853,99.18330203216328,-15.282782723174545,-3.006568733479151,-0.016724683383551098,-8.652452010020731,4.748324812556462,-0.0258420606083452,16.363638475334735,5.2156790117987235,9.820425685469758,-4.620634607386528,1.3166088020202578,11.030195263264119,7.795120157241414,3.3188270921278233,16.677345838592114
-3.350384472484143,0.0,0.0,9.15391664228675,0.0,0.0,6.831214757641724,-1.7017262914821871,14.39549668676509,-9.726863279049626,13.904613209150767,-11.279618680421558,-36.73135880896707,-5.238617344697473,0.00048550989691336743,-27.74017468755281,4.228900241149836,0.01519199028961387,31.915904499661842,20.20288749382618,7.803492613519196,-7.474585430157337,-2.3216311429584264,-18.64138251726867,-12.687406587540325,19.405164192302802,25.404283961379498,21.183320557363082,-9.884981817030756,26.491868124525045,41.53289795252491,0.028918986436755195,-111.59420007524373,57.36900910448856,0.008114826306404348,98.92296911128109,-14.840509889868791,-6.438215720994951,0.007331632511278756,-6.596580756160169,3.7000749546275253,0.0017756674589130149,15.024017085864768,5.501708905850355,5.229279889899076,-6.223979982364738,3.230902958251518,6.865956975034693,8.588462720281333,3.684101257861805,17.165368472095963
-2.92374966142109,0.0,0.0,-2.093319451044722,0.0,0.0,7.650206347232976,-2.5696649858823704,12.37269590454609,-20.185712729528113,10.751460277192642,-1.041546748638242,-36.5832079087335,-4.417408273530056,-0.0004233704617463305,-35.83163656371566,4.324110568017845,0.0072154308581507485,30.352235208324654,18.82653183308369,6.25528729665096,-5.815056262208979,-4.588234767414812,-17.839885246711106,-14.651699508557302,20.23158694514835,24.750872629760487,20.925987203802233,-12.442477088160626,24.593828348984733,46.09566913557329,-0.05790798438399422,-109.03370660167369,51.57601579328655,0.04621943255514038,102.31589075716359,-13.436834553999535,-7.34257143232857,0.0057683717226400906,-6.7739575693378375,4.842008193780465,0.0013322617209807581,12.848533274510896,5.141304723819622,1.4994074475799255,-8.510792757636464,4.244853120369496,3.267419737494092,9.248353040781556,4.129707795412638,17.143607967413132
-1.795259667523244,0.0,0.0,-16.632556606550747,0.0,0.0,8.759953740545981,-2.501314731709779,11.693533356867576,-30.08805296438558,6.5768633124175695,8.622994826365233,-36.36570060421289,-4.73827425762078,-4.2451941181216185e-05,-45.626125170668516,4.989126356239378,-0.0228862790711838,28.896380419669505,18.659973267634726,3.382328085126937,-3.233590943327658,-6.2494062454055515,-15.43763841299629,-15.428541041547556,21.278135597721846,24.31264093842896,19.65865142183243,-15.22582893241286,20.32078264246568,51.487041291359894,0.022108521530008442,-105.04244967290683,45.395288074617234,-0.0049928042997554115,105.20080990941852,-8.514571135394338,-6.0067797008795285,0.012817427610025798,-6.422270581727168,4.100272158409495,-0.0009511514578764715,11.170367017568717,4.264929811513839,-2.3949251668942186,-10.195635642675139,4.843051166534363,-0.678668175390519,9.674687007320356,5.494559235490897,16.86642163513941
-1.7915232436679336,0.0,0.0,-24.034568208281296,0.0,0.0,9.338564530305122,-2.1003072356866954,9.647577420880792,-37.64305909835389,2.0562956194208164,15.429516828532151,-35.54039933907239,-4.498723494495641,0.0022895590187018773,-58.01350387386669,5.637777197848405,0.02345753800610177,27.120461725687658,18.11945851517822,1.8947042462106847,0.38820755898891135,-8.797026201887011,-12.876221364763442,-14.958205321900214,22.256063720371884,23.286465256853973,17.044042630256666,-17.923592354218517,14.75470185739707,56.90168248325445,0.03879498878291982,-104.45024435635771,40.10477450088813,-0.022426347569920475,105.16805263744548,-4.99290006454276,-3.967543658537286,-0.0008757493426240528,-6.508614969837724,3.707178476934883,-0.0016617305414140153,10.095665031631686,3.793456200490108,-6.0238215036026626,-11.197727808778673,5.7210005946191576,-4.23715669734699,9.837900559716495,6.356929926444105,15.807997651014093
-1.2412617162661617,0.0,0.0,-27.415580586252137,0.0,0.0,9.044660624855995,-1.5259508570965556,7.32567162158602,-41.33579703870373,-1.628470350055358,15.574518947487693,-34.42230052318968,-4.291917516233604,-0.0020957446949865714,-71.03877386685116,5.899659058373155,0.0023736866813604185,25.062243471293925,17.60986606168196,1.104057720945634,4.715058945904679,-12.009059742620495,-10.177949295428263,-13.465163568984376,24.571482273085305,19.332470977688743,14.033973164506174,-20.1908380048965,8.755035172987924,61.61636258061692,-0.04753880724907525,-99.86149376993806,34.74198720515812,-0.008164286233502563,104.89560016334316,-3.6119676378088985,-2.525918647191086,-0.005744966606981448,-7.339451561666329,3.8871072126875417,-0.002300817880637273,9.198401371062584,3.5901144728784837,-8.911845001073035,-11.983636293166583,6.575663850958107,-7.013041040673065,9.57345519704204,6.904946692084558,14.222581797587345
-0.6572225248353706,0.0,0.0,-32.87313622761894,0.0,0.0,8.82958084840165,-1.6388857902093479,5.250638470194915,-46.174851115383994,-0.9907052949754979,8.095828322026717,-34.031855431512646,-3.84287186454539,-0.0018446604590995057,-82.78514683870478,7.3159076998167425,-0.06884563571484811,23.65667804904946,18.280132513965903,0.38432496389241866,10.028202924507184,-14.64461004636477,-5.392130338880157,-10.991428489059155,27.42906983636375,13.858091230580044,10.760780952075127,-22.404167033182546,2.330512551179857,67.18349149889578,0.004006170902719456,-94.2940819126388,29.230547872683864,0.014183098752937499,105.76392442687192,-4.164369940100329,-4.171964445592084,0.022095604191852136,-6.758786718518275,3.0167192294385456,-0.004233923513800888,8.49754288034934,3.4108994243548776,-11.477147666963623,-12.54185773260669,7.330834661769684,-9.484416192513189,8.95086177297106,8.214745903158189,12.136801798583509
-0.7986165504438331,0.0,0.0,-37.410143208757354,0.0,0.0,8.830032841600664,-2.087451891153016,2.3462441432870245,-48.316306315126916,-0.7246018007436998,2.009860869059244,-33.17895098194351,-2.4321595471250568,0.005702326642946381,-93.90036069778087,6.931495121790576,0.035212799191188325,21.56327602156501,18.018246172431294,1.9061024236048076,16.395353083629345,-18.253208448613332,-0.43827408010354835,-8.76691847096253,30.123664062970157,9.314527874806442,7.042154966009874,-24.81739458452704,-2.2177379342616876,72.95686897554955,0.0028149993303900815,-91.58074287352483,23.643452728730722,0.034712755814557635,108.05823080995029,-4.911398601039631,-6.127323514141987,0.010479595600373008,-6.280520393777996,3.1773507822264735,-0.0009357312838282336,7.882222804657767,2.9973938388540295,-12.822666780183535,-13.05082640554016,7.425925017133541,-10.898512604600088,8.082281566896992,8.509149428145358,9.489842936915968
-2.6357454568879666,0.0,0.0,-48.40033309169846,0.0,0.0,9.497002204331077,-3.0831148661190104,0.23865981763309269,-44.13950644457069,-1.4563544868890843,-0.657926334052835,-31.504977195155373,-1.4366732169705712,-0.00041842828819660773,-103.93012818960958,2.8240603781048743,0.05255044295543955,18.988991683938206,17.142012586079346,3.9157136823873526,25.135036451372105,-22.559391113087766,4.019267015873419,-6.107917978377005,32.95611904480466,4.761686553158626,2.694027847865538,-26.994538888800978,-4.694532498817373,77.80763656848912,-0.003632280834858262,-89.38284275131377,18.954647502569475,-0.018930646744661134,108.09646269075154,-3.3640515716561668,-6.864714153227381,-0.0050691432589178385,-6.476681381042683,3.2837432777606472,-0.003284006672341038,7.120375956513348,3.021653199521547,-12.82623394501898,-13.813546165826954,7.449852101365858,-10.893130314003328,7.115834651292181,8.033143583280477,6.890404197304297
