PaulMeinheit/Bachelor_Muay_Thai/processed_Data/N2/teep/scaled/JointAngles/scaled0.csv
L_MTP_ANGLE,L_MTP_ANGLE,L_MTP_ANGLE,R_MTP_ANGLE,R_MTP_ANGLE,R_MTP_ANGLE,L_ANKLE_ANGLE,L_ANKLE_ANGLE,L_ANKLE_ANGLE,R_ANKLE_ANGLE,R_ANKLE_ANGLE,R_ANKLE_ANGLE,L_KNEE_ANGLE,L_KNEE_ANGLE,L_KNEE_ANGLE,R_KNEE_ANGLE,R_KNEE_ANGLE,R_KNEE_ANGLE,L_HIP_ANGLE,L_HIP_ANGLE,L_HIP_ANGLE,R_HIP_ANGLE,R_HIP_ANGLE,R_HIP_ANGLE,L_SHOULDER_ANGLE,L_SHOULDER_ANGLE,L_SHOULDER_ANGLE,R_SHOULDER_ANGLE,R_SHOULDER_ANGLE,R_SHOULDER_ANGLE,L_ELBOW_ANGLE,L_ELBOW_ANGLE,L_ELBOW_ANGLE,R_ELBOW_ANGLE,R_ELBOW_ANGLE,R_ELBOW_ANGLE,L_WRIST_ANGLE,L_WRIST_ANGLE,L_WRIST_ANGLE,R_WRIST_ANGLE,R_WRIST_ANGLE,R_WRIST_ANGLE,NECK_ANGLE,NECK_ANGLE,NECK_ANGLE,NECK_ANGLE_SHADOW,NECK_ANGLE_SHADOW,NECK_ANGLE_SHADOW,Trunk_Joint_Angle,Trunk_Joint_Angle,Trunk_Joint_Angle
X,Y,Z,X,Y,Z,X,Y,Z,X,Y,Z,X,Y,Z,X,Y,Z,X,Y,Z,X,Y,Z,X,Y,Z,X,Y,Z,X,Y,Z,X,Y,Z,X,Y,Z,X,Y,Z,X,Y,Z,X,Y,Z,X,Y,Z
-1.6643800000000002,0.0,0.0,-0.9034800000000001,0.0,0.0,1.9609900000000005,-7.1341,10.368400000000001,4.93076,12.700550000000002,-10.986060000000002,-17.312270000000005,-0.7963500000000001,0.00025,-8.774950000000002,-1.97736,-1.0000000000000004e-05,24.186410000000002,14.068940000000003,7.821120000000001,7.202510000000001,-8.067300000000001,-14.351000000000004,4.585750000000002,10.632130000000002,15.930090000000003,-4.647970000000001,-14.790580000000004,12.077810000000001,102.18605000000001,-0.0005400000000000002,-97.39566000000003,60.53133000000002,-0.0037900000000000004,96.02530000000002,-24.184310000000007,7.710660000000002,-0.0008,-18.943800000000003,1.4058700000000002,-4.000000000000001e-05,17.958720000000003,8.86521,39.7425,1.67345,-4.93036,40.30948000000001,2.986640000000001,-1.1822500000000005,4.70474
-1.1444872919919427,0.0,0.0,-0.8839530478718228,0.0,0.0,1.610128030019918,-7.876962055785105,10.405074419475946,4.9054998318253995,12.138821216836229,-10.107893246216303,-17.09157468406722,-0.5578415020596766,7.90754398949845e-05,-8.605118715178142,-1.9266161523551726,-5.53023972074623e-05,24.220111311704393,14.176409204021372,7.960948696385136,7.319054696038275,-7.940988234119895,-15.140734844411986,4.597215181514834,10.93872859270218,16.21067903135151,-4.763741052287131,-14.950010045694857,11.751200595334089,103.2368872152672,-0.003743248420629934,-97.24772653612318,59.829931369819555,0.003627298613737178,95.61231220954939,-24.15664781963236,6.608585683873639,-0.0003095595143536306,-18.38907916486712,1.8528620971055985,0.0018278893748453736,18.042725995430466,8.817783591638205,40.0902622570686,1.8386306590807864,-5.0720212046363775,40.62734132584788,3.161661243444753,-1.0928930350830326,4.436036281702605
-1.610467298421904,0.0,0.0,-1.6796664262413725,0.0,0.0,1.661026094821847,-8.19846885216916,10.682254899084041,5.394222774199797,11.471314931717613,-10.071103703417544,-16.915282308687093,-0.5716687548574685,4.132674479858939e-05,-8.505957038600231,-1.899286214574659,-6.131203002609569e-05,24.11038203003604,14.285254861771364,8.03303113896423,7.284018385872448,-7.786107716132861,-15.378313880579856,4.369580978626799,10.957979033176214,16.188948806125147,-4.972616437179308,-15.311144355988082,11.405960816103208,104.33091589827855,-0.003913721307128632,-96.7369403050666,58.86658730258599,0.006493852532052084,96.56151981051156,-24.54358706495698,6.072448490680456,0.0031071428130094642,-17.421902228328577,2.1236809712646525,0.000685787553705201,17.890012638287473,8.4303357617039,40.74991437442323,1.8333949507110159,-5.6254140110174475,41.14848269292252,3.4074239998484694,-0.9019726082078566,4.291891199013348
-2.8122019637855766,0.0,0.0,-2.616354392776552,0.0,0.0,2.1754770562904344,-8.382949022116014,11.015112965521848,6.072561136315163,11.820036522627005,-10.526615042806444,-16.644909008199924,-0.6663265728582267,-0.00013487145726492634,-8.532315640096442,-1.9412821257963753,-3.597848966050676e-06,23.89928319477521,14.542108762707581,8.217171172669854,7.460952014414977,-7.591474362762257,-14.655245484565526,4.5179938807632976,11.042263208468404,16.404813366839853,-5.106417993903143,-15.778514101311602,11.23931847731916,105.24771465429964,0.008352818003725131,-98.27594117980571,58.00616956175072,-0.00601506398726242,95.82959477198148,-24.478336076212276,5.109210954288172,-0.004442840742686082,-17.557405980049676,1.7300890914350793,0.0022913294320266323,17.723455865118215,8.370609029761207,41.11919174536145,1.7542203412270407,-5.783590989965117,41.48482303039388,3.5565627787959695,-0.78060384242868,4.4622790455510515
-3.2572027799129,0.0,0.0,-2.291528016311756,0.0,0.0,2.2659782201677077,-8.386933378799679,11.388113138098236,6.178536746231138,12.348969540348353,-10.498160841781797,-16.21471681579576,-0.791594980319105,-0.0001911768835529543,-8.62958889900222,-1.8921168046754093,-4.269301278339305e-05,23.666651198519904,14.77388579213202,8.3117766268841,7.724433055854621,-7.5650189271997474,-14.139171656033275,4.896267384253042,11.139912495237319,16.993897055935257,-4.918742732391484,-16.21890967071172,11.09116430201658,106.00299778013841,-0.0009486622516764441,-99.90919121008159,56.94001710432127,-0.0004604858232322342,94.37713081971906,-22.952635193490437,3.853031925137794,-0.0052616367436774695,-18.129105815545064,1.221979719113631,0.0007295895278770218,17.59179495278253,8.591669086033042,41.4830693946625,1.7170271607936891,-5.669747259446563,41.89359610870096,3.522255305215047,-0.7237370866089209,4.468353792340155
-1.7101010591047543,0.0,0.0,-0.8874840839747911,0.0,0.0,0.8633171042927991,-7.492522889655113,10.748389940768517,5.598341127906858,11.847238840378314,-8.773776299295559,-15.329728229961004,-0.7038861167865872,0.0009493553275403893,-8.701556671525106,-1.8140922817435576,-9.51213271947948e-07,22.9817792499139,14.477090992523772,8.95100469617595,7.69845135119248,-7.993279680059127,-15.068338635624768,5.090916639599288,11.411610591469849,17.301253422757426,-4.741350341365426,-16.51285969855136,10.864609784083544,106.8623731505643,-0.009519749328447003,-98.0984352208379,55.76341120561146,0.005030810063951511,94.54206842984667,-22.077931491982646,3.8848061822599997,0.0009200399585651343,-17.721123643888138,1.0305331402335143,-0.0018509564856364,17.568625508038817,8.553663348888946,41.86736601214385,1.7868443994564709,-5.8099569280733725,42.25060934070838,3.230040160802499,-0.9776049602130918,4.294292258659843
-0.3799968261009195,0.0,0.0,0.09261238370357247,0.0,0.0,-0.4794881138316928,-6.6346264887073385,9.91477727160567,5.300306802546866,10.99667032005345,-7.23881603901491,-14.593245477204563,-0.5163396212114094,0.00012173088354125694,-8.505644431580867,-1.8707525414917268,-8.959026690050243e-05,22.363562110358046,14.250955433878929,9.755846449696104,7.547970497109785,-8.132098164760272,-15.874187049260161,5.247656425048674,11.723030557321524,17.268397955997237,-5.19946935388708,-16.58053284189205,9.996819793204507,107.74380834251592,0.0013299221308561765,-96.46894074506739,55.12325246495708,-0.0005549402021657763,94.51201116401414,-22.265805118347465,4.160251220265714,-0.00048814978005081355,-16.679714934460527,1.011079287925111,0.0011246718709591289,17.715656619187964,8.26418537662092,41.908412761731185,1.9357320635045039,-6.099572942877936,42.21073985963963,3.1350070278463824,-1.141087424957914,4.294485976815618
-1.2279816352759616,0.0,0.0,-0.5276155717931721,0.0,0.0,-0.42200304779930214,-6.541095171218223,10.28345910095556,5.6409165886302,10.759399288421685,-7.690230472103814,-14.435774083885185,-0.6512061582512114,-0.00010105783753577377,-8.311051594108699,-1.926256599857919,-1.3158376456237089e-05,22.251831541360172,14.4573646966143,9.504434517766866,7.561279899840907,-7.846061692745569,-15.230690407297304,5.4462620063205165,11.982076222332596,17.397772377421532,-5.855951987699587,-16.678188351153945,8.765472672933683,108.46058342413163,0.004894068586853034,-97.0696521022446,54.83440006874804,0.000635556708662417,94.26042672105197,-21.696912481164286,3.65166867249743,-0.0013267175539580167,-15.264677616737055,1.8067780550585075,0.004819939405894981,17.620877763747483,8.237441339192392,42.21323221659408,1.9152260215662673,-6.207154957802591,42.49547669405181,3.255780843744648,-1.006407579919899,4.121636943346131
-3.069951989869498,0.0,0.0,-2.1584571129942502,0.0,0.0,0.32701481878040967,-6.947834048582015,11.348614702680358,6.33742713790265,10.926759161693797,-9.326060287831313,-14.444225539437895,-0.9829483978706879,1.1162011521632318e-05,-8.385784837696917,-2.002057504414342,2.5975001173533224e-06,22.249937103496638,14.887977796493788,8.64938389019335,7.742964970533163,-7.399380477784746,-13.539315228575475,5.736278920843279,12.128650913898857,17.998869464892095,-6.162517028143376,-16.93378592395472,8.262923688850012,109.14273737927924,0.0002257545601338804,-97.46321170010519,54.17604133050227,0.002284887554086398,94.82505972578913,-20.3420668087082,3.1432830640588474,0.0018622400170196414,-14.782062488910057,2.62230424757377,-0.0006203922687835599,17.493299462632624,8.212003226605711,42.567211142748896,1.8745674200127185,-6.326233353608326,42.82791786589616,3.238008664267998,-0.7599734250102389,3.9045646379921926
-3.3242143676949865,0.0,0.0,-2.7284256863975918,0.0,0.0,0.3522186661166137,-7.5751433014781355,11.291286798059337,6.778107128586319,11.280580980243478,-10.40905883697158,-14.413322996905958,-1.0211953077834706,5.214391859055743e-05,-8.32799347427158,-2.1096106638715524,-3.4227103924649596e-05,22.16193458970828,15.378156966341896,8.658525832376384,7.671610304062177,-6.882722705673304,-12.7042015727572,6.037843051595856,12.176531420172427,18.49607388397745,-6.55470391000758,-17.364011975313637,8.138718253185836,109.91113506394672,-0.004679817499383064,-96.03962083897613,53.34178171932554,-0.002706663471544213,94.64521423611122,-18.83478144178206,2.9899894325645655,0.0027148305135352995,-15.610106470196454,2.1958745280673666,0.004294475135830165,17.526495797222896,8.076819210653245,42.621632455531206,1.917216701720028,-6.470924428876079,42.84352837706944,3.0460679864772,-0.462390456852269,3.8952191922833346
-3.455097558226613,0.0,0.0,-3.1190086414598603,0.0,0.0,0.06902270709098134,-7.950310120712965,11.219126036679038,7.029187501299578,11.532474258212247,-10.891039373430884,-14.313292571055397,-1.0195262514248147,-1.6117784628245326e-05,-8.324589378195254,-2.188670422296556,3.415965654670402e-05,22.252715413099136,15.898226786001146,8.775416134793884,7.821242568222992,-6.347624956598498,-12.481015978148811,6.329163222097151,12.668504238432666,18.433149433880896,-7.196500376122584,-17.656379250275826,7.367186376545417,110.37522440640966,-0.0001874505236884466,-93.5624150389048,52.60279071819458,0.0019474205923710136,94.06125227286704,-18.62431595085742,3.6176890558044654,-0.0023142862657929866,-15.882808332721057,1.6491788211569895,0.0024263510021712118,17.58520743076609,8.16819360714766,42.814309064969386,2.0267172612863193,-6.434149570131504,43.05313365713356,3.0859374278991143,-0.1260639972806301,3.9615178445451535
-3.5198948848818645,0.0,0.0,-3.3968372998179897,0.0,0.0,-0.006864923517233249,-7.713847745372247,11.707698195678367,6.895712161547435,11.026860934014756,-10.405827347782864,-14.085816739476149,-1.2873431645556253,-0.00032445758024436037,-8.48875049242331,-2.3153542772682862,2.1919361406013014e-06,22.305258873928835,16.39472785542849,8.447643068133246,8.1979466400142,-5.878479612120191,-12.551834193996273,6.400305762509633,13.358118317748511,18.31741303787478,-7.842433743766346,-17.771547687406766,6.082571976470847,110.49391022659293,0.0008162635363600221,-93.03537147679089,51.8857560363689,-0.004354668161220859,93.58544495600285,-19.53604098368728,5.6496899067486375,-0.007403652096314627,-15.11816849073722,1.4453658409147272,0.0014142426915755531,17.601635365422307,8.11180599844412,42.993120816607814,2.086134716457717,-6.535892137705732,43.20957917418017,3.232167890995153,0.18137220139390026,4.032999330455944
-3.1311149232889504,0.0,0.0,-3.20600653991968,0.0,0.0,-0.0785861982502308,-7.134157959635163,11.869715762780263,6.747627152227826,10.876869916448028,-9.58954074109554,-13.737238007843862,-1.5308180851530087,-0.000136639818831985,-8.610429961609112,-2.4328308221859225,-0.00014191932409390057,22.040092137865262,16.692637526674403,8.425453363716189,8.234105260638655,-5.659147775934371,-12.99025649214716,6.108447126292492,13.634681162838048,18.55504445623123,-8.1388746379438,-18.002359528354752,5.026568165384113,110.98647812305353,-0.0001532101866265873,-93.67483175617618,50.639172570957186,-0.001165545047259459,92.9830670311187,-20.748405705853266,6.68929008132613,0.01243737619611532,-14.220627981424363,0.40316889856773486,-0.003285180017034512,17.50873107196637,8.018459983824567,43.14945342592749,2.0295280490239325,-6.6672092136081815,43.33462110862879,3.174379213134493,0.39046809214918865,3.8243066751558294
-2.8145807837485046,0.0,0.0,-2.578024389526078,0.0,0.0,-0.4453001650097938,-7.118451368790774,11.504265646536377,6.8111192192147625,11.094011163435153,-9.709138051108498,-13.39419903770691,-1.2514806596621393,0.00047914131333104485,-8.765601335757154,-2.2711037881747522,-0.0002240293067652384,21.89298886213098,16.716719613388776,9.063997989211474,8.325105953043067,-5.660054731654224,-12.791864883311364,5.869680064984479,13.751837330540074,18.708455721185715,-8.157419658911754,-18.265817149824777,4.026171726615063,111.93549178501661,0.0012867895536348148,-94.36580057006155,49.00284305353344,0.009970367942965798,94.20229900778675,-21.93217149457176,5.190104934477641,0.00903485063709411,-13.2100139148394,-0.3968525907788574,0.0003251581081393117,17.469742881330028,8.045057762750384,43.36413795146375,2.0453706856480642,-6.698201769365582,43.548049496152565,3.1746665918941335,0.5303069489088236,3.522569263666406
-2.7893819062005645,0.0,0.0,-2.306506655641475,0.0,0.0,-0.7860092670887621,-7.666936933690075,11.399162609433397,6.899538633823827,10.929740259178608,-9.975221630734907,-13.236511246231307,-0.7951484889900015,0.00012056449849220772,-9.168495635221838,-2.074066848226072,-0.00023357456629349594,22.056520540466977,16.89096484396017,9.565052638403877,8.874305600838278,-5.470139453714978,-12.282440906805308,5.842208065928495,13.93423953543778,18.952005948669314,-8.05971982866894,-18.558052470656968,3.164872133298825,112.59254307923304,0.0015741066924009682,-95.54650047119908,47.58786455630671,-0.0027952096969960562,95.49024123509022,-21.78722427335964,4.015372963783974,-0.005303845086613104,-12.91984257562983,-0.2872004600793744,0.000854918396047497,17.45675238528234,8.151286265982673,43.38824004235317,2.041754469687848,-6.602148205057332,43.59964019692932,3.3282709778422985,0.8046714737005638,3.511598569611203
-3.912638059982548,0.0,0.0,-2.95119389355873,0.0,0.0,-0.5521837797220708,-8.188170627122183,12.132594361378468,7.364287752958194,10.282996927270545,-10.550274390029495,-13.273869505600505,-0.809095726736089,9.096595508695864e-05,-9.809013475935563,-1.9613868928362272,-0.0003472101478703201,21.986215995975986,17.42756883817371,9.382822025909126,9.356554827286883,-5.01633306480072,-11.279946122856792,5.964316267041957,14.127222342190782,19.558120108399933,-7.950473117750823,-18.88325836294592,2.348335142579407,112.82439250378127,-0.0003438654929876618,-95.46710915025416,46.155059381417104,-0.011277457828557425,94.61592641325136,-20.21177679925891,4.790444101252709,0.00794708988119663,-13.325057704270531,-0.3590140940897396,0.0012528611631264983,17.454302863566888,8.148694997300746,43.07881747940285,1.961394127776928,-6.523019586505853,43.30177962773454,3.2265763355652757,1.1811895601099196,3.7292774714979053
-4.601183199552167,0.0,0.0,-2.519038660534092,0.0,0.0,-0.46657813816279126,-8.505775681973791,12.097330397625631,7.512340831429358,9.594045159001556,-11.16916890989545,-13.31933770886278,-0.830887691393159,-4.56995832327528e-05,-10.230997371288808,-2.0912414944847737,7.173972467779138e-05,21.80710648675315,17.89757248533869,9.664325238867407,9.542520397473355,-4.5331496114799705,-10.44988897494751,5.938901266754126,14.237337475373772,20.120407622898167,-8.360312246002257,-19.00959085645902,0.9030328150741681,113.34153361538775,-0.0007344583131980748,-94.30169569158925,45.061837751769616,0.0026436389322269595,94.3586056457695,-17.475366362304296,5.973877780509218,0.0006264475931427192,-13.323784291702207,-0.20992330837858808,0.0029333759515145744,17.386030283796316,7.992648672588987,43.04996209045822,1.8810762673406314,-6.665766520746084,43.23207867993316,3.071806271376304,1.482267636169287,3.7433989017010516
-3.8834169090951813,0.0,0.0,-1.528022848878368,0.0,0.0,-0.8499825837489677,-8.121959274503427,11.266449313288788,7.111455126835316,9.403315868025944,-10.606864824231055,-13.457230801742297,-0.6525581801633445,-0.00017412856652876152,-10.340815319646246,-2.4169402155565693,7.568797011177328e-05,21.979363198019257,18.298977294583405,10.307310836733919,9.71741197268503,-4.011240506472778,-11.115661662153752,5.904154646929266,14.214876509104641,20.136510164516906,-9.132100159596092,-19.124765083489216,-1.2027025865604335,114.11737944705236,0.0009061731297826185,-93.73941350795974,44.381524880227964,-0.0010798971738395502,94.94832607369369,-15.392549703614387,5.976243199472671,-0.003499733545324863,-12.532956704949205,-0.14086576186784283,-0.0015488829504133493,17.24200365402754,7.857637113798846,43.05114498386169,1.7330745862480161,-6.79617955196659,43.19687633128593,3.203936898338131,1.8800214272252374,3.6706081925576686
-3.0135604839985786,0.0,0.0,-1.2232131428703,0.0,0.0,-1.090190314831385,-7.950704463542625,11.479576936365286,6.927557513719357,9.139766638671029,-9.921228265650374,-13.633731286058879,-0.5994960258550961,4.764996254599757e-05,-10.556270269521113,-2.427687508003929,-0.00032694648874760407,22.337190053203184,18.73939419437685,10.40626133830453,10.096913302445646,-3.5983844594303402,-11.661086249647862,6.3516354478608115,14.182110858133461,19.758858301179632,-9.786491995640986,-19.48901472112515,-2.6651753678163885,114.71143509401165,0.00012295120668806488,-93.29922372439997,43.6910111432169,-0.0045517253203669885,93.69182541552597,-16.573175741221327,5.223089545426797,0.00957174484817612,-12.208023560382264,-0.24110546704166297,-5.053718255565909e-05,17.120940024945508,7.939313020632028,42.60710676224273,1.5038167097229034,-6.599483759412552,42.792324147942935,3.4153369235443667,2.2417412053501784,3.7020855358042812
-3.200981005736052,0.0,0.0,-1.3058158084387714,0.0,0.0,-1.0223690869077267,-8.658363812866645,12.039776177335671,7.285265788448653,9.101589480492319,-10.161648968392905,-13.57744205350419,-0.6827312972886593,-6.369302785450481e-05,-10.911797871182786,-2.1601385352116353,-0.00030632225002255153,22.34974209947359,18.93777608909651,10.134575340108492,10.342091294686915,-3.5904730629614474,-11.220173940465454,6.9393708728898105,14.281196231272675,19.376876340906048,-10.201787395963326,-19.764962259413675,-4.051840735926199,115.38695309146877,5.7133067993671806e-05,-93.01656774952467,42.822189059245126,0.003296954539445998,93.29157993001672,-18.931794821541228,4.925633108759509,-0.0013447918599092297,-12.105231822426028,-0.001717353688403712,0.0011870027133089641,17.150360778381238,7.974275691508947,42.37434887097317,1.4766095880184258,-6.503650776300632,42.578391749920776,3.296787746536258,2.305905006850001,3.642449212032345
-3.050642317476543,0.0,0.0,-1.3051166063608934,0.0,0.0,-1.3473264740924042,-9.18544797964799,11.977211047228238,7.45105776013384,9.30543701193678,-10.418743220731663,-13.259499088835012,-0.6251619205576174,0.000203578971221687,-11.136701563045381,-2.063679571476674,0.00012165811281215005,22.11595536474913,19.09004156030997,10.033460656214977,10.418170204941978,-3.5008163120889755,-10.866218381989919,7.380837634232903,14.392523028430878,19.398359167004724,-10.649405844190632,-20.0982521831386,-5.554453118743491,116.07394649934662,0.0004760970294603266,-92.84511152701101,41.89549870188637,0.001911604456519165,94.6260220400766,-20.345338533694992,4.875646661166543,0.001204419385539661,-11.746400289421782,-0.5763783656428065,-0.0035458670873826153,17.24177254177592,7.860246221873976,42.41561721000754,1.5746822059504972,-6.6244890325372525,42.58700191855591,3.1611110643052367,2.5200452086505196,3.382004214645399
-2.8705513443086206,0.0,0.0,-1.1460671112330678,0.0,0.0,-1.801951791905135,-9.057351532657222,12.401640202893661,7.260648635174509,10.012933499534043,-10.16353035598534,-12.988932373034359,-0.45087485536573313,0.00015091485959157835,-11.23536204132681,-2.119541945004179,4.338407677142069e-05,21.928028418761667,19.28467568172465,9.693250787850694,10.567198383235784,-3.2499584761932017,-10.749550955478602,7.493562757555631,14.547161435473596,19.99766412530789,-11.14487541078817,-20.609734101374194,-6.89832050683918,116.79925185826747,0.000460320650698026,-92.77919003777347,41.26284761000867,-0.0011929362737897978,96.08323855060429,-20.68827269231981,4.4012673674446745,0.003968332457181189,-11.002315691716769,-1.2637745840828318,-0.00309047360342609,17.198194729348607,7.7923274162886615,42.688499438635596,1.5966697228904176,-6.762736079112472,42.83068369492086,3.1679005166146235,2.978505311759303,2.989929768076946
-3.4422923375308665,0.0,0.0,-1.264835132689815,0.0,0.0,-1.7678208094957033,-8.334929979582759,13.108782734353158,7.266036809409672,10.821608364112835,-9.589563427874642,-13.040914891791136,-0.5887748307164365,0.0001652786513277984,-11.285419075715673,-2.18057759782961,1.2741486711868956e-06,21.77408402647991,19.590260075283332,9.116112457261973,10.580117581256555,-3.027364373498942,-10.890865379965991,7.594456344586937,14.86701677679413,20.598885642164184,-11.58059772909472,-20.894050699589705,-8.351753158320962,117.41237087970099,-0.0005788105947374334,-92.37620100925248,40.727010497349035,0.0014787270533715166,97.80213218789402,-19.850423002883616,5.178528557554754,0.004043057090384352,-11.224115708049242,-0.8391793125740769,-0.001624313445781952,17.14319183040717,7.773001293699332,42.91500144000617,1.5975025200223094,-6.841619370623933,43.043176099936986,2.9794703604469035,3.2798084601174953,2.8116605786337634
-3.85978990599459,0.0,0.0,-1.7095760416596795,0.0,0.0,-1.6320511949659242,-7.607660588519685,13.580312701425754,7.5668432576734705,10.706636931096584,-9.311192257314522,-13.022302185807678,-0.7493158729231233,4.428802318246226e-05,-11.430673095873974,-2.1586217683911717,-0.00010924987827078003,21.57730869927561,19.89944526079184,9.124504381531299,10.65684016083179,-2.8047270813661265,-10.752511825864444,7.5923967783835185,15.486640340874825,20.863165305617635,-12.081264034150607,-21.04346955723096,-9.502201381402262,118.10421761898071,0.0018357338301476782,-92.0944172445966,40.321640920412555,8.008213571740243e-05,98.68392774704613,-20.2541635181856,5.823518867227329,0.00026979619186138446,-11.935571511012618,-0.6059159278722219,0.0015062525381952902,17.1943053420235,7.880902491308659,43.02374448745432,1.6792608400745423,-6.766494154995532,43.1768157130668,2.788291724256969,3.3348084460003857,2.879516241335345
-3.9378175701425153,0.0,0.0,-2.156898510531711,0.0,0.0,-1.5574745910970917,-7.59342794650258,13.404299230339918,7.797651424494422,10.14235398339845,-8.925719768052222,-12.80585678679684,-0.504383114214743,0.0001937765352571144,-11.530236317017312,-2.094766491128208,-9.512469722720321e-05,21.42490544318428,20.083516876462824,9.722016241863326,10.87220437769378,-2.608364790518719,-10.553092406864266,7.558780097106654,15.914157507592105,21.384455284713482,-12.736591433363781,-21.383157679411802,-10.56672217636824,118.90212014199044,-0.0008367579788350447,-92.04788453302157,40.39868107457449,0.0014982811167980534,98.27730639432012,-21.162627772223164,4.678477919521296,-0.0012089901260687993,-12.38314281581589,-0.27794453300091015,-0.0007243289273121551,17.34953449014267,7.832459758916929,43.38614304807792,1.9239672533696703,-6.908946038779937,43.512264556211306,2.791555443089117,3.52847987932278,2.7540749430246154
-4.599408466371104,0.0,0.0,-2.35839449627415,0.0,0.0,-1.2128275246050124,-8.121619673176339,13.13308117860515,7.834631133584081,10.334898792845529,-8.568661966214853,-12.680254757469278,-0.35421707075520203,-9.220764680430625e-05,-11.447277891175956,-2.225904160024048,-7.839385484884441e-05,21.219483897234028,20.283876583331914,10.17228324664672,10.92545828945063,-2.392127378375329,-10.539748127429604,7.857122592157842,16.299126463303576,22.024271502763227,-13.524106007650525,-21.82734869695428,-11.496549470067292,119.44900932534243,-0.004202781595600881,-91.48807425148468,40.43594250627878,-0.000410145194240056,97.85885711759197,-21.436806317693172,2.8626443273725304,-0.005022367958700519,-13.065693039649783,-0.16250999220792361,0.00043960069336968855,17.405432368391168,7.736519394364568,44.09616625540994,2.1567798355477894,-7.187541154877951,44.170272858630604,2.7834279160198094,3.769422388581458,2.4822708792933676
-5.630795531469271,0.0,0.0,-2.4073093964701378,0.0,0.0,-0.9029013177939396,-8.855374530563527,14.178123096626365,7.806442276278403,11.126492168828428,-9.086422747452442,-12.467290440340388,-0.5106191174902714,-6.674483239558315e-05,-11.453947702516942,-2.360987090124392,2.5604099981393276e-05,20.69176112405465,20.65175469861859,9.874359389585058,10.720410510175551,-1.9968333489075643,-9.915267939117019,8.213261541876864,17.019468910845543,22.437642042085564,-14.248177716998848,-22.28784314471438,-12.145192766206362,120.00799247337257,0.006895630444180611,-93.17068248167024,39.963866162727264,-3.152608169079335e-05,97.45578306199239,-22.37723006705255,1.0752082334693138,0.006916110095788544,-13.68597765225119,-1.1579325168672727,0.00254142878691738,17.431311439221957,7.729709261297776,44.403467522922774,2.261062325563071,-7.273996249955555,44.464670204347875,2.4526918610031156,3.9291959046270195,2.5359151579171213
-5.456932308393545,0.0,0.0,-2.042476333663727,0.0,0.0,-1.3095965282288795,-9.337779888842961,14.966579387239282,7.553513958135391,11.058615723211558,-9.26970307556139,-12.12369213355017,-0.5673561025875793,9.699875196683954e-06,-11.456846165703329,-2.2950220820192433,0.00010033823014654124,20.235991427505663,21.008524698296988,9.831905964412138,10.658533179492553,-1.6734186217096385,-9.39564092394296,8.330790837876215,17.722693530671002,22.73535681059582,-14.888272132760228,-22.813757343201598,-12.90453996097046,120.73083015745131,0.0073661610654290385,-97.06083224783472,39.462132273111386,0.0036971796085820655,98.11304301690987,-23.589061641172545,-0.9806071755958536,0.0010886519372808913,-14.085103268730046,-2.272250893304746,-0.0009043427350732273,17.36116343134379,7.840692810793992,44.47694779711232,2.2134706321515787,-7.185907639277714,44.564765946030114,2.2647081068369594,4.08087792732638,2.635189976433635
-5.155119305530163,0.0,0.0,-1.7626009942457261,0.0,0.0,-1.6331099982259476,-9.701760317502961,15.246300921156832,7.583961478176441,10.284196579441497,-9.151969650778158,-11.787308331652895,-0.5822259138759254,8.502725007004262e-05,-11.363935236846123,-2.1485153722600567,2.7364576938086824e-05,20.157903857412098,21.242743910991393,9.567121632708313,10.830131527837752,-1.5218955792049238,-9.48936547652898,8.36415575617222,18.37637203954294,23.03416666753493,-15.705905733367247,-23.19602268773579,-13.912644545018837,121.3770708958983,-0.003786115956985401,-97.92669629462536,39.7321261708745,0.004599825263717751,98.1887589068804,-23.705132060251884,-1.0717936351814155,0.00035545350502379474,-14.18001806205066,-2.9243088074334302,0.0019309000423529225,17.41261716297478,8.020229098832898,44.77970391851063,2.348806761650038,-7.090722740978592,44.903681637518304,2.343827093798575,4.243040552963907,2.4544270226285745
-4.646755530537482,0.0,0.0,-1.520151591229553,0.0,0.0,-1.8988629221268487,-9.466177178782285,14.700306418262317,7.712487052268167,9.45512879034722,-8.771689875295014,-11.630221693805519,-0.5240668436019116,8.424688828800734e-05,-11.280707284510815,-2.170241636865676,-4.652873786880475e-05,20.1453092747452,21.502793579332728,9.788257957488694,10.900800690207365,-1.2946261387544757,-9.841673097976745,8.218390788342766,19.030739319765587,23.82578006615924,-16.41949731990576,-23.48998028814803,-14.68715527787344,122.16893032906285,-0.0033004136210902494,-95.89776179174004,39.84241727996747,0.0016953893139991924,98.27844778427848,-22.6950135755564,0.2567947552868211,0.0032955015765509577,-15.371661969038506,-3.4065873479800204,0.0018650219763788561,17.650932716314184,7.948247745619968,44.97374165952569,2.6350099349994673,-7.210101423035577,45.071877694151574,2.286230363401209,4.464962428966101,2.419568249811725
-4.017085869269844,0.0,0.0,-1.483301368868441,0.0,0.0,-2.555603038513013,-8.736781746478371,14.156746374462559,7.752381017363656,9.43024514698332,-8.656839580148056,-11.604456823796873,-0.5249804649287525,-0.00019599876054674843,-11.328503757148171,-2.154051197300032,-4.407029737165858e-05,20.113313634055817,21.696589438262766,10.20771805299576,10.973827780448598,-1.1695980657028882,-9.891401844191714,7.84936508211091,19.711724841277942,24.787910010065577,-16.92614215324659,-23.92754826813528,-15.157711276337684,123.17600053804874,-0.000676643355367089,-94.02663193766574,39.873650930159435,-0.0003625610941032955,98.94257187495015,-22.518139799421803,1.3080296391791337,-0.0026196121513203403,-16.79928242939612,-2.7152647131934824,-0.003881098370544296,17.62109894762128,7.715721079353314,45.42203821771386,2.714060782843934,-7.549401179121359,45.443995135396634,2.183849104797151,4.633150870678067,2.494407271542323
-3.5144167230918018,0.0,0.0,-1.444271700271693,0.0,0.0,-3.352972579447307,-8.52887974421712,14.353383554783049,7.743787748241497,9.979218999425319,-8.982874512234101,-11.549123493814053,-0.8604098063440478,-0.00014290412824086136,-11.413117738769094,-2.079509081578144,2.60371283065846e-05,20.135697032997857,21.99946060086105,10.071757863839135,11.041134748305435,-1.0722208714936363,-9.767195791205642,7.710847133940536,20.425688321115334,25.651151717945243,-17.365147310006556,-24.33674740994711,-15.666876632093407,124.10399246127174,-0.0037178876566346547,-92.20697035755938,40.377191352928946,0.00041358202847629913,99.02755767484922,-21.814778146578416,2.245203881828833,0.004178439067649126,-16.821144137260003,-2.2217273947916794,-0.0024293299821809685,17.52980410647657,7.646894719714917,45.87424843218767,2.7389545699044953,-7.730774631153137,45.86325803675769,2.066633704236754,4.7212461163921144,2.405201530386582
-3.908423835740194,0.0,0.0,-1.417417429635944,0.0,0.0,-3.4966888609526117,-8.378892890643021,14.7770623104734,7.453744982233221,10.170799461981485,-8.976240099258943,-11.781812831789354,-1.400615502350917,0.00046663343723199084,-11.308572953692142,-2.0598092966704766,-7.505603675164724e-06,20.19207625785896,22.577157410846052,9.887662640176249,10.893214798582594,-0.7831502235813188,-9.731827779054106,7.778407249779496,21.003522858719695,26.458760795582133,-17.901475964133013,-24.990434504545128,-15.983442625516616,125.03631897490322,0.009073895699882224,-92.44568212911861,41.10221971764149,-0.002185508730823688,99.48386026914015,-19.90943805471297,1.8401844714322417,-0.002717536624401506,-16.268547811931512,-1.355200196701433,0.00464490322321809,17.663282704190742,7.6676873642845536,46.25875256524933,2.9746716886553837,-7.807629062283232,46.24054199865316,1.8057298446447023,5.089887998392451,2.324364316224665
-4.135731501305066,0.0,0.0,-1.1774964785102557,0.0,0.0,-3.1958079365559096,-7.85839943067344,14.448003498163871,6.95984089949225,10.409576007113879,-8.548546264543884,-12.287790131750652,-1.7334956405453366,6.059689704005033e-05,-11.199195088600268,-2.2668401031842405,-6.623122485193518e-05,20.45211152550917,23.11654625144806,10.00785828110394,10.905768209694005,-0.4189555433990216,-10.000537358058077,7.904182192721924,22.03905965603378,26.847849625601725,-18.24552826746731,-25.715701555615315,-16.310259339536376,125.8115734347759,-0.0004886870680961867,-94.14888461020901,41.833876011825616,0.0002984160212108013,99.97761213399062,-20.061432615369228,0.8168839545383919,0.000858530751753721,-15.488070715520056,0.06198603148581658,0.003849140257155514,18.033416249231482,7.605373445173903,46.71134476119377,3.4629533494626523,-7.981215022481356,46.662845569983965,1.5211179773130699,5.556222501813268,2.48467318942155
-3.6381789382856295,0.0,0.0,-0.679493316241469,0.0,0.0,-3.019804176643765,-7.7405518743291655,13.592104297065418,6.725190834476612,10.988609504866753,-8.352796656154688,-12.836590874921788,-1.8135115464828118,-0.0006284781425269187,-11.178721465704712,-2.439044779692237,2.4128352426467773e-05,20.928757803947207,23.53313380656686,10.145975985139541,11.121243453921792,-0.12994585841733972,-10.075857963186458,8.032870068258676,23.39353150294946,27.043779182723984,-18.13306672633725,-26.28168134334464,-16.323339792140906,126.52786747302115,-0.0082823683130773,-93.40699194621132,42.112148408326554,-0.0003858084343585029,99.78721712722077,-21.74224161420393,0.6902990375217788,-0.0035575704548867944,-15.723465204635428,-0.8956643755981293,0.004985045563924256,18.617059100831426,7.364265471791487,46.87510724249738,4.081701929392532,-8.255387654928146,46.76039465548319,1.2623730403574032,5.874086835106461,2.8594391446296017
-3.9007654352211976,0.0,0.0,-0.4252653653091348,0.0,0.0,-3.014328981340089,-8.190185660021328,13.105475652239363,6.606477255051395,10.946776814133797,-8.028083131076954,-13.456609773889138,-1.881718154238945,-0.0001339276711217931,-11.212612890123877,-2.3161680134111537,-4.707116932193424e-05,21.42674998060606,23.698351701437243,10.393960754608212,11.244977997561735,-0.2089148346809376,-10.213473829919653,8.18480027625908,24.59600933424892,27.224218493109877,-17.776108795362106,-26.810649742875707,-15.697944226709424,127.4152782639131,0.0055828451971898325,-94.15287338020013,42.18018657817186,0.0002504596461785254,98.70090685856619,-23.684648411920534,-0.517884475423146,0.016581967498211173,-16.394868508130507,-2.3707121066174746,-0.0012101082007473219,19.003264055265902,7.346203386809261,46.947529173390556,4.486626986981491,-8.290884447452148,46.826079522771664,0.9668056018199099,5.87867364272933,3.046600071965779
-5.658786719970237,0.0,0.0,-1.613275466825832,0.0,0.0,-2.6290711215166707,-8.889108120051015,13.18355685605345,6.695045161045662,10.249298620974054,-8.374967544007902,-14.19072717616987,-2.2720975689871428,0.0012877822236538137,-11.250949668755103,-2.03167680300968,-7.543580483340086e-05,21.997123861815794,23.974174233649098,10.379795813466563,11.282864486742215,-0.2732662828457471,-10.030928300749288,8.571872874360333,25.690007162726417,27.207402072744856,-17.34601767917373,-27.375073736954377,-14.80961614613876,128.2297223829903,0.0063638198604128665,-97.89895155680814,42.45714326236412,0.000468214488712057,97.6270201757161,-24.742241136785328,-3.764820303872828,-0.001274784911926793,-16.147332302549792,-2.583692607501811,-0.0015591282621929626,19.238968641135262,7.355616325966778,47.01750581505133,4.741429007302595,-8.29916466163962,46.89636550199218,0.6204104248927962,5.941465083485628,3.0862509597701204
-6.042673550276699,0.0,0.0,-2.5370324829717887,0.0,0.0,-2.666651961119014,-9.221348954312214,12.75290278151134,6.871832708338123,9.526717637355725,-8.938092857371352,-15.023462521054745,-2.653078005544411,0.0002962266226979914,-11.212788133371825,-1.8457659252445144,-7.513164793238106e-06,22.80927140493239,24.183690602692305,10.056951713618147,11.150861528302274,-0.3135594450165428,-10.070409911557595,9.205877571964036,26.84137185858968,26.870798646199965,-16.627939246366704,-27.68426025749056,-14.08773006283785,128.53077718848775,-0.0032883883113800348,-100.65889312215376,42.664686954982095,-0.0009746067418998315,97.64259667555406,-23.43984792002228,-5.547169752451844,0.0038836414869103664,-15.460047173227107,-2.1261860523438694,-0.003156026081782666,19.474041656315727,6.935058016642017,46.74505038654576,4.887919816186521,-8.63837327393462,46.525044096163995,0.217659217654755,6.0757236101138234,3.2090362800620453
-3.587257445382427,0.0,0.0,-1.3909482014562886,0.0,0.0,-3.9975630193898666,-8.932274243845718,10.112267554720521,6.381986395686785,9.143439569012708,-8.10147397933737,-15.891932274045445,-2.529113224594979,-0.0019146328144599204,-11.023407855147747,-1.9443726095547194,-0.00016022915673944712,23.798947334780898,24.425247160241316,11.34214657098675,11.144491613862709,-0.3174255624544297,-11.23329606534258,10.069735831769222,27.9964158967421,26.31384019886527,-15.400877588026294,-28.01247205984496,-13.19687643051119,128.29936922072204,0.004921286739619002,-98.70889110448273,42.86107736546595,-0.0004890535799419785,98.21203510941751,-22.576378219393774,-3.185880318814811,0.003663022151686391,-13.99887547871391,-2.567475748270501,-0.004313158536451451,19.9791188694889,6.425609967502225,46.65016472214857,5.347659964391255,-9.107580723657868,46.30269662781541,-0.19628864683816266,6.291407741660505,3.448284347771179
-1.6523554013524022,0.0,0.0,-0.3159297087847542,0.0,0.0,-5.232091678284299,-8.700383971967927,7.251233970180897,5.9267387163800676,9.106119381403197,-7.402587500291329,-16.76775971479042,-2.3999909987395402,-0.001105348862013972,-10.705215354263984,-2.027044531763767,0.00015360251087379642,24.721508586199654,24.704483603847958,13.136422216691763,11.110907522182817,-0.35674345286188874,-12.352373614564767,11.078913972585976,29.276441933022564,25.528295108991657,-13.58738670514451,-28.355719711069714,-11.759732491060051,127.7870017747039,0.0026358976894065057,-95.95672292695009,42.632151525056884,0.001929518221667041,98.43678104210875,-24.598101606473694,-1.0304239082911595,0.0026336953748783924,-13.398008801658477,-3.182820642210785,0.003296106521423377,20.701467927382367,6.038619325150483,46.06936215896589,5.90035230262801,-9.3351985167343,45.637353939832344,-0.5431402021959464,6.50468924893073,3.791921492747686
-2.985679504760384,0.0,0.0,-0.908287443526025,0.0,0.0,-5.318776304551672,-9.026043451292205,7.1064325106752015,6.323898987683852,9.711526305051317,-8.582429565166978,-17.79015238777036,-3.052068794438314,0.0011420268234978402,-10.441838775545095,-1.9115255702860365,0.00018447345413891546,25.669304322985933,24.768508499670606,12.565777520277804,10.76519689645712,-0.5572087868665485,-12.583770448109583,11.925431673825404,30.31666879489277,25.44209903323453,-11.037372513477289,-28.453642893264938,-9.967560892313562,127.00080946275109,-0.013720932239181562,-97.16106070942828,41.644213093208,2.252141213740451e-05,99.42608930162942,-26.11452885063224,-0.7667827807962113,0.011227820885045479,-14.032581744007436,-3.690199878721256,0.0022726786301018958,21.545492247845424,5.62986981423756,45.49814581804996,6.577286778342004,-9.584280490219186,44.97415327393529,-1.0726146941045065,6.597271757355672,3.8029312233034607
-3.93580389713797,0.0,0.0,-1.2801626276987068,0.0,0.0,-5.269133753493886,-9.65545941626357,7.609079707978884,6.77743096159692,10.119817004395571,-10.19016499499726,-19.43918991854132,-3.9253249305018882,0.0007164392718415407,-10.640262794113967,-1.7415204195341611,-0.0002658500079628104,26.80925578997185,25.11080541432907,11.614182964940134,10.637080370822936,-0.6664591120009445,-12.18554516530918,12.534457466317079,31.532847533600343,26.07183408728105,-8.326790535864157,-28.47548911610726,-7.458694203363062,125.99871267823474,-0.0024065154192145833,-98.67684473378057,41.680330776544004,-0.009396236353432171,101.43015208189689,-24.766763659561175,-1.039187839947724,0.0025145938127532114,-14.685194666895404,-2.7183510028178803,-0.002767152336207302,22.434320770846995,5.479992577065907,45.589697372337014,7.483397833738686,-9.752582333450256,45.02420450382851,-2.083935641583981,6.731297631863956,4.002475643884185
-3.884537158797878,0.0,0.0,-0.697640255816727,0.0,0.0,-5.44016006362925,-9.472757549530439,7.024441803749621,6.6480928225905345,9.930025390162946,-11.194693220458264,-21.45224438920386,-4.622647471245736,-0.0005262854640275604,-10.903916496131577,-1.6163915968372842,-0.00013706436415751718,27.813015662772266,26.009862257246507,11.895660057270666,10.455760107122261,-0.44524420871707665,-11.759847514623392,13.087005398037824,33.38743066144535,26.32742441561338,-5.32985124664313,-28.793319268039557,-3.583539828582718,124.51255535024711,0.023062840189363807,-96.15276057532061,42.06634938154189,-0.0022348333934928124,101.15250638275238,-22.737386080590476,-1.0534406400636038,0.008864525317671346,-14.580405969872336,-1.7239566346980617,0.0010843004002818288,22.95560596340518,5.349578550716405,45.62231066384239,8.00737528407483,-9.88696176161091,45.02190025514521,-3.240177636200685,7.047610800450421,4.758681082615559
-4.006981230320096,0.0,0.0,-0.39554765847343043,0.0,0.0,-5.498286208964482,-8.173410218602331,5.553132211356958,6.430990815457086,9.82904838805818,-11.20632920534051,-23.150046817928494,-5.335661430048735,5.592019423569902e-06,-10.699570962096479,-1.5922147544205745,-5.623641014817469e-05,28.734905888646143,26.78192065455437,12.610608709434054,9.964534189685027,-0.26974201685739296,-12.351898537514664,13.72900999118161,35.057983001841485,25.77716549549895,-2.584201322686593,-28.76582686189302,0.2705366400388939,122.38033029474457,0.0011264161428603471,-93.86987356967185,41.8952002283506,-0.00017310112617249858,99.34287508419207,-21.440937717735274,-1.357468637155474,0.009140237291402798,-13.455080275271406,-2.2472178270636003,-0.0013841606998695674,23.399604516981093,5.028140376138658,45.34627517235898,8.36487602425774,-10.126347438802723,44.66781927308795,-3.8575906098058703,7.317105822551296,5.317150060614724
-4.255731675433277,0.0,0.0,-0.6374322113890052,0.0,0.0,-5.171477450598124,-7.9195648376405945,4.468319974100788,6.644245203157501,9.842321090361706,-11.204716505524845,-24.530800237061182,-6.278071084796844,0.0005233154320650382,-10.294894914599807,-1.4932508837669674,0.00010569677234041717,29.415550320231493,27.18063454310019,12.940215357830462,9.137466088010049,-0.3507639612691179,-13.134966317907347,14.500476026467142,36.26625207757558,24.48243713158945,-0.14583368286974407,-27.9834308295027,2.9103269478537137,119.49237986230065,-0.012602154928869526,-94.16136692562617,41.340765525156144,0.005075444748869413,99.5015469909781,-20.21160216101883,-1.7185353724687011,0.019765130757421166,-13.070843313593674,-3.168155112566795,0.00029864068125070014,23.770365226099663,4.6738130780258835,44.464372452554116,8.492072550714877,-10.238591865519492,43.711951697101455,-4.421599836565356,7.45914663419906,5.715441507218783
-3.8313948519678576,0.0,0.0,-0.6369431768374768,0.0,0.0,-4.453266213703176,-7.953737736561327,4.255114450956236,6.734504435198025,9.854845206209847,-11.868003773320451,-25.838641251340647,-7.039494787129199,-0.0014484314109206142,-9.807347921436595,-1.3278443056806062,4.9695578813538085e-05,29.7766949532349,27.22734360021807,13.233968497781333,7.849539196109211,-0.5774920689545278,-13.6063136227246,15.339220910534356,37.25688934797804,22.96736297326141,2.2621177450813517,-27.22808712417065,5.290252719292155,115.1018456753336,-0.010785725476699705,-95.15072545394622,40.98646765743176,0.0010520702896244887,100.2316026059838,-17.895975924155707,0.0010634316292736923,0.024997239964736295,-13.098572062016727,-2.9550749032108587,-0.00012359979216783727,23.654389740724973,4.051908005160063,43.600559421354696,8.127223706385863,-10.609384259214737,42.699678662343615,-5.171034170833854,7.739364737555699,6.147385373344605
-3.2461622558567256,0.0,0.0,-0.4901345118234308,0.0,0.0,-3.4904176827937694,-6.558782767161836,4.907757313029846,6.690616493987375,9.801859722295086,-12.59571720532654,-27.366327266536178,-7.677229104508549,0.001291822064428943,-9.278098581033325,-1.1828249010100322,2.186545690973446e-05,30.67839563376264,27.149750641681084,13.67154463068753,6.856809994144336,-0.8906864822479075,-14.051762910531505,15.332205306748646,38.469932402114786,21.724527963644206,4.797381928230001,-26.34739306529812,7.859235086895716,109.82647264766955,0.01992904544145527,-95.07057188413593,41.38573886355864,0.0020479404942850546,99.33017458016805,-16.22901226965878,1.245261951257733,-0.0024291758956035145,-12.224164445613647,-2.116008124029047,0.002452063336656762,23.26897241451834,3.61574495857646,43.152779682056526,7.607807504610664,-10.909399634633175,42.14230420205046,-5.2301012833796205,7.981974109473208,6.338107703855372
-3.0114919367219115,0.0,0.0,-0.3456374670443876,0.0,0.0,-2.490761300258303,-5.100589730536197,7.618080384498599,7.016926277808639,9.637064658268375,-13.604305430799888,-28.93072278139466,-8.417152802159666,0.002087487245420395,-8.889723776266468,-1.0500012194671087,1.3350707315082368e-05,31.678226672650787,27.148689990604712,13.821191054295005,6.033486846791277,-1.0987582425776659,-14.09626593717421,14.349601904718085,39.82723394665341,21.25768434849077,7.605978592998771,-25.033010711454388,10.197194269241734,104.1808491644188,-0.03228811480292683,-94.81403588081083,41.935178499336764,0.0005759022176167834,97.92346734290614,-15.580668523612939,1.2314756008155312,0.002619211129293812,-11.219087565182983,-2.0187561742735696,-0.001570703788973588,22.87842109189614,3.3897906591272116,43.1310131528337,7.199977337269305,-11.12108058029446,42.058819837285526,-5.095942284669484,8.085826919834473,6.416521079020852
-2.4210765940989556,0.0,0.0,-1.0016515105904666,0.0,0.0,-1.7832021728368965,-4.201494830695622,11.881899120209924,7.698035968266399,9.566218181179469,-14.132252771063017,-30.032935613188155,-8.553856262804388,-0.0017349991467437288,-8.686033964434817,-1.077373886989846,-7.941952625236389e-05,32.27189888727327,26.930588743317603,14.651043191086249,5.088417352933521,-1.2993001349472864,-14.611079045614783,13.533442925673778,40.79357636687302,20.847922156951856,10.311175616476765,-23.49065513879922,12.60540203027496,97.38021812377461,-0.017671761541320087,-94.1582939622707,42.45305082761871,-0.003867878268550118,97.5310287012072,-14.328648290192376,3.4807033844504986,0.02662218492789774,-10.86375927516729,-3.1584621934935693,-0.0037188714249863346,22.567238749494123,3.19844599255739,42.92412905602449,6.8273529998212625,-11.24935052194276,41.80332605197357,-5.039369455923484,8.075656432889394,6.804511873846228
-1.9575265233350634,0.0,0.0,-1.7333145293717052,0.0,0.0,-1.3213924024768156,-4.03379133191002,15.504543189451656,8.290769655134763,9.32954951613436,-14.648680744716682,-30.472070677268285,-8.060581768396812,-0.00035163156184610803,-8.333911669176361,-1.0852429297560715,0.00017907870268831741,32.382969245424384,26.50047909460647,16.217542720704195,3.7196648360148856,-1.5208703372587582,-15.345605837179642,13.6164914077057,41.45549769770834,19.138444851671373,12.826686210683572,-21.57823732713725,15.234524825582575,89.5791744372142,0.11915495698070144,-91.5965267895708,43.49762332726409,0.005709346231965106,97.83068360932921,-13.613717081521257,5.1671263243369925,0.006745802013919126,-11.265904504722998,-4.103577839978362,-0.00198188051478528,22.609515814976767,2.9087244823398337,41.87936674266413,6.598672630590666,-11.24264626525119,40.69939634582126,-5.024650436993863,7.967023870124731,7.358938430827173
-1.3566415768649593,0.0,0.0,-1.4056062279262198,0.0,0.0,-0.9718425023699149,-3.4040297366509518,18.495201267866353,8.673162850901647,9.216622813480805,-15.125629078644632,-30.5534269784345,-7.764621516139058,0.0003667163210410489,-7.940581923901311,-1.015349374902972,-5.999439357918807e-05,32.74124511471136,26.309923301201025,17.027614338756496,2.4295746320086073,-1.4608364353995635,-16.324616681016366,14.337842535589186,41.8135292072866,17.00858075045183,15.275111259286646,-19.260642689644634,17.34952166981574,80.80032025660172,0.08437149370832017,-89.06238201757786,45.10042884604202,0.0054966339730300635,97.42877139235115,-13.474234224057493,4.427340918433562,0.0018290300969095708,-12.386961750737154,-4.299939785197996,0.0020170443882643776,22.690711090283955,2.2802893595094282,40.19441604598539,6.245232254831187,-11.375583290684974,38.872131351497835,-4.731976559084405,8.080636106974243,7.892877524784019
-0.6585753607239448,0.0,0.0,-0.8812590459192035,0.0,0.0,-0.6299818485635525,-2.51150450604245,21.130262820686408,8.99783127595069,9.349348952891079,-15.632629154528544,-30.581514212471838,-7.676035427397216,6.524943042988543e-05,-7.737973458564056,-0.9177296906546891,-3.7861584092393195e-05,33.462341367603706,26.526557519765838,17.20609855691234,1.5497048873245087,-1.1348793009778224,-17.300265820970417,14.01203765770599,42.055508891205456,15.571388731417041,17.59715132353591,-16.98797704028004,19.28896049853349,71.61580393149167,-0.19477548383160365,-94.18377044546614,47.24966834831633,-0.028177006172599002,98.72708747154562,-13.567980389562106,2.882962859013254,-0.007975016147746953,-12.314581296055483,-3.575445474875794,0.013359608947137426,22.57420541688529,1.6501019622077362,39.0112029105343,5.820709934025731,-11.641717978881267,37.53191075860726,-4.0160014292466,8.567171951795821,8.486856793383195
0.466139458913463,0.0,0.0,-0.9859725261534531,0.0,0.0,-0.9341705755253676,-2.099286247745376,23.58244620800631,9.21875692919112,9.42288644040995,-16.246762685505757,-30.333389977683005,-7.555847330663129,-4.104810341858978e-05,-7.450736621573008,-0.8060541547474546,0.00013306421169846297,33.87589134750811,26.684714529696283,17.62495737083622,0.6566051574015769,-0.8979263826906873,-17.88849459872518,11.859022996702086,42.14087852202771,14.972628703627048,19.7788118780943,-14.781837849201057,21.446190700787096,63.287394094296175,-0.03617443669912067,-103.24161580512775,49.908867115833985,0.00505751483629006,99.72908666810142,-13.221472379208775,2.160810556273425,0.04199323805458876,-10.318187020453452,-3.366602878279421,-0.0007590936446782206,22.594181994519428,1.4179403404550819,39.334358722879735,5.90006333647821,-11.956967979071194,37.77973415124625,-3.327259517644935,9.055929297890726,8.9195505052263
1.0724459239004291,0.0,0.0,-1.697488483936102,0.0,0.0,-1.8318416491457272,-1.8603635542801924,26.057291003178523,9.715353611971942,9.349268476831872,-16.882316612120924,-29.935204648220587,-7.459120991640254,-0.0001627690725460135,-6.942523325732376,-0.8092709044705833,-0.00011063324300546335,34.156384116803856,26.370440631149584,17.956993433219104,-0.498774054468125,-0.7031218629624931,-18.45035796683025,9.635546818255447,41.89303585578628,15.790941973364145,21.772384401287592,-12.189797056630384,23.050445347085983,54.77671135218516,0.04835204045905513,-107.96924883173438,52.61227257844908,0.02205079161292896,97.97544267628741,-9.25581866610902,7.170822976442595,0.1494547776275126,-8.991585939739101,-4.6447557555848915,-0.003765227686381242,22.552455791084626,1.505061728712963,39.33985346735516,5.864850868601647,-11.875112670606935,37.81069426403843,-2.645509519388028,8.989270340552315,9.334222004537628
0.8138055812961476,0.0,0.0,-1.5598916879238232,0.0,0.0,-2.7255490764060464,-2.270915513795472,27.02536272166994,10.084242081444549,8.95358617142148,-18.095774908282326,-30.41270768093827,-7.466521300295624,0.0011698235523863476,-6.025440692674677,-0.8712387834543812,-0.00032766116882328194,34.50183166339826,26.35737587148163,18.515967179077375,-2.457683015708566,-0.022632040055589428,-18.75763990282885,7.997110816525091,41.04492456088024,15.786065495092798,23.832001482297052,-9.646468746183542,24.612767916575663,48.40593677941219,0.008485258088929365,-110.3043133481696,55.38577414933658,-0.0049917865723419635,97.344679873846,-6.691278986620286,8.473509517202586,0.016134419759647706,-11.97479243489937,-3.1511376749612494,-0.07613174978840397,22.093414540566673,1.6522599816290906,37.99068734760364,5.112178311275555,-11.343639375363912,36.536383592509324,-2.164190297818227,8.771693288962183,9.841738480814405
0.473763951733452,0.0,0.0,-0.16630304308289817,0.0,0.0,-3.747728627838682,-3.410263521411809,25.978374990960326,9.87278181264448,8.858610178744808,-18.812802799508365,-31.912838879928366,-7.535973607622543,0.001201856233064941,-5.335941699458276,-0.8542327842165585,9.679633063234454e-05,34.89152740152862,26.84580785126466,19.830449903831756,-4.456998176990776,0.6389963675736765,-19.120580906682154,4.97870739000857,39.21332682787617,15.886495180277452,26.08537473288109,-7.623563252416113,26.203854467535056,46.26552501201964,0.007809282245533081,-110.68059893565542,57.98048912421951,-0.014239564976388144,98.72749030241505,-7.632566279229293,2.6381428620947163,0.017557216628917807,-15.317090716101028,-1.3155219656473982,-0.027771853279030683,21.632021320110617,1.7280676302501208,36.37515980922262,4.3056328368618875,-10.794888325464335,34.98691952790849,-1.523818058729618,8.743504882968436,10.499478408439197
-0.07008741662828719,0.0,0.0,0.8462913900739538,0.0,0.0,-4.001141013217677,-3.7873112837954244,24.330086073643855,9.70581228768911,8.905435547022995,-18.754559793579002,-33.42378568989925,-7.160936181346403,-0.002582735659536378,-5.275058507362694,-0.6449446120906134,0.0005520388655398289,35.47061922839656,26.673636676578155,21.21796866888166,-5.665636959132077,0.6535693042161241,-20.165002832734743,1.0526682427791665,36.67315134595516,18.212910237341642,27.718886710467327,-6.382134117415036,26.586424837747987,45.11065276717403,0.026360722289122635,-107.76662370706283,61.08056272916806,-0.007854402037066504,100.26539750272362,-8.287752563814028,-0.8905355131876759,-0.009846858058079505,-13.249819018797652,-0.42796863290338016,0.013394679220355615,21.358437137567957,1.5667737756709645,34.74736102541355,3.684934064297714,-10.45941605933296,33.358678583924444,-0.13702983004504438,8.55001642722457,11.428087757082713
-0.19965879603275025,0.0,0.0,1.2035353285821566,0.0,0.0,-2.532014656504296,-3.1427268117161895,23.73893421964502,10.060688693433994,9.43014069772431,-19.52577758034832,-34.77620194109427,-6.587521624208051,-7.174206014549422e-05,-5.618687478717859,-0.14002394977912128,0.0007881487733642276,35.89399127364273,25.463335461394312,21.20380034943231,-7.184726372666985,0.2168694013007235,-21.034880876483417,-2.1653518692373814,34.02042049972394,19.62382532470402,28.74509470694007,-6.103364332097917,27.293375740603874,45.071749274633696,-0.040325528760411095,-101.04210844128097,64.17423058482282,0.011994527542365104,99.93084881159275,-8.119230148106947,-0.844863233230652,-0.009629560403953552,-12.247255049586204,0.9768511909222988,-0.00097827005228664,20.571332042118268,1.493630078394889,32.167886243180746,2.3879622760331745,-9.735117536718716,30.8438916332381,1.481875259747398,8.000113822872487,12.36255191328002
0.8847388426960052,0.0,0.0,2.3798031819738346,0.0,0.0,-0.6260379660393718,-2.081345760291416,24.017091532127797,10.509314086831777,10.198168935340865,-21.13308847530171,-36.099900551504525,-6.395137130050473,0.0006235659041869894,-6.697008927284767,0.6106133833119608,-0.0003777315412922094,36.08187131310022,23.941750515777425,19.93947749573254,-8.847112954268542,-0.382893709481845,-20.80419056305443,-5.298765392443647,31.671694855216792,18.79017023478199,29.19636418130793,-6.455438076580373,27.5015333981265,47.50465003627175,-0.004742538136730737,-96.85317293335063,66.1899771263966,0.0044567868605107095,98.4855179291477,-8.711184720105363,-1.6360910386048935,0.011366801021509537,-13.7995853216201,0.8292465902569751,0.0013231408395846054,19.834807357421283,1.4157233100061526,28.239962013907316,0.9480030770339238,-8.56027551840972,27.047914371409302,3.1165446767759852,7.325870801290374,13.553369334256686
1.8164871728915555,0.0,0.0,4.180832755733856,0.0,0.0,1.4479232752293223,-1.1315611980134284,23.4265557445468,10.231353932362708,10.81139026336774,-21.737910941927765,-37.107661994853736,-6.1500752871138085,-0.0004771271704133906,-9.095221629148659,1.2907781556707012,9.747026340201084e-05,36.20991829048619,22.539674534121197,18.68575205420635,-9.793826615208676,-0.7652811030986152,-20.872935958641648,-8.719525264341993,30.21890081771672,16.885982750636632,29.1622366873938,-7.306513313436406,26.445901708903655,50.80033962542737,0.06154955310586071,-99.87183981235377,67.26706283906115,-0.0011500177259606054,97.39525537133875,-10.549571761789155,-4.307648276011193,0.02005368465559773,-15.090502217162701,1.6747783841167314,0.003509636615843915,19.4692107784114,1.3433050784346559,23.83535025159125,-0.10194889494630471,-7.177789278557447,22.826753093452318,4.864797724400006,6.857537043541081,14.615985932343396
2.2045122698498454,0.0,0.0,6.38844317401456,0.0,0.0,3.82787246551734,-0.8441025232131661,22.321751120223798,7.869432005108692,12.270831146733562,-20.337879006804965,-37.41432166734318,-5.877179229926319,0.00014679948771850472,-12.67857380358932,1.8935982555687738,0.0015659435870849499,35.88644989643102,21.17755154247,17.045693091289817,-10.180129385049378,-1.1116271075282869,-21.74550989581503,-11.60546949488515,29.166352130667725,16.287145077726024,29.379869407198957,-8.929456735733188,25.473356568926615,53.45027382845442,-0.0049498713294258,-102.90692201500377,67.08448957140544,-0.002167582010463764,95.68799607160601,-10.579250124067713,-4.611368769632985,0.004776172772513145,-15.415453258709984,3.3700177043556883,0.0031369387284036505,18.525759912856135,1.620007959337426,19.638121843355385,-1.5819329421935047,-5.492974784663204,18.950272182456416,6.537241654997179,6.497156722552995,15.1449039925605
2.4823080667479243,0.0,0.0,10.049257699718803,0.0,0.0,5.9087178576912525,-0.8181521206042512,21.260590001119702,1.9965020509885874,14.203623504972839,-16.816261578991327,-37.355898954570236,-5.684900459165441,-7.26696292819118e-05,-17.442723722355836,2.5696562612256124,0.0031268499627847843,35.05456528908746,20.214538405243687,15.090691022545105,-10.087844351693207,-1.748206607110398,-22.205120779997515,-14.098541974704919,27.809456294217412,17.19239750768957,29.52789299954952,-10.962635395744556,24.379805700436645,56.05450325858591,-0.031193474625075355,-101.23737075009404,65.40904609107534,0.0060287947556149964,94.6099053565938,-7.3999027994334305,-4.062759986319175,-0.006079620102061469,-14.909782783821578,3.531945521392676,-0.008924734613010729,16.660706393478755,1.8069270945101314,15.510375662276317,-3.8825959623808246,-3.8840338065715367,15.133524760772955,8.119142073800171,6.564353742087497,15.694508908476228
2.121824687333852,0.0,0.0,11.193366595746541,0.0,0.0,7.230737335400075,-0.28494197563020357,20.18270755278564,-6.9511668154058635,15.189483638097458,-10.783904349184672,-37.183581444055186,-5.313900310542735,9.914754330380314e-05,-23.235026411361005,3.5040021730908575,0.0011586241419712538,33.75708163343044,19.226229920446055,13.445645434859445,-9.794819494786722,-3.1410606989858096,-21.878925126144953,-16.024927149757186,26.531640912589037,17.91664927247491,28.78140891407873,-13.419296893424038,22.789185839227184,58.111948462523735,-0.006064576123474957,-98.33090258417701,62.47358348060147,-0.009890873555255615,94.42971014327377,-4.833422725990829,-4.26593776596673,-0.0020766598853510245,-13.07504604187686,3.2615980592944895,-0.004544065571572101,14.846942094099225,1.3602760935551383,11.057620947680467,-6.06906647558823,-2.725500739280962,10.805461112641575,9.552306364586602,6.9089214644234245,16.244730767395744
2.106295476269934,0.0,0.0,4.069376415683802,0.0,0.0,7.926255530460631,0.13199211885850357,18.752099173549027,-16.716934061816033,13.349662504942222,-2.5907231784205935,-37.22874110689496,-4.884003614339542,0.0007739605481549927,-29.859096616472964,4.79519766837064,-0.009202902818925215,32.20629079761191,17.972524984088214,11.71167422382689,-9.430791370460037,-5.0579091704131995,-20.390601499354187,-16.997242895939753,25.746489800211428,17.685226756240546,27.306004106450416,-16.21875915557164,21.50740252860023,60.19954966461913,0.018458493736169597,-97.35925582109327,58.71204075765053,0.03612481270993062,94.73327003642362,-4.472357899812363,-6.162791868773402,0.015667221570095775,-12.207206453869402,4.9379399269545825,-0.0038879488210271864,13.32004891057125,0.9132360767999286,6.382547965696117,-7.8543108707996465,-1.4633286910423688,6.2797112375939355,10.418749754304903,7.078457342392286,16.23823535095842
3.7965463665971524,0.0,0.0,-9.266955208609591,0.0,0.0,8.545940620445124,-0.007140811592320791,17.782701785331497,-26.292350314028123,8.608938256706315,5.8712929350102225,-37.56745769439963,-5.684887973383988,0.001502396810749225,-38.32969924343962,6.111492171471983,-0.005990269371426546,30.82540701159743,17.66538415744225,8.501604511957426,-8.031568720011874,-6.627034291744855,-18.010664760978063,-17.201216803441653,25.753577339977543,16.512153444176995,25.87250871267544,-18.77871963602531,19.627270870991193,63.61117184199584,0.03897568028343246,-98.26965250437127,53.103746533096505,-0.013795005601264305,95.4608190374035,-4.921397813191206,-8.757342824988346,0.008918842925943804,-11.4481952782377,5.102449728928911,-0.01214624261878689,12.066178051065744,0.860306026303799,1.8837009752649438,-9.227318211747887,0.11725273202481322,2.067471944962952,10.853954856114255,7.445778029334561,15.89747013865926
4.764846553643551,0.0,0.0,-23.032142584953743,0.0,0.0,9.669133983122292,-0.4293887859956377,16.52126122684322,-34.77715607137118,3.008165466561994,12.86629266115728,-37.70370762513062,-6.31816088562434,-0.00043407368682693315,-49.306202122192445,6.738474089807992,0.00969085435648143,29.15076239060823,18.001111264371595,5.683359498231789,-5.599842810850912,-8.11527847590944,-16.18279164948943,-16.790560866279538,26.060161816883983,15.668840822248672,23.894238201881482,-21.294863301615354,15.858977653893787,67.81033163634339,-0.03784099311007795,-96.8786155353662,45.985989392339796,-0.07146697679917055,94.03613227804355,-2.737231819763481,-8.041786805525993,0.02616123335640152,-10.882083837111878,1.4699215712908846,0.008475805061159126,11.24954448193663,0.819975169581688,-2.692389815990915,-10.041646538427885,1.7419711328277947,-2.2108460542769084,10.853297951351484,8.140084422529899,15.71881140827251
5.24801449196244,0.0,0.0,-30.02337699959864,0.0,0.0,10.410063381755203,-0.47248068361913764,14.381305558027229,-40.56180129079174,-1.0837586371513035,15.869635367096746,-37.636405699041134,-6.175739589600201,-0.0003912535215403593,-61.20760866685486,7.084444646232554,-0.031032912548871246,27.71645662647668,18.207734166653044,3.55574447617358,-2.4857000641950857,-9.566184154946306,-14.513165167630856,-15.668831154384813,26.759082820806885,14.114861117718542,20.787060457275825,-23.66213620425102,10.721205884837453,71.72876386050203,-0.030192705355551904,-92.37772707815506,39.58628598011331,0.025357476590814956,94.2245265362096,-0.159406667852485,-6.225846791562886,0.002313767727353362,-11.075364680910022,-0.5633922366544134,0.007937909984216833,10.520250444025937,0.9370366200073598,-7.103830761132431,-10.65405150505678,3.44920161814818,-6.284005386473129,10.830977033980417,8.94793943972545,14.974335110526233
6.017734693777709,0.0,0.0,-32.601898321758064,0.0,0.0,10.636311969948027,0.22766938888580057,11.674511313949541,-44.06888745832579,-1.7350831208270012,12.596972040401802,-37.60077879596254,-6.0904248592793255,-0.0002604737327981398,-72.78539627684377,6.8529506805782665,0.03615795590267814,26.383289715299163,18.860620697266512,2.0017826541980672,0.9631382361339192,-10.852008349413875,-13.04360857961246,-13.393396205039739,28.03312914839434,11.029881984392075,16.837352733571993,-25.674153162239456,5.346196156778878,74.76583269173635,0.007108466383360371,-89.70289407202398,34.018294342387385,0.05713384428015415,98.09076972644343,0.9005722050432362,-5.335505861739828,-0.009957132546568307,-10.852000984922615,0.4438527174396891,0.0015549156621959823,9.550203901824505,1.1380162579867343,-10.814609662309826,-11.44168385385714,4.971735788197066,-9.682618480008651,10.55238525485679,9.83463605887232,13.454996346760165
6.099803989894322,0.0,0.0,-34.06414620494764,0.0,0.0,10.949236373856637,0.3456949752067317,8.408549204993502,-47.02793710756486,0.512536863416795,6.030400782251167,-37.48270933525677,-5.842223189582721,0.0010913785405964572,-83.7901332828579,5.423662520754274,0.0177922881255751,24.590767748838992,19.78430540359814,2.08140288190876,5.016362658240486,-13.330829739882894,-11.55266283025924,-10.219658071197829,29.647992510978572,6.730110438157832,12.653367919352501,-27.37289066409893,1.1737801668793186,77.21173732226762,0.01789774842073333,-90.01922099358366,28.55738213302756,-0.02023607160788589,100.98641468501334,-0.6629940216856895,-4.549104698280649,-0.0005291243182896904,-9.76279935545905,0.9728409391683874,-0.004514953684282799,8.42315089493095,1.2517992181866207,-13.33284633804189,-12.399741764982352,5.97661509101415,-12.00450245579738,9.860449705609328,10.359702215551788,11.6755593641897
6.15418180947804,0.0,0.0,-35.18373276115697,0.0,0.0,10.892885368829555,-0.4423437231190858,5.490683942422384,-47.94905582246251,-0.3709452199958745,2.2092657049676343,-36.93660550682652,-5.475602482568795,0.00018260353605541963,-94.24721663350383,5.033405670863957,-0.08821621841258957,23.032545771779017,19.69948498771152,2.7181423577331256,10.531487213631813,-17.969809536665313,-8.218651866807821,-6.962257889427872,31.207877780948664,2.4824897910520005,8.335331133422752,-28.70968922831341,-2.6391654395072495,79.71409703458893,0.016845810785430373,-92.52631903570867,23.39643817474582,0.002763877212180092,102.3057224886639,-3.7229232767972325,-5.794892845368856,0.019184210527597834,-8.321709263269412,0.8865678839376285,-0.006413865625880028,7.617376483718568,1.591612049600518,-14.668111383773162,-13.11271229654212,6.767833020871034,-13.139025717487238,9.555112196928453,9.741233245422285,9.43606433648043
6.4588005106934006,0.0,0.0,-39.43225260263017,0.0,0.0,10.788788446620819,-0.5780082935126426,3.190413267208982,-45.012735902985,-4.097492186336532,0.9275147145641051,-36.13335522846018,-5.814017886483923,-0.0021650859300687223,-103.79730796781489,3.0964116378586115,0.0589454674567338,20.90358652533478,19.93467165831965,3.1938978482413645,17.177096937923896,-22.824142264481818,-5.250514266613481,-3.504335927356342,32.8664102456974,-1.4148760686376378,4.38523588213747,-29.48423472637349,-7.608356632756165,82.205639895052,-0.028606958166149825,-93.53152289068183,18.401454176585816,-0.016073928075953165,102.64646147566637,-4.513644305714875,-7.052533404967062,-0.007739612195884099,-7.71223142613074,1.136765881093107,-0.006723599929641611,7.330397755997886,2.12312113324822,-14.888724172006304,-13.404599499015534,7.342989142967483,-13.157218487945938,8.549214218202945,9.092293838740822,6.744123961044003
6.302727914977235,0.0,0.0,-51.62529236989635,0.0,0.0,11.076733909035463,-0.9234960747246126,1.0554104455283089,-41.978552573162766,-4.141531763063742,-1.427099143847947,-35.77649167131795,-6.041916432670981,0.00018494424448046136,-110.46907483671008,-2.2026510025645254,0.03302768252535754,18.14321865449633,21.499506995319244,4.486219858696642,24.678183876504733,-26.195626556504937,-3.524997452243694,0.44997311356106756,35.259536122831285,-6.125056660285942,0.4134995996300666,-29.92064754349963,-13.841644539243182,84.69490839878695,-0.0036232253782885514,-93.84803348727176,14.40660688740984,-0.004463172129813172,102.17828869536044,-2.5157553721065025,-7.421487172235844,-0.008081992396217916,-5.409993131299242,1.113282133431178,-0.0036248093283476643,6.850042286239525,2.934767892676261,-14.126954658072348,-13.984491487423481,7.831749631446604,-12.148880813061922,6.629865880778926,9.418012882568128,4.071731325050159
6.5175930794550565,0.0,0.0,-68.62320552742722,0.0,0.0,10.831548011708463,-2.297166960121812,-0.2214684586075166,-39.33230431717889,-1.0084932843289416,-5.396634805820731,-35.65821475164824,-6.228936588487478,0.000399334979107676,-114.10250629134225,-7.031043419150376,-0.015821774654213337,15.60955022343919,23.361821825905757,5.478365906865086,33.03583134224864,-28.383143426514202,-0.6540669173260214,4.084059864973023,38.093818672179026,-11.465552261407328,-4.134520738620767,-30.496009770318807,-18.811863148885063,86.82200268272776,0.0321796326107181,-98.5340340702881,11.629207247494687,0.01134846891267173,102.2474103404557,0.019761646724419605,-5.927878646677404,0.013454185320984703,-4.3424625823794045,1.6215012989824635,-0.0058839863860869045,6.208580401423409,3.6462761468765152,-13.351630259112122,-14.71919042066838,8.220639478577118,-11.16239641230366,4.765618501294354,10.184630290386549,1.2780068745461048
7.1024951776311624,0.0,0.0,-73.92251306931558,0.0,0.0,9.878759664338858,-3.6731042732916666,-1.0613088272431794,-37.712317047847975,1.8479519427587805,-8.56964022172835,-34.79740017449763,-6.891621097888001,-0.0013768654246082677,-115.81288551922098,-11.599195354747048,-0.003825519553747409,11.922048896473882,25.599595259259527,5.566486240217897,40.842488013329266,-29.942225613868086,0.7329389949174822,8.034564501255948,40.935538045577225,-17.4613492182257,-8.995634529985232,-31.187441680207115,-21.89679851123277,88.09450245756284,-0.003995034593824989,-102.13782457298049,9.856958056746294,0.010609323991185898,103.32912488619652,-0.016746122489937565,-1.754452147453841,-0.02411793563574651,-5.436270875715622,4.419264055303,-0.011666263151233966,6.108297625622889,4.003297414123529,-12.596838333946913,-14.889650375185244,8.284591052122988,-10.32272295356548,1.825953554588566,11.422896103947496,-1.9070074959895638
6.3024775413105125,0.0,0.0,-69.33544422424445,0.0,0.0,8.854525772748124,-4.51340841005443,-1.90210390925337,-38.856394649436425,1.8389400749269111,-10.063982409366155,-33.60611146332827,-7.666150326510179,-0.0019500659013471976,-114.74632746117318,-15.18496208277409,-0.018557663653466724,8.029765100859018,28.906680731647924,4.633574741107912,47.790578677463245,-30.937768488181682,-0.04526810467887162,13.405108548933638,43.60026554059732,-24.46156620895975,-14.310422830630571,-31.966345896457764,-22.315190072434625,88.76842148039015,0.0007963939076719544,-101.22271250904919,9.204206621715844,-0.011864825804626049,102.24707828312559,-1.2253571808906647,0.8918705992014802,-0.0069886628826903545,-5.143469244355392,10.551773943987207,0.04623646401917676,6.417832083348071,4.245650128009579,-11.623826372169004,-14.653630651419029,8.162448365275386,-9.319594101515689,-1.530338358958805,13.739504674222896,-5.636928427913588
5.9860658801609965,0.0,0.0,-72.22459873240597,0.0,0.0,7.645375370397318,-4.675847118021005,-2.208109669402287,-39.23885619866377,-0.9466443572595759,-9.799059631665541,-32.386624586064904,-7.888782592304107,0.0006597460881231402,-110.213771722858,-15.776384194131834,0.0354373780436579,4.21408524648654,32.565394164512064,4.12127244406622,54.223506703414806,-30.830121464243998,0.549915321581745,19.013045213774458,46.44286435173302,-31.97641615078357,-19.882685395904797,-33.03252848099578,-22.28679838284874,89.88637015081798,-0.022428639157934784,-98.3691149188164,7.71691557849928,0.021864906506009835,102.13822977671434,-2.7338770022525476,0.633239587546541,0.02398807193953063,-3.872341690523629,12.617375441864196,0.002218120914959986,6.27889951632077,4.6810919658563455,-9.939611691173749,-14.905588455842171,7.963323749271946,-7.579202733567931,-4.373854254561098,16.519810106211622,-8.893055487800439
8.80683702305476,0.0,0.0,-78.19412106306079,0.0,0.0,5.658934619030363,-4.577083332027742,-2.1280703516650914,-39.58437911776894,-2.705508979512394,-7.45590895363874,-31.42828072206685,-7.00870067431056,0.0014988147349899443,-103.15958736612542,-14.929923070071249,-0.03260280956185441,-0.010289023101612504,34.85419481730166,4.346953719673367,60.08384457858752,-30.311246561993972,2.1763865322482014,25.43555752619552,48.65955056237289,-40.78531172927103,-25.854570619015746,-33.33364598156096,-25.47765246478633,91.11653991552835,-0.01083705885164788,-93.97824401711549,5.918936176101015,0.05137610190111304,105.522490017528,-4.894084377499939,-1.5877242639930804,0.01811658821680978,-3.5678519532501403,10.034458044467156,-0.009318543761599973,5.494953393325722,5.107415724980424,-8.11357252497682,-15.788287436195464,7.70172375818931,-5.711525626728706,-7.734363836064039,18.518731409205223,-11.097427958679047
10.447400175677695,0.0,0.0,-81.94430771145333,0.0,0.0,4.033592683929518,-4.897718983157503,-1.7267246899387634,-40.76914610107667,-0.7424690614267888,-5.0972337980078715,-30.553233410075674,-5.858119887701713,-3.680761483239439e-05,-94.26064403050638,-14.561616568198504,-0.11518113762634591,-4.405245377044806,36.16807845322989,3.7066169370192372,65.14362588574866,-30.265922947091312,1.7447419838959948,31.535957430290697,49.50486900253322,-48.52613707971522,-31.37556165950952,-32.97047624784348,-23.312429046180537,91.26441021736588,0.003881619463992081,-93.22194239391563,3.2748744191453487,-0.08395199759226069,103.2897857374299,-3.8014222178243435,-2.7070239630426993,0.010529097498924582,-4.187384290898368,7.732749889729697,0.003015705006406768,4.724417053393912,5.545683996315324,-6.201173987431739,-16.637865996883317,7.417531573570046,-3.761420209814233,-11.669658103118984,20.057287071025772,-13.185650796092741
8.454912997920752,0.0,0.0,-80.88150955045901,0.0,0.0,2.910210404955801,-5.306163530677242,-0.24395670687544346,-41.50802854280935,4.403566326179547,-6.162313503980298,-29.339360420312904,-5.5909598440503006,-0.002279191786075297,-83.64157194854816,-10.994530961995315,0.13862286039998561,-8.936162950758574,37.365387831253,2.70061339391175,69.47539671603155,-30.03463979092384,2.111376143460169,36.294024603209806,50.63038105960323,-54.676721929448625,-35.50108486853412,-33.17591810017793,-15.824583921522722,91.37118789625113,-0.0006204335471270009,-93.82158286375088,-0.7897295693175519,-0.11930851333074331,94.36561502620673,-2.118823446513799,-3.93345114610472,-0.009803481013988728,-5.3739225002833875,5.499426011640288,0.0073623377057916994,4.077221782740095,6.092631970022827,-3.44615227827845,-17.351930926671557,6.926710859663579,-0.9882964264573442,-15.227326163679558,21.33469673234301,-15.122754841478907
7.536574330699251,0.0,0.0,-75.60500992488393,0.0,0.0,0.9918938940969735,-5.961086576309577,1.7923738254503172,-41.53849189506022,8.943696339512197,-10.001335271925033,-28.02949475481859,-5.552826573459506,-0.00013100022215559593,-70.93754185761613,-4.151817913451572,0.16133429725439333,-12.776515379222825,38.14241839332609,1.352617289326419,72.32165961756361,-29.845066970472928,3.763277227809492,41.384350306421084,51.79747091531881,-60.85857084391931,-40.21625656101255,-33.39463743224071,-19.977586808826114,91.46820246534418,-0.0037893745109378167,-93.44730043291135,-2.2077000248157095,-0.06535311596411861,92.91180353984164,0.018162446850371466,-6.515126473605643,-0.019379033260558943,-6.424820947190634,5.140448254857433,-0.005429550157851422,3.3355478034510746,6.529540670424731,-0.6026881310210795,-18.104587735627916,6.300376538233975,1.8207742899093604,-18.117277157558174,22.122148744952895,-17.38996228241703
9.010117120294252,0.0,0.0,-64.66661655710023,0.0,0.0,-1.4803298353569123,-6.27892240722538,3.3311395612648624,-45.80669017529886,10.19212588562042,-10.879198077916731,-26.96418772498745,-5.119338993578664,0.0014577118570318637,-56.664549814175594,-1.1710697049302887,-0.1554852916743253,-16.366689268434527,38.496514852778276,0.1202236908561403,73.66670170819536,-29.831392764295327,0.5259234613760985,45.59580680270276,51.810606667039764,-65.78248653189492,-46.310396697191706,-32.80102941488934,-32.310412588215414,90.28358915281008,0.007429987610315724,-91.70958810842649,-0.6431489422069581,-0.03672402884602463,98.89551000731865,3.8717295977442183,-4.869634353883444,0.05676671934344608,-7.031377757780407,6.773413078099881,-0.002384248769504877,3.1674404203333837,6.613151951023449,2.2122647438162946,-18.219409258947213,5.357050023855161,4.468366353752691,-20.915997344621637,22.81504151675119,-19.941959354718037
9.891549362058383,0.0,0.0,-45.41360850718747,0.0,0.0,-3.457033556337376,-5.746228458076233,3.845122611008254,-58.09992805359646,-0.030914677822972175,-6.71169723231129,-26.391141203420343,-4.704093655604534,-0.0004437286259232044,-42.72110881059455,-1.2060701190574736,-0.05714923991295717,-19.67921783461945,38.79191451308059,0.6129365139071128,75.06389613546594,-28.797151461308943,-7.4235633644577605,47.580579665159114,51.40918692820127,-68.7082550557847,-51.827555666548335,-32.32231203045232,-36.514897562207295,88.62703653492122,0.010302940433931625,-88.62068308219835,-0.21447551092688577,0.009610611149834873,99.5066873858455,7.857169341177811,-2.354376434874878,-0.00790415768391165,-6.774706357316148,7.312633463984507,0.0007826882990492772,3.1451588506581016,7.098649380003535,4.772215393143124,-18.164046730173872,4.883845687082391,7.022523853332406,-23.191794219667667,23.04327699734816,-21.550576107942874
10.027288035622977,0.0,0.0,-15.125095104211452,0.0,0.0,-4.9299781619061545,-5.698271119616039,4.01512870743775,-62.513154921728,-13.812569635755699,-12.769280967411195,-25.94649712983084,-4.855663435546507,-0.0001725929673507434,-31.67026764068312,0.8020209894234568,0.06837591265597945,-21.518293211736133,38.49045078512541,2.0595378963676563,78.80092113567889,-26.38274578493163,-13.165608671146693,48.69955157809744,51.63173956897238,-71.17748449637469,-57.34023278237056,-31.763818438770038,-40.72574082011613,87.73284643069724,-0.0021600513092394536,-86.66523724786654,0.3115657471479961,-0.007896194305870068,99.5970351994645,11.282049508481684,-3.585201955860393,-0.030135559945909718,-6.009320231460946,7.748001444235488,0.0012909458363104373,2.484113723733122,8.015769091559376,6.725762722997636,-18.753635063179722,5.035769316602864,9.167909337350089,-23.698741904163185,21.58529804312772,-22.54369420842742
11.099165162655266,0.0,0.0,1.21864950910949,0.0,0.0,-6.153178864902155,-6.325591600548364,2.7178837283603734,-34.978070077592015,-12.051154135321624,-21.7928354095298,-25.456577397408136,-4.920241453035423,0.0004744384425534571,-29.694164194670336,1.935785606590157,0.0833026944441172,-22.736005469604123,38.137454055934164,3.930120138902611,84.13063101696704,-24.093262436043094,-12.337639539527697,50.700531496192,51.771703417496404,-75.75626812182495,-62.15021234003793,-30.2223841545723,-47.20166735173155,88.08184663705559,-0.0018086425129388642,-87.34573535738762,1.4095034796373633,0.014258327686275406,100.58164566859425,12.785315501517587,-5.297848952870181,0.005783784080228605,-5.0594605303062155,7.7496731942283406,-0.004445515809840856,1.9001794870952091,9.404945838468471,7.583394041165603,-19.332934627070756,6.023576752320576,10.467302781374864,-23.802573117854642,19.406315794288336,-23.46314363993815
11.338163724866606,0.0,0.0,1.3146816479775592,0.0,0.0,-6.658300154215973,-6.405828488743551,1.0055568382115543,-12.972772533047438,9.546821765532783,-16.11476735450919,-25.318530546833713,-5.3829575233608296,0.00039623126649721826,-38.44823372154694,-1.3180954248572758,0.17521361515528605,-22.951730750469185,38.76338692297813,5.190004311531271,89.69184032907388,-22.419391507751325,-7.272243961738236,53.05397258228834,52.14361490012524,-80.52941103821375,-65.11953884106913,-28.903053689526796,-49.54758921491644,88.72538050282562,-0.003847843309969727,-85.86599201606026,1.6330753330332668,0.031347368369544035,102.22098545120996,12.710567828856556,-6.4600044759461746,0.004249945893742894,-4.485746778869395,7.130095972167415,-0.005096903870101559,1.507910724313558,10.920767479165491,8.432918739742073,-19.7284113162512,7.133648053435564,11.80450108409196,-23.684053078734166,17.942255984106954,-24.36505214612048
8.694440454029095,0.0,0.0,1.2322712620299632,0.0,0.0,-6.650305193883381,-6.5287823403228895,-0.4896357248552127,-19.238698775664954,15.193937957727284,-10.824487506150856,-25.384631971168005,-5.676282882498407,0.0001827917317949254,-48.2469122623485,-1.208963948598558,-0.10390795775543486,-21.847229479604625,40.21406572171005,5.289099247749749,93.46133547706177,-22.283178424434414,-1.633121992938104,53.86469122255298,52.54065330082789,-82.05505226236224,-67.92224662943292,-27.942151403507705,-58.875261245359326,87.86976811923324,-0.006329629955120198,-83.86554563045061,2.5455843011112393,-0.17137038536340485,108.32141216628537,15.106506584057486,-5.0260524472276495,0.050691811717292284,-4.1389269616501965,7.2999275185404855,0.010000494262047802,0.5464861811625116,11.05804110148105,10.010599678253476,-20.570417225764075,6.702120739635209,13.309231021053783,-22.54559342205099,18.03664567101342,-26.150362766579455
7.0881127561562005,0.0,0.0,-3.499469492847775,0.0,0.0,-6.894153073455369,-7.195147637324898,-1.0871116053731396,-22.30834557524127,12.13330137286471,-14.945020379374888,-25.361032623156444,-5.546506815201889,0.00010418259050246995,-54.498394018006124,3.2506984892217825,-0.05296683155134075,-21.13310278098456,41.33461975083847,4.83520364080928,94.5727177012513,-23.219273028659153,2.5766342907188418,53.352800740318116,51.95384922077354,-81.4723095059002,-70.85332981711427,-26.948043851234242,-73.25212093883022,86.15879590936377,-0.00640576109517506,-84.9335170691286,3.7518328076284364,-0.3194649611494122,112.95225871910719,19.47118066100537,-2.997773809347879,0.0035644189157260785,-4.2341310415086175,6.890641186958177,0.04301769802661683,-0.1395443272427104,10.499434788154662,10.730853525030591,-21.172543956289957,5.926468305948019,13.771373675242467,-21.37857793544144,18.96417294717503,-27.67924806301682
9.563282060882651,0.0,0.0,-20.031942677373692,0.0,0.0,-7.696907829627458,-7.389008209997847,-0.505324914540094,-26.04075237862378,16.212225065614618,-19.244499415671086,-25.136244068125244,-5.411843273722696,0.00012926604493595207,-57.14038528893031,5.877680053923126,0.03349250922952032,-21.02668364505993,40.80587760151766,4.704295821762935,94.63830747508123,-23.171133256286645,3.041876129839301,52.97693784271543,51.19224643230224,-81.30815301804775,-72.9406720892224,-27.52152968521657,-69.11378937893596,86.19067863912322,0.011635681066032064,-85.76813506222217,2.08917790733789,-0.15100779188248106,103.4304106078219,21.225755449396125,-4.464476204885353,-0.009816949872182913,-4.757856894042491,5.858091776362794,0.023721805107514673,0.727393257841386,10.590300987118539,10.592716877100965,-20.320997059802103,6.060021759833429,13.676737904426304,-20.670493824952853,18.88496446586126,-27.457011943833137
10.6746439178707,0.0,0.0,-27.900665490324002,0.0,0.0,-7.884696797438942,-6.835532121148827,0.7538487764196297,-30.531761324906974,16.160194089546813,-19.68034470338422,-24.658887920337637,-5.216505669094626,-0.0005024542759573694,-57.34959488134373,5.487202955258194,0.01046773608489804,-20.630685758573712,39.38913189721118,4.632131006365827,94.56493705064013,-21.808157197772292,1.0466001896259254,53.30172407612054,51.03325133905539,-82.34596978637033,-73.5611480393904,-28.28567103197273,-66.48448027737996,87.91146136573198,-0.018956370873929023,-83.96338128642162,1.0955128942664552,0.0031476884234751656,100.8771980209117,20.341979092864378,-8.174773917159614,-0.0005784216444173018,-2.097253868064972,6.857687509370994,0.02152545425535284,2.2773134263523076,10.999618578804784,10.323166042572613,-18.810538611570237,6.537163208285213,13.576187687134563,-20.123609606225347,18.14724529338471,-26.477986158111616
9.712532322028991,0.0,0.0,-41.05763818640498,0.0,0.0,-7.708303937603011,-6.934767128776791,1.982874465004013,-30.715583427999622,12.254631573796628,-21.392246820895544,-23.97988522369339,-4.769734760724586,0.00012276103157879151,-55.49409312868112,4.704640626212591,0.005561487966019011,-20.284100653637687,38.17515366782461,4.737262675878714,93.30221114003066,-19.819221296533378,-1.8741140926291755,54.5278075321367,52.141144814879034,-84.48842292222551,-72.59400621227267,-28.24681612478769,-78.33262425068395,89.75641493091032,0.0024400485765038032,-81.64370829965534,3.5738926666089363,-0.12517863255983963,109.47332682714242,19.831636246896387,-10.590404609740235,0.006570363188559027,0.5205352687853965,8.891626614534946,0.012765039887879626,3.111627931345488,11.101998124948723,9.808962093418009,-18.023993242424794,6.81444928102819,13.139301908729697,-20.035350505659007,17.65087557737487,-25.519074797240794
9.264705012566738,0.0,0.0,-53.76575997949861,0.0,0.0,-8.318260788830315,-7.514419116675517,2.780191575385936,-30.64315486177216,11.838702747369243,-24.44198871414293,-23.26034384972763,-3.762900540647345,0.000261799711616554,-52.24051771450398,3.510273263424476,-0.002979172522457174,-19.917806228827583,36.43655735109857,4.925444258825312,91.08574235529541,-17.806158502520628,-5.9469034247395,55.687670168644836,53.94791628991041,-85.79541724795982,-70.73674763597535,-29.251684401869735,-85.27312626847976,89.98032284255149,-0.005101806779353852,-84.13640410659593,5.187491452411153,-0.08421462477761778,108.03299722568657,23.91922762976345,-6.277008142359141,0.11447022311554504,0.3355384187133427,9.497348887713999,0.0019341294840150396,3.4606957066982478,11.698145815692163,8.84222592004792,-17.780881605632768,7.712820045885144,12.465792214544031,-20.182738397197816,16.411165929742232,-24.882973458694714
7.435250406917101,0.0,0.0,-43.99636011763935,0.0,0.0,-8.834719004250887,-6.9328649471039965,2.664496185563501,-34.32267720245573,13.675352114462736,-25.144795746604334,-22.31727529905186,-2.708791948019304,0.0013270866307205924,-48.77474485208158,0.7647505874897781,-0.02596794272070253,-18.750374757187586,34.296865111188595,5.225722859856017,89.34855205702011,-15.991999957670883,-11.789821648500254,56.19144586224986,54.54474625363577,-86.52042777700068,-68.9323305025544,-32.03149850503739,-74.1738445271768,88.99061852983748,-0.006813375147104208,-84.49510009747199,3.5261716508992116,-0.1250980366791285,90.71298009741811,26.7195707050685,-4.925585157080684,0.17210624082495846,-1.9029479998978567,7.919527520319703,0.011492984964853556,4.238809946602158,12.39157418743913,8.494251192810674,-17.066025771813525,8.482470161823542,12.39957777537943,-19.48181089285934,14.704402809285591,-24.779891729659273
6.50473632920749,0.0,0.0,-36.44392537959222,0.0,0.0,-9.951818047280755,-5.8268637320670145,1.9906881210672225,-37.63400549383676,14.31784103964308,-23.291921878090037,-21.052593615828293,-2.166983090341876,-1.90947490838847e-05,-46.026613965882945,-1.5682477982307543,0.004270827128454783,-17.16122824177594,32.7995608805501,5.685426729587119,87.81778682166455,-14.585721171850437,-17.642793808159077,54.91987575279849,53.90328766956246,-87.40296430666874,-66.33305631377534,-34.83606724708915,-67.00333256033223,89.31748851807892,-0.025325054468528584,-78.92961650683897,3.1402983078488265,-0.01559743872712719,84.2914851111363,17.334085541824912,-15.076171285208158,0.5750501404329732,-3.5862025268504625,6.028970898646794,0.004729761506861262,4.7065951486671,12.12119848489189,9.526105275660308,-16.500106253068903,7.864929452617948,13.249934165842719,-18.16237254795968,13.697786307164385,-25.322176129476365
6.282768517999835,0.0,0.0,-38.438736036592964,0.0,0.0,-11.796086463891262,-6.108114386648562,3.32482418814689,-36.89369889225254,11.66468943072163,-20.39256947115813,-19.801899855755632,-2.273982516005177,-0.0016590827160859224,-45.21289350846044,-0.20686956880752427,0.0035708068028308766,-15.929327108608632,30.982252351874266,4.727830854106523,85.75942015139006,-13.905669696597066,-20.0416755036354,51.19410536892204,54.00415222192848,-85.08684016978759,-63.454319623698055,-37.24422725029728,-67.49307446794948,89.0212225882984,-0.04110881950479111,-78.66553166263394,4.836072338584651,-0.06659734076939908,89.81256282098684,8.696728087967749,-20.59512263412741,-0.08702717639381752,-3.4434078960981873,5.044257287226337,0.00027259409393339446,4.803859206292057,11.623749594302561,10.920331350229935,-16.257723823688792,6.9089951750203795,14.352359000682474,-17.086617496411478,12.81487279926504,-26.014181855603983
6.183447690382475,0.0,0.0,-40.56059628043371,0.0,0.0,-13.74487663042986,-7.144495714409097,5.900176384496311,-33.67688569479489,10.85892277717068,-19.404990603031347,-19.131607106777025,-2.739918351400794,-0.0006419231781519642,-46.652128945850436,1.6021496475165242,0.0014210197946540194,-14.705974695124446,28.584640528623925,2.8175047835285496,84.08549957339855,-12.79468856865399,-20.505757928972233,46.41620947295351,55.047478388199735,-79.84126526315738,-60.219499236561084,-39.70209796506878,-61.754927757236764,87.07560099571995,-0.0025525661773726123,-83.01474767675506,6.042332635101468,-0.0626639246775721,89.16051324883618,9.441664087172654,-17.597933742700054,-0.027135634397661198,-1.8859432588582714,3.7827550156899923,0.007445099811714292,4.961127556477632,11.672266898647639,12.430052079686426,-15.959016755293758,6.42459176953445,15.759746603324093,-16.333779221376016,11.325669156522991,-26.237360320025196
6.883574319293756,0.0,0.0,-39.64064592664876,0.0,0.0,-15.673981846154888,-6.919621173817399,7.185949107776253,-30.189033810161686,10.556605093193413,-20.389126446508254,-19.50863048781104,-3.0076776829878487,-0.0006809936060457373,-49.14094249320302,1.748375564127197,0.0011499383225443407,-12.807067157924827,26.578753688893965,2.0885096701419434,83.03092703203812,-10.402119395044725,-20.815847438624626,41.48693698562131,55.294299787688836,-74.03363805770486,-56.756147729201565,-41.24017814098585,-55.85756143769374,84.88686104665736,0.022556910075792632,-83.4691505401252,7.530330924384099,-0.05809203356637995,88.83634632019914,11.191249027637241,-14.132708516775391,-0.002365593929421425,-0.7652643802827586,2.9080631504190753,0.029666269242809955,5.036915350794558,11.65085463235356,13.651216193954065,-15.757041398452266,5.978750244278588,16.876245640359134,-15.23591547218278,9.82016599497105,-25.403145611570658
6.16306511593025,0.0,0.0,-34.74847477391669,0.0,0.0,-16.01757853313288,-5.312033594429505,6.748094874287359,-27.161337688139067,10.269637615166452,-21.66036371550269,-21.40352778549316,-3.2157694986884615,0.003751884815110619,-51.51256197692943,2.1531777153012435,-0.009214448500784992,-9.999879089490305,25.518246750038163,1.8605807071350844,81.59656761990277,-7.405660064260203,-20.61256112728799,36.985539341888106,53.75944813588956,-68.75476889509561,-53.54588722717739,-42.36463989865316,-49.327472819672465,81.70077000529797,-0.052024058059624075,-85.89629780749523,9.215923340701904,-0.012846162573879188,86.79698847262328,10.896728283048265,-10.247965348782886,-0.016397193560021908,-1.7060298700369745,1.0581670297541332,0.026157785525256598,4.974287004881474,11.457470710229487,13.780150180326304,-15.798901734146964,5.753140865689636,16.92598771913681,-13.774358323764828,9.221130872981266,-23.615327696493054
3.20870619165476,0.0,0.0,-26.204185523094967,0.0,0.0,-13.377688255805564,-3.355543695468834,5.309587087289441,-25.195307239391123,10.0683844316018,-21.758665664881374,-25.03575090892008,-3.443307161630296,0.0023526026995670233,-53.42984823985723,1.5602202706054282,0.0043184476982087066,-5.952601087415887,24.71792502293136,0.6092621249724797,80.00352921131055,-4.283350468722004,-21.42114434634523,32.86759614176195,52.40865070927283,-63.293845879489716,-49.99200741260534,-42.99800260031682,-46.21291679425338,79.06207224257886,-0.0021913850652239397,-90.2572877732037,11.83615553164782,-0.01666427706295808,85.52597685099347,11.055997772731097,-7.457075734959657,0.0019860844142618583,-1.3470534774259106,0.6746971677043074,0.009979919572187704,4.863190420184666,11.38355555075758,13.910286974587047,-15.893522832567044,5.638794092607999,17.019517422413802,-12.18801293408186,8.968232301042365,-21.714121585998782
2.1608186033970025,0.0,0.0,-21.392268447490792,0.0,0.0,-9.79793232977936,-2.699678164491858,3.509275560277397,-23.585281068794178,9.92754505155571,-20.973003469281533,-28.741071582378037,-3.1962502351030224,-0.0057705053868565195,-55.55237428276958,-0.3155091510395631,0.008337853437426263,-1.3204789867576077,23.196989817868563,-0.9998308483150797,78.81726131658387,-1.5414177829453535,-22.757650647391678,28.836963673116696,51.994678575399064,-57.550150841501534,-46.07753735088782,-42.76889861273769,-45.0657838988325,78.14582079596781,0.029013560693482092,-91.57720457260386,15.444558974373233,0.022541463114447255,82.78415472692741,11.56274036215821,-7.993358088167368,0.0004770114700551048,-1.8533385406239724,1.1306192777696065,0.008963681625583048,5.1660266032986755,11.307345770409189,14.930504035940015,-15.476297118475896,5.213937136213307,17.932376617167755,-10.641807583250378,7.845470589857087,-20.035532248287158
2.8633752903657204,0.0,0.0,-19.297501924993146,0.0,0.0,-7.2600366019267515,-3.3841943243196684,3.076727974227603,-22.190212762880964,10.03876972663295,-20.773259467346456,-30.533034732750146,-2.5321600918833416,-0.004490446777355118,-58.156300324726615,-1.5701795962513478,-0.0042780182124367945,2.3204271188450347,21.352472012979053,-2.472369666991037,77.4956595657861,0.23477118544379477,-23.3086051626177,25.1432052037769,50.88638704297307,-52.51993378657757,-42.306969328003376,-41.964736886360036,-43.65745525719479,76.3218188491949,-0.04135310661932374,-92.44025008790985,19.018705377490562,0.015425470855944406,78.7506262616907,10.914151148271154,-8.365303187736728,-0.012759534825877293,-3.4262153564590627,0.7307058516707511,0.004133947345808526,5.487084520664747,11.272982830989505,15.616665290919839,-15.075826815526293,4.944996681472525,18.55256545693108,-9.360512053313732,6.04161402498104,-18.410302188708986
3.6148223492197444,0.0,0.0,-17.541553261869677,0.0,0.0,-6.333735350853084,-3.805731906115216,4.155343169133266,-19.629617447868597,8.918318980280654,-20.614641233921425,-29.595384163771442,-1.4935609493378317,0.0063521981382541415,-60.895915590381776,-2.0601947777365788,0.0009511607609181627,4.366141882062685,19.73237287790155,-3.721871261947426,75.68167858139988,1.527743525573915,-23.294472975464256,21.824327931901145,48.563101333831014,-47.75553505139407,-38.75417371350115,-41.610171196149466,-42.52335705037143,72.7427719367885,-0.029468024399671507,-95.24563977446903,22.038222021836845,0.004539540586811154,74.60554537392478,8.699620375211083,-7.770039940387031,-0.00798281059259992,-2.9872365509000005,-0.14897173792834403,-0.007393376979476953,5.332283101844872,11.417548779994144,15.827673993092898,-15.210395040702435,5.007721274978755,18.79796778104128,-8.339083838764276,4.537432096371845,-16.76922854572079
2.723016677873608,0.0,0.0,-13.044067044452149,0.0,0.0,-5.721993736953409,-4.0624258529137975,3.900388958616709,-16.537937623448506,8.130874208691651,-20.757542761426595,-27.075459180422737,0.18120670500002872,0.01092023803420864,-63.53463241910682,-2.3450021229517666,0.002676239864014809,5.301823962846051,18.425329368052854,-3.9002305648105797,73.69690055901918,3.14366307185729,-22.669847809254378,18.78741774275538,46.16526276643438,-42.70720500147172,-35.382103139310956,-41.72234710626825,-41.22058814749184,70.0689371160063,0.03900961959613903,-94.40809061983077,24.695439989277624,-0.017340630888683713,72.90090719265632,7.404764236588411,-7.919562092727909,0.0015247778946077257,-1.480410277185429,-0.9324154429584183,0.00077035426014449,4.980012276377641,11.148219863627565,16.11892927417927,-15.52030942957001,4.655350670457375,18.971665047623656,-7.4275402626925295,3.5861038368154476,-14.560692934552018
1.1125416136139867,0.0,0.0,-7.518347569654318,0.0,0.0,-3.2100373520693486,-4.6446907349249456,1.7970767984187246,-14.37336602357977,8.470340308853602,-21.785148067247338,-25.676416794929192,1.7309363834269331,-0.0040764138831577475,-65.87621337819633,-1.8718842920346326,-0.0037545725578240837,6.279336446376377,17.346451938001714,-3.8090492771620084,71.70322109526397,4.288658359243397,-21.136186793972627,15.496113756959257,44.038409442185824,-36.607402067437455,-32.015450031592145,-42.38408339671835,-39.106316815479836,68.30210860435704,-0.02854035059715882,-95.48259576272176,27.489341237700625,0.009346702787012079,73.0770682945664,8.517707208457768,-3.551219171590461,0.041313546523626496,0.09810698906279111,-0.3062614038177173,0.004496911450458699,4.592738614268291,10.12401147269649,16.461124375323774,-15.84134287327317,3.5782011512536256,18.928510149846925,-6.318895364008935,3.0760862329074308,-12.640564500999352
0.9908952913651502,0.0,0.0,-5.357835666531082,0.0,0.0,0.7352975119116871,-5.463858007522389,0.44263436206160817,-11.720554098223486,8.738587634282151,-22.72621920591286,-26.13206980556007,1.9440851761532398,-0.002245530966684841,-68.1612658334235,-0.7724012227729219,-0.009099482392630002,7.386503423919684,16.165248472713724,-4.566107948438494,69.17813524144951,4.360803664386387,-18.776273884049193,12.965943085165087,41.40977058712306,-30.652822322436542,-28.68547432776614,-43.21235296266646,-36.720790907733814,65.939139107359,-0.0340641452988616,-100.25320090663087,30.409352916165165,-0.004364832328660021,73.38722535495653,9.888153188624813,2.5302694440698343,0.0005742361225153495,1.193149468371491,-0.1645339532657526,-0.002067877657488046,4.730714999410337,8.8820836131617,16.136048937167676,-15.717869343092792,2.526452596514956,18.193307683936393,-5.676459428296973,2.374318383396796,-11.410681676932704
1.7379125353598803,0.0,0.0,-4.27432931406501,0.0,0.0,4.411033304984223,-5.673222109236077,0.3331041187287811,-7.740582765347643,8.212078800392371,-23.141088432933522,-27.082032242043194,1.2567854357966077,0.0007382235538416582,-70.54563289256231,-0.4775184334796311,0.005565198533562131,8.08366830870506,14.656280506779236,-3.924241456068454,65.92483036043811,4.297690225201237,-16.447846189595797,11.304244290708894,39.43403223752545,-26.647974253845042,-26.554990341808345,-43.683807464460116,-34.39406706841621,64.26238543664704,0.016734173961755233,-101.22521894237241,35.3190696391881,-0.06954772510448994,74.95086515648335,9.355698153784711,3.220063270066936,0.004177004737284525,1.070198329954851,-1.0011965218665002,0.002187336949338652,5.2738872577897435,8.3905655074261,15.517897905959895,-15.236277538761332,2.2798139542160216,17.448176288542903,-5.876500462618158,0.9236737254584223,-10.078312207034497
2.42805210255989,0.0,0.0,-1.2615052587087257,0.0,0.0,7.97270222378721,-4.969839397778612,1.23550102402494,-3.0604506432769516,6.395820128091619,-23.554758693294136,-28.922942743129738,0.448127791075167,0.0025343623170597657,-72.71006985395316,-1.6349749121115973,0.007186857944710352,9.87790446465579,12.982906095389858,-1.8624790822927149,63.04644287166569,4.494619631387351,-15.221371880409198,9.43095672593933,38.183813841387526,-23.159170551914197,-24.58087007077467,-44.14767899739026,-32.069327467837056,63.635702794559,0.005563528278404207,-99.43990587716326,40.97040176901703,0.050559535791251636,74.3965941396971,7.3323815313575675,0.6565572336245369,0.00911992308561751,1.7319985072556903,-2.1684391776629215,-0.004538417398379083,5.672128909134988,8.47506375014088,15.077493578185662,-14.886794914890691,2.511763718542415,17.069511831474006,-5.774907729396798,-0.8129344557408186,-8.784932079883014
3.2031835661479855,0.0,0.0,1.3518769211790655,0.0,0.0,10.747650380229834,-4.3731788768569855,2.38495311735066,0.7988588253883255,4.525998009739249,-25.05774711863744,-31.64576956140553,-0.12258527420837563,-0.000897213445824231,-74.40470487025291,-2.4441464236410417,-0.0019166107349311184,12.479206662945113,11.491946488743476,-0.5835570472404734,60.16971554588476,4.542490005046451,-14.057984331874339,7.50675307646022,36.285182209895765,-18.726201012986046,-21.645680999727492,-44.751358733696186,-29.576038735542156,62.97918176970673,-0.0099737410965638,-100.03172404863167,45.61734648150129,0.030256954134552653,70.50180726063512,6.038726295420876,-1.241032403559399,-0.004524940289615585,3.489637097241121,-2.371000076625743,0.0005987290596771509,5.9882564204559845,8.207395985402943,14.82954153659594,-14.59291028949471,2.347347497451559,16.74549833762048,-5.7842193313755725,-2.0741950566385308,-7.849869448528058
