PaulMeinheit/Bachelor_Muay_Thai/processed_Data/N2/teep/scaled/JointAngles/scaled3.csv
L_MTP_ANGLE,L_MTP_ANGLE,L_MTP_ANGLE,R_MTP_ANGLE,R_MTP_ANGLE,R_MTP_ANGLE,L_ANKLE_ANGLE,L_ANKLE_ANGLE,L_ANKLE_ANGLE,R_ANKLE_ANGLE,R_ANKLE_ANGLE,R_ANKLE_ANGLE,L_KNEE_ANGLE,L_KNEE_ANGLE,L_KNEE_ANGLE,R_KNEE_ANGLE,R_KNEE_ANGLE,R_KNEE_ANGLE,L_HIP_ANGLE,L_HIP_ANGLE,L_HIP_ANGLE,R_HIP_ANGLE,R_HIP_ANGLE,R_HIP_ANGLE,L_SHOULDER_ANGLE,L_SHOULDER_ANGLE,L_SHOULDER_ANGLE,R_SHOULDER_ANGLE,R_SHOULDER_ANGLE,R_SHOULDER_ANGLE,L_ELBOW_ANGLE,L_ELBOW_ANGLE,L_ELBOW_ANGLE,R_ELBOW_ANGLE,R_ELBOW_ANGLE,R_ELBOW_ANGLE,L_WRIST_ANGLE,L_WRIST_ANGLE,L_WRIST_ANGLE,R_WRIST_ANGLE,R_WRIST_ANGLE,R_WRIST_ANGLE,NECK_ANGLE,NECK_ANGLE,NECK_ANGLE,NECK_ANGLE_SHADOW,NECK_ANGLE_SHADOW,NECK_ANGLE_SHADOW,Trunk_Joint_Angle,Trunk_Joint_Angle,Trunk_Joint_Angle
X,Y,Z,X,Y,Z,X,Y,Z,X,Y,Z,X,Y,Z,X,Y,Z,X,Y,Z,X,Y,Z,X,Y,Z,X,Y,Z,X,Y,Z,X,Y,Z,X,Y,Z,X,Y,Z,X,Y,Z,X,Y,Z,X,Y,Z
3.7834400000000006,0.0,0.0,-29.909700000000008,0.0,0.0,-1.2837400000000003,-6.43612,2.8743800000000004,-30.339000000000006,22.97143000000001,-13.674260000000004,-26.036020000000008,-4.758390000000001,-0.00015,-51.60794000000001,-7.64596,-0.07660000000000002,-21.6847,32.322030000000005,3.8289400000000002,98.40971000000002,-16.035100000000003,-12.1184,64.42506000000002,47.31865,-85.88868000000001,-67.57322,-25.525620000000007,-54.656570000000016,122.94389000000001,0.009900000000000003,-66.21657000000002,-0.12689000000000003,0.04581,126.07707000000002,21.113210000000002,-16.59437,0.08620000000000001,0.51546,13.842250000000003,-0.00062,2.5891200000000008,5.120770000000001,10.61971,-18.337150000000005,0.9432800000000002,11.739770000000002,-25.580480000000005,25.112900000000003,-27.739230000000003
3.677928651885664,0.0,0.0,-50.04560947249246,0.0,0.0,-1.0920047486069124,-5.468297732792518,1.0411608027965948,-33.139836058755684,14.276608062490995,-15.856416533720012,-25.398555977322903,-4.331649785778348,0.0007218800564024182,-55.06423237384318,-5.112245464723358,0.014442636912074511,-20.3011208659888,32.790806565263615,5.129871407658563,98.21415510154148,-16.30785753437218,-10.26303199779857,64.44057946905959,45.57197842159447,-85.19678069254012,-68.4553238592807,-21.109976130637254,-68.37441920627026,123.70651163603745,0.0173925004976723,-66.36098580711936,1.9041399056054633,-0.19911477066452316,136.48217917255795,30.7614290831598,-7.925908171848544,0.11651367480644557,2.494370405068292,14.398470756225464,0.005719860823209712,3.0376679069580104,5.072140476076803,9.948629999105556,-17.93659520082444,1.1368591273631614,11.098029688657768,-24.586818030524054,25.925213789363703,-27.6890755498663
1.4160497733744206,0.0,0.0,10.195771795922802,0.0,0.0,-0.4984465645751623,-6.0725944627055135,-0.29690586996030366,-38.602222620991476,12.453987988181147,-15.746193787158226,-24.644063681216853,-4.0664637490402855,-0.0016022925627356057,-56.54108889945267,-6.900803919204884,0.010916985440425395,-19.851426081985807,32.88677283817769,6.356069002360753,96.89820817346872,-15.46555315717355,-11.574916782910048,61.97567489689264,45.19572491801237,-81.98547251664594,-67.05519251628543,-21.03078524410885,-71.88309628746019,125.4661251336437,0.011323028856184969,-72.60670663694822,1.6491966709231685,-0.4618149090417779,146.7479239076771,32.12682610214086,-2.265088620186727,-0.06825421490272239,4.225316967525425,13.91763233173138,0.025909069214763533,4.354517599408562,4.714982351143061,11.607641048272507,-16.49482812537626,0.21322753707161865,12.514730268924446,-24.621016212604484,26.48567397357059,-29.5394697453592
0.0987546067360383,0.0,0.0,50.7789485651547,0.0,0.0,-0.2809856256290751,-7.144397191617954,1.0613384601393492,-42.83491423933842,13.024854463957874,-19.01212496438091,-23.306440924268855,-4.226250659146525,-0.0006440090879769043,-57.07291707609952,-8.393338617022351,-0.006919148362597301,-19.734005176522103,31.119704790822233,5.44245188309456,95.47958002540051,-14.034251826917075,-12.278331821887651,55.96056885379904,45.67714384892649,-74.57254982019722,-64.73496892182874,-25.698849082137105,-54.95277536663731,127.4662657581086,-0.015844869481134175,-73.5693455016756,-1.8064131594285318,-0.10836558586742102,128.75044871575219,31.25003049314235,-5.2179824971548046,-0.016120575306137554,0.5379464667844843,11.131629576034719,0.015914148903515748,6.178456523568516,3.98542797576026,14.460390415167168,-14.428032478502253,-1.475996437974857,14.91706345930358,-24.267552558090838,26.421010858514634,-32.949664856624686
-1.0801037055148963,0.0,0.0,10.854609356852025,0.0,0.0,-0.37045496099584674,-6.291814721350386,1.5804627581666437,-35.09942571292265,13.960537633992924,-23.870731930637106,-22.0506541361697,-3.475259820313527,0.0015461817861415093,-56.885424634229096,-8.448886279062982,-0.0047883571822222816,-18.60229487322848,29.11308686504956,5.355496121359323,93.81205612014506,-12.817585314915313,-13.38138830191395,49.640899848804445,45.849149727246406,-66.9547001719174,-62.49023025330079,-26.549445863032613,-52.296202280506826,128.83044399741178,-0.0024244808277768372,-73.15932525093241,0.16009980712960378,0.0807337720969319,117.85571832295072,33.67882725015476,-5.3929795618001615,0.02593962337689601,-1.7562790538745885,11.390620060472017,-0.011898882232034148,7.168623785446579,4.13315841173694,15.265810997646033,-13.359110836525353,-1.6199220182826677,15.721428461510875,-23.392074422449994,26.050786395151327,-34.0924003685742
-0.519365656337055,0.0,0.0,-44.46986888663158,0.0,0.0,-0.39077746900515575,-5.063718210273628,3.89766300847637,-26.352456255869246,14.46628124271336,-25.45629927518043,-20.680048621950025,-3.4073656182780447,-0.0035536172236180588,-57.07593034730485,-5.437822781529815,-0.0004738675810273937,-17.66421339012375,27.45406582766985,3.1140806326847605,91.03343036547254,-12.045515079839912,-12.296824801799902,43.17762496251486,44.99132046220179,-62.07652414543371,-60.07842124378749,-25.738747118732203,-46.19640671956006,129.9306526262509,0.02319792041577597,-76.8766691776782,2.3988604219002836,-0.01387354449174212,108.42704915892264,32.05280061540329,-3.720694110026277,-0.0030049574131786228,-4.875257472244816,9.476965055688613,0.026864681008872234,6.732361989401063,5.042109048205377,14.771350108441318,-13.8376743781982,-0.5958071634651617,15.578943923348087,-22.56875184538305,25.512380293183554,-33.92571577784876
0.03767669072973396,0.0,0.0,-38.48545383272269,0.0,0.0,-0.08273566896741075,-3.7405680608816856,6.868222068212328,-27.688811930018254,12.923404057228986,-22.732125741029268,-19.401022876079463,-3.413183545053708,0.0001251445876941918,-57.53689783079903,-3.5089495319749,-0.002868546793409233,-16.050553697922968,25.719689825888562,0.006046249265517618,88.08553880644656,-11.66894111613081,-13.227330005765188,36.9799817508465,43.71760199324886,-58.41483631750132,-56.3674844451612,-25.93814379815615,-38.18835979658278,130.09794182751185,-0.005482062346615245,-82.75005733218097,3.5871246979032554,-0.019518983499145114,103.89775378666289,26.52838019006089,-3.4598292593641458,0.01765305661848974,-5.668709155376685,5.867449488164374,-0.011417769138013557,6.88921071422152,5.440815672210305,14.380960520844406,-13.717828128230776,-0.0858494532718835,15.355223486035875,-21.227991680094853,25.234079070290505,-34.01402333075523
-1.6482362417299121,0.0,0.0,-32.48767545876265,0.0,0.0,0.02419525033702038,-4.9347014517500085,9.152466983722144,-28.012655754487305,10.754656883421417,-19.290867878467015,-18.18714264637102,-2.278159005512386,0.0019757681882046647,-59.86025988888929,-3.450271001661022,0.008722225016839643,-14.376923518359186,22.98789864194204,-0.6417642214452315,85.6357418489959,-10.551803335959441,-14.277832370771414,31.40710303948743,42.21149341191397,-54.55290517081306,-51.872559248314744,-26.937956193988416,-28.766640501025044,128.97195938611685,-0.0053648733626471875,-85.97062952236564,4.1380537404365265,0.012780176344688317,99.37081639500686,22.80174786798571,-5.799472853695314,-0.004932862051121386,-4.925218813221994,4.923814884767824,0.012243248904377231,6.978359331911491,5.28521226884129,13.89812768171065,-13.674451926004785,-0.06210880526988907,14.850504145474972,-19.490616847479686,24.39743688850927,-33.68471108316694
-1.5792903096651463,0.0,0.0,-25.81274438863793,0.0,0.0,-0.6607311298354664,-5.907562625495974,10.482173411402409,-24.755211775039506,11.279170390247177,-19.60242963690506,-16.8944660870204,-0.9659684195799773,0.00028733915504507005,-63.72252810144424,-4.02494509402686,0.004049030373420459,-13.216652408481654,19.86809505161805,0.5001925952110806,83.21870971636052,-8.293199045599895,-13.967995976107282,25.10311737888495,40.6475403622397,-49.847312552023865,-47.84032529741374,-27.71339829289884,-24.287744785122733,127.57549707868733,0.017093835098279553,-85.88624437424257,6.592716930590493,-0.0032383289321321774,95.40662551456982,22.47064953587091,-9.496134179059563,0.027977470145034322,-1.4784558017187925,6.752688447137039,0.026635076959168127,6.2044988063783455,4.771491254034738,13.394350215490881,-14.494904728077948,-0.3655534807119117,14.199588882652671,-17.759386398504727,22.75627931069285,-32.6710724507392
-1.1757297359042467,0.0,0.0,-20.883880245386386,0.0,0.0,-1.4256692366132577,-5.09722402615987,10.001186043023658,-22.2187086531586,12.769866508747274,-21.411605840491717,-15.841318797390871,0.0006016609070421085,0.00010430907248552112,-66.8202122119239,-2.5340373333157293,-0.004178952729644253,-11.409484281976091,16.65652332210149,2.3398174278685984,80.50721753124623,-6.0379459837787355,-11.015266436253503,19.691519614235503,39.29506269025978,-46.16077343735554,-43.63355551618618,-27.535741367335863,-23.608027801012994,126.49010694273414,0.00013105096921522345,-82.61139950877126,10.285703125243296,-0.009135676239802479,97.80530156418716,15.986222527181596,-11.0391576600442,-0.04347767087089245,-1.0352851956842701,4.652747716201478,0.03038286573268914,5.730864064970118,4.5486429768479955,13.224905745352372,-14.984122501183084,-0.5142834619750454,13.962808672489324,-16.171015508344006,20.46952410121387,-31.526853241501442
-0.6938420854263437,0.0,0.0,-20.304581784033783,0.0,0.0,-2.091424220470244,-5.160184001473404,10.003749566029546,-20.582237356464237,12.444553419105906,-21.529014292930196,-15.163520031476823,0.07379517274613455,-0.0009420225399998032,-69.58827760666513,0.10829564586691151,-0.0014499296353112164,-9.351982027412085,13.931533482809847,3.3225472431375764,77.00640428865825,-4.302019810020213,-7.45969033697612,14.268662875618103,38.20191371798208,-42.9466123806191,-39.57364543082316,-27.076952918383824,-23.25557295051044,126.30824320916119,-0.010742952379100064,-82.90250334287983,13.979842407250102,-0.05007652760263079,102.88721714994392,4.747435964782519,-6.36381155983016,-0.08156192455458545,-0.635358389337849,3.4041039696919975,0.014328458665316363,4.954082548800568,4.529351011334001,13.138499833112915,-15.768511542909406,-0.501853080498497,13.875417819844168,-14.441069268764622,17.820730540379135,-30.444220639703307
-1.1911276271899576,0.0,0.0,-15.597423108487963,0.0,0.0,-2.2825291305018958,-4.840361628744201,10.597277190024206,-17.977353233422544,12.04457306986596,-21.854338786164075,-14.496229511880518,-0.201324285327852,0.0004230661350420626,-72.28474344845652,3.6780249550030057,-0.011399318535872172,-7.208662980241637,11.19107661022052,3.4172086673872157,73.24302578964526,-3.6482365732096826,-3.4017518855781104,8.668911415004999,35.843102075021534,-38.49740360230139,-36.70589631551571,-26.235684324141207,-21.30561108326449,124.61370040432861,0.020177849967130793,-81.19262158344407,18.75541830557347,0.0007832438159920275,105.85763003831111,3.644488919875086,-3.76594275169797,0.045564400014234854,2.067955882288266,4.526827316564265,0.0004181592973236002,3.444377135401467,4.078365535327831,12.6410962316863,-17.32235693025336,-0.7479184743350421,13.251790041760508,-11.866760563148391,14.912881494718688,-29.28833772280149
-2.316386479199516,0.0,0.0,-10.50493987004456,0.0,0.0,-2.117170803640949,-4.091330516981478,10.358640559654846,-15.543829374545394,11.298823922686653,-21.00424741764364,-13.96868303904594,-0.2579615845314487,9.947668731086275e-05,-73.18944512090252,4.522857954877701,0.005813173079753384,-5.28181252278819,9.3181627995154,4.539782797753964,68.21546541790417,-2.5014028653993834,-2.182812004333411,3.796242951283158,33.09679098562141,-33.05968436051754,-33.579548061334066,-25.79595750423091,-15.565292836057985,122.00273464302047,0.012400495641904758,-77.67434229709517,22.97519817926373,0.053824648908997096,97.57348113262789,5.343477149141483,-4.960154667256312,-0.00022824557628651213,-0.6219984962728761,0.858304716495676,0.05502136228076373,2.394326539076027,3.737124307720532,11.094459729567319,-18.49507080183905,-0.5181723303131143,11.688181795038222,-9.778088432103331,13.04474600466673,-27.605202772487768
-1.2939098899764077,0.0,0.0,-5.11863066493817,0.0,0.0,-2.7384530416270074,-3.8023104438655277,8.043205303632748,-14.4832449880199,12.357536693427575,-18.46032781724582,-13.927991166029356,-0.3417815887439775,-0.0009016568453114078,-72.44993562625694,2.748166563704971,-0.008372840212333815,-4.05813900136914,7.6843101383785,6.816290094652081,61.86218580438655,-0.19313204542617946,-1.4049624687234035,-0.10932418140776015,29.94234512263382,-28.294785537807943,-29.398650193973086,-25.875678645897896,-9.472082009302788,118.77332339932755,-0.02814139041142727,-79.70299433152528,26.569902502933303,-0.03448948186051891,92.27628212106364,5.8586736782031466,-4.759645734864103,-0.007372427262509027,-4.176487410811463,-1.2506070021692912,-0.01617908644418461,1.3839913092024383,3.362933182368522,9.580619070134734,-19.61056729184492,-0.32757567200128057,10.143253809288394,-8.918133780508017,11.482659802376455,-25.58552390424322
-0.02982968064944701,0.0,0.0,-4.303024960150047,0.0,0.0,-3.773289879630167,-4.763333274517258,7.126274960660078,-13.378788156986676,16.591333749963546,-16.12977686346943,-14.400959692324077,-1.2911922803447746,0.0013918224637129886,-70.69810066986068,2.418929460729222,0.004455005334416003,-1.7592225935133263,6.649771256764386,7.980212525960619,56.02686261562038,1.612687638170724,1.3556610436100167,-2.8544943768990167,26.710731865764405,-25.194688951321815,-25.398022712654683,-25.788257181096157,-4.466643887825173,114.94423220129187,-0.014482083811404409,-83.72710709158338,30.312759203641654,0.030542049787852844,89.5170364654578,2.759664633972634,-6.150348142990586,0.022032397064442034,-4.757696267808291,0.7941704070517308,-0.0006911813362936877,-0.6048996114826712,2.8147885739048846,8.88306647802524,-21.64382501857244,-0.5894377912747356,9.296449223270699,-7.121033079585142,9.886833494765517,-23.640351309601243
-0.7469284097824006,0.0,0.0,-4.15998850854865,0.0,0.0,-3.4456657390050243,-4.45143812268094,6.989565641724885,-11.582025137733549,13.755208134318053,-17.683141548732035,-15.91897880190249,-2.3626233061832123,0.001233211902052174,-68.78226576315572,5.336775530322519,0.028122811535693498,1.7596865314102175,5.825402369588456,9.144812401697404,50.99855922577809,1.1788628212532484,5.234130121376698,-4.748608933799766,24.492365056797876,-23.485656106194348,-23.664241448752552,-24.163232610657804,-3.323459411652019,111.18641130417852,0.04619767653158809,-83.83916522999009,34.20021091005963,-0.033967738516411085,89.9735551578135,1.1480684068205664,-8.716389634744386,-0.008653398192024249,-3.797859845487532,0.8047784011191911,-0.005670864752339822,-2.7875335048158196,2.2500746825349975,6.676023188441295,-23.941960274415127,-0.3225700698752312,7.036021288854781,-4.283968848253868,8.120195642497194,-21.518366951737114
-0.6221841645351702,0.0,0.0,-2.8218319139617223,0.0,0.0,-2.846486283415781,-2.403950764025206,5.2572537598367175,-9.832428527437433,7.525465833110336,-20.71758244452725,-17.85322168874186,-2.1781014812673067,-0.0029211835228009617,-65.8003427416669,3.5043352575161357,-0.035448520810874976,4.957917649788297,5.0641571735301865,10.887767914870453,45.4467324363656,0.9228078689068882,4.133659875586814,-5.780365366698263,22.300091875297625,-22.412212124930786,-22.329684935292516,-21.992304001322577,-4.5269880199721335,106.37206269558754,-0.02522857576920898,-83.78280204466493,38.31879975659875,-0.018386988421693617,93.47511314734108,0.005479691457585418,-7.7677904831347355,-0.01228622702576313,-5.140559867515853,1.3577405039924038,-0.020964274101347206,-4.880638604019565,2.3013899952860895,3.911706140168561,-26.135929131702486,0.724513645925949,4.479480434847685,-2.379509954138104,6.964139786906115,-19.02729643611374
-0.4487227954432465,0.0,0.0,-1.4035711308231111,0.0,0.0,-2.8334160207036465,-2.4515286935866762,4.818023280773793,-9.275749846668447,10.672295027318814,-19.849523017016594,-18.63951573959982,-2.0955281440496463,0.0008892362750196102,-59.74792501288745,-1.9044331784059814,-0.03132480377255781,6.884393639307527,5.426833728868535,12.257700271193103,38.94259661166841,2.9091131798991814,1.4139622801509462,-6.427345280893824,20.304647414615406,-21.707522298965074,-19.933012361228872,-21.03737191487468,-3.4871909030973245,100.50240315243558,-0.028762724541141906,-87.74732115225373,40.58776963239661,0.020224306805475732,92.09924138416585,-0.3267456342468826,-7.665714121644309,0.0018414181536917816,-7.1587877488026,1.3078988101375728,0.0021791058534005618,-6.720621619492697,3.0377003071235062,1.76896746292773,-28.031818627723897,2.1875652550812865,2.7517595302841777,-1.0304378551026039,7.048476077659636,-16.29883793726837
-2.3447011047056487,0.0,0.0,-1.0415212455526741,0.0,0.0,-2.3669606459937174,-3.6945816151298123,5.522231906009423,-8.100918575703197,12.93899310944895,-18.536454514655652,-18.932034103848885,-2.2773924957614,-0.0005511158032830854,-53.01659958829467,-3.449071545091914,0.03706210214969731,8.548023212020883,4.507326944271547,12.841460084650265,33.003815328873614,2.8334673443713347,1.6051507858936613,-6.320984907192105,18.626990670272082,-21.17678928207417,-17.638240046249912,-20.174673476756094,-2.515966794467981,94.28703661434612,0.027032133252882194,-88.50262797668849,42.51508062231991,-0.0009206883328430591,89.37730758505629,0.7470977764577833,-10.180924078139231,-0.003151220755759089,-8.213368443013605,2.249983076193662,-0.010416130416229036,-8.084976877011872,3.4601591738451205,-1.2354022043702533,-29.431253487930306,3.6722491938429718,0.10789777137364986,-0.12562968373349606,6.2567789123373405,-13.764839696525211
-2.5803614784904094,0.0,0.0,-1.1570705525046014,0.0,0.0,-1.7792937410351968,-3.8638454185073132,5.833693462608488,-7.176755522290401,11.532124927897222,-15.43891153815146,-19.57915211623191,-2.2034827738703546,4.163527938512608e-05,-46.24753646558661,-4.152165764909522,-0.017780615283674125,10.560910146599918,3.420576771098362,13.910079036589648,28.558332134849643,1.6785530148570014,0.12513305422096366,-6.96376902845115,17.028600447953984,-19.13461495747723,-15.786221584889828,-18.97884911441806,-1.8775965769399545,88.37954648555967,-0.004411542654337653,-87.44186493313599,44.06840724962695,-0.006886663043926183,90.28103384248361,2.328222254950172,-10.290284793376744,0.010018221920726508,-9.44727390699406,3.171430021195868,0.004124795587552075,-8.765213543053337,3.625732369617604,-3.8776660368756484,-30.09761377474937,4.78626322493361,-2.294782457266019,0.7086989383874158,5.161346788376385,-10.819436209204172
-3.2492580830355378,0.0,0.0,-1.0100338138087053,0.0,0.0,0.2963714137602482,-2.6768075841242416,7.683719374592563,-5.687036759527433,11.83166414859058,-12.895155628101632,-20.213502352644618,-2.8740896090549524,0.0006095456635269666,-38.2429478753993,-4.717949814278344,0.0037097175849432735,12.05730920915978,3.753810325287509,13.47906769791045,24.132303774738915,1.9098668960211864,-1.3810395283470454,-7.701607935446895,15.6548219409482,-17.333413360842062,-13.934032992524154,-18.047297002731483,-0.8139031060658269,82.11763696950626,0.015988556022472445,-86.13081042842848,44.97376435724409,0.0021028993613113147,91.02454649108397,1.3937810665243697,-8.229008421985961,-0.002654348678420743,-9.471326935877416,2.8153907763345787,0.0005166650143613665,-9.570102819647008,3.8515469625662804,-5.223087087099793,-30.8852018805487,5.48484252308932,-3.4680230896270112,1.2757857080753587,5.4682331828057205,-7.724408378069168
-3.5854811820361783,0.0,0.0,-0.43412306215035107,0.0,0.0,2.1649329360769274,-1.885785591161328,10.0770494411682,-3.1454972235604273,13.018281008778189,-11.991272459979983,-20.458435225323036,-3.4479291685051994,-0.00037450535924143995,-30.093278231567247,-4.499533331116685,-0.001577094686319394,13.344128791881909,3.6456023235089603,12.216208661096887,20.2368711971408,1.8031281323507133,-2.075848677614697,-8.245457472124212,14.52587630132065,-15.614026417515857,-12.093649647739829,-17.50610362737748,0.5561650989438147,75.49042748022727,0.014835173180449314,-85.52931220567153,45.51405808122164,0.00401018244768631,89.09278151068466,-0.5538879650243281,-7.842379048149422,0.0051522547119415545,-11.282668184524525,3.4922309988977167,-0.0035814943086391006,-10.686059216343219,3.492484759417636,-5.705583985824461,-31.97728679000134,5.325245206389213,-4.049660283804445,1.5815506955824032,5.87940271813483,-5.195932599807277
-3.329848260995562,0.0,0.0,-0.3298671036858341,0.0,0.0,3.5778105527980824,-1.5106867237432622,12.189990769501975,-1.1641179069313332,11.554906737931407,-11.068567445214004,-20.821911555722746,-3.277072368449638,-0.0003631176221977977,-22.9936445257601,-3.485932075653844,0.009890527722401678,14.756254069670238,2.510676277047006,11.721287635842716,17.44552871866134,0.6667985248450272,-2.650437947767677,-8.451383398610956,13.492681810961615,-14.180053688670528,-10.500162692308717,-16.937703674365164,0.9989064083131074,68.5798635660856,-0.0642153266350063,-88.29235078856597,45.12354498065508,-0.0014408829024209915,87.5463655905298,-2.2227896814609056,-8.026069320751521,-0.0016517710571341173,-11.248172340401739,2.2949803176504346,-0.014843860649470367,-11.555003225724866,2.7128691526570576,-5.585692315551139,-32.82492489130575,4.555341884995073,-4.221689710995775,1.8308350752742677,5.543318456228486,-3.8175089227788472
-3.816491589046667,0.0,0.0,-0.9345377430576288,0.0,0.0,4.842006280235133,-0.9640064785165777,14.93427746539934,0.4385889013527807,10.579314825582832,-11.138899377312192,-21.3323942095177,-3.705620620699112,0.0005063665949029825,-16.9533755957389,-2.3857305069766173,-0.0007657764435572891,15.743644116222404,2.008811925914191,10.913595797534711,15.141914099691848,-0.06290609595922299,-3.153303307203736,-8.140904993211585,12.033438148577044,-13.518700855170614,-9.28221201514882,-16.816185895066948,1.1382406323159646,62.34308211408473,0.019780510029514652,-90.49049668412803,44.671227114674146,0.005053227224767033,84.68524144552748,-6.198431829043855,-8.409454775955865,0.0017099354396523125,-11.1525180766857,0.01116975109373861,0.017883905754661075,-11.487254763196963,2.317055945665158,-6.397694211656194,-32.72171165472771,4.480488472997455,-5.124019101032198,1.3640178084548455,5.564826132769534,-2.764307499532374
-3.0576373646084645,0.0,0.0,-1.6847238235240125,0.0,0.0,5.240459608701747,0.24572332077754214,16.135252100787405,1.1671303149243677,10.560698081942276,-10.23384448245048,-22.075326692573256,-4.387573611760342,-0.0010561699796904193,-12.537385486420145,-1.987085976978272,-0.003493406078648531,16.48312211839757,2.287790261320488,10.82944024809333,13.488491826441665,-0.18675769814511323,-4.356857730750438,-7.846685593021006,11.27132522580149,-12.936850363017674,-8.781840144725177,-16.426250121293005,0.8180143837297971,56.638576086116615,0.05142913940571727,-87.22888690592386,44.95853832020029,0.0007377886537646638,84.6288654142675,-9.554232176316571,-9.41168179130018,0.0025946348299880273,-12.21051770018954,0.37781769363498413,0.011038379659742482,-11.379692435595194,2.631239729807848,-7.365715927760806,-32.589760723028775,5.12346535063504,-5.91460413870516,0.42711257998896657,5.7387633090388706,-2.0019583776949164
-2.9917653414112233,0.0,0.0,-0.6787254378290295,0.0,0.0,6.075281180181443,0.6725827648120332,16.092975169089154,1.2061486852565344,10.029349653595075,-7.382140426674364,-23.654092563629185,-4.651985017682255,0.00016014007868808735,-9.272899618487882,-1.9879380169912004,-0.0015153808084326327,17.646673995702585,2.8729160502498523,11.31364165253613,12.540111534528533,-0.053758846004808646,-6.0753590111519,-7.052362814044475,10.80371075511592,-11.769731422993367,-8.229688639379637,-15.904651659879246,0.8254148061345968,50.06193429467517,-0.06859661696208123,-86.31974882020491,44.53995309295359,-0.008577923033819294,83.01347769325211,-10.436986543922885,-9.736849415956653,-0.005100472608563744,-12.294571124094558,0.1298042563919887,0.00273638859974169,-11.003760772592617,3.017403383952001,-8.255153540024569,-32.19179144580896,5.804735512573623,-6.606342611088557,-0.48415137642980854,5.964170229921961,-1.7046580167232224
-2.7119588356952073,0.0,0.0,-0.47750116179581503,0.0,0.0,6.917014287374262,1.0516083949569244,16.247353638092367,0.9899960248169035,9.441989351733541,-5.739435632882809,-25.166490077038496,-5.330449640625921,0.0005797255390582581,-6.376699471740227,-1.6636277474536183,0.0023767251357047926,18.30510119350233,3.989112510797392,11.160866216384235,11.378782455620406,0.4492032452209365,-6.766275462566038,-6.691468612311772,10.435375379250075,-10.156780349563066,-7.447359199461888,-15.16259280351463,1.2156309394002076,44.43652627426714,0.0066251120017783325,-87.4632328029287,43.35674932123342,0.00833397424450885,82.0920645578879,-10.002356874596662,-11.110143927156988,-0.006933787667871929,-10.97687545818454,-0.06511388059090073,0.0077434720127479515,-10.82230372857202,3.323138122985707,-8.400052790138446,-32.015790306130576,6.142082114763342,-6.630854862063247,-1.7871566178146459,6.4217155432787925,-2.0516119728457483
-1.399058092288369,0.0,0.0,-0.8341663060945129,0.0,0.0,7.59892083544253,0.35035476119215675,15.408125724301057,0.356594161265599,8.621592277056346,-4.2440477929557066,-26.55326216962068,-5.617776560000241,-0.0016668367976588926,-3.961733306082441,-1.1526277046837416,-0.00012273846636092365,18.858243398679843,5.148993615721004,11.811449898983518,10.541102047134313,0.9656589348982699,-6.920801939100444,-6.763926081632549,10.514583827232224,-9.821242344031614,-7.040494606200863,-14.89151025445752,1.302815392759082,40.87822657856941,0.026121613808925217,-84.18494440352862,41.940951777956485,0.0032089699074510296,84.15486978606214,-11.110932066371578,-12.00380548338498,0.0082145921235839,-9.927346320073745,2.557897571957875,-0.004831084584173265,-10.925435743787661,3.568884229734982,-8.58514316836939,-32.12086051970837,6.438013172317158,-6.714776732786996,-2.9625792826578565,6.7484857664914095,-1.7343016652281134
-1.0180598143397728,0.0,0.0,-0.6961189102548043,0.0,0.0,7.729950774162481,0.5990272631239603,14.043568346301198,0.0008279581431538917,8.059963896250386,-2.3362570292425553,-27.742724940897656,-6.173621290634568,0.0015958473906378143,-3.3061173688159147,-0.7728116230419458,-0.001211697507599115,20.089641852627526,6.1695372639262365,12.033015060074309,11.411595547311801,1.1389019803478766,-7.290727956039151,-6.1112434378232825,10.546604699351384,-9.798088984220735,-7.826402609593755,-14.517092084597932,0.6113581568889963,37.731924509592616,-0.026626286203464068,-85.1827487116891,41.308581199855176,-0.0025287697283524757,84.3284260360966,-11.004549811110671,-14.33676686016321,-0.00790763897314506,-10.240355281781182,2.828959654021166,-0.0002599571171192093,-10.786980309921905,3.6467620454288783,-9.194483626663438,-31.958538186515018,6.730379508208528,-7.257251068009481,-3.3061713766773995,6.709274427473305,-1.092188070229851
-1.2087106517899824,0.0,0.0,-1.4288557596149247,0.0,0.0,8.22031914581459,0.6404923666509704,12.613434376202118,-0.9932564951229649,8.673340617245898,-1.0351366215632873,-28.807892723617293,-6.517793463756627,-0.001336842053519904,-2.8536319561763537,-0.5997182386603779,0.0004327112711158029,20.75859895241657,7.406973307645275,11.930958277842317,11.934878892244381,1.6226229048920828,-7.028231149937333,-6.031772397011687,11.06701276257703,-8.667426690176969,-8.8339546960606,-13.852259585507062,0.275949368525831,36.65830947451465,0.00730483990387988,-88.76202158540038,41.05644681938137,0.001572267485555318,84.43081055551582,-7.125922947129323,-17.058234769263812,-0.013334703269240456,-10.452882388988332,3.167382109123499,0.0024792617522141386,-10.669402679265447,4.007625170277588,-9.552899334770213,-31.840077190632545,7.196042091178382,-7.461925130193309,-3.9553137270318204,6.676146633660879,-0.9194663468824048
-0.4619616228820743,0.0,0.0,-4.438453301852276,0.0,0.0,8.407052351290988,0.029038475140881842,10.728555919454218,-2.3984738219900135,9.822108314478173,0.09185339456470527,-29.670737787141334,-6.3715687978960105,0.00041372124924225046,-2.0787102463325353,-0.38677803534242183,0.0003309820161383696,21.51447076890294,8.1727756028169,11.64991483338561,12.494188177425022,1.8683447961365962,-6.392148425794511,-6.207165890627182,11.369604942148143,-7.597875681909404,-9.485543691126127,-13.773647346885642,0.569839523545221,36.51122101476944,0.0006601986134059353,-90.53736739610608,40.25543825280781,0.00031217553033600345,85.88854599062623,-4.489748710018993,-18.764916180989697,0.004558662099785621,-10.080366625464976,4.209331235609784,0.0021251001404109433,-10.74691005947017,4.3355074063844015,-9.74063790360074,-31.923960296099423,7.5694284317560525,-7.518555197908887,-4.207802063954078,6.534679656831584,-0.6640076906961311
0.22663791901431912,0.0,0.0,-8.473352856199787,0.0,0.0,8.946839234346752,-0.8847078070141061,8.913110921379177,-2.7820990043824665,10.522689345502013,1.1303919487032499,-30.09563256409472,-6.562372975312545,0.0005896217135141501,-1.800310826434886,-0.3916704147877376,2.4700724697711472e-05,22.388614931712745,8.426120567023048,10.185051837462636,13.640075333280201,1.9037564310219972,-5.734872083592534,-6.415364853899149,11.51985819542869,-7.096354537761626,-9.951609087117447,-13.920026241691993,1.6600129146179443,36.24127382159962,-0.0017144311004669867,-92.00613833703349,38.42992891309768,-0.005753806668804818,85.32587938456719,-3.8879906444169303,-18.537120294678747,0.003726548612108207,-10.22842649967063,2.728923614065132,0.005610739012875887,-11.25131532295783,4.834737578753031,-9.817584140703097,-32.44946677338275,8.062621020235735,-7.408616245947614,-3.711134723467757,6.219658333534948,-0.8449251011356288
0.5448593562244995,0.0,0.0,-7.1674932031553915,0.0,0.0,9.612591913896578,-3.030185664984291,6.53701005376891,-3.9788093463140055,9.791911582970101,2.821257933445555,-29.813304805036122,-5.867287204552466,-0.00012457377160985395,-1.7248203425908362,-0.40393263973812743,6.647749672947784e-05,22.51168237535991,7.954301108970882,9.366112116756266,14.46534869109345,1.6345350155823184,-6.305655913633447,-6.267653769080125,11.59291166386477,-6.918024031869242,-11.182326123319436,-13.900433204565655,1.152512494558172,36.248460802531845,-0.0001672445444913115,-95.42857206007245,37.08120299433425,-1.3440400089013223e-05,84.76265451716036,-2.750856741841684,-17.875032126760445,0.0012662340653745204,-11.172032709141352,2.507785572917091,-0.0022122876491963033,-11.948007857085909,5.241285414346571,-9.94660915364326,-33.16144271223582,8.48813400237763,-7.381093667847633,-3.3946024045140524,5.799862337319014,-1.2957457169066313
1.2215065553143725,0.0,0.0,-6.4798842309100735,0.0,0.0,10.030331278079773,-4.343133116150771,4.661994123409335,-4.487644692591715,9.743353392944305,3.296728832689683,-29.140944697829987,-5.199770766932713,-0.0006399557213764645,-2.176745874240163,-0.5424965594244586,4.924716690454715e-05,22.38482085129426,7.079123776226964,8.100513768887991,15.447369748008875,1.2514777198243778,-6.5527151863909,-5.8834019911508575,11.519204375599529,-7.085164842077807,-12.585986156948536,-13.997024436421212,-0.04376292514515024,36.65122785691988,0.001405941168853743,-97.85752387658452,35.85095323453878,-0.00044789162971405115,85.45223572719011,-3.259416062704421,-17.698919638246316,-0.001851758635678089,-10.203880154724505,4.10100445130309,0.0008850150549141056,-12.126049324383184,5.283038321395524,-9.964149906948222,-33.34093313215488,8.5333757231777,-7.382285373998813,-3.016282818805871,5.300249096056851,-1.4920790222194618
1.3240764052306089,0.0,0.0,-8.006924380446083,0.0,0.0,9.997774380185458,-4.749608252973104,2.1998023277429484,-4.645357674781445,10.066378632002436,3.5558347314113687,-27.731876440368335,-4.279319303664617,0.001803643353752139,-2.858518146916847,-0.7330213849679672,0.00010452644069918546,21.64591356693602,6.166037625391539,7.331261661549336,16.34884118965679,0.9903077220041481,-6.18724182076794,-6.014372228369957,11.537725706225705,-6.272691860093206,-13.741426928801346,-14.598597134680173,0.9185132079369397,37.25532838908789,0.00162575127438606,-98.64824064900853,33.91151854689638,0.005693291035547182,87.36961452632785,-3.2074313135609045,-16.029860840139072,0.002904443459360212,-8.84876077508916,3.8540909306301945,-0.002301411196837042,-11.764093447243036,5.379807570718437,-9.510648580597577,-33.004943465223825,8.460093915629145,-6.92128972078333,-2.588922780611561,4.7017095140358975,-1.8044246854695998
1.470838052666933,0.0,0.0,-7.616403983969063,0.0,0.0,8.627210309305799,-4.92509809179748,0.1349543267889937,-5.368256069649266,10.79035759656818,3.749923665937508,-25.873134648028113,-3.398098082367063,-0.0015947739918227074,-3.4570701905872,-0.8970609976989631,3.097274000154865e-05,20.02142958096482,5.253269244501577,6.870770654411158,16.339161047623964,0.666543907681095,-5.513757905219297,-5.754810482005861,11.793543215461732,-6.429163705087057,-14.856060183861988,-14.975252201085176,0.7421682718299393,37.69628267629206,0.000222824015248133,-97.20150787521038,32.394350651423956,-0.0033282891121447604,90.11821750833074,-2.7725791345305724,-13.420488467835508,0.0009897585196421653,-9.241100247688138,3.4404020367316615,0.0010380141257216309,-11.178337652834985,4.931183089968817,-9.06187853638775,-32.41534418484736,7.880028172415625,-6.664598665915135,-2.99531952716067,4.211841025460959,-2.068012966504371
0.9316995194818949,0.0,0.0,-7.390220517838994,0.0,0.0,7.148786040022006,-4.496004562168097,0.22754328902622878,-5.760646779029064,11.574185310925245,3.405833199554484,-23.475557576636582,-2.8662080181572533,-0.0003631475902247794,-4.176071533328968,-0.8564554213382425,-5.198435848851935e-05,18.63381868012262,4.421743702358061,5.72815565729358,16.659463187298094,0.31785132574263586,-4.883195726412847,-5.19436603685416,11.886830374440626,-7.031179472096387,-15.68224385759167,-15.49353003123436,0.4858791458265281,38.688943769592576,0.0043097792331228384,-97.31211123983485,30.61611445580127,-0.009573787462655433,91.01120411826484,-3.312400889597269,-12.434932155064228,0.002167826911566095,-10.004500198604946,3.1634465963066547,0.0017403490975428223,-11.388587729746025,4.233949745765442,-8.868868078587125,-32.60052751046431,7.160430803867808,-6.738302793774657,-3.169254771632336,3.9790661024452403,-2.202239127782939
1.0599358572033886,0.0,0.0,-6.283879749703401,0.0,0.0,6.006637424096275,-4.415698464434278,-0.21182066901508093,-6.484958143985878,11.492188425610076,3.8154175132381902,-21.23150699308944,-1.8988479819896007,0.0025556281500315786,-4.463885599621357,-0.6640670060539722,8.210916010540683e-05,18.060867411202246,3.903221326263564,6.0071217951514395,17.491083334646266,0.08958669336599111,-4.702442193632909,-4.352485206044199,11.879163782092586,-6.713669792859484,-16.211813907959517,-15.844374149731188,-0.021185560416656826,39.17094311298866,0.0035073636798932245,-97.74928571009897,28.559223703772503,0.01082020199626385,93.35595364790083,-4.188265765815551,-11.779119998803164,-0.004867195478127927,-9.337163673210377,2.9645610617078946,-0.0014790059129282816,-11.314813839434981,3.643479956680223,-8.018760913511622,-32.53645633906252,6.303065817334437,-6.157371720324149,-2.633391923565837,3.7480524768502574,-2.688272828371404
0.41028660472320977,0.0,0.0,-6.8194751716922655,0.0,0.0,5.690889402054523,-4.79680142900498,-0.058209854599975755,-6.604500564948858,11.19584133869078,3.500265467051384,-18.927242340336395,-1.4089948841225717,-0.001550138186301182,-4.714679255638748,-0.48108773655350895,-0.00011884280843330076,17.355287138997,3.6772751377617707,6.08378599066413,18.23211594503014,0.11275334379988468,-3.8336390351490683,-3.6327318415727565,11.666076610477763,-5.845849455908328,-16.40699327481231,-16.253165527795957,-0.4567820975523739,40.0288180579965,-0.00761808388121116,-95.89254400640756,26.71060955022286,-0.002698707577387918,95.4441463465936,-3.7295531172385403,-10.785924439775556,-0.009020636373185386,-8.831064671745992,2.3447610261704295,0.0011998291243489735,-10.82812454229189,3.0878708050384676,-6.720470054999307,-32.07597899628541,5.3157598667474595,-5.1453558706909215,-2.2256177585641423,3.6552386623202793,-3.1009738129277187
-1.469801495520579,0.0,0.0,-8.311207312790549,0.0,0.0,6.231602226323121,-4.253224348224585,1.2224356348532035,-6.666200426348427,11.148039380015693,3.3012165968157863,-17.328967969550703,-1.6375145213285849,-0.0011007194149942646,-5.16189924547592,-0.41556728947685767,1.2428996697059956e-05,16.771325930914973,3.6955967571740302,5.844741851327426,19.122765636903196,0.38839589419523596,-2.588800944194647,-3.2151353278621624,11.740661319926001,-5.523702147581033,-16.44519818503085,-16.692287610117248,-0.11641228445134875,42.24285844931916,0.00465562594505527,-95.0561389950377,25.51203160292561,-0.00567208166263799,94.9169665420563,-4.278964020652957,-12.571932069219956,-0.006289097530884895,-8.787788349662895,3.5804000207447086,0.002580074465346158,-10.436914343720069,2.6657912987761834,-6.024851423522938,-31.69306019711227,4.670553770102504,-4.648968508015939,-1.9611104288792596,3.334586479947483,-3.1896862188705626
-1.863542637786451,0.0,0.0,-9.533556148074629,0.0,0.0,6.482815220554664,-3.684766524386106,1.9440443657897957,-7.311312793620975,11.13055919574624,3.8998798813800994,-16.04866032636034,-1.6449625211368677,0.0012053373574717088,-5.694167638844541,-0.5670905718353136,0.00014025002306887208,16.327450791180713,3.737315695569729,6.785915760224462,20.121989669225194,0.8751056965220938,-1.7339713667387964,-2.405136395884451,12.110693183152087,-5.8464258901466355,-16.166033024979864,-16.97141336786768,-0.16418029869016118,43.56653975018453,-0.005948716399489555,-95.91095705306323,24.13570815562736,0.007573584520504312,95.2014931457862,-7.367271485492719,-11.822299682882294,-0.01098143096165178,-9.494810554833206,4.443889107305206,-0.0031716493841581475,-10.360823187622733,3.304176403052733,-5.754217222348666,-31.644483329033676,5.167411854702173,-4.163742014720292,-1.9039462803455707,2.837751726654812,-3.0998281510322476
-0.8271888814057258,0.0,0.0,-8.76227765846275,0.0,0.0,6.062010534083681,-3.5615708846388685,2.4059635591869344,-8.572237223304075,11.414317810350306,5.341784311118346,-14.83150799220839,-1.3428074925271927,0.00016192955484143956,-6.014623766576291,-0.7023393111010067,-0.00015235181835262512,15.57142826648909,3.770476662734882,8.219018079065453,20.52387188805614,1.3236797498598571,-1.7080330554789462,-1.5995766672553382,12.234998789595782,-5.301107811831471,-15.38981021025444,-17.60489461611203,-0.10015019028935288,45.393351788302894,-0.009225842249639772,-94.73025549233168,22.800783745670913,-0.0008075566325289128,96.72554883589066,-7.552903287876149,-11.309632569595669,0.00022880622334220412,-10.618520082356758,5.845231250133062,-0.00440243269003993,-10.157275472670218,3.3794573056129096,-4.98940151595277,-31.461822926526015,4.960278040873414,-3.4221196471882305,-2.7130942791898147,2.5961238188552733,-3.306890946011401
-1.001500042327984,0.0,0.0,-7.63109051742742,0.0,0.0,5.913429390714678,-3.8019800225837415,3.684818937471644,-10.098495741345697,11.702798602638342,6.648558722698465,-14.113482042840733,-1.1865638131503644,1.678141284360498e-05,-6.029282449769024,-0.8459601089892723,-0.0001784336135973358,15.350769251510826,3.8788409242617763,8.91651076047092,21.0241528693384,1.7918202429025725,-1.8344873768369088,-1.146181073652777,12.276287844288941,-4.1271382339938425,-14.451454047799439,-17.742779674795987,-1.556205791959597,48.440386197525186,0.009079188083638591,-96.42879352999566,22.20480424933075,-0.0003198572114432316,96.9893769792655,-6.716501846583763,-10.762266569988109,0.0009978729819506258,-9.244616563254981,6.517400358958066,0.0027970487888764983,-9.531522751187413,3.284930026410236,-4.317464658202005,-30.846556856087187,4.628433380689116,-2.8294614071017574,-3.5262744764997684,2.196596672306115,-3.6401881930265367
-0.9991581239383842,0.0,0.0,-8.21587737560877,0.0,0.0,5.813054132636329,-2.9867679692253106,4.976372855504404,-10.759305896950542,10.690070057123402,7.81113620750005,-13.386699487895863,-1.4823615541657484,-0.0007006790527904963,-6.3420113511848015,-0.8996507452844218,1.473947254756801e-05,15.686150197062227,4.496461509073257,9.619677695159147,22.36297002935162,2.65890241391336,-1.7446322550892392,-1.1851442134473982,12.358388541880167,-1.8676080184546549,-12.822734504729393,-17.625994883131657,-3.7934798298376013,51.87241969218881,-0.001148635362552368,-99.02468292990265,21.65638879673498,0.0024142360454608887,98.62166402025758,-6.90539542237203,-8.603256941781892,-0.0019598319501731368,-7.448499770484882,7.3919248822061725,-0.002646308597567014,-8.672777785111215,3.1803747405948593,-2.7347803140618976,-30.006175548653445,3.9563915596443797,-1.3914665829167916,-3.7316035415340343,1.7563163742467929,-3.811979569118
-0.7362009833141405,0.0,0.0,-6.96352170674528,0.0,0.0,6.006323074175443,-2.231105015775778,5.6658588251596695,-11.155529470058402,11.405675983175106,9.245703519710506,-12.64796413609174,-1.8292055886378045,7.878892161770687e-05,-6.810818336483784,-0.9481689896350748,0.00016850319051030165,15.169746376152094,5.358961074519741,10.820538132258948,23.044324343020854,3.5533537811219156,-1.5610870213867614,-0.9883661103037975,11.881814521637752,0.6134356087720965,-11.501985750747433,-17.592278053761035,-5.131019479227667,55.23428618279583,0.025290911966906287,-102.51090580850327,21.72273148765358,0.001391421984766256,98.05867539065865,-6.766997734425499,-9.655855933800495,-0.010142491004955565,-8.133527585479904,7.143651379967361,0.002528839720822938,-7.869283644721832,3.0042270738115624,-1.0945051351976252,-29.205551926497098,3.196380919613601,0.07293069268964174,-4.354963315558368,1.2877661065942554,-3.6263062945856146
-0.9118168608747267,0.0,0.0,-4.902571429854451,0.0,0.0,5.987887759499094,-2.1604828268255405,5.928978702581704,-10.343325287556642,12.643741939662506,10.916165949625011,-12.410612412306984,-1.9105016324591086,0.0001580742862030459,-7.493021551434729,-0.8376362723361149,-0.0004000511932626045,15.133869241748812,5.946937447923129,11.527308772748341,23.598032395183488,3.819303821611297,-1.6048902149489401,-0.6070385973162846,11.968671920147555,1.9507744623395056,-10.643284193985107,-17.532118445149173,-5.360551931215081,58.50650286170462,-0.031283285980478415,-102.20678579735511,21.962564011223826,-0.0027657821091366754,96.73343448854875,-6.954665522830636,-11.190606029962451,-0.0028773872080233346,-9.687478210052149,4.3645252233165595,0.005799855287700792,-7.620460258529036,3.2052991116837255,0.25508927914344026,-28.954293463198304,2.8933741855468296,1.4032215496417146,-4.842190558265674,0.8063932333903354,-4.002052379876634
-1.6010246768063063,0.0,0.0,-1.9909609601194687,0.0,0.0,5.8475703576671165,-2.7908204762647046,7.0653393350275016,-9.552810312592792,13.579277068984398,13.0955060228115,-12.348730761219556,-1.991646567635886,-0.0003751507203335711,-8.326912806751297,-0.678384284979105,-0.00018632589089918427,15.386451965014006,6.57730944644997,11.276411944325302,24.121840211603804,3.921478668655965,-1.8912474973424374,-0.36277886773701035,12.188245449720995,2.9119016344431774,-9.656145375687704,-17.49095915580896,-5.031106125196004,61.65049459139152,0.002287227117615764,-100.11700018157252,23.249326076719058,0.006180681502098957,96.22574892607092,-10.113295745353458,-10.422982556253725,-0.005717479140261734,-10.558164922624231,4.390531922904615,-0.00411861061768872,-7.092650833142123,3.2857283246285696,1.730438347344923,-28.4081520864009,2.432609081523383,2.8061085923993496,-5.4825543344766,0.6568974314670218,-4.648421033419625
-1.8982672908151565,0.0,0.0,-1.0819070080638467,0.0,0.0,5.239613652189703,-2.665899178018711,7.395022539385116,-8.340219810588739,14.351930923775969,13.963904991658248,-11.983272260613262,-1.7764522510035434,0.00041892848178730585,-9.376400380084295,-0.828157571723027,0.00037152034369974734,15.856976106819172,7.074539400720536,11.752877655762504,24.84671256969692,4.007833685816896,-2.13356684747993,0.2670845651315554,12.144271679812833,4.287104279995011,-8.870011731650523,-17.34170158455475,-4.591845211994899,64.4969093476185,0.011596682771438419,-101.75198679174422,25.26536365317115,-0.0020917009278843403,95.68329972297235,-11.780437605368949,-9.705293757280444,0.0030949170434972882,-10.666486005748997,5.322940964691257,0.00305400386931017,-6.260603929515245,3.139480642951077,3.6307666905384317,-27.53007049158083,1.6073188830945395,4.521895979517018,-5.683069989931444,0.4492351531874088,-5.2013995298918525
-2.206848351599289,0.0,0.0,-0.24510954713933128,0.0,0.0,4.93725755142841,-2.9793874738766863,6.611514757250851,-5.925254184443743,14.144362060915148,12.045996708865749,-11.537762832497847,-0.9124836991853466,0.0004760441746952234,-11.277696749444223,-1.0071764468641413,-0.0003848873418372309,15.965450012168395,7.442015549413743,13.63418909646387,25.363973221817556,4.0280011448960655,-1.6732208990657498,0.44174327535060215,12.304108590427486,5.16808666174178,-8.750635014450447,-16.83644065344285,-4.363524023418703,67.12319978577867,0.0014239008956697591,-104.09439695446508,26.913990487036582,-0.005188575657293446,96.7973910149793,-12.560367051731516,-9.134851463900299,0.0008187049913471737,-11.014893153261426,4.414243442557947,0.0018301246084433396,-6.223332965372588,2.95045325968832,5.2825142263150875,-27.436338832786785,0.8335264269902303,5.991096017567148,-5.402684948008383,0.14553739133124263,-5.056919724075237
-2.1758468443276118,0.0,0.0,-0.6989555167891457,0.0,0.0,4.905140920564403,-3.368224375547067,7.408728398693481,-3.5797256099038313,13.706639218883591,8.112945601006384,-11.338020332228092,-0.7116757029706917,-0.0002758727074524341,-13.353723048157944,-1.2115187103122558,4.3980749295364405e-05,15.81916884844122,8.152341138578537,13.772025525334634,25.4920626684433,4.205546899168432,-1.0485468087797796,0.28314353323873065,12.596498819631723,5.741418162735178,-8.399563044859436,-16.330124853280815,-4.775732167094618,69.97097073031547,-0.010191836643442505,-103.844804787579,28.194281234455165,0.007084487931099836,96.47042563186268,-13.55356161857315,-8.504382274448249,-0.0011468662303841693,-8.713196648040125,3.2828444411556963,-0.0008455719241117727,-5.99638214643438,2.5180983611759618,7.183824522581049,-27.126815404754407,-0.2555863977995641,7.6059209340694345,-5.2391977763721,0.15634319247911915,-4.772134703238318
-1.3559854405833693,0.0,0.0,-2.543420075474587,0.0,0.0,4.524998516469387,-3.4800224759585436,8.507585010011002,-2.0524375122544893,13.145928486151838,5.221535849219058,-11.180820680587217,-0.6414775379541476,0.00022994450462921184,-15.008446801993923,-1.635587302930898,0.00014126832688507264,15.875221319495816,8.806211807778816,13.18457458444065,25.411838166003488,4.128408474378464,-1.7661295151045555,0.8137296061877786,12.590850150107878,6.678042763849066,-7.7726975861519,-15.871446231457348,-4.504358839650369,72.65548656115614,-0.0026899878903730167,-103.20267547219717,29.66077097165696,-0.004557160385116646,94.83223012471781,-13.14406008078243,-7.400242402923107,-0.0003866189683342118,-7.639263983326459,2.5689395275339257,0.0018917638180749059,-5.037735869959879,2.475995088573586,8.891513830480964,-26.077767887960647,-0.908680524166039,9.182672615136749,-5.248230753937901,0.21073840975658437,-4.956191451918758
-1.6227585252822858,0.0,0.0,-3.4607875597850137,0.0,0.0,4.056696918719205,-3.4265232921503053,9.636631196880757,-1.1769470332029248,12.993000949847039,2.0932713158614655,-10.373797449696134,-0.5670615719355242,-0.00035924652066718696,-16.686912807184886,-2.09781452371808,0.0017141014228080303,15.699721929601372,9.059657130348382,13.19712956957695,25.352181392200333,3.560547186168896,-2.4826533154866612,0.8680993407739115,12.033429381564634,7.962467367359104,-7.766457989961187,-15.667387373812314,-3.7339356397749133,75.30153110107025,0.013188622822905137,-103.03346551669651,31.45744004671983,0.0014582119112836788,94.84455943885649,-11.380830175863986,-6.364362815895164,-0.0023958224348775707,-7.75563233305884,2.1482825302227724,-0.0024805339267274695,-4.3609230629779505,2.4551892227004033,9.927412372991174,-25.337917490056906,-1.2991412445881005,10.14154091213581,-4.858265262835018,0.060214754881649395,-4.844829196802709
-2.2684537366139246,0.0,0.0,-3.002488694289987,0.0,0.0,3.6744246496808652,-3.769057610390103,10.828549341822391,-0.09870921593678572,12.822871625955017,-1.1850831807735027,-9.183578678501775,-0.5600835846703744,0.0005613523037867286,-18.205377786483993,-2.0406628577969608,-0.0017677971887275143,15.079077411150825,9.217031306271016,13.654343455869846,24.856565532187155,2.6768512396839355,-2.228302737611862,0.15345221284845226,11.70460521882221,9.936544682968393,-7.997947621606943,-15.42204400095324,-2.419345629706492,78.45889191034534,-0.005342714762312524,-103.88063912460552,33.66217859672574,0.008595818103036165,92.81442412695895,-8.949428113929784,-5.411576085135455,0.0008842684377358308,-8.087665907075614,2.2105934246940993,-0.0008946127250857908,-3.4240258835071655,2.4018396759175813,11.257827082533698,-24.311300100566452,-1.8238617993527353,11.364430158419832,-4.462770827090521,-0.30941081203058196,-4.848242108873403
-3.091084155298943,0.0,0.0,-2.6900567534256745,0.0,0.0,3.144089522065624,-3.92629917098816,11.997718981391811,0.6158981689104187,12.210067169061205,-4.527262818837213,-8.57544441619861,-0.6619052557385798,-3.7197338558664125e-05,-19.189736703135654,-1.4207631849820144,-0.0005910668322083622,14.956620017938823,9.51541954944817,13.718680616214806,24.221990457287905,1.5154284544096546,-1.11070868540191,0.1709515671093216,11.40815640119711,11.023803173088389,-8.399430674687475,-14.999626722822189,-1.8361354940498102,81.24301104436516,-0.000869600427966393,-103.02685115570445,36.04022816535671,-0.007278282205653563,92.67928374258886,-8.035302708481998,-3.775422863247898,-0.004009682849894086,-7.5990331269214515,3.2481842894150654,0.0011427041830763618,-1.934100188970856,2.6450009195070705,12.905546774625204,-22.691993194984796,-2.181782027986787,12.990457460475955,-3.8564395840558836,-0.6293573821941099,-4.53307758937411
-3.930008237335063,0.0,0.0,-0.9454844619716588,0.0,0.0,2.5877654976687037,-3.267154559261967,11.57543396183495,0.44205850886273135,11.3636856433111,-6.34223552614818,-7.821808003565686,-0.7828133214189424,0.0001755482930419045,-19.696223903463128,-1.7142029636038851,0.0008223472579487851,14.615850365189594,9.76000084626635,14.012985650595253,23.039300732394526,0.38285606120430005,-1.9636048387109355,-0.3113635745878638,10.796584534883477,11.353243387541706,-9.24406202644127,-14.626365612080855,-1.9632545470732126,84.51099172464241,0.010941412229431817,-102.84325166666471,38.26628776608474,-0.0036919561533837984,93.85612362850996,-6.867075556255611,-2.2698814257329505,0.007350712214251862,-6.595555075443773,3.9670910010742917,0.0017907177054452348,-0.28049375140476895,2.6326783988351146,14.595094911597478,-20.892239497031927,-2.789513901087844,14.56654232969916,-3.1215739870194072,-0.6356827820119823,-4.356467138130328
-4.481342627711306,0.0,0.0,-0.620099175761975,0.0,0.0,2.8014860607979104,-3.9210362023365293,11.520505244092728,0.2754517336961746,10.739213474610652,-7.505989410156199,-7.29580805830829,-0.6963717362979683,5.031652001612503e-05,-20.045183143517942,-1.9174385154869749,-0.000264515864523404,14.889256179082217,9.649336410443317,13.832984206957734,22.393607634157522,-1.094844574520989,-2.735916537183368,-0.39541075042688373,10.459414363801343,11.477147815580901,-9.809318463074854,-14.729868843591804,-0.9339008766794232,87.18999414230487,-0.01329167504780968,-100.14738172431706,40.345311341385404,0.000527800299701776,94.30313113576253,-6.435751433622325,0.1741032055603516,-0.01253233760347868,-6.561793031335892,5.347714395891786,-0.0007434235001072406,1.0797108479721058,2.5168387146320845,16.45932321928031,-19.35392454391729,-3.550935106347361,16.27268752705875,-1.9084836394553468,-0.8706897663126453,-4.392292999537385
-5.3535707290116346,0.0,0.0,-0.12508856419985764,0.0,0.0,3.0668957692834895,-4.495777141650186,12.611065700194313,-0.4051610561470082,11.332527749706404,-8.007664932779559,-7.141163727196734,-0.8149417603405873,-0.00029640205151908395,-19.9351798119489,-1.8194312493869003,-0.00019561198706534238,14.851336506747444,9.789927622977967,13.387337680134621,21.385820723296746,-2.5347625417052444,-2.5455743101509984,0.3739721926434153,10.267758801400596,11.734836316840878,-10.6100289904858,-14.613992730904037,-0.5114117184281166,89.12281628076428,0.009748040590209407,-96.81473930012172,43.03496947976522,0.007620609869172436,93.22903093207293,-7.843301466634089,2.514566751786232,-0.003788451526843989,-7.257882411569251,4.543705021523492,0.0003776321416976285,2.6041181555138815,2.9067348405231233,18.489563772503264,-17.600974312363384,-3.889597276159038,18.31413052519374,-1.4242664702165158,-1.0866390784008477,-4.1926763782960785
-4.444691943155245,0.0,0.0,0.39351734846810243,0.0,0.0,2.936934418075255,-3.6622971299253235,13.483638828377135,-0.8734937198506396,11.780494063605575,-7.5999255383461355,-7.1510206026701635,-1.284436324083419,0.00038854445195466873,-19.51744945922043,-1.9402457866260545,-0.00017519449444277382,14.496011323391487,10.2342072534325,13.481383027165425,20.076263331130853,-3.7721625279635247,-2.964487416666575,0.591768869105591,10.191756139240546,11.985513144931197,-11.91409320396594,-14.191921760002737,-1.1695551600306517,91.72060270078593,0.013621447378623728,-98.18963568837276,46.03288343847937,-0.004565881354991093,92.19554700848268,-9.363893045214969,1.8192687819753437,0.010282705415620434,-6.508675390839446,3.4251466286903804,-0.0014433374127612172,4.225482562858796,3.561930162006174,20.72531835215738,-15.692533684536423,-4.039978875270121,20.641193670159296,-1.0800357493041017,-1.2940711872741046,-3.697582204137107
-3.4806262907631966,0.0,0.0,0.10576703517979769,0.0,0.0,3.0331036089900314,-3.5737132285140416,13.208158296174208,-0.980369998122112,11.356774440633032,-8.106925934348917,-7.973988561506665,-1.1123799911647736,-0.001749213846882016,-19.08506452073225,-1.6994938672892774,0.0003067656294543449,14.68529363435981,10.298173450921997,14.581772617658565,18.98317291067914,-5.374790646910155,-3.5806582782319576,1.093946230298949,10.307325535891945,11.892969384687875,-12.578076545575703,-14.389225277110315,-0.7985126336143549,94.31988738973237,-0.018062905676525444,-97.4022908488208,48.3337699626181,-0.0006683781762043791,91.89732867760695,-10.880246795632091,0.5512598190200448,-0.0018557307627146199,-7.278321270176941,2.849174003381663,0.0046262825634633565,5.065554581219538,4.0824773486489985,23.544497591124188,-14.453644984777915,-4.499217327509147,23.472623258913472,-0.7614985345389327,-1.6490813426636646,-3.0277627614452554
-2.796417261863743,0.0,0.0,-0.5239378048758528,0.0,0.0,3.135758073451788,-3.7896901583999587,13.648647626617144,-1.2731670410904772,10.310196568434186,-8.574527477598254,-8.958381607970804,-1.029755918853867,0.0009417259300306884,-18.238579817764023,-1.4552956748513188,-0.0003119246336171056,14.72702058533174,10.334761552148828,15.354422148520435,17.798509568999403,-6.9611016883569405,-4.121776429558346,2.009067132555928,9.957761288045912,12.387639836931752,-12.718466385115532,-14.756292870658696,0.2417662297301627,96.3710935993957,0.004477573439255955,-96.31085426257269,50.26664648594523,0.006242325437852389,90.62733056214876,-12.575592035777708,0.9076362831273392,-0.0024099606022765117,-8.69007477917468,1.8746567110764545,-0.001048744951069435,6.226300732781008,4.483281177685587,26.88141640494911,-12.765243782973977,-5.218508523699631,26.758002958332646,-0.9608332196912243,-2.10925413502927,-2.444591222298142
-2.134273139498584,0.0,0.0,-1.5828212364146261,0.0,0.0,3.582003663827251,-3.4671242749695423,15.022315479424378,-1.5593090858461163,10.607387433613768,-10.729255621488692,-9.970023164721846,-1.7171408540526938,0.0006124772278415403,-17.50903970794549,-1.3649468559510882,0.00021848444729159576,14.62680610985013,10.689050012933112,14.714892921518494,16.697448130286602,-8.364346945066579,-4.5230883798895,2.447756947921639,10.102312076006106,12.649541363306907,-13.38885987406781,-14.666238534820163,0.47563189935783,98.66205783625422,0.004740826391349829,-97.30048218224397,52.97728781088024,-0.008313955542652504,91.36532942583761,-13.471025693508238,1.0667953362910958,0.001515081133505737,-8.820993123347659,1.553521701252041,-0.0008168755435583917,6.926946550363357,5.495112758655245,29.574550686798233,-11.57099615895331,-5.122697686942375,29.635443637142565,-0.9730047613240473,-2.762349129518936,-1.7284416894580972
-0.9079126372233877,0.0,0.0,-2.2191687938812654,0.0,0.0,3.584059522709398,-2.9942216929937624,15.598634447860354,-2.459803873822432,11.696977522519347,-12.572319458101285,-10.96636947853911,-2.063435523045994,-0.00015923928007399474,-16.98002978472939,-1.4656662680184687,-0.00041849678333311525,15.03292269244903,10.916830977674302,14.85776988666706,16.15586767485656,-9.723874888686854,-5.573696786192768,2.6177118848653813,10.580044911350972,12.918202344662369,-14.15933124146144,-14.516067868999798,0.44263855909892497,101.26718352382711,0.003283417393849105,-97.95492201436468,55.6150187205958,-0.003815040790631384,93.56723072774741,-13.267273249199532,0.8872341045831504,-0.00039589460612846517,-8.754979061431197,1.4133862662298866,-0.0022104315590259884,7.422575422860794,6.434722020168118,31.613532666862813,-10.669329064843442,-4.86722818436632,31.864297072023682,-0.4329999012530196,-3.4621328432610805,-0.8496089656750598
-0.838749559501399,0.0,0.0,-1.9975109522855599,0.0,0.0,3.7839701645524624,-2.7455341095705266,15.557337522905051,-4.166195945059121,11.979366983358927,-11.98550207092343,-12.17192918460631,-2.0161551303987553,-0.0014294350654662604,-15.960920717526635,-1.5960197723628762,-0.00024049925851400076,15.920218162400458,10.77818379310311,15.832559667731372,15.814713719302445,-11.293466339710816,-6.883740511166989,3.014998163429114,10.8342473398063,14.194917064214184,-14.343038037044861,-15.182396019356077,1.1503430327441067,103.90268174557959,-0.022452279213758017,-96.1970154767685,57.61693088786177,0.007759343317881826,94.83362058733313,-12.61040895212591,0.03672652240512808,-0.00729612779282973,-8.226977858050786,0.21070999020918588,-0.0008000362346403894,8.324022718225358,6.467994781902485,33.93014154794282,-9.307041560195039,-5.541698790471521,34.07457388765605,0.0887792581069909,-4.192338404754184,-0.5706424671764789
-1.9411630289809618,0.0,0.0,-2.1753645335662157,0.0,0.0,4.458052127037527,-3.00026632000534,16.12569875862582,-6.570542345765613,12.078714979445143,-9.941146863805377,-13.456485612274491,-2.073367835934665,0.0013120726289280887,-14.745701640503595,-1.3696763059671806,0.0008868767513923991,16.634911542067353,10.675712298247443,15.374684968357725,15.039640571861549,-12.730454643387441,-7.585096767364431,3.5141267109853787,11.122000215754614,15.377381427790754,-14.565677199241275,-16.082207710541518,2.042814748450371,106.16131175263581,0.013544879603641025,-95.94200780231212,59.845059273234824,0.0020160109148501626,94.45201047368502,-11.239269057199767,-1.2453361876585736,-0.0025847451291120217,-8.459038231701228,0.4891951436867161,9.112519805620824e-06,8.880950810520252,6.92366060178819,35.70575695090225,-8.36506641004264,-5.635515191410472,35.902270573434464,0.4041579084817943,-4.809434375434132,-0.46766040471578046
-2.4762385015173733,0.0,0.0,-2.7262158828343024,0.0,0.0,4.897534955479501,-2.7872293325223003,17.028894213084644,-8.760310821234395,12.706768295321831,-7.544099641728741,-14.56797402867259,-2.536025064539454,-0.000844249009936291,-13.562005253899736,-1.1599458141857975,-0.000704243650246031,16.908563354019332,11.172496399498185,14.833799943981642,13.932904139831935,-13.309432089191548,-6.833267243947905,4.324414383680256,11.473026409364639,15.619408124718584,-15.08526081788933,-16.609301955714823,2.457198595297011,107.81666849649852,0.003878812409471381,-98.26548731215044,62.024721389918355,-0.0006601848868492733,94.9878460020034,-12.231763572109724,-0.824919775772909,-0.0031081392167753388,-9.534695021261884,0.45405253476982566,0.0009275882478444308,9.545900912416176,7.641723400040382,37.251244312257846,-7.34225196447279,-5.3990203305877005,37.5863227607719,0.3829419406274697,-5.196558411476074,-0.03368504435520999
-2.5250264290965143,0.0,0.0,-2.5927581320602924,0.0,0.0,5.303726552362426,-2.7385209621694298,16.59202107354201,-8.767905956758824,14.092812535623645,-4.740582536213991,-16.004468813781685,-2.83506609026042,0.0002051673234239093,-12.187256226697063,-0.9781301646254714,-5.789726898763442e-05,17.275949319690913,11.73749620645787,15.283512233298385,12.667556105903191,-13.84081207623173,-6.991260169638344,4.923971045925216,12.042077833328335,16.31627305939584,-16.13925565408923,-17.088506882793105,2.03123292658521,109.92465441036377,-0.015785359740384624,-96.69486937541758,64.32732121518761,0.00018076722595941234,95.86398884014177,-11.979322057112062,-0.4641757912032003,0.0006843109023135399,-8.876299286690983,0.08152709386793827,-0.0005428281102715771,9.937416944643681,7.898900580493597,38.8210186173368,-6.587938695376867,-5.5998590148205585,39.15719408161639,0.300735108918808,-5.596533335720335,0.17734641087978384
-2.225510456505772,0.0,0.0,-2.8269158022868477,0.0,0.0,5.510651464072512,-2.1948424105434863,16.70033027579733,-7.122776062236176,14.658441824333815,-3.2772567702802093,-17.62748522422912,-3.6030040160985326,0.001374639613329955,-10.736354834196112,-0.4397055207192739,0.0009438860914290408,18.490512746063384,12.472754501687687,14.888395353241332,12.253601375477956,-14.268458670473471,-7.67799762233837,5.357689034708139,13.010647446703924,17.644847782263803,-17.061132258844914,-17.380612321274683,1.3250495874213242,112.08502990790014,-0.004040844581167421,-94.65987608705727,66.04766421898697,-0.0029982527616781657,97.81254078904135,-12.469818217489385,-1.4888449805360369,0.002951273574378912,-7.188301545975935,0.362486929980724,-6.532378485387454e-05,10.437622186315538,8.370606784535397,40.496370562378935,-5.681368134876214,-5.613297166197922,40.88968082191621,0.8789582099058748,-6.058480250811382,0.3033814121246792
-1.5053841830724326,0.0,0.0,-3.593639703026249,0.0,0.0,6.028278782411773,-2.2146502051957504,16.457910916269913,-4.637281830642301,14.541091904703471,-3.677861723980374,-19.288300492109098,-4.123899779282609,-0.0008862770445744123,-9.72024842280032,0.19945881537669966,-0.0001978731114206391,19.59262528635921,13.559435132221969,14.99255107156325,11.984732997572374,-14.146792333112362,-7.418322933750217,6.717495612874432,13.939749080179048,18.921610623814416,-17.617085327178593,-17.789026858874205,1.408253943129684,113.65125575726317,0.018319725503917986,-97.24357653979564,67.32917743471508,0.0037681855438219014,99.41420354043188,-12.943136556012437,-2.450052001470234,0.0007696713962920716,-7.7315521974143175,2.238459811854391,-0.0071357273015141744,10.970279961249645,8.905231686693375,41.86609744869027,-4.802373506359133,-5.471293339871046,42.345453175692484,1.39725794876975,-6.315831371667812,0.4989265610081142
-1.133564053097309,0.0,0.0,-3.54143517508947,0.0,0.0,6.559168573695188,-2.7477472371679053,15.719152544677298,-2.519268103366698,14.355832043091306,-3.791883075527573,-20.878001650131466,-4.147928116420499,-0.0006065513217974831,-8.834418096172524,0.22343985671811106,-0.00025689108688430463,20.4376380348935,14.618009569113559,15.26755299004003,11.423850377922742,-13.531718683614542,-8.170998950343034,7.897783921460646,15.02121956011069,20.05830543014973,-17.937630554212504,-18.748460435075696,1.5596268216712277,115.54733999616519,-0.009073166760394824,-100.19318236019707,68.54612634383423,0.0004499474025580134,99.21320034960745,-11.869655184491045,-3.3813515759315367,-0.003412306151206718,-7.894360795754194,3.486003405250553,0.0019391698149921256,11.558045780839725,9.078294734277112,42.99575252025068,-3.9293362614519425,-5.605257763834296,43.471842919017035,1.552072086894551,-6.306522279023518,0.4905307373758834
-0.6645232037889748,0.0,0.0,-2.020105232795381,0.0,0.0,6.880348325910661,-2.9340629953217925,15.969185368842762,-1.3696421003989094,13.968664694583804,-4.448548512131247,-21.756269795180003,-4.377427855326957,0.00040491558379189264,-7.885838842256293,-0.0782730259552144,-0.0005244798007197889,21.11573176599715,15.833821692953547,14.844365236284016,11.027858590690728,-12.21842407791089,-8.615510749431035,8.9029517894469,16.147028607045705,21.93459393245913,-18.365173406762064,-19.366446235162357,1.1187003230258457,117.5650484281448,-0.006901445753267424,-98.37073794778962,69.3380493321444,-0.0016187196787732457,99.7013139771661,-9.952324355332198,-4.726257581955427,8.910938161876751e-05,-7.1524443068694366,2.752410227043241,-0.0011771052610180346,12.322732632509947,9.337899026176459,43.83158976482146,-2.9463011840025146,-5.5737581168903585,44.34035642304719,1.671122886295631,-6.059879696633047,0.5509025774124173
-0.26101126360597265,0.0,0.0,-1.4680595552928042,0.0,0.0,7.1269917797073905,-3.3729456795939274,15.686657317307718,-0.19790649043866604,13.841687204477909,-4.9304069800982,-22.215749871165844,-4.202265497466958,-0.0003861053908876043,-7.296302226571793,-0.7019143486949344,0.0003106717782201896,21.330512775191306,17.002643092313733,15.601089904268152,10.845412114019094,-10.654594735722997,-8.906406451460965,9.557829761309295,17.398307488895586,24.00160577905439,-18.909467334906996,-19.895001166873563,1.2104915574869444,119.14827134954149,0.0063961822977547985,-98.86987392510414,70.19428209750485,0.004016910413734783,98.61702125850321,-9.90653406767999,-4.918343753884731,-0.0012047820213573306,-7.6166315112885705,1.7957253334099261,-0.0005845269300971613,13.048416879917102,9.76214049906785,45.22214953791965,-1.8505649618735662,-5.520984504332111,45.78154380269001,1.6358963413956442,-5.93109491502423,0.5044523640844926
-0.29539938871915206,0.0,0.0,-1.3940536710922902,0.0,0.0,6.903423026705324,-4.7124209010379,15.255497144703744,1.1924794220073767,13.052430711823789,-5.632183986825635,-22.308661667369417,-3.700343059881934,0.00013964798055746485,-7.298738917026354,-1.338936939814837,0.0001386827287022665,21.14696088091342,17.686309038890478,16.89686117173889,10.947970367679035,-9.455801937473716,-8.96703367244131,9.866336642946834,18.66599144475917,25.027050252997892,-19.48398113084694,-20.670115192129476,1.5753045866140405,119.97598908187376,-0.001581884124188681,-100.21165281001325,71.19608007879621,-0.006921558305911515,98.47605734045217,-11.814582623685915,-2.8739602074834925,-0.010354407949505273,-10.03353806375376,2.0561850188812083,-0.0064525120518013025,13.201030080178853,10.285011270298583,46.48765791031366,-1.3505602633582385,-5.332086155649536,47.12572997950086,1.6132298945436518,-6.09692109275913,0.7483932382305576
-1.0044259749098028,0.0,0.0,-1.2375249026714257,0.0,0.0,7.0722820063279945,-5.121823522837999,16.155331299605802,2.209021562240853,12.13008165686834,-7.334283332646309,-22.285531278180628,-4.269609215658456,-3.616205718525606e-05,-7.010716677648558,-1.5577464390732685,2.9956632265654592e-05,21.14271651023198,18.417722651750257,15.823767051467822,10.88805564432851,-8.437485116056292,-8.283830467520337,9.872872524744816,19.801080826825366,26.17414503352143,-19.970814272748296,-21.060865741493313,0.8555334370585952,121.29036412257028,-0.004596662174764828,-100.35479744260219,71.30992690450965,-0.0059709755840392,98.15447971951004,-12.345672185175275,-2.8861883726770037,-0.0014140664657754734,-10.616924146240772,1.609709672724023,-0.0022011693647688143,13.291195081781176,10.328090499375815,47.12553095092155,-1.087922766767059,-5.447138338931923,47.74692133002497,1.9136188094473539,-5.977193340026687,1.1039513814110837
-1.9793404687659644,0.0,0.0,-2.2264382720873725,0.0,0.0,7.542420852429079,-4.831958058163412,16.64879330790708,3.382423369662955,11.593885223331334,-8.520960850610406,-22.334721143023447,-4.8662959112404875,-1.6484498675513064e-05,-6.940595719048698,-1.4768878702550734,7.856940239275193e-05,21.356638050552732,19.25281522437773,14.633293917665812,10.801505419886688,-7.600640707491971,-7.314759012314466,9.97081970985082,20.432912548076292,27.10424541095104,-20.32906163266678,-22.007298019084786,0.35162611870836785,122.86924438717396,0.0021344559097851183,-100.30964952285274,71.37794750483022,-0.0030764479671981123,99.1076873104058,-11.946525104690856,-4.900505340150269,0.0010748087029810683,-9.763516999151118,1.7600609742249467,0.00017626964940602042,13.599830089772366,9.919210982179278,48.260727168246554,-0.4802082772312942,-6.118161780701569,48.7346753116525,2.081381075666873,-5.343052445073586,1.0607776993222906
-1.8132712031997194,0.0,0.0,-2.350922526440959,0.0,0.0,7.020774384933727,-4.569644604343881,16.352515280135723,3.883615495999382,12.421656121969155,-8.047632865961614,-22.13616852920758,-5.121406840787743,-0.00013566641932061008,-7.249448116404752,-1.4591087232279703,1.0690693953475788e-05,21.49005704712871,20.06868015544231,14.763748959249686,10.95531025543748,-7.075049487684983,-7.463343056890179,10.26838549832322,21.229615674794015,28.36206235508817,-20.744514328023975,-22.791201958747614,0.010227979561131126,123.85312897095629,-0.003415190309431323,-99.73868277958555,71.88024856600063,0.0020739644293022515,99.85638018056486,-11.10723460003199,-4.6268968015257865,0.0029408777128643866,-8.676046125714052,1.4867391809876076,-0.0005900400041182212,13.889924357094115,9.896802833446452,49.34675768378242,0.1100349199431702,-6.397469951321307,49.773842653321275,1.9951932341922187,-5.000899237715209,0.9462572631672876
-1.4058384471197303,0.0,0.0,-1.1123098421319895,0.0,0.0,5.888115281637206,-3.7938938170638234,15.736167641943311,3.6205303788435943,12.686189052209555,-6.860727425892896,-21.820569302910858,-5.197191293640356,-0.00021070555724166752,-7.290102463132668,-1.2496659298103872,2.7784095941232735e-05,21.59090265156577,20.46141032283163,15.14308461788311,11.029080615655984,-6.907123651593073,-8.435760659301538,9.931629337180164,21.902349800728672,29.240947409409202,-20.923345213317123,-23.67655707462604,0.279052818210684,124.8449689080004,0.004471625474835426,-99.63314301967007,72.12937830936677,-0.0004613341965464379,99.5429717388935,-12.242552321024885,-3.8792356747364773,0.01321195820646655,-9.073699494183627,1.8574544220439533,-0.0008327169838969452,14.217333423363613,9.694341249392886,49.971478154755,0.6070813450076646,-6.739926738365555,50.32765172417629,2.0485593161919975,-4.8075601411360775,1.1531359496805291
-1.388917349251581,0.0,0.0,-1.238764282054078,0.0,0.0,4.830753747930032,-4.458445718611984,15.156610947441457,3.6655826916966037,12.440222243744811,-6.612952384898693,-21.29160128173282,-4.884713059183292,0.0006344945624418159,-7.2209290273571956,-1.0827176899663709,-6.94945898816323e-05,21.43617446046248,20.633204130602596,15.847442003216399,10.949053449404468,-6.679924024748231,-8.72217854306669,9.544006974466535,22.283402727886063,29.86793866875177,-21.025795473449158,-24.47985597075887,0.6708383035235446,126.30540658332659,-0.0016837586563416716,-100.16573551542315,72.21302325506711,-0.0016359808118454522,100.74975573964045,-17.188749639515034,-5.143161329264728,0.004012933390585184,-10.150847156521335,2.774832484838399,0.00038172765807861894,14.950710229285527,9.516572503474915,50.835601325175915,1.580261758805688,-7.111549005865276,51.120478834445024,1.974541807499378,-4.53881826940797,1.4635631466382057
-2.0454412077186097,0.0,0.0,-2.257513949107128,0.0,0.0,3.7679660900357557,-4.978701480549536,15.291069271370773,3.7296885254760554,12.334330776233433,-7.344027537135341,-20.534326358912782,-4.933397080693641,-0.0013901260339877642,-7.060839134665452,-1.1480178778149992,1.892343849804046e-05,21.22308585839179,20.68182753225011,15.97158059964116,10.848118116463855,-6.417101423876773,-8.576680207778313,9.361648342186836,22.591736806187953,31.196779687321495,-20.89651717363934,-25.15357508179515,1.000926619515735,127.57080947541323,0.00187058775874868,-100.53311490340336,72.35871898912593,-0.0007101629735719814,101.28360150807418,-18.66699026532394,-6.634113080854376,-0.03028739439613472,-10.924710780505293,2.819382043291956,-0.001826452033652131,15.49620487541632,9.491041352888455,51.196428832931375,2.2281181520953313,-7.21837259580719,51.46356709574576,1.7398705997059578,-4.484434845115406,1.5656706083072756
-3.288726038757262,0.0,0.0,-2.663202567135086,0.0,0.0,3.4362488271579315,-5.502566639535954,15.574431958825878,3.922368977619968,12.531016328391733,-8.861536107462186,-20.12995713560405,-5.307896007264705,0.0002646398747708003,-6.7921333936179416,-1.2897216643247253,-2.0798082989546397e-05,21.74631193717861,20.97509467946292,15.245030957059026,10.987763623083069,-5.906112201942445,-8.24298263326007,9.493004082397128,23.215673117905812,31.2824102863444,-20.777351864301966,-25.94398573480989,1.6349458928521727,128.31622366527864,-0.0015659705408465896,-99.91078601354131,72.48377367582248,0.00013761317799393296,102.82388319106761,-17.163849475798543,-8.331759186124314,-0.008226644692060425,-11.156591215495757,2.948658820892721,0.002035725373785532,15.669597312606154,9.198368260821994,51.32340326541771,2.4292356160842896,-7.531968580233953,51.51888761300514,2.031150932219751,-4.1721267000076345,1.5801793597442069
-2.492398828122739,0.0,0.0,-2.236899613139783,0.0,0.0,2.437228598925929,-5.601610297508475,14.212690049873713,3.5755955644769033,11.840484744175884,-8.931582709212304,-19.99052138706604,-5.4919032472580165,-1.0871893596748256e-06,-6.22676439471312,-1.3984195186595874,-0.00035958980830054504,22.347301128099634,21.421225461761185,15.557454267303294,10.95800994735975,-5.483137031570278,-8.820549825326765,9.987664840292831,23.649989148410775,31.472374232558657,-20.431841487699263,-26.696702408790898,2.835532819686991,128.36415246353948,0.0005539380286043405,-99.56051666379923,72.15342362166473,-0.0016368847155244022,104.54077727446798,-15.673573120102596,-7.567727181144511,0.009903299426446193,-11.80455010360998,4.368522625802346,-0.005287801226756927,15.758684774967522,8.929817662296124,51.59064462010882,2.586828204267586,-7.85373226083382,51.716223468908126,2.4146196153832387,-3.751796497570324,1.7107897170418955
-2.658064923496384,0.0,0.0,-2.804353228378377,0.0,0.0,1.6461564857699793,-5.7936550276940135,13.480939931873998,3.8457984870871247,11.494586222989767,-10.127684409450795,-20.064197954178972,-6.333919563863982,0.00011742930844828532,-5.673773225461959,-1.1821147985159053,0.0005616309019956188,22.429458430914654,22.01596469771326,15.31999367682177,10.237963830799739,-5.331642048104421,-8.382849805813644,10.68320339203858,23.768028680517684,31.85041385216254,-20.132704924189156,-27.463161883783826,3.594909986660147,128.50177410080784,0.0010063760758142744,-100.37072901562439,71.4493887843838,-0.003529692656547993,103.0467397643952,-10.645222272923814,-6.736762930708409,0.002308214656123949,-13.256206331322721,4.364018856191757,0.0008713859251665664,16.306168806023603,8.497307407858054,50.80978524933606,2.8968491421526763,-8.097208395949199,50.85731383045478,2.0529484046498556,-3.3284205212205773,2.322331825804996
-3.197281902461202,0.0,0.0,-2.743504588939896,0.0,0.0,0.8529330318166108,-6.459812533635722,11.714682224378496,3.7522013271453183,10.96691506634572,-10.620336875792907,-20.613429014751095,-6.666710622892633,-0.0011983820090084615,-4.979218729652335,-0.7560131685399208,-0.00014790963650107266,23.088722800581344,22.375100057182337,16.108921281909545,9.538528490249734,-5.498188107144989,-9.101857993854756,11.17826674372433,24.600598340657143,31.16991821066672,-19.76388028776723,-27.726329655801962,3.706028157056765,128.2152004655008,-0.002336630412349119,-101.43139641665346,70.54095375132677,-0.0006940776955873695,102.66562779435975,-9.995632096674619,-7.772312369640811,0.00939129450310779,-12.03688005776861,2.951281525019468,-0.0007440018334240139,16.863984635187474,7.9624567875672305,50.53314647601538,3.3578759647627336,-8.553656530324405,50.46241375154795,1.9801421690265586,-3.053124517225062,2.5091165731053207
-2.46484378747472,0.0,0.0,-2.2687773818051116,0.0,0.0,0.09972396665005677,-6.805401548227152,9.453872690942324,3.0546254539778923,11.170262043740744,-9.923301283728433,-21.615509881193535,-6.989489580452721,0.0008661291800964305,-4.200659595022895,-0.8939027781202055,-0.0004254956894721115,24.04163851865388,22.875428591673497,16.964645927432386,8.755767854838394,-5.3541032315963335,-11.115332292251466,11.738170041817087,25.25526130443956,30.244755115880178,-18.74005170207096,-27.802588518826532,5.116357852602358,127.37958762162131,-0.0007644468613812925,-101.83248918603782,69.23982066196406,-0.0027459641903123883,102.84175304917582,-10.668565762388633,-8.438887966315349,-0.0005849352560882428,-11.342632136333034,1.666469102249806,0.0009482740155993918,16.739147316672977,7.865016335253957,49.7241042525889,3.0017297078791656,-8.459622454465894,49.65174174157306,2.1003140850067563,-2.702607219821731,2.395182257085454
-2.6770037649733602,0.0,0.0,-2.824327795776861,0.0,0.0,-0.5131816648633816,-6.020774734437503,8.115835998305963,3.4805478297140717,11.307036643875161,-11.635627282766954,-22.88202651482488,-8.046755037968955,0.0016205628158125099,-4.071432160573727,-0.9676378435408456,0.00017536429538192761,24.608147825456893,23.49126192014734,16.865814564035315,7.79191376067987,-5.174603241336724,-10.894742348988922,11.988566178821264,26.044091076240907,29.880643717812287,-16.865904645353513,-27.570927549723915,7.123939156132785,125.98263931882425,0.010940738406179318,-100.11656800753207,67.91386187864778,0.006788361742998995,104.2941901747748,-10.605862338558442,-6.772039877905777,-0.00401899120805297,-11.106058533225298,1.6288320915681123,0.00011920081701728401,16.80972771038013,7.596984941753827,48.576034757179926,2.74416529893959,-8.4464747177503,48.47019057747756,1.5758996508245053,-2.4829855782054335,2.5367338801398085
-2.3793827524730613,0.0,0.0,-2.792010561327154,0.0,0.0,-0.5845833646191815,-6.4722918957274524,6.687915200439849,3.9520094766968907,11.103931285681595,-12.370692634027785,-24.56457404538214,-8.345649321916497,-0.0035005309421869382,-3.746140371198787,-1.305876676225504,-0.0006210135343006482,26.217185193941837,24.1012340753585,17.12194692564405,7.213411852180434,-4.645408127533617,-12.211180520166035,12.310840110043198,26.911829426053377,28.72295001293501,-14.392935501899938,-27.563347397965646,9.696205616596226,123.75386136370659,-0.006706310834469273,-98.88788285777643,65.99113118025306,-0.0030737242906341347,105.53089305949983,-9.15713117271654,-6.339876335933587,-0.0052028837188331555,-12.540388429870394,2.1976842404967303,0.0025995418255886477,17.54071232313528,7.073761566748928,47.28342701427261,3.104114562413864,-8.637988964029025,47.08344567823886,1.3394111565621736,-2.003175363083966,2.7453784836566566
-1.8021685653715656,0.0,0.0,-2.174282747000034,0.0,0.0,0.20284855638782695,-6.021921054725341,5.484446659978103,4.258440543261949,11.002918636922093,-12.544746926898615,-26.609092441379854,-8.791249289850143,0.0021241093453763073,-3.374321243577461,-1.453025961364113,8.080353062000116e-05,27.41981225464496,24.816163250647936,18.103745291198493,6.314914113267305,-4.420699409950379,-13.439238736652431,12.673539697169835,27.80561136524878,26.03655531063038,-11.695653737863182,-27.268981832115713,12.950244415585068,119.98787907273305,-0.025337472267365196,-101.00222340101034,63.76059087990566,-0.001381136302832078,105.08164309455368,-11.917503529475178,-7.392661488485736,0.02313263593207688,-14.064309886120721,2.1023306172063885,-0.004925962001702489,18.078532144771327,6.89794177560315,45.763011763186576,3.2312719696234806,-8.426592423745348,45.562041153631405,1.076294299081439,-1.7672793494193453,3.17919400338329
-1.0355989453504018,0.0,0.0,-2.7124288428220362,0.0,0.0,1.2101744149947635,-4.478721037826148,6.6481152378348884,4.901795361658115,10.53072683760186,-14.255553658248393,-28.358484855844637,-9.82767037560496,0.000818530999659246,-3.1756569354682807,-0.9538464623872562,0.0005262096141295348,28.149283970221123,25.16538640455586,18.131971439784447,5.032428930890168,-4.693019750237324,-13.236243492494497,12.36662208245563,28.544455683024005,23.05965787211275,-9.32376477591047,-26.15425413740141,15.954653465283192,114.86768595763992,0.04390753447478198,-100.08476803684579,61.5186524804552,0.0018711925444534325,104.26256127124964,-16.380695891434403,-7.391152428758251,-0.03163670688344593,-12.948204026388574,0.9736382086502081,-0.007905902617065098,18.160371918684756,6.963133963159531,45.04218718456099,3.127686899053691,-8.179136289219894,44.88034074782508,0.8402983945052045,-1.7801659103811294,3.711984145180985
-0.0978506207346647,0.0,0.0,-2.2277708024237057,0.0,0.0,2.172942944143843,-3.478135105414328,8.190926334366013,4.84607192507624,11.046643093466768,-14.9902010863528,-30.176842665400628,-10.151721625147445,-0.0021400993466222,-2.7964562890440665,-1.003208066190657,-0.0005435365542467497,29.577295384116358,25.51111470019291,18.04366726787668,3.9095270912171793,-4.341067413538683,-14.378182703630129,12.340923588941548,28.416245156625273,21.07093406146716,-6.438209239368238,-25.00162216648085,19.22720255604853,107.18330725403038,-0.09868009419448766,-99.28814917021022,59.05533466723791,-0.0013627152452737488,103.78226929416108,-14.783411544357122,-4.19313387702586,0.07409927614398801,-14.828220007987337,0.9788259365423627,-0.010223321824807645,18.30330993167812,6.975465393697362,44.20278780449802,3.0552734996627122,-7.9496051002612536,44.07128358471059,0.8220114220810911,-1.3251627269366264,4.024589879271753
0.5771719746541434,0.0,0.0,-1.6700620594194706,0.0,0.0,2.77100243377894,-2.5876938031057706,10.30526556031588,5.159059168405162,11.154872608449882,-15.577455614515976,-31.312834532096797,-10.505358928738051,0.0006145619999833376,-2.2900060426083275,-1.32206476558777,0.00017404844381516143,30.466959759285444,25.64332660966156,18.013788898202318,2.618578170262612,-4.0027899558302265,-15.176078248150286,11.627564471730691,28.44121657907454,19.706589407376605,-3.263482687943859,-24.000962797022147,22.394806109921028,96.11732463958177,0.15995821915400155,-97.18670546516087,57.7475653734258,-0.0007138873239683759,102.97087670419228,-9.087868047146126,-0.051309520584149525,0.03387752603097075,-15.800077213813198,1.7453088510816177,0.0005859829269679877,18.827183291040797,6.67065374774504,42.80919145866688,3.216919229382785,-7.875283473380658,42.642729548829735,0.9108070550007846,-0.8894796305515769,4.868120868329276
1.3542254390052786,0.0,0.0,-1.436411086643123,0.0,0.0,2.8272508425602108,-2.0537387641459524,13.768633794060358,5.615169500773261,10.165368413821808,-16.049875601035666,-31.474001083147364,-10.650490679055574,-0.0013139286765957922,-1.716291554296264,-1.3421584946360132,-8.517885033610638e-05,30.82498090358156,25.73487401563795,18.694877850769732,1.355924731325864,-3.7687582708333647,-16.169724185029853,9.989603937380796,28.601232802794712,18.98178036980758,0.2987797061986923,-22.098294538301147,24.591710744213394,83.6335519810044,0.0259383870463031,-94.7402024505768,57.932388529899754,0.004578668922643308,100.5736751310358,-8.721418056199502,-0.27084551054016803,-0.0021737865849695056,-13.48726326351798,2.159743707248761,0.0019845271877657576,19.20028020096589,6.311190347307062,41.564557778296724,3.271044579631593,-7.885110941836512,41.34265887155189,1.2808619160678993,-0.6352497499129107,6.0851216662181145
1.8031208548565696,0.0,0.0,-2.193652472986585,0.0,0.0,2.559789371106546,-1.5760196914570406,17.844852032502946,6.131237662135013,10.274514906465791,-17.378875326276656,-31.93939014492061,-10.053969204230917,-0.0023392133322643984,-1.0808005416928774,-1.4155967324460945,2.6104825255992062e-05,32.101679036418695,25.874513317982146,19.561827228985585,0.39770791280383655,-3.200697506839703,-17.037844379842358,7.973938284983167,28.448602669813596,16.75575762450269,3.5102593212819504,-19.564259235131946,25.95305399896511,71.6544664878699,-0.19541468271125276,-101.8038799854534,59.18802716169859,-0.004195542439166407,99.72058993813728,-8.913077709534944,0.07399742157636979,0.008247131871387866,-10.830857681921756,2.151457439281573,0.0008961248256919797,19.142954836327302,5.730854051738865,40.04303106714379,2.82847971345461,-8.022437892364799,39.71219366413737,2.3728140713211867,0.032291324999326854,7.516030269369206
2.6392185684742766,0.0,0.0,-3.2459251092850163,0.0,0.0,1.6258096902165666,-0.5983572676219617,22.286242989000264,6.870035048868377,10.323337833903407,-19.852580116053677,-32.29620264413022,-10.334039524051283,-6.42291879452288e-05,-0.33333527425467524,-1.2041309008237957,0.0005703795749064166,32.421714664836415,25.618061247157087,19.342180672289174,-1.699065177046074,-3.0996905827136887,-16.620046243938187,6.084238955466738,28.11324860614373,13.343671301101933,6.349020227450909,-16.780842850355835,27.630612097773867,59.433159820360295,0.1121907000799367,-109.11127796088691,61.200216451773684,0.0036660170405461673,99.96091966045182,-9.594128195910738,-1.589312935415057,0.005249012978804471,-10.120919656454578,0.7859660253179929,0.004160373398255807,18.55107723596423,5.871438807158552,37.72082191206926,1.7107249061146717,-7.2284597671462105,37.518637808241394,3.18665830029754,-0.02285232836933834,8.909808103827595
3.363961536995532,0.0,0.0,-2.3128160959378983,0.0,0.0,0.5565532967007532,-1.4233185128907344,24.17106512412239,7.459012452064866,9.753888786106339,-20.290222011418148,-33.0746646353682,-10.510780688262697,0.0008093506962820399,-0.1612192025073334,-1.0190603785274592,0.00010081027165312136,33.13689908231374,25.411547148940063,19.409018542812376,-3.427815192770764,-2.8244342471794917,-17.677686928079293,3.67849545885616,27.404131139466884,12.552336970353146,10.050137907677186,-13.710110691234366,29.584158574798,47.61208279001153,0.026153807531143436,-111.07543050031992,63.032245013981544,-0.0004999675147819913,99.5886861204733,-8.719543271843143,-4.821325007345748,-0.016305153971501493,-8.601543329934502,-0.5191261098284702,-0.0024357283698886695,18.344799578895604,6.37326701640712,35.735364610459875,1.0882284299876366,-6.169872460712707,35.76640801495773,4.143653581016597,-0.35705196099645276,9.952566462543457
3.011327774651964,0.0,0.0,-0.8137327118430528,0.0,0.0,0.10946579878197552,-2.380207884607505,23.895842068272163,8.231144665902637,9.977394980320598,-19.6458212176516,-34.824761718817825,-10.271528836766976,-0.001694908828990232,-0.5277819357198281,-0.5704796430237703,-2.640911946610729e-06,34.51689376554067,25.354186476296764,19.948627506317308,-4.6747041248389465,-2.575465017176557,-19.888684028246402,0.3146200052844488,25.764378524088684,15.140699544067658,14.018369699419406,-11.38557016927658,31.31354829645051,38.332373533078574,-0.11746239384982203,-118.63078686275895,65.17248181855183,-0.012061280913937064,100.03009264403389,-7.473331383597322,-6.432199250754563,0.007245510503763041,-6.992262335934715,0.11407677910279058,-0.00414479774802188,18.381694485682434,6.553865157297626,33.21465825205797,0.6080332225700414,-5.24373726671259,33.42059491539403,5.651162346479027,-0.49217946023230136,11.164759416154341
2.4038387501498892,0.0,0.0,0.9400182302462861,0.0,0.0,1.2197708577264543,-1.2714548888622734,23.700395261754228,9.332022456893505,10.314760326690976,-21.446087132556457,-37.19935825603931,-9.632468486416206,-0.00011363349869643555,-1.7570416522582142,-0.04749659906428599,0.0003414859085373855,35.19526977674301,24.8702096547632,20.131388655769637,-6.8067093091174105,-2.349316460421746,-20.111882897336205,-3.9963546318199885,24.373391842421086,17.434644459786266,17.440929844805936,-10.015075630384914,33.17826827396924,32.78986500724715,0.0663810506108823,-121.13153301685136,68.20809714100818,0.005859923924469613,99.39732418639086,-6.389191501855159,-6.463291532722599,-0.0008919372117382134,-10.293396514294356,1.5341817110057312,0.0015521864293343924,18.282392128531068,6.381536858438495,28.895586756742397,-0.3145773190648552,-4.0675005376518065,29.276009244683994,6.49975290093729,-0.5767388913352312,12.113979805519936
3.260975847941165,0.0,0.0,1.335820885190677,0.0,0.0,3.4416068488404585,-0.32456520208638656,23.311510928630597,10.234549738044176,10.656511049603639,-23.592399205503707,-38.32700392475039,-8.477375206610976,0.0009425156446211256,-4.149505540864226,0.48107174319811447,0.0018696571496713706,35.37017246666683,23.451086440304145,18.69318309788801,-8.646249946893949,-2.135801023511449,-20.134773229744397,-8.489174623805416,23.56366002406677,18.95235192626749,19.59744500634931,-9.553659574431762,33.53843082538891,30.459963853325483,-0.0016711915577157666,-118.40297059092411,72.11132111477978,-0.003328226460060783,98.12846185300613,-5.348456633031638,-8.541703501385678,-0.0069102295770573805,-12.97250894505265,1.1735189509436343,-0.0017687267402115084,17.685626075323864,6.211769308402599,23.31864359018593,-1.8236577625095054,-2.4170775577904293,23.972738868028262,7.447632749930785,-0.6464343660678032,13.775768387529526
3.225181219449183,0.0,0.0,3.0587796001629686,0.0,0.0,5.48459532832035,0.44368684003118025,22.33621258017735,9.528476702213341,11.848672216910572,-24.126778841600302,-38.923314422798214,-7.262166413670286,-0.0009433131190839526,-7.6409650114299055,1.3287298537871373,0.002182312991158119,34.74956889347785,21.651554413482266,16.892538903855545,-10.535520774124338,-2.097053690554623,-21.068358398613974,-11.95705221190089,23.32377108048767,19.469653448927282,20.719198427316286,-10.459746725396052,30.54232436676622,29.36314780225023,-0.011776792077059608,-115.19854579501411,75.1091974025587,0.005838662846895332,95.94822590588542,-6.121227234778995,-8.727753990043537,-0.004415136851802438,-9.571796208531007,1.2518828863935665,0.00977908030871614,17.125185587390707,5.849949794853648,17.755949171104763,-3.122151844048155,-0.8749903100426809,18.645481721655717,8.141312728834654,-0.7260519026651986,15.527061393576838
2.235040359420021,0.0,0.0,5.394175514415663,0.0,0.0,7.074668663492054,0.35548789567920136,22.20638348369273,5.1335754032337695,13.849491737335796,-21.63641822227888,-39.27828786573814,-6.825262830971944,0.00021272279785261713,-13.214567540763442,2.6558067414718565,-0.007103249239594618,33.77685069161736,20.668128924656493,14.647397541877647,-11.078007864678938,-2.562683349708815,-21.848795817823184,-15.395272011205417,23.624477449757464,19.440481831817674,21.713844558226512,-12.20590335704638,27.5786965126734,30.437892787586804,0.019892814202624926,-113.54456066668226,75.20786832417461,-0.013163395919479765,92.56558277353143,-6.791497202111977,-8.651681856826935,0.0037275618355972497,-8.268687605047077,2.410612371965043,-0.003832656390581976,16.73533556650273,5.6351696388380095,12.479304259148924,-4.045186083975566,0.7648618664470173,13.653221941260885,8.983868395534005,-0.23825117131778883,17.058624228277257
3.470377130938124,0.0,0.0,9.049564470241705,0.0,0.0,7.959644073845837,0.16211926186809725,21.774860714920734,-4.998561529675602,15.97545236097375,-15.723446469864552,-39.26080853704172,-6.899669817421255,-0.00025377068830471255,-20.308556713263936,4.210663419184337,0.004184203796012715,32.83813947733,20.321502292982,11.7720847184844,-10.13019610125228,-3.8251022729425044,-21.003402152402707,-19.1696094777606,23.507373815361607,22.408060040087364,22.59504232972504,-14.528879851556628,26.095946218949614,34.325418481902275,0.059072627173484514,-116.82698424729567,72.49282364044154,0.013900373433330986,92.96999869932284,-3.553683744069619,-8.669435074352757,0.003010699787312174,-11.38722357560581,2.708282613851058,-0.0033207906430528836,15.491331841025735,5.427265730508783,6.963923432184848,-5.671149292556501,2.5368852160584137,8.450860081327388,10.048427587498555,1.026709311254587,18.38126271956808
5.0736753363894245,0.0,0.0,2.9022052554256677,0.0,0.0,8.685189833848955,0.08567872406067069,19.000341366009945,-17.991641167840356,13.218461297742087,-4.871996609226522,-38.93570350302674,-6.28806602593667,0.0015785696547209879,-28.661058947752924,5.372482328225458,0.010638778795314526,31.32542455376967,19.71756112457379,9.53131229742237,-8.908372796671351,-5.695187080586328,-20.103823591221452,-22.702672140921578,23.520842745211144,25.307492889652135,21.721527982516182,-17.623436453288278,23.496975512851872,39.95491910686641,-0.07369398836895354,-112.32789979855465,69.00406636124579,0.004094476756489737,95.8709859612124,-0.7225637295230729,-9.086370542369806,-0.001852087304645967,-11.55023734204188,4.1788807290412295,0.012469255963781631,13.711943046343956,4.714507807692385,1.4157435397703533,-7.638027779160539,3.8776976119103717,3.0337912647269363,10.551836941869379,2.5279222009030207,18.586043687499977
4.856272832473291,0.0,0.0,-15.614382638365049,0.0,0.0,9.535540377253211,-0.520988523449613,16.788632777521972,-28.60454451760426,7.011076449164278,7.519223664295361,-37.89950870839258,-6.48812019283501,-0.002801851422882284,-39.5592457976705,7.140317160529985,-0.03525628082995632,28.9003728211424,19.388066284872487,6.640432138224273,-7.4371243159466776,-8.084769836768983,-18.443072076470443,-24.855962101592638,24.591322358865753,25.996334157084686,19.52742678454916,-21.1500149840966,19.86562738425968,45.5077869379541,-0.042865709827959356,-101.2402602859766,64.12654738247316,-0.02825337306999051,96.89984797101201,-0.6647102897310282,-10.299317725708342,-0.001332030539880399,-10.66827620896618,7.7402219582606975,-0.008815257359305615,12.088851042993356,3.8871007500446675,-3.0892689113730727,-9.260896334576366,4.74341570142852,-1.464044963365775,10.202504188823045,4.196990194466665,17.962304188544934
5.332482436071153,0.0,0.0,-29.46492067514487,0.0,0.0,9.81991763485826,-0.33587639766170235,15.457652698127665,-37.15494825101921,2.195856302732915,16.625698669384892,-36.56904944692436,-7.26374255888557,-0.0003881900659832197,-52.880762261745765,8.361717703132511,-0.006380043976450444,26.483247538308024,19.885252853533725,3.471202245803281,-4.537704543881638,-10.65635739621945,-15.825548677099347,-25.287782814355456,26.03914588355557,26.592077976013485,16.81451338328355,-23.573820820692553,15.111480818449772,50.448133972185644,0.041724464052355144,-95.70783808164894,56.71376910002227,0.02018939978988135,98.35754744850595,-0.6513297240513451,-9.584244520945871,0.005304342604377169,-9.339655160382813,7.3684922542861795,-0.021838713686518484,10.97881287558437,3.6120960831192765,-6.3666227414478005,-10.298353548539732,5.676198983914601,-4.623651394287794,9.970486290349651,6.090177231574676,16.740869017056582
6.1306785178027,0.0,0.0,-30.74815795508958,0.0,0.0,9.47591045915589,-0.709062891987571,12.565957439558291,-44.218456750007284,-1.2798795721768341,17.70016488864556,-34.967222820183,-6.991594598871578,0.0023623168284806735,-66.3971549058187,7.519657085299649,0.054980337303573525,24.50815588435347,20.85227468565374,2.2073999370726862,-0.14299733023110334,-13.029685884276912,-13.820866150969218,-24.464970997323242,28.156405440991655,25.137388055808234,13.78802637739801,-25.300635596076983,10.111711778481613,55.22752770576303,0.010111589757944565,-95.27021386544087,47.86040127176363,0.008017997811954352,100.85420846092721,0.6568756137383787,-6.66487589556792,0.00344061939209936,-9.727034597707767,4.912890789127474,0.016190424909005553,9.638162101459073,3.639848305781822,-9.735885017873953,-11.50713494354902,6.918948611879691,-7.767251639187622,10.289910010837724,8.128472576948399,14.98265657165925
6.992604799719797,0.0,0.0,-32.883401769751146,0.0,0.0,8.384296223220886,-0.48460033989992785,7.819600327118721,-47.24627928933463,-2.766348034943072,9.765488047202643,-33.423123913720694,-6.638657458393461,-0.0013900791984928055,-79.78215165663367,6.416602446575775,-0.043928974297779026,22.07772988618052,22.93529144129012,3.073288379452855,5.093612212233945,-15.796096901772442,-10.776077072028128,-22.274496471864037,30.15491215104667,22.11100515697707,10.059112070249206,-27.112802910113995,5.467566050102593,60.44993258552748,-0.0077615983008574,-94.81259725551192,39.300903404975784,-0.007569388127673035,103.47143321232835,2.3228447934894962,-5.511342937312252,-0.003204305776211723,-10.539921951440963,3.5273729509107006,-0.006384606899257831,8.437407272460453,3.553698367671367,-13.013429496550607,-12.50938772239351,8.013554898978827,-10.877377507047711,9.56453809323362,10.201116781923417,13.330332216237878
6.571861832100541,0.0,0.0,-40.669801934764834,0.0,0.0,7.5701953404927105,-0.7174092676695779,5.554772647443064,-47.03181005411825,-1.7683150418899727,1.8268941445809899,-31.839232393224886,-6.372328577052873,-0.0005949780235571402,-91.72620307452961,5.958532373061968,-0.020752526114953585,19.585766246808678,23.79089333378892,2.842422319411146,11.444394181443998,-20.100511159900112,-5.1602487290478125,-18.82206065014491,32.17726868915857,18.882402121992808,5.914341403467929,-28.083241981004733,0.6313994977305364,65.06364471393931,0.0018411708538680922,-93.48969886599639,31.501145307728425,0.01378481685714027,104.95724953970856,4.452162226629543,-5.951395470534044,-0.004010477390759918,-8.298986093944842,1.6281851892125363,-0.009454610535973688,8.431168964645789,4.15814260047026,-14.364225806990126,-12.449864360515562,9.059280722531376,-11.932254417022099,8.06215052289023,11.08248323180188,10.764622115178506
5.167855256315431,0.0,0.0,-47.18292191713317,0.0,0.0,7.080416144164204,-1.9953547876519901,4.16947916572048,-41.73137006280857,-3.9436624250752366,-1.2626236722818498,-30.54449593346634,-5.630353238506262,0.0013140919327178468,-102.13429125648088,2.0343578528248805,0.05496935920646214,17.256974606445425,23.335386570556146,2.8607935638046604,19.44496135933151,-25.290958240299823,-1.4375116853913685,-14.545322330612922,34.32736167425229,13.742804255190366,1.4130525179084794,-28.735054908539365,-4.91597661502987,69.65798369990381,0.027927375589575462,-95.00750516908329,23.4792034143816,0.02518298310821249,107.4445817452865,5.52588399072577,-6.574144161938398,0.014156399843588633,-6.990553139620904,0.885496190937778,-0.000518884287202428,8.362196320802171,4.615567067906947,-14.455500838045221,-12.538585583604744,9.519085895047747,-11.853131159215165,6.593060698141712,11.128035837619297,7.453346567280369
4.561150129812519,0.0,0.0,-51.60420100360504,0.0,0.0,6.620817478590548,-3.5641257814653935,2.8616038285487435,-38.99346543759861,-3.8258425635152853,-5.96315393804015,-29.4179613130879,-4.520350079083785,0.0014522496793995452,-108.80453434667712,-4.91457094511537,0.0017147783650373171,14.703096973937944,23.54758052119237,3.82775389456288,29.329961184571925,-29.604970568708218,0.5292917827192362,-8.783257401481757,37.51597239222104,5.8315943452292345,-3.4236191435510497,-29.647407806797453,-8.127595315143889,73.88200026622007,-0.011678932234744827,-94.1731306887031,17.483582416613288,-0.05827669744869597,106.3261921795601,2.894266835194852,-10.771151373128207,0.014061199224649362,-4.024492287624178,2.9762396827398088,0.015727330504665356,8.579209367295727,4.930845379374709,-13.759472914913612,-12.391498732260194,9.565710134409233,-11.081973741015364,4.609345638647084,11.814713102623962,3.467432326035377
