PaulMeinheit/Bachelor_Muay_Thai/processed_Data/N2/teep/scaled/JointAngles/scaled6.csv
L_MTP_ANGLE,L_MTP_ANGLE,L_MTP_ANGLE,R_MTP_ANGLE,R_MTP_ANGLE,R_MTP_ANGLE,L_ANKLE_ANGLE,L_ANKLE_ANGLE,L_ANKLE_ANGLE,R_ANKLE_ANGLE,R_ANKLE_ANGLE,R_ANKLE_ANGLE,L_KNEE_ANGLE,L_KNEE_ANGLE,L_KNEE_ANGLE,R_KNEE_ANGLE,R_KNEE_ANGLE,R_KNEE_ANGLE,L_HIP_ANGLE,L_HIP_ANGLE,L_HIP_ANGLE,R_HIP_ANGLE,R_HIP_ANGLE,R_HIP_ANGLE,L_SHOULDER_ANGLE,L_SHOULDER_ANGLE,L_SHOULDER_ANGLE,R_SHOULDER_ANGLE,R_SHOULDER_ANGLE,R_SHOULDER_ANGLE,L_ELBOW_ANGLE,L_ELBOW_ANGLE,L_ELBOW_ANGLE,R_ELBOW_ANGLE,R_ELBOW_ANGLE,R_ELBOW_ANGLE,L_WRIST_ANGLE,L_WRIST_ANGLE,L_WRIST_ANGLE,R_WRIST_ANGLE,R_WRIST_ANGLE,R_WRIST_ANGLE,NECK_ANGLE,NECK_ANGLE,NECK_ANGLE,NECK_ANGLE_SHADOW,NECK_ANGLE_SHADOW,NECK_ANGLE_SHADOW,Trunk_Joint_Angle,Trunk_Joint_Angle,Trunk_Joint_Angle
X,Y,Z,X,Y,Z,X,Y,Z,X,Y,Z,X,Y,Z,X,Y,Z,X,Y,Z,X,Y,Z,X,Y,Z,X,Y,Z,X,Y,Z,X,Y,Z,X,Y,Z,X,Y,Z,X,Y,Z,X,Y,Z,X,Y,Z
-6.585520000000002,0.0,0.0,-5.187620000000002,0.0,0.0,-2.1890700000000005,-7.6167500000000015,15.014980000000001,1.9035999999999997,11.654280000000002,-8.438430000000002,-6.283720000000001,-0.9802900000000002,-0.0008600000000000001,0.68508,-1.4821300000000002,3.0000000000000008e-05,14.765200000000004,21.8005,9.7701,5.88944,-1.0260100000000005,-11.005890000000004,2.8850000000000002,23.238620000000004,26.126390000000008,-13.70202,-22.752700000000004,-0.6526500000000001,125.20256000000002,-0.009230000000000002,-103.64148,53.08053000000001,-0.002800000000000001,100.26861000000001,-20.027179999999998,-3.3839000000000006,-0.00119,-9.87162,5.71345,0.010730000000000002,14.899240000000004,2.4242700000000004,37.08341000000001,-2.2369,-10.339610000000002,35.88439,5.3399600000000005,6.519630000000002,4.129920000000002
-6.797599798415467,0.0,0.0,-5.703743440872151,0.0,0.0,-1.5037613283859643,-7.9817630306081515,15.389304125860841,1.9697068804170246,11.785580228689243,-8.979505676544578,-8.032994432644188,-1.5618261147240862,0.0019026344555144155,0.8909307695206532,-1.3049142256047872,0.00021328431889468,16.103007754613273,22.160975435046065,9.180719987089828,5.998304850136332,-1.0792974866436948,-10.89088634309954,3.439416477644171,25.454784891957903,26.577185316652606,-12.476861451433894,-23.350021326602004,1.3900965401474423,126.15654361289764,0.003268201931026391,-102.84967210244352,52.922383221869524,-0.0039556176112071125,101.58148604808554,-19.88044861332044,-6.145773315151486,-0.005176330471645931,-9.112937542312336,6.655751384711701,0.0005653652685251986,15.686650812168253,2.2411740180967072,36.91995244544081,-1.494710378431492,-10.466371342102782,35.67081662636889,5.036501715371037,6.35917918404054,4.6511414313100685
-6.0720897532719,0.0,0.0,-4.92493121988614,0.0,0.0,-1.2704077952899446,-6.966073047581977,14.850213053118821,1.915605003732113,11.713607747242108,-9.77121256287124,-10.175633431938444,-2.257783524916629,-0.0014422083105387405,0.911381799602057,-1.1526701120805367,-7.486600952245144e-05,17.450723491982206,22.8538594670578,8.346163059697995,5.646497028234941,-0.8192252721466713,-11.043731419744885,4.047663229674728,27.215769540034145,27.126626042432317,-10.288599288768872,-23.963906982919774,3.889065764157948,125.90936299497982,-0.006489096359057584,-103.74818871465196,51.80128363143678,0.004775875643662466,100.01437063408775,-19.613709722447012,-5.924670432053825,0.02981698688407453,-9.353845333670957,6.203472568093805,-0.001669828337363659,16.42552627034953,1.8038560506512928,36.64560051957375,-0.8390099735723388,-10.802899483627776,35.27260939603369,4.119862941240654,6.677573254004846,5.002378011040935
-6.775503809889607,0.0,0.0,-5.322802681795977,0.0,0.0,-0.7162788938689678,-6.715141998117684,13.005400620599431,2.2054061601643715,11.567025374990001,-9.770643758947404,-12.72044930101361,-2.569590917347929,-0.0002718965745216044,0.7111314810111067,-0.9322797074383987,0.00010429305492951843,19.662142266401972,23.356059295696202,8.309473981934902,5.707007122301778,-0.7007302959965979,-12.339754262111605,4.132611180116942,28.51099466841663,29.363525201086873,-7.275484119112092,-24.17722817916589,6.785016668645815,124.03520591709419,0.019927669479477342,-98.53516171307692,49.200437936777405,0.005755892015080141,101.24527294110443,-16.233554659211322,0.871077899856279,0.042351739177962616,-9.751881779465107,6.563109579225459,-0.000632419857735067,17.387614332941755,1.2521626489518882,36.18456850334837,-0.006647261975655047,-11.192278656834276,34.65702731227033,3.451635514621672,6.891186080341009,5.20925647204542
-5.712517596510813,0.0,0.0,-4.580719740104886,0.0,0.0,-0.6142950374375112,-6.741339100218387,10.400980754692812,1.9432016048178389,10.448525800737228,-10.114170876388073,-15.239922000692301,-3.454305150226629,0.0002713533376824437,0.8723008488339998,-0.7189030968511507,7.146757114395986e-05,21.310296835763726,24.081790751291617,9.57201341017497,5.324404122182829,-0.7008933806856651,-12.900048912182038,4.898976593082381,29.62371405987954,29.78191846635281,-4.872082848876022,-24.48430148311981,10.201708832617289,120.76163540526312,0.002629539455890747,-93.00565987365735,47.40350447871935,-0.004027637829583524,100.74688406337019,-15.274613112555086,3.1917614217016212,-0.017793513335156948,-10.572139186687828,5.806921367786324,0.0013511533766257622,18.073162848768405,0.7373157334216083,35.86437948499676,0.5807270076243115,-11.587472577837582,34.18803827114845,2.712639113292567,6.970407476112147,5.7795297796102725
-4.392900343058804,0.0,0.0,-3.8790568031747017,0.0,0.0,0.46955651233136353,-6.742802071682622,9.226616836235928,1.8704240887892594,11.15348098050394,-10.999386816909949,-17.658504105627937,-4.699016713526877,0.0018923475135250861,1.3168480924466321,-0.907755637383557,-0.00011841869621175681,23.09814190353973,24.98951765626274,10.755632417758365,4.835977849636564,-0.4274464685758657,-13.417913127183239,5.764670444995953,30.96615183493888,28.287255576270844,-3.16717186823757,-24.53246663001959,13.14197310248735,116.05871199632968,-0.01534778984210586,-92.3942666481087,47.040524982236676,0.0009927641962188772,99.02560864791651,-13.863827301824932,0.29380434952034,-0.011666246308420176,-11.075676384652215,4.417739348868215,-0.004582274189062143,18.6715994470406,0.48065550853073535,35.4346166793529,1.0741968445784167,-11.702649412300218,33.690683566181775,2.4053560453904907,7.174383923255064,5.965130237598975
-3.5205329089918136,0.0,0.0,-4.049026519867447,0.0,0.0,1.4944072498728151,-6.626473573379992,10.10836254167622,2.1050900158994534,11.208983569496837,-11.539148873816902,-20.07499289079895,-5.794391750646469,-0.0011692706186969299,1.9458870355939684,-0.9819840878489935,0.00010617765205841187,24.90092020168238,25.401243756978687,11.746196293623901,4.151111726613305,-0.4984182517372375,-14.248809141180686,5.851796093199725,32.14659289793886,27.97599447695326,-0.9307590762967074,-24.076524226515776,15.70229334290338,109.46069926910928,0.027168164933943972,-93.11731004802647,46.47573732597359,-0.0011778901912881936,98.72931526913214,-13.635880233452603,-3.622745601664267,0.01808322350752481,-10.665469254784421,2.970699606812677,0.0007305006904941416,18.863828285194423,0.4251999406439924,34.33315594466113,1.0396238487340108,-11.42039855964917,32.602515560959525,2.149088753107181,6.9895528930363415,5.698694782347887
-2.1458626996540096,0.0,0.0,-3.1733166462817692,0.0,0.0,1.8659721164209442,-5.748973677119094,11.887363917632651,2.119827318736085,10.786746312497689,-12.990693260627168,-22.384002886121998,-6.266216984844947,0.00030744737963384863,2.1434083873533987,-0.9276685460130726,5.4517525253763085e-05,25.906517300441436,25.962212094529836,13.763307102403836,3.0983241095612972,-0.43382043110304613,-14.358142222229372,5.4378838869460155,33.44556927560854,27.353717860621064,1.841862885899411,-22.972154749661964,18.050924934959472,100.2604096492232,-0.07501713769561488,-94.55366548819003,45.52854449508317,0.002894413846871003,100.19797641129674,-12.440841609217031,-3.2298944462690278,0.0014235333886006975,-9.76684628452697,4.220384763113877,0.006524694908101778,19.270590502941594,0.596926696033129,33.37284704591558,1.2674924932142586,-10.961636369709181,31.724922404755556,1.5262246898513363,6.86264343359741,5.890562196555727
-0.4287201525453809,0.0,0.0,-2.9517187211095535,0.0,0.0,1.5024730111993696,-4.318570427416322,14.467476874891643,2.3097830701884656,11.086274900956711,-13.82236156696326,-24.23500491816313,-6.713241997780703,-0.001051849972025376,1.9995808153476677,-1.2972905204112115,9.856328056894816e-05,26.66265495545358,26.8168743803979,14.921039717675283,2.0324196337939004,0.13538728971633382,-14.829335829384418,6.40175785234773,34.37436516454869,25.277500971806276,4.821234627063355,-21.274836613722027,19.87313511914451,88.77527741937159,0.10398791772885461,-95.82522823055449,44.877960431102636,0.0004762941575864075,101.77669913087965,-10.730009401833401,-1.8875241020489752,-0.0063798963225852,-8.74477679426644,5.262355010890049,0.0004628361377860599,19.74750115762046,0.622757092751487,32.90782041155681,1.6560335403900597,-10.793015882105763,31.282854053687416,0.8711279394871104,6.995139566405869,6.401009944428115
1.0827234189391903,0.0,0.0,-3.7791657270424137,0.0,0.0,0.7012891957262757,-3.833208536173692,17.519397341981293,2.906954441227748,10.71340285281144,-15.083786553548311,-25.38154016300834,-7.194278281741222,0.0005559386165560168,1.8819961478208775,-1.4659248951690664,-5.9584214108871824e-05,27.53380751755474,27.0840874290081,15.002633149229519,1.3079923823772652,0.24369192524644787,-15.038093937227911,8.664095662836132,34.426330835255214,22.86206308098814,7.666984694559044,-19.211803921633813,21.58582213759817,75.21752088436322,0.08778910075436216,-94.64625549860595,45.46520776428575,-0.0021413142202998973,101.15119505603012,-8.509605625286305,0.6023148976999565,0.002651420889535752,-7.846505240249981,4.1009510131644955,-0.0005693997667953333,20.00651771691872,0.7363085626226268,32.12372429275174,1.7727436696562844,-10.440715356541855,30.560921465832116,0.7603079128511391,6.763155877704791,7.250903211538658
0.45337232019413987,0.0,0.0,-4.9651731033909146,0.0,0.0,-0.3977544991143468,-4.185577817090029,20.261913101524254,3.8550913355321135,10.735012811005252,-17.18987806526441,-26.057356779881484,-7.87175789057515,-0.0006860129252900578,1.864704085641308,-1.3657243276218871,0.0003697478269813611,28.34392488053666,27.239918862112095,14.741783182533377,0.6903474520096212,0.21588409075202733,-14.892658540113546,8.202824056380535,33.87706842450347,21.71673907535539,10.010756046331357,-17.031161128875066,23.667859259033765,63.602084963177546,-0.1720897634765876,-107.11226171860736,47.501986954112276,-0.0055982332133538565,101.85077311708577,-10.259180083306175,-0.929953086523484,0.031105885238298634,-7.5972663856813405,2.880202045478882,-0.0008927696581636428,20.014890106893404,0.7884005863904009,31.211706290529946,1.615038218027477,-10.104661990248164,29.69772927465801,1.2939902649802109,6.721814465530034,8.018187533605587
-0.341199589730774,0.0,0.0,-4.119172657187157,0.0,0.0,-1.2052459520441556,-3.886104184036111,20.0987661546083,4.26462428642788,10.521409075125447,-17.35343724680274,-26.85245208824886,-7.74030345016166,0.0005020288248799902,1.6080781333347138,-1.0178297818203068,-0.0007923626124594828,28.48111614126581,27.198830618350424,15.996386753112796,-0.68265216033286,0.09779427339599914,-16.126127294388237,6.282977176624683,33.46006268316353,20.88852078480597,12.040202408572457,-15.178660624232707,27.495858598138685,53.11752988534369,-0.019509096685107738,-121.73691681690228,50.923067393955165,0.017250429460409077,99.93618370369775,-10.26846883248007,-2.913286123256383,0.00971454694802972,-8.913422857439173,4.146790476306898,-0.00012778834795229246,20.238231943388925,0.8438073490478932,30.160020386310933,1.6521974755670585,-9.718560082367915,28.703181120837336,1.6730068607290975,6.607108005171938,8.884174948201315
-0.9731930549484337,0.0,0.0,-3.258185716036406,0.0,0.0,-0.4010572903716873,-3.261479500250377,20.046161886921084,4.866361479104689,10.460316340205,-17.35400338474081,-28.813297444883506,-7.6944954761966216,-0.0013250478351948098,0.684290410841759,-0.3957383713099706,-3.115046267645802e-05,29.539713567755552,26.80706923752515,16.14860542004202,-1.5903267705088635,-0.4480984726566268,-17.511742968187054,4.277121280681087,32.1638316223258,21.85922155316939,13.490139143208333,-12.194426791757962,28.451577867889036,42.25793806548745,0.06884460554072981,-126.2474604364905,54.80202836162572,-0.014038998359312651,99.29379944978486,-9.106583292423581,-1.2244984046277425,0.0015556991864014086,-6.4351268729003195,3.5364344064288415,-0.007627026039132993,20.42576363416053,0.7748435285898461,28.205748994481922,1.5008613560818205,-9.155510990463107,26.805013622167685,2.5044952807433627,6.065792463614884,9.822061979175905
-0.3451836023169683,0.0,0.0,-1.4282627282108031,0.0,0.0,0.9019830471042997,-2.645209080636909,18.4750707922311,5.556109746524093,9.93776518451872,-18.065679452948636,-31.76997285151372,-6.985212854702999,-0.0005654436316864656,-0.26997879096286503,-0.31114606140527745,0.0002339435193133293,30.77508445788248,26.948315883852054,16.383863773841433,-2.6977346484989817,-0.220679278938805,-18.23694081655763,0.8831578158157454,29.88945608356606,24.818677404524976,15.932408705669127,-8.40711599987514,30.199114725281646,34.67253730790529,0.006891532266398822,-123.5719837937711,58.657302177437764,-0.004459494921436399,99.69105284340127,-8.374368121496996,-4.878751494919208,-0.0075496037947645174,-6.490604716432289,2.9849942118620945,-0.006532981262580118,20.559282577417257,1.154967153190017,26.07106379085227,1.3112322406642307,-8.09829521272625,24.89060698471096,3.366927290768957,5.662648227082095,10.49963169666072
0.4698957914279939,0.0,0.0,-0.3257858685345746,0.0,0.0,2.31715490617737,-2.6548978285729765,16.87743629149106,6.653077448582073,10.40486297924278,-19.191946106649286,-34.04754184588781,-6.264213802508984,-0.0020832394976044873,-1.8980874764902973,0.10220071015218381,2.214937011368487e-05,31.09844805488806,26.386953892339562,15.442210585361924,-4.264626450858675,-0.65309406854659,-18.372595176556132,-4.887789749491565,27.781073383304644,27.593034402415697,18.501016321301304,-5.666492314237749,32.91894856961682,30.51994642298559,0.01921402442722713,-117.83820767624334,62.203695861068056,0.017644108635281857,97.55041427345137,-7.030744605826964,-1.9184312240971937,-0.0006730109061199225,-10.29375071464228,4.247615080683324,-0.003699268212325659,20.347621882306022,1.8418606310892642,23.242879994041107,0.71309871588989,-6.50943590888431,22.43328931488841,4.146315899867325,5.1575103782161955,11.448627838421155
1.3042728344776584,0.0,0.0,0.7506849827899945,0.0,0.0,3.827750198895877,-2.789777841621348,14.687136536668481,6.858663945619296,11.250796906759428,-20.63052518812667,-35.97573048355118,-5.390209749652229,-5.139867311829472e-06,-4.314145024448622,0.8066216138830146,0.0036574327908716012,31.466456382858716,25.200125565758615,14.020656945906405,-6.029578704506084,-1.2518084730524999,-18.14714082895715,-10.599366464944115,25.72442222866003,26.554238720859797,20.946180907847893,-4.112693644104827,33.680717329939895,29.928266882839516,-0.0028382961975471767,-115.50573870068128,65.3207268601175,-0.05656056402595607,99.03787865769259,-6.449840015899418,-1.692051397515628,0.005095949295966456,-9.19513119413623,4.189921598535014,0.008462523046642237,20.16415791594651,1.8900519937306037,19.38916842848198,0.035759411772302255,-5.153809747759088,18.80889099902062,4.724736189769119,4.881536319635471,12.376307098760991
1.244411611686576,0.0,0.0,2.2168211002580973,0.0,0.0,4.861056334234495,-3.085248297930119,13.28813734423905,5.465719414413841,12.418085882538819,-19.477471310439395,-36.535744949334976,-4.9597317913550745,0.0003002903457520092,-9.303321196594064,1.7589390990016067,0.0006802065539386288,31.559788864197515,23.857146030666126,11.82478741885338,-6.020856242822493,-2.4972561997617775,-18.507575840980717,-15.141613092908843,23.75369673256863,26.308385825147347,22.66864568924118,-3.8336211372548363,33.970229497217574,29.6572559613579,0.013340809415329946,-111.9972602944343,68.75388876800021,0.02647653752481639,100.0868923314985,-9.34323595826592,-5.671772631569145,0.004555736486846226,-10.196527469701797,3.7603423922156654,-0.004735134507192079,20.079847744422192,1.9914977766534172,14.889706450845082,-0.5172852918803853,-3.493269580886412,14.616512481744111,6.060466987107008,4.502855195510302,14.073907775899658
0.561768339728206,0.0,0.0,4.573676571481006,0.0,0.0,5.7147532847174505,-3.045441511831696,12.587115174459338,0.7977587972646788,14.19493960597427,-15.129100836467694,-36.6322189175746,-4.651674227447925,-0.0005061838897691298,-16.505444167786763,3.5734923139467436,-0.014473342311566065,30.741018481861428,22.457900683628566,9.605744034214935,-5.540900461020925,-4.788869234993874,-19.16099974412539,-18.40806384490852,23.260061938008644,27.71996868857944,24.343200276879738,-3.9865755734731216,34.42986054826165,28.981866481211423,-0.011149829720138935,-105.57391110069793,70.34625817921841,0.0036220667372838028,100.10302402986242,-10.011490587747403,-5.286204129400358,0.0008710813999778659,-14.675220822212669,8.147310049804156,-0.02286094019155071,19.73651868620388,2.527182032770448,10.121076975284433,-1.2273316663617442,-1.30115616963015,10.348035063729663,7.13759956288855,3.930344972976264,16.158222647109213
1.8758526514898355,0.0,0.0,5.168642349665692,0.0,0.0,6.024077825914819,-2.6082903963981665,10.897004023728622,-9.220650908911075,15.400567769574563,-7.441606419149547,-36.10553604584412,-4.13893639906556,0.000782361210847445,-24.450111100500955,4.9361528223819375,0.022382229157023325,29.844126049050786,21.258630860522953,7.157562432668028,-4.4958556972178005,-7.047822381476861,-20.00930662672442,-21.4888597990341,23.113054566212632,31.826555898738246,25.607722486568726,-5.339661954714749,33.663029082807164,29.651301042427825,0.0236648677384256,-108.189445256588,69.6186318113491,-0.003843870547581756,102.14022709763071,-7.197249042554278,-6.146733092079922,-0.018978070100520366,-13.702399412782732,9.706904018444478,-0.006146629173408736,18.334178419030888,2.3512529468180934,4.839887535313199,-2.8923488498092267,0.4349900235457701,5.361996808711725,8.378770796783733,4.525684342783621,17.356928301194298
3.2986540491959473,0.0,0.0,-2.6490047806984403,0.0,0.0,6.156584708050955,-2.258372632037374,9.0955817773829,-20.4089472982337,12.547803789691637,2.0532287690407895,-35.47248733129216,-3.941883465813792,-0.00036895092612480363,-33.53636703101453,6.25550818596866,-0.009296780350469035,28.737152320328697,20.373852613140137,4.88141685890255,-3.0486543350508506,-9.534742042975099,-19.10164111655881,-24.707767588063323,22.756877924697363,35.922297747418476,25.810851160779215,-8.59471243686071,31.757210216538247,33.32170787993056,-0.03973968801737164,-107.72827521284061,67.37204700425971,-0.06177906196708095,94.92223056974532,-5.300997299960184,-9.250802225033347,0.007182595655104024,-10.394986303596857,5.501896170628773,-0.010288659371843527,16.351701562629795,1.7265546031306738,-0.26325896451968606,-4.9634650539123735,1.704168016969831,0.382250487417108,9.319313757036152,5.343615985057214,17.88020956638831
4.564585539427641,0.0,0.0,-17.47737672607345,0.0,0.0,6.257981920597894,-2.8064705957175935,8.874907425899128,-28.106828777016187,6.415863009331528,9.69672063818708,-34.861258356704944,-4.834070818879927,-0.0015314802988837261,-46.19870369921053,8.499064594738751,-0.01917023775791162,27.119391188496735,19.921744595445098,2.0626031149167905,-0.14098245461694903,-13.290214770264607,-16.269201420071816,-26.815126594413844,23.388766188678773,38.15839965940157,25.33827783690374,-12.03595714838919,29.02300876561672,38.08058292254172,-0.003440663119324918,-104.07962629902347,63.6133565302061,0.12435034145289244,98.49205212054675,-6.772732000208708,-9.30193948888175,-0.0010704411942604579,-10.52055130480201,6.1878082949793844,-0.0048914764244844065,15.52738943310238,1.3872695205491765,-5.232376309791507,-5.719612082783596,3.1919235147037317,-4.373599531587563,9.392852447169897,5.743961475202589,18.952563985981623
5.085929535809463,0.0,0.0,-26.075135774951576,0.0,0.0,6.542985038627807,-3.487316284889286,7.52950299777612,-34.522534466384414,2.41885395824735,14.882307086872697,-33.64767992689066,-4.859191211979776,0.0017344029304348797,-60.16392540813483,9.760325031946257,-0.022690808228947718,25.258874776207644,19.754496537796502,0.1011257226769149,3.7362323291233093,-17.047727127988395,-13.325129958420447,-28.060492459516,24.337261397310925,40.801064355855786,24.1676058168514,-14.535151659811202,25.335456358928973,42.09251449978864,0.01713851341902799,-105.43362191005625,56.95841256729895,-0.11738206845988086,102.95840155707691,-7.5204063553603575,-7.337586355082682,0.001052750449219129,-11.701011810805825,5.877898593191806,-0.008976900053335752,14.510155616107287,1.5231503992688258,-8.891567240135428,-6.599587570095171,4.640543398562557,-7.743250104551901,9.460221735074057,6.3761831065161685,18.44690381295353
4.3034771315029205,0.0,0.0,-28.286265937423472,0.0,0.0,6.484288183810694,-2.726203440406434,5.112014186653415,-40.43092568834405,-0.20984047308495968,16.493415805456127,-31.648633628032602,-4.256022197083448,-0.0011942124706497297,-72.73144344592339,8.587675327406652,0.036855308953419895,23.256394985850925,20.633475327263525,-0.8749568056813524,8.335945161381956,-18.458702232994213,-9.820838339474376,-28.10681007893922,25.6197249065921,41.30105879036081,22.404248355001222,-17.218344623783683,20.1561571014066,46.20118327411359,0.011641999059191645,-107.30288976639197,48.62988215601229,0.02275905469723919,100.25695525413346,-7.833142614684425,-7.9112065217502625,0.0012387984963595083,-11.518109602915086,2.590044852047004,0.0010365125057704531,13.100538874132704,1.4570281922440058,-11.513933047360421,-7.85773772896815,5.519875915963208,-10.223510332398792,9.491112957806676,8.145904041794934,16.912476964813926
3.073165940988407,0.0,0.0,-34.13418108895124,0.0,0.0,6.352284509631142,-2.388793358629857,3.044154625350823,-45.07233796054352,0.14351288694850017,11.053497460927433,-30.28227397134059,-3.5459942078622775,-0.00033707885987220717,-85.44634748365021,4.641610114729299,0.023546890518871943,21.813544067977165,21.695211600237393,-1.357057762209053,15.306913759706914,-19.913505816215437,-6.757611540465439,-26.414920079444354,27.58268743074622,40.19478122643597,20.091420951008573,-19.958988620210818,14.843918913018772,50.50686140416272,-0.023355190532460605,-105.88354993996677,41.164931889954886,0.007275435110292981,102.06916831335073,-4.786397198910967,-7.015221165988257,0.01890475124708309,-12.694843688510495,2.8736715054348436,0.002007853890971566,13.087849011940236,1.655313348779334,-13.902380453063737,-7.7067683943986385,6.5560623467928565,-12.395710009847765,8.70630679859354,9.755797290354298,15.622092308353809
1.3255628728704156,0.0,0.0,-37.689314252654896,0.0,0.0,6.709409524772289,-3.0325815303049404,1.5388264113135457,-47.90481994755036,0.7264799810281785,1.11499234839925,-29.145337832281697,-2.3166866573302016,-6.430401200980607e-05,-96.62517437135807,1.7324893628840161,-0.0401948847722706,19.58681798516247,21.350778272357257,-1.6257482912298058,22.60690513237363,-23.409735563731964,-2.7974190679723194,-23.358131012774347,30.186537581690782,36.96879461127707,16.663301010422302,-22.72111713767591,8.821612343861075,54.86465147983182,-0.004044171349503834,-100.78500958063046,33.202849578833195,0.018454656698974378,102.89765027934148,-1.6189503856114975,-6.918263676561212,-0.006478881946325913,-12.947411354372733,2.5227984453721173,-0.0049903689606278405,12.852867220316847,1.5099146137060695,-16.07020652569163,-7.751140092926262,7.186102623172376,-14.4892342148448,6.989731589885818,10.288203211485307,13.821097127440016
3.4164203274931895,0.0,0.0,-35.06680086557496,0.0,0.0,6.188516391666142,-3.554793857030374,0.9163501246166804,-46.13601245348927,-1.1944177129344282,-4.935845003128591,-27.41986877862141,-1.8215131452617384,-0.00017421075217652812,-105.73548983470889,-2.220107219415596,0.014850048532996403,16.475951601893865,20.809847962638006,-3.1843592462020474,30.65116631253073,-27.0225296217032,0.8523072214760053,-20.240490311545443,33.13155141685372,32.3525147556019,11.757990263785697,-25.72142658890547,2.3184392959351547,59.44747406261715,-0.008765438350617468,-97.65608874276587,26.174749527907103,-0.02394096083610779,102.7440228168627,0.47268970828792545,-7.544865929916382,0.0025139656275985156,-10.68465656504594,2.567646209632655,0.0012848995611124756,11.635691387629587,1.3333661805519315,-16.47976834470662,-8.922400989668189,7.164742032790756,-14.938129884779253,5.040670597744835,10.889687760482053,10.552413863397723
2.477902906742259,0.0,0.0,-43.82694907202153,0.0,0.0,6.9590055429754,-3.741260471004686,-0.2903484154916788,-39.82754781764702,1.683846498165431,-11.181736927770725,-25.975099112068044,-1.4492974058423966,-0.0012920029379515884,-111.89811145681534,-9.86301611017614,0.037029879224198974,13.13846817878903,22.199950742245274,-3.7734567570765165,39.741163981010615,-29.088518199420516,0.842339858882019,-17.674413069593744,37.00314450653103,26.012944284875662,7.4434581671344935,-28.918334013183262,-2.2915331887180055,64.71516004772676,0.03845578473609718,-96.71494817938289,18.88926367919175,-0.04858726262384276,99.88693222807598,1.641057368980623,-6.975943237863448,0.0029426396832962745,-8.09582366000556,3.8783536313183617,-0.002066083684287836,10.84619443304898,1.5613912127584717,-15.705251071961554,-9.793115926598247,7.105780220622959,-14.12683916386041,2.7562327510864284,13.264522117533806,6.406067355897535
1.545205450452991,0.0,0.0,-61.5717299074144,0.0,0.0,7.276693506035747,-3.6195249791954733,-1.6201166287476125,-35.20896569674321,3.973285977290764,-16.21470575856803,-24.734765282619183,-1.2508401468543218,-0.00017322981860234878,-113.99871553832227,-17.848457703589695,-0.030603963764267442,9.046361775235866,24.611789642146118,-3.5487705201847533,49.29232861566801,-30.175204853922942,-0.9199427041629866,-12.426455274382027,42.58321122136593,17.07927626963024,2.822146529739903,-31.250687854644887,-10.103332781687701,68.3781885691315,-0.010324051265297072,-93.79053660292809,13.26902366490115,0.019614628948397647,106.22958562347542,0.1578912973181608,-6.564035086417809,-0.005475302929321662,-6.975522894909802,7.108319964373089,-0.012139424941608364,10.756987321285097,1.7237419505373912,-14.689154075758426,-9.976936331944145,6.898851646201063,-13.111730346860977,-0.5629439950947527,16.09655999389336,2.6248103766613777
0.35872961809742027,0.0,0.0,-73.3985914792452,0.0,0.0,6.8789448791624,-4.044266848411833,-2.0142794612208026,-36.05131116079144,2.803456715165981,-16.496903491732965,-22.540022272401835,-0.13280914078712633,0.0034129248452392526,-110.66068543902352,-19.762237653449603,-0.002435877670906847,3.04868936783802,27.564165665146103,-2.0772195413912535,58.193075593482114,-29.21496230488948,1.3401781407473914,-5.9649203453300155,49.338471277519275,7.7030786942970835,-4.365886930578926,-33.24134640558062,-17.32739140128455,70.9958001919511,-0.051073626780540796,-81.91397749757974,9.922048330993501,-0.061731266397517505,115.75048101450284,0.5884055324433213,-5.957055742785998,-0.019126946619846957,-5.509276044543507,9.433975702041323,0.030081397733961845,10.624032945678307,2.4361252699924347,-13.532666126292195,-10.232309157916054,7.1545101147493995,-11.768282500034667,-4.648575643533085,19.648342717965356,-0.20183132637616133
-1.6450841423845213,0.0,0.0,-81.67819710459594,0.0,0.0,7.349752904407522,-3.8146355354195896,-0.5595105824461708,-34.161693282347045,1.981386184073365,-18.13612835013247,-20.51205816758963,0.8212046564547402,-0.00037312864766789774,-104.66117327972103,-16.657976617440703,0.01633929127733583,-2.309274193795443,30.12752341923571,-0.37623428168253986,67.59752642828748,-26.486441512632897,5.063672613725952,-0.9997325945779543,56.055494364209466,-1.60569665278858,-13.038816355209388,-34.43896801008079,-27.310671281284183,75.16571518781743,0.1228731481473086,-84.62237219655856,8.35507470456283,-0.004750432208101295,133.34685986545128,5.252515160769663,-0.1359535588509304,0.08056709310154664,-0.042644634713608236,13.953302521418587,0.08741347483326864,9.325736405776563,3.153328359158757,-12.69000081535196,-11.623741848697394,7.52422119662187,-10.71750817625328,-7.28501993278628,22.762809433044897,-1.678723039091079
-0.026433046168285464,0.0,0.0,-81.78618715769183,0.0,0.0,7.024615756416877,-3.368799315307053,2.6936758148805677,-37.790038548576284,5.241277973936067,-15.011322219666777,-19.64297097297488,-0.03220640528289625,-0.001995382209429616,-95.08090723180817,-13.595138336885874,-0.034044575011357214,-9.038370791256693,33.57721754029586,-0.34964210689161274,73.46932988564392,-25.039811424482977,5.002529379070282,10.269939222571512,62.93013374631925,-16.6027809976991,-20.24257375021218,-35.62454953730087,-22.226828681532925,79.38567649867487,-0.035347184603719856,-89.64035016063048,3.846296107757668,-0.23332479792098723,132.19704072360224,9.457291758503448,4.850102807811638,0.01550515433283904,-1.566776470818175,13.262630275672706,0.02913137735346324,9.470193964989654,3.1895542073111995,-9.831385407178859,-11.651283771995702,6.53332427221195,-8.020245576830776,-12.847241834641729,26.64634820876254,-4.23844298804856
3.1676308613639557,0.0,0.0,-72.47592054392933,0.0,0.0,6.455589776156862,-3.1637255862093854,5.9201992046430725,-42.55468989542422,11.686417690953624,-11.77490940547596,-19.884710711837794,-1.0610343375461038,-0.00012817865191940394,-82.87034604786105,-10.093029602012448,-0.027009016716138656,-15.205167957685607,36.05983205817681,0.5350054961099265,76.38979433024751,-24.838740688989333,3.196178546776114,31.51548064492818,67.2668750661956,-39.782923993764605,-26.722377548892624,-36.48175299061967,-9.52580926219111,84.77814583876888,-0.08384341247574716,-80.14641473127784,-1.1528069757629569,0.01748555355224765,117.60268086054826,8.3052808066478,-0.9678286902147687,0.04987504889021747,-2.305462904727903,11.338411501882812,-0.009888710571134083,10.0510542367741,3.2935130592460116,-8.788888924129378,-11.124412445354547,6.25475303880228,-7.005708777743695,-19.43363439449552,29.807321437114943,-7.134964125280422
4.367978392848548,0.0,0.0,-58.357287421067625,0.0,0.0,6.366970183030966,-4.3052174648051995,9.29469869214392,-43.62103835375698,12.110165271121181,-13.95331281893804,-21.321997518497415,-1.744409669522344,0.003213351879961471,-67.33587671739345,-2.7911917469655885,0.21695907830373537,-18.72109231534101,36.46120379419326,1.7394618668617785,78.91380431288768,-24.35801319897956,1.5278668418349106,47.07914542757722,69.04957761229556,-54.43903694933443,-33.20036320951764,-35.89973928993458,-11.528246067771041,88.08288057246075,0.038373611746294535,-71.66698519596473,-3.2793351424271857,-0.06864141580950031,115.5165412180481,12.279343710230906,-1.3088029067544982,0.04540571752512854,-2.857915745056517,12.904047908805914,0.0024068842515985824,10.262309276662839,3.7702629799616836,-6.7540323933236195,-11.008916407239571,5.963851851503463,-4.928089656947031,-24.075998778389412,31.302037249867478,-9.789426970581665
4.029592877368936,0.0,0.0,-48.4124238742882,0.0,0.0,5.7665388740466135,-4.107256595680652,9.647349454957826,-45.030766651087816,23.739813404284025,-20.683348901429998,-22.727788375863724,-1.8721889046963296,-0.0019007765868550848,-51.82835178594772,-0.009460111799927631,-0.0652103143398144,-20.845811442537233,36.07101594410374,3.5407769235111712,82.0667605161214,-22.944503700114584,-1.0214996973738526,60.78667525997675,68.29898526368326,-67.60040431476207,-42.040966103864385,-34.571607979974715,-34.86438561936552,89.32601839238131,0.008221749317778334,-74.79274716551215,-1.078160019610712,-0.07756313908268493,134.76504193720984,16.590013274813465,-2.801105519955064,-0.0532020032359891,-0.8917477566541712,16.348508862718077,0.015706133863255815,9.960651620058224,3.423756788180014,-4.4974302794847185,-11.35523801564151,4.823075484287019,-2.946766819606174,-27.286929067668197,31.972570244868216,-12.850336444776245
2.676013998060119,0.0,0.0,-40.831446122236805,0.0,0.0,5.386805081111831,-3.355426404568828,7.3702099152053995,-36.13055930347059,26.744305504520483,-40.04286953243403,-23.260430731546005,-1.0593332544503502,-0.0019310882501621046,-40.095852662537105,-6.783651598198034,-0.156738557551041,-21.750550503750166,33.854953437643694,7.100890831779036,88.03005197432024,-20.846876387185667,-13.54950958792762,71.24400493398188,66.38640229591891,-77.66439118284,-48.107485533264274,-31.44641754027664,-35.28772760878365,89.64911435965169,-0.01529748505025248,-86.41767589043921,-1.2183759205254285,-0.10162285200151061,135.34399480580615,21.203225242900054,1.2617326906135085,0.10546726160654396,1.268781836519963,17.37898813385121,0.0003159363130809888,10.23135932802513,3.9664405286538766,-3.473277448867089,-11.116873806214594,4.956778502312291,-1.793151584402123,-28.317715978045314,29.842905770343517,-15.7222251160505
3.9827003136957235,0.0,0.0,-20.877570972601763,0.0,0.0,5.583610711423141,-3.8712973552522607,8.812855683468424,-19.9371399608772,-4.643920958315621,-37.94173450739904,-23.20907411443434,-2.034902941904407,-0.0005369774582516815,-31.695150111671843,-10.04935458137464,-0.14724717330264786,-22.569164576491335,32.38089881223083,6.211064086101514,92.76297019083387,-18.252821282090324,-26.87070726549646,74.95562599923464,65.38378679253645,-80.47497275543475,-51.57670410773828,-28.91556706459559,-14.011089678499651,92.59638984935592,-0.03025125069799277,-90.5556922624614,-4.357053108162195,-0.06737824188177192,114.2814245170566,27.30724223008614,6.403749854241964,-0.035134249489774304,-0.7865369906605241,15.842078961411133,-0.003634001301034964,10.001980036221015,4.739698503829135,-1.7091382251754692,-11.380173496344801,5.0360018985839,0.1340209575489616,-28.991048093058957,28.39879680831148,-17.82778923187167
3.2154688522064037,0.0,0.0,5.827202318782776,0.0,0.0,6.781810232985192,-3.0094092906521612,8.3307409068408,-14.647947883385067,10.657283491075273,-32.835889563157785,-22.92185203357011,-2.7922303593556994,-0.00014988162686718746,-35.00624455906309,-14.427496001530693,-0.1975605273754375,-23.210976790908344,31.493533125671497,5.849815632533046,95.7829216163125,-17.695034809511576,-26.223281332063905,75.03324604562292,63.686428419360425,-80.08985932637265,-55.159102931695045,-26.639945284882554,-19.59419864562021,99.92081068546096,0.03325393409101133,-92.65014334622094,-5.198815069926213,0.021284267480489033,123.04856377817809,29.362706629089377,2.6956732505434022,0.001823588211879627,-1.7050079096318962,17.0060659351568,0.009708032309724996,9.875595147418162,3.7469514651449427,1.0020542168644992,-11.45984071178249,3.126647400544086,2.296016373480842,-29.148399107515882,28.29876341524501,-21.00201649544685
2.933190586346529,0.0,0.0,5.525732692417256,0.0,0.0,8.1224574548101,-2.9006903068582837,6.354282784506401,-32.04287575898249,28.292555584114915,-20.861178657740982,-22.360528808210866,-2.9841249477067433,0.00023090056850907042,-48.863573863209766,-20.736690905280447,-0.024083104442957623,-22.110313823925953,31.87980430344011,6.1851764417585775,99.98156693389164,-17.885338807643215,-19.182887921029664,72.81937875300068,61.4175225680241,-77.72506681009286,-58.657527765515454,-23.918070237171918,-28.349945779177197,106.66979551650415,-0.025799181394776063,-90.24236035739078,-5.02043460405049,-0.00048724675462963687,126.59335437137248,30.57075108715595,-3.288936347486551,0.03616812456047151,-0.6209043237493246,16.23158187937892,-0.005622888102180148,10.574667212086334,2.6515280647825734,2.2650324592032245,-10.722643698882049,1.6477686412639345,3.073230496329403,-27.355760880317142,29.74882974117995,-24.372993422795453
3.918135194447132,0.0,0.0,0.5788182618924536,0.0,0.0,8.500039358955238,-2.835800158817767,5.040831604599667,-38.61681155011803,25.541107859568353,-11.557185532113397,-21.710575678190576,-2.9684646129058367,-8.464439208497463e-05,-62.51558225811755,-23.81034532360563,0.030047289046184998,-22.052836172857976,32.81000131359267,6.600883531861747,101.7917964622172,-17.138202267612623,-16.651144003419844,69.54280633453912,59.19738642689272,-75.32219961783409,-60.0185846463383,-21.332374364199275,-29.696283407917726,110.36710477656344,-0.019336861810359204,-85.73365623678188,-5.022793181660863,0.0015159319506348342,122.40916987597063,33.072666442845104,0.4450327228705784,0.03163270544402454,4.374229001358931,12.788006307264379,-0.0396682265684952,11.260125182714662,2.3983154442375874,2.6790045448921638,-10.026386467841093,1.2616673932548357,3.3667247546629318,-27.104933511923775,31.39902297611132,-26.311821972532613
8.25652505542191,0.0,0.0,-34.97857505846222,0.0,0.0,7.859883298507422,-2.497905856464806,4.895740249839163,-33.951676159853584,14.973388051842267,-21.17208491052014,-20.934811910822106,-2.869845468876549,-0.00012637093984092627,-69.09859144422707,-18.865285054394075,-0.07280190403201574,-21.488904849944074,32.04865242565758,7.826656237077157,101.53435477398548,-15.358445089112426,-16.37694360240293,65.49180946597268,55.695737185032385,-72.80507561109157,-59.54724971651534,-18.5404441689416,-20.94251327987891,115.12565187358008,0.006806287602420787,-81.82678317917345,-5.121023789236378,0.006535419794370131,110.16388103402785,34.13932594095923,-4.588943666424318,-0.06496296474453438,5.752923490930652,10.602320378447567,0.007168957125597357,10.954310355674565,2.2015958691079085,2.574246594992825,-10.33290996429089,1.116375523372322,3.197742148483524,-26.8161911024672,31.269376041955024,-25.635004731475878
7.469495918420282,0.0,0.0,-64.08148583847395,0.0,0.0,8.544668692467559,-2.855484276886287,5.88315423072418,-33.02345181465363,9.343054432729161,-26.864896824391998,-20.07049519065154,-2.668567933665334,0.0006415234537788835,-71.60555841654941,-8.679936796167807,0.017593442317915903,-19.950489429161884,30.654395527050408,6.9325739144549186,99.75331701651187,-14.333620543983523,-10.940236769836858,62.097930369673236,51.23819154481114,-72.06192756529825,-57.64263298586943,-16.21816639987115,-23.87165568278816,119.21468690680854,0.014472163919169409,-83.86984227051325,-4.534112182777902,-0.015250911405634539,109.05109722649334,33.44043817857496,-13.906479386533338,0.06116476399774416,2.798418959542932,12.988757605508566,-0.017012443198949567,10.619937118361811,2.572839894354997,0.8291488785156407,-10.698216480703346,2.0957121870657147,1.7075714864484361,-26.10869765077939,31.175787493278957,-24.19080316428804
4.821200873191232,0.0,0.0,-51.180180767164074,0.0,0.0,9.17342627545692,-2.178584564574579,7.903562646869915,-36.74226879285964,8.510009714652291,-23.352051900657408,-18.84234096946802,-2.4068832476886457,-0.001729184900159928,-71.24138556513137,-6.75422858532982,0.0023360311151674295,-17.800421299370512,28.709955282194937,5.0560761036105015,97.27407093872685,-13.06143908851917,-12.301212430623936,58.504824125991995,49.71508738292509,-72.12675839440854,-55.67426900060812,-15.524573706348328,-32.95310300077024,121.4585300746564,-0.015483321863390569,-78.83733027344329,-1.8221673176919533,-0.041114750720974265,114.42742925312395,29.81885660509008,-21.144189461780872,0.01439070383985809,1.0452954900974452,14.615723688552492,0.008624379391559994,10.42993848830844,2.6938813949801825,0.0679248897724552,-10.896607040402088,2.484975561513103,1.0426871623033422,-24.771254226364185,30.9953344255091,-23.53284591849712
3.2033957464661063,0.0,0.0,-43.09901096894217,0.0,0.0,8.948176022160455,-1.7092286479598096,9.066472954639737,-37.101537698891505,9.725966739449047,-21.574532738749927,-17.306973118259855,-2.0018898914161265,0.0017972646899542494,-70.22728010677125,-6.668605677202907,-0.0027089393738887685,-15.963611478076793,26.13323086841245,3.915697957336379,93.86754083201119,-11.594570734919696,-14.695524758360865,52.07959613974018,51.07602763142386,-67.63087865700773,-52.4759385107414,-16.775191241000094,-28.224360408596525,122.7361851229116,-0.003125251477521124,-71.04579003989281,0.13994640941711672,0.0165017393262608,107.91433691213194,31.08098583638505,-24.973912373080495,-0.03562713827627245,0.2055549339107578,13.911808293997012,0.007774927858853983,10.60302958782641,3.2733926794438784,0.2770274473186209,-10.73187301792501,2.948828827131016,1.4484570095192504,-23.623466364775076,29.957380331640124,-24.16640667773298
1.3959104152112065,0.0,0.0,-36.20973582122932,0.0,0.0,8.46565662069596,-1.6794501480748818,9.403440727997104,-36.41619549725641,11.12000552839821,-20.509282586850844,-15.896063845275174,-1.0054627963590304,0.0002452028086394058,-69.1642570230028,-4.456074003475537,0.0010824057646259488,-13.224743326815092,22.591848321769806,3.268662030948021,90.65671576163658,-10.622360253740288,-13.989143364234467,43.972235167289405,52.630790537578385,-62.588578321115975,-48.483957307000516,-18.996795714094528,-15.873931277155616,123.42352226510158,-0.0036952564184572854,-73.9255353892683,1.8104384052276705,0.013139290664223495,95.41770149235518,30.101815438815386,-28.372042438865552,0.01971414945337835,-1.0719150103835484,11.471360319931257,-0.0031319004743805123,9.875434016898293,3.845019306162774,0.9324228409044277,-11.46298442731632,3.2432674915581936,2.266928753977766,-21.281652844187125,28.131872978778297,-25.91857231017464
2.798398681797647,0.0,0.0,-28.29019150602477,0.0,0.0,7.175348811040901,-1.096926852386742,9.86096011092777,-33.57155121796043,13.583374581151443,-20.75178334670916,-14.823877722638068,-0.7036591125634468,-0.00047833191423648467,-68.1882534386746,-1.6392322320139747,0.001844410453239272,-11.46153949310326,20.25323143695361,2.7411368105716893,86.05249543714822,-8.8256297093399,-12.312693276502856,35.27763267125092,52.53573667186501,-56.99210787890221,-43.93048763073257,-21.883180957409493,-12.938322079957393,121.57235045496216,0.004779042643754301,-80.32199973354606,3.5471394699633843,-0.003527168230736086,92.42382258116602,27.48344809753761,-28.55744168146735,0.02013763128021892,-0.10175096832969822,9.035620613525454,-0.005428468558401788,7.909701973157685,4.142437636331514,1.5368275481868985,-13.424927754754016,3.3009323640392534,2.9378490891147226,-19.791523780082457,26.99184644733195,-26.889205688095117
2.1086693276052024,0.0,0.0,-24.637744232370334,0.0,0.0,6.4625212128468,-1.209874970469232,10.308076616862307,-28.455393584877122,13.541520926026324,-21.47463192948162,-14.776095395361567,-1.186799089139609,0.00044661888641885853,-66.67021255655995,-1.7195486258096686,-0.004829326797647693,-9.085196015873189,18.759814080878645,2.3063421378152924,80.9389586316354,-6.550529071809869,-13.417831613193353,26.004851797859743,52.253744985100475,-47.73469386991878,-39.480930331262556,-23.83620014410308,-13.894747720312699,118.47549257474034,0.01567768923866469,-76.89595432450977,6.734785610370655,-0.018859730195669656,94.0497738546481,32.479847326590495,-27.104978930500085,0.0007645245720416593,0.737844682189893,10.05491692954116,-0.005042110524062267,6.377475131217631,3.97205213231587,0.7116776860945448,-14.966714539818762,3.4417373827971462,2.1077539946898467,-18.634622831436204,25.78936027091275,-26.833394507695818
1.2188333676966967,0.0,0.0,-23.53620371307016,0.0,0.0,6.1407716883788055,-1.9131478480863366,11.109362007836806,-23.101892457493904,13.675841366157247,-22.80234493789476,-15.233309394152739,-1.1338695450694243,-0.00035540696145727047,-65.70641076518257,-1.9474992520119674,0.0018050855325531686,-6.231297390812875,16.012157807187727,2.7671132792269875,76.44757749665777,-4.38852783823662,-12.872721775134943,18.31085192245487,51.10605096241047,-41.69124688509958,-35.49345871903905,-25.101738402964173,-14.502725464417743,115.17537432676973,-0.006142236834069377,-75.70988672796247,10.58726712873338,0.004635466653816724,96.69622572976559,31.79551351435019,-26.926265443508363,-0.02494924780103214,-0.43216830457472494,10.524687343576117,0.01333558733242982,4.595463601646532,4.081460927222345,-0.601875231453376,-16.76398920789139,4.020726056057863,0.9247107208182364,-16.8865694146897,23.44224061858729,-26.152882234093408
-0.013137699080123955,0.0,0.0,-21.051896840459218,0.0,0.0,6.096918004507438,-1.5433083189201908,11.179941030929783,-18.941611694336316,13.124426534833464,-24.647488333575144,-15.086473446780342,-0.9457846779446654,8.175530106901597e-05,-65.1178930864387,-2.3685986914175423,-0.0008422485625667452,-4.265416319546205,13.27189246144304,4.705188599163492,71.83069937753962,-1.500731184372794,-11.805322065944324,11.551728502540598,48.63071533171342,-35.87692670463667,-31.097941736794567,-26.05839716473649,-10.522987544979744,111.2263726801631,-0.006532018704287293,-76.38796090025305,13.214682053256206,-0.004029909038336676,96.13784147159802,34.63466396761629,-28.299899347735977,-0.011281343480595632,-4.756977310682588,7.084651292642232,0.020827297646960324,2.7753035727605124,3.9660823610915834,-2.9131302573796836,-18.578347193279274,4.752997198036215,-1.270958487594625,-15.323650990173808,20.866312630393054,-24.3822358742858
0.5657496004335922,0.0,0.0,-15.905273947026517,0.0,0.0,5.464411254718263,-1.604790586023246,10.993850971911979,-14.990949757945806,10.783896329477592,-25.991559735133297,-14.618281507384602,-1.1483866645463694,-8.952562115796578e-05,-64.02429620622384,-2.966482860480961,-0.001058352059234176,-2.3118753054543646,11.628724404259717,6.573045301248076,66.75904709154578,1.3034901313621523,-10.679671470152869,8.053544382914689,46.708836302980956,-33.10600012147329,-26.751323180208203,-26.172614008270532,-9.889346973002487,105.97489808949946,0.012322505749466632,-77.16523705909871,16.869688265479958,0.012061166618521978,97.86584721741619,34.77330720124239,-26.551503520652112,-0.007860826463792648,-5.460804086110276,4.00038724477189,-0.011910967033430793,0.46748693117902657,3.877141831100192,-4.741435568354747,-20.858421553956127,5.3339648128893495,-3.0090043679771807,-13.620958047970428,18.674870623126115,-22.604598294887722
0.6399610933989626,0.0,0.0,-10.145927582965182,0.0,0.0,5.284945011299264,-2.134433341854264,11.967145496604585,-10.384171701404957,8.763540486030674,-27.938305655158455,-14.536447803895955,-1.6936486454324493,0.0002656377677999827,-62.51627183227861,-2.5102117642237887,0.0033358574707842196,0.07124316555898494,9.963349766887639,6.5145561194589225,61.2826244383708,2.9204433415838524,-8.08618781332834,5.245738982344794,45.784162057886974,-31.14647663417691,-22.988235505861063,-26.518151791051388,-7.258476597732524,101.45186418941844,-0.0008131358344901563,-78.78974405643085,21.9791464179957,-0.04698326709664758,99.23450471656228,32.73888548910905,-26.031929218172277,0.011865001498371554,-5.983043285651917,4.088955965063108,-0.0011668621788092485,-1.1382642301185542,4.411292409816329,-5.934969249490913,-22.45753259009746,6.264405941469811,-3.928413345954202,-11.85700421555025,16.646070953254238,-21.487054532698615
0.059105445464510326,0.0,0.0,-4.841146588910881,0.0,0.0,5.443808260305519,-1.6006994010712627,11.193972290112274,-4.686457391789816,7.266096159174231,-31.188288785997457,-14.815581658659159,-1.5728675786841664,-0.0009464129918666341,-61.530239291916665,-2.4149082061401,-0.0008107386370228356,2.502738349610292,8.075374619818179,9.534720796927452,55.85539875794206,4.7389957985680216,-4.469493056730072,0.8417706543188712,44.98410937085685,-27.052620323310805,-20.03935575405995,-27.065307664445008,-2.705552211930676,97.29846891448928,-0.03697784081863924,-82.55289067169292,28.103068467813614,0.03497136290052257,100.13596466922075,32.16918866570243,-22.789680485530706,0.00954535716533188,-5.8084162293503026,5.332405821557522,-0.0005482326288163375,-2.7064810000956743,4.334336889722313,-6.957951738100254,-23.99377900423163,6.563293407060632,-4.912841937241816,-10.172417470225021,14.117871438210159,-20.01613932986116
-0.8474651799222634,0.0,0.0,-4.431472511300561,0.0,0.0,5.678472062342012,-2.402771601559915,9.960997853258844,0.17402107086565086,5.8605516529182085,-32.34756918136195,-15.640014967289758,-1.6226098110301141,0.0012021533065375049,-61.193540186711196,-3.420744867184446,0.00021173952787273612,5.511868519075588,7.083352669945883,13.199369253657311,51.24480490511612,5.89086603387267,-2.8617094799579132,-1.4539895008687045,44.768768063908496,-25.513583442996577,-16.687094710564836,-28.20474360594897,3.130650438458542,91.62265813514132,0.05718016529625116,-82.54742699578027,32.71126611861804,0.02609215683892925,93.70586029751684,32.34392060470732,-17.29423239870015,-0.003991561222323936,-5.3306586790880015,3.5106100109349914,0.004806038734433032,-4.880197942362293,4.360793264506364,-8.084014565453183,-26.1296149322357,6.995250461154876,-5.956886477632484,-8.068086348200454,11.623144418899388,-18.106345556187403
-1.2404660347687742,0.0,0.0,-4.676838778290758,0.0,0.0,5.623596986732859,-2.0239313467199427,10.80958733105079,2.4559198735370407,4.0155881079935165,-30.156065382503854,-16.437688122662784,-2.552125697086056,0.00014844340033657804,-60.692260514211476,-4.60339657199435,-0.001097466848097932,7.924801764857808,6.473274195375172,13.586398232175894,46.42668055106958,5.453970405665009,-3.30665917338134,-1.5448776060669729,44.348106165373316,-25.71896354177832,-12.584357067369256,-28.709758457472706,6.305683882195386,85.97665013677262,-0.011369684402558342,-81.1101925891301,36.66677591831983,-0.034252323795409836,91.68597310871809,33.45506271792451,-17.359397332377792,0.0037221616081526063,-5.900375407466394,1.6416078822529667,0.011116734316836085,-5.456484812282413,5.256231538540655,-8.757944428482006,-26.722547156070796,8.07324032493019,-6.260730059078718,-6.902420246635892,10.085322105663325,-16.811701062878218
-2.800316356023882,0.0,0.0,-1.2318278945835432,0.0,0.0,5.3716266825304535,-1.2862611934031798,9.439723876698558,2.6786007736833173,5.207407735688742,-27.851783036873847,-16.812720639397952,-2.8925058260513516,-0.00027437493369028863,-59.92499317094641,-4.451216841743544,0.0005903121361079954,9.420132999649667,6.241947382484776,15.11599564626213,41.363661983527265,4.828025683793735,-2.145575052101608,-3.3208096156131814,44.321061387800114,-24.17489000152269,-9.654126212216077,-28.782228547891513,6.462714104402304,81.03410452274537,-0.010205584781827705,-86.45352187491385,42.7487330473919,-0.008394405728918837,94.39130610073255,33.58198504002478,-14.301939290393756,-0.0067889051654883,-2.752376109716327,4.973145018910525,0.0259482502307572,-6.337718653490276,5.936127687311685,-9.179676456005371,-27.623414867852894,8.859099117829183,-6.406728334103883,-6.28765433635651,8.596267326004492,-15.643861049894438
-3.641586833108484,0.0,0.0,0.19981467680871048,0.0,0.0,5.652636129989543,-1.777851092019009,9.813663222767314,3.7437237224077626,6.547344565795844,-27.34883222887705,-16.87554313327743,-2.9384604263590712,0.00016521326978039777,-58.12807337153558,-3.919864064283262,-0.0024444744387242096,11.495984697618384,6.205352265725634,15.92285128111858,37.43167583605491,4.412520780059772,-1.0894842890513248,-5.4907821954161,44.467880220573626,-23.29670376764848,-7.780757864147251,-29.159103843449245,8.269093701672396,76.01281369361384,-0.02597584888840797,-92.4259888797449,48.27023491288695,0.0026584495222425823,94.39437687802422,31.27679596990535,-11.862110067850129,-0.010829005360781697,-2.2978845820154867,5.00014714840297,-0.0012130065053673352,-7.317848380383274,6.315415051487056,-10.165412131088061,-28.582906483349145,9.568167151304428,-7.192556603727601,-4.284201031994948,7.247961341986008,-13.831936368874453
-2.4763394442713937,0.0,0.0,0.9957411840062567,0.0,0.0,5.49486117693253,-2.088405681095552,9.82627558141047,6.465094457436923,5.62199969328936,-27.46737073483172,-16.33572656274878,-2.822268766408357,0.00014047939969352588,-54.64097033135196,-3.5812579782900276,0.0030856407715134913,12.769209741931599,6.235464494524467,16.669834136676815,32.83046393478085,4.133939751419172,-0.7802737639331295,-7.419158661136146,44.08403783649712,-22.816234843988017,-5.550571202777641,-29.591790206977777,11.137429784709475,71.46287353872056,0.025842360310675556,-96.71786500215349,51.962949677201955,0.014157032587700473,91.95292032007637,28.75952347994004,-12.499761894891634,0.02126528378995768,-5.132712108531257,3.1204339007612223,0.005454156694204313,-8.214763157236236,5.962538141730064,-10.75457211969103,-29.42995475007244,9.451474811869632,-7.875775336746478,-2.69661152281628,6.208335503285316,-11.70666872718573
-2.2586491666346507,0.0,0.0,1.2000426578213272,0.0,0.0,5.222746795913236,-1.8800097504903768,12.088036100268233,8.90825766021624,6.016702123748726,-23.21811895014578,-15.984584811043437,-2.545364277441887,-7.018645659209436e-05,-50.88699530600449,-3.2628682240943268,-0.0019493784953081763,14.271564175391518,6.225081270727629,16.666674443505375,28.911421827645857,3.514101089406833,-0.2788030813520279,-9.28057392636404,43.71206302643837,-22.379074711508785,-3.654852865524112,-30.28036790795016,12.845807315537613,67.23962445731549,-0.011114632746141386,-97.66795394638865,55.613431310448924,-0.0005293950043170828,88.34531310814266,26.348750445733216,-14.279049879440239,0.002020312602535527,-5.7447954506775005,2.0915476986747548,-0.0039693115970410985,-8.873181203963698,5.455194295185742,-10.92883077220229,-30.049530314299773,9.041152606816382,-8.225412560120931,-1.4208482482671099,5.387297824752249,-9.28868797114342
-3.33629912658298,0.0,0.0,1.8394874815807642,0.0,0.0,4.44211791380663,-1.2102691413071711,15.351207766478426,9.357543159747365,6.763695345697295,-20.010974786241597,-15.923984873043146,-2.3750274989110647,-0.0001105518883934196,-46.79326161523434,-3.1300491114103783,6.600120671233943e-05,15.664736876980257,6.599668063516937,15.783280493423923,25.375154256254376,2.812134933007864,-0.5133650115251392,-11.517096639834861,42.531076763100174,-20.321288612606626,-1.5266696303868397,-30.75567377426101,14.722412280177728,62.57858901197883,0.0051736869451791834,-100.22092013214134,58.573972629123574,-0.0022325052147875615,87.93703874911884,26.1911100915036,-12.344842279140643,-0.0022742231351296958,-6.2807522583896445,2.8478833488600714,-0.001279631938415293,-9.410555757582681,5.381100909056361,-10.511133262357047,-30.604185410193562,8.821789069381918,-7.860023263856789,-0.4715127046236673,4.903358248146425,-6.740383077195065
-3.8075031564822033,0.0,0.0,2.421560824226907,0.0,0.0,4.244580718876694,-3.1619169402205234,18.053828188513894,9.102751102014423,6.697607380699503,-20.79997056307597,-15.814148898029604,-2.2280053175931505,0.0002395495127756956,-43.41814588873967,-2.789617483927685,0.0033032789155700215,16.575038809182512,7.028139370251805,14.948634778403889,22.43343590508461,1.6785022635271882,-1.2744410180780152,-13.351813505770224,40.63293966745676,-18.414228904622274,0.12599357737313377,-31.393909237236976,16.55029010412344,57.933145434372406,0.0022235804948837158,-101.30884658964708,61.13822261340918,-0.0032554043626902727,88.23545998226665,25.9198360238692,-14.696663562782671,0.00017550365757108355,-6.478653316393699,3.7136951731201955,0.0005981667059134152,-10.344290136671784,5.112193313711657,-9.829940664487765,-31.556307413624076,8.325752426101335,-7.318817088549876,0.32075617060182815,4.4545736503745506,-4.6779895640423526
-2.818456433910774,0.0,0.0,1.5526094369912016,0.0,0.0,3.875331006487339,-4.198026040240159,20.13766658812445,8.76123615801317,6.37563827291406,-22.050940808205112,-15.481789261910775,-2.2455200729478553,-0.0007356119384423666,-40.36366452902364,-2.63800780393844,-0.005529636303083175,16.78678156042152,7.786738762976868,15.290567309804869,19.704653415748332,0.4989337656214576,-2.857812481038357,-14.595417331070491,38.51912472709519,-17.29410041644631,1.6108931058278828,-31.882537423709653,17.884116828112344,52.043025656956196,-0.031177610127928475,-103.86831486807682,63.26095586166127,-0.003114457345548196,89.97273815121483,22.352175985769257,-13.73664104465301,-0.014081031051885575,-6.913399624931041,2.6550224795047646,-0.0007937838301677956,-11.244656910962403,4.819351213469496,-8.89663174349761,-32.48309191228538,7.716138887378097,-6.550596515896063,0.44421276451657704,4.434771166900747,-3.1027728863288124
-2.816320598647386,0.0,0.0,0.3566106869610721,0.0,0.0,2.2953068990314476,-1.7181429733563596,21.61570863298608,8.176143966712562,6.385626609538831,-23.38515655283867,-14.474089126739162,-2.683893514721326,-0.0001033750971802674,-37.025906657904244,-2.9078746047093476,0.0033815248888720588,16.988736206780267,8.78387569886197,14.570861655433824,17.534687309229835,-0.2026611615708715,-4.942731305383014,-15.527453632242644,35.9156620083182,-14.863438821760742,3.3286858009063747,-32.33898547951995,19.097627921728016,45.782329800276344,0.013443291688822434,-104.35700867863277,64.42568646391264,0.005249253421236415,89.4056587036017,18.48733804928134,-11.587224012726969,0.00740887667047529,-5.450513103369992,1.4470717837862543,-0.0019771475535507134,-11.410229328735644,4.94768717155268,-8.450275767834736,-32.67295952521276,7.674560400991048,-6.085393544801966,0.5065398397073008,4.8687156312727184,-1.5540295364147985
-2.262917837128134,0.0,0.0,0.6231668317740969,0.0,0.0,1.2420234374872379,-2.382267662625243,22.583534498170152,6.095581537120735,6.2838172347310675,-24.969705485109557,-13.479683252544865,-2.356369031111064,0.0005412541115674245,-33.563143752436126,-2.7716349935148794,-0.0046029750493895545,17.436637667298978,9.642828472195434,13.649025261968873,15.929223771470614,-0.8165040730876635,-6.456451034999655,-15.498718262205852,33.46711282136163,-13.625338750879127,4.957183387226503,-32.77421990406603,20.764439166118965,39.01559884276792,0.03818734560296972,-99.96522111264031,65.34880577963175,-0.0015045759240058512,88.43076648675475,13.483367461252971,-9.24479814316418,0.0027966105611375177,-5.963998923684884,3.2152912743477633,-0.0003791829256344449,-11.839227978865107,5.080166757675201,-8.256477943119872,-33.115839423774666,7.727981392005811,-5.8553512020591505,0.7409115148305456,5.158645106774738,-0.07239253410688197
-2.621638072467467,0.0,0.0,-0.4528290444434096,0.0,0.0,0.8045095478143427,-3.3492888850479523,24.1306501570816,4.075621837272913,6.7150830976092735,-25.791684913097175,-12.997967736101515,-1.9266549105352153,-0.0006521637413592746,-29.94473236524165,-2.363429506129937,0.002626412319360755,17.916025095703716,10.374868530191343,12.865395787793684,14.263213635177058,-1.523012261536716,-7.492865282326157,-15.949636247031385,31.104479271695382,-11.783052436319903,6.302734743760128,-32.7105271111706,21.86608163582048,33.08619135385581,-0.016383475127137125,-97.32396536909684,65.70493882226474,-0.000501695036209461,89.23741497378619,8.013177074813168,-7.7954309831223245,-0.0008535689183327767,-5.831575109059171,4.659088301465954,0.0020276661297916896,-12.574487284079728,5.460447150479206,-7.958587733454654,-33.88089932924115,7.97459485151173,-5.436960855691888,0.9639564467745861,5.232065115320068,1.1660573681428552
-3.657793908769747,0.0,0.0,-1.9085517063306436,0.0,0.0,0.36378505738309674,-2.4604507681903964,24.564087175245664,3.453201461270624,7.176143948199384,-25.266037340039116,-12.05714676581257,-1.5497777650901023,-0.00018199161994490626,-26.207009053082498,-1.3553662611904187,0.0016945801440596579,17.636308148436253,10.619534534556784,13.445176384305428,12.157200426874425,-2.9432876897615903,-8.741942737497176,-16.94155488619659,28.761274051079504,-8.140382147974838,6.652045872858992,-32.13326090255473,21.78908090139879,28.384547468943005,0.0007562487005603297,-97.50157261955425,65.71775797337114,-0.00044892136713752505,88.83346974267863,7.98319680768243,-8.058354257706235,-0.012721353750990932,-6.496704881619797,4.269884233295289,-0.0017087158080366389,-12.742105905851789,6.011600541664362,-7.40979164903585,-34.09498619023108,8.289378379522493,-4.720646310250381,0.9520820807424515,4.955866231281677,2.573675992369061
-3.423416106235365,0.0,0.0,-1.0644228191808043,0.0,0.0,0.2595119205301381,-2.656648192813827,26.15912587406123,3.027242933478861,7.744243333892799,-24.10676882340938,-11.14453830022036,-0.5367956481711242,0.001506100774673499,-23.20203693473438,-0.3883377532566337,-0.000707130621546381,17.951843049631943,9.797009177860028,14.066927000486633,10.882356770999563,-4.964930452707258,-10.067904028642973,-18.384940718909682,25.836165682619942,-2.447949398740145,6.925755561392373,-31.70594875121703,22.052248835019746,25.66603459602223,-0.02532222045457445,-101.31992948757525,65.30395633723315,-0.004405858660418871,87.58468357146003,7.893115169049922,-8.818834154892484,-0.00953211557768812,-7.984457057494172,3.3710107638191653,0.003974256375130242,-12.927961864703796,6.051927936775127,-6.4905904007160435,-34.30814399931132,7.993891603184379,-3.845851244654566,1.3467401539435195,4.365011916268208,3.3407243682376184
-3.231400283197893,0.0,0.0,-1.5160599768472167,0.0,0.0,0.25463444297090054,-2.8177641112962784,28.986124949934545,0.9778944141128438,8.484671337559696,-23.105865846863814,-10.04405771428907,0.10993846729705502,-0.0006637198457720964,-20.719356159360306,0.10469670366010231,0.00011241445280143838,18.56037523996133,9.1962717324874,13.824976531109199,10.239471764878077,-6.370543942455623,-11.250600361179758,-18.687833563963725,23.126647917492615,2.088502522556827,7.02446635403893,-30.93491781858917,21.44218076891584,22.758869554106912,0.053689648263943464,-100.46361245905452,64.32415024457076,0.002159551821426668,87.22929596554627,5.4549988041230595,-8.565080350278668,0.006505407130681978,-8.749871075094985,2.558504987561719,0.00040121947217318713,-13.465506322659081,5.725041466201041,-5.61000427903467,-34.84929828257245,7.370152200060365,-3.1430658756415513,1.7554917893287885,3.9897763263024424,3.819168334837927
-3.7586005089613725,0.0,0.0,-3.844979303054426,0.0,0.0,0.28761678992853057,-2.4254905212598303,31.96693247008209,-2.1572269653950342,9.69405159430373,-22.831408399910636,-9.25084698404195,-0.10534129758874385,-0.00028274759351777743,-18.063116975922348,0.1817634269956314,-0.0008114047934166674,19.239068226357258,9.0127376596312,12.570707095990045,9.535579086208008,-7.230790766457246,-12.242917243414619,-18.2109562812863,21.396998925999025,4.73253218290155,6.163433190588339,-30.044003467589004,19.521110331726813,20.180785729349033,-0.017973052747593823,-98.44401977539698,63.989663732130246,-0.003525722940247186,89.40353748541662,4.862342359822414,-11.046081666404257,-0.0060501864223019425,-8.678620031099282,3.937731852395041,0.0014567758870786818,-13.412228859031362,5.233368843602891,-5.568451355887376,-34.774448032844056,6.897208447875614,-3.2848206874425525,2.0221370561563883,3.6001408224286418,4.2937112511102224
-3.611170908444531,0.0,0.0,-4.460593202623096,0.0,0.0,0.44120809769310576,-2.3473787195501727,33.72715357199657,-4.885202498206419,11.290564396175915,-22.815868265036215,-8.891639635089463,-0.2800334336478082,0.00011594951448094603,-15.95670449028185,0.07534414197653508,0.0006562686481122562,19.58416675483616,8.87646948049159,12.490689087955499,8.863714163156509,-8.058442944824087,-12.20929846710269,-17.71806945591665,19.874447907745328,6.517354251709505,5.630747374769251,-29.614498749901546,18.74165145452646,18.081013755584245,0.01277851804965037,-102.36822030661816,63.177097209315534,0.0034357239069814937,90.46658112729637,5.4212158352148325,-13.091747907933073,-0.00768327217666912,-10.038449857369145,4.144394323746286,0.0025204202985296157,-13.179063484137691,4.560915506292119,-6.085809483302887,-34.500590709378216,6.458473977894244,-4.014630274933891,1.9832950803183793,3.0034714752290195,4.876777571709682
-3.348336421175709,0.0,0.0,-3.1737490026216495,0.0,0.0,-0.4376436035233846,-1.2551994040148342,33.29489979436138,-6.0193483270251615,12.812922947269238,-21.87853230965654,-9.057042303482007,-0.39463049089479196,-0.00029394137478496227,-14.438231556360847,-0.2927329896591647,-0.0014876496692751335,19.89516923209283,8.686666665821626,13.7902726264547,8.434145182295246,-8.865565345111204,-11.302775388815258,-16.618528241008452,18.685604154121563,6.803444896076606,5.157338829701342,-28.632388775742836,17.82294009150426,15.132316266326471,0.0036489036739067995,-100.91903988453097,62.12398113607855,0.0009590986257978661,91.32032128006298,2.5190040496399737,-12.412261099531646,-0.0044650035834503665,-10.024437881670135,4.43283614500534,-5.609533817432997e-05,-13.64088387992682,4.787686243236321,-5.203991717699985,-34.99165292484253,6.349915185280102,-3.1078203340446584,1.8644786990744948,1.9148985376514445,5.511770992134486
-2.802715407937832,0.0,0.0,-2.4172445941639955,0.0,0.0,-0.4106431054985941,-1.7238538097480023,33.6529149950984,-7.339598781530653,12.864506933426854,-18.211118094413155,-10.058127703490792,-0.5689780233921311,0.0004692195561408197,-12.932879297601627,-0.550804238990866,0.0007047364217558609,20.68704929491877,8.670499331552064,14.24976568068965,8.07434778559762,-9.524831790722336,-12.083509495034905,-15.014113347967786,17.506036697396812,6.939295938537966,4.8029731475731,-27.62849036049058,16.7614596965209,13.177614411730492,0.014132565378187606,-99.79033457256487,60.57919078285819,-0.015190103627935197,89.34669122187981,-1.3319565781726421,-13.154378322588052,0.010564099944352878,-10.211613142522959,4.025349580324455,0.00046354473891644667,-14.043029480239667,4.794772343055587,-4.5947176104002665,-35.40506890171457,6.135406846220272,-2.53639701642401,1.4271092416525266,0.9508672411061669,6.045084972621077
-3.1739603771319413,0.0,0.0,-1.5212922076262547,0.0,0.0,-0.17481403012509983,-1.7505919819964344,33.7258011895309,-8.375297775549141,13.382714378838884,-15.00242891105719,-10.670434023769753,-0.8616896554208524,-9.783268905449102e-05,-11.354414109491405,-0.28721613530264745,0.0002487140411935035,21.40479405083077,8.749757842344746,14.792501004142904,7.889183499665195,-10.145321869781563,-12.967302992922862,-13.832025365530486,16.747202635877507,5.487450226609868,4.871325069173597,-27.04075013727406,17.326709872470992,11.831376087590854,-0.010297888972713293,-92.96185955865309,57.99676031148035,0.01895372843960498,89.22517666934529,-5.911305837584619,-11.89930270869372,-0.012843798857878775,-11.248866250748353,3.450867974175093,-0.002873949481910234,-13.875264347452433,4.2592079053148595,-4.679656756543776,-35.215737800656186,5.667432652903662,-2.8117074972707026,1.1753554935174366,0.07581293863685835,6.328415690107994
-2.889926030730492,0.0,0.0,-1.5461279306033189,0.0,0.0,-0.5688694596468965,-2.135632531547636,32.885612821848696,-7.4849073173028815,13.49628538147959,-14.41347419088924,-10.765543687917873,-0.7008843833100648,-0.00013127333982786347,-9.51479876788167,0.08547277463846677,0.0011121176445727742,21.409105411347355,8.830443190003747,16.42899514755048,7.137026071264913,-10.420750706604776,-13.654546117240589,-13.575489222897739,16.095372538748943,6.99970235750467,4.729115990661966,-26.242514917054933,17.922429061068296,12.150569326986195,0.0035604302164816237,-85.00775496751235,56.38775135427502,-0.0003556033181763556,91.37517914806978,-9.385241291209201,-9.74627526779735,0.0012873149855385248,-9.668654931651773,4.337242913958538,0.00945993103289743,-13.8061387435036,3.9149943000077108,-2.8944324382789066,-35.1584077585362,4.698624573554321,-1.2721867084139518,0.8395111192473418,-0.753015463803828,6.039213010240899
-3.173031002528831,0.0,0.0,-2.64027287924339,0.0,0.0,-0.578849156889145,-3.1017236724965294,32.753854340522906,-5.258149054080733,13.98992348538146,-15.065757964591148,-11.031337836459972,-0.7277377079710063,0.00015952467412509732,-7.883100145977739,-0.04853716031185592,-0.0009991892393421036,21.39430671325128,9.138459815530707,17.171949749387068,6.294913018892626,-10.190345479631048,-14.234231936448596,-12.075960127156865,15.665576543730975,6.2889648180334445,4.7253074130232235,-25.140693666989456,17.894616919814183,10.873927143570226,-0.01113253372461904,-85.64916803537693,55.44351240659136,-0.011440634393769319,89.0642922231675,-10.04190917740114,-6.015635633173648,0.011000390756678566,-8.741429268619138,5.325360895160356,0.008265618358461903,-14.00032036859723,3.5545940007845607,-1.5221583462747872,-35.348868340155676,3.8644002613229045,-0.1248164555464031,0.33233605937548844,-1.341856636819396,5.598244896322234
-3.354577516149749,0.0,0.0,-3.1812396823132993,0.0,0.0,-0.5756888364256442,-3.1156867384390687,34.70541190957524,-3.4906208802887257,14.116894013656358,-15.249578134639236,-10.990138591452387,-1.2031649834513996,-0.00013869306391057603,-6.532250897375658,-0.2956861705762361,0.00045878430551761506,21.47433687371499,9.644888328181889,16.456192686536866,5.928019203238727,-9.651751329717042,-14.60261565861355,-10.631878385867784,14.890917481514284,4.785155496513478,4.764126429223805,-24.59368569365577,18.76164439957271,10.27012383217713,0.0036087668748870953,-89.39821075471825,53.2669398396641,0.01713713240572606,89.69659399066286,-9.353721179837951,-6.511743050804997,-0.0031752118641441324,-11.439073344770458,3.801520637741867,0.0035232090184887234,-14.355660481553603,3.5462205432761547,-0.4006287927275333,-35.70120170038815,3.4491182045690456,0.9168368761125801,0.09966698965129825,-1.0769178028719033,5.185907085140058
-2.1383774323379634,0.0,0.0,-3.320721629866103,0.0,0.0,-1.4862055099211138,-2.7882713918283373,35.48563793025515,-2.6411042389089903,13.69420825763108,-14.883163830980756,-10.796159987049766,-1.2106188678519256,0.00011028974559072822,-5.313483082758649,-0.5593204076546288,0.0001381791879098066,21.484646646622586,10.319543869260714,16.907005939238335,5.801321935280084,-8.833902394398596,-15.355953207209861,-8.946114574970117,14.157808779424656,3.0754337870050046,4.512166704950026,-23.91953300848283,18.859176620648544,10.256508374679749,0.00042470454047868864,-88.17618475548525,50.60300072584654,-0.006451074914243763,91.35810636347367,-10.325884944037101,-6.595702271252605,-0.008741921160747384,-13.271986044630577,2.379648373098311,-0.0018264891000444147,-14.233265935135073,3.4366398491777534,0.057008044876910025,-35.573277895833215,3.180801066120971,1.3030588896848176,-0.049336431893593616,-0.6873307692768574,5.475179522318501
-2.896735406251042,0.0,0.0,-4.920840470561894,0.0,0.0,-1.3728673428902205,-3.663989263145039,36.59384727287861,-1.2199768870549954,12.840005003636584,-15.604452877716643,-10.938637501592456,-1.3775322699461434,0.0002118163957238793,-4.321717077187089,-1.0002539446639935,-0.00038582657820714945,22.047419621416456,11.39603425929679,16.21242376765922,5.994994182842162,-7.437926552630772,-15.156876171458677,-6.788589682321568,13.802546121646175,2.1451031944690047,4.11979354890339,-23.166564839500328,18.660277840810924,10.01948765254545,0.0018554365626382162,-89.075296530374,49.05257575540811,0.0030877899431710014,91.0149596470656,-10.19398610640905,-6.817396232426306,-0.004435462652879536,-12.750574211469807,3.719226859171487,0.005768918941113721,-13.72375521707267,2.586029062548315,0.8805289989936164,-35.04151732812668,2.0893380109444837,1.7602183520373218,0.0786394750054937,-0.20889142259143792,5.1298708405790885
-3.4109655467094666,0.0,0.0,-4.727011015452477,0.0,0.0,-1.1656864807357081,-5.281283533722479,37.13077961690214,-0.3315086031932248,12.674905819987758,-15.849002696146663,-10.8388371675404,-1.4749551530046325,-0.0004196861368439427,-3.5582964174931027,-1.724484509811654,-0.00017936442672770946,22.30924580773867,12.40754852161613,15.362271155196577,5.981541965770027,-5.972211768227955,-15.304714581985328,-5.141518997876864,13.719556404371394,2.246553452447482,3.540076016313669,-22.303116349784684,17.66516005533133,11.13390911075516,-0.00703380332442968,-89.04552746666565,47.098161150962405,-0.0014481073343509856,91.05480174787834,-10.324789922636581,-7.252242598266247,8.458829960087767e-05,-12.854402589796663,4.369769852794813,0.0036903574577358267,-13.421942482582017,2.1403065453179275,1.266565402768392,-34.73002180130495,1.5339019815532018,1.957642190103005,-0.1294835040632097,0.44333018109593025,4.27798497149901
-2.7091728862544078,0.0,0.0,-3.405913782970314,0.0,0.0,-2.9175835321303256,-4.403597255281979,36.23796759557779,0.09596909795998318,11.776309169362747,-15.275131551197099,-9.793161987944448,-1.829179197771628,-0.0006915046712130401,-3.1383793402655216,-1.9736403770732016,0.00041821046051953746,21.790670298583535,13.054416438302479,15.933068352326417,6.145527279700141,-5.286365069743726,-15.360422840702487,-3.6558053787549607,13.473534161788887,1.0422202877502729,2.9601036239751646,-21.649845078777087,17.243168730482232,12.591708970256843,0.005354194299430491,-87.10714532133953,44.72649171450047,-0.0039246390169539284,89.5891381467697,-11.191221754380082,-7.2980790407555975,0.0016475660814026431,-14.600242239211779,3.2516212715106234,0.0006295251249250265,-12.902847458704946,2.4857107014012563,2.052621210299828,-34.20243098095787,1.5703559837488832,2.8151909842222946,-0.3984121558780285,0.6637474279814911,4.304524287911425
-3.4919077071431275,0.0,0.0,-2.899172568233004,0.0,0.0,-3.0018441546242833,-5.279275291167682,37.17158747854895,0.982911573536305,11.052668525771944,-16.14799711453216,-9.326117256587214,-1.8694270765862109,0.0002407778125929358,-2.8750882413707544,-2.015398096512105,-0.00010294360764478118,21.37389201177558,13.825962942837128,15.54948608753988,6.124989339910305,-4.433376003053921,-14.339415914845025,-2.229138423643433,13.064372139367197,-0.7148517346976503,2.3483556260063256,-20.80368610404683,16.7863278374878,13.935095253117128,0.008298208574857973,-88.37489360346984,41.82564475279067,0.011494978704348168,89.77613677284732,-12.08121542727989,-7.6574208884185095,-0.0004777070865918645,-15.441486603346714,2.7388465400417235,-0.00045183175290285045,-12.125522416743152,1.7412428549613168,3.3733139197342905,-33.39289733507759,0.3976015984417346,3.7748948428655917,-0.8474272966378565,1.1169992605035146,4.321673927717564
-5.194735970112919,0.0,0.0,-3.920784508984327,0.0,0.0,-2.734023251834571,-5.9415607786174425,37.98474006684538,2.346458648255861,11.250145881016907,-17.174369820457763,-9.544412489020534,-1.8141311346129199,-4.669035715969636e-05,-2.7323504175653306,-2.2124782898117643,0.00011049438526306096,21.806940819806456,14.6207870118369,15.163344404670573,6.463653022663852,-3.5342040998267383,-13.79304111452125,-1.2922196139739168,12.927968091505749,-1.9846770935262577,1.824768789297437,-19.76807709437594,15.433875661218057,16.045411773259158,-0.0287309349343478,-87.83862948178137,38.61358060070007,-0.02338411781916366,89.75986979749091,-12.151196095850738,-8.3713288460251,-0.0045818719688154475,-15.259992510680945,3.389916572015769,-0.0010340310419263354,-11.600997487787916,0.9075875428080481,4.053783327824899,-32.85196512726035,-0.6259795003658248,4.106620776834248,-0.7201822317839635,1.6181380997807284,3.9148650103844145
-4.902292264455693,0.0,0.0,-3.827510003048502,0.0,0.0,-3.555249144468425,-5.697118185156204,36.98867768535376,2.6998649737047917,10.26134119755865,-16.362188872073393,-9.617795243413081,-2.13858721168947,-0.00027192077665353937,-2.554667027324773,-2.151260011471933,-8.219122700282664e-05,21.68040567974424,15.749106741018075,15.98026127214081,6.574718826168271,-2.7337993395457953,-14.607878319249684,-1.1686912306832886,12.55280683546821,-1.310445829521531,1.3529064474754002,-18.825046046202342,13.543412215132411,19.314041605369688,0.013867513166398353,-88.80476126771018,35.50553095703301,0.03832985308123608,91.7268208223392,-10.874813646345432,-9.505970507088199,0.0008184753179893747,-13.488229078376511,3.557714532007793,-0.00017071085207967686,-11.369386348621921,0.5119102656380677,5.079912721406275,-32.59349586670153,-1.3664574623492542,4.919783064362562,-0.5800507833033081,2.2920267385665083,3.522955121584739
-3.795434392752319,0.0,0.0,-2.8674721876051983,0.0,0.0,-4.208120074007115,-5.6899742825847275,36.36549810499037,2.7752814578227563,10.544778719746601,-15.683048767087037,-9.740524336683627,-2.5646528305676,-3.891135539908776e-05,-2.1624832018107636,-2.1408581963173328,0.00036599775971017076,21.716049403342524,16.835668075135825,16.30290555203132,6.6308725144447,-2.008309707422381,-14.803645718313465,-1.1121830960344803,11.922939228148786,0.15163584791728502,1.2979103622816104,-18.314041396185647,12.107854798314648,23.409978697262446,0.023094779894532447,-94.94831151538342,32.49123431005706,-0.02003332727951401,94.26706809010751,-10.266662533837966,-9.17274284470903,2.0761254421485236e-05,-12.305964272589776,4.887741254590059,-0.0004852326694218413,-10.464794810728979,0.5209875651252498,6.185732513841712,-31.650739655449165,-1.757980352821019,5.954357549971105,-0.4903761310037802,3.004233948585857,3.23996733819131
-4.093914950087151,0.0,0.0,-3.7270920960979037,0.0,0.0,-4.005137279031764,-6.604009778962409,36.908583193998695,3.153796856445964,9.871767915315171,-16.454694961240193,-10.146139332852789,-3.305511713213861,0.00018047351618794913,-1.8111909421536003,-1.9171424539309505,-0.00023348588051968637,21.945541064524537,18.428376596409613,15.899751488865622,6.6780412476471,-1.0378936315236063,-13.370168658536913,-0.8244838112889734,11.61506063761849,-0.5894138140027156,1.1585203641058326,-18.111430949551444,11.346086237965046,27.84554945658308,-0.014505338017028982,-97.37276014142853,28.96229372380729,-0.013873417684128012,90.4290589269308,-10.28049913100149,-7.646697551962418,0.0002171022869814247,-12.79966049562285,6.110671580063041,-0.00022673815537293585,-9.028356275193994,0.26039480359866374,7.2611827857040145,-30.174056947552433,-2.3892928415799557,6.863730166220024,-0.5403943410643705,4.00448303594305,3.167134623007308
-4.867071166797689,0.0,0.0,-5.042254069834707,0.0,0.0,-3.687011012902662,-7.733382397445443,37.0965161310232,3.4620205946117033,10.060288106904734,-16.221860062227876,-10.920235504911425,-3.7445654622497173,4.284717783321935e-05,-1.2540954781998515,-1.9592122820700901,0.00018276511813387653,22.09959945312244,19.762786800507122,16.37492368552303,6.587668083363685,-0.17351139531899018,-13.02093734873098,-0.20024129167999705,11.833242783333423,-2.465413486379445,0.6414767519801607,-17.368085157957722,9.294512605076076,32.0777787040851,-0.010193927071020412,-95.8959141402654,25.617842086395083,0.015828225912965076,90.69558021180134,-9.655376001327083,-6.590640260553657,-0.002247512467975691,-13.763904347396288,6.457209820527471,-2.7733055238940118e-05,-6.677198848825535,0.6223573561514066,8.69277049208047,-27.748432705498455,-2.567203728844034,8.330946475970025,-0.5888228372318831,4.445709427991121,3.694645408343239
-4.801547041450971,0.0,0.0,-4.760593569791706,0.0,0.0,-4.155535845307533,-7.568027217920043,36.11564660115384,2.9739489523247196,9.664308130108337,-15.346300383924058,-11.387102970248959,-3.992487599068147,-9.385370844953246e-05,-0.3334522599965871,-1.6664539425635072,0.00017637009442806389,22.228667492996166,20.171264435445384,16.39168478898467,6.268756603162409,-0.0003778372538513477,-13.37260519293654,0.09217080873327059,11.601327743093005,-3.1595165061327446,-0.10337813217035303,-17.060559832028133,6.056588592658133,36.28131324448002,0.007400014771488639,-95.29490503756347,22.95704566388521,0.011981039520721921,93.63542285659261,-8.724711232394165,-5.928975580141422,-0.006605334062024956,-13.867192049860527,7.591792310756416,0.0005233264051673812,-5.268765677150488,0.6528650382119502,11.195090713534638,-26.189062206279484,-3.435366203933949,10.68110984715737,-0.5201572084416248,4.7728666207783,3.7702398247655626
-4.774606238411354,0.0,0.0,-3.809962300118212,0.0,0.0,-5.095474811185771,-7.405717549312789,32.843121069585315,2.2987340314878346,9.596881756226576,-14.48326571197558,-11.591603926950231,-3.924099386898222,-3.0373132685826792e-05,0.3656738076200171,-1.5662270757452799,-1.462453199357727e-05,22.300378583036167,20.428019556692895,16.49505401235702,6.097409925847449,0.0974962774163159,-13.926448996062472,0.5011006025207058,11.378496600316526,-3.848546807881454,-0.6744381628082474,-17.55775436581161,4.916042263081489,39.724555680171754,-0.011228947830307668,-94.6489791820348,19.681780350590735,-0.03310530650013253,91.4656381313721,-8.171349209266733,-3.1761166568726,0.002239219613016737,-13.03419057076803,8.040105875857982,-0.00035063858966977374,-3.8128458309946285,0.19497068742314672,13.65777591500933,-24.562078719219702,-4.739299198403309,12.82527288652322,-0.4724947830379198,5.277188511927691,3.5496511874794767
-5.334222576426269,0.0,0.0,-4.223385579253996,0.0,0.0,-5.14974406087601,-7.924182315793438,28.7339012298013,2.1891616683836523,9.050289786043493,-14.981237725424494,-11.816684966761002,-3.8577045066155025,0.0001185489996461502,0.8541447025423489,-1.5050007859013088,-4.110553645417372e-05,21.675104397375883,20.18898461425539,15.855069016042101,5.690532234936544,-0.18639612947319073,-13.378574530167459,0.1621438004426477,10.907668066106442,-3.6157458825933335,-1.8224264045858836,-18.09766228810347,3.8022691426178734,44.38207533191094,0.025504112602636034,-95.91647672196216,17.033093688088044,0.008087572110301332,88.47037017142314,-7.222120427257606,-3.1454560529546303,-0.001442091716658877,-11.47381323316621,7.933811727778435,0.00021261610565341923,-2.471715341160056,-0.018133638332054818,15.627883299707245,-23.05737728543891,-5.6340639458803485,14.600639089674932,-0.4465199826043518,5.228828703459121,3.550284903154156
-5.451082495267283,0.0,0.0,-4.782843475946683,0.0,0.0,-4.722172785729215,-7.688012032212267,23.372224521752152,2.253339022341607,9.661609369727703,-15.201510057097119,-12.443541395637515,-3.9491997165753956,-2.327755019933107e-06,0.9693917034989297,-1.7024455690750104,-2.0077734360432793e-05,21.315680395056226,20.258349702279975,15.679638153409073,5.776124139663059,-0.25510159213805444,-12.62075378756388,-0.01970389486684148,10.84849403206686,-4.459603318031209,-3.1726629535188677,-18.349518168549633,3.035721743749179,48.94119069551611,-0.007196445735679976,-97.3283822900558,15.85871942280648,0.0008064746580065084,89.058786879139,-7.361908050038953,-2.6865966885435952,0.008310617732498308,-11.567474298906907,7.773607796607616,-0.0002884352967157755,-1.041236340021721,0.2323631508786966,17.829545556135955,-21.400497604436033,-6.169539008806332,16.762295400131507,-0.4377244764416828,5.270271395497272,3.6608848668576623
-5.509280340565916,0.0,0.0,-4.490414722055419,0.0,0.0,-3.665757111710191,-7.529707880338198,19.765162935851148,2.1062552134432195,10.007830216901832,-14.944887904944608,-12.791951548197012,-4.147418765361657,-0.00032734307441333467,0.9343670127099837,-1.9661171835188738,-2.838964588408139e-05,21.042360275869182,20.59102072794124,14.765928156590759,6.117078171004048,0.08753570825825956,-12.090063508431925,-0.19556651918925483,11.153074335501596,-5.547588195900754,-4.424196194667984,-18.50639904200953,1.951112385143929,52.53285817604814,-0.012122135038456432,-95.62478543050503,15.034801993620135,0.003581088692928283,91.8843760696498,-6.081651782903823,-0.5939989956110319,0.0023103722021818496,-11.111144364114853,9.051981093309431,0.006985366874206447,0.22938676641561426,0.22317599307981398,20.43843448896463,-19.835452272232512,-7.0796406939796785,19.223764224259465,-0.16990477657588746,5.755359274094089,3.6321532670671446
-5.8824436924871755,0.0,0.0,-5.280427171393163,0.0,0.0,-2.937726302685054,-7.483586504028409,18.376395579719155,2.308657642242966,10.030849070400867,-14.414269087393397,-12.46123685541645,-4.121481750568783,0.00011106934595243745,0.6636058013220708,-1.9658962908487267,-4.651304705123729e-05,20.735569330667282,20.224612372164934,13.468743990297629,6.957088354889734,-0.15202188379194928,-11.787965496980078,-0.3073770003135939,11.425082661653216,-6.124902941281878,-5.604820657207304,-18.511711842549534,-0.1127124584612473,56.043416702272424,0.016388133434233138,-96.20921854131751,14.066886348634231,0.0006447549917665415,96.02187039442325,-5.297450071918449,-2.086383745561854,-0.0030662825706322737,-9.910484407233785,10.469491876502843,-0.0006434274933623066,1.7246824389058504,0.7512183688445898,23.11247265914067,-17.97293719361678,-7.492595189527322,21.939796721461384,0.47958106168903136,5.615064807302092,4.232103612952368
-3.9979742143804318,0.0,0.0,-3.797290530100151,0.0,0.0,-3.7148608135593393,-7.3339895446919945,16.42438110192766,1.7740804510361963,9.246951158316875,-12.99314651459577,-11.65035634530066,-3.2030029784286387,0.0007262663131648878,0.37983912829773675,-1.9405378931392387,5.2125964216688846e-05,20.31018859862799,19.69921191406407,13.386725531945668,7.446248170110357,-0.2875054204566933,-12.749815029766918,0.2873227057439421,10.858492480531321,-6.78965399312932,-6.6910943662973414,-18.85996667133385,-0.6213096223419006,58.09827594274899,0.002073435124295287,-97.84105803612354,13.597627947126275,-0.003103647093083998,96.91467599507338,-5.555037873048928,-2.7773553986994948,0.0017007440834359128,-9.954074455482395,10.934338188746331,-0.0007124655142026634,3.4759155849960934,1.0291488245213352,24.37899137801968,-16.030977781284545,-7.65563587791784,23.237342628663495,0.720043496715914,5.91714281438889,4.488151100294037
-3.5860170833306357,0.0,0.0,-4.130799470628038,0.0,0.0,-3.8147340824641156,-8.62715782284436,17.375124456926383,2.0572604263816574,9.490163564657845,-13.95437152586079,-10.417824188092624,-2.6617975262789697,-0.0001919373922085669,0.16612003166217992,-2.0530984201494795,2.5649629124063945e-05,19.6056815083473,19.3698994030916,11.74742774572257,7.6194499090283205,-0.2826041878257946,-11.937906353789845,0.54834784863801,10.386572777458309,-7.627889015466924,-7.908035565048182,-19.28769091028003,-0.4100142967314149,60.01533141869483,-0.02165331149730743,-94.86862642030387,13.743285803566751,-0.00022067076090757654,97.68379962535907,-6.683265213412723,-3.8386420629218283,0.003832975662853516,-9.87308504985311,11.820621232274014,0.0030020033161101867,4.540539968521546,0.9237629405697624,26.391118023669986,-14.668890847952172,-8.421993484388574,25.118980371528895,0.9283118944460086,6.324840702676398,4.383087085060865
-4.326791882658006,0.0,0.0,-4.88220524223246,0.0,0.0,-3.8750086548833282,-9.18687595185793,18.523558619203225,2.110343932468315,9.690535609608151,-14.234289893449377,-8.883501370122787,-2.4966767094646056,-0.00041383242866053257,0.18355124098497552,-1.928975985575294,7.527952418909503e-05,18.716328094042325,19.300642248139372,10.79746151573472,7.676728319053844,-0.28686057984289,-11.501602803573899,0.6338579373921917,10.432460651360087,-8.5345709217229,-9.16333755028003,-19.086400397679235,-3.412679751343469,61.73848242716473,0.009084895607459405,-93.39402843162675,13.89479382700665,-4.660437718064929e-05,99.37932219119581,-5.747326097984142,-4.4691544646811705,-0.0015165897735992025,-8.647538789836082,11.991791734947885,0.0013383412178505376,5.04176572778111,1.1028259844697714,28.274738842009516,-13.854788824652992,-8.867594747577094,26.978702624607013,1.2336294760465791,6.629221340704693,4.418610514909382
-5.110808177866385,0.0,0.0,-6.48546834780883,0.0,0.0,-4.1186015821267095,-8.82476291365647,19.126652833144536,2.4190573458245304,9.752464590767476,-14.23490393058899,-7.4782149289335464,-2.477289580256332,-0.0005794966159956531,0.5330656035181207,-2.10120760674692,-0.0002522874862690203,18.14304415316501,19.32914096646748,10.419059305500474,7.75592965753691,-0.05810376180828005,-11.418898415877823,1.0956288824804126,10.341789754101537,-8.536569004837675,-9.80321242709058,-19.045555868001042,-3.6023838640035026,62.52727891068874,-0.00039625202274628737,-96.81238235928477,13.808423428183428,-0.003273947412585345,99.69883365608443,-4.660865378195291,-5.340590816944093,0.0007808979911499987,-8.437981882503696,11.282853994861687,0.0014859179672766906,5.6083726262469344,0.9859725573395064,29.65085796389542,-13.059472117789511,-9.42123651314008,28.259978380404434,1.6737773043963085,7.012676302714956,4.240301298911203
-6.084517864072174,0.0,0.0,-7.011585222588335,0.0,0.0,-3.891420133226048,-9.15983680856508,19.516600030730075,2.456611564326421,10.212506479053662,-14.346811680543034,-6.3611044407302995,-2.0685665879887125,0.0008742025271698371,0.823279303269521,-2.337893667217767,0.00013918267828868546,17.582088237108486,19.024082698100248,10.460979384800135,7.73521805435123,0.028255927537701127,-11.142812419221102,1.4218089597118633,10.252247633215884,-8.485402433800187,-10.603761592634736,-18.905310639332928,-3.69252266980795,63.34980201024735,0.002863280494617824,-99.20781590611695,14.43865187025299,0.0010408828323221013,99.47509919030615,-4.175910071670181,-6.0734652269554585,-0.005591494327700502,-8.276810880622087,11.100909097900571,-0.001045546450230998,6.433120487934536,1.0478346717445468,30.56241304061798,-12.070088498317972,-9.653092830635222,29.155969008627004,1.9697890369473041,7.179085778936489,4.053431457031241
-5.968068812674616,0.0,0.0,-4.927910870386965,0.0,0.0,-3.8184901709231145,-9.663192739394447,19.578189755942326,1.7379517082617453,10.134585883768942,-13.90081035379713,-4.9382851629534485,-1.3213498029549595,0.00041375558981158295,1.0006432771139389,-2.0301024987067784,6.776521969741013e-05,16.64674853279769,18.465268407192564,11.217146045671235,7.610926201889177,-0.2778947020270311,-10.971246127559715,0.9967913603186468,9.948352841111173,-8.288456491382101,-11.313188135486062,-18.979476589591805,-3.304920931406297,64.60449606556597,-0.005684650544639588,-99.88605713994211,14.914012819196365,-0.0015007257615507262,96.23592692105677,-4.129807520647102,-7.654640072226048,0.0034609933260185085,-8.850376051581183,9.580566331275028,0.009144975466526992,6.983848221275822,1.3707610808474604,31.696962050900336,-11.294450256922678,-9.70452805738273,30.351228820357903,2.246237590033267,7.327524521330144,3.8267498770250494
-6.243088536353644,0.0,0.0,-4.1761914973992065,0.0,0.0,-3.937137715799071,-8.993109991525017,20.264676446709323,1.4708524885947576,10.311031568667136,-13.74830617752872,-3.664323589875715,-1.072500103460789,-0.000934230587393485,0.8751609951960553,-2.070896789258858,6.793201737186581e-05,15.91679923738055,18.18857781975251,10.988020162036003,7.762745135415773,-0.2996472474079601,-10.805940493861515,0.47070862666971813,9.818048407850624,-8.463435112603815,-11.742078217600403,-18.836109793018384,-4.371406472629733,65.62949319540456,0.011367512464454057,-102.3667684550017,15.714420994812423,-0.008631586340891022,95.10554874388073,-3.3003940415771496,-8.255701171836455,-0.0014505409824245217,-8.187988310572836,8.860281464011836,0.005709730872670476,7.422689347211977,1.8279201154729021,32.3727238059293,-10.704156484438636,-9.481269902033109,31.146852988853837,2.5179605961028786,7.520123037555,3.699598964221201
-6.357167997086373,0.0,0.0,-4.066713323283937,0.0,0.0,-4.1535927614740356,-8.609108351994665,20.78061458516125,1.4627872019774442,10.59417501265393,-13.867714937316078,-2.6958872682946033,-0.5015618930041797,0.0007722381017629995,0.7266839758881348,-2.1775946607504157,-1.7366560923180753e-05,15.250797241934233,17.409558516650844,11.017180089880505,7.726638961806134,-0.6113945429919314,-10.411567119190286,0.4038064475754544,9.58152854648389,-8.166016650984126,-12.015435334040308,-18.41260735974467,-5.792421688837855,66.20691379438989,-0.0011005841991141444,-103.79325028564224,17.063174845386733,0.007618706725382198,95.74803379449772,-1.861673846657306,-8.587609277582212,0.0019974940925354674,-8.802402965871485,8.762425848816425,-0.0010891614473493242,8.124501812939245,2.1474323701945286,33.058415134955034,-9.853833753552813,-9.389844550476772,31.907715355262706,2.2985305306967487,7.380639179052144,3.3905658191819277
-6.815833451186481,0.0,0.0,-3.7292891263859635,0.0,0.0,-4.250788724347766,-9.288516609922956,21.455612752640633,1.360566189935951,10.745913848018601,-13.101071620070995,-1.8760862562436342,0.21735268057613039,6.623077899826765e-05,0.32954610164574766,-2.314559861751039,0.00014441704135711387,14.773371528606063,16.364373920878258,11.069453623754002,7.803052821123785,-1.1747971680193485,-10.76552091590903,0.6462314041429086,9.418493151794086,-7.282316370318638,-12.15546260446404,-17.970668771869537,-6.383531277008413,66.28073612874789,-0.003213302873224657,-104.58853800982763,18.645023827675494,-0.007720125065800475,95.8364600996258,-0.36623161701369245,-9.591038611234271,-0.003716140158204827,-8.996632139784294,8.495637578990603,0.002734441694035261,9.096660688153461,2.774459565490566,34.392347567725736,-8.585309318934288,-9.201020968521401,33.38782376625904,2.0017792481749863,6.879145747450242,2.7127007459326364
-6.775187683360878,0.0,0.0,-3.7405067628387463,0.0,0.0,-4.240989142420114,-9.42875790891551,21.295534942353296,1.4357502862432037,11.735871998598943,-13.299689791267017,-1.5217114338362923,0.5757034357004249,-0.00023227795117712675,0.03545884383451209,-2.3078209233033498,-4.896044213073277e-05,14.728979985290074,15.717904149715633,11.499815093992147,8.07874533607035,-1.6894581736942453,-10.656869394150895,0.6193089817931234,9.293078547370563,-6.622707956083525,-12.223998714822276,-17.305849424023524,-7.5311630824175735,67.06837651451107,0.005343308788024765,-109.76568096075324,20.137139335370538,-0.00017339611816626085,96.46517785728297,3.303850758744545,-11.601717820823405,-0.0074612999062639825,-8.003743931333629,8.089872340072665,0.0020141348624805955,10.112416290522258,3.2405177197411072,34.932914584319214,-7.4366341520452774,-8.92018637564839,34.05166008871354,2.134920029973448,6.455870548227662,2.5843754315067766
-5.834322854075013,0.0,0.0,-4.02153970180998,0.0,0.0,-4.804919162431128,-8.25470145333265,21.062414637269228,1.5097783452485234,11.380459488629985,-13.37380264320655,-1.3693723295694873,0.7548762314002543,4.151868008771452e-05,-0.3023547793853972,-2.1270218247080996,-6.0089626023626106e-05,14.751460020791844,15.097304011059082,11.696729884127341,8.349640966986811,-2.212731717094994,-10.829565952891295,0.46680808800137874,9.185365715400113,-5.593948211266467,-12.33925324090179,-16.562656395030523,-7.790926342318566,68.55702935483497,0.006908087241219732,-115.74476350882505,21.845458109001243,0.015146569760369606,91.86618202209121,8.989627444584116,-12.103141341674974,0.015971698166465105,-8.711844063887204,7.507592321182211,-0.0009861550761714323,10.924075075524105,3.833656968104939,35.534049959548526,-6.472700485011001,-8.534559861622878,34.810848590143856,2.221547797483485,6.074408223296166,2.619203018123804
-6.237155149181769,0.0,0.0,-3.411616966101062,0.0,0.0,-4.915538871814217,-7.276821308399408,21.138688651341237,0.9847681485981344,10.831898949149739,-12.67445906649888,-1.3726658193649304,0.8355833373075106,1.7072823396599494e-05,-0.5865750384983531,-1.9163820425970384,-2.5553011059853443e-05,14.538786090865791,14.66318758550547,11.827968850368247,8.495515535890311,-2.7378734479095455,-10.962374609054478,0.16097558559492228,9.370806297424298,-4.472227396651426,-12.555187364787578,-15.917511547369083,-7.806969394346055,70.7292856045504,-0.019637315004735426,-117.17438281967331,23.96883815055766,-0.0036453720433509006,88.60618100101134,13.873761078266837,-14.60677605466466,-0.005107718085563739,-9.521343862312033,8.397147814163965,0.00029812300866506966,11.326249153547026,4.5249139966156875,36.52914982232154,-5.828727510471245,-8.169238101364858,35.976172419346966,2.0442660700159108,5.660920626385128,2.4545650868653754
-8.245927669496917,0.0,0.0,-4.914857146920612,0.0,0.0,-3.9958691675126112,-7.164369012521091,21.6587843931214,1.071442548758929,11.250880044110573,-13.195125438139529,-1.5327761774652393,0.5121486461649812,-1.5955174867448838e-05,-0.7751221060726332,-1.9564442684186685,8.40912830388619e-05,14.288423690991385,14.397998898611178,11.883135750383264,8.614199147477214,-3.2266849398257405,-10.080868535539063,-0.08094241252776699,9.037367515095223,-3.347601717611363,-13.139672152227114,-15.240691086869656,-8.194971423798384,73.10866436295625,0.019917941689664827,-119.60965421578697,26.623891440626092,-0.00042533327202690227,90.42565383795626,17.78736604322689,-18.60632127282318,-0.0053619879340827455,-9.014556658714318,8.4653153125037,0.0005761070020741038,12.127958130506867,5.105438395254891,37.04022805215012,-4.892121462876509,-7.763971122907069,36.639947896360944,1.8625641840067146,5.096234712306375,2.6389659482773182
-8.028165904529965,0.0,0.0,-6.391603483446314,0.0,0.0,-3.908035507660394,-6.66458446249873,21.764176247092372,1.2137753113804433,11.565025756761793,-13.402404443586507,-1.6979501718645431,0.14195546481477406,9.20038417704444e-05,-0.9106668188213213,-2.1055271770844355,2.0643694554764297e-05,14.794254978820227,14.239031512298828,12.115676415856573,9.214315201692969,-3.558635768615802,-9.884400093953328,-0.04145252546705653,8.613732143092973,-1.595687147252692,-13.828048252215648,-14.691629183841414,-8.621392672859299,75.71376699704416,-0.00047014649660810106,-122.6814147570287,30.093388117323922,-0.013487950977560156,93.62454050195868,22.0148365153411,-23.057475866395073,-0.011413647136782355,-8.249328051301621,8.859482988452863,0.00023448480324017088,13.085955062816646,5.609805982175651,37.274522063551764,-3.8631055967251533,-7.349750228264318,37.01361130359628,2.0019237795278526,4.720925373993246,2.630003969165898
-7.749551574401086,0.0,0.0,-6.689310838793375,0.0,0.0,-3.3972910219820642,-6.852540024161624,23.25735129389502,0.7653671771053087,11.697262411465294,-12.85203545464688,-1.8911812491188047,-0.11357800250285886,0.00010383243869842224,-0.8523546711581287,-2.2170765503607988,2.9672835889550512e-05,14.932924281565066,14.060413507696644,11.38689121305376,9.647172984668416,-3.8534147030413077,-9.714873399446509,-0.572375475996111,8.65734179834593,-0.11492500563590158,-14.4216160838982,-14.139277931011476,-8.65055141884386,78.30859412899837,-0.011699811931074887,-120.74683564823367,33.60943604146715,0.0029655070778040462,96.56981460233527,20.38402552061372,-23.571364170256324,-0.013354559874204822,-8.36482894871255,9.293098969813615,-0.00011578502654860627,13.77017420566642,6.331013741440637,37.752921833312726,-3.046630876962261,-6.7978043714926635,37.68347026211162,2.1217513516486903,4.161111849720042,2.3873845300457557
-6.888683266699846,0.0,0.0,-5.890758680973432,0.0,0.0,-3.407498027439929,-6.871882818353353,24.267540115998813,0.2095291011197816,12.26790903802071,-12.161725585353391,-1.7320017178996643,-0.05298695353259225,-3.151321377502699e-05,-0.7001164053980596,-2.0320621974910176,2.3324549490467226e-05,14.554868260357239,13.474050186066423,11.587071648502967,9.783321897107228,-4.5447634778379555,-9.431459555645969,-1.545710982538401,8.3865154269881,1.5859332071821788,-15.262329119200011,-13.855789491116832,-8.139561548272965,80.67867865580801,-0.0008552653635663696,-116.93876203688511,37.51002903530102,0.011054511052556297,95.25073946284776,15.87108498522379,-21.95274027800372,0.006708666774342767,-8.974695622667602,10.017795204957945,-0.0015731620531736533,14.580498735458464,7.052876222218142,38.75411972961,-1.9855330305968801,-6.391955855789965,38.85099875178725,2.006989664904729,3.3376356557206392,2.3587857361844704
-5.648646682229396,0.0,0.0,-5.504360115315914,0.0,0.0,-3.6595445132396915,-6.543633770839833,24.150476802653127,-0.3912103220360263,12.500557328681605,-11.492302832528626,-1.4485095949875066,0.04048791689550275,-2.078754370456686e-05,-0.5658880337247211,-1.8524606469099894,4.388350055711947e-05,14.434171346285302,13.144919962973654,12.441352110424077,10.12041149818356,-4.950108726970138,-9.568641195427274,-1.9669756920170605,8.396938685641825,2.6578825575371066,-15.859160779273047,-13.963809417857721,-7.314311327923483,82.83906498769231,0.00042087777920153283,-114.89323805306807,41.033202061852464,-0.001857278566157565,94.0485705438899,10.65124249721504,-21.3872767558472,0.004794561482256548,-10.237501812760268,9.515350781607353,0.003817726856613374,15.723725383436333,8.139891710481214,38.94837530103861,-0.7656124166884615,-5.404629237222534,39.3474426066774,1.9357830327833812,2.7227825396135477,2.4818614649542066
