PaulMeinheit/Bachelor_Muay_Thai/processed_Data/N3/teep/scaled/JointAngles/scaled0.csv
L_MTP_ANGLE,L_MTP_ANGLE,L_MTP_ANGLE,R_MTP_ANGLE,R_MTP_ANGLE,R_MTP_ANGLE,L_ANKLE_ANGLE,L_ANKLE_ANGLE,L_ANKLE_ANGLE,R_ANKLE_ANGLE,R_ANKLE_ANGLE,R_ANKLE_ANGLE,L_KNEE_ANGLE,L_KNEE_ANGLE,L_KNEE_ANGLE,R_KNEE_ANGLE,R_KNEE_ANGLE,R_KNEE_ANGLE,L_HIP_ANGLE,L_HIP_ANGLE,L_HIP_ANGLE,R_HIP_ANGLE,R_HIP_ANGLE,R_HIP_ANGLE,L_SHOULDER_ANGLE,L_SHOULDER_ANGLE,L_SHOULDER_ANGLE,R_SHOULDER_ANGLE,R_SHOULDER_ANGLE,R_SHOULDER_ANGLE,L_ELBOW_ANGLE,L_ELBOW_ANGLE,L_ELBOW_ANGLE,R_ELBOW_ANGLE,R_ELBOW_ANGLE,R_ELBOW_ANGLE,L_WRIST_ANGLE,L_WRIST_ANGLE,L_WRIST_ANGLE,R_WRIST_ANGLE,R_WRIST_ANGLE,R_WRIST_ANGLE,NECK_ANGLE,NECK_ANGLE,NECK_ANGLE,NECK_ANGLE_SHADOW,NECK_ANGLE_SHADOW,NECK_ANGLE_SHADOW,Trunk_Joint_Angle,Trunk_Joint_Angle,Trunk_Joint_Angle
X,Y,Z,X,Y,Z,X,Y,Z,X,Y,Z,X,Y,Z,X,Y,Z,X,Y,Z,X,Y,Z,X,Y,Z,X,Y,Z,X,Y,Z,X,Y,Z,X,Y,Z,X,Y,Z,X,Y,Z,X,Y,Z,X,Y,Z
-4.825210000000001,0.0,0.0,-4.5051700000000015,0.0,0.0,-9.47673,-3.1635100000000005,14.38513,18.336380000000002,4.813600000000002,-8.423960000000001,-12.700080000000002,-1.6359000000000001,0.00016000000000000007,-9.91088,0.26386000000000004,4.000000000000001e-05,32.58106,7.013090000000002,7.484980000000002,0.34409,1.4189500000000004,-11.748380000000001,1.0185999999999997,15.12346,-20.735940000000003,0.06718000000000002,-16.22507,21.795210000000004,26.43131,-0.0015400000000000001,-94.68553000000001,29.455220000000004,-0.00054,92.37476000000001,-1.17663,-7.403970000000001,-0.0012600000000000003,-0.87049,6.35061,-0.0025500000000000006,4.15086,2.81007,-2.7576400000000003,-18.36835,3.65119,-1.47199,2.664880000000001,1.3773500000000005,5.99424
-3.943659051426607,0.0,0.0,-3.565661974911525,0.0,0.0,-9.507490798342312,-3.640970846998054,14.232875154000565,17.96039456538232,4.773615292045035,-8.053495741672956,-12.845658513877222,-1.6581751305523789,-6.327242888346383e-05,-9.760139843974626,0.279082067706777,3.7776876776348477e-05,32.45600816554159,7.058043707710809,7.581920539426793,0.10791528845711894,1.3821107575206524,-12.164685149587488,0.7305030143657235,15.175806606260302,-20.613694708654208,-0.08867358517022006,-16.056600091188542,21.433811571362174,26.264936207585357,0.0005588026079795506,-94.7803898283694,29.38212493395605,-0.0002609902954825681,92.62584551361128,-1.0914446752501337,-7.3204984391954016,-0.0005543840183780565,-1.8364797342474306,6.6944661297322945,0.0009522942576314466,4.406412071841896,2.809864803248829,-1.0794688940059112,-18.120618476777377,3.0088981258398393,0.07884871176083491,2.400589351261868,1.3347572072496394,6.035755572223457
-3.4407575738029856,0.0,0.0,-2.9770365534795533,0.0,0.0,-9.59728495794832,-4.2860710977703045,13.898629056424078,17.537793484500938,5.18702399142181,-8.11459425681291,-12.972885960299863,-1.5876593838320538,-3.300845139595672e-05,-9.557495679854684,0.25358127100220496,-2.688754931373026e-05,32.34942936095499,7.13971682882841,7.879003677283463,-0.1116455628160246,1.41465852703778,-12.230356776313881,0.7061432091735982,15.36415705174046,-20.91363203509648,-0.26335043852538326,-15.873292023638957,20.793970889160306,26.147655866766012,0.001572753333465596,-93.7050961072971,29.172895155458615,0.00017082954441485822,92.91665334231803,-1.0886114002574614,-7.427517565769119,-0.0013264941570503242,-2.8018127466279865,6.6771669832980205,0.00016911588887859563,4.174756445462981,2.825482260062022,0.309934690004267,-18.34582677561632,2.4917068724657603,1.3681832584217184,2.0746238334788165,1.3486367730565796,6.232208146898052
-2.9334025216838113,0.0,0.0,-3.1791565420588634,0.0,0.0,-9.85056170278962,-4.309110847148539,13.53661046511902,17.570447478581386,5.0746921233591,-8.277589412797989,-12.88235450497511,-1.5262080985004656,1.848045640053612e-05,-9.46166199524647,0.2184723245606802,1.3739474221496424e-05,32.36744762826155,7.185943912836949,8.138328147386924,-0.13965329778088661,1.518628280167703,-12.138244513318858,0.8957502309258185,15.263653917762001,-20.38683096045631,-0.4520626989931333,-15.778148324893667,20.325136300644107,25.741905760302927,-0.007282304669628169,-94.78194960092476,28.959317449500887,-9.83281512983075e-05,93.33593792382656,-0.8555586680997446,-7.227569918696634,0.0004054211558143539,-3.1136945525207933,6.563523253690696,-0.0003229626339897933,3.914459481554611,2.79909663338878,1.3102671938192447,-18.593533588912408,2.0847417562667965,2.2817707078057894,1.9010079635883563,1.3926135124145267,6.31084857186
-2.806777355386258,0.0,0.0,-3.0210472982545697,0.0,0.0,-9.829185229485915,-3.973867614832788,13.44484113934174,17.524102564726988,4.613461291299752,-8.200160090017775,-12.915337717699934,-1.461403820173671,-2.5435231964827774e-05,-9.509004565572141,0.30592673963768957,-6.776424465164411e-05,32.580476091018426,7.078178023524608,8.150742960081159,-6.910418026114231e-05,1.509009864962133,-12.17389613411606,1.105833789867687,15.091905441337712,-19.94323315746635,-0.6142935600961232,-15.722427750220168,19.84506160517454,24.737750838034724,-0.002526695213227674,-96.49276572748954,28.698469757515667,0.0018117219083247198,93.90934840470416,-0.7244321742724602,-5.557154588671465,0.0026313759310247612,-3.086970152051385,6.022297880353131,7.680129954360137e-05,4.049861580305753,2.52773625956363,1.9403203070124095,-18.444179218227404,1.5931854656767148,2.759632273290645,1.8758337488119845,1.4198898435243568,6.172541785366665
-2.906023251406204,0.0,0.0,-2.465835109548928,0.0,0.0,-9.675580187819142,-4.046792655769897,13.677074847740004,17.37103712186715,4.385657859840342,-8.137026102782045,-13.1128404814601,-1.4663149789613574,3.0065165361294184e-05,-9.614812320480521,0.4005265028605271,-3.0276139642052105e-05,32.82826203932415,6.988931738185639,7.919962727212615,0.19119128155193987,1.395567521657322,-12.179408970795071,1.5810176937867622,15.08104902941378,-20.460530209195547,-0.5576770464604862,-15.748785279329535,19.53508465777719,23.57242323510473,0.008223709258953478,-95.44356847953583,28.26199560593073,-0.0010926731685890118,94.01846195513448,-1.0013891083025237,-4.241711321652356,0.00045158232149330037,-3.116921108988758,5.569068388346797,0.0008104748886356753,4.581602593355941,2.402517634952267,2.7180636869226946,-17.895211748539605,1.1803083416636935,3.429890558886928,1.8094028638072575,1.3878813462930344,6.176420992567571
-2.45666189470038,0.0,0.0,-1.776915741831546,0.0,0.0,-9.853140619247096,-3.846054462631299,13.305179410397223,17.221968418677555,4.595764294471843,-8.040257415092078,-13.202487536051454,-1.4338242482327086,-2.6963110024469637e-05,-9.61328093973808,0.29086388922478806,-2.8361455367775647e-05,32.99440546761017,7.066542555291102,8.180071445135827,0.3359405142324499,1.4376993514119594,-12.405233907212573,2.2046599651327377,15.125339627912888,-21.109759214089916,-0.1912344629178102,-15.828464178905678,19.722942320199916,22.80673497718598,0.0005126083094588598,-93.31882180211494,27.49816411223139,-0.0029821452975584903,92.52260204069148,-1.8447246842738654,-4.190426039407633,0.000879121153747704,-2.8594947723124773,5.1500136587928855,-0.0006567577905971802,4.8229279079495315,2.4684368467584954,3.3527202335897353,-17.638544438544468,0.998889772709649,4.0411516666701,1.671564398555627,1.3550321798418679,6.390468763669807
-2.7586925493855383,0.0,0.0,-2.193059436725723,0.0,0.0,-9.796849980217232,-3.8947708815768944,13.232430879924658,17.40823168481442,4.93978454024654,-8.00236383073289,-13.258010958764142,-1.4381686500194482,5.529555169609032e-05,-9.603778888380184,0.20940729238793032,-3.134002622751228e-05,33.102156593061686,7.136963659061466,8.270933205387028,0.3631963502351937,1.5411432822785813,-12.711473396847023,2.6005078767335728,15.268051897370288,-21.573029441910258,0.4150901835026754,-15.830887560882557,20.187038493974207,22.537476896706305,-0.0009559905077726933,-92.21080685057,26.48712102958904,-0.0012166867028625644,91.24998992384019,-2.571690486114128,-4.328732971061604,-6.485062886562113e-05,-2.2089390346390236,4.717500459764482,-0.0006867946687709677,4.718063186661565,2.195809803134937,3.633811588027851,-17.734188149957518,0.6396390606465073,4.196581729006485,1.4364089805412417,1.3411454347371634,6.45532599278997
-4.20876617786033,0.0,0.0,-3.344334800714292,0.0,0.0,-9.308549440927441,-4.465162743990506,13.83583200840183,17.5888632109358,4.934891944692708,-8.140630635714032,-13.39548241330153,-1.6167001118524855,0.00016502567320951487,-9.611948977660363,0.3958943595384439,2.4422416745628835e-05,33.45244916875073,7.231404575193457,7.566015167451798,0.5736155424841409,1.6181440831268186,-12.690136704340457,2.887861132848786,15.312469240397945,-21.531007851828377,1.041766219110453,-15.860707978518006,20.55302473695475,22.327956148759117,0.0014014281189181992,-91.59154971405772,25.561398323444287,0.0019265584446784261,90.57517863046205,-2.8329856854852764,-4.285268672798998,-0.0006620540670443857,-2.187763463592857,4.506696104651056,-0.0008829205932470263,5.00520823072656,1.803378004971378,3.866747953779069,-17.439391998430217,0.18805414656636277,4.2618873847452186,1.3441813317327866,1.4354913315231193,6.3872826054948915
-4.344418531120604,0.0,0.0,-3.2548346071832066,0.0,0.0,-9.308865055885391,-4.565647302445146,13.770138479777588,17.491710144590883,4.863807632387017,-8.3987346190938,-13.543901303493458,-1.7188851321645089,3.186893703688134e-05,-9.576988070689646,0.5316766360501883,8.60226866222223e-05,33.858043704441286,7.3254787207750125,7.422349625292364,0.8703126046680149,1.6855351742100593,-12.519606765397539,3.093408273552864,15.350613233945445,-21.17373877766816,1.294828439199845,-15.924094747228466,19.891268185248443,22.27549197553449,0.0017310275921338188,-91.3369368158556,24.80592829727523,0.0023152090648115666,90.57225006593427,-2.8226146376960557,-3.9065780643367303,-0.0007067887663972929,-1.8450480502291726,4.5696370727970566,0.0006475699709791407,5.44317191961163,1.6158096688471912,3.9295765557222144,-16.999521475351887,-0.00927889621865413,4.2483238197876085,1.4128047669017858,1.5293998018887238,6.510537965871613
-3.240617908706003,0.0,0.0,-2.5118503077684897,0.0,0.0,-9.601579513167279,-4.241018420757068,13.202738711683802,17.46384072862023,5.247625266907957,-8.208060034729282,-13.778040578820242,-1.6601646974573276,-0.00010009977723986274,-9.580166353967083,0.33860586341582793,0.00013010281868256325,33.938622204973306,7.307049685934359,7.949993417837218,0.8555639187135651,1.7167790783877837,-12.94698030824302,3.5865024047334115,15.398709767995483,-21.366834372203144,1.5902104720497017,-16.120849188779665,19.016183802315002,21.97049291485042,0.002184089793726282,-90.85397295343513,24.040773950274502,-0.0031058081104622434,89.79543432233872,-2.575544207618245,-3.1948680652110677,0.0007333532451331483,-0.8530632653237935,5.342030049433936,0.0037325226819153604,5.561612151373693,1.4714020850188885,3.8740373790027522,-16.882709539665203,-0.12154931159645768,4.141872793281145,1.1752525365877238,1.5884767341034007,6.802781870063435
-2.504518900725866,0.0,0.0,-2.604466325640682,0.0,0.0,-9.814780047225913,-3.995536966358804,12.986558108498553,17.4215223188772,5.224958959884223,-7.727232814353659,-13.897999440901383,-1.6181935603336373,3.7131452936098e-05,-9.466008347520496,0.24936661973129723,0.00015653850857455046,34.062807778385775,7.272484148971666,8.165739849414352,0.8717632817262136,1.688034664679063,-13.457278411619178,4.453199696258159,15.296015725232543,-21.397816550605317,2.375950923948384,-16.305350426252947,18.890075939956958,21.53159936938941,-0.0009125513558602727,-91.15099730430651,23.32301090853004,-0.00044618813458464446,88.5809319876083,-2.3745736735988254,-3.1251586839288326,0.00126958893173538,-0.925911471945323,6.2626215037704664,-0.0008917480568471776,5.583808236698508,1.1689784888657424,4.227806593017088,-16.851150250386425,-0.5360853741950056,4.353331403359791,0.856717156195726,1.6321322597365515,6.91103344309719
-3.6640675471355477,0.0,0.0,-3.7724543264648154,0.0,0.0,-9.506865821635742,-4.134752373662008,13.90230512585523,17.512128887747796,4.597272231048611,-7.953138065473435,-13.925348366114472,-1.74513886702049,0.0001645616125021938,-9.340803831162416,0.2905741660587198,7.38692187102645e-05,34.35592633060809,7.177585936102094,7.317645890881394,1.1016166224268316,1.6544661534931098,-13.172787628579703,5.143471301122297,15.206909778169363,-21.01796268371095,3.1266031387587394,-16.178041654814468,18.610090458790967,21.482713333461884,0.0005712636742846767,-92.85000586453106,22.824855678002397,0.0010149588668543622,88.56789315579479,-2.5922887800692522,-3.161333525872474,0.002158628085463998,-2.299451441528486,6.208368313191929,0.002223220624272319,5.794256779546387,1.0420900280391303,4.876210102994294,-16.6212656621548,-0.900679058206353,4.904236821941392,0.7565528149356634,1.5141435306607696,6.811896658324915
-4.244140751398126,0.0,0.0,-4.303677310890812,0.0,0.0,-9.217209591165295,-4.279014836735011,14.50821848378886,17.614666088902982,4.173655699329386,-8.027606401350639,-13.930278890293167,-1.7731247947407969,-1.1674018318391199e-05,-9.400974050276702,0.33857607463645417,-8.472820436683277e-06,34.47897656472624,6.9885828772740215,6.956760448153971,1.3486710865925242,1.3876337263260548,-12.906819254449045,5.676003152360495,15.223331416774007,-21.082427597924966,3.8679543308470246,-16.13383312274956,18.132444686960913,21.66192351417977,2.783727472922031e-05,-93.74377026329213,22.545525539609958,0.00014609188340324335,89.11726143606444,-2.5644037361733636,-1.7608828234549518,-0.0005801256031086766,-2.9680338456888267,5.699399348052398,-0.00016500772406348015,6.181276214175547,1.1755655058721934,5.350594642958776,-16.217134495199943,-0.9580724727231341,5.39367227623871,0.5635735113864762,1.2614314097817392,6.86838774537148
-4.272753165649191,0.0,0.0,-4.911799685380405,0.0,0.0,-9.064272398588018,-4.259037697056213,14.815569841068314,17.921790451043247,4.225620314375351,-7.854379652022263,-13.925489076440977,-1.9622192436593786,5.529373064118701e-06,-9.414203518039294,0.4420977747236428,9.424287335201198e-05,34.40233279712657,6.923606900732944,6.965282350360467,1.3536802929558382,1.0593972114198231,-12.904435845945695,6.537013248259168,15.341575846130524,-21.6936064156769,4.940185611915145,-16.22181722476872,17.800847067411702,21.961253742317062,-6.889781476118337e-05,-93.22337896781407,22.10035772636116,0.0017258187025296046,90.02552636251386,-2.790062038666332,-0.3579980954282244,-0.003315314116094304,-2.919804706897875,5.3803731892443105,-0.0007354782217195054,6.453946316148823,1.1210656346837269,5.7232304961188065,-15.931044649074558,-1.1503819517444644,5.717423992596134,0.09981998775142026,0.9923502788716931,7.073338353214131
-3.766856430649216,0.0,0.0,-4.373879736619186,0.0,0.0,-9.113818902042167,-3.4824874670224086,14.69054474018088,17.82978441375581,4.596806290194911,-7.492533230019176,-14.072784402794968,-2.3071828852857355,0.00020083551324473096,-9.244286272542464,0.42637825320150563,-9.72028538770684e-05,34.40342971283462,6.977944708855066,7.147264220701789,1.2369555524422802,0.9116286401503058,-13.227896313686442,7.774859274813293,15.27181626612812,-21.841900408647476,6.012800081781511,-16.319536584680563,17.751082097779072,22.1182245886284,0.0007845299795225943,-92.79498213226559,21.631025558498365,-3.432896464112303e-05,90.43211972965882,-2.7786678706620407,-0.8939626430018608,-0.002324779094357949,-2.929209805952428,5.3981850955893,-0.0010858829524307547,6.520898275040665,1.1138688948893927,6.04977377565009,-15.851380232608099,-1.2813429765971234,6.016650502197495,-0.29602978315759504,0.7907784572836107,7.273310701439277
-2.5136934436403924,0.0,0.0,-3.0047918136865146,0.0,0.0,-9.122058620103793,-3.265190372593949,14.401188776425558,17.43831271984756,5.028017045173688,-6.996837792112682,-14.374954344332744,-2.415759077108003,-0.00010874822000604551,-9.135550169592976,0.25928534553281574,-6.191222044613076e-05,34.52912063652954,7.121032636881183,7.507833992044887,1.2161821463504368,0.9354533825163486,-13.526045296399452,8.991139530569438,15.044788610853388,-21.88406551760326,6.795798925626277,-16.50201386243172,18.254912919619812,21.954409253745805,-0.002134621994389941,-92.74084467273453,21.49479074598545,0.00025939193007004077,90.12158499477238,-3.435331672562981,-1.5131538053183315,-0.0016043837633350326,-3.3205410512423397,4.968522197247105,0.0012934512729056756,6.5306175288096755,1.2335912926184736,6.069582413948154,-15.839879693896044,-1.1781682437881236,6.080543680290664,-0.43515535171149167,0.7664404138275469,7.5384381574321315
-2.7193745358998047,0.0,0.0,-3.3811083399334194,0.0,0.0,-8.586382747171589,-4.498591596580413,14.95164500475268,17.48902131127545,4.817965144916673,-6.6602148140530995,-14.696046416192832,-2.3059064915596768,-0.00031855703467525054,-9.085456236725623,0.3226689207709234,0.0001110885508465383,34.75053139358959,7.128608317518778,7.319096879802497,1.2779814134934704,0.8374088017096183,-13.488823327551508,10.085127337397843,14.812997139522702,-21.84327998115528,7.8304802361897226,-16.785385806852265,19.461599796363938,21.994188990806705,0.0016616372692198427,-92.99149259972361,21.364306185020883,0.0004922645897990311,90.06086913931536,-4.786556243933354,-1.3833133807364626,-0.0019450133742801707,-3.83600024596694,4.056159767150371,0.0008365291932284668,6.830082636906236,1.095249723424447,5.942604156475895,-15.546623048449426,-1.2577750422461607,5.910451278170582,-0.5796003478727613,0.7286108497777611,7.676412645256047
-3.0213384807922052,0.0,0.0,-3.7944533881900644,0.0,0.0,-8.282936893607964,-4.954422848013304,15.365522778719916,17.491800578166863,4.482168704462757,-6.10982427008442,-14.98709310143759,-2.3489175177032364,-1.8309122542723853e-05,-8.86897530144341,0.39592283951297425,-5.0111772813627195e-06,34.99598018878647,7.045602318455691,7.179139061399923,1.284179498094366,0.6203200995290953,-13.722330553405058,10.668861281089928,14.66244213566242,-20.883238201335104,9.207698976016841,-16.960349627464137,20.2664780362542,23.198452594276397,0.023023876042544578,-94.40199822955029,21.3962017286276,0.0002629603589340603,89.55859846045854,-4.944491862151735,-1.6943876750362967,-0.0023079325235664003,-3.760846430063014,4.877825262730693,0.004057764395236162,7.309648854559986,0.8183775451728992,6.045604470815194,-15.06557606059596,-1.5530036664608209,5.9002826409751234,-0.8648431094651498,0.564780667993301,7.684522234866963
-2.9900603973045046,0.0,0.0,-3.7754723244463753,0.0,0.0,-8.06605479802264,-3.8290218443228277,14.858404587788097,17.39794347630589,4.889951876231602,-5.990291006246739,-15.52366079394855,-2.6545529836205004,0.00037928602373725907,-8.555669565994274,0.2565404594049123,-0.00023722675870563824,35.21871631010389,7.321665335543856,7.36275104733059,1.0651322522133186,0.8321445974219889,-14.053229814858247,11.574524423682414,14.624269250347275,-19.97093435902013,10.729624847469156,-16.800198232652914,20.59509675774812,23.870255923261293,-0.0031789052852668953,-97.18723702455412,21.338733044080406,0.0013046096510812423,89.40747798946212,-4.512941538255983,-1.5985666026218552,-0.002487212135927104,-3.255888874335067,5.918005796005803,0.000656605885171908,7.313925854056949,0.7135305175253174,6.560215634687445,-15.041485054169334,-1.8457570838854769,6.33643441042543,-1.323967169532701,0.5552818879020257,7.514741751562877
-3.589284739711026,0.0,0.0,-4.625604377047828,0.0,0.0,-7.572663015904667,-2.82878051759334,14.012550313165333,17.470213046314576,5.2855665641839975,-6.517157409614143,-16.234303222410126,-2.976915078981735,0.0002520562750288826,-8.22460334189638,0.12368694029957156,2.620216161855184e-05,35.74070220902561,7.887999001846405,7.464706559460688,1.005604953932166,1.4149714228100132,-14.106529143110633,13.287856446656274,14.605001721062035,-19.71520185781238,12.47059411670904,-16.416814591313752,21.003100493241043,23.247791792178486,-0.01031468067993581,-98.96635336317328,20.887141943050548,0.002434318739657412,90.47215719052588,-4.6341182691268035,-0.3113762371650227,-0.0034071478290619802,-3.274652357322341,5.42684040603281,-0.0019801535625654397,7.238816292647945,0.8901243703131755,7.156132590242246,-15.087983393646724,-1.9089223194907163,6.955024940087842,-1.6056689711306202,0.764182306361258,7.149105661867952
-5.157167272594386,0.0,0.0,-5.639891475651655,0.0,0.0,-7.085154050397122,-2.6371117133407203,13.641781960688425,17.567064092778104,5.2009101094012715,-6.783786649162825,-16.738449228131795,-3.2254603397371353,3.854056322066502e-05,-8.035031302251335,0.06411548396420877,-3.72162777176671e-05,36.589604331494044,8.209110423389905,7.250315765742561,1.4511367645473148,1.7519747570264692,-14.02704787864148,14.154739797874107,14.602045825163405,-18.845997402828647,14.20385627457605,-16.087713744885164,21.64445611225479,24.65475657530524,-0.015974264971625737,-98.21719707731634,20.684186783322613,-0.00013984839244907563,90.6774031974915,-4.361655215256178,0.9889623064608356,0.004004003935001837,-4.371529148713757,4.817890124385269,-1.8771173778956395e-05,7.550472767279755,0.9645081826208558,7.491841538235613,-14.759434121546107,-1.9675792503824927,7.293986622504879,-1.479364463872334,0.9335259213151358,6.7961726524804895
-6.38748848327081,0.0,0.0,-5.3991407015449076,0.0,0.0,-6.675817279016966,-2.7455212220995415,13.635595408450028,17.428663345390625,5.543131490996054,-6.593356966145989,-17.103984635042437,-3.1494551444691616,-0.0004486276216205899,-7.8854031863629634,0.017634323446771023,-5.8104712261662944e-05,37.09571359489727,8.150947375586265,7.144060974842647,1.706799436520855,1.7223937515128775,-14.084484405500161,14.903993672577993,14.526162437123928,-18.547390321612,16.011763044048333,-15.918116306785684,23.18342965792126,26.76802397233019,0.0013607056656287206,-96.88688478164852,20.658580755051847,0.0005926545952131745,89.59842097936654,-3.812069974367211,3.036789078326143,0.003089585138084273,-6.279309399424036,4.076517872139551,0.0026277462333537446,7.763042843690366,0.8518167146353868,7.630290679927338,-14.541621873695503,-2.1243792775417405,7.379339603415808,-1.55487000295839,0.964274188013232,6.74699867997359
-6.649115377184149,0.0,0.0,-5.590502829403394,0.0,0.0,-6.248684557996819,-3.249162493886317,13.918244759788397,17.288286745702713,5.9764381435407214,-6.566616904462087,-17.504149328400434,-2.9702389833240375,-4.7155394827859966e-05,-7.730204694073357,0.08621431628095633,7.317635485684034e-05,37.50874127114167,8.104433537077762,7.238567812567164,1.917206432614676,1.5141491726525798,-13.973927141440875,16.62348294824926,14.494614571838877,-19.95533227305612,17.94717947793685,-15.679784669964592,24.816161708677463,27.90695967596371,0.001378291210427022,-95.74994038702422,20.754708987554096,-0.0016419467739452792,89.75669325573473,-4.072596626791174,4.339679330493416,-0.0010265193226736981,-7.528352816636342,3.0033356754940446,-0.0008775264387239946,7.820337693872275,0.9217896485393159,7.644673465678489,-14.482650075181224,-2.065105667980363,7.419225057614269,-1.689032902334992,0.8508784154292792,7.005485135461308
-5.384918423092765,0.0,0.0,-4.958475037231604,0.0,0.0,-6.336692147863801,-3.2574543112098038,13.849728700134158,16.947197457690965,5.660482466021809,-6.3297293614879475,-17.827800661527245,-3.017348692045682,1.4268924878336884e-06,-7.5481657224807766,0.11043127331704372,-6.967414900030408e-05,37.87583289454277,8.236668534123796,7.523998464496704,2.163390755262746,1.3571105194883681,-14.047485531062778,18.473787227131112,14.564590528563294,-21.775519323586508,19.870340961472888,-15.27436319237029,25.69564038061656,29.43798433308624,0.006197249084557054,-94.39628168471651,21.527458584762346,-0.004079792897275368,90.83189071036814,-4.469812827007653,3.7143399210830412,0.0005797269327415667,-8.02259052438833,1.7447273270571857,-0.0005835140574148023,8.030380128496715,0.9400684522538206,7.721974407238654,-14.268520942317291,-2.0775214416603185,7.497716074278262,-1.7997795712599083,0.6942753564735809,7.275163255546199
-2.8717426594053457,0.0,0.0,-3.8359086729040843,0.0,0.0,-6.625606635212907,-2.8629271804890544,13.553027096637276,16.478062308884596,5.6534527777737855,-5.86004622574235,-18.195112975794565,-3.1793051204913745,0.0005801078802802087,-7.375588601740061,-0.03246229823479589,-0.00010423715786731708,37.971657353193294,8.363041955997078,7.872725882255131,2.0656476188682706,1.3286858289479968,-14.48478242970241,19.661261003408853,14.57478403156274,-22.602321261527827,21.687411802240028,-14.957467910380625,26.873627624579058,31.887978720334495,-0.00039560717296804383,-92.97568834758701,23.313732192689805,0.005287521528523493,90.72797038506103,-4.361446082537428,3.285198991819028,0.00026740016979873366,-8.247204640040703,1.2354314342692212,-0.0012523700602998596,8.120018195427903,0.5057270813405338,8.143084664541053,-14.164295790533208,-2.6391242407344917,7.722760796658019,-2.16660300987431,0.7569755117750767,7.31111095346842
-1.3289996032623097,0.0,0.0,-4.800048007285212,0.0,0.0,-6.419478392158836,-2.3489198224995302,13.539356646090901,16.523814497749242,6.203196176169852,-5.551053391606166,-18.90221283082502,-3.390903868782278,0.00017501115094824046,-7.241149887335316,-0.01522653853968857,0.00014365622366716452,38.346020658443436,8.510654350260038,8.116834904879061,2.004268787421828,1.259884347222643,-14.61954786334152,20.70712365139838,14.748247609784208,-23.272892007637083,23.39698034208849,-14.731721237197414,28.995255927674002,34.78608359234824,-0.013139458425761827,-90.10798536070061,25.85371690176702,0.000995286764853828,89.70922519498798,-4.551088097581128,3.8623030770346043,-0.0007673975031463678,-7.8441491258316915,1.2344718050212025,-0.0021866549060144524,8.247521093516195,0.1333858965019322,8.616283425036253,-14.019121406272536,-3.1630528743492605,8.019883408863882,-2.4628279625302367,0.7910064283570952,7.33914932741208
-0.8904768611490893,0.0,0.0,-5.295813131879809,0.0,0.0,-6.063957708510876,-2.2821807284898354,13.376184469383672,16.49167860713716,5.993625347770157,-5.34418413570816,-19.557187025945634,-3.3419130293438153,-0.0005376104547084025,-7.0852262240711905,0.15913558801401975,1.1040853740578007e-05,38.82762326750204,8.64677596823736,8.534675813131436,2.1321698976222025,1.0935824756078607,-14.53403648776553,22.40662660261124,14.977845986075515,-24.5152308370413,25.36704030970061,-14.339316413929437,31.881174896200427,37.43485431020996,-0.00946675579976682,-86.79042137143351,28.68926114630314,-0.003556099056494281,88.7432876228446,-5.317609295997991,4.616733279421528,-0.0014499881961377225,-8.251985722875437,0.7392408103673167,0.0012238475915751122,8.625454986665607,0.23828543465853266,8.603825528543968,-13.639701386391186,-3.061246721498746,8.048141684450068,-2.7014170471974577,0.5824646004781414,7.577359456242059
-0.26018082329578285,0.0,0.0,-4.393654349085135,0.0,0.0,-5.757382955004407,-2.5427071978459366,13.604501522002156,16.17996944163192,5.737610842150787,-5.244092121583466,-20.180116256804197,-3.4997324157811818,0.0008781617020203193,-6.8762575340046475,0.1362632580224223,-8.93854382206962e-05,39.21361936480597,8.783277493077634,8.527779947880074,2.2186308869970595,0.9446460482483329,-14.593512861295457,24.172654713626503,15.183809229899547,-25.953259585364517,27.43748529294978,-14.009517764392916,34.735424670348,40.42093969846101,0.0034611338044158186,-85.07662324539301,31.701091797898776,0.005314716380488562,87.36218632063803,-5.752859398856941,5.54651390953677,0.0015008371629804556,-9.362752934291908,0.19336057427644146,5.4137761752252293e-05,9.049848738877218,0.26702238957721136,8.521920910690085,-13.219102160585788,-3.0036223453560154,7.983146924198202,-2.9795762594559863,0.353931200246925,7.914874996026002
-0.23952108376599174,0.0,0.0,-4.154676515461592,0.0,0.0,-5.371333866441619,-2.0030705607302814,13.966195003002582,16.023178532711906,5.983102133161557,-5.271219001165335,-21.065322279962878,-3.7817725257413555,0.00024144333770506027,-6.697213808515807,0.21016474597254006,6.696202677599554e-05,39.77528153736375,8.7789496918405,8.450268856021415,2.3513205565621553,0.5902912831157769,-14.585214121095072,25.245587272547507,15.390448847520002,-26.65561612073017,29.255057640218045,-13.771972300952413,36.79494259961336,44.335736641369024,0.024594423899688456,-85.82973796864586,34.90856499375877,0.002357600195416673,85.80423068431305,-5.082103226297715,5.915089929348083,-0.000731745749806338,-9.483814580470732,-0.3433498200851369,-0.00030342862138461955,9.381336940467186,-0.06789732877429235,8.681325852868403,-12.886187434117165,-3.3739639752078263,8.003784012933481,-2.992175527806904,0.15305519699925865,8.232453433344542
-0.549322043341576,0.0,0.0,-4.958197840161879,0.0,0.0,-4.79648291253643,-1.5029456420205962,13.838860871758055,16.132274035028523,6.215018662559409,-5.294500958436729,-22.005849971985953,-3.8373318016818634,-0.00014494673571122568,-6.736972263230729,0.32736042817187694,1.8502010265638383e-05,40.136353021460835,8.715824506973183,8.951294793313352,2.4051461239406455,0.10203095141869845,-14.350670368736157,26.094973259414058,15.69955489116506,-26.78830127963773,31.004629272545774,-13.33911346699045,38.89971857629696,48.42600131741806,-0.0048259619047074835,-87.08240045486733,38.32514234416489,0.006928442335393768,84.82687811511268,-4.650430508970652,4.913896599716652,0.000319956403236663,-8.970893892144948,-0.8945242960081374,-0.0007660113103019509,9.501362472581473,-0.20080471760406118,9.054968798856281,-12.748937128213825,-3.638503118831814,8.299793775992567,-2.9493157504545664,-0.16417887665595837,8.389725721119222
0.04182636785230077,0.0,0.0,-5.14016872474812,0.0,0.0,-4.058547811206021,-1.90902658497806,13.592303698905289,16.27406260648238,6.34877941193857,-5.0727695801466295,-22.915728589786458,-3.714474734951755,4.0743732749760377e-05,-6.882052592858635,0.28205693769465273,-1.3562601321438225e-05,40.27714449049989,8.57187863679609,9.58721001895971,2.2511436468045343,-0.30398813776732503,-14.399514878221341,27.05549705421557,16.03959945564019,-26.79972031939788,32.87442491203996,-13.019489483883376,41.528826490883986,52.526629957651316,-0.008670290122857584,-87.13080987773807,41.9244160435624,-0.004506851593467573,84.57014498130037,-4.928521880049566,4.103532618204998,-0.0012649287425246963,-8.342322328218824,-2.4148114061486927,-0.0026904597614265968,9.76440355061202,-0.23681183776057804,9.667997345596103,-12.451720255807608,-3.90378935939557,8.854814542517927,-3.158407033784849,-0.5429271763451509,8.387030451646503
-0.046673125075805844,0.0,0.0,-4.700303950910492,0.0,0.0,-3.1532498550885495,-1.961973970388973,13.562000026786157,16.430650002569937,6.422967610990126,-4.969750752528475,-23.99047851761675,-3.548593326942054,0.00022981264635645108,-7.162562747102517,0.26762144567328267,-0.00033551218941962934,40.98358071270143,8.26032206757615,9.835188842164547,2.5477339557734098,-0.7370011898400004,-14.525017464865536,28.675334297232652,16.20315153554391,-27.119479639785173,34.67395967813483,-12.894084648604723,43.557842896488076,56.282270721177625,0.009211076424135996,-87.49971646606868,45.844968133093964,-0.01284367660770645,85.5960454273198,-4.193682317200736,4.294554695170991,0.004181854047784451,-8.117025500320715,-3.6117488555396298,-0.001835363069624478,10.234371834557047,-0.31929474632291477,9.963161171935177,-11.96627916659023,-4.091716468846851,9.097498823748587,-3.0471600006581774,-0.9639615492567993,8.436612130189204
-0.761150323876442,0.0,0.0,-3.6776377433519976,0.0,0.0,-2.1645664339277295,-1.6951047099261425,13.55463838160197,16.617107352839387,6.76284332018798,-5.301090520863155,-25.067185854077405,-3.223916167604606,-0.00047542341741914644,-7.862772094165903,0.22003007517765039,-2.1266170595045505e-05,41.62792229023101,7.730846737081677,10.258754294637932,3.0791335906014625,-1.425552762748254,-14.323850849641572,30.700854960519333,16.279945430651356,-28.56963780750478,36.10312002794659,-13.157111243411366,44.790403432313674,59.51419553120452,-0.013539267467212068,-87.56314728860727,50.07989228947869,0.00810839872886095,86.23169510955786,-2.8614549727489798,5.558180033638125,0.004981269791863854,-8.970023651528976,-4.035842243447051,0.002775860907331556,10.281512735962943,-0.5622599393212382,9.43943172468725,-11.956485763876671,-4.118597941980525,8.519306317854111,-2.7059575579914714,-1.5487989821758688,9.055372599563277
-0.5210365975968603,0.0,0.0,-2.7123895142086307,0.0,0.0,-1.3397778497499426,-1.5142321155702452,13.260876313961704,16.812721612704056,7.392028421514794,-5.440455045961732,-25.978961422521014,-2.77943888404308,-0.0004406162299770775,-8.927205731034402,-0.05294869903376092,-0.00036056333750714235,41.786573477045046,6.933698446036899,10.929078256418487,3.4106826026326575,-2.2280648461861854,-14.445738440649233,32.330263442454495,16.564446942769035,-30.60921136127337,37.665612384988485,-13.613995614160014,46.356079940080804,63.409439947198315,-0.005009191218664807,-87.57080328572735,53.84029416109152,-0.008204895065532312,86.43723569522778,-3.4719910310137467,7.000724860578188,-0.006417367070719919,-10.30137332793556,-5.440282265255999,0.005013910042348258,10.246322844930281,-0.7610533151361791,8.600182744050137,-12.042338404285506,-3.984624295085497,7.665222220172336,-2.674813591488037,-2.1703821651508575,9.789425770164884
-0.20264627199203522,0.0,0.0,-2.312501890411045,0.0,0.0,-0.5329867490937868,-1.3710206440426431,13.111013446716285,17.167387407248224,7.538015461045894,-5.905938559440557,-26.915463094968764,-2.495273286359259,0.00043802894886967817,-10.290045673926683,-0.5108814178236248,-0.0022370020622985163,41.71875184253064,6.2363466155690945,11.152877126809283,3.603645322725404,-2.724149598431773,-14.474003859444872,33.60193600427037,17.04334240159367,-31.953824684079276,39.23558213720182,-14.264564509273095,48.08938612685385,67.83823661489019,0.021317760312668285,-89.14601893491204,57.49593398623069,0.004754297724040901,86.42427893613669,-4.673435980009566,7.434302309908299,0.0006860999887719007,-10.672742744441557,-7.09450027192249,-0.0035064730767720995,10.298380727247844,-0.5940505734371058,7.697021952236669,-12.03002263966038,-3.487303497346687,6.891465815339593,-2.8638761436445983,-2.654844754907101,10.220656962706032
-0.2562581977176154,0.0,0.0,-1.9200532788780267,0.0,0.0,0.3604136484910221,-1.1333923179061798,13.177337808297484,17.46501570581526,7.541110149116246,-6.5881630013568575,-27.907328096827644,-2.436653811580467,0.0004650287789898759,-12.546641083357878,-1.2328230062634764,-0.0010731796544886194,41.59340803069844,5.836990278060008,11.047684433979903,4.286230719905921,-3.040397088382541,-14.19345490478131,34.47109088798419,17.756754813644232,-32.531268273557345,40.38341131166126,-15.540778828646852,49.793358365592766,72.2514886580345,-0.0003412910411177985,-91.14825020523767,61.98866355798711,0.02100902863692127,85.22062619058846,-4.357382200214116,7.374671506417375,0.0012226490841590006,-10.835363920558734,-8.052670865704798,-0.000790107780989451,9.959562632841655,-0.2069558217701373,6.686321510181233,-12.404658789509485,-2.7450154136304405,6.102698408296476,-2.8757505714686697,-3.2007255124491945,10.739101554334958
0.1336517330567023,0.0,0.0,-1.297012282660091,0.0,0.0,1.1794398699013398,-0.8343353674772206,12.90652418541869,17.64278745894412,7.652994650152644,-7.41026635246322,-28.78106856862312,-2.26557082618671,-0.0007800636999205424,-16.365375402411647,-2.181800023226594,0.004805477888551436,41.25135767117017,5.371629351024842,11.084922231308674,5.683562414972767,-3.45141702335084,-13.531689469213417,34.97175288786379,18.867961109261245,-33.333661513217606,41.42132195908397,-17.525997797589365,51.74593704568256,76.98143031577227,-0.007161242738199434,-91.86739953132891,66.51487686585507,-0.01652251042520224,84.61295840151298,-4.759590290997662,7.217731036271592,0.00191387750771629,-11.519985198810938,-7.992981417097565,0.00023651103596832398,9.195635009950834,-0.10443525577724483,5.7995741652082735,-13.20065491003101,-2.312578072923653,5.321025987699087,-2.7965641603207017,-3.7680719980416937,11.367271389165118
1.0898749136850983,0.0,0.0,-0.024437666768514187,0.0,0.0,1.7734321565052311,-0.6263613463171984,12.68249223221721,17.24184933110117,7.9879385525906486,-9.016428344258143,-29.290558915348434,-2.1657150080417824,7.72846142503318e-05,-22.117491142413645,-3.1328227273371736,0.004465501984829131,40.634357902426096,4.631305026962339,10.767542678116119,7.868066621283673,-3.808580433862075,-12.337407145000077,35.75542452221446,20.039264130253386,-34.23682812527273,42.63520940702376,-19.898319818400367,53.40772736639208,81.27261528930251,0.013163386543700454,-92.29343852551764,69.99737482161773,0.0021495283487425226,84.5178616261459,-7.0661301274941515,7.274919966045274,-0.0009472949167426082,-10.878062554177111,-7.545423629270909,-0.0013924746208968926,8.504229992176432,0.02847405100418186,5.054206772046574,-13.915091392427351,-1.9055793377246293,4.682169444419021,-2.906888441019826,-3.9937379031681686,11.40770858819609
1.9929560506256045,0.0,0.0,1.9481579122243862,0.0,0.0,2.260109323129492,-0.6384428961768404,13.065213186619857,14.967922464861376,7.8395071920189485,-10.531104142615428,-29.50487995103397,-2.5635231025620566,0.0003831235028091056,-29.799369635452077,-3.6787150336661045,-0.01200964643763485,39.69481207386899,3.950594226388839,9.52010973913215,10.865153394329093,-4.033852201034031,-10.900818012313847,36.62474816168415,21.10120387863851,-34.6988460540054,43.70993227061529,-22.432608409350514,54.70234757332207,85.05069629084436,-0.01527388195277127,-91.34948008088278,72.46170082036429,0.010074988474025428,83.30913589968496,-8.237161162711713,8.081880730819721,0.001890689322400283,-9.245326432460809,-8.05949888144837,-0.005520418842041911,8.062004783438956,0.4329268151071498,4.680559725091017,-14.364306081766259,-1.3891820116950253,4.490972564473672,-3.2405502578953342,-3.7951074302698666,10.852712551481973
1.823361464329853,0.0,0.0,2.2996317774200614,0.0,0.0,2.991188697543175,-0.6235063064541452,12.85829038844081,10.565342213774802,6.65243464059909,-11.686228061878062,-29.574160890234992,-2.7671212220582055,4.467802793954565e-05,-39.034811403187945,-4.049165390389971,0.0047588782541546,38.41546658539433,3.6135054899785746,8.482881125980347,14.712315761385586,-3.890318524902765,-9.880578390529632,36.602631780546595,22.50425194287564,-34.796147943783225,44.55161549181756,-25.265266973142612,56.23386664778572,89.14018741945652,-0.01216698710403146,-89.28017003766085,73.77822533341755,-0.005180331758026894,83.65211290927273,-8.275495791073526,9.387942929097742,-0.00044073488833716536,-8.865804180181742,-9.017051514545711,0.0016283450228685118,7.543095248049492,0.4984967280069772,4.2987018809341695,-14.893685289044118,-1.182860463830728,4.1629527831247275,-3.548042302287862,-3.2380825077403044,10.26385527319056
0.9300773615870508,0.0,0.0,-0.3541199698243215,0.0,0.0,3.982731984402639,-0.9750877105668216,11.677564854016486,6.451114924901637,5.398591258772023,-13.297613669421004,-29.842331295668636,-2.7269828253739936,-0.00016164820643241323,-49.635774619530174,-4.605400805102252,0.032411666627171744,37.01531526262085,3.482484070018946,7.978554046023859,19.319891856417144,-3.272525207810678,-9.54450387788736,36.50220487831853,24.10707248689834,-34.62576989217569,45.431174989199405,-28.52293697175851,57.88083266917221,93.13338193371114,-0.002259548374441035,-87.83550286924509,74.29719915540497,-0.0035143040963439474,84.93764522851112,-8.73144793237525,9.959214511489684,0.002036371056779475,-9.251912046805913,-9.521184456555558,0.0018551842886011564,7.265334844240132,0.39927199423046034,3.8635080511309186,-15.183656755853132,-1.1084344059944342,3.7227687410213472,-4.108291264263741,-2.5155723399554764,9.334494758820398
0.6508318441541041,0.0,0.0,-2.486401681158748,0.0,0.0,4.72882801500824,-1.5059375968173556,9.693805416662462,5.480505197686398,4.025113168512191,-14.727397111165935,-30.617378291406578,-2.679421445021405,-0.0003372862581421519,-60.74264600105453,-4.56406054421632,0.0017495289484720559,36.04083400058059,3.560858416576213,7.924858956313714,24.4430465636169,-2.588564106245103,-9.442163385325465,37.63595176679116,25.62760906941264,-34.63758325255892,45.91278311684449,-32.091153893004105,58.81713606415155,96.15604444111254,0.011832605104184823,-87.7671982304522,74.56717708576129,-0.008725600298697822,85.57879868203369,-9.112823124294417,9.241132753843882,0.0008641674187504478,-9.195326929141336,-9.718690924547984,-0.002574788148466068,7.2566906031207585,0.6297020324449165,3.540732980260165,-15.198656065718719,-0.7722120193450653,3.512438185047408,-4.651746057140956,-1.7956226893212843,8.046772160903986
2.764136373047527,0.0,0.0,-2.5825542575218527,0.0,0.0,5.127015509628468,-1.687084583444564,7.895296489302274,7.035611953814658,2.5787693785504917,-15.990068815593323,-31.546950010808846,-2.802420489653301,0.0006301370489416575,-71.64817361549251,-3.012543037920749,-0.042055816038637034,35.45357388631591,3.729024579549358,7.850354420747705,30.017665552446662,-2.4170258998494356,-8.833462430878024,39.12780130494873,26.894968393307256,-34.595557445661996,45.66454808289536,-35.572329142513,59.08246730719458,98.05280945620783,0.007243984240941669,-88.74941317584802,73.55252261640153,0.004400806964018701,85.9676043220808,-8.1602746335637,9.679537948448845,0.0004596588505070311,-8.75181499768553,-11.957856575956432,-0.006984929786774397,6.714338073699285,0.8731128157236224,2.838557967912404,-15.755297207584716,-0.2789979653273212,2.9565802072833165,-4.74096705619026,-1.1645066271436904,6.520641173383264
7.467741506322565,0.0,0.0,-1.755666429735623,0.0,0.0,5.324668759515549,-1.3254360951827215,6.53902359254411,8.82475966614243,1.497203995571985,-17.14571641736768,-32.24772682903998,-3.0558010951106005,-0.00019261710769113107,-81.96757225187693,-0.9323030192310481,-0.007795816094767056,34.808343196560884,4.103361293677872,7.6048899271914685,36.10164188658762,-2.5120097356096407,-8.058552617331415,39.97103764141721,28.137405300823257,-34.19110381667175,45.39777688948867,-38.79766446222082,59.591954186807456,99.32302762062636,-0.015208249418158905,-88.26736603270477,71.22931048262726,0.023412348879056008,89.15386917988447,-7.45139058761398,12.4395700704124,-0.004954516591935959,-8.572768009328707,-13.685980960148582,-0.006644168388075428,5.554230821563755,0.7593947061214475,2.083078749984742,-16.928609538190692,-0.09529452805332117,2.215074772140185,-4.637115085442599,-0.37487448774485604,5.153134484351814
10.806116534393674,0.0,0.0,-0.4892703937459887,0.0,0.0,5.842011265114093,-1.250157749375912,5.352162998184366,10.500601159784406,-0.45196381571734795,-17.475343084717785,-32.740443371159124,-3.2572682971845874,0.00038769416598384576,-91.13604241361836,0.5862970078394075,-0.0005862301980072554,33.71022665764733,4.526733025896723,7.206742570174595,42.19328060792489,-2.7396050148814246,-8.025222183767736,40.52147345686614,30.08266178320912,-33.95959985455116,45.279040009820726,-42.06350986480407,60.27885775509699,100.68938241284988,-0.008225935538925996,-86.45435563150001,69.80153920447484,-0.014651090011898503,93.97313283807486,-6.924683576865105,14.738873565162706,0.0005078953236067573,-8.132239258529356,-10.542733957813923,0.010085079643544596,4.471764773254557,0.6359103871238165,1.701584197000733,-18.016266686705155,-0.06349486101513978,1.8153848116185562,-5.034076681076135,0.6111915923466188,3.8181250687984054
13.762629767420972,0.0,0.0,-1.8666645975648797,0.0,0.0,6.477266329142708,-1.7809795224958296,4.703684863636126,13.377343436414172,-2.4197826121452635,-17.147059785416047,-33.41749072538465,-3.4800223897641724,0.0002962865239124405,-98.80801118777967,1.5476297570523598,0.016253760959554373,32.6034246074203,4.965587208401784,5.971590198546411,48.174492400777964,-2.9283997090081324,-8.810879020829447,41.43505827202996,32.26745273252778,-34.30523163232893,44.534937519567556,-45.26088876949957,60.32602971933095,101.56447846339825,0.009050894835037482,-89.56292042717541,69.07759508144048,-0.007600350252402326,98.22492489929144,-8.074686625159686,14.787385448813797,0.013064537380539665,-7.269243724356623,-5.4313011435813365,0.008192324184488963,3.7095410103165154,0.6545953336650269,1.5184142986219438,-18.780609254221496,0.02383773684287873,1.6532976659732186,-5.636187967673349,1.666182200411413,2.3460407849875544
16.03748613419669,0.0,0.0,-4.046634362964699,0.0,0.0,7.10936706778975,-1.908804338759984,3.4044237804395947,15.95019470672212,-2.6303501318554434,-16.367366260972688,-34.143907931841305,-3.0822575928047504,-0.0012611651570240546,-105.29836064977694,1.7186334713338165,0.011277169977624806,31.545029738024684,5.250347770136537,5.414922038152054,54.79253593983233,-3.071358210402396,-9.846575145673594,42.72458226709703,34.33830273541251,-34.81627391594766,43.49901022235956,-48.196790531595276,59.81219196600762,101.39259175850128,0.00015677156217335905,-93.53274395606466,66.87757380909244,0.002514863713700611,101.31092092847781,-9.626561739275935,13.819702235713907,0.0024845418027847174,-6.040817413878699,-5.716849540068611,-0.015446274951272017,3.2466205386947484,0.7372144473931094,1.3119970522701327,-19.24576334847192,0.1791275132708356,1.494202242656479,-6.136037070840062,2.4006662792822553,1.3340128020888384
16.51151559752547,0.0,0.0,-2.0562911541015727,0.0,0.0,7.681305454448148,-1.68324513613047,1.4598573419600476,16.742516227948848,-2.574658685854009,-14.509091661783831,-34.36906669841942,-2.504458135643291,-0.00028866252509613917,-110.71000046484708,2.882989039833058,-0.027282319038470056,29.711959096694297,5.138525775728514,5.429754982525123,61.59063923645796,-3.952331584191838,-9.49870349173282,44.194881517074094,36.67466529669605,-35.166490208256086,43.23793699330458,-50.93379779339814,60.00543415033898,100.69732058379307,0.003255633038981137,-93.12214460948158,63.61889069135069,-0.0066690477627928246,103.37955341616626,-8.626178659230808,13.452552490502097,-0.0009727118267174966,-4.683589602099394,-9.782815680366493,-0.008994319523879118,3.099864255016986,0.8331899416726839,0.5911278286686145,-19.398410299503823,0.5435791387332543,0.8649638317532115,-7.274198462762782,2.7710082185659504,0.44586420314225367
15.360060930451635,0.0,0.0,1.856314084987669,0.0,0.0,8.668351578464664,-1.848042774196986,0.5943190364388901,17.787966719975664,-2.7976904503384588,-12.518591175625241,-34.54179869324508,-2.988944815563084,0.001229086876032146,-114.28286690951546,3.837745478225814,0.006345310038073759,27.577150696937377,5.883787026627667,4.072728380806039,68.0992308329833,-4.611784484548878,-9.913700642555582,45.141730693083645,39.463491690294674,-35.069673790152535,43.182618606524485,-53.50237312751452,60.236883027202424,100.2870940714548,-0.002336485573391055,-93.21037714742133,60.65056412390566,0.023337063992023805,107.01266299334037,-9.453917555438478,12.716698932840234,0.020097972353316146,-2.9735844697778906,-11.933225776860422,0.00656365756579671,3.1180018591920775,1.0080023331477885,-0.3540718772265179,-19.384135909818983,1.0667700799733624,0.05863566961240255,-8.73097999130556,3.7153912915801017,-0.4705124595459918
14.819934518865114,0.0,0.0,2.3241903109211295,0.0,0.0,10.026477902461457,-1.8757308256852454,0.3725047612719501,19.850907227444658,-2.5176045637279896,-11.65179817165394,-35.251941420548526,-3.886564007081192,0.0008086632011597098,-116.31446694622161,3.419826821077552,0.007820190212294274,25.78785722479821,7.233761023851702,2.2835256624456677,74.61131831146268,-4.8127516984859,-11.715644865631461,46.09515789573136,42.004553966147455,-35.382251599281396,42.24594470127298,-56.2901877773718,59.60537742828,99.51188258534543,0.010542193784205803,-93.22839445417442,58.40812141690388,-0.003502175688544188,111.04755882577828,-12.208687688417333,12.226559235276527,0.003875348981069407,-1.7085622147241983,-11.754731325970564,0.0042067955343421184,3.232757221998173,1.3091264045039253,-0.9842112115662272,-19.271321916716985,1.5860805871841064,-0.4082741933468437,-9.962846482711248,4.986745781940751,-1.1992979511559934
15.844551936474792,0.0,0.0,2.535874459644753,0.0,0.0,11.22800778426195,-2.063046429875517,-0.30219533324891196,21.37856406246638,-2.755765629326438,-11.151085148221636,-36.35788578802193,-4.042227118554089,-0.0017320872841994183,-117.44694484937848,3.6548601003797976,-0.0018934700516233518,23.565326153537818,8.482936299600793,1.3952651055931813,80.49628759025346,-5.293793059759126,-12.294120331694067,47.094021122139196,43.95276760762716,-35.788832693098094,41.04372908110776,-59.12494017003043,59.09627196993126,98.05061599101066,0.0019864954993912658,-92.39161849364804,56.28610363914911,-0.017845948687768808,112.02042386873246,-13.057000903748884,13.188765877348633,0.00014444622914689228,-1.615135264781817,-10.811285889041548,-0.0016966636941914887,3.629555137129838,1.6041721030802314,-1.347032640472921,-18.876797484697267,1.9974916157947997,-0.630534493243962,-11.74831181735466,6.2509489477620646,-1.7513840097714084
17.841868029567912,0.0,0.0,2.4727898528246786,0.0,0.0,12.244957320145948,-2.265256882085281,-0.5971622292317614,22.80885736913343,-2.792421270831572,-11.463145500904446,-37.63269879679458,-4.096228954050048,-0.000344494375631036,-117.5426319935363,4.585503050665461,0.002863790063652097,20.809072416759804,10.159450307697549,0.5477731410035624,85.66359966881713,-5.753409706167858,-12.289278889755884,47.18651131851951,45.843569440198856,-35.32575816529773,40.40633945788853,-61.498321692557816,59.19497883390547,97.19079709912086,-0.00409619240267039,-94.33068414870229,53.916166817112,0.009566629609769822,112.50078811901002,-12.995282387637802,12.783165326771499,0.005725337948505647,-1.4073814496345403,-9.113478957591678,0.0026174938338468126,3.941311704780896,1.8048297351528322,-1.3635786918549104,-18.56777619971102,2.189195518356329,-0.5689655405583668,-14.160940225011407,7.735932887525596,-1.9603426573818943
20.179004637378245,0.0,0.0,-0.2929804367872894,0.0,0.0,13.215468521951077,-2.643077045941256,-0.826283855900758,24.239818011712547,-1.5165314947083974,-12.746334776688846,-39.10748552479388,-4.356680421224551,-0.00044440554595821433,-116.94549775385154,4.190232097369006,-0.007548676078871481,17.68711603958107,11.73412070088084,-0.8855711829392022,90.37827772037569,-6.774463220153928,-13.081869816906071,46.24435597320553,47.94288638956039,-34.120829489303446,39.49927125787146,-63.5171499045044,58.49496244425015,97.24142818081157,0.002903200372177592,-97.90519127829053,51.498086275320624,0.012203125643039024,113.42684187264368,-12.748153045003304,10.834874246952282,-0.001117748592909399,-0.538274985028795,-7.957469761630427,-0.002134758715089149,3.777658978659167,2.121455146712951,-1.487799615323141,-18.73595420056797,2.5292305864450078,-0.5624141227031758,-17.018221741667737,9.13382423241894,-2.515527585579286
23.334469932356637,0.0,0.0,-2.76263541120704,0.0,0.0,13.65962005141661,-2.901200195010372,-1.1118285781354555,24.680185902112438,-0.3454913392476179,-13.822836865635432,-40.46845994995096,-4.973251956621022,0.0027196798421171256,-115.5859700852328,3.4323666262760746,-0.015522374357083585,14.349633821213583,12.7146459610432,-2.488126444685459,94.85220138287295,-8.132356832286778,-12.917557337683593,44.77029195900381,50.25438400752395,-32.67542116215476,38.327066098988034,-65.03991751326696,57.31899889848626,97.60159589130103,0.00044419993488609757,-100.2835364553975,48.87367732729835,-0.010194492932039816,112.24608126339201,-11.341534696593286,9.965114241531346,-0.0023679939069720314,1.479808959731291,-7.3251513820857,0.00948969758325687,3.107816809990585,2.4020526007884864,-1.7816807803595593,-19.409621859919696,2.900886049773582,-0.7264121985067367,-19.9570761807937,9.801051440936133,-3.4955829911472565
24.941481827546347,0.0,0.0,-1.88201190235347,0.0,0.0,14.469153647223079,-2.393254154635934,-1.2453172904867167,24.28337055989266,-0.10709640375100188,-13.27668940979289,-41.895427172083394,-5.513136196240299,-0.0037631128882174084,-112.8423361103054,5.277547930917382,0.021194117605031065,11.340832101996938,13.918202859709087,-3.2784090303646307,99.01802105017643,-8.79230504697331,-10.30458996202064,43.1915577230017,52.405611063501645,-31.44108777885621,36.9951059186505,-66.51845269507297,56.328721964721474,97.96263155661666,-0.0014508758458690464,-101.84354030675566,46.4359971897019,-0.01988183500548813,108.65520530779526,-9.709261036883031,10.735828990061416,0.007339051266324718,2.7603943705586125,-5.0794971922095495,-0.011990103701760554,2.4585799611355252,2.3725425302816414,-1.751228869704076,-20.058449041938342,2.8619695132562404,-0.7095904568635549,-22.40966587119143,10.305934062195824,-3.773477794198747
24.55681742724889,0.0,0.0,1.6461811510565623,0.0,0.0,15.963789920100416,-2.323599851062456,-1.4462602154192206,23.488789831917728,0.7855421265439103,-10.982224994503897,-43.76799510348818,-5.2486883689251975,-0.004497571551712945,-108.78232107821223,8.867341003373426,0.04653343958857169,8.7352101469659,15.786922520636335,-3.038128969282129,102.49418639236856,-9.137667400316111,-6.641705218464685,40.443433834367184,54.51766163794821,-29.256833076355164,34.82663453948008,-68.08778617474573,54.695704879257946,98.03137527854359,-0.0027996024310730514,-102.09126677059595,44.617858118691665,0.012515556987920878,105.82112173698376,-8.825809779701165,13.472434135996567,-0.005002900800122986,1.3145145239575167,-2.6416976829572687,-0.018425428207594224,1.8362785943582913,2.5718920090263824,-1.6309401922191171,-20.6851463546021,3.0000986012226747,-0.5219807762133569,-24.363992871485934,11.554751165357079,-3.368387884366695
24.652078855112318,0.0,0.0,5.860531608220137,0.0,0.0,17.117807023156644,-2.6617663414413006,-0.17274921622777276,22.468534669933188,2.093623439390028,-9.663850351969982,-45.83612720084962,-5.58703484562788,0.005972275922426075,-103.48289921224514,10.24742200987908,-0.02476525728990453,6.574234805187257,17.745244586065112,-3.5416967145254135,105.40857032877187,-9.169721225091356,-5.500994269456982,37.913271828300196,56.362491370878885,-27.399254464241743,31.148639687551654,-69.70287330947332,51.567243130575605,97.00404059962226,0.002569190287206948,-101.10231804057719,43.049936862491755,0.017836392460185202,107.10948938262382,-9.276657115156622,16.19264233305564,-0.009218887620391263,1.6638668060415647,-2.9145799886466546,-0.0106523494909118,1.2333752377077443,2.919988292183498,-1.9082139276386936,-21.294454919348354,3.4277376381771933,-0.644655751627038,-25.86069704502959,12.712325239749205,-2.281943420945744
26.702948525652808,0.0,0.0,8.86985805996952,0.0,0.0,17.550608291439723,-2.896310995584227,1.239793811801878,21.771249886037648,3.9293424978905276,-9.775771453919837,-48.16458226735527,-6.130884235797005,0.002408232388164657,-97.91555583593745,8.162398013470275,-0.045242096137577154,4.787066961933178,19.33558750744562,-4.5069096435847324,107.62218545303224,-9.361117018565485,-7.649144642203341,37.283584311633895,57.230278817130205,-27.52250417097961,24.830035425970397,-71.81885041039219,46.70084135889318,95.27925670945595,0.007209389334283061,-99.49877081271747,42.193860485703894,-0.00401288121974489,108.16192250529653,-9.294855529828139,15.702876276894527,-0.0035631247102854984,3.0085335359598084,-3.4363180612569346,-0.00343333214906635,0.9356586586761061,3.0447530326203545,-2.574733673636249,-21.591047135683862,3.7980000132773513,-1.2128111944702842,-27.157445882981673,13.481485525275641,-1.0973129623255296
29.331152568602366,0.0,0.0,12.625002534459496,0.0,0.0,17.74843667754307,-2.784537552858948,1.4377348868956146,21.02055920529599,5.657761512953721,-10.804826680880915,-50.68140925946426,-5.919113447010043,-0.004561721351472324,-92.34778291483535,6.66317305507088,0.0286854428595083,2.8475452053018557,20.391818782326617,-4.896971409751935,108.61410308755143,-9.73046124256226,-8.80849061743388,36.62991995107167,57.65140526539676,-28.160590878014645,16.1299225360347,-74.02769658161657,40.60194988898184,94.05455964734877,0.0017312210380644889,-97.88017837225276,42.246152039152946,-0.007267593963071376,108.80849571365619,-8.753928242554855,15.414026947217717,0.0029081721175353995,2.046375709421914,-3.3311463068839675,0.0007330563171440345,0.572440876298223,3.2788067916282535,-3.08590637178687,-21.95574184312538,4.209729608139551,-1.595535156305023,-28.39214769936903,14.056922490590049,-0.5578099637153537
30.814680130113953,0.0,0.0,16.78755337116666,0.0,0.0,18.011730172912618,-3.007642808388392,1.6123425572190562,20.49729588113726,6.489110134653387,-12.669683250831092,-52.88030711170494,-5.158907494375386,-0.0021342160918807946,-86.16758532471141,6.3878750054671825,0.010014874262806926,0.41735960337086553,20.675941729595007,-4.6057321583764494,108.375137175593,-9.674068988450905,-8.619750573373603,33.133314791168786,58.59475977604592,-26.672396127843705,7.850639673995308,-75.6747218836071,34.812754194444366,94.0089222225237,0.0031944901759318202,-98.15416468287488,42.305467760563786,-0.0001528575153883873,110.07815433509816,-7.56969865410457,16.673225936817474,0.004937389510344826,1.574583942170356,-3.344945398584831,0.0016323898437410498,-0.11541261465838858,3.376383023854137,-2.7563608948054488,-22.649478435454483,4.173796315120094,-1.2533352655379273,-29.390226011819642,14.10546698469606,-0.6270277441042482
32.46945898282114,0.0,0.0,19.94167878823731,0.0,0.0,18.299720806246466,-3.569349788420665,1.9271295255063454,20.635511846140407,5.380140292520876,-14.640166380762695,-54.21382879151076,-4.539444244963481,0.0021080998598437153,-79.34663200864327,5.5150016072064725,-0.016317131732540003,-2.441175191734958,20.60352340493381,-4.589458530843903,106.92977944073259,-9.625241917928758,-9.655736135561472,28.62883037172414,59.6018614185039,-24.47980180639158,2.1742035486122178,-76.84486924463715,32.02856494954145,93.92201829997873,0.00022344182429832996,-98.98744755305249,41.37930062662929,0.02045971250690369,112.59981931168845,-6.402010139643315,16.91536409683768,-0.0037125481190880857,1.6607781641283061,-2.9938483858469973,0.0005221921246173914,-1.2695300410729669,3.2716998568689855,-1.9704734403707995,-23.805591082098463,3.7764204704890094,-0.567156058453291,-29.826236234584595,13.801933470887796,-1.0536736623730472
34.15763802988391,0.0,0.0,20.9277490839798,0.0,0.0,18.80195696472621,-3.6632650624390304,1.4714188945111388,19.509217343541593,3.7989377098004797,-15.197246286230323,-54.606192722800586,-3.717005348784732,0.000980445784199426,-71.07954314567812,4.67565564812481,-0.008565497611025912,-5.606763430264964,20.762970519173738,-4.42145383693838,103.78029489928713,-9.47704012885479,-10.62554401839365,25.13641749297618,59.94243786001698,-23.521179737112735,-4.954079318000559,-77.92342217822002,28.052184906566488,93.14586033732441,-0.004575646441505231,-99.65425004746623,40.7953099527039,0.007393984816770997,115.53142776127163,-6.164708778028281,16.648213088328866,-2.714868884497608e-05,1.3147787131719244,-2.9747799891473803,0.003565826446705472,-2.785270520398022,3.316363043449335,-1.7310031932435648,-25.323176381065334,3.7260428918976385,-0.32870218466410583,-29.80883543047775,13.590431476505522,-1.3191198970714408
33.43549955366817,0.0,0.0,20.242951031818524,0.0,0.0,20.019391869580716,-3.842279670533458,0.5502402593831581,16.408912558453462,5.288460181616218,-12.040408510655881,-54.51729247753595,-2.9999500432962396,0.0006252502453350934,-60.74771639288794,4.530567543099431,0.02265937033932933,-8.510795329825205,21.035346297166225,-4.166070920555479,99.20704964781446,-9.361713173564594,-9.799485311430375,20.69108275487546,59.72820033633868,-21.95593734391588,-19.188901505049927,-78.94642421580147,16.04189082901516,92.99858477009306,-0.005233011954015017,-99.19808788124067,42.26762840026703,-0.010241501384045637,117.37153940747523,-6.136464988901427,15.743314851399562,0.00023795726243246992,1.9543562463399644,-2.302170469902881,0.007609088816251836,-4.2917155146258255,3.475617868367024,-2.304390427337967,-26.831626691890996,4.092527907794031,-0.7974159218766119,-29.173537587609076,13.593239448064386,-1.6900918319688174
33.18353067574082,0.0,0.0,20.75056196848836,0.0,0.0,21.13958909539498,-4.670792032448525,-0.29215264285795955,14.181440262964681,8.26013648158976,-8.591852246873737,-54.011536546131325,-3.152900403111734,-0.0010238772740030148,-50.26700267975156,4.682128601449441,0.012036097129975382,-10.413192362148548,21.263359955898036,-4.629893717024759,94.29067869974126,-10.245044701185698,-7.5851032108401,15.402707758906063,59.2623741680575,-19.205185468184723,-37.71777741971003,-78.99796402646881,-0.5532763402952864,93.00965247156495,-0.000833722719206149,-98.04388471999549,44.69425689094635,-0.020085919430628787,119.72147152369442,-5.068155062464657,14.66546058001031,0.010235663069556537,1.1319427030620546,-0.6786133898694919,-0.011991880417329551,-5.562750602200662,3.4236085007763086,-3.165195489985146,-28.09424000862842,4.373822271720187,-1.6132015178303765,-27.340008909691303,13.547952406455424,-3.3006155879627044
34.76802210184362,0.0,0.0,24.121450045991445,0.0,0.0,21.59430377449423,-5.401314300876698,-1.0229908496332702,14.953695463210456,8.180597309541973,-9.96870222994851,-53.14848394775892,-3.7888956263123017,-0.0009134727273844734,-41.5302428205208,4.2438637792869836,-0.008674219674555539,-11.945042204354328,20.978145357050654,-5.000952416082182,89.4597710726521,-11.51426603125662,-5.004279411352497,10.702897168178897,58.72572731878375,-16.65058349661249,-53.11126299314367,-77.6258275359047,-13.963966685212307,92.42922783081279,0.00664584832369092,-96.46898530349917,46.87146760408132,0.006749703984203218,120.3221451933621,-2.8366240366733493,15.990604879647861,0.009487061965067446,-2.1538405589592293,0.26317225669224587,0.00019049568462922652,-6.99969990455933,3.4692669949930606,-4.058109128057645,-29.520511895010944,4.757458926167563,-2.4215772318113773,-25.009437000076545,12.475645346850511,-6.034764599556969
35.46973977330183,0.0,0.0,29.75715201041228,0.0,0.0,21.880070109783126,-5.392885236322254,-2.1604773753446986,16.828616043802516,5.566636062007757,-13.105156056574137,-52.26969204633267,-4.296001880939522,-0.0001815158785655954,-34.32140905218427,3.0074745433405585,-0.018320551377302915,-13.49440041903343,20.241518745781978,-4.048935441961638,85.2962463217138,-11.813480446657595,-3.7980742018631912,5.571851715416286,57.9481713287935,-13.896649466874472,-64.68399083249143,-75.7758566329794,-23.787695488940198,92.53064075168096,-0.001863781934904053,-93.67769812307769,49.09482676472103,0.013535624978745915,117.71378688289,-3.1490493752234343,15.961689362638099,0.019296008290176116,-4.73967937353426,-0.03425426238957119,0.008382511462618683,-8.786799206416976,3.66793361739803,-4.566778746201801,-31.30527823974239,5.1354236846135315,-2.8159144862249716,-22.92288206326759,10.409637655873858,-8.267823897376427
35.83034415189327,0.0,0.0,32.859927377495026,0.0,0.0,21.760494761607006,-5.090532085476901,-4.056518503067877,17.305623620212817,6.464960439921855,-14.023650051433286,-51.945356598365656,-4.642269223571104,0.0004389826053202,-28.74608271362331,1.7963761185881584,-0.0005286230653942591,-13.998279729866296,19.309995598363795,-2.5850668633019076,82.55981660279875,-11.648237791494994,-3.1751264078479164,0.092635018062617,57.014613997495154,-10.555551179510067,-72.77073423289559,-73.84111968805561,-30.862871740083097,93.77238270810035,0.0018667214644686918,-92.22376623754353,51.385559496106445,0.0016722767678386532,114.55132436769195,-5.494195572936921,12.081633292212288,0.03225963964547035,-4.581900023336189,-1.0385771480801862,-0.006108454828233585,-10.110539342311391,3.780908820417675,-4.750802401861225,-32.629423635880805,5.310106617011685,-2.9428139351382008,-20.952197394526163,7.9754069999241235,-9.640706544763386
36.838900705000654,0.0,0.0,30.09589116789124,0.0,0.0,21.132825986059004,-5.184904711566332,-5.780271895954433,16.12967038374572,9.0276853101349,-14.88699195033919,-52.1059477100419,-5.040367303915649,0.0003699774325357637,-23.646740084688524,1.6821319986424204,0.0037055676914672714,-13.721540898906632,18.152681084762413,-2.3263891788658797,79.76076761025281,-11.98568969929694,-0.9513844978417726,-3.2533108742112513,56.2778159468939,-8.499772073386161,-77.04903380584672,-71.30554480596635,-34.76999658817759,94.11592384647153,0.003611651629606609,-91.2652356399432,53.412150336926665,0.0019004452120672565,111.94168703396527,-5.823842711004618,9.425589802465373,-0.007105748507896785,-2.7804674395898146,-2.4267198839585715,-0.010270448630919268,-10.16559725437357,3.890742153215123,-5.074432075633282,-32.681803481733866,5.535229341734385,-3.2001973056915562,-19.762747249528477,5.384176888523279,-10.68717060561838
36.756122973513364,0.0,0.0,22.23484391765724,0.0,0.0,20.644922996780437,-6.17098431768629,-6.527666511779715,14.681357259170511,9.944992945532903,-16.576463047182276,-52.22882033954071,-5.683606140698593,-0.00010888649143239853,-17.287257430461473,2.2520702734170785,0.002980888729983367,-13.173755510417791,17.279409734873347,-3.5306351227222685,75.79875905797779,-13.19479363089942,0.8386472906617136,-3.4278046051309414,55.195909537614654,-8.817514162887129,-78.83014727111737,-68.57934511316026,-36.087959189418335,92.70602053657518,-0.011727950766152996,-91.99823251957284,54.74492362379103,0.005266176390616304,109.35734661130269,-5.384579515431497,9.724157774740618,-0.0005600486476317397,-2.1210385373288063,-3.3548961303804874,0.001917345256276631,-9.049393819828701,3.8833679583283294,-5.269097910377482,-31.561040492336495,5.602780248749936,-3.3832987926617677,-19.55225794939003,3.5753385413949212,-11.807019673848034
35.58798312951775,0.0,0.0,16.481358917933104,0.0,0.0,20.839691713322203,-6.943944502724687,-6.9199759758263575,10.550891506132588,9.267875474818332,-17.448680395777085,-52.18431447036542,-6.041401090449606,-5.00880019435756e-05,-10.334997323361016,3.449010511091581,0.020140135625716586,-12.51917298708728,16.686439084544364,-4.09982029127268,71.60905451309559,-14.869025909790935,0.36175256806181283,-2.420139680287018,53.092580954218555,-9.582730960075441,-78.87990002763675,-66.87907608352181,-34.999980506560576,91.21729881936321,0.005894200573928384,-93.57203183558735,54.53391444282543,-0.022498163632413273,104.62014665805168,-6.275599030521982,9.041411748376051,0.009337426884998981,-4.112822721074769,-3.972620034102546,0.006687564635717097,-7.874991089485445,3.8286595684283404,-4.7855479505227185,-30.39490001964595,5.3674990045065,-2.956623345995064,-20.144996413710167,2.7501128090370015,-13.042473593337903
35.12494230830835,0.0,0.0,12.633586961330053,0.0,0.0,21.721319381667463,-6.202805326691176,-7.316243866294426,3.915139431453381,8.092438424582918,-16.940902783773883,-52.127354300824514,-5.864579992565305,3.633136129731232e-05,-5.213994823303823,4.617220576358375,-0.0016328309604006044,-12.22276603843056,16.167340575050428,-3.7355216898398793,67.82590602926513,-16.738680655543412,-1.0738872419535848,-0.6459510161859201,50.59565556917051,-10.651741268903965,-76.95394451570228,-65.37523394114265,-32.45689541353222,89.83347414713913,0.003733811783598768,-93.70563623400196,52.93238250409475,-0.02359049166443792,100.87513041729157,-7.487026700077537,8.401625230248834,-0.00018115637231373813,-6.716118626581406,-4.53495510157979,-0.00328415074904846,-7.3962553875206165,4.25425561506965,-4.131038447716572,-29.94297677833338,5.510396427912893,-2.1870191533735484,-21.753514411501033,2.4462530602053345,-14.112702230842254
35.27578897945498,0.0,0.0,6.222376967269608,0.0,0.0,22.833146813489925,-4.900056429336289,-7.365357982648458,-2.220011205262523,8.154037915888859,-14.58220244614408,-51.92075765243164,-5.828849606876193,-0.0006672656350611847,-3.268801924378368,5.06839820598525,-0.013832121131645607,-12.021799078096086,15.383665501687211,-3.594633073060598,65.39024643913906,-18.46530087447464,-2.638664895584194,2.082316209315072,48.46135556694834,-12.625503848777269,-73.34853139176569,-63.41952492912737,-29.83762784344846,88.00603691554629,-0.011007972685452026,-95.25721745020863,50.92720967073045,0.01676418027305868,103.12492492628111,-8.846633625066797,9.081565932435984,-0.010372067680821714,-6.0006761939002145,-5.404578658206436,-0.010450091209344722,-7.4551690360252865,4.957401761133905,-4.146384455154719,-30.02925964602592,6.165608545174341,-1.930042860808179,-23.805654365149625,1.9749710281341433,-14.76679852878096
33.40916756225808,0.0,0.0,-2.675754151368261,0.0,0.0,23.82018266688024,-5.131429648579934,-6.978146239680975,-5.692278684510136,9.260122968589615,-12.747860569442395,-51.60988632245747,-5.943732231200325,-0.00012755128630538668,-5.441003629382367,5.233635694001546,-0.010195881143377312,-11.319114389083929,14.143904510924909,-3.9482951299648974,65.12466046500023,-19.54192574016742,-3.518597049921443,4.605100712048516,46.45729595298228,-13.966904968519545,-69.14265792285747,-62.08316605932,-27.31509401823716,85.84074909852788,0.0129705492940663,-95.82966951716125,48.57458767445516,0.03227161421964772,110.63148586070108,-8.70691563882999,11.19662051457556,0.011121589772757024,-3.0419291829429946,-5.898479351975466,0.0027397173482998126,-7.504092106400883,5.177972174961047,-4.444071026390318,-30.08352497587391,6.483113982178283,-2.120314867872313,-25.382393327984065,1.2830475363985707,-15.392333982051323
31.447034718749606,0.0,0.0,-11.082068490560328,0.0,0.0,24.559774830642112,-5.089645745166965,-6.273539369727003,-4.715609732283963,9.594141408720658,-12.991907281191047,-51.58322736913382,-5.361322204176586,0.00016218354191687318,-11.863561362100985,4.4654201271797715,0.030340047690889337,-9.790142106576825,12.69158177732566,-3.838318047726665,66.6893211634597,-19.349941892359265,-3.023410218657801,7.083647472984485,44.377535819416345,-14.823914000457586,-64.54900662687336,-61.561885219778944,-24.144105866838398,83.66363958732262,-0.005909872935312521,-96.13458116373319,45.81043916336377,0.00447503139823699,117.25947336527604,-6.301277256042803,14.004931963739885,0.026434931992324592,-1.2590084908295207,-6.032820202417214,0.0029010646336588325,-7.328133647040282,4.775429654603549,-4.330767236406693,-29.89220957251567,6.068080350972149,-2.170907473319774,-26.316049884779385,0.84033207658276,-15.91450794392962
30.85376792853987,0.0,0.0,-12.371480635622541,0.0,0.0,24.645695972318798,-4.5288303625800665,-5.013177052333824,-2.4842609515539884,10.287087615939193,-14.761991169900496,-51.81719525863501,-4.444620792521754,-0.0009349480453354819,-21.17116631402874,3.3858672176782965,-0.002640591771341413,-7.766265781782466,11.091343320028662,-3.4523333589870737,69.14787122551688,-18.455985356522675,-1.5983056560241995,9.652438682729972,42.163538000891194,-16.1603516489559,-59.44972033632075,-61.69012882151762,-20.37300445324251,82.0693426601674,0.0011352954223293253,-97.16917946168725,42.75036889007682,-0.0013153868751672282,120.68133367686704,-5.415132447445034,14.661494223563992,0.011885991254330323,-1.2419745530425925,-5.515613863825515,-0.0011154774604929833,-6.825859074351074,4.313664908526381,-3.631258696361175,-29.38126581932522,5.374139375608233,-1.701763598083634,-26.98773775566208,0.736656108906354,-16.093459817633
28.987528600048755,0.0,0.0,-9.798094277546554,0.0,0.0,24.639629401564406,-4.554074193002183,-3.8557977976374973,-1.9720789763326902,10.232419549721481,-15.649629615986536,-51.97495069033375,-3.51145435104056,-0.000977596270896003,-31.41077542051253,3.0112847682735473,0.0029074452305584055,-5.6913515480679155,10.15186430198888,-3.1985632041199543,71.26585245548091,-17.580700230131956,-1.7053625534486228,11.899713377931393,40.088701269582025,-17.926052794040366,-53.908936180148636,-61.98292147654399,-16.182852770662283,80.68074233156239,0.004076931982101083,-97.19099431468443,39.68547125692712,-0.00720353982665752,121.12757652231238,-7.713391484181564,14.279374703519004,-0.0016955458901328606,-2.207676763047594,-4.284700689988305,-0.0011945910516895975,-6.246217653162391,4.020992559936736,-2.9012166080942317,-28.798564973471503,4.8245741577100265,-1.139371406877215,-27.37751784334174,1.0905057691832392,-16.067099743925766
25.271766802678496,0.0,0.0,-9.892278564429498,0.0,0.0,25.053459661155603,-4.289135577511385,-2.7007138888627886,-1.2014040104594244,9.468699794277544,-14.964266261478258,-51.40944330976086,-3.096086633064746,-0.0016177934833069955,-41.3606336768386,2.676794895228775,0.0027970614891352323,-3.6074809372968684,10.233196045287734,-3.166258735074214,72.92948168405037,-16.014737559300407,-3.7568579032184624,13.783697676927261,38.49127864342005,-19.85785643217703,-48.96730599385943,-61.719295078301954,-12.390034179147067,79.6410488215367,-0.004420315547766126,-97.83337088249324,37.05158249229261,-0.015178923785941094,118.98593773127314,-9.799943426168586,13.722725461833793,0.001543638654081116,-3.9196952203608006,-3.8631261051334542,0.0005192912209557702,-5.921447425152425,3.7737932307622706,-2.605168310143657,-28.4681525529853,4.483012161429656,-0.960794664462467,-26.901724248259306,1.6179933203717742,-15.197439235149753
22.350383479200637,0.0,0.0,-8.561104320206764,0.0,0.0,25.34050927820242,-4.057342334347518,-0.9937923472122813,0.5713484776693927,8.652719456390493,-14.944941368806907,-50.08086780493628,-2.591077630091388,0.0010598706328280073,-50.748367871646906,3.1684609929854997,-0.040551195259047296,-1.5735120667475557,10.024290966583495,-2.567506694437829,74.61084073166295,-13.992053810658726,-4.781564684409018,15.054658796906212,37.07280968851973,-21.105126018565258,-44.54762887306091,-61.65593029638997,-9.510592307165725,79.09933478306415,0.0033764991473780094,-97.59444830795927,35.22842657259005,-0.0032002114690930132,115.61066567344615,-12.291657943601603,11.722106698654839,0.01626820469440529,-5.346914568817668,-3.704964724458351,-0.00535290341777209,-5.7954764987940415,3.32380383416206,-2.322196013473284,-28.331198464986027,3.959122692503712,-0.872202556365676,-25.640000794625934,1.745847656606294,-13.975341742129649
21.421820172617608,0.0,0.0,-6.929108226240655,0.0,0.0,24.662777838480796,-3.7173003054194087,1.0854523294228455,2.6341304777453916,7.3197648152003385,-16.008925297225968,-48.343662524219724,-1.6213556013482189,0.0005431519676470974,-59.70567519024019,3.204253172478558,0.03211995664282176,0.42335268280327354,8.91032645958617,-1.9651244945513602,75.770028972146,-12.139875092223232,-5.690236868075278,15.675623198763509,35.5659325540483,-21.346825970016184,-40.41195277091158,-61.70797565407866,-7.97480425637054,78.31679338509252,0.005860122547744687,-95.62493157612498,34.716833414843705,0.002219299969982989,114.58145565781093,-14.019806191748321,10.057380505897738,-0.003339237897634958,-4.486823867548951,-2.6368712830291416,0.016819196493663657,-5.6782468277300815,3.0269643664100396,-1.9116716703867405,-28.208548044608587,3.527875864938004,-0.6067943106930286,-24.077722472974592,1.4142009292704816,-13.294339096119918
21.121754353280956,0.0,0.0,-7.59087057105401,0.0,0.0,22.98549264141773,-3.3838910376562024,2.744592374557657,4.765528059087012,5.886548063732315,-17.418376336066444,-46.522723444967454,-0.5383565264608561,0.00027371197844462013,-68.08123747248608,2.2440439436520285,0.020574645952805618,2.608828245178464,7.756223878786557,-1.309791336688055,76.17290603114012,-10.00149577122301,-7.418083430297068,15.641412245123577,34.11945193718193,-20.849909248456715,-36.895137015213436,-61.50882461467577,-7.013932106899841,77.51153798868012,-0.0025677922835375382,-94.90138210652063,35.060128156822515,-0.004916929392270748,116.66918059219566,-12.344771668474474,10.715167012134122,0.024259534423698482,-2.1634721208571297,-0.2956146536494577,0.012866653130288936,-5.463555762425307,3.048043695343691,-1.6724019163806525,-27.995144290976043,3.4557824311555745,-0.37758466568221216,-22.15905519548906,0.8316451650317244,-12.43054890102821
20.541493114653647,0.0,0.0,-8.396271288399166,0.0,0.0,21.042980539195202,-2.5791233498039516,3.566236654935996,6.618181266021111,4.038859736948354,-17.534061548823782,-44.65695689533509,0.6212917019880908,0.002745903719829058,-75.77823848805401,2.5020085469929385,-0.0405942695688548,4.775388767665328,6.491665779901236,-0.00432448258872864,75.69054856143279,-8.299060324044698,-7.952242688651133,15.487953076142649,32.84385833325521,-20.516930651199885,-33.13609736676203,-61.65675871102343,-4.465088445160334,77.19373231255636,0.0010649033397502616,-96.44096921655736,35.113027529026134,-0.003165007630474305,116.02798521282753,-10.240640191916329,11.8348047409111,0.009595815694887898,-2.094357774104363,1.3658098469285531,-0.008204053539006754,-5.25988860220739,3.103485061714543,-1.6850660406407434,-27.792736032151343,3.5118440865695186,-0.3680056681920747,-20.200868931871828,-0.016985424837960186,-11.540216372789102
18.82319782003861,0.0,0.0,-7.168787687198613,0.0,0.0,19.184840165425587,-1.936066913580793,4.183401757714398,7.811519201735683,2.500827113230358,-15.970342802963206,-42.46205228410357,1.3217841602405125,0.0005385461169232712,-82.77805796809481,2.9322954467881357,0.00521542166788312,6.614848087178934,5.088445767098566,0.857859333650286,73.85860643673921,-7.540099412343066,-7.966835490964668,15.033844657030178,31.535810741965154,-20.34634555183657,-28.95478024472882,-62.41604614003561,-1.028131962544522,77.73944719406451,-0.003993080908099122,-97.08885064950181,35.15771790953462,-0.002375942878323014,113.49674718495598,-10.10897183617338,11.017021636949618,0.0029856958809544765,-2.9818771314579884,1.2633100003796125,-0.0009172595913882,-5.021323024338521,2.975399718182348,-1.2714344653831573,-27.551833756077265,3.2352536064021904,-0.034990487234975796,-18.539230353910973,-0.736200947307858,-11.583718536786549
17.586181855054388,0.0,0.0,-5.229822805778057,0.0,0.0,17.39549031114734,-2.380483636217668,4.64382801168691,8.75938527359047,2.296203274083435,-14.234641860036975,-40.15528264022916,1.1893079604447943,-0.00216631394645838,-89.1920552470754,2.1051544291550752,0.02797031473157156,8.814331286619256,4.1143381027841235,1.3152623678627213,71.51372934535476,-6.868650444632654,-8.801963732726795,13.63706869193193,30.585480565236928,-19.477262315121568,-25.361762105148834,-63.07124666447487,1.3549452433086924,78.61414174962908,-0.004467567159170977,-95.39581240218634,36.06643411134297,-0.003021238587451772,112.44817112086116,-9.338202979142553,10.969304834037692,0.0070875502127335606,-2.5606080630991883,0.2674656676132214,-0.003822434208822262,-5.197782253620259,2.713452503619667,-0.6163318447921707,-27.72209760656265,2.7426161988620015,0.46971030445605144,-16.283428321412927,-1.5678003059410486,-12.01148274915742
17.492268361566456,0.0,0.0,-2.59793448769385,0.0,0.0,15.790167000466434,-3.305797675793035,4.668747814020251,9.16312615364941,3.7619135207421133,-12.800546230321704,-38.125665614207996,0.46497279967379973,-0.0022875095251347808,-94.54209529725819,1.7717192553748833,-0.00934218472121141,11.254994878056065,3.7854958651517667,1.7582422940015214,68.32262804761721,-6.5190825485505615,-9.548820809290607,12.32869270986973,29.88053244217567,-19.047575858970735,-23.08843802697074,-63.378913590366444,2.389781697809201,79.15029822445314,0.0020212734872229712,-95.03375308573642,38.12345096678906,0.012020772094372136,111.32143338130928,-8.712471730284703,11.228955285734123,0.002001712864832631,-2.294355212190028,0.018332634671954732,-0.002299074498505774,-5.6543130568103726,2.9651819492156197,-0.5745251124828441,-28.183293411921014,2.959145932874343,0.6048822224314436,-13.73549912188561,-2.495578439150332,-12.12618589600816
17.15366459338006,0.0,0.0,2.0320528514147824,0.0,0.0,14.228432730259652,-3.4385082941699787,4.114537143218915,7.7778181360093095,4.892992446190701,-12.234588664895536,-36.10002456752902,-0.3140659809118996,-0.000527901417824678,-98.29181810287378,2.5087846055726244,-0.007022502191867568,13.536482103696029,3.8172151437150275,2.5105006637798737,64.02005153398633,-6.358275087341553,-9.59047541770403,12.069601544338953,29.166424320069755,-19.389918778339833,-21.42329312779148,-63.596819561017966,2.9198992564142383,79.2770341038592,-0.0009294538330595407,-96.7589268336898,40.590687110450176,0.008906092898438068,109.84733315175465,-8.911540336402954,10.91388715387182,0.0008740286214400663,-2.6881061148957253,0.41553703811106674,-0.0016001135169852972,-5.78321086573885,3.2358711442231542,-0.8384892420689429,-28.31880858278694,3.3101769082127595,0.46495184905416875,-11.432266980421378,-3.107555962021024,-11.875729096021622
16.351600605898383,0.0,0.0,2.368097296107963,0.0,0.0,12.385662212012782,-2.9280420462162544,3.3415819537342677,5.432171280271311,3.778372049792212,-12.975636473790399,-34.17594666286748,-0.7903587674262171,0.0018596218140388323,-100.59027784365902,3.595564092821678,-0.0013958216259183835,15.467051115847031,3.7828679906789517,3.6505290522548925,58.91873335478641,-5.517647961028537,-8.891370141465941,11.962839145055202,28.847770184339947,-19.71903660051951,-19.505354596452698,-63.79477651650615,3.721449888383563,79.37008353459909,0.0021848140251983033,-99.18423484375879,42.934444711135804,-0.022136263870031276,110.31450327499604,-8.416463248690647,11.24010441399874,0.00193213634621144,-2.2080428474446485,0.6193562781548277,0.00024366328216263473,-5.766975354619011,3.0528776234133383,-0.6979567631294002,-28.298187445908273,3.0873704688536776,0.5245134482929933,-9.338677859999391,-3.797953363797751,-11.37770265946335
17.16568482550319,0.0,0.0,-2.7235013312434133,0.0,0.0,10.45111721983491,-2.6689409303129343,3.3375015350556563,4.541341202637956,2.211238448308673,-14.462617450006734,-32.49411446615399,-1.2287176590337148,-0.001701218932945274,-101.40748869305214,5.012390465055598,0.0012946681559304972,16.62295684675392,3.4813073697534747,4.527924443587954,52.50563852361651,-4.502445576574587,-7.358685115401439,11.330196637580757,28.61636233677975,-20.118730392062346,-17.979189650793,-64.11692898491845,4.660423843866132,79.77262037201095,0.0006145462846578662,-100.077231598439,45.20054829340595,-0.0031358232219371976,111.65653327489221,-8.07896809868688,11.139550292260726,0.0019635110864622608,-1.8650037964146768,0.9191777766166337,7.289407353754583e-05,-5.890277838506709,3.200153830099547,-0.5603577779354828,-28.424022862773132,3.1707515430341457,0.7081352596407208,-7.727757315805087,-4.76194316354561,-10.62167061300157
16.479031678175275,0.0,0.0,-5.924530473907706,0.0,0.0,9.415050362646367,-2.6353515957532694,4.043233709915604,5.230081641446723,1.5090596034446226,-16.598009500613358,-31.042580247954096,-1.7299105296102526,-0.0010863781366424825,-100.27457019277138,6.001874204596539,0.003178982665496363,17.57400323054279,3.1990521118531867,5.356245066416219,45.42625648839038,-3.692457340746133,-6.1914792393311915,10.617701875033013,28.114395315024527,-20.324875005413027,-16.805245740759222,-64.80500447849417,5.72861922590427,80.26054827662387,-0.004254566427440209,-98.55908330777203,47.28561300521529,0.013008073448379719,110.26158304423384,-8.051324766448879,10.565614539086503,0.001864268582976853,-2.0419363391684873,1.0796325120375958,-0.0005043448228706191,-6.1123152674815975,3.4794560711383538,-0.580101352206234,-28.652320262542737,3.4362829479021406,0.7971346151299136,-6.168856717272192,-5.487638186387557,-9.511733831312656
12.781636339634453,0.0,0.0,-6.193763097463943,0.0,0.0,9.149329859557353,-2.5721230083360567,4.11075029816015,5.746425740563972,2.056733222512052,-18.31138612288316,-30.056415304631194,-1.7355340971790592,0.0015088322382242456,-97.46355736492426,6.148482427925591,0.0032285881767253593,18.9499477924173,2.947467814655544,6.967525707027396,38.73812237612301,-2.6990710862355636,-5.507536947954393,9.799733230905984,27.942871844540303,-20.093067480793394,-15.433888356394087,-65.47766362765222,7.091899150722719,80.95363559836187,-0.0006558208546275163,-96.73669868716517,49.45372622660393,0.0004691628576472817,108.71399489817045,-7.324891678990234,10.640183881936395,0.0015183529736728543,-2.3675209438284965,1.3612066401736747,0.0007063779003754489,-6.459152730802242,3.339077156270233,-0.2813739548306011,-28.994226072172296,3.1923239820500537,1.0191221699776698,-4.306655142947374,-6.076536861206703,-8.11728965819639
11.598577184800071,0.0,0.0,-5.629282468225997,0.0,0.0,8.485674292066273,-2.088767382718703,4.314408235189777,5.45011954200851,3.1528098893650767,-18.50945336586486,-29.511554649691025,-1.7773155508773215,0.0007698540053783019,-93.49579884939834,5.638515427881217,0.005523826177721897,20.782104584088756,2.4931849781738857,8.376480918954043,32.81758945350308,-1.8273844964505366,-4.7239914199120605,8.85547440186945,28.031112620636897,-20.038764169480878,-14.802004928476963,-65.75647341588915,7.851069404786793,81.73970873281996,0.0009616271212688935,-96.38145754961607,51.85619364022728,0.00044931772382773643,107.5976812719656,-7.865141676725822,11.144975875707795,-0.002896100390478323,-3.144702274526171,0.9322227716533721,0.004041970363301722,-7.034209046381924,3.414135179818711,0.02684510296347641,-29.568463115630372,3.1437422367121646,1.3325545650981065,-2.1625715902495224,-7.026801613492999,-6.313840864788055
10.49012602853879,0.0,0.0,-4.095471798612175,0.0,0.0,8.230449905439984,-1.4467976369576554,5.680081087110877,4.882260556949,3.657114523348843,-18.69555005797273,-29.22966893724066,-2.4985184517080787,0.0006546675602919058,-87.86625738872992,4.4043366460931015,-0.002548916616556332,22.60693608874461,2.2206625721498896,8.726436745280834,27.293604125402712,-1.0049847600807806,-4.0875361827421255,8.158668291845219,28.14115707286909,-20.178607830990913,-13.852609815297479,-65.90568971884856,8.486439101866853,82.66350025573067,-0.0025995651063010637,-96.32944395504502,53.82268489396558,-0.0005159951383894304,107.05110453717258,-9.15221511943444,11.908195700068115,-0.0009555717713401852,-3.441783046224206,0.06500257203748365,-0.002792894214019706,-7.222586455987168,3.59544269248259,-0.05386616550294844,-29.761490226808828,3.3420837776971872,1.3276346422226561,-0.17995111277060427,-7.985237096676037,-3.9825629969427307
10.087770444120165,0.0,0.0,-2.263864552041587,0.0,0.0,7.9715070813089905,-0.9580510947676262,7.588963147686684,4.959603435642795,3.511379300407601,-19.470150318138398,-28.69190444143914,-3.7587457529751056,-0.0024566958047206383,-79.99272269782378,2.6355670426069255,0.0009012824834767844,24.046282923295088,2.4670954355511596,8.214710114610062,21.488256490715187,-0.31981714266744843,-4.416237250885435,7.508899939987031,28.107500480515164,-20.003346021708612,-11.661037837476771,-66.05784181880568,9.672080377943301,83.77326443817982,0.008261630380668645,-97.14986067458682,55.313349792972055,0.0017299890261834848,106.08184366046689,-9.98026467260059,12.012454211961007,0.008883912371044229,-2.6562406756046495,-0.7805174886928058,-0.0038709532287916405,-7.018524570886876,3.4702086055216737,-0.08416822883333905,-29.554924929681924,3.238006108507946,1.2515705510991764,1.4723256997427423,-8.445762232900993,-1.5990198047985655
9.5601515812246,0.0,0.0,-1.53131004432616,0.0,0.0,7.534248685380086,-0.8933309672016976,8.722122411335443,5.859510384370634,2.934410284352719,-20.2515868782377,-27.93817516688627,-5.094772142192538,-0.0016566917709921255,-70.236969936855,0.7057355209622969,-0.030736702491843595,25.25033921689658,3.264276082709279,8.380603046068513,15.703707251615457,0.08839230336931356,-5.298300997164739,6.7945121879863,27.98232712076059,-19.372824452464933,-9.188808287178396,-66.04044713942503,10.74074264996737,84.6811992214762,-0.0005121812155673535,-97.9867604841408,56.93589111557407,-0.012429360296488876,106.50331703895453,-10.38580965019744,12.160226186110641,0.018837844570055884,-1.8362349319670082,-0.6137171448625384,0.0021313581384875924,-6.96507001688553,3.344198993332921,-0.2054065757518546,-29.499721693123803,3.1680026531677186,1.0912532349882342,2.8766213109993553,-8.585123688273963,0.8242955784078756
5.806762295092284,0.0,0.0,-1.4166013374163964,0.0,0.0,7.994744266030225,-1.1455054302993921,9.881104158410142,7.296491596718704,3.144793135052088,-20.763556214950828,-27.815299281153813,-6.035436706093333,0.0019240991513374745,-59.98351698325803,-1.2761176302410273,-0.029037586602847016,26.538964708311237,3.948638461493891,9.471500490495036,10.614669249485706,0.022068860198082588,-6.085258213690319,6.3583088249913455,27.940797893693954,-18.692839414587407,-6.565582864276823,-65.83174599300074,11.581287307022215,85.34791785432095,-0.0013449800600013025,-96.6141430335563,58.2729359338654,0.0042349567925226515,106.33951933177278,-9.55451497828914,12.857556316482416,0.020524560932650704,-0.9118443470352595,-0.1276245922838237,0.00011879743169113838,-6.716390310766649,3.165316022001641,-0.5369637634687311,-29.2492709709293,3.1296252251016035,0.7163798701877142,4.032912197316166,-8.982661829117331,3.546892890720471
4.423515266909817,0.0,0.0,-1.7506945997932764,0.0,0.0,8.17568668354028,-1.1018599535773759,11.531546628235139,8.713090997353987,4.030334092626254,-20.117068388338836,-28.411745603482515,-6.456838016780009,0.00013485979274038438,-50.73708258942646,-1.7085638045033338,0.03297568250419738,28.37923718559565,3.788000356595367,9.77183345867384,6.617433952131969,-0.8714489157688049,-6.196267427831906,6.136367859945651,27.859725581965687,-18.279780431803047,-2.473985237027543,-65.50510116872195,13.941334979623607,86.07352831755018,0.007489912851784709,-97.52171426220514,58.634438510617954,0.003408987349892444,105.36940555758785,-10.604881166203725,12.64948902320829,0.002935173096001473,-0.5892856261011258,-0.6431515569562112,0.0011982648174078412,-5.852702629099653,3.099893301021305,-0.5632621451458153,-28.384349431286967,3.0792656793187763,0.6669808058514308,5.0212609820720795,-9.771567093551571,5.689164444270417
4.577968739342722,0.0,0.0,-1.7285695181550893,0.0,0.0,7.916872479778405,-0.7362784383390468,11.982961160744846,9.184370585956001,4.712906086187762,-17.932439043491847,-29.077537309976186,-6.354226267486694,-0.0002939088679008669,-41.70716032163553,-0.8896581396949085,0.01168865774539813,30.505959405998684,3.4063832254800337,10.37276753976412,3.3055485329464407,-1.8734550728628858,-6.323890593034269,5.997366283122393,27.54140914915777,-17.818018278379547,2.3524917272370045,-64.8060811657539,17.041744007034858,86.81894224342466,0.005003941319127036,-99.41700203509907,59.1943705825939,-0.0018204877726791387,106.31538992105945,-11.22112711346117,12.731129129035441,-0.006244364100800348,-0.8730545020801614,-1.290805410312551,0.00023527213209962076,-4.99509973898474,3.3060173017200567,-0.2275485378079809,-27.529108072091784,3.141210955675017,1.056147587915896,5.810631051588634,-10.367938643192094,6.831747539145053
3.7168832356662613,0.0,0.0,-0.21040240227269186,0.0,0.0,7.699128963148248,-0.36055071691959295,12.376826000492471,8.970492689574101,5.075134767053625,-15.300553210380526,-29.997835884018826,-6.275595496629933,0.0010730069143264562,-32.98103280683168,-0.14122294641134836,-0.003170520651104467,32.83467448045246,3.332188090169697,11.127176969064692,0.7566328815597612,-2.56384733025812,-7.29793265927063,5.854168833152912,27.255895261792777,-17.253652906771723,7.017719361249965,-63.52033340519939,19.483966428130437,87.64523954559823,-0.008659208109308045,-98.26829462312747,60.269021817028346,-0.005313568749411943,108.35146581985774,-10.254753965587973,12.43178379588175,-0.002240748385285007,-0.7814877330431322,-0.6806344869629763,-0.0013573754834294044,-4.231143349399239,3.191965527588361,0.13850888516209758,-26.759898143008233,2.895807393635297,1.3504165414372795,6.349716409445669,-10.758718200281534,7.54229031422475
4.270535231578453,0.0,0.0,2.5918219844196777,0.0,0.0,7.106615725255118,-0.6562496228223613,13.454514091397522,9.799963995455327,4.591676526608215,-14.548482934604786,-31.181332285305423,-6.020469519203417,-0.0009455813818133398,-26.52119086035971,0.8359906251009942,0.007705935532723424,35.3681018380735,3.3760853574622485,11.740040675331791,-0.5693499077430381,-3.137768452951627,-8.082315487243607,5.641923978742861,27.159601096305874,-16.538543997466544,11.585980752640172,-61.920750503754995,21.59429636789274,88.5478160884305,-0.0031923795742981884,-95.12560321872905,60.94738539509319,0.0007061630593550719,109.27288637948338,-9.380032177516739,12.547619221035434,0.00432213511479122,-1.3157628536987689,-0.5354773900112247,0.009160995469531507,-3.2026361081975376,2.7696817189400256,0.6188576314272329,-25.719233396257557,2.321985854358205,1.6320689726222497,6.650388434955866,-11.233695682465834,8.190637221042694
4.726941785359516,0.0,0.0,2.835273706064828,0.0,0.0,6.283975251764085,-1.0918721534443518,14.572723512330397,12.210926170598823,4.237668100265571,-14.751156472802178,-32.1095907499242,-5.447728983663563,-0.0006417394533534709,-22.7926728219022,1.4044480686399483,-0.005335648886482906,37.56224195586206,3.6838600735179257,12.250678108817521,-1.1564929992166868,-3.3101662029034906,-9.270449145128051,5.3584049770493065,27.02727056359085,-15.53113703601496,16.384277573524766,-60.096745731079736,23.821480422273194,89.43190500438362,0.0066738143743872765,-94.47019859763209,60.91262410753647,-0.006205048165504987,106.19621141736044,-9.386726782870861,13.31484828353088,-0.004949529453385379,-2.5064832751246495,-2.244720973199712,0.008896148335008154,-1.874077180366275,2.5669860021453568,0.9540494760966366,-24.383817500926856,2.0065390850473515,1.863933769515847,6.506471284569185,-11.311300853904749,8.838041339286711
4.073120870161796,0.0,0.0,0.8946264437924397,0.0,0.0,5.733048538339571,-1.2323311116937503,15.992545643034912,14.810985168711944,5.159074088472073,-14.032370676931896,-32.74046026265899,-5.23236696753428,0.0007460371026929644,-20.20543153001088,1.0961731442479101,-0.006317159371196272,38.98360749146812,4.398444164523537,12.032103665135676,-1.852857672088993,-3.0030028193853693,-11.500326875578828,5.292712165142437,26.775692070011882,-14.724311583709023,20.99726056573476,-57.67175179196326,25.598403898591815,89.92529360973536,0.0004836898070316054,-94.71663187082615,60.791345046123446,-0.0003414307093618736,102.07418507472788,-10.16962432856233,15.65221019326801,-0.003948614477504418,-2.934023154563715,-2.5763964763012845,-0.002134940112514571,-0.57868862888543,2.3317165448616626,1.3153321949320533,-23.08077303617982,1.651018428481809,2.1074697776183733,5.747514257778101,-10.97629924473129,9.56098836672465
4.120927076615945,0.0,0.0,0.5797193625686772,0.0,0.0,5.220523327582364,-1.2266407489548607,17.51181939054791,16.632903709776425,5.092401348109237,-13.141289180250753,-32.91942029855095,-5.23665692743357,0.00023250474224918006,-18.07741114824459,0.8996404003193365,0.0015016980681253835,39.7287148470267,5.096060885431361,11.530954475399998,-2.430394806424277,-2.660272125186518,-13.476604494703816,5.483467974565384,26.50048414122356,-14.27573360627703,24.819861590624214,-54.9123309085523,26.637516161123955,90.37687360926975,-0.006277077329482581,-93.0872788041159,61.13238384004682,0.004273232164840989,98.96431814243827,-10.140872699862713,17.24799144399493,0.004754571226077518,-2.948546388463283,-2.2385696558068955,-0.0008219177197060792,0.26843868184961256,1.6427571498716687,1.9791412002974584,-22.217988239232213,0.7606647401282537,2.4568899183223207,4.51887504094527,-10.611988966989674,10.091564106519945
3.5605758984658613,0.0,0.0,0.8793899758828485,0.0,0.0,4.727287939454302,-0.3835930938231676,18.224532991230422,18.256544771702494,4.572670332172901,-12.319794161566145,-32.82555115120155,-4.945738462001146,-0.00010007617087245485,-17.049313618630688,1.2348127850391788,0.0011778890001244097,40.25192985541397,5.44952106697908,11.61461466612003,-2.4643447484281538,-2.6510122507695493,-14.585532967041791,5.702443703416768,26.238214832075116,-14.181146612230659,28.1508914154612,-51.99365669856485,27.82913949310591,91.01184682882335,-0.0003798840705634567,-91.76339230450425,61.56971348757478,-0.0012063691414354331,98.10721058939578,-10.909599219737066,16.145754258657448,0.007358567439500603,-3.2180813141747056,-2.80658043622741,0.001796767395048438,0.7871227255576893,1.0735198463447753,2.652028141787651,-21.685941645279428,-0.022523865182628167,2.860832657444998,3.2790002011794104,-10.263648540224692,10.005930945523733
2.9891311792563813,0.0,0.0,0.8898740343006676,0.0,0.0,4.212780680089277,0.1444250145114553,18.26827317779983,19.57849977372616,4.9676237834300565,-11.56556361551931,-32.74758539521101,-4.3886354188513,-0.0005162846026693761,-16.646099788536517,1.526997453902084,-0.0005054892761389686,41.06668080545914,5.809895401655472,12.035919772171308,-1.900613311614705,-2.560745996402214,-14.635233703337775,5.9406563476701475,26.054321611394126,-14.376935417463612,30.632558873551204,-48.7240093167546,28.169318068273597,91.54198878595581,0.0032366667626349075,-92.53448783953199,61.93480444479065,-0.006352231195455801,98.85671020771005,-12.722033741793757,15.070792152762891,-0.0012614432374044963,-3.4058467890478377,-4.011153008224298,-0.0006813450231901453,1.2401887492508283,0.9780711975197399,3.344498090761699,-21.218383558024286,-0.3753013468659645,3.4641765967420217,2.344681681438446,-9.771256612490768,9.783478646159221
2.586642378378746,0.0,0.0,0.9600220234756531,0.0,0.0,3.3378448161466783,-0.14037788370242593,18.401237047432435,20.304937584643294,5.526346486257493,-10.81828328965178,-32.32513986025285,-3.993999983108204,0.00016594468817258623,-16.50382366885493,1.4920875605113546,-0.00018943147445843426,41.72604190145011,6.231695520307213,11.926399328799612,-1.185352718359127,-2.275208550929402,-14.448559472894017,6.208409575173051,25.944791207977367,-14.760697096215658,31.873423177791082,-45.55079805761043,27.41767330473556,91.9476264958957,0.0016510546859572733,-94.2289205475044,63.29639115555989,0.0024109768691610457,98.48651007495653,-13.133618181654239,14.799900427619537,-0.0013853342846560238,-3.2475128999977185,-4.29267198606837,-0.001105752683873391,1.673894867216006,0.6330582439354477,4.276880847698573,-20.76248590238123,-1.0501663723861474,4.194144849545159,1.3932150550565787,-9.144847794217492,9.84608376421346
1.995068382568324,0.0,0.0,1.0864260949005045,0.0,0.0,1.9454967912777579,-0.038474346216692934,18.461111752792036,20.769116475417114,6.213690469125162,-10.091506031525915,-31.425296205459762,-3.658749245203019,0.00047435530122991084,-16.654901719427926,1.3699399544319368,0.00016674224474313244,41.9995706831514,6.562954735353835,11.86054849418902,-0.4654013803934035,-2.1023996293550034,-14.53488845803686,6.380900536170263,25.674879033483624,-15.248162560670838,32.42474829976161,-42.72769514098128,27.08494762896494,92.44821428992111,-0.005845689428999462,-93.71650240189092,65.58786634147513,0.01066464660338925,96.13410847999086,-11.897149182547132,14.77941748098113,6.799893817913947e-05,-3.603642077895647,-3.457560252908655,-0.0012011390869692664,1.892213189649331,0.0066891891843845995,5.078144102466573,-20.52662745463732,-1.9348384000326895,4.695992646104111,0.5121731229343192,-8.530454909162,10.121563841954242
0.9662648547045336,0.0,0.0,0.6594389262595213,0.0,0.0,0.8135114466155472,0.32769634622703203,18.703429162665298,21.134933490361703,6.654624926651289,-9.254038182282141,-30.482159545221364,-3.453335000642333,-0.0006247465313540245,-16.79059525832381,1.3574492318131834,-0.00018833134816510048,42.115005027676276,7.084395969112443,11.893230928280905,0.21815415418529877,-1.8455101638205194,-14.976482624122855,6.7153987818556935,25.175493414868576,-16.187455637354148,32.05690609600506,-39.942020705466504,26.287112183483387,93.12872479131376,0.00044156977678188865,-92.1630401078183,68.05979048030116,0.002107023380007579,93.40100244051762,-11.24972848312482,14.269856288632784,0.0024480218201006934,-4.286428547971509,-2.9535344317729666,0.00033079161054434803,2.1358507252766947,-0.48884552410007087,5.248923141529627,-20.284903000508724,-2.4580508681949147,4.6648478321843445,-0.3149067995285191,-7.8430795410831715,10.56856964569993
