PaulMeinheit/Bachelor_Muay_Thai/processed_Data/N3/teep/scaled/JointAngles/scaled1.csv
L_MTP_ANGLE,L_MTP_ANGLE,L_MTP_ANGLE,R_MTP_ANGLE,R_MTP_ANGLE,R_MTP_ANGLE,L_ANKLE_ANGLE,L_ANKLE_ANGLE,L_ANKLE_ANGLE,R_ANKLE_ANGLE,R_ANKLE_ANGLE,R_ANKLE_ANGLE,L_KNEE_ANGLE,L_KNEE_ANGLE,L_KNEE_ANGLE,R_KNEE_ANGLE,R_KNEE_ANGLE,R_KNEE_ANGLE,L_HIP_ANGLE,L_HIP_ANGLE,L_HIP_ANGLE,R_HIP_ANGLE,R_HIP_ANGLE,R_HIP_ANGLE,L_SHOULDER_ANGLE,L_SHOULDER_ANGLE,L_SHOULDER_ANGLE,R_SHOULDER_ANGLE,R_SHOULDER_ANGLE,R_SHOULDER_ANGLE,L_ELBOW_ANGLE,L_ELBOW_ANGLE,L_ELBOW_ANGLE,R_ELBOW_ANGLE,R_ELBOW_ANGLE,R_ELBOW_ANGLE,L_WRIST_ANGLE,L_WRIST_ANGLE,L_WRIST_ANGLE,R_WRIST_ANGLE,R_WRIST_ANGLE,R_WRIST_ANGLE,NECK_ANGLE,NECK_ANGLE,NECK_ANGLE,NECK_ANGLE_SHADOW,NECK_ANGLE_SHADOW,NECK_ANGLE_SHADOW,Trunk_Joint_Angle,Trunk_Joint_Angle,Trunk_Joint_Angle
X,Y,Z,X,Y,Z,X,Y,Z,X,Y,Z,X,Y,Z,X,Y,Z,X,Y,Z,X,Y,Z,X,Y,Z,X,Y,Z,X,Y,Z,X,Y,Z,X,Y,Z,X,Y,Z,X,Y,Z,X,Y,Z,X,Y,Z
-3.2863800000000003,0.0,0.0,-1.7637700000000005,0.0,0.0,-9.117860000000004,-1.7487200000000003,16.66112,19.013800000000003,5.8152800000000004,-9.554030000000001,-14.157090000000002,-3.7495600000000002,1.0000000000000004e-05,-10.59914,-0.49547000000000013,-0.00011,35.23283000000001,6.112190000000001,10.80154,-0.040940000000000004,-1.1416100000000002,-14.002340000000002,10.468400000000003,17.299210000000002,-29.129930000000005,13.796630000000002,-15.32189,35.94699000000001,107.09083000000001,0.00032000000000000013,-89.17847,99.27082000000001,0.00010000000000000003,85.19617000000001,-10.987090000000002,7.723640000000001,0.0017400000000000004,-6.555710000000001,-10.923750000000002,-0.01049,5.463830000000001,-1.6067500000000001,13.229280000000003,-16.555800000000005,-6.513760000000001,11.64935,-1.9608900000000002,-0.4449200000000001,7.71506
-3.1701240720014066,0.0,0.0,-1.7740418101461886,0.0,0.0,-9.015530269025334,-2.1551538470802356,16.60125702566256,19.102537385522478,4.905465974974662,-9.502881109616519,-14.058710265895181,-3.7136004124914948,5.249599715135547e-05,-10.40026675001938,-0.26532824195999444,0.00010794247745348597,35.12084165233067,6.1131460751992615,10.918872956073173,-0.23315889705471576,-1.1667247185132212,-13.857723117597649,10.50866473544839,16.953431009876972,-29.03087544510192,13.823467500720195,-15.638209842425546,35.62313321262175,107.11966297232225,0.00017579092722687769,-89.2474697292339,99.61799090188262,-0.0012042739606700024,85.40748624596866,-9.544596988654156,8.080358004333737,0.000178037568618436,-6.313712348926394,-10.151620934506326,-0.012547021547434346,5.437518764040631,-1.8457242389459787,12.976013092426815,-16.611879742146183,-6.64029556306177,11.322878099903013,-2.0935770150247324,-0.6777727462703054,8.01838214618152
-2.3918795853364383,0.0,0.0,-1.5670535666227816,0.0,0.0,-9.236820010391327,-2.2692274485005117,16.194862902799823,19.153806716608802,5.0792051609467945,-9.56104594007215,-14.257779053377437,-3.5602422404690057,-0.00012082285285171403,-10.187687726322624,-0.0800506324496067,-0.00013889626006319015,35.19911449403567,6.06485734253165,11.178739562445145,-0.4726108231571226,-1.2220266817500343,-13.905822811285873,11.364798041996139,17.001277981827876,-29.741027477247105,14.029920149995418,-15.708689560294184,35.423435133807345,106.97285670863259,0.0006384601212169321,-88.57064752910433,99.43150978655439,-0.0035968227895904507,83.38474663429778,-10.39304020829842,7.750836139380538,-0.0005125430188120727,-5.994680059160463,-10.415467116274941,-0.024062323224103378,5.4261011493523075,-1.8322320386715714,12.59305357947488,-16.651220420486734,-6.484021300038758,10.970912784792771,-2.1011481206609064,-0.9502224094689176,8.099440346856346
-2.59638300530653,0.0,0.0,-2.3662499621737885,0.0,0.0,-9.022642337936068,-3.191416686558148,16.695728426126458,19.287990055363718,5.8394474136835495,-10.186393548469564,-14.330274229958295,-3.631899301180512,-6.688529870465822e-05,-9.821381655575141,-0.041673745487991576,1.699334381979929e-05,35.263910469771886,5.968147684654042,10.848517382831117,-0.6843773632984188,-1.2438057806142386,-13.467734487563177,11.939718067019784,17.22533453645885,-30.60216080137163,13.955992169321936,-15.740836012693352,35.19354298539982,106.98009883320928,0.00012430655033963232,-88.0695374851541,99.47384331057015,-0.002593424117348707,83.57454202604838,-11.137149851612033,8.589625453584851,0.0008420676949558737,-5.927070931259553,-10.610087271425595,-0.022112949677863623,5.27971251970247,-1.7906126845392463,12.350561002011409,-16.813455256337498,-6.354326989631878,10.760654107349655,-1.8806586003114258,-1.211321464350645,8.169926405139357
-2.7120807222843104,0.0,0.0,-2.4576661031473335,0.0,0.0,-8.903175263934196,-2.7712584338966813,16.782474170531632,19.257024408957456,4.955217971407569,-9.77930918060945,-14.45418882058803,-3.859976766141996,0.00019168574244003123,-9.4455414971944,0.18858522531044936,0.00017473204998061172,35.27923231322863,5.919647262841908,11.007670035982756,-0.9178549793455997,-1.4162164472080863,-13.781139041832812,11.653914379565354,17.37555967542902,-30.38935547229236,14.14019624434483,-15.838658707286854,35.10408455126474,107.09182433590261,-0.00010135336190890255,-88.45687949134165,99.27054732167203,-0.0004585617033529415,85.51956123465418,-11.15546999813043,8.4893380795254,0.0003606546165102424,-6.201860844447365,-10.006692099323763,-0.008129709751563045,5.884888638937679,-1.9853996021107714,12.24515852572863,-16.224053650491204,-6.4951654465138,10.588681538565497,-1.897699607291548,-1.4565367320067835,8.405713791374298
-1.9962330140053137,0.0,0.0,-1.7691088742968093,0.0,0.0,-9.152807400655536,-1.412363955304222,16.4921713702697,19.062445311890905,5.356177221085841,-9.2329335035499,-14.84814663339924,-3.9128698053639406,-0.00012299997354920026,-9.108901151814887,0.25118527901670673,-9.325503209657276e-05,35.419885425607085,5.966518880258283,11.091194633171225,-1.2520057951485792,-1.3357460465728952,-14.505455870337403,11.810960199185649,17.27529914685064,-30.116432157581222,14.317203227304235,-16.043535109062603,35.27603960823126,106.70110913226922,0.0002997839647405382,-88.85841819966006,99.1367753395529,-0.00010228760156612786,86.6899491953566,-11.316038226136957,8.461682117523582,0.00019261705162241136,-5.770547027410336,-11.260018186732452,-0.0006196792916864309,6.086477349022278,-2.45101885833908,12.418154045708372,-16.03093772875413,-6.991599242878688,10.573443920863406,-1.943292552231317,-1.3982670228218035,8.345747452659749
-2.9164877619854326,0.0,0.0,-2.237479338835629,0.0,0.0,-8.568738959627861,-1.932314246175949,17.041733360522326,19.212842491473978,5.241765510549816,-9.734935018303949,-15.153738523670311,-3.9631914010571374,0.00022141585550084506,-9.050519715412644,0.20515723319624155,1.0959627619243516e-05,35.51390899371728,6.0741351065477875,10.601872074021879,-1.321486345285861,-1.1953236858800123,-13.933269055515192,11.692886504089678,17.237057878243878,-30.02306006996356,14.343716718421097,-16.018839166369027,35.38166172021792,106.69081936020734,0.0008723136935908401,-90.01537653626512,99.20482345090133,-0.00017401477323821047,84.81315613086531,-11.810325996951887,8.219994807375404,0.0007836038353176663,-4.908059124199347,-11.702361617435823,-0.000442593464203671,6.0476549930356285,-2.2296702567118225,12.195825264041233,-16.075394075195977,-6.702903177935423,10.450134132080429,-1.9448842322841637,-1.4788476819281486,8.329496142766992
-4.076017837586015,0.0,0.0,-3.4635388196636345,0.0,0.0,-7.8914849438089405,-2.2934155545269834,17.426547541751404,19.59584550854911,5.557164510242962,-10.17156447562801,-15.499396634575675,-4.227354673916798,7.930113000397498e-05,-9.14094582010056,0.26762017465327154,-4.216316239928492e-06,35.70521101168163,6.154719808615908,10.305441493185167,-1.237592416221555,-1.2817635511899221,-13.471327839236361,11.507303701343648,16.901914035258432,-29.645762256787084,14.490292461065449,-16.146949843988256,35.36355071448555,106.30442978392621,-0.0011040425487807027,-90.91015907520725,98.95751262082126,0.00181747972140244,85.3554982787635,-10.534392627179622,8.551647827757144,0.0015756796087116264,-4.289230927006637,-11.902286809008624,0.0023663069650397823,6.01066730916726,-1.9754819058778477,11.965228755590422,-16.117420498750942,-6.380635100948247,10.33162222784857,-1.9655904559640018,-1.565362744007587,8.486091005058832
-2.233437515490622,0.0,0.0,-2.214435239177704,0.0,0.0,-8.542451506974334,-1.7540813686567267,16.765525856622205,19.28556617336935,5.969555108909616,-9.269123937647429,-15.640169539631067,-3.949769167411067,-0.0003764647200532778,-9.13850698756303,0.14682329130190547,-1.0704225391442672e-05,35.796539798100646,6.1108336974548765,10.861449096143664,-1.2673175355475275,-1.3471176114797185,-14.46977267690464,11.957598215441838,16.78692238013407,-29.8658916103432,14.823118546357993,-16.332000943523365,35.119182669932286,105.86531446116116,0.00034476230846659166,-90.53582069289482,98.76763098485726,-0.0009059320179167738,86.06245769180664,-10.194654230389574,8.01268927550133,0.0015356842173118942,-4.570221693060043,-10.987812316826247,-0.007295993932036398,6.199316158438085,-2.101690163444892,12.005849827218475,-15.931342420430823,-6.512836975720129,10.32161444527077,-2.0427236682160985,-1.578606542735938,8.761419265523823
-2.2581758773152125,0.0,0.0,-2.4405173911964453,0.0,0.0,-8.195874406832923,-2.209752086557957,16.688011818809613,19.223971196599233,5.7395154452083315,-9.289937033310371,-16.05516394810701,-3.9342052066684388,0.0006124563507556265,-8.998486769227998,0.10331811281110462,1.1290150115778725e-05,36.02182259509497,6.316524597562805,10.93582627515565,-1.2463145850547823,-1.2335555495188513,-14.213168781945502,12.220737927559073,16.633382332898957,-30.11699686253675,14.864801601830557,-16.57879689723241,34.82006891407782,106.05302781450855,-7.089162196326118e-05,-90.4865402799765,98.91861519627399,2.5770012915881752e-05,86.6987197281158,-10.688894932101578,5.505244177210578,7.359857100219718e-05,-5.645973389336769,-9.790539876536814,-0.0050721485126392785,6.312297112579113,-2.3011741266656323,12.031072084266453,-15.825335898541068,-6.70712427985072,10.269454200823887,-2.1114248281752976,-1.500471084240067,8.995848280545527
-3.147597074529091,0.0,0.0,-2.746652546627446,0.0,0.0,-7.733705996764069,-2.129632806966112,16.77602278148698,19.285340402369176,5.102302399964831,-9.639320552579619,-16.50975366468798,-4.191248843529913,-0.00013287618108744146,-8.73311505551043,0.13268182939505183,4.988500117045606e-05,36.40758708163284,6.4090656706214295,10.886180166213178,-1.1640579459696805,-1.2398324907706053,-13.75337531020746,12.22703044582473,16.693192202683843,-30.379454759735275,14.893496055133058,-16.335035496205396,34.952149677027954,106.01647982809845,0.0006563097917985258,-90.03931555924419,98.7800029850867,-0.0006036686162528218,84.21144189249416,-10.097988357731708,5.900957430995983,0.004451743709180412,-4.614830430102018,-10.379849640611035,0.0018807401672892253,6.077783324357707,-2.0645960065860742,12.260757861964484,-16.033465795892713,-6.574403357151872,10.573210561989072,-1.8715760721173118,-1.6910037233567254,8.843386663191374
-3.1512474840623774,0.0,0.0,-2.8484818022684264,0.0,0.0,-7.741900500131093,-2.3806202202389026,16.529969471783765,19.06882795054414,5.090394344354742,-9.432131125369688,-16.74281029439015,-4.1065104573267135,-4.3087108534158924e-05,-8.472236016118453,0.09776607633643297,-1.0216786980892237e-05,36.68080301131662,6.474058069701325,11.108711778500018,-1.104399910409946,-1.1743952543900544,-13.927691950061462,12.623756775073817,16.658155742286908,-30.47351873976038,15.210629322892244,-16.37771925313606,35.22930247516044,105.42903209710866,0.0010737623626011102,-88.87013786078077,98.56249877882668,0.0011534801530163322,83.6614640443468,-9.292255089582685,7.628194086275471,0.00046049109350337696,-4.951212863249865,-9.186888409124808,-0.004911408085628,6.197242787467914,-2.0265730776453426,12.441939384018955,-15.899432015492327,-6.607302548717967,10.756487341412235,-1.8096573702733738,-1.7383730040230232,8.586115011470882
-2.987904933556042,0.0,0.0,-2.8395210244186457,0.0,0.0,-7.7591958708140005,-1.9050936589119247,16.341238697398033,18.923069243875485,5.719698175346858,-9.428306079223463,-16.871972762848067,-4.1830959130601295,9.862468978903586e-05,-8.304328193281165,0.05226323223954304,9.33331225332924e-06,36.67735666109447,6.70479585465797,11.582021883405378,-1.1760661977186728,-1.1636877011312572,-13.936471610009153,13.129888420259599,16.714081767946126,-30.82108985506138,15.481555065508674,-16.765721549184693,35.30454791843979,104.8931972891501,-0.0021258384662815794,-89.03802287893728,98.8413483993229,0.0006611135569032989,84.99731623450786,-10.143042430879152,9.785288027113143,-0.004371031946488184,-7.949313841336196,-7.42504213245775,-0.007651594451692054,6.261673579588217,-1.8573325151852667,12.32784792587059,-15.835932682627272,-6.407610022294058,10.714236605309624,-2.0892436470094813,-1.710119921707928,8.75122630041753
-2.7070410239112657,0.0,0.0,-2.1672316364686406,0.0,0.0,-7.653493963903892,-1.7196916273696,16.209615794076907,18.604205110124212,5.535997418224376,-9.050594758012199,-17.097536920902915,-4.2381594041134205,-0.00015004958942150395,-8.122694916460935,0.03446035590063108,-5.210591075837411e-05,36.64682896829107,6.843368499874559,11.82686601379841,-1.375928132640139,-1.1324873795459194,-14.11964378489661,13.633645015058814,16.564515082846,-31.277505846701793,15.919985773577286,-16.754136425320826,35.541255771085034,104.44319810601957,3.838787712129069e-05,-89.84129298206204,98.58074284005218,-0.005227921577364185,84.85203303239092,-10.898902192929777,9.607463728393506,1.258220665141291e-06,-9.349520678868533,-8.417867315178654,0.0013701333367147793,6.197281612415128,-1.6440846049208817,12.342400049246535,-15.890409154443661,-6.215485396078224,10.808483582903019,-2.4225113504411286,-1.7363838886567649,9.015490627397721
-2.5703397316660266,0.0,0.0,-2.5181975865330384,0.0,0.0,-7.424957326496938,-2.0339912862454326,16.29727836234277,18.533367974153403,4.966647245385838,-9.00341828987597,-17.590284544938044,-4.000124278573768,-0.00031881572353124237,-8.111124631183568,0.21938264470971802,-0.00011303851796744998,37.173920471431835,6.766961527839585,11.616403463574233,-1.1135541563946847,-1.1966796068435455,-13.992611913986364,14.709043804558004,16.386102525920126,-31.947629465692916,17.013744410433322,-16.640619869276343,35.9851103360059,104.2186258579007,0.000978185527767936,-88.2681882543908,97.88528964178752,0.0032438119176937787,82.86220387437571,-10.30425917773671,9.380649756714522,0.001141092760343235,-8.507433442371909,-9.300963921516608,9.816617607863031e-05,6.286015983198157,-1.8423400167600401,12.648854460387552,-15.787647606633856,-6.514345392840587,11.019099456212832,-2.526830923958183,-1.832744204256797,8.887665713096325
-3.550664916473479,0.0,0.0,-4.258134609074222,0.0,0.0,-6.635962929139915,-2.035286491649904,16.688704124315255,18.85201174690516,5.0004780588456965,-9.590985144995283,-18.3420788282503,-4.1427932981145865,0.0005403453478617598,-7.93282183353158,0.20480274822497907,-0.00011047565974228918,37.645487759571225,6.79898386585122,11.063760057670518,-1.085893331688353,-1.1847968416398962,-13.583271476835991,15.816552284634334,16.467962875119238,-32.372245999780404,17.785605600169394,-16.566969172653486,36.36358562249645,103.65773091645242,-0.00429683455823774,-88.71737636117459,97.3665636753676,0.0007076233651927348,84.68747005661326,-11.284821938889994,7.2290744296269205,-0.004652516732113956,-8.030457513851227,-9.061807699851219,0.0016494807800143045,6.233470873788505,-1.9941119476503517,12.732139541164372,-15.840655110509232,-6.686279691038081,11.039341248387037,-2.6876009929229223,-1.9112793398063295,8.55890050791778
-3.4810377424900065,0.0,0.0,-5.311686785647102,0.0,0.0,-5.475985075774072,-2.187347413144573,16.18161061443172,18.729062880207913,4.524404029239533,-9.054908102389943,-19.677881881958267,-4.363086227855283,-0.00026366685613470227,-7.7360350865736605,0.4955216125230267,0.00019765060372722656,38.00122769817128,6.977454881924446,11.364476670627917,-1.4375479953803332,-1.3456374194093217,-13.97523336670269,16.287319364991717,16.96737145308376,-32.237726576066436,18.355270518524687,-16.508362185937315,36.49597222792722,102.96733231782443,0.004886728934234832,-88.32031051674124,96.68914259316196,0.0013931843436722627,83.8009755309958,-9.979994419035485,8.034231624610285,0.0334114463996709,-6.788273364434709,-10.732744330804945,-0.005455037670120087,6.367875294541484,-2.0034562106185847,12.611432517626946,-15.715512853959973,-6.649590755091759,10.923261430255241,-2.972628086578649,-2.119642192633783,8.347327944360421
-2.673460037050479,0.0,0.0,-3.468967655446299,0.0,0.0,-4.854764554672685,-1.5664844371861455,15.619764594289995,17.748884000627065,4.284788520822024,-7.681057819669104,-21.159500909491296,-4.452256588613055,0.00010481751411204204,-7.405112290863373,0.6058413931850399,-0.00018279476503179037,38.53472378927693,7.509402783900467,11.789231544432566,-1.717283314246192,-1.1710760700392036,-14.848881842430691,16.957629265345172,17.120537953987373,-31.689483617398437,19.438578508588662,-16.497045530978372,36.56060033317947,102.24145559160586,-0.0025623448423845794,-86.11492063349586,95.76610735889469,0.0010451154079743293,85.06161748811758,-7.222659223867575,10.443296119194201,0.00870630165943489,-5.60454537176746,-11.439152913060381,0.0005295240210497452,6.401752711947274,-1.9779611981955347,12.95457675173496,-15.655085760874652,-6.754819335532628,11.252893669290936,-3.444669258527577,-1.821034531194442,8.308124627700142
-2.1719919034398254,0.0,0.0,-1.9140374285071309,0.0,0.0,-4.762547460663182,-1.0692304205134309,15.632456951400123,17.4596485265595,5.063079864035932,-7.759454063920959,-22.25602228717924,-4.586489425538385,-0.0005115069283978354,-7.123249895483859,0.5078681051057166,2.0135325368335247e-05,39.13523189215201,8.18679336437224,11.696243566521694,-1.7856992763819457,-0.8251591803071361,-14.658749288360967,18.591686217426485,17.465549440976726,-31.807756882490878,21.225152989494557,-16.68878693200168,37.390626782496255,101.58907301746073,-0.0011098554169022214,-86.80998722686431,95.30623273961908,0.002272059957766,86.9969752453596,-9.321331917954797,8.77927480169034,0.0016243271780665598,-7.9416625049107115,-9.440505660927787,-0.011401518898348834,6.515745376723945,-2.248376695708233,13.698340107131356,-15.496183250929164,-7.2843233471247535,11.844850609537364,-3.8804162383547443,-1.3588308359264634,8.561447430060518
-1.0482167861540062,0.0,0.0,-2.1091654004723575,0.0,0.0,-4.432807295903881,-1.0613148053752481,15.019442704401124,17.506314620932123,5.563380165910419,-6.886001205947542,-23.76966567664603,-4.665185116520648,0.0003535329327354811,-7.033649640443219,0.36599457108226574,-7.762542168055486e-05,39.95437623000158,9.066387110508385,12.316821073027711,-1.656635744816732,-0.524451893155094,-14.93557016972663,20.32019986143412,17.738023933746103,-31.604428220671153,24.367359200785742,-16.341703055522085,39.688901361604536,101.35057954999574,0.0009157990557697638,-84.99845402145094,94.42303227912596,-0.0058571799370487005,86.08080532115001,-10.12130336141524,9.846114065944588,0.0011439686965328156,-8.709530039225745,-9.04216485942036,-0.0038607357425535444,6.62193538570382,-2.5404774775377725,14.116317567180536,-15.370887883687292,-7.711616428659971,12.125008882760653,-3.9262207751913,-1.0656521521472437,8.951688872017998
-1.1054302900520407,0.0,0.0,-3.004460245228699,0.0,0.0,-3.3746969333325127,-0.9798466120536068,15.65296201479901,17.4026563966053,5.785577006412054,-6.424594577512317,-25.449800570357986,-5.0303559879887105,0.0005718888607407625,-7.021210427958855,0.5972195798453577,-2.9261954039740832e-06,40.690495927046065,9.653030393367901,12.114918798247976,-1.6016093042772723,-0.7254820869143749,-14.646898446430646,21.12922822032786,18.016633423653076,-29.252078481935897,27.73353010660637,-15.674433329975075,41.78890965567124,101.25434765511878,-0.0003565320735176493,-82.92876891015425,93.31878074785234,0.002170343360862421,83.7991212712698,-6.607688538884441,11.640552000223217,0.004792441023139511,-7.616654549423179,-9.866712351090984,0.0017110970269553405,6.294618456054447,-2.7585107506054247,14.283295705487625,-15.695872498142553,-7.9762381110385725,12.198722267089575,-3.9617312008811956,-1.0671822218510782,9.255254268304904
-0.5823984136779619,0.0,0.0,-3.339586382911999,0.0,0.0,-2.671744354750087,-1.35626287403072,16.00927580478496,17.133620623374146,6.353240637088287,-6.513620932761496,-26.94157572178358,-5.099451462858136,-0.0012925057944691049,-6.922487407251284,0.82559885496318,1.0164319322354902e-05,41.528948768868695,9.993500210822408,12.29745499663465,-1.5110929981802899,-0.9565040497694433,-14.382855520742648,22.69571495099211,18.914017746934636,-28.2905349424588,30.971680423532323,-15.555576340556838,43.504569499773005,101.31066152484478,-0.0007892434351843892,-83.48776870427224,92.36602592199849,-0.00043156951836270245,81.47163719875076,-4.64102691019203,10.466539814040862,0.006569481486721728,-8.334680284426652,-10.360232434853279,0.0045783019707730695,6.225961794967133,-3.137104268660558,14.860433441109041,-15.737173555695952,-8.543014979672053,12.595643102268806,-3.800491469620912,-1.0432352020815747,9.75925643408894
0.4235109015943364,0.0,0.0,-3.812454118615134,0.0,0.0,-2.1305729920410155,-1.162874288793606,16.23871047083221,17.125525429599946,7.072359460256174,-6.844945501735144,-27.897864259035885,-5.404175634245795,0.0005547826948750877,-6.892187817159748,0.6218376609651866,-4.7629313923883905e-05,42.163318011082126,10.2522576882569,12.46436340130075,-1.3680653102245925,-0.9830311611342789,-14.291382103402483,25.59512572522085,20.541584884733815,-29.538272623159045,34.44455765097334,-15.447238619297408,45.03790548231002,101.97192262322095,-0.00037908910120866893,-83.63840027738935,91.40542685844606,-0.0017023416994171837,79.13023965746939,-7.3034703222725526,8.730529422167773,-0.0013600697301679537,-8.214647726405735,-10.90349813675666,0.000340142501032092,6.748971748801316,-3.1485710730869676,15.135029712302515,-15.19141330562927,-8.656147436801064,12.848501000040072,-3.536596227736866,-1.141505612690952,10.364965835140763
0.6690229721010587,0.0,0.0,-5.397207603101062,0.0,0.0,-1.4950650911180008,-0.04185709144404765,16.743258763481872,17.304505396929148,7.488343647353333,-6.628262901839213,-28.82916061985388,-6.236062669039752,-0.00015179350360131828,-6.70633172570229,0.5373726619551161,-6.289143978881172e-05,42.62592475464635,10.354919810663407,11.99915529368179,-1.3833682528483824,-1.2969542849863662,-14.58891933052519,28.232616848646877,22.5482826408861,-29.494449918362065,38.35200763130499,-15.329315260708709,46.656096076241056,102.79754764321363,0.0015123977991536094,-84.36798866170733,90.0053541040888,0.0011891469335080342,78.48889447172884,-11.750759852352221,10.602200978694938,-0.012765284720679353,-7.356714338128985,-10.886710418394294,-0.0009522225003042971,6.913023247364925,-3.0155017684643197,14.542914781678618,-15.069898301523514,-8.311613256418912,12.344402365580443,-3.1650989047923477,-1.592575303371922,11.172752671556598
0.7446768234258238,0.0,0.0,-3.0786729203977554,0.0,0.0,-0.26293903891281845,0.6293857927452672,15.70042133230091,17.27619676206436,6.984252692217522,-6.048237451747138,-30.3511996569042,-6.352799977500981,-0.00019695152224650944,-6.8343078557543535,0.5120611321103251,0.00034255618922806957,42.450536223576044,10.168432367545945,12.844990838396557,-1.972255721114286,-2.047480288600326,-15.264725635955433,28.90097305019461,24.666996879456146,-26.991046132223193,42.10448574884154,-15.634786004874567,48.81462017947172,104.5079275350264,0.008825058968036138,-86.40541247714717,89.60148766727951,-0.004563545820454949,80.5977398320121,-13.598944299569867,12.377075578907444,0.0117735936783386,-8.190884155233121,-10.32606776755143,-0.0076964304094310695,7.113007591765314,-2.64395083224653,13.883203548826625,-14.903786006313306,-7.720288352250292,11.867997697499153,-3.285454668003624,-2.4889108028421383,11.75947010366445
1.3681905033084891,0.0,0.0,-0.9189259418502275,0.0,0.0,1.024237863155169,0.841155946152845,15.421685343931022,17.271515304432437,7.8938669076069665,-5.922165828898681,-31.59280943206633,-6.540742857396554,0.00014424790405119948,-7.81878568681729,0.059299135590577264,0.00023356507056630047,42.19275888708388,9.92606995733265,13.309252564328327,-2.0657581215906213,-2.781746590000697,-15.63593723036637,29.490575814070226,26.860740290409776,-23.289713783368665,45.767128926514154,-16.40552324170191,52.04603928784934,106.53071630972859,-0.015604834476782195,-85.8725288643223,90.00628321694472,0.0015885297230094533,79.68123142378846,-8.582143476776125,12.506168810807985,-0.0025881313122298067,-11.22505867595528,-10.166970418269738,0.004325229620346835,7.2299721201082985,-2.5817124163057574,13.529581501111524,-14.811407902748462,-7.530087358455107,11.561167296402598,-3.3155769135874715,-3.130513810356204,12.417323859218918
1.9877393475091643,0.0,0.0,-0.06739351863586113,0.0,0.0,2.211049293292263,0.20249128556000506,16.722647572023824,17.792293048214024,7.378192577456161,-7.315229389055408,-32.54000649281766,-5.747227079335641,-0.0009212150514848201,-10.058423203797375,-0.11202103956416008,-0.003275827604500671,42.3174749134346,8.828361630581618,13.649128500703924,-1.2228237584805157,-3.817022496656351,-14.962207950145693,30.429618550346028,29.812698249092854,-20.83586997729195,48.12448052497022,-19.444394107553805,54.19027896609023,108.5589702428129,0.017990037058674736,-85.68480503314424,91.2037163845794,-0.0025402815896599295,79.17849470111364,-2.4277791981130057,11.581786108989629,0.016286100380365622,-9.984029004824398,-10.041713786810634,0.004794886381610251,6.88402522224018,-2.4320676077608394,12.891859133400532,-15.19829639127688,-7.152114804597218,11.022494515551351,-2.452850555323282,-3.914880981563976,13.57614575583351
3.98606538038839,0.0,0.0,1.4002910460050098,0.0,0.0,3.0559701234821004,0.2863694146443282,16.864484483026104,18.086549496938158,6.413716351483551,-9.393905842489312,-33.52750593489127,-5.494122496192419,0.0005860111250928736,-13.902350449722844,-0.5427940148652559,0.004898965079205796,41.89582943338181,7.503741995656142,13.586907200428493,-0.3056080877675038,-4.637207886494983,-13.601391879604751,30.45898645763367,33.774427181060354,-20.065520811168682,49.697688364109794,-23.083340148271823,56.359137596393566,110.70012148392394,-0.005292117222294367,-88.19207872305327,92.42415381154166,-0.0001812713771171934,81.11013776476085,-6.289668214321351,11.761214129042047,-0.0006128946937471012,-9.513419081669314,-9.473894155496971,-0.011123737648253846,5.844508730493458,-1.870357932418048,12.16528723116049,-16.265199348841275,-6.358542975514623,10.557824926042347,-1.4940906862668806,-4.7980700200881055,13.492312440835676
2.8933862543187465,0.0,0.0,1.9692481054537792,0.0,0.0,4.4009007509959,-0.11636874957319829,16.191933844623247,17.577800940538022,6.878871432250723,-11.056811758489369,-33.953146972088994,-5.157336639156891,-0.00034712051877722465,-20.75077347488767,-1.2281480531120383,-0.00046647485042227365,40.75792965438862,6.246241788749032,13.602603551835132,1.9465985339969698,-5.650284085912789,-12.049273729032002,29.479040618067856,36.778532070173796,-17.36898438760246,51.71782007742129,-27.074580393870704,59.6099619501665,112.07673150147158,0.007267708193809936,-90.52662695542928,93.53994704457706,0.0013648348674198424,82.74348384191458,-7.043599571108908,12.341106337170821,0.0075676241088722465,-13.807264751389496,-8.302548710289294,-0.003010010026377156,5.238958143259766,-1.3856532650475974,11.247433777292821,-16.914344062072225,-5.563890976765749,9.886911303458138,-0.9793338902153631,-5.337192122758433,13.604079274745239
3.4061019406417565,0.0,0.0,3.5143625237820597,0.0,0.0,5.717194292587431,0.029396723562056474,16.08426408991009,13.32826111230861,6.850724778675466,-12.460713140333484,-33.94130090392065,-5.206116201328564,-9.45370070279483e-05,-30.571742448269003,-1.346442263202906,0.0034938979880946835,39.0544499969688,5.201310493275564,12.415954538281065,5.335004282468446,-6.016041359492313,-10.350880625110019,29.740021754877656,39.06654888857579,-16.352679140691357,53.21740124086342,-31.924754874352654,61.52637442509898,112.23641420395744,0.004364800842863853,-91.45214751676576,93.81982222241848,0.0023782745662044983,85.6625602037181,-7.309660234613465,12.579980430985845,0.0036314728229740207,-14.379022461932028,-8.593158812210822,-0.0023224353816735377,4.020138977826319,-0.939475762400497,9.884697516395882,-18.203083619432807,-4.636215351951031,8.789521040086646,-0.9724474863339019,-5.166931477427107,13.315445642750193
5.972125296299074,0.0,0.0,2.3751877092736615,0.0,0.0,6.929064991686783,0.7382830686734151,15.085754635545854,7.265104576299706,5.348705914964238,-14.066650141777009,-34.02584485091983,-5.356083256564128,-0.0004082770115470488,-42.8374087549513,-0.9764300533627408,0.0036802529481469014,36.85196931957229,4.281637898011962,10.851620997059033,9.544084445824161,-5.777906098017865,-9.7840445165887,30.14715198112766,40.7947241633895,-16.502820944287315,53.50186453574388,-37.640946621396985,62.696338331212345,112.46811429873016,0.003917409119690877,-90.93583274133461,94.01437235105783,-0.0014232532784117192,86.57557998818746,-6.312133945555703,13.535706496625075,0.00018740113083116704,-12.064953283484355,-8.755642539455838,-0.010145190970960102,2.1086241608207597,-0.5362206522321635,8.007547557540834,-20.203822417143012,-3.551728768741809,7.20126379183368,-1.240379503332682,-4.303525346141364,11.6810862895818
10.138634082119513,0.0,0.0,-2.7507029821513993,0.0,0.0,7.396710139014026,1.4008046247275536,13.37619605132359,5.26254417305018,3.3803539438682404,-13.844024287316694,-34.55427991377182,-5.708716093265997,0.0017610402042560875,-57.0708634714482,-0.19383492470219002,-0.00810742482719372,35.48948544727984,3.638957653974813,9.311223752595799,15.815740523654284,-5.826430935223494,-9.804949104042294,30.80756584551292,40.59076207682316,-17.083048492790738,52.938598145193254,-44.219570210944504,63.216072948784216,112.89490624356868,-0.00036000785520006465,-92.66351045798166,94.70111574870522,0.005673210522676065,85.41081298747922,-5.696551354778991,13.938815496903032,-0.0005561762322295141,-12.752429028422153,-8.046036937424343,0.0005819046021305755,1.1143023635614642,0.28423248759757763,6.12329462955527,-21.26434370439787,-2.0765031376087926,5.768704347838013,-1.311089577134365,-3.2832209838952955,9.713556718947641
14.508464866607792,0.0,0.0,-6.737384233607985,0.0,0.0,7.972327090853527,1.766069335314926,11.588316944725195,7.9989142887100435,2.626580759639012,-13.6619367440149,-35.39364642187709,-6.221277476043745,-7.462917130724642e-05,-71.6557471059787,1.2707499545198748,-0.011455925742664151,34.25324637061043,3.981892231425882,8.132016581758755,23.36970718259863,-5.57499701546858,-8.829749232845247,31.48184749109316,40.28432752636004,-17.55499677929099,52.75804266762382,-49.895214190984376,63.57126779756363,112.9815239709773,-0.0003798370443537463,-93.030007660218,93.81791152227966,-0.013480798768067641,81.96724255958028,-5.864312993104662,14.57868540290133,-0.0007397657371348253,-10.834849465977964,-9.150929814607494,-0.006696599820677099,0.8989666093240509,1.1648942121855506,5.177339162911744,-21.505653090827664,-0.9019245651704849,5.229427777820848,-1.580984212860053,-2.005908581732297,7.69550577072892
13.174282841379146,0.0,0.0,-4.479966056712798,0.0,0.0,9.193898917362043,1.6665934908376956,9.186258053472848,10.071402701304766,2.2430949710903123,-13.6204786614785,-35.08944932296051,-5.453756735784033,0.0013955626252764774,-85.34999568563299,2.0952392642987854,0.005631280080941364,32.081245659941686,3.6779260538229375,8.440907019389662,31.7332677389974,-5.754832165911437,-7.882422272082973,31.684501884150734,40.25841426913902,-17.37877986639434,52.41042253559556,-53.98210368703753,63.80342565513501,113.53162209621532,0.0024833542838194034,-95.11815351626862,91.57628658212984,-0.004515656504342535,79.57319963593376,-3.7135409711253162,14.858680278585933,0.0008633471291604627,-7.123628774046219,-10.150503136201367,-0.005242169995300217,0.7371895082444898,1.697084934245326,4.818050004329436,-21.67773029959478,-0.2730080571730714,5.100255859664116,-2.2731420594228156,-1.51067811161546,5.516796265881069
16.548837901800386,0.0,0.0,-2.382297715571485,0.0,0.0,9.082587337636655,1.043310095421116,7.367442751176297,12.764180405123073,1.243278268640472,-12.454630724340277,-35.33359850041054,-4.262791367023789,-0.0020207002644406515,-97.25531531768894,2.279866775848512,0.019226283763787568,30.386206598135715,3.1301887297592192,7.383733024777202,40.54494176563028,-6.138336097025586,-7.9881923045561924,32.27706178289604,39.74742125504502,-18.4957159180689,50.87871008842159,-57.95059739968415,63.545730850192726,114.29676219476681,0.002061407543195006,-97.73481454601306,89.55332628023591,0.006710958737991303,84.2670691831934,-2.6605783641252705,14.637509679578699,0.0020195629881817967,-9.034543315491225,-10.384795531546528,0.0012961836851460198,0.14833499175221126,2.201711958859389,3.683451134983827,-22.302549591448198,0.6261576585729978,4.244679256283072,-2.892955512775233,-0.8784630747002886,3.6859576487348256
18.65352096746014,0.0,0.0,-1.5445506606251433,0.0,0.0,9.672211657894593,0.1368542280459124,6.340950022522313,15.94641830758943,0.8292225884225771,-10.571098551155682,-36.70280592006073,-3.486042150148002,-0.00012380903470274015,-106.7181085386812,3.193915060148677,-0.022709026002441558,28.953357621522418,3.510670182700751,5.128487110950075,49.576018125629666,-6.3765416412149305,-8.172637262784313,32.7536738791771,39.38126976247412,-20.263527817660353,49.22847799727296,-61.08901363708709,62.93155046147489,114.33049473694417,-0.0012518951392188164,-99.74676168614933,86.84624693043978,-0.000193234419131104,89.20648055631605,-5.938079846267997,14.107404225655843,0.0030119098220724185,-11.309445369657384,-11.847879484031836,-0.000295953003254791,-0.8707518233230032,2.082293148868103,2.7109051259822197,-23.345520562451973,0.88714580307796,3.3008393877576103,-3.9709386912730573,0.6067821293206296,1.8330159535013952
15.456363673479455,0.0,0.0,0.3933437316141947,0.0,0.0,10.98582617800145,0.45753796802608987,5.211829291822507,17.48499684256478,-0.2022825452052296,-8.392189952157153,-37.69464865075925,-3.2104408056379996,0.0009913638017673633,-113.89475083447624,5.085554260008022,-0.004356552470611486,26.23000607474691,4.344028583255866,2.5381341196539364,58.70864867833586,-7.002321743825594,-7.794356628687598,33.22069095581616,38.98171041066233,-21.41173153067478,49.45811601143522,-62.957856972298515,63.0989032681754,113.68393302815028,0.002331557533955618,-98.10368191554969,83.78295822534704,-0.012466972509055742,93.4207077438075,-7.889486497467471,14.694185274396764,0.002880690739689144,-9.665592031006637,-12.013703738836451,0.0015491176866985216,-1.5361384781616039,1.9871003858717153,2.0243538162074577,-24.023878446966695,1.0615535438935226,2.630364026581016,-6.526075527207599,2.358482201524939,-0.12205535662203555
16.193227305848986,0.0,0.0,1.0161260089854647,0.0,0.0,11.990129779285667,0.061493583812973464,3.8969095463964343,19.514781551336746,-0.5414665798508383,-8.47630935187818,-38.637948051411854,-2.745849025492857,-0.0010281885344831838,-117.77567488930642,3.754500520120005,0.012674457456537402,22.708954091430346,6.316107670716993,0.3717091190694422,67.60842798825776,-7.315279161161483,-11.015951387400618,32.22913971390383,38.86377548655284,-20.593179554810376,49.965963879077016,-63.7510728554681,63.0090225845436,113.42588299503689,-0.0003579672004441723,-94.63241891177249,80.2636466886661,0.022059088131823043,98.1151117726927,-7.723244379933461,18.232069510899944,0.0006141838341686238,-5.312167012744237,-10.852643246985295,0.007510013555403874,-1.7977015602567104,2.4149739133657953,1.5529323245936126,-24.29714517302117,1.637093569531449,2.3587522791826334,-9.636895780687576,4.849652001017629,-1.9615223733399048
16.13850176602515,0.0,0.0,-1.6098617702788576,0.0,0.0,13.869320954695919,-0.9096022441787508,3.146189421063458,22.639187671275117,1.661516827993495,-10.004926971857353,-40.04252892365129,-1.689334813381196,-0.001452652792834447,-118.66715320020764,1.6486663097852485,-0.00425032934357635,18.611707403512334,8.488619967502503,-1.3089324969985143,75.43241360328595,-8.30735367443077,-14.595786199490409,30.846044458220934,38.48111818153791,-19.48747939918915,49.236850381947114,-65.00000234956137,62.027763064614454,114.41536054319366,0.014124635404615874,-95.68565904662186,77.23404314956278,-0.006247817141489553,103.95367255596166,-7.678776294757362,20.16531513060906,-0.00595044804833465,-4.177580709156308,-11.22982227393836,0.004119325184292819,-1.5688257169671154,2.2914665721654663,0.6038645519193487,-24.078834486355237,1.8859548570776736,1.4349893702926682,-13.35102868202123,8.069567521097383,-2.8978442500335513
17.051000513757028,0.0,0.0,-2.0418434542436437,0.0,0.0,15.542764080036209,-0.499696252243173,4.610749100793512,24.3992166614643,1.7553146164536284,-9.858021074756184,-40.92497816740736,-1.2640300734737122,0.0028683322667917505,-117.2274295876944,1.276113368614893,-0.0006958651253665416,13.439182629347695,9.762620449903379,-3.559274509731062,82.39419095480491,-9.81803507300588,-15.024099346824732,29.037970901103456,38.951610791357886,-18.38280406253674,48.914176931086715,-66.00080936430994,61.76877159688755,115.4980851144237,-0.0029466669233302266,-97.33008565361982,74.30751455414743,-0.007458367722967074,104.64222471794454,-7.777451441555987,19.181619029952145,-0.0007371470416035449,-3.9400460725377147,-14.235341420499699,-0.01276869233042762,-1.85872270966813,1.8079456900155442,0.004477840330049193,-24.367270239198405,1.6685898685308351,0.696154304650702,-17.246681549002503,10.41169844161644,-3.184396438715488
21.590192071580976,0.0,0.0,-4.152798255641597,0.0,0.0,16.6360274835447,-0.42452323143591975,5.696459188935124,24.694788718410745,2.3674326804147827,-9.324544037483978,-42.46176067502989,-1.3479772243936468,-0.0007634754471534496,-114.49954923095181,1.8932649596568667,-0.010791210828324125,8.054368025939295,11.049572946301506,-5.913120997284031,88.77235293079825,-11.445774911670778,-13.631537749123181,26.85008800470589,39.567351177501294,-17.0274906804667,50.53704781212327,-66.36942898440158,63.34895841951617,115.85976825992611,0.001181298559995821,-97.31358974559214,71.23782291362741,0.010792121588103592,107.2954516234209,-8.601174471430904,17.931502469117646,0.003352650889698847,-3.18319821043242,-15.113593571906115,0.0010143461863445023,-2.1463809226827997,1.6363084610901215,-0.04525373449131129,-24.65330138963149,1.5290480565642222,0.5844893984163355,-21.509828475436446,12.37158496852267,-3.416895118119231
22.482192331289497,0.0,0.0,-1.6650779507777695,0.0,0.0,18.91375862125823,-0.4633121328890541,5.937070312089442,23.385616665462997,2.2467435984898114,-9.272600861882324,-44.08823186347414,-0.7147800233441098,-0.0028002311167235065,-109.46573736691069,4.678768970338734,0.030580750827701324,3.564292051951834,13.051379090039626,-5.967501915962503,95.02350552494211,-11.943371458466846,-10.489143511470594,24.413746786174972,40.801354685261444,-15.580833764969702,49.805124031228544,-67.17216964365893,62.73316345349507,116.58940610218976,-0.0005933654900412791,-97.39373755436495,70.13910134492369,-0.00685800770107565,110.65498947036632,-9.290291329794401,16.14777596160073,0.00229767849433935,-1.6431754918894965,-11.992615171703587,0.00509857974357226,-2.159394627060002,1.6792834516118755,-0.31975429702110486,-24.667627368113397,1.6737914759899735,0.34736587424502774,-24.739846915775235,14.102390522672557,-2.2733983590797586
21.827482878361327,0.0,0.0,5.536837574437762,0.0,0.0,21.16280103592456,-1.0274140807494725,6.013049522735974,21.388445926077342,2.9047739967115165,-7.3323104629023685,-46.17049448544838,-1.4434068955770012,0.0029842574317197773,-102.43773099388712,7.556075050298343,-0.012938726144197495,-0.11897163528578703,16.121537383628514,-5.683889950844296,99.94204402271093,-11.50535512427463,-7.545413064972535,22.43450870978515,42.06215610133268,-14.872938992041105,48.40758654923905,-67.99539724090931,61.6296315077027,116.49481563745744,0.0008485100733603199,-96.39400629991813,68.39641870106307,-0.009271917476509168,111.75156902164123,-9.262043927074066,17.191328915672134,-0.004219874860960392,-0.11585531870737152,-11.093769446949201,-0.001546475898028966,-2.2959630011252683,1.5155076199333593,-0.6206641719894409,-24.802737544442472,1.637633946926897,0.006641699116187184,-27.2421716381435,15.615393380316702,-0.15455204942919093
23.41143971803914,0.0,0.0,8.472168958266815,0.0,0.0,22.702161466359755,-1.7351973066292883,6.143680892474404,20.756058113416287,6.628665848094661,-7.959559774381945,-48.516234588531574,-3.4310078920189535,0.0033293345172383075,-94.86675206562444,8.407285676491863,-0.0015221943810839504,-2.788245898325459,18.221356732879904,-6.302019252159683,104.00626481207436,-11.192781191040565,-5.141816740379301,21.046767941737933,43.31645715739082,-14.940292724861841,45.894438918441516,-69.48600708694111,60.50245095097585,115.5684267620298,-5.814007589782391e-05,-96.59430350358473,67.06419969030024,-0.00044055549297689945,115.96434443598525,-9.951036774690383,19.070447471928574,-0.0012585056021371692,-1.6149300652774123,-9.772910168170252,-0.020719457415812173,-2.8824015737725412,1.6266592219362945,-1.8044417072753234,-25.386511014751807,2.1932820172038414,-1.044610671955959,-28.352255425181337,16.017065290251253,1.4404427992159365
29.274573821021605,0.0,0.0,11.150414547223605,0.0,0.0,23.008570386502637,-2.2483592620921202,5.420355697945787,20.282139911713855,5.4412386424687496,-11.797178952142012,-50.676595214090824,-4.724238095167137,-0.002849517320423188,-85.89821671950494,9.849053156236378,0.03974794826966391,-5.261732376299565,20.221347344868924,-5.524610045988024,105.6528030856437,-10.991640172170337,-2.8034502992774817,18.88783138194557,44.76951325524654,-14.121908766593387,41.72976415053011,-71.37850855171135,58.53561686947135,114.76149418358636,-0.00274626522144387,-98.2948009072545,66.12454383139641,-0.0073398758673491145,119.18080477008749,-9.757422249102584,17.729409510493603,1.7411816314621042e-05,-2.9308567959728666,-7.25963704064954,0.007701955616936804,-3.5286943259738885,2.2409301939569874,-3.390111662089094,-26.026609483139314,3.367294007430642,-2.2751003683869597,-28.605898224896084,16.270356797411736,2.5973258137794817
32.12839491140941,0.0,0.0,14.80869845011722,0.0,0.0,22.85658050402403,-2.7410954671962275,4.853519798538853,19.22293043164845,3.345905317273005,-14.885392322457848,-52.31202195193053,-5.25051281888205,0.0010576333362368698,-75.05640579874671,8.15990006119278,-0.050209998309170945,-8.438034629358734,21.72109251000436,-4.899431960289889,103.51383656750117,-11.241454777118541,-3.5651361522652714,16.737733287205543,46.08863250302937,-13.226169219591265,34.184586461404855,-73.3930196645026,53.07971312362039,113.9297995768056,0.002136744534830582,-99.13939678991376,66.6518512112629,-0.00800817619929869,120.44193306739692,-8.420591407201732,15.562574253262934,0.001515095409349285,-1.6458459700454757,-4.891988168463777,0.0038160068100165693,-4.013849244246017,2.745998665833114,-4.446971964816233,-26.505753956157704,4.23789789905979,-3.059109866745956,-29.265269900033225,16.445292439357317,2.8200998221069042
33.317721987608195,0.0,0.0,20.161125219572103,0.0,0.0,22.845821723681258,-3.559253955861185,3.9941331568409804,16.319135413020764,2.401090252507096,-15.456727581248563,-53.40767316880217,-4.462186526953804,-0.002767030581809082,-62.01982266186442,5.018250345475066,-0.013043263987812906,-11.037422139190136,22.41192140340376,-5.407133038607104,98.83593246402361,-12.871840005279184,-5.480322415193088,14.947955845025499,47.13150281458741,-12.556889186251036,26.990774585442615,-74.90908020470637,48.04543410093727,113.22811925095743,0.0011524505949000413,-98.31223291129704,66.06672439953998,0.0005646428788958823,118.09470955941401,-8.331244830597612,14.374093928772114,0.002769796002382672,-0.09051573219165643,-5.756192372002846,-0.013383390081911925,-5.415171029693409,2.876454996167378,-4.965137464235974,-27.89955669222103,4.556400138085758,-3.4886624219406697,-28.9837222515014,16.844241727662972,1.5009866149069773
35.820595073381035,0.0,0.0,24.849012308324273,0.0,0.0,22.71221705320984,-4.242574462091531,2.207484699435256,15.60087879535622,2.8012610394433803,-13.81117175985601,-53.475691422316515,-3.6987365504553864,0.00015492782096889783,-49.77822224222933,3.7693808695420716,0.01904473257513613,-13.100641045049848,22.519639572104328,-5.4440531965328125,93.02147546153503,-14.631594977440074,-5.730772197647849,11.746635484136492,48.29547881275388,-11.542177564667963,19.027916234499504,-75.73956451624551,42.564184972141156,112.86309283115361,-0.0029715471946195836,-99.6021830169755,66.70092215561651,-0.010102161375879382,120.13845246882394,-10.200069991023081,14.441325732348524,0.00545415874971374,2.0858611279790473,-8.36188575787372,-0.001987438097234714,-7.998597346745264,3.5978048961458615,-5.249174792041799,-30.500226691129466,5.331374283587031,-3.4746563572775413,-27.149069739542306,15.886226281850556,-0.9576197223248721
38.51777242249077,0.0,0.0,24.000431712976656,0.0,0.0,22.158477837311818,-4.368830150276992,0.26630067608501173,15.89111142532541,4.766193847423017,-11.469717047526583,-53.51067720083928,-4.7002811612429545,0.0003049516268106288,-42.92134182659311,3.53779752391895,0.005191811160916943,-14.739281776301405,22.276306109429658,-5.167734216551923,88.63421914361442,-15.631680906112546,-4.5284215258354745,8.444977657145566,48.86406825268194,-10.103836073473856,7.569795954374319,-76.32830712786125,33.529734133929615,112.3920329441003,0.003697403092971533,-98.7074554450199,69.31919131089406,-0.006093744214949231,122.77915861358133,-9.649349227471346,15.47873336748759,0.013446333937973606,4.220405794337985,-6.200594864819912,0.02010279888907198,-9.373735100845504,4.55376270655833,-6.566071430928877,-31.87950606981917,6.717288015641508,-4.3270345999089885,-24.995413452366325,13.390295084029455,-2.951040857625646
37.945905789834626,0.0,0.0,22.831444989380064,0.0,0.0,21.775413245871917,-4.963435574053254,-2.5915288852627705,16.602662085392417,4.57172594372433,-12.85813657486406,-54.346257069768306,-5.311694345110475,0.0002653485415342434,-38.63037087034531,2.76863899455601,-0.004958102774703385,-15.834499894003407,22.029182516161313,-4.035559869752272,85.38556107459377,-16.272872774367183,-3.6584665330075694,6.71700262594942,49.021386509535056,-9.33638285766569,-7.70650375116412,-76.70056873249095,19.935256287528436,111.85442542643176,-0.002975578979202276,-95.45007526540944,72.66100988370201,0.012841446611108413,120.96053767529457,-9.424629526141809,14.901555844427447,0.008206247015518801,3.838897029264852,-1.1736141723300886,-0.01956178733979774,-8.390029209946501,5.005533075488435,-8.242251213315068,-30.861213863900463,7.773618904686002,-5.708588866842387,-24.02693211370311,10.891332595424334,-4.294828686273558
37.93535317839092,0.0,0.0,26.177353046218194,0.0,0.0,21.25045657016198,-6.0439355886057236,-4.613291942436832,14.971267540840708,7.711632220202541,-18.570279142244623,-55.48420160978433,-5.514327468979963,-0.0010781014595695202,-32.85383673437499,1.9023956367690458,-0.01705660607809669,-14.501718787927375,20.24415944864292,-3.4298026932751666,83.64598061326151,-16.663536683890708,0.6844930735540569,6.776917842635323,48.09094831913827,-9.288418493226889,-22.47939135974848,-77.33193544403457,5.965242100597648,110.81110242254863,-0.0020223743622643777,-94.70889698181423,75.50188862618789,0.006942808076261729,116.58120839185442,-11.500543103761288,14.57695585947998,-0.004371525781285599,-0.40998256763397145,0.4172655032099028,-0.0005453392172747045,-6.452626538963008,3.921748277768839,-8.497685258136304,-28.86030198220863,6.869095425761479,-6.362988835143356,-22.775728017046056,8.521799836111153,-5.213046632779038
37.85002251819718,0.0,0.0,23.42785134263433,0.0,0.0,21.47251806917907,-6.276195971667749,-5.615400109456448,9.600881622341886,5.626528337770048,-23.39953318784299,-56.48997942775104,-5.358976329456359,0.00026527149015254635,-22.128074920809567,2.4668940233979404,0.035668926886596335,-13.285904645318748,18.50918796358389,-3.1574353004734657,78.5091609716837,-18.566218420877124,2.560117417660079,8.123686275234622,46.089958008243734,-10.106143400457137,-31.015025435738632,-77.30977277268104,-2.4710117312823496,109.41309806156823,0.0071948022504368676,-91.03616455081617,76.68838105253501,-0.009803277879450706,110.95955202516096,-13.548868941040181,15.766957391409761,-0.0006725564744025278,-5.767972142082454,-2.0308471111215542,0.027692642691514308,-5.970255236694044,2.7342896607467044,-7.597682463731541,-28.366425584860433,5.4288544041387405,-5.982645735351277,-23.63596222568327,7.236089092394072,-6.6967253716742805
37.18066307763666,0.0,0.0,6.882016399273969,0.0,0.0,22.57309059942018,-5.656254347662156,-5.210841154648085,0.7730610679218932,4.090387008581317,-21.78218618575565,-56.81962969313357,-6.221763451417532,4.143500796503084e-05,-9.53503285554806,4.000123552090289,0.0010332122655759453,-12.306908486559875,16.979339439414925,-4.598953967057936,71.43564719736351,-22.394734936153775,-0.27179570525917685,10.20971041298834,43.860845764848605,-11.62088193759638,-35.83727289247539,-76.46975404538026,-7.969234343291901,108.26432513421881,0.0019102077571365923,-87.32084197353294,76.71022961161819,-0.003325420917990665,104.66172028945142,-14.12876820148321,14.538640066533908,0.002133797200668087,-8.563643879106904,-3.7379925015555555,-0.012554050368521965,-7.208368285462098,2.731816086658911,-6.82701885501978,-29.633488466129567,5.133082338289262,-5.2689145978270195,-25.739562531024546,6.940551520324073,-9.138921395051206
35.308072513863756,0.0,0.0,-11.923532417279604,0.0,0.0,23.731780564721596,-5.136451412508911,-4.211700251337832,-9.19956982121921,9.25454952317002,-16.47672131496952,-56.16313718453872,-6.965236252659294,-0.0008470147200927596,-2.038816547208556,3.9334981264561577,-0.017564375712292,-10.554702915337762,14.208379199094415,-5.565680467823976,67.58050442915666,-25.176910899048586,-3.4810977384229154,12.6732585549041,42.00895614805679,-13.670056920102862,-35.2273927552282,-75.66857073036807,-8.854433175630156,106.99018964894586,-0.005928184987385434,-88.6653964863578,75.19399486243185,0.012261039036222584,104.86489204166512,-13.870779093526329,13.068102536643543,-0.0005513722797304331,-7.75772828807102,-2.070701423372382,-0.01341256795884943,-8.182843804331416,3.090042498227474,-6.558103519271233,-30.62965992520203,5.361701034241398,-4.882336854368074,-26.60027575817201,6.121443963080329,-11.455566640457917
31.984108274122253,0.0,0.0,-15.694532145529196,0.0,0.0,25.470137976302283,-4.766403413147285,-2.7368755120891595,-12.531244747217867,11.381763219089944,-17.237868498224323,-55.26239020611467,-6.798994304645392,0.0011327651390534489,-3.5427052472635934,3.00828577790065,0.024594777712621148,-9.912694623211104,12.2206047130383,-4.405598559979922,65.87982919459986,-24.402520256699855,-3.3048455677560806,15.128654290212783,40.4378765141576,-16.07461959432387,-27.33012411157285,-75.3259369590544,-3.2040683344358794,105.47483777320399,-0.006822556529993782,-93.50909342771982,71.93961483500466,0.011142830765979064,109.37154334826599,-14.432585582667024,11.82295626546582,0.009789373198530743,-4.408333333919622,-4.0314281484793835,-0.000993527920523685,-9.219220509168794,2.384802550596618,-5.495542767352012,-31.67545204044865,4.30458231016673,-4.168221507693244,-27.737570187238934,5.719301533464761,-12.087231312829939
30.061622105249285,0.0,0.0,-14.063520882238732,0.0,0.0,26.606280980669585,-3.8118477123001075,-1.354689981918177,-8.688271325137038,12.188230632788189,-18.109202208705078,-55.217608878279066,-5.4414484427605,-0.002072937255652518,-14.356807241354002,2.4377901713164003,0.0031037986207881098,-8.04912748395459,10.631232098205647,-2.710441669156103,66.78163676692031,-22.878908840421644,-1.946476440358909,17.774928245116403,39.798665975568085,-18.97489045249081,-21.627834411043892,-73.92318620480349,1.2260676731116025,103.54939070168173,0.00892196934580872,-95.78835876105586,69.75211804101393,-0.010527452628553226,111.03012480115919,-17.175392146886562,12.720066938254918,-0.02322697546369361,-0.8228319711555527,-3.8077610045663506,0.006042775523856775,-9.422316416088288,1.6789868651053599,-4.7822048009664675,-31.879404924424712,3.3799842229886736,-3.778126045575647,-27.94603036728366,5.334986931670024,-11.652391510410972
29.237714237626694,0.0,0.0,-13.275123778306755,0.0,0.0,26.76030844282042,-2.719188921263984,0.4541603135052146,-5.326770852616786,12.65169921580004,-15.181527087760735,-55.42119225881224,-4.041443418119854,-0.0015440801099880798,-29.093883204415746,4.076157026521665,-0.05072950979225652,-5.431839826652682,8.548529340739275,-2.1879368425210455,68.34554737117611,-21.768447327053625,-0.815230623516148,19.117744029440882,39.001846022454124,-19.871423335241115,-16.544677982918984,-72.33144928107636,5.085905771622847,101.81903700005053,0.0030556192791026254,-94.14927453500732,67.27358877118674,-0.015969809591792707,107.56860638709354,-16.651550415528614,14.830484560480357,-0.00915471214992233,-0.5827565247145144,-4.948110919967326,0.004179370578135953,-9.045630143757444,0.924813530101215,-4.258054584066039,-31.500853732843826,2.4828377478257586,-3.581664700380038,-27.409541159095834,5.094370340757999,-11.270455201428756
27.050745893914762,0.0,0.0,-11.191135531631211,0.0,0.0,26.86390964598571,-2.2107279607636676,2.7648515257518533,-4.079053424078863,11.89858251970868,-11.325681363102637,-54.70067575092526,-2.9657536342577084,0.0010067417150985759,-43.208975565993796,4.923881767884842,0.018543254088189295,-2.327205138672259,6.85486058005954,-1.6027041319184143,69.71388136032158,-18.80456287574442,-1.0340245328479873,19.797487825589297,38.09331826406329,-19.79467185834572,-12.259454804807772,-70.70898137118868,7.658014008468693,100.97027461795103,-0.001843781397561064,-93.29051102358349,65.25992055555005,0.005667672475559477,105.23408757732477,-15.174837299083674,13.452194513252184,0.00327095396077725,-2.6446734832659993,-5.724708811939849,-0.003093739024434851,-8.493595712657328,0.9858242190272407,-3.7490708117829783,-30.96112182256121,2.3447817837661282,-3.087613591191987,-25.9182023896443,4.968442650504529,-9.680768556367347
23.06747564131955,0.0,0.0,-13.050050213648056,0.0,0.0,27.399535118366668,-1.6083199517123186,6.7554229131893475,-0.7904195612700394,9.411239638150159,-11.92393449591421,-53.31817536694312,-1.211827679256592,7.898738765634713e-05,-55.73174773855876,3.855083777102923,0.019921210220237358,1.687277341582453,5.2245750408760925,-0.4027751507799521,70.87083791724375,-14.438926818084273,-3.397714385462203,19.67659338854554,37.37816890056832,-18.92925048006493,-9.544235710531158,-68.5850441260862,9.053987788947557,99.91137925419989,0.00324204463625647,-91.89831274886049,64.29010094701408,0.0013536635226863059,105.914362557107,-15.215329510698448,13.08112850084782,0.0023808987690686354,-4.694876052143132,-5.458949895398084,0.0011954555578490632,-8.244702482747742,0.1361835676255102,-2.7961713458790154,-30.720090154560122,1.195453433615215,-2.5315940758103186,-22.605374689297133,4.904171167176189,-7.446901021787579
23.86035021274998,0.0,0.0,-12.885972466278568,0.0,0.0,25.962918100466023,-0.532663896578187,10.63225474508714,3.1084062886714,6.476330734010687,-12.835740883687508,-51.8968713347779,1.0814905790982616,0.00047522004142719126,-66.48544106724862,2.5923032055266377,-0.004444291273019221,6.0630319217686655,3.580883143342238,-0.028446606688276723,70.1301459625681,-11.145944439181118,-6.715136236685068,18.542114972693753,36.46850296136014,-17.003576949471082,-8.083358569511008,-66.32335685403713,9.421793271773332,99.47887584137196,-0.0008365303087176147,-90.62144944739367,63.25154703431889,0.000430847466905323,107.11205645964148,-13.318407240442657,12.619104495855451,-0.007703034003271591,-5.968511301457824,-5.2007715945323225,0.0027590927342401824,-8.229404773138524,-0.38584932924163867,-1.8273440432412984,-30.71623356442509,0.3426399371427144,-1.8359414779191356,-18.63678391428881,5.305833514297861,-6.062815890641437
23.408029952380254,0.0,0.0,-10.925424056247984,0.0,0.0,23.465636184492368,-0.9658439228886124,11.892029729197514,5.626482246804763,5.526399625981897,-12.231677657502098,-50.71580786885903,4.011307373576791,0.0029527861254952776,-75.42154091060924,2.2426883238397677,-0.004799281391424854,10.336579878680672,1.5170873947945624,0.4754080133126322,67.2407477200897,-9.402332826489264,-8.237578946099525,18.244434175531165,35.618429961006846,-15.838623604891902,-7.577013699710311,-64.03830091779145,8.286018915222286,98.88416630999727,-0.0010713437699205921,-90.40164277840904,62.98345839199181,-0.0004243032038902417,108.07560748910169,-12.770659237077027,14.093653996403294,0.00527508944287853,-6.560740501953692,-4.345145344611784,-0.00025229355966355156,-7.549140461870107,-0.33808376688218905,-1.099834052721527,-30.04328891122121,0.10848055764113146,-1.145490996174848,-15.489333059185991,5.472636923039141,-5.509704418938694
25.857633569588092,0.0,0.0,-6.545895745177472,0.0,0.0,20.202866979308727,-0.2776793147865073,13.597834043963315,7.5929364317587105,6.128133367006096,-10.007317299717366,-48.56179109941665,4.951741350331776,-0.007277000276650651,-81.48420221872995,2.3284242439126963,-0.0001520326777567624,13.972598956777624,-0.35622279988609307,-0.32909596800634533,61.98281507806378,-8.005063667519671,-8.944507692861167,17.982668230119106,35.25529461812467,-14.822179358888935,-6.941730519245288,-61.52538723901187,7.358530021017391,98.1236438474327,0.0026469288302752507,-89.46750138190697,63.43011626684878,0.002786343385800987,106.65153348980215,-12.054909574852912,18.07518797946604,-0.00024010382720268198,-9.441146212268492,-3.4602524935054464,-0.0062289914800933875,-6.056900060422644,0.13973234028953588,-0.5459041317831544,-28.554710406719277,0.33798813349354667,-0.45088525824670656,-12.92875749642086,5.361324930989804,-5.0784617451605305
24.063046697478676,0.0,0.0,0.45038156559457865,0.0,0.0,17.697370596150595,0.9871284119645469,15.93958395165547,8.188407426571882,6.002847735386917,-8.621986719574165,-45.428688547036806,4.586053952870119,0.0010765512995560232,-84.38916886339749,2.3539182342836193,-0.0001199821866698807,16.611094011973258,-2.254193439852062,0.6137423148564878,55.33634333707046,-6.4530921610199385,-8.243582576814008,16.165720854671587,35.44256099283533,-13.32194132746488,-4.397685151222243,-59.14242111348229,9.512450145771625,98.21100237397991,0.0016464002700796749,-86.63369395165117,63.28340158300589,-0.0038729972391839404,103.36955858859967,-13.499615128533533,21.49998242787813,-0.0024382651387502862,-10.278466759069532,-3.449337067579934,-0.0011535270833687196,-5.9830548750438695,-0.3122312442713352,1.0102742986349895,-28.4795058033724,-0.6750453926685939,0.8139176382372161,-10.110128730325913,4.12709397568496,-4.621602991483528
20.942096117277845,0.0,0.0,1.802011416305369,0.0,0.0,15.856504603196132,-0.179105692846994,15.599996268734554,8.004652841402525,5.152967654525091,-8.222898125134972,-43.898144842800214,4.731812359167272,0.0025908038123518455,-84.88681567646942,2.488264632818534,4.4627010920390993e-05,20.18561914061858,-2.0595984444269098,3.0148095975139944,48.43674356332254,-4.508338845783663,-6.85825363427105,14.504942042377207,35.4874213873635,-12.79463721024975,-3.689584425131111,-56.36297500122017,9.925671780133008,99.3303427752587,-0.00257026222760038,-85.11679159441876,62.619405630217884,-0.00035585179053392637,100.52087220850765,-14.378234469315402,20.16986556119057,0.002729487908157037,-8.854557062788803,-3.4921158568864454,-0.00024095352081593307,-6.837957943845271,-0.7766567264278093,1.5260172571516106,-29.334136781212983,-1.3014562231139402,1.1127452344771045,-6.731742255609003,3.985430560540427,-2.865719798201447
22.206056271247366,0.0,0.0,3.395750864772592,0.0,0.0,13.66697350539002,-0.3841006619724666,15.175147629534765,8.429677948068552,4.583827123366318,-11.296854965201533,-42.25505068883134,4.182666916498691,-0.001087698335434444,-82.3473754613283,2.322501351085406,0.01317868701487908,22.84218031980773,-1.3728266444765957,4.131664413824234,40.347784744280936,-2.663507932135989,-4.980404375944337,12.912825174530264,35.8823601789682,-11.64629239064254,-3.93204475515946,-53.83823989267902,10.356406895517173,100.20510700063771,0.0031605006407312824,-83.91814579798015,62.42484432241834,0.0006506619942426234,100.10507903552795,-11.612502874045694,19.136385018574572,0.005396133275279956,-10.103954294181582,-3.0092823443870933,0.000240952453989821,-7.2973841094847405,-1.3942423413742604,1.8656220670035244,-29.797766546216934,-2.001970170115367,1.1901564180622044,-3.936801549435424,4.408492411384817,-1.742116904163352
22.393218630982258,0.0,0.0,4.751888755566882,0.0,0.0,11.45769989857875,0.600472206711008,16.56728211408891,8.174007322249956,4.502307364472749,-15.644219038255374,-40.397686983876135,1.9765426099419434,-0.00417794412782202,-76.97302804021456,0.8885591671033168,-0.0144265243265244,24.753587669536866,-0.9867761286292415,4.2508330387070306,32.40645178006342,-1.4563052717900389,-2.4008717429876216,10.558039785359101,36.701659158582366,-9.826258762845676,-3.7615014728912204,-51.41180928570845,11.703400295455626,101.2940065275106,-0.002437994082201415,-83.68726369289458,62.688796394306095,-0.0011108913122833952,100.28951704035653,-10.18110772946749,18.464634537319547,0.000488579925548455,-10.65238725925048,-2.812653550554995,0.0023636953953557705,-7.3734203345673235,-1.8712624201788444,2.615198671589801,-29.874108362669467,-2.7294144721091746,1.7002852584290318,-1.9821521024025197,4.136436068240096,-0.3619265544491705
19.337975537423542,0.0,0.0,3.7642995691205687,0.0,0.0,10.977857589328222,1.3063931068753636,17.315709653787664,9.060576377464395,3.8150449490831395,-16.479317914558877,-39.342924046661736,0.49485040243825135,0.0027229762118121687,-69.70640995065102,-2.5830825132986517,-0.008186811276364931,27.30441492342167,-0.6792212797070614,5.6680073586854745,25.504490936369223,-0.9153750211606191,-1.1842791921090206,7.69240929562083,37.39373672157465,-8.055718892433138,-3.1839982642183395,-48.65305084148651,13.06099252837986,103.0281107000292,0.00018465139909310902,-82.90197188323624,62.088175945645204,0.00475713133286821,102.2804795116502,-10.727182952732273,16.808021310289686,0.0017041893042113536,-9.43960639534815,-2.0639805431467213,0.00022859392117846605,-6.984944831261367,-2.1650033727461344,3.3219559247811246,-29.482202591970378,-3.27107794780678,2.2411736187404743,-0.056640650253700874,3.6125069780853805,1.7731949805140992
15.018052918218055,0.0,0.0,2.0399874084806036,0.0,0.0,11.504791416111816,1.4251025777002235,17.974001766099654,9.86871627847613,5.044777394878734,-15.41528422424013,-39.13944080506413,0.024356412222825072,0.00014397570821387181,-61.82003458516225,-4.762217629107489,-0.013311715475289627,29.543016397755938,-0.7979895892455572,7.112950710623487,18.84963930722779,-1.4974254568361607,-0.5962406655831629,6.1231090504126735,38.276724371252946,-7.491227604141064,-1.8641581422682287,-46.14509547938936,14.911150588507644,104.62823665941572,-0.00021021703727614903,-83.46667030281759,61.232239503246625,-0.00026787870260305846,105.1139365010028,-11.74656329315133,15.099117070781789,0.00012400444440051448,-9.562501833983637,-1.210019671406248,-0.0032267904778372583,-5.595365342393497,-3.162765767091598,3.7808841452507087,-28.111179166299927,-4.368334093909092,2.282857532580484,0.47080225787350666,3.2741511254620885,3.4225427204730603
14.539821687665073,0.0,0.0,2.0989083744471553,0.0,0.0,10.934417622285693,1.5963587011711462,19.18107604099852,8.741090452181677,6.613218002815403,-12.977907687341995,-38.67670778144634,-0.7977026916919574,-0.002154245111296139,-52.90941719393746,-5.0258686509428365,0.020605764072870278,31.94565390649132,-1.0893229101058963,8.62797119201431,13.474707537286777,-3.3974247449787183,-0.11041279762605724,3.6742481326061904,39.333070192681475,-5.901615304796219,-0.18106172625763897,-43.923769471949726,17.089662198757924,106.63379663972736,-0.0024486815018208547,-83.56568483814577,60.69373808674599,-0.0015018095738745419,105.39997898466865,-11.581745625392655,14.217404843141388,-0.0019959225488487666,-9.651134881988305,-1.8432646164350943,-0.0029521440954587636,-3.888074405716143,-3.493166273963638,4.103141396371488,-26.40891718883091,-4.79674920609372,2.454054012949191,1.019456145956722,2.375288142071323,5.062342706150415
12.957739463968434,0.0,0.0,6.215632358499894,0.0,0.0,10.566842105690286,2.091771964579663,19.987335214814305,8.834845702140214,7.004879703089857,-10.329908968231868,-38.98103457141778,-2.4055096916056686,0.001991956606439126,-42.79071933085071,-3.604916036261953,0.014133779255438492,34.63467161652416,-0.7930133471554403,9.553970158901796,8.762637365606611,-5.9224136381415615,-1.0371497235627845,2.720320081661696,40.1153753973448,-5.220106386325699,1.2037158357175302,-41.80255243926758,19.22424158937328,107.95591346122907,0.006398438589984122,-85.19569739248675,60.3512335262306,4.034861619203414e-05,105.05401597877952,-12.632175493102212,13.073075050553461,0.004457590199991833,-11.477751556228734,-2.3838460498646823,-0.003017274780441044,-2.0015532445320976,-3.0699400633714053,4.179156692963343,-24.508003118184334,-4.434836014353589,2.6869707119617647,1.3586266868850794,1.4341379335450137,5.827498899922277
13.810459809376239,0.0,0.0,8.435361324358718,0.0,0.0,9.893751527112304,2.4864223041566342,20.074599274764566,14.45718366878705,7.879256282710734,-10.000272971760337,-40.07150240782576,-3.9746578590598647,0.0005807528235924853,-33.04744014102145,-3.161337148949328,-0.019121931081369344,37.26139150558147,0.7495680599476918,10.16247726883747,4.910422728202489,-6.955448806398675,-3.453079895729643,2.4654497234177426,41.2079311435823,-4.8558193920718224,2.565124614608618,-39.71868276211589,20.658242547247408,108.98738925433088,-0.007193239124836843,-84.4803869250008,59.974121382748514,-0.0004223753381998133,104.11444757148203,-12.180366008876478,12.83538630897287,0.003159120325348668,-13.083055234740815,-2.885229947899515,-0.00031764966921150184,0.32411416182730907,-3.464265215965497,4.658056366473688,-22.185684913101813,-4.982154100366959,2.9786994346977536,0.8600432436917858,1.5143524844307237,6.865941466804322
13.64023454228821,0.0,0.0,5.231630532052388,0.0,0.0,9.132773566732343,2.904873837615342,20.368586234389678,20.133472841739405,8.918520411834006,-9.698348283924028,-40.602832816349846,-5.016112327602032,-0.0012319163057484869,-26.20074194915095,-3.088033221456204,0.008028661712375755,39.56867739063405,2.408905131823338,11.014290542079715,3.309435167076243,-7.360153412639234,-5.462124559736899,1.9632655056332813,42.21796024212192,-3.8081857667594323,4.762466933345127,-37.99884281367702,22.831073266350387,109.83769375915566,0.0006641934544808944,-79.93700192283887,59.18388182224735,0.002758413784562866,105.67994324665072,-10.911617457923485,12.82448745075489,-0.0013194496132143347,-14.061913947994181,-2.8395338445366067,-0.0010442669360434418,1.9687940294845725,-3.7504466066336386,5.7691378679949645,-20.525611904115774,-5.670938349119701,3.897600311680695,0.21280544769247292,1.8313321532477282,7.844644979324215
8.767201619023247,0.0,0.0,2.0720468525698092,0.0,0.0,8.976388932257464,3.137590925291628,21.215846146540454,23.163409767678015,8.859848441577387,-9.145067962286769,-40.148017514591984,-4.955453684570126,0.0005038764984527184,-22.569120328136957,-2.990239049999794,-0.0025312583985185166,41.11922993179471,2.828678760857634,11.497549972702437,3.323039470748005,-7.514302683540327,-7.378649709915478,1.3742491380107273,42.799846019141164,-2.4119403795961207,7.320096958216307,-36.47010029205768,25.30118866912775,110.0107567601784,-0.0015557177971105337,-78.83749738977733,58.67440723161422,-0.0034094595215019615,107.39737694753016,-10.581007942692683,12.371061860987515,0.0025282974311622475,-13.926724334826465,-3.1260320775342976,0.002107127035283952,3.059589739056911,-3.732333776778897,6.758242868732764,-19.405185261452683,-6.03160261031792,4.821334465189583,-0.8214372764313046,1.9878407505485722,7.701630284796249
7.109601016865504,0.0,0.0,0.4021003552138805,0.0,0.0,8.189830004095983,2.592650844235626,21.026727455313498,24.573831628953503,9.131122309745946,-7.643386638363534,-39.79203083673577,-4.158148095299794,1.8050506203873897e-05,-21.357082148980826,-4.104507722400394,2.1713065811678407e-05,42.66420418071529,3.602449960933561,11.874247215878452,4.592088843568247,-6.367202725213103,-9.480922486372007,2.402366392782104,42.80083582777291,-2.3705513195890218,9.871894651494769,-34.308344319245,26.73218605635939,108.89703840800027,-0.00613279605846977,-81.02223516906466,58.2547900998445,-0.0034830921817040517,107.29639071037717,-13.164514852849805,13.14870165987187,-0.00682739710522259,-14.05008323262395,-3.5976179445563776,0.0011552196436634013,4.227029087344668,-3.4611101952881236,7.371693063696412,-18.205597779062202,-6.014715546174214,5.494468955242607,-2.2830223109047245,2.7656944865814013,7.480014544135422
6.9901573757401,0.0,0.0,0.17009340998569425,0.0,0.0,6.945148028537695,2.17802952554086,20.865376454569805,25.122930076459436,8.573351487872191,-8.121313945818677,-39.005265218656604,-3.9824494955328236,-0.0004306605241310744,-22.00253302674462,-4.419178873222224,-0.00032570824259729844,43.6678439816849,4.754141790739182,12.012804224688358,6.523955186506586,-5.168334479104679,-8.875779486105591,4.445702637488099,42.63873762353888,-3.795183014183498,11.717489572079062,-32.60999655832212,27.376276898500258,107.59083441230125,0.010627992572996812,-79.39824399644496,58.413593671015306,-0.0004729651788224138,106.432932148499,-12.613340206763372,16.102852097918284,0.02636554374108741,-12.786690883986873,-3.738668571855513,-0.0020154263332369683,4.969145769608022,-3.2503374319531866,8.149499178316265,-17.424197586403512,-6.115928490595078,6.297146376698018,-3.668799289800238,3.711779952737865,7.506695394028409
6.573051474706407,0.0,0.0,0.1475210962904826,0.0,0.0,5.284787803787429,2.4219839536528713,20.517282990434705,24.926939917217563,8.467074292454752,-9.205277728611245,-37.288587106721366,-4.29894672255348,-0.00012635090310779914,-23.202549044009846,-4.021490951099118,0.000715012978764387,43.01110603165971,5.571542992597203,12.599476617766056,7.537757700418981,-4.8689595207355225,-7.573524338236346,6.72817206661835,42.38742906023292,-6.2626786208715854,13.28716890762989,-31.493104633729104,28.6655189924949,106.88921216815875,-0.001969351468258371,-79.14644134652464,59.149155655417864,0.0035434198684598105,104.50440702158755,-11.841512676282196,15.582367997773149,0.015046131019234599,-11.722464942289145,-3.325331463267636,0.002600501014101986,5.1383183691150744,-3.6294416116029113,9.541693512501663,-17.20745608511355,-6.995396082289659,7.445486978093893,-5.375177012081405,4.180190021316749,7.221299334687675
4.269824507389382,0.0,0.0,-0.8128334433876583,0.0,0.0,4.166606215739223,1.9720799299469243,20.050850965689165,24.57479196582162,7.74295156971341,-8.673062204051485,-35.62584987555865,-4.564693632020521,-0.0007408669450228716,-24.441424045372692,-3.661965096214458,-0.0009652143138728592,42.12217203791427,6.4491036358298475,13.779029714851351,8.540096065835677,-4.95045582292343,-7.2491041528070035,8.64567536526893,41.519117816421804,-8.460350837938547,14.114643133481696,-29.917855283475433,29.443136931758517,106.71121589706483,0.0006269295633337127,-80.53120007181292,60.757775193254496,-0.010229363611458438,104.35999410143636,-11.387549494677684,14.293276545861282,0.0012861732294489603,-10.150327359941096,-3.145939819493949,-0.004060098844457001,4.520872024411972,-3.707934229553086,10.324506686266774,-17.787706397013203,-7.364793471630465,8.143774799717985,-6.71014031020927,4.43793892430076,7.00263850626252
3.802730708787923,0.0,0.0,-1.5305114642519784,0.0,0.0,2.9267137977426883,1.5197282495828162,18.970612588437294,24.361557815537857,8.396100390929675,-8.14189073031813,-34.70856209867355,-4.5171472574200076,0.0018236719345727332,-25.742636959760798,-2.5931485390101723,-0.0016617449843882885,42.38888840423154,7.147407055111649,15.029640137096031,10.19990463954724,-5.415187728745191,-6.381125428137249,10.927308283269468,40.89249114870773,-10.691587139147813,14.143577739230928,-28.126471874460062,29.508142412914903,106.63998170390558,-0.0008599324850434887,-81.08246890919438,63.22215472557332,0.007497726908939159,104.69392988796452,-10.38614499293381,14.454756378816008,-0.0001314876381891009,-9.430946396245572,-3.604819382180841,-0.001102194290893797,3.705021254455736,-4.040082958186882,11.094103474858944,-18.57691525607138,-7.963415884537373,8.733465672054466,-7.119013688292129,4.635706645664025,6.845542687276704
1.2190818648214878,0.0,0.0,0.596924617658324,0.0,0.0,1.9952460577544366,1.8204473356149695,17.64978982407338,23.432015739433936,10.294748610664366,-6.8082884400855415,-33.41447235741818,-4.224965568189914,-0.0024373114090210112,-25.969084787302947,-2.280535211466268,0.0015332843201524668,42.334417688250504,7.17620589239802,16.373083584570825,11.058025248336023,-5.870349337613042,-5.947501996556568,13.07625042145693,40.20536408677201,-12.939023704704432,14.062151857494872,-26.713817168597554,30.53213586425453,106.83382070877757,0.0019593320476135887,-84.31781372049615,66.63225996635897,0.005148221565874574,101.6053531161105,-10.902810062132847,15.216429118421113,-0.002455149518970716,-9.978892858647956,-3.152888352055746,0.002009579801368624,3.2508895117021814,-4.168484170289217,11.752289232371645,-18.99813938223076,-8.330991418557709,9.298062999012428,-7.237689187132422,4.638354627403086,6.159733506646886
2.211119820190573,0.0,0.0,1.8469030217168727,0.0,0.0,0.9382224874273443,0.6351532367682863,18.59451070450842,22.9145001220585,8.51084219397759,-6.836482387455337,-31.861592724898237,-4.840426893913199,-0.00034458753517733207,-25.272045418560424,-1.9024800711638163,-0.000333658222798095,41.8981317137699,7.6001877235907145,15.36850124496292,10.911373036398585,-5.171603843263983,-4.781865731262797,15.438003254283261,39.01461056637698,-15.715997421673247,13.95048592671782,-25.59412110685219,31.44796226775709,107.76883362336736,-0.003804657328301194,-85.41507117394195,70.56763039965583,-0.01049831755443531,101.29164067393731,-11.762420612081227,15.437625096355736,0.0015174074056516851,-8.36719781548994,-2.382396678561286,0.005137416947518952,2.9015823440210253,-4.185299954944788,11.655538489446108,-19.354387596293805,-8.310007420237097,9.201365924276885,-7.539437530805791,4.998979590592369,5.9665580620311935
1.276383237511862,0.0,0.0,0.7913328364468273,0.0,0.0,0.1918754341378969,0.12014555274077393,18.07933461952264,22.804814773897128,7.3165209973339245,-6.291435380231103,-30.532464514174556,-4.508980763671688,0.0013696152065323444,-24.525802683574,-2.387422717882585,-6.061463917057935e-05,41.445304439484296,7.902164759830602,15.691645939406879,10.740913892378584,-4.421324579596618,-5.685177727299192,17.744786524866367,37.025314508638566,-18.51257354226518,13.851468405604649,-24.852043445815667,32.44539439544055,108.75663382525342,0.0023730532511626813,-85.34001577891809,74.35302869050383,0.009405861640111306,99.27986724659165,-12.819909215766932,14.901231399323919,0.0007219727309005717,-10.136541970332454,-4.802557988810781,0.02942575143384181,2.5968087027040747,-4.047795385854912,11.15701509974599,-19.68182380585439,-7.994336353839325,8.789157146125005,-7.776052347587296,5.147247380686195,6.2435731982935
1.1962708607607146,0.0,0.0,-0.25745560746887836,0.0,0.0,-0.931561415860679,-0.24822534759488507,18.513031877570178,22.694480472286198,6.395846433289758,-6.5522538101229895,-29.153258579042465,-4.5401333829280155,-0.0012859791667804974,-23.806449964370522,-2.059728307439518,0.0006009652979355829,40.767741362149096,7.997170398658169,15.287273456628954,10.313216910355477,-4.092738319194151,-5.970930103070766,18.729612112850003,34.32542690081559,-19.678661338894692,14.140075600334011,-24.04454383694233,33.451724285055775,109.5701985249941,-0.0021212577108104006,-84.95232414720547,77.93240697633107,-0.011973334123829749,97.71331718276375,-13.155020092179303,13.663313599869104,-0.007310247762158129,-10.912816329377865,-7.128975957598846,-0.009515947799368842,2.7149075253655126,-3.784319690855516,11.13488871646882,-19.551243289237668,-7.74214873614591,8.869338763401252,-8.026837400367102,5.2075322844897665,6.266360469692501
0.49852281217951244,0.0,0.0,-0.5026143483017005,0.0,0.0,-1.5832122802067359,-0.46558855048932296,18.503249412429025,22.346700900972937,6.186753197663363,-6.347024439799106,-27.7162043361568,-4.277123853809085,0.0011675705775535772,-23.350432084353727,-1.6365788419331386,0.00014967648521246925,39.8434712780118,7.981170318098435,15.386902044341404,9.87841946434699,-4.055290043844354,-6.0116248074786265,19.940779089175738,31.942909712305642,-20.55113084757183,14.709548542640643,-23.312577721913673,34.412575312897765,109.9331607544285,-0.00014795744589424795,-83.95488305124307,81.3550347224799,0.006064366177692995,94.8969581260731,-11.353765052292013,13.531480336407121,0.021252428461626706,-9.726907024175427,-8.542301206316285,-0.0021034411237831783,2.793408112798127,-3.829130386022086,11.362948384200124,-19.46133464013738,-7.869825311766508,9.064771016058982,-8.285823021913263,4.923142069835501,6.443484552501334
0.18210723347524432,0.0,0.0,-0.8511239573452202,0.0,0.0,-2.2938965750827993,-0.9058944456482437,18.7981248667701,21.982027575006672,6.341716667015911,-6.420581498814927,-26.309131449236652,-3.9423357029604897,-0.00037030344043626856,-22.63104120424166,-1.499471148881335,-0.0003454592955428722,39.273124229393005,7.767035449436237,14.977437448631676,9.56758286347082,-3.876134781494429,-5.999448223923853,21.154300243966233,29.64120110720465,-21.49536507812885,15.718650213838423,-22.89002117048166,35.70783088029881,109.41752349584229,-0.0009534285946142445,-84.30613768453641,85.37074548880298,0.005565524039694707,91.4661425712853,-9.052060799323566,16.723213754160724,0.005720489713317754,-9.12396965500786,-7.436150784036872,0.0029981898929312464,2.1012743950307686,-3.5370466723917073,11.122704146795295,-20.153067232026583,-7.508705440323518,8.952492457338463,-8.118499914057853,4.692173948777459,6.567520936081308
0.16706473006085845,0.0,0.0,-1.7973119535428534,0.0,0.0,-3.0352039504584383,-0.6075871937697834,19.131165450832857,21.805839197912434,6.5015233711281,-5.911145650654501,-25.17017389961147,-3.7804235080096653,-0.0001240853254825914,-21.656570413315077,-1.7546772352390285,0.00027115477555112317,38.883763326216325,7.704764084382064,14.766403583511092,9.208420158195922,-3.5134708718494494,-6.264333179016838,21.35246665828669,27.179431206554995,-22.25578305369076,16.81406563441865,-22.442362262520778,36.84152415174777,109.44965844971283,0.004103011263807358,-85.0675727371871,89.2561395131574,-0.0033119246682763036,88.73203191520997,-10.060100428015184,15.96332397603618,-0.0029069841441880253,-8.744806806982766,-6.891772277450176,0.0013260935063361499,1.27052790088347,-2.856259945908932,10.918679892956217,-20.96374366438855,-6.801469935346473,9.022202873059385,-7.608434551904093,4.4273765335951705,6.747689042437486
-0.1113516569935909,0.0,0.0,-2.163328800373911,0.0,0.0,-3.515027418745294,-0.931572845360171,19.641694013994222,21.574278359894684,6.803911544638004,-5.780005352718798,-24.082958021118944,-3.823969789116304,-0.00021443254938566088,-20.488749459221715,-1.8325808228583251,-0.0005217533047128445,38.15202567227307,7.772162763059917,14.66627736493823,8.487316741845738,-3.2553183861837836,-6.389131946356125,21.365627014484662,25.02613966028201,-22.989164156264412,18.27694031083042,-21.627393333478196,37.89665789194644,110.46600322981213,0.0005070858437015564,-85.60585484493797,91.85262561769251,-0.002791785021988337,87.22672678885465,-7.757321284459696,16.021711093197545,0.02413130968325453,-7.245436767082674,-7.971679799900531,-0.00822970519723201,0.4140896316704819,-2.6322136383240338,10.87703105602154,-21.812767800479197,-6.578329668755122,9.068782900046356,-7.310960785991293,4.082855548162003,6.6559183971046805
-0.8619281319252686,0.0,0.0,-1.4569845698860802,0.0,0.0,-3.6853676019049844,-1.3999948390519734,19.654914757849642,20.956490090656903,6.299978959937617,-5.5960539392032125,-23.180296566867682,-3.7302550111636084,0.0003476766245233227,-19.466090247843336,-1.7691101333303276,0.0006011007850812674,37.74497506849835,7.922664641163692,14.747369870570596,8.092120554204062,-2.948408337415757,-6.651625783698748,21.869624593352878,23.310829067284633,-23.873645667761853,20.328117141683826,-21.026480117149298,39.05613552172492,110.951724051838,-0.006462173308625408,-81.55112826629463,94.16578869945694,0.005466980722095701,84.61226459872513,-5.2481181389769125,19.32229873034294,-0.005678447272912854,-5.336090471144922,-9.973377610098616,0.008438231331956609,0.05848128101983904,-2.2870991201665465,10.48591240689054,-22.17728308732846,-6.111034440753775,8.836218788799794,-6.8127976196309525,3.793107067435361,6.766135268520071
-0.844117582762981,0.0,0.0,-1.434460713903298,0.0,0.0,-4.043703182669033,-0.724032257100233,19.497508674315736,20.574901838887524,5.677236787079851,-5.691818800007519,-22.341185110934457,-3.840075665777297,-0.0008105829451227925,-18.518041423813404,-1.2544027804522726,0.00039827463079581234,37.35629421940838,8.041622297018892,14.719655971368931,7.554076644491701,-2.7814664428194646,-6.380986611298344,22.122986213283763,21.58435599668565,-24.84979358755306,21.886267613077667,-20.43472605878137,39.685838876021634,112.21236303609379,0.015117505802921174,-81.23632583653489,96.18255899430088,-0.0030463937047070263,82.40791493318393,-6.588435470319534,17.57450633946622,0.015234185925556816,-6.272378275642643,-11.846252417239736,0.009972866065111153,0.12940024233080172,-2.470363661965168,10.13903466182626,-22.133874402917698,-6.1494293607863355,8.443803736725586,-6.14370902902762,3.7204662810348483,6.933903035729824
-0.3242022465311597,0.0,0.0,-1.8221763748948614,0.0,0.0,-4.6729913893348085,-0.4919156938805976,19.415995104111754,20.423399645012626,5.430438602861371,-5.70694447943404,-21.583349005171495,-3.950156123154753,4.860454100103727e-06,-17.680421446464212,-1.1438934023620972,-0.0007618241448491774,36.84937231046109,7.887253708458169,14.74868245080185,6.864774205332834,-2.6819870617007515,-6.495822385229381,22.252171713817557,19.820847108636812,-25.171792817350166,23.57053277252501,-19.578007404151197,40.017298786584504,113.41322177980109,-0.002929128613270016,-85.0191111576158,98.2422148661675,-0.001310253493105402,79.88029913200127,-8.05087894554894,14.589367587277788,-0.002625548134841057,-6.57487318298054,-10.673303286737648,-0.015179167259668813,-0.1917577889281396,-2.3564507477928953,9.510262283219358,-22.484919320657962,-5.805852541825065,7.902726549844168,-5.781925494418009,3.499745058487627,6.881752894396138
-0.5912887558092318,0.0,0.0,-1.7963774517186932,0.0,0.0,-4.780723793872342,-0.7643422275106495,18.72138106589549,20.10119282929772,5.729161082118259,-5.653723275226553,-21.22351972936018,-3.7753068484132926,0.0002295294589450338,-16.561549501103297,-1.168093643650196,0.0004979419521595946,36.66113886086144,7.927268446433592,14.971138017755623,6.1694325459637325,-2.3375718279761815,-6.781198228043144,22.4264320162596,17.737122641459884,-26.240863377871843,26.25305692739433,-18.312315357720145,40.61651362546423,114.19306689650942,0.0009705160578404568,-87.567451533145,100.20853592085122,0.012411005752703605,75.74471525827958,-9.79432455744598,12.521173601014045,0.014835404286998503,-7.888440505949903,-10.002553889490821,-0.005221782231169858,-0.5703301545096683,-1.986568202527821,9.357967715121479,-22.857762157032706,-5.4058889945703825,7.902214767731168,-5.403552829359752,3.401297627901432,6.83403245298768
-0.49858908442970595,0.0,0.0,-1.9794486869485948,0.0,0.0,-4.864060476760376,-1.60663830921869,18.461896915595588,19.88606029286104,5.624057340096143,-5.897205859883326,-20.60251838564528,-3.7301960856798186,-0.0001354166753816462,-15.588310420638214,-1.0313196065069132,-3.778978577146736e-06,36.21869107302418,8.051716661951216,14.92084342076541,5.414822136301699,-2.010184268214039,-6.876418894428775,22.46391730333142,16.29503584555244,-27.329117631086138,27.759049138803242,-17.25473549845102,39.98356187982447,114.99666617170763,-0.0009931000318001342,-88.96901144994526,101.59811837363311,-0.013457011335204029,75.18058839576743,-10.466812003029379,10.677588048596347,-0.0047505497025329595,-7.7832237692473,-10.88316339775464,-0.0010133695141763233,-0.983007600877992,-1.7695200772024446,9.218284502272418,-23.27019517575797,-5.152106327443985,7.855143284722688,-4.954115075061677,3.3279955499970915,6.7349082866004935
-0.3813327392086849,0.0,0.0,-2.4745626201014455,0.0,0.0,-4.9678854137557495,-1.9145279316797659,18.34525447467974,19.788295682478548,6.21783115028556,-5.786068633630218,-20.186137655957413,-3.904667344978978,-7.44268013128358e-05,-15.041632362183048,-1.103113376045897,-0.00011034462558288134,35.90058141619318,8.16501629806526,14.709562422067014,4.930990261355374,-1.8014960831122626,-7.462139711793355,23.097967910350327,15.108951214172183,-28.34815210904929,28.71126853998226,-16.46397748101661,38.90962605971181,115.2158563610268,-0.0015135054871926602,-91.17140981033445,103.06237692693277,0.0012729323285874123,77.46898551225429,-10.776011502752404,10.261683595275358,0.003070486999234628,-9.51344447181055,-10.24098804166984,-0.0033433333219051098,-1.083135371418138,-1.5792236400992783,8.899876224405864,-23.380479266713404,-4.855296543441231,7.63199570852445,-4.604893427542737,3.1521816794355844,6.912095037625394
-0.3201545314920575,0.0,0.0,-1.983291743741808,0.0,0.0,-5.333846771738214,-1.093488787465543,17.982254917883353,19.61706576631249,6.05879513693211,-5.804324926186546,-19.993330891477182,-3.880930902137765,6.173788711003691e-05,-14.77671202775768,-0.8673839074285487,0.00011292885020935179,35.92804846159688,8.043112743776286,14.811255194446858,4.78839404092117,-1.7904712605824658,-7.820910258015419,23.794469304293937,13.982731665770133,-29.303310704722982,29.969863212618183,-16.080352597235855,38.18162110871771,115.20044272043218,6.72753124468137e-05,-91.13425745183694,104.30587855100704,0.004736215215410339,75.75671406162665,-11.852783630186469,8.81055469244251,0.003436721692607719,-9.595182353402064,-10.378912116124534,0.000425904197564872,-1.0460723198148343,-1.3480636591361275,8.561648105519849,-23.35322081862239,-4.513126986756274,7.4061340043657,-4.213563269068317,2.8566733659984505,6.92953650236924
-0.49302434901212383,0.0,0.0,-2.0420520578695682,0.0,0.0,-5.407739003898687,-1.0363090189663093,18.06341205970645,19.62458462847944,5.01956806344141,-6.26568263233805,-19.7663135796387,-4.080562560512272,-0.0005522777221437085,-14.616670730570828,-0.6173598455009682,7.173517700185286e-05,35.6604549299048,8.180678197100857,14.757510474911877,4.490614679871445,-1.5752599012477888,-7.422686503729025,24.244442527910696,13.432642977811792,-29.35875693767101,31.14243915337999,-15.434684103133126,37.7580283322856,114.98328182260775,0.0021727715428589566,-86.201934819546,104.78045605582432,-0.0019807787254116672,74.30867214432396,-9.39561300204155,8.125458075825225,0.0013873417100926987,-8.364338885975295,-10.772116659762473,0.0027590129159931745,-0.9085500257312632,-1.4249920086354322,8.653123779441357,-23.213492216220494,-4.619001927692174,7.461724422994636,-4.0111957465334935,2.7433506308277766,6.825192548794691
-0.7205492312070643,0.0,0.0,-2.4298055678845714,0.0,0.0,-5.335046579223416,-1.7589630643076486,18.56732087139929,19.43096731888554,4.888396526281632,-6.218153173910883,-19.506970572904358,-4.446178360940902,0.00012296560679003442,-14.341806992308062,-0.6704628735591381,-0.0002614414056857803,35.24204726267215,8.370280376109514,13.726894281778117,3.879466563665519,-1.1410027299478127,-7.368327759005528,24.57127269501204,13.046694408445873,-29.390748279079897,31.581082164300806,-15.149938393403339,36.66367543448065,114.75113685691927,-0.00037796488232919316,-83.23864555584696,104.91437058511272,0.00027870618683805055,74.03791356812964,-6.8107461430311425,8.523022145134663,0.0010775131889014529,-7.913897246860081,-11.16819918064911,0.001728983090882048,-1.046599655151209,-1.2677733752029827,8.201420006141728,-23.368856716033143,-4.302106876409516,7.102567380267411,-3.9478900412113234,2.6055568451160775,6.969825928035052
-0.7083877406596317,0.0,0.0,-1.8407211310088631,0.0,0.0,-5.618225452005098,-2.1669331177916105,18.281759710922373,18.68335656604464,5.432797440717713,-5.820751487398081,-19.27497596092825,-4.334602804261891,-5.416326775117161e-05,-13.60124928640323,-0.6151769031473077,0.0003252855374108148,35.00239264818841,8.361968082447664,13.318298377582273,3.160945602851346,-0.8219160852397593,-7.799207375489379,25.115763439121398,12.18578219526708,-29.762788645592913,31.64864772903943,-15.061650468729763,35.91580043416122,114.33768548221185,-0.0008152526587222714,-82.9203358848392,105.02027576656101,0.0018176803036500382,75.26074672433445,-6.29561082878985,9.110057293500722,-0.0004781822704164618,-7.658386433980741,-12.16843642245866,-0.0010278848875518263,-1.411777993237733,-1.2867098759170263,7.5985970649916315,-23.76204259258227,-4.0905793174807705,6.536395333883146,-3.8525487007554804,2.5429872398916538,6.928029887612116
-1.192397575908495,0.0,0.0,-2.0196059059590232,0.0,0.0,-5.734459047227209,-2.0915248172168996,18.007397656726162,18.39781855027651,5.998312972666877,-5.743404134028176,-18.995829834829706,-4.342295219357808,3.820981735599419e-05,-12.990112638669235,-0.5901799038798394,-0.00012129653440423465,34.83508246369366,8.217448638385033,13.320226381630086,2.692791213756306,-0.750416723143138,-7.953726919511874,25.459710243963244,11.845934139216697,-29.816126683609077,31.40856313802164,-14.955932769732323,35.67687781911047,114.03826750125842,0.00013885996780827698,-83.57909376380422,105.46323509631989,-0.0014862793674399787,76.71251021089907,-7.521476538194522,9.652987189485229,-0.0019576011472706408,-8.046893432512302,-12.07481282076522,-0.005051972241935365,-2.019810008273662,-1.5783245222447062,7.839007194142176,-24.367748154082353,-4.451675111621305,6.648094888293169,-3.534987261544532,2.292745104386809,6.698232116832635
-0.9893911897613564,0.0,0.0,-0.9647293601564224,0.0,0.0,-6.1967471875430595,-1.2531441345576781,16.65500214760716,18.11140022953443,6.520839237411014,-4.420887246599453,-18.802891666002257,-4.109348296070911,9.557854232873758e-05,-12.663033818699803,-0.9097410283193386,6.596847900567545e-05,34.89614195509134,7.865274618144181,14.096193692188638,2.5658473890366733,-0.8404704840327156,-9.410610368563011,25.41379976493097,11.973797789091602,-29.508838904630775,31.45017511932039,-15.219081552227058,35.741287454202144,113.87737770524413,-0.00023514283014856134,-83.66913274411432,105.9026803681689,-0.0001931199302388605,79.92801494802112,-8.181834633390105,10.380825070426264,-0.0008125608665328536,-9.376303698670695,-10.527256401508,-0.0004883468008586374,-2.4409315032127483,-1.637720458436842,7.643692448984398,-24.799172458148004,-4.43235256109497,6.4443349338087845,-2.997010962510214,1.907960018384007,6.314274389680731
-1.00988331405369,0.0,0.0,-0.7464387556464753,0.0,0.0,-6.283417792749054,-1.5088004705669764,16.473554629078524,17.873390331254047,7.157175442884872,-4.222644529233498,-18.760702935215953,-4.0720143022625095,-6.561078440583007e-05,-12.184339077640598,-1.2168686265370476,-0.0002571221440334403,34.91572763842475,7.735228215330499,14.194845182188455,2.377857524218948,-0.7979804348970337,-10.100918520685186,25.225747979994473,12.23025787836456,-29.151424486132523,31.597257010391374,-15.391661752501689,35.729291469547626,113.63179755219234,-2.305443253506089e-05,-83.88920974359733,105.94603530295907,0.0007940730857116103,81.83194100227101,-6.612542141238574,11.88006322569391,0.007571601644532135,-9.914953675915237,-10.166728810974266,0.0013693707600693436,-2.568066914253234,-1.4565941424059412,7.428140064295884,-24.930306700226105,-4.18287484881056,6.31359942423163,-2.704946638835517,1.4874405595677547,6.370119148647906
-1.1211959847131816,0.0,0.0,-1.5423049774950983,0.0,0.0,-6.4241960711180806,-2.491317521668961,16.90974361717713,18.177263152678147,7.289203127185249,-4.791565634852981,-18.463614011475777,-4.129064306852217,-9.123027222711558e-05,-11.860734212384882,-1.1804834628816516,-8.170529289598572e-05,34.50988838824693,7.710410475804519,13.409751706753031,1.7176274189782819,-0.4890113524061724,-10.664488805497811,25.138931571913524,12.710395850484872,-29.436192791898872,31.374520315774785,-15.568142746882977,35.783463735507226,113.62664322338533,0.0008624787572810964,-85.58991674483471,106.209399368209,0.0016185162446452617,80.0090337660967,-7.12413937342817,12.450936832295106,0.01229128216589378,-9.523467593183746,-11.063911385295272,0.002183504942994722,-2.7579235355707614,-1.0976110523301796,7.258362603373625,-25.11780234780733,-3.786311079770198,6.293138986096534,-2.783086728922009,1.3465932200366426,6.29837925951505
-0.9190507574681775,0.0,0.0,-1.9851765991201236,0.0,0.0,-6.576729170891797,-2.916146455254296,16.425756865155666,18.478299460573027,5.83545838719615,-5.239549249672202,-18.11898664286453,-4.022287817000836,2.9159461048967934e-05,-11.419528579367904,-0.7416198670308223,0.00037885287916636286,34.37259473946371,7.900569878215676,13.111449513446003,1.1878345009106588,0.06580096219007767,-10.904916839053309,25.40624772397867,12.773390497415058,-30.242260869524586,31.147153684579035,-15.861866458507864,35.690664243971035,113.47405441093447,0.0008659546761847085,-86.682869520914,106.54512856338594,-0.0012905524278326226,80.40487419602736,-9.130886826791832,12.49447682142152,0.003801472455851402,-9.943806507039238,-10.747807974599747,-0.004364008962702767,-2.8193207417665973,-1.1002972117299985,6.987977701348582,-25.190407689568133,-3.685933868435083,6.04159326607423,-2.722027212608442,1.599660732383218,6.21204146654023
-1.0421879546783048,0.0,0.0,-2.3307603428250996,0.0,0.0,-6.612473040404065,-2.995617028646799,16.088367362675232,18.238680041334973,4.971533016959132,-6.113868078699542,-17.77534237676332,-3.963430064500195,-9.466855808377226e-06,-10.823098553678339,-0.42945866514272313,-6.008867097603797e-05,34.255444980680544,8.068254122931512,13.095424927131944,0.8656001470641801,0.4195230070632298,-10.208675340305005,25.23271197072186,12.991394312143928,-30.559867814533153,30.970768837395664,-15.80129903163223,35.6276533566887,112.99671654162965,0.00027855390057859614,-84.96095009103284,106.54069371343516,0.0004778974287056039,82.81334773873076,-8.973725780825966,14.813684869037193,0.003156248575125537,-11.103790963182732,-10.407318299952601,-0.00156414157179118,-2.8832527947119,-0.986770564134662,6.525330499565135,-25.269731761069217,-3.4048421072839457,5.656339670292603,-2.5489339536257147,1.592677898581139,6.5147926348387735
-0.4731705398879958,0.0,0.0,-3.1765977924325273,0.0,0.0,-6.93665779528558,-2.8978627420503305,16.36315797281115,18.426141761824418,5.050163955686349,-6.226543055734849,-17.31019785719369,-3.8959241975378442,4.015423887210214e-05,-10.93456699764344,-0.4186266371126145,-1.3860716617706349e-05,34.17886189223279,7.7682031602249335,12.87018611689475,0.9840257132601844,0.31224970856937323,-10.491915411702594,24.968205991088215,13.753420297566642,-30.469321851922054,31.047098821834428,-15.638086838628913,35.703397250155824,113.26704718305771,0.0018533565358534797,-84.87060931112728,106.34332492426444,0.0006541336896860886,82.62312618079075,-8.354539766889316,13.599040605688806,-0.01983831014205014,-9.819720146388985,-10.188805847018662,0.00341040218677963,-2.8987604233038002,-1.0054897407807624,6.565723271267596,-25.2841409453962,-3.437527745915419,5.686607643851641,-2.279671922591889,1.165002164191742,6.5275819010617555
0.005622099561531169,0.0,0.0,-2.950798087829769,0.0,0.0,-6.552839046972764,-2.8299600383101073,16.47023098187938,18.345386708389093,5.282453868456608,-6.594102271272363,-17.26080261716223,-3.832932705035857,-6.389398537149739e-05,-11.027059695061574,-0.38792160930903635,8.456925779889752e-06,34.26183056333145,7.625711735488889,12.612155891843477,1.0768633395151286,0.373166279509988,-10.59329967159216,24.743374578695683,14.201948105741002,-30.260734376517455,31.07787611838144,-15.656498179122895,35.9416897812041,113.43600913669879,0.00022331025035082785,-85.93056410061278,106.37059035315092,0.00042299592609148427,82.59809741899777,-5.899204515229014,11.670732565998952,0.006812034028272319,-9.270049419323467,-9.10915447889017,-0.0009294683575968134,-2.4733201887178127,-0.897894794535291,6.578886223320865,-24.85576561452957,-3.3430468238331734,5.739846621851602,-2.1125390534149826,0.8476591392833001,6.589360437298293
-0.04245200475936016,0.0,0.0,-1.9544533658644134,0.0,0.0,-5.799873180198809,-2.9018746787014,16.511437895985157,17.97616094854509,5.210818922365132,-6.224890427094618,-17.159978011109423,-3.912837541066888,-7.379878450272544e-05,-10.88254214259833,-0.5793156879284778,-4.82661114883998e-05,33.95081583940215,7.362323267987384,12.548657031564431,0.799856574242789,0.39184732111621184,-11.340563258546212,24.665546925306167,14.38707596632579,-29.833767775890923,31.015593866223174,-15.516957305956918,36.28800347292906,113.35752792814937,2.94571363890223e-05,-84.73481744513892,106.1971711811141,-0.00016677057751238555,82.76059473867444,-4.305246925130911,12.216436344617414,-0.0023243434072907467,-9.627269294905586,-8.702798719854137,-0.0015746709129000527,-2.3579941029363853,-0.5871655561004664,6.677178583668123,-24.72995079446069,-3.093139984826849,5.949357535772635,-2.2326389509667983,0.5190686408628218,6.543950717860545
0.41274133476589026,0.0,0.0,-2.262255585501884,0.0,0.0,-5.057987211480177,-2.951102919506529,16.72437018667545,17.928803561650074,5.435647972588705,-6.195531688385659,-17.334885124180758,-4.125965660892588,5.134052934339263e-05,-10.752791384238709,-0.7858848234517838,-5.084515175056206e-05,34.08144266102772,7.296056661264631,12.215813821618108,0.7943718960751853,0.5693265678223182,-11.566617469255885,24.835527702475847,14.536018818155913,-29.502557743681876,30.782761318514847,-15.365202562310127,36.11428606603317,113.34891603538838,0.00045626996717787466,-84.43471049867271,105.92607735853888,0.001557059710597942,81.49106670314032,-4.293511158326848,11.011104984427082,0.0016025094326140932,-8.062759249426872,-10.08565185231053,-0.009022255601653739,-2.4250328795281395,-0.749177881770793,6.763414492755404,-24.796988838425268,-3.2757776970731767,5.967464786171212,-2.1737803965145783,0.19105638767800875,6.317187115809209
0.3906535901962457,0.0,0.0,-2.4895090356355105,0.0,0.0,-4.284368705897232,-2.3457093409878946,16.426740326002005,17.921692411453975,5.236750014751985,-6.561874658806666,-17.63648445989842,-4.372734562415942,5.64346156979589e-05,-10.576817669873158,-0.6176176499089643,0.00015955200172848244,34.31434445164393,7.526145612886395,12.112882861245275,0.7669755210207959,0.7787348044200485,-11.273236156553537,24.762286132410804,14.385567346654236,-29.478883334316453,30.368631217657725,-15.178617662411064,35.75827868846266,113.25411815341654,0.00029568864445069507,-85.59371588110993,105.60224344177789,0.0003790634074728321,81.00509672639485,-4.737382845619823,11.269135239201551,0.003921223020928448,-7.792760110194411,-10.323990076172015,-0.00014246582256248914,-2.3396634763050383,-0.5877779557125583,6.377076517635181,-24.723289822927924,-2.9794560303592403,5.671242715417185,-2.1396481695124314,0.20214429716006832,6.64067460126884
