PaulMeinheit/Bachelor_Muay_Thai/processed_Data/N3/teep/scaled/JointAngles/scaled5.csv
L_MTP_ANGLE,L_MTP_ANGLE,L_MTP_ANGLE,R_MTP_ANGLE,R_MTP_ANGLE,R_MTP_ANGLE,L_ANKLE_ANGLE,L_ANKLE_ANGLE,L_ANKLE_ANGLE,R_ANKLE_ANGLE,R_ANKLE_ANGLE,R_ANKLE_ANGLE,L_KNEE_ANGLE,L_KNEE_ANGLE,L_KNEE_ANGLE,R_KNEE_ANGLE,R_KNEE_ANGLE,R_KNEE_ANGLE,L_HIP_ANGLE,L_HIP_ANGLE,L_HIP_ANGLE,R_HIP_ANGLE,R_HIP_ANGLE,R_HIP_ANGLE,L_SHOULDER_ANGLE,L_SHOULDER_ANGLE,L_SHOULDER_ANGLE,R_SHOULDER_ANGLE,R_SHOULDER_ANGLE,R_SHOULDER_ANGLE,L_ELBOW_ANGLE,L_ELBOW_ANGLE,L_ELBOW_ANGLE,R_ELBOW_ANGLE,R_ELBOW_ANGLE,R_ELBOW_ANGLE,L_WRIST_ANGLE,L_WRIST_ANGLE,L_WRIST_ANGLE,R_WRIST_ANGLE,R_WRIST_ANGLE,R_WRIST_ANGLE,NECK_ANGLE,NECK_ANGLE,NECK_ANGLE,NECK_ANGLE_SHADOW,NECK_ANGLE_SHADOW,NECK_ANGLE_SHADOW,Trunk_Joint_Angle,Trunk_Joint_Angle,Trunk_Joint_Angle
X,Y,Z,X,Y,Z,X,Y,Z,X,Y,Z,X,Y,Z,X,Y,Z,X,Y,Z,X,Y,Z,X,Y,Z,X,Y,Z,X,Y,Z,X,Y,Z,X,Y,Z,X,Y,Z,X,Y,Z,X,Y,Z,X,Y,Z
-1.14306,0.0,0.0,-0.5659,0.0,0.0,-9.106160000000001,-2.2022400000000006,21.699400000000004,22.283550000000005,1.8089400000000002,-13.585200000000002,-20.416650000000008,-3.2989100000000002,-0.0003800000000000001,-19.078640000000004,0.12129000000000002,1.8057446481422245e-22,40.13902000000001,9.412710000000002,12.066230000000001,4.839330000000001,4.042390000000002,-13.006830000000003,21.14688,13.934470000000001,-30.416200000000003,24.798780000000004,-11.144290000000002,34.75793,107.49192000000001,0.0027600000000000007,-90.41359000000001,97.33572,-0.00832,82.69148000000001,-11.885020000000003,15.756640000000003,0.00408,-12.946410000000002,-13.539060000000001,-0.008330000000000002,-0.4418800000000001,1.2040000000000002,8.623200000000002,-22.689240000000005,-2.1748200000000004,8.432230000000002,-4.87397,-2.0464000000000007,9.227140000000002
-1.1416183568754652,0.0,0.0,-0.5950855780927441,0.0,0.0,-8.747584309399587,-2.8818961683486757,19.97168433978509,22.09566029849713,1.845212216616298,-13.324524250673697,-21.135461374157856,-3.3507617544066273,0.00011913346390464742,-18.69610772823216,-0.10592988318348498,0.0001922862554655537,40.329600015446026,10.144363669742102,11.654560420408894,4.865706737904838,4.068436096739029,-12.764495844720631,23.561908431051123,13.78108531729799,-30.28439733508428,26.58979009936838,-11.463419492526508,34.98360141013158,107.85607971917082,-0.0006433514981203114,-87.3300572669569,98.98514196609203,-0.00750730902728158,80.77126673253574,-11.231414323656743,16.551272538609606,0.008314494337991024,-12.528010895365764,-14.89651525797684,-0.012645731628886695,-0.746919761975747,1.2987293592647882,8.862826161069087,-22.979259808183397,-2.1778079812988405,8.690020007835463,-4.520485661178162,-1.7509143589475893,9.591422012881996
-1.1713680030580043,0.0,0.0,-0.7865688473961056,0.0,0.0,-8.47188926093442,-2.7411291053889992,20.74222387411757,22.267448018285958,1.8085180074180378,-14.223507522260702,-21.09019258350311,-3.657935955727014,-5.4350391974747426e-05,-18.831174196769133,0.28414277407138966,-8.256572712121059e-05,39.90609571797498,9.875367278905953,11.307122271528822,4.594413787628884,3.592863644455157,-11.831346525109147,25.376539810257867,14.015057758026249,-30.326308717116202,28.198120026852692,-11.634058880976495,35.85736701364134,108.68316406676763,0.0016385063483290321,-84.16695344038615,99.74667477338882,0.0006392342467924059,80.40071509982752,-12.10022744802528,14.477221074912789,-0.002019667742207829,-14.804448934087677,-14.690665495540863,-0.0003312393300954065,-0.5438452536770443,0.9455704431857684,9.169021569100204,-22.763905212035354,-2.6205227392064825,8.839953149704678,-4.594701120422927,-1.7642394937250614,9.287152561165366
-1.1736594719246956,0.0,0.0,-0.7861605716889144,0.0,0.0,-7.798211949009239,-2.9534345687097394,21.007565352171564,22.348490526980008,1.9215879119475083,-14.205548170156016,-21.01654605395072,-3.103027252770663,-0.00011656847984476223,-19.27645339323128,-0.1663499739562894,-0.00010736698327050312,40.00902576052883,9.359707459219944,12.23972450083019,5.007334980219029,3.5024622314582112,-11.605807936093083,26.42731746377653,13.922828485223421,-30.597395187038167,29.46014507474925,-12.264396256495333,35.51864007247002,109.13083197836731,-0.0004570215412478719,-83.19692393210669,100.16043524113215,0.00022424828729913422,80.49510425909526,-11.141160057481375,14.706564770359298,0.0014653497578816334,-12.05824823633342,-13.739283032228824,0.004940502935197268,-0.49354051763504103,0.5500823172626007,8.614300061111194,-22.75210399085219,-2.776655684835718,8.176122501322627,-4.1285923667197935,-1.8074884274439642,9.595388301894996
-0.5917722867940606,0.0,0.0,-0.33396978605307215,0.0,0.0,-7.7496653813141085,-2.1019210553334218,21.965575800241737,22.326689233553534,2.08695743400441,-14.17567344417628,-20.22271545136208,-2.9283152841187037,0.0001151650531273418,-19.033858065084292,0.031430741017306356,1.788220393571614e-05,39.9630399183316,8.5242496858566,11.339790769551195,5.115454465996201,3.1458575297578353,-12.004016515757293,26.86965572233015,13.782305838878735,-30.79621165070721,30.206981760221428,-12.056544107141747,35.58943528038117,109.52375577325563,0.0011304769565825773,-84.22457326450441,100.63175328830731,0.0016905882680158994,84.59054259980049,-11.257428290772669,12.889512328394703,-0.002132838847156548,-13.329186704912942,-11.531920996824999,-0.00017322331158993633,-0.18422100758880272,0.3926197868374909,8.845763235699403,-22.433060640585303,-3.010048379335315,8.330911718745691,-3.5568734867925893,-1.7077771017128642,9.320648117958319
-1.0302579796270146,0.0,0.0,-0.4773190652472018,0.0,0.0,-7.169356359604886,-2.482052212261683,21.5863600314703,22.383993731208346,2.306766701485435,-13.43667072717995,-20.051429544293796,-2.38187356232799,-0.00013345351694246937,-18.50154337365485,0.04869710035870265,1.3045978448218672e-05,40.00312280259418,7.933433520433911,11.987886384190823,4.9542612659836,2.8118459025437046,-12.761439294455085,27.62218896864247,13.78097306694538,-31.04520610771483,31.01712323144998,-12.187890527991303,36.012671672861664,109.74125444542231,-0.0002428446938152781,-83.79992491678094,100.45291569495285,-0.002013098726544985,85.51928901499387,-10.912358953435321,12.301390735611706,-0.0012845021858928912,-14.695424597404648,-12.76652054271185,-0.002142409627419023,-0.2646421143672907,0.5436991811067028,8.868322217577703,-22.50929121826829,-2.8787578920373225,8.409084272326194,-3.3184524890333873,-1.7131996948104589,8.963621498984114
-0.9168462479933904,0.0,0.0,-0.5649327116029068,0.0,0.0,-6.604596719677835,-2.7719955671263703,22.0011689822912,22.100931545084965,2.2772679051340163,-13.10636090159683,-20.804207081629528,-2.7689578632933856,-1.854015597696249e-05,-18.253853738924427,0.03224176735882331,9.797860187770889e-05,40.34789283664105,8.330872088394656,11.200396688078033,4.8165010657025,3.097331209837518,-12.825448684576422,27.757762723935972,13.803016891124976,-31.257479571045778,31.15666208144074,-12.421677396444009,36.48929373344808,109.56171006499113,0.00023299049226977497,-85.07584200410196,100.67365431855728,-0.0004879690753563746,85.18264462558578,-13.10294904631101,13.699248757764284,0.0003761920540604224,-14.163631258122203,-12.34964226406346,0.0002202932156304981,0.06454659925314185,0.7493627381714951,8.835087074156322,-22.17819011347551,-2.6758233953352053,8.45623590331375,-3.562723135725124,-1.4819423073131563,8.821204050146395
-0.9133449705039232,0.0,0.0,-0.7594112301683175,0.0,0.0,-6.263188197162933,-3.31466489001803,21.697879212601016,22.236168012832998,3.5686453929824875,-13.531920190754613,-21.413290543931215,-3.0666415695865705,-5.752765218769998e-05,-18.39095118509998,-0.20536185001033758,1.857605869787554e-05,40.66417686909069,8.969665283903364,11.489108834622746,5.00497723246365,3.2507879627251715,-12.483857687410246,28.310156776147277,13.989307299892252,-31.913157338864067,31.667050445038782,-13.07794660872494,36.72886580537182,109.63422431561297,0.0005813861468369516,-84.374580915959,100.82814662749585,0.004896078296067735,82.76283208629046,-14.635877873311724,12.361379182995035,0.00012836892365953247,-13.095196928153737,-12.516842010410578,0.0007001693839561727,0.3566788366850309,0.5430864238788164,8.855329426138672,-21.88870424349572,-2.8744162594690352,8.396818230611744,-3.8300434677052784,-1.379325635557909,9.130790146397082
0.16897803796503771,0.0,0.0,-0.5328029485233596,0.0,0.0,-5.959233108186328,-1.7422378937817762,20.920235450372832,22.29218507267426,3.399365478120738,-13.257422944128665,-22.208795527061287,-2.859423655602444,5.946663759638265e-05,-18.177129640629577,-0.13686795724544468,-1.4985867420888242e-05,41.211286495697955,9.048588820078361,12.217195992467591,4.9439096189262495,3.2926509975898646,-12.731710706681447,28.038165585106498,14.106955616634533,-31.676544831804797,32.42852669684396,-13.087128234049352,37.54656096857416,109.45204662604255,-0.0024642817000965645,-86.1531341226328,100.0866822525871,0.0013740471422009843,80.81385050341616,-14.669764836247815,12.74270943491651,-3.7076191643231594e-05,-12.568749003700423,-15.33387044616822,0.0009271702618714049,1.5999145088578515,1.0479873548779104,9.157163400644118,-20.61910610003408,-2.5212311122975706,8.867740140590266,-4.199487038996045,-1.300921645182804,8.863127626483701
-9.34269919354979e-05,0.0,0.0,-0.6157860583807003,0.0,0.0,-5.2065940819597865,-2.0812269435148996,21.140480700443227,22.245218902596587,3.0687878557112844,-12.851059070131813,-23.467383717574673,-2.7896973918380636,0.00020970836123721258,-18.320643094116434,-0.013902907427305036,-7.123350765188105e-05,42.12782311431214,9.039938883654372,12.119320281243906,5.281374933271778,3.0118403080134404,-13.262160064177737,28.942322428199514,14.67723392938468,-31.671725903671053,33.139869761311694,-14.198997507604188,38.16533133955952,108.853127518777,0.0002652630173879167,-86.18586456752188,100.10794582688615,-0.0005092047271095582,80.3610530302587,-15.741960190956783,14.894982553251694,-0.00042167713006021365,-10.323978794448964,-14.244674812661039,-0.009224720474009452,2.0498371877286248,0.7166184703949808,9.49071026057335,-20.155275250754332,-2.954084940790925,9.051433650246908,-4.483982277389779,-1.1091064231311865,8.63006227041964
0.4034720282620964,0.0,0.0,-0.41101841340934714,0.0,0.0,-4.095764605536179,-1.4044779746135099,21.91246244593124,22.464540366166315,1.8796765916572193,-12.731333925510114,-24.880788931972933,-3.4520034263065296,-0.00020053145599313664,-18.392012559199387,0.41226854361320314,6.899393118201979e-05,42.656539037624476,9.155797454130992,11.44735348323357,5.137957467218099,2.7146065691939962,-12.766356894439204,29.080713419899904,15.043275162839569,-31.67876060473645,33.7611361648124,-15.339372806707447,38.37378711995709,108.57203731004178,0.0004407989187529879,-83.89812866182591,99.97283963001767,-0.0027573222684669067,77.69612268779451,-12.340293544014992,13.444270838832416,0.001065743567447262,-9.163499579887999,-14.575405688797323,-0.02005522390816596,2.6533526702702366,0.8764050832764392,9.505945783841423,-19.54778577938231,-2.811906499295949,9.126024251045248,-4.853932605681184,-1.2215832777363138,8.784340561068841
0.38932714809909164,0.0,0.0,0.007571124627869814,0.0,0.0,-3.166325732645919,-0.6465598364377763,20.99764440531124,22.35539496143683,3.7060395169967726,-12.369989272111212,-26.20276562292663,-3.447441394371082,0.00016038567591581326,-17.29118344886484,0.3246259107961,0.0002005667283255651,43.64435492729363,9.096476252305713,11.681108163676075,4.823891545475066,2.5172913825171888,-13.883384074986928,30.11514306087013,15.697788189732895,-31.565399629986114,36.166424008565066,-15.628917858821255,40.06507516292539,108.07396268353091,0.0019566805588473062,-84.38655864174768,99.19543812549831,0.0023097611631177147,80.33979944165644,-11.985987605238726,14.546502790552847,0.003681106496591787,-12.467717243158761,-12.06774485472314,-0.018320593601040765,3.579337991025401,0.21219823015303996,9.763115085149526,-18.620086992655917,-3.5240400151262103,9.113120835946859,-4.9826640928804755,-1.1648053154541371,8.824807588817439
0.3829980793012578,0.0,0.0,-1.005093984176266,0.0,0.0,-1.988608397156752,-1.3176318495700823,20.741308187672857,22.63156403854248,4.451349136682729,-11.708983533211024,-27.56652166749586,-3.354700421509982,-0.0003953604568997479,-16.733137059632142,0.041589384400903186,-3.5400203842286895e-05,44.21349967759677,8.850850420373925,12.217481125732961,4.513047793521319,1.9115443474502274,-14.716515923382232,31.56027307939826,16.892527747513697,-30.116963735243413,39.52395573144682,-15.583961223916555,41.76256906104922,107.08683551894427,-0.0010666560137396607,-81.62397511780448,97.15478859558895,-0.001424993844782535,79.47782461486689,-8.508015759415693,14.582312964424329,-0.004359593519183133,-12.806632953968363,-11.670707563330899,-4.622598848233365e-05,4.667835831415778,0.05550784940225138,10.032747058067075,-17.51882036927468,-3.7709675715873314,9.303988057510011,-5.281787336659881,-1.751270902379442,9.033651946121113
2.310657907990145,0.0,0.0,-0.9414665890812595,0.0,0.0,-1.2968069359942205,-0.14289008947127047,22.353366111984755,22.15780295949022,4.113834124889121,-11.667420988918579,-28.998306024957557,-4.095711255997908,0.0002133782670414165,-15.67009408546144,0.4477933843321516,3.657414187295827e-05,45.04091440998176,8.434562460422308,11.302368999932138,4.127875073730315,1.1437795490600209,-14.250741097532595,33.21122966447511,18.702685221153644,-28.58775749385459,43.930190910382,-15.166052240961282,44.28117571016164,106.8821567271522,-0.0023202466127793314,-82.29122804178041,94.5585428592504,0.012132760873756374,78.35527876974542,-10.382818457441868,11.238682468680247,-0.009720503787373855,-14.267580212877487,-11.33254689533015,0.02891222742766105,5.0888364292622565,-0.008051357559520151,10.854045742892678,-17.046545687119224,-4.139642611007396,10.042396225178573,-5.174769226767087,-2.117440060420714,9.09718786161981
0.8381547529618757,0.0,0.0,-0.631731404781699,0.0,0.0,0.4283578492175911,1.7929239545031328,21.349915736947434,21.265496861787454,5.0477301800608005,-10.839843265686024,-30.241438731925804,-3.829819520767217,-0.0002490524505169838,-14.624648128011103,0.08525503761020209,-0.00020560268807546403,45.189672741403704,7.615752485923887,12.894369054105482,3.3609914092453947,0.13582376722873118,-15.647925665363935,35.78566464886031,21.34599630429768,-27.29145589204521,48.004358828895654,-15.133648439273857,46.840303054575934,105.92842947951533,0.0018055604670841263,-80.8932699701627,91.71458567423814,-0.007785838137082517,80.14232360019393,-8.885418991393081,14.74848712971265,0.04025207793665114,-15.002320620467378,-14.232035975664928,0.007050074672591981,5.959558666160648,0.28784695375020786,11.057939366119456,-16.154094842076507,-3.942322666382716,10.34346301103409,-4.957480712616659,-3.1126835300814193,9.611909921512094
0.383737380431219,0.0,0.0,-0.06768244642472106,0.0,0.0,2.0848491800551714,2.5364180667764247,21.120119591139783,21.288806689504213,6.0246232467308936,-10.772773613026231,-31.632930562700558,-4.284051654594611,-0.001441363478709598,-15.349096117334058,-0.22887840837687418,0.0015699236125235035,45.22128645454206,6.640288290802958,12.8492533261094,3.3951344053484065,-1.4212265184037223,-16.230936560810687,37.98512150459573,24.320885328835722,-25.745781794110684,52.072868237028636,-16.512258336946854,50.35778342702551,105.01618522356577,0.002058905913228283,-87.08050854498971,90.11206839883427,0.01003942689724313,82.25713649241376,-7.8436723647665545,15.025890587708664,0.0008006215069121443,-15.729943135277649,-10.851316809692829,-0.009215968418125664,6.102184448654862,0.06285417137273214,11.057683423470154,-16.017484579353695,-4.150653832840607,10.258299390772823,-4.701720450029968,-4.098093104176244,10.147609677197986
4.755737673538489,0.0,0.0,1.3213474350587189,0.0,0.0,3.258658654457295,2.5194511254586387,21.061236279901983,20.063142426109295,5.567963984678949,-12.06350748987786,-33.02385972739624,-4.5552325161900535,0.0010046983438054883,-20.427041768727555,-0.29171302754447886,-0.00401287200572448,44.832185144490886,5.664301945299824,12.715632953508436,5.05443957731718,-2.8300101387077943,-14.285212232598624,37.53035280578895,28.728281367347357,-22.034343225841482,54.69739896558152,-18.876796786497092,52.936399562875266,104.87643815839208,-0.0025302111319837517,-83.71809478545475,86.9376180177555,0.0010989684359102062,81.75444447135037,-6.348892806628344,12.555821628706564,0.0016679910012973433,-13.549294900090949,-10.663992768375445,-0.0009809845749007113,6.205445204367448,-0.1271776313331672,10.34750599687652,-15.966167728097183,-4.058962249726893,9.52700125236904,-3.8823075724887404,-4.5206364244542785,10.496999707589472
3.5369600000000005,0.0,0.0,3.5446799999999996,0.0,0.0,5.91282,0.28785,20.79873,15.53748,5.21366,-14.59484,-34.15315,-4.151679999999999,-0.00025000000000000006,-30.776980000000005,-1.39526,0.0001000000000000007,42.488459999999996,3.93977,12.24474,8.072710000000002,-3.64034,-11.23937,34.01124,34.20676999999999,-18.60577,54.96330999999999,-24.287400000000005,54.953039999999994,106.26154999999999,0.0010500000000000002,-83.76878,85.34865,-0.00195,81.94475000000001,-10.376049999999998,15.113560000000001,-0.00392,-12.435279999999999,-10.21367,0.00414,4.83034,-0.6077300000000001,8.475250000000003,-17.460730000000005,-3.795370000000001,7.607659999999999,-3.58629,-4.562870000000002,10.671749999999998
5.735240289425325,0.0,0.0,-0.6267920670912588,0.0,0.0,6.349549151284513,1.0700351405126043,19.231758099574314,5.689394107233779,3.3396410379068038,-17.060217678546586,-33.75046803749101,-4.271611508176155,-0.0008328250602203205,-47.57002779680846,-1.7918470901931167,0.02059091320150695,39.94117201443659,2.7191750672448745,10.976011026740444,15.574165216209607,-3.211747574391888,-9.060548253690243,31.63652428797844,38.332202000666044,-14.541077108918861,55.0399806621377,-30.66175453421139,56.83629701490586,105.00569743876966,-0.0025110413582080616,-86.53759092259288,83.56000428240951,0.00021046948846858803,83.74720650456666,-10.312638074288747,18.91048994999089,0.013261060794262544,-11.908092197090086,-9.659188698891967,-7.874030425316587e-05,4.047405298405712,-0.5007635853422724,7.0641581754103555,-18.30689390044675,-3.1604679110515166,6.340669792532051,-3.2858799381269757,-3.310492627398015,9.009528187529245
9.525118220395417,0.0,0.0,-5.759450165460416,0.0,0.0,6.987567867676298,1.6521390991089258,17.270711185416204,5.8878284057232,3.3211456372008814,-16.24188989497494,-33.78925042564334,-5.503890621950926,0.00028106033735300493,-67.56421221528144,-0.9986665838869767,-0.046269210583751275,36.57142098166904,3.9629386674202856,8.44192777129785,25.555460782352327,-0.6418434626670905,-7.253063337725036,29.902714195659623,42.235527613313614,-12.670390779142362,54.148153880004166,-36.964543003802504,58.48778338732528,104.44889091755373,0.005487496650598097,-87.78308352034324,80.79264220682138,-0.010095059545270466,83.59749557179677,-13.478568181656264,17.727001123256308,-0.003439423140584614,-9.715304061195603,-10.709771742121278,-0.0019456640923565256,3.363351153535471,0.36255715478270445,5.528064183314303,-19.036169362796386,-1.777367584253374,5.247886258662158,-4.111015007486137,-0.4895945794256813,6.957096571301562
10.94977301521704,0.0,0.0,-3.8718017024473,0.0,0.0,7.017827213868198,2.40930528932768,13.61294426598743,10.133133761469457,2.45463703985119,-15.165048716761742,-33.53221690010156,-4.2512604421425095,0.0008960792615749746,-86.26236477920777,1.7639189310681467,0.054865004700499174,33.416831784281456,4.2899877396928465,8.386454328219134,38.05211917028327,0.19257201108679364,-7.126245024373494,30.93444026541458,43.59431919709243,-13.344032896819073,54.60746007914973,-41.57429048289175,59.90914230851449,102.60189050603202,-0.007055816228556555,-90.29736442684607,75.5365902299988,-0.01785969423632386,81.8799144334441,-13.71296301131755,17.679456153358938,0.006744313276366943,-8.045400510664287,-10.18997510582308,-0.00012259881425638228,2.5523339772305857,-0.3865823854154558,3.7732238040529937,-19.90640101442838,-1.8002289457621077,3.3390573491079176,-5.608450023680234,2.7865408464629158,4.866182159731066
18.503192168589127,0.0,0.0,-0.7237940930181663,0.0,0.0,6.909469536143518,1.9213613118274504,12.309717787500551,14.898589048348972,0.461798879935701,-10.587084177329464,-34.56579014858317,-2.7939330133448337,0.0008989475355794444,-102.563763305463,7.03281453876603,-0.03637298156346619,30.934549354221197,3.9147167173553035,6.536222084998172,52.132373255561774,-1.3941878244293098,-4.912767929388759,33.0871779812132,45.42672528454225,-14.53413589056564,57.33253255424767,-42.92020284810269,63.85288950827618,101.13924704615707,0.0054437889497867716,-91.30324695634404,68.91190994099077,-0.0014814401343146203,87.24444578995826,-11.23753381992666,17.66268946648409,0.017933283742979353,-13.226724630785899,-10.778161592753744,-0.005569910643165991,2.0373173193469825,0.09798606481361431,3.3727787550202537,-20.42525599220788,-1.199440362235555,3.1540461626187866,-7.508475516935271,5.3972425409221545,1.17750584541552
18.54965402589652,0.0,0.0,1.3731713110264752,0.0,0.0,7.810019942707287,1.4002199424218988,10.515803071412622,17.545747717010137,2.0982014219946237,-7.7499247827537285,-34.11509455598603,-3.0158072923408916,-0.0005784793821903355,-113.68878242592515,8.274741160195743,0.008994569989928087,26.71325251341027,6.586089395998873,3.7129771936312506,67.7070037184821,-2.0087189959981977,-5.915673320671118,34.95186138807529,47.49443396990887,-16.089189316804404,60.56457645961121,-43.03839437469246,66.06770086839417,100.90145484826299,-0.00043053573852773204,-91.3608573646663,62.68790364047338,0.008116784912611169,91.5313003783292,-12.994219746097956,18.39220017590514,-0.0008823818915963712,-6.367194643990251,-9.349265649584575,0.0019113596198972556,2.793373430587305,0.561723440154295,1.8903607506432525,-19.69234048456658,-0.2042354369387073,1.9614264294477681,-10.45436216217066,9.040024226999352,-0.2553093976400891
19.439275735785586,0.0,0.0,1.0154274451881433,0.0,0.0,9.929577399722278,1.2673854199792016,9.892540687314838,20.509342404875532,2.226255947689936,-8.582330402356007,-33.84258919551078,-4.32095389509406,-0.0008332496644456717,-120.12677306242624,2.7077093651610964,-0.00231492178767225,20.482060001468593,10.950251407516673,0.07078165704215011,80.90850337447243,-3.7491670572327203,-14.137407325547967,37.96162641011089,48.707562973441476,-18.471589963571617,63.619190151484986,-42.725990044565684,68.72083721109594,101.46732300846027,0.00012084465157724927,-94.03809452401977,56.63036800080072,0.01668735631038183,94.68526354777194,-14.038686987743064,13.796500190857893,-0.00011703716877739165,-2.781421021071295,-9.235938253676888,-0.001922444816035535,2.8773731326320204,0.2829972191675873,-0.5805971927487708,-19.62073545946211,0.4836290283543356,-0.42812055179704706,-15.16750506096914,13.643075330024644,-0.9302019175820799
21.27050481607131,0.0,0.0,0.6437091386281716,0.0,0.0,11.13070498772846,0.9858647857561792,8.092055597086636,23.02479761200652,3.064425441840081,-7.656259769816645,-34.697819448813306,-4.042777659737174,0.0002997826142091077,-122.98338102822383,4.02835121263208,-0.0012560444146005724,13.494418318846128,13.522647366937047,-1.7461262755787343,92.50458734441587,-8.347751997834939,-12.681337619496208,40.557675659152636,49.538443816668256,-20.166011705208096,65.16704216519587,-44.2325827591474,69.99199275811719,100.84955401638902,-0.0004266845498172854,-93.45107270477124,53.68736244261657,0.001285636074428242,102.69555398971517,-11.400603898056294,14.320791107719021,0.0023493815767662305,-3.7876846717151404,-11.415477204200332,0.0003049700661053587,3.3895207419677167,0.1906045494891674,-2.055771805986164,-19.097036692011507,0.9626303686217147,-1.826517495813329,-21.028549099105664,16.881639066520684,-0.944019091779086
25.469672699972293,0.0,0.0,-4.152670244715074,0.0,0.0,12.791034785394105,0.46401451894872536,6.167685952805604,23.895591187029314,1.9377353855803976,-8.802121156043167,-35.665623422039545,-3.894514446607208,0.00020990462201228222,-120.93530961606427,6.57490480401595,0.010607138632767153,6.491789669698297,17.55677707857297,-1.627656680257112,102.93612624449649,-11.917150695410996,-9.891086013668426,41.545642200837555,50.52186357901792,-21.433315311951286,67.36463530591608,-45.570361572147995,72.2249427962655,101.0278874185505,0.0013131133468115318,-94.98438770767318,51.1674908322164,-0.0006595163170227437,105.85325335805476,-15.706689915854817,13.04857800350219,-0.002417887061801512,-3.475986920632591,-11.114297343729826,0.00018792502523047236,3.9624667884097673,0.36561863662144845,-3.6435443488748267,-18.498862349645538,1.7313160308188438,-3.2271627970896173,-26.6205546961498,19.949426946904396,0.19776655309209926
28.139388072544048,0.0,0.0,3.1344056341353204,0.0,0.0,14.467079766892194,-0.05704622466959022,6.511696845610738,23.76818158999571,1.361605165845041,-11.038489458575986,-36.50293204052839,-5.359612388459529,-0.0004322785113082685,-114.40088150344289,10.524106614104154,-0.0055849597139757245,1.3600308723376529,20.73960237231492,-1.5327425382909552,113.66429326897695,-12.128888879985897,-4.311848742523439,41.13738023040688,51.83158921422404,-20.276967363076025,69.68780490542511,-46.75938863363419,74.32910055774403,101.47589724002565,0.00669904903255587,-96.00458055229679,49.77874095287972,-0.00016824213958734882,108.15620137119309,-15.743194706198189,13.612706163810564,0.002881372489624022,-2.4597435450332163,-10.061931340143083,-8.993692750683345e-05,4.749262647583394,0.967709086622964,-4.643523082746193,-17.69703920134558,2.6696745456354845,-3.9218295109877017,-30.550490995976556,20.5757351565429,2.1476143032402795
27.943199695133018,0.0,0.0,11.156548080789234,0.0,0.0,17.42939739955474,0.293422430123401,8.180688670750577,20.84790546472182,3.354460847848674,-8.555442550426527,-38.10552311377522,-6.659256704136179,-0.0018228735789166377,-107.67633088641476,13.762130384239365,0.006305027382765757,-3.4612067102497304,20.87165165843693,-1.2193136444500152,122.09220693531638,-12.678732174895284,1.6115473520188919,36.051377522167456,52.309966811579244,-16.66344994502825,69.57234980043334,-50.39285797409084,76.59071169483565,102.85663873571403,0.0001401017069736032,-98.33285721953554,51.82374683642656,0.005164104777869615,110.4645687713627,-16.40049427216832,14.465746306384219,-0.00041209361840849036,-3.3896047257304263,-6.445733829305944,-0.004362228470648092,4.547078778966242,2.058325506379948,-7.2031617943258865,-17.842027906701937,4.6536983428542955,-5.875290950076069,-31.890849141050033,19.375159909485255,2.4368151361114054
31.47628991946669,0.0,0.0,18.538983829996575,0.0,0.0,18.784381490914274,-0.7855524660464204,9.382699658964123,17.876182427371646,-0.06804988294099584,-9.808734776476099,-40.88755458410338,-6.144496734274479,0.0029006988433699166,-95.36470394434362,14.70998807400416,0.025450753734926727,-6.339796926360767,22.197905473069973,1.1599545989284317,122.72455786087227,-13.539939502506213,2.0594634146318485,31.044528230227247,52.45844026799946,-13.463091212751316,67.06594727516422,-53.479401873653906,77.26136844717551,102.80879296334791,0.006029260172662393,-93.16548197974932,52.734322991560724,-0.006517324622439719,104.70524045599174,-15.908659995752936,14.16111730714052,0.0005133382848816902,-5.612372027714738,-6.341334738518899,0.0004345129050171197,1.9509095667640761,2.85121077406175,-9.183544916783305,-20.378643883843722,6.139666129064265,-7.410279417443158,-31.279080702672307,19.704320576880104,2.006985801980744
34.96747386042634,0.0,0.0,26.573849919278114,0.0,0.0,19.001647420750036,-1.9893720499061451,8.138149902532383,13.217182129598488,1.2377071940648081,-11.199363862432406,-44.35320142138341,-5.196540507755543,-0.0007073035539695635,-74.98591631291576,10.560193741217281,-0.0871733410891934,-7.904826798169503,22.425195301984648,2.0813714440287376,114.36380254502093,-16.863740263185512,-2.1101463323582594,27.567137978528756,50.29785880213444,-13.111801553576026,60.70084783421112,-59.070863439990624,72.95729591218802,101.87186711345453,-0.0051391772419660245,-91.68285140057694,53.7727843299822,0.005467421436153504,100.76295003933497,-14.072686497909308,12.428683332889843,-0.0010204317853951973,-8.465528413658417,-7.501395058992408,-0.017220597004972513,-0.5462856605974751,2.878825640659614,-12.535788212154513,-22.67580399638584,7.432174026521699,-10.52077190588082,-29.34235291165481,19.908854254389876,0.513496416120992
38.99252109052903,0.0,0.0,7.757748280381932,0.0,0.0,18.208045666154373,-2.9423763255370927,3.961798955934579,26.822844307629975,17.164325272023685,-15.376222921172891,-45.99671477617257,-7.451995163987558,-6.933742047482604e-05,-59.6160402486052,7.370868657837908,0.039850173282108686,-9.525102200952004,24.117617394134506,-0.8084689432226194,102.4003637181594,-20.456008286712187,-3.850748126044814,26.28084416807926,48.89702786600163,-15.487636283409012,44.803179930181855,-65.23182042874188,59.182081625208845,101.06206119043125,0.0025639257335858447,-90.27576535367882,57.60611818291606,-0.004116965502842567,103.53150773313291,-12.715204112266717,12.73683312861359,0.003403253496441767,-3.1038241052320785,-7.9456669189816465,0.013157535236634044,-2.4396941296136982,3.7236280227661056,-14.284211217271308,-24.483684301023263,8.87131935205319,-11.833819476693659,-25.761488011827627,19.13325183200441,-2.345756804180225
41.37635299640898,0.0,0.0,-3.0709154051742202,0.0,0.0,17.567435967654095,-5.223782703401543,-1.3056532103979872,17.269714418160596,22.942582671956515,-6.7359516803490225,-45.80839929638872,-6.864404017764441,7.777351899801724e-05,-55.24063060632083,6.074464571682743,-0.011114476357606288,-12.535794130996067,24.082833516521728,1.9350058877991172,96.99004546940806,-23.266242572289645,-5.478934813775286,22.869025600291174,48.12832850678138,-13.912607316207842,27.08809940832225,-69.70895271064138,45.45470908675166,101.74787527783359,-0.0004099125413099163,-88.40911280525596,62.971811075795564,-0.045760746741108936,109.34229877041531,-13.400267675652243,12.479564414463354,0.0023501304956212656,-3.0462414004742295,-9.059830795219822,0.007283112800518903,-4.5829551229911605,3.8227131302725676,-15.572458453543094,-26.525554856978932,9.4446024810435,-13.003523829641507,-22.77515172121861,15.055133136450944,-6.263709281790853
39.57534837284297,0.0,0.0,14.449965753722894,0.0,0.0,18.135071651128264,-5.8685302351135515,-4.743569030320262,17.180254679596267,16.325069645348798,-13.023968574478427,-46.88567048430937,-6.788498442828909,-0.000358424370159694,-45.49456359255415,3.4216254817339866,0.0071706135730149,-11.493383543466791,22.184253209542533,0.07050395819024113,92.02091156418814,-23.63120295892529,-2.0370542952070023,23.107773116267985,44.38936355245306,-12.421781868533866,0.14038662124255602,-73.07900829990304,17.96447253561513,100.51256560154025,0.011049768196710818,-86.7615015431232,70.38578500186975,0.04191407756568385,113.49977921528144,-12.250312015641528,15.440983042113887,0.0005167961527482239,-6.4241154347304334,-6.175765410229849,-0.023443057336621696,-2.627409312068612,3.459256336739738,-16.06854267851034,-24.503348450162306,9.292144037699689,-13.606514919082025,-21.972996812284762,11.32228286561083,-10.193344983739188
37.648057861456515,0.0,0.0,3.302651201396802,0.0,0.0,19.145092978451398,-5.160678491168399,-5.87712555128563,16.579880867710866,2.1518114656515515,-19.935777245793535,-47.53208968488944,-6.612620024842708,0.0006684327264089704,-24.984976962988494,1.3846982317755898,0.012619317610085449,-11.256965579984843,19.94314964549886,0.8932023128489489,79.37307479016437,-22.912070193134035,-1.859442667328235,25.799059889776235,38.37330933332664,-14.510921655366005,-9.862554023133598,-73.7755536320412,3.0373633543136003,96.86525762132348,0.006122367544600536,-88.37706689621719,68.17841671218693,-0.020843604812535985,105.07399472671797,-12.247247433923913,15.434209307925435,0.013837588695600008,-12.917959398676594,-8.43879453310399,0.00023678195922389664,-2.372879277528386,3.504240240089593,-15.393867154271923,-24.31161857529362,9.082606809951164,-12.956595162545335,-25.044166727833066,9.540150772187557,-13.803926085806749
35.76713,0.0,0.0,18.10747,0.0,0.0,19.88299,-5.069780000000001,-6.99982,8.712170000000002,7.557989999999998,-25.763229999999993,-45.91406,-7.32963,-0.0011500000000000002,-5.50985,3.518909999999999,-0.0121,-11.8332,18.11324,0.20062999999999998,65.01003,-25.4313,-4.78287,28.276980000000002,32.77445999999999,-19.273860000000003,-13.69832,-73.29027,-5.40611,91.05640000000001,-0.00497,-92.90163,60.55507999999999,-0.0063100000000000005,106.77047999999999,-8.16525,15.189980000000002,-0.0043300000000000005,-12.088790000000001,-5.22167,-0.004130000000000001,-7.290030000000001,3.8946800000000006,-14.769449999999999,-29.305049999999998,9.211490000000001,-12.223320000000001,-26.89685,8.00033,-17.737049999999996
33.176615141329435,0.0,0.0,-6.069656903733511,0.0,0.0,20.796001910503573,-4.699782965368133,-6.9556840408708975,-1.1444279556230514,11.54477706030049,-13.912584229517455,-45.44174790627277,-7.573871083435018,-6.295141587814665e-05,-9.820483998378986,2.550369877030001,-0.016658980527817422,-9.588091250916271,15.401923029219786,-0.8323046340436993,61.409347124432806,-23.296741878141056,-5.229829812800919,27.01949036099277,29.893547658309195,-23.529344074639795,-13.485346023391777,-73.71046759241929,-7.0812420503005775,88.86816132004599,0.0008394128123695647,-92.733280351888,50.39158408001426,0.031052377998822614,115.17202938906948,-9.657815907623357,11.85385172691094,0.0023856812442369733,-12.58370848565433,-2.3021362571805284,-0.0019647438140659138,-8.648800858987295,4.409691116794189,-15.810197138993322,-30.608377857548543,10.077671220958191,-13.004044735743504,-24.920950098277686,5.636820351172475,-18.596235587924852
34.58155613627795,0.0,0.0,-9.154878745253047,0.0,0.0,20.91296377120747,-3.6893470897263487,-5.852401066020189,0.8838244207565343,9.539115729498835,-13.586423734141512,-44.82613094610357,-4.891421819995757,0.0013842193319682705,-28.124451894722892,2.8937913174337404,0.013672814022059238,-6.763321909552656,11.26673084491063,1.7636746049414262,62.59154911669944,-19.69298947310536,-7.773882381719879,22.60227667235104,30.032642994198532,-22.10043149863501,-3.9946476581469224,-75.16293225049874,-2.6751254649153045,89.31648015262107,-9.562826997169951e-05,-92.87870435699756,42.79872955966031,-0.01921255742982804,111.44400707985294,-10.358532009811542,14.324289540931344,-0.001786621917970487,-7.6581530401295295,-2.4462528261273992,0.012285114154674807,-6.186243675212717,4.215456353292842,-15.024739396611883,-28.200118589549064,9.604319762138276,-12.340749141362013,-22.42587312241176,3.4589218329723916,-17.707772303006518
32.003487138304955,0.0,0.0,-7.559645159476681,0.0,0.0,21.06115527203541,-3.7459614576950457,-3.0509196977458375,4.344454297158465,8.188270633980338,-13.777647961345469,-42.29761881888565,-2.4215323995950193,-0.0010798393583878372,-44.56924245804572,2.08327907762129,0.009228572712203655,-4.037934417482469,8.282799210118517,2.7783437389249848,61.49766544166975,-14.904873847953178,-8.318804380897005,18.817198505868866,30.72729175150332,-19.00519624232009,3.2170158279135217,-76.840567696729,-1.569173998128993,88.05279726187823,0.008557387294360293,-93.12128481081326,40.49932019395809,0.0031020672968599043,109.69669511407812,-10.565615790330137,16.195321405515795,0.0030478782285114445,-4.6617974398367545,1.0494941337001353,-0.010803950463080341,-2.8913185999016013,3.525142756839071,-15.513717824834218,-24.820852121481984,9.146682903906164,-13.061078570807487,-19.39949372111176,3.2102095264889394,-16.248932002276117
30.214302386321428,0.0,0.0,-6.180953715413229,0.0,0.0,19.388380991682872,-2.830866332972949,-2.2301484674990624,6.924514772251762,5.523525330205469,-14.192777094042352,-39.57009250697868,-3.77521415676414,0.0008654445374650704,-60.94150488730154,1.8351035925904515,-0.013597773830830554,0.11127908324976807,6.5858663597715035,1.418432950670887,61.34531863264441,-11.516159070025234,-8.279610141636256,16.268469358141935,30.40287334686572,-17.622647006905098,19.29480731824172,-78.15471486794898,7.424299521093286,86.16670446927775,0.003728028847835941,-93.63575447118185,38.81014459014404,-1.617048826357963e-05,110.24174314239707,-12.589334145934426,14.432271246095953,0.01321150913801205,-7.089681221005342,1.298441595936871,-0.005829442552145802,-3.41113820461832,3.5126057165652966,-15.696400057936254,-25.323811064377455,9.203123182340132,-13.237158442911198,-14.89409601763401,2.992066225760166,-15.842312105199166
31.689802076395278,0.0,0.0,-2.9852375424946014,0.0,0.0,15.696372880887353,-4.340949763460174,-5.532622474730871,8.058641831875557,3.546762998524245,-14.707107600643752,-38.16440500268378,-4.969457626158946,-0.0011992206738238077,-73.6996383283732,4.2841830036665405,0.011446492529329371,3.56532384317306,6.450691086051628,3.437069992139789,57.50191148648658,-10.4421935247222,-6.108089745158085,15.274411907744426,30.91344645730016,-18.000654414457035,29.042214248267605,-76.74338631383071,5.479731750904937,85.31489787527565,0.0009025925000523686,-100.62747233478834,40.05343916250993,0.0025563912854858466,108.30481129727428,-14.008751232832209,11.591310690776238,0.0027134631653301386,-9.745043417575797,0.1645729924960129,-0.007952628727117887,-3.3745485651828293,4.631635990377211,-16.41416959081763,-25.295357810471813,10.508505472197632,-13.487387841633302,-12.646568335839104,2.300032447618955,-16.677437585133326
30.085782195401336,0.0,0.0,0.6943435176826122,0.0,0.0,14.026325263543322,-3.688475791809696,-6.759595252905684,6.247848383708091,4.030857702112401,-14.681116989187615,-36.47857004441725,-6.064443604814086,0.0003647923426372877,-84.26343299870004,4.99012644311022,-0.0016608462941245668,5.689856196306741,5.50984704781579,7.341265713829678,53.00550648006042,-9.345464665680074,-4.182120480565108,15.664566477030078,30.70396992868295,-19.12113373758343,35.78175599570253,-75.83547802458405,2.916167700700059,84.1300995662809,0.006044279036534723,-96.64236432925485,43.06942712916664,0.005673229190849117,102.756634989626,-11.870390026019702,9.950486206805074,-0.003665361275394647,-10.573169849945096,-2.5445347453332143,-0.006653152742174404,-2.978000801864043,4.75628182006223,-16.474493759129565,-24.902027538015954,10.646596620251549,-13.496786455516427,-11.461647417079865,0.809708490373999,-17.228909013677008
27.59089838071624,0.0,0.0,-1.3854647105272153,0.0,0.0,12.321080341159448,-3.9075958405380464,-7.269263833788078,6.808927011732651,1.3131213661137364,-14.297318311777385,-36.557574717660934,-5.771805236427824,-0.001557801454531409,-92.81641383916366,4.810656262092334,-0.005169949412109179,9.962402060771382,3.4907547193288804,9.719626553972175,49.069290473722674,-8.163605584205326,-3.836815419765978,17.672630770414973,28.99107103461249,-21.308804094869906,46.301066904245424,-76.13379555616183,3.6259439059526395,80.7727635560803,0.009310306944851488,-97.08647102745643,44.364043362268454,-0.0022419929890068273,94.69007433115883,-6.529029076071975,11.998957490384964,0.020272574821982043,-8.197030501245163,-5.761954159541352,-0.013176163878303393,-3.1071848027641185,4.259137405710235,-17.321283525211356,-24.916963652645666,10.499636737711654,-14.482123981301973,-8.887527991650243,-0.1109215404496344,-16.95410244260412
33.80768563360807,0.0,0.0,-2.6976635905374806,0.0,0.0,9.871611064460895,-1.556340724140145,-5.704415233365706,4.189358713299753,-1.178439244388138,-17.527871031709253,-35.83112900117254,-6.377854645853559,0.0003647322978781301,-99.25551950096785,5.502409510773923,0.0009108900161381408,12.757344688410107,0.8120852041007833,11.558853659419446,43.856820969074725,-5.6655835825147784,-2.5373840791878353,17.65324687803932,27.267262328574258,-22.2361845757775,67.22634279511529,-75.52514707675158,16.600583150770326,80.10833258455712,-0.002570249260754414,-101.71707866208202,44.03773188865656,0.0060624802538308065,87.19719774310416,-4.379263351866586,10.787272682314585,-0.004565191000402987,-7.547264194806411,-7.9679151196303195,-0.003859353663738412,-3.7466963753380185,4.500643151537532,-15.52593535109161,-25.736884450328873,10.055968580016936,-12.702564639550294,-7.1873994958176946,-1.9203690463879122,-13.720098782859042
31.289862832577352,0.0,0.0,-4.030055776610273,0.0,0.0,9.39128167103084,-0.08713279454411842,-3.057481733675348,2.7258493887738218,-2.9757467776334448,-18.590241043494075,-36.033464562150144,-7.534371708722377,-0.0008299999317620276,-102.02394929776447,6.041332757883232,-0.0007295112110136114,16.580550457310835,-1.0601032186403472,13.288620501379718,39.14781713882074,-4.031431327018335,-3.513014541193204,16.43847479429476,26.720379974093664,-22.070865812821904,86.05118932378292,-70.65169199712314,26.490294140094758,79.03744875799997,0.008478436192386613,-101.67057217197473,43.16554980917774,0.004010794828813843,83.75166067864356,-5.5081101066217295,6.398679840911378,0.0031284907099180183,-10.098616526091366,-8.741402611024409,-0.022030709423299526,-5.431756009321106,3.9597748633884744,-13.737049321315522,-27.53198136227797,8.88500742029243,-11.231944638767935,-5.264448526980696,-3.4043620320701327,-11.33745617147174
29.584959787928682,0.0,0.0,-2.218086029974219,0.0,0.0,9.129223499314431,-0.2788345925683821,-3.4583884565365235,0.09850648971936934,0.7026696295338962,-15.426513429998433,-37.868065416926974,-9.658596843538355,0.00015384505656946892,-99.97491730578604,7.9243612901432785,-0.002092832354856468,20.745513598780086,-0.5241577149250208,14.889108283532405,34.299980895981264,-1.4027233000565273,-4.5131416615836955,15.511282470336951,26.647032644868652,-22.31249061787748,95.42657654576867,-64.63170386520457,29.720092218706057,76.61583550212393,-0.009470752581194276,-99.87720776452463,44.298693869819076,-0.015750704675991763,81.571023791235,-3.246114894422554,6.513210617717173,-0.0008907572486357745,-8.374801624230084,-10.791072710360876,-0.0017213786299754398,-6.695376909514475,3.590751507520891,-11.30776917215797,-28.941180563102062,7.628343034367806,-9.104438549289952,-3.97653568869176,-4.064067796926994,-8.748895589668617
29.611827441435757,0.0,0.0,-3.7227015872844067,0.0,0.0,8.94853285930626,0.5169904406838465,-0.32571777202942725,-1.501515242056146,3.728912873178825,-12.629125468255193,-40.133034653037285,-13.19131076126767,0.0005408931187445411,-93.18948659955254,10.183647967034867,0.004017034160067191,25.470322654390518,1.021184218862721,15.092241398623791,29.632018308963648,1.927094243047115,-5.879191037482123,13.769618191133516,28.55649845410899,-21.967766756270553,98.60576793043253,-58.541672882587555,31.360162136171773,74.57506285406048,0.007655380793939311,-99.59869830232819,47.87416255993453,0.004734849978743343,77.69742436552674,-1.7674900186328872,6.2596034493146275,0.004724060680561217,-10.752728026191152,-8.928235037938784,0.000954966726253653,-8.212906949694117,4.151081151680254,-9.391193704620036,-30.59112813102764,7.420686425821289,-7.105473292208401,-2.354199735895335,-5.78258841004654,-5.169430656786858
27.41660825087826,0.0,0.0,-2.849841133240238,0.0,0.0,8.954365278322378,1.4760866025887704,1.36963348210732,-2.455893417303102,5.377430292577994,-5.648396056945864,-42.586455107133865,-15.300980337461402,-0.0002344548485762288,-82.17991664897127,8.448387081592164,0.0008845214279522057,29.51835894255571,2.0383684916228577,15.32746627190115,23.952676823694652,4.446240214094855,-10.88597347459339,12.703978638575116,29.46671840884306,-20.80907710460331,100.02131530361073,-52.925806693029905,32.91669340746588,72.19854720042528,0.007984096841035234,-103.64884696882145,52.67109580949572,-0.004172478734264837,74.39011941647766,-1.2403899943531067,5.299091704425074,-0.0025440891350817464,-11.053714128068075,-10.810635853926092,-0.0016025803236344785,-8.075237341094873,4.111981116101082,-7.5336144732718955,-30.529583722488592,6.677976741415058,-5.394707530115467,-1.788790256027071,-7.4704195281015275,-1.7991839673048127
31.700405256874816,0.0,0.0,0.29239083622468937,0.0,0.0,7.958478026744437,2.305765303395311,6.519689492992018,0.13964453427664578,4.347712603513944,-6.245218630550348,-42.90862045920911,-17.561740879206184,-0.0009119048405755402,-67.84839229053746,8.220724423015826,-0.002521003400079096,33.17226436950125,1.596253953895104,13.565739848647363,18.50916171947292,6.214597096159625,-12.681588980148563,10.003533217491782,30.01912447869505,-17.53832737357153,98.47304303284159,-47.564671865492905,33.47666182493752,71.09492153144076,0.00023203756374833378,-107.26824579317858,58.54718429783291,-0.002190428765514245,76.76739728773026,-0.7007702479849368,6.595605557947304,0.001640604802332508,-10.363141662026594,-11.77518984155806,0.0009484861035787731,-8.176175284307954,4.375481955206685,-6.6643384115274875,-30.671077704256696,6.590060678824041,-4.486844454333655,-1.0807300244322635,-10.349670384422138,0.32463629330279015
32.53242629757241,0.0,0.0,11.390890478719507,0.0,0.0,8.517324780559614,3.506695421991676,8.601359821353029,-0.5166055468265529,2.799046799546848,-7.308822473858245,-45.34987075330539,-17.622221543144,0.0024292288039215763,-52.08475139832307,4.294791984784559,-0.0016607667399093334,37.96551561916475,0.7697983213990156,12.985168417691796,13.790000777153242,8.385153886692892,-14.82056674150388,8.435183649260544,29.795899628396082,-15.883384085282112,97.0625967165628,-44.02864799361379,36.79812437334238,70.61147245472469,-9.468409128762636e-05,-107.70843303478544,65.2821667730166,0.01592941973659239,75.28586143918037,-1.7480451797412317,5.34596958865683,-0.0010655042609696876,-11.543573921094293,-10.416131670664953,0.0019249851652541376,-7.841220782737804,4.688107059398896,-5.430586143874187,-30.381712646312224,6.4078286417594414,-3.2228689758376126,-0.5698521909310056,-12.815343441598996,2.043809786753948
28.65787267389616,0.0,0.0,21.525882857351984,0.0,0.0,9.381351072809242,3.1166855692217825,9.022439229179486,8.328974361761432,0.2895843219620571,-6.274141287998999,-49.468342661501424,-17.04383605652567,-0.0013387876701705297,-45.36468736849313,3.513492502803871,0.0013608607615454833,43.239229182616825,1.0947060771860835,12.868473665323597,10.952418869281287,9.954143861002988,-13.842996119324956,7.567994744122435,29.23319187950583,-14.717178690599102,94.81634074682425,-41.69583119829096,38.91808192100259,70.89669834455444,0.003611130854159026,-109.99508202910494,72.38631009672251,-0.04944556757664976,79.5722580689673,-0.8616536185319216,5.49107664927862,0.002054086310886533,-10.409101688451972,-7.353857399461001,-0.004964010270302184,-6.951276702664218,6.271268643034013,-5.69192845263069,-29.56308584373981,7.96954447407416,-2.8523977555813524,-0.7961651299850404,-14.911145320316473,3.6676465394665243
27.423572457531456,0.0,0.0,15.046629336389335,0.0,0.0,9.51845468382392,3.049215257056726,9.361413226169686,19.932252217014707,0.5243528434710176,-2.7303219185963603,-51.44451441285931,-17.652347290981144,-0.0011726846499619046,-39.98639009550634,3.118922003456883,-0.004271487882490202,46.24720495132512,2.3698353957022267,12.78669186800298,8.127445456893064,10.684338283760512,-14.70216865939204,6.96936005180772,27.96662686799362,-13.616912976690303,90.67261705627823,-39.079174164224575,39.74056081668186,70.51078209875641,-0.010290247570451414,-111.8071064733565,79.13579663900326,0.016031804451942036,79.32177306197559,1.091187067337356,6.428698627573167,0.000785147797357152,-11.24641498931642,-6.61902474169418,-0.0012814223707115955,-6.945620907742975,6.5665766009424775,-4.821742386636583,-29.587309451293642,7.909428118139636,-1.9317926448298703,-1.2534939579392979,-15.500642456190047,4.910872461923194
24.764570000000003,0.0,0.0,9.231839999999998,0.0,0.0,9.871830000000001,4.11751,9.438110000000002,25.82897,1.8957699999999997,-0.24999000000000005,-52.06506,-17.408929999999998,0.0001499999999999999,-35.33704999999999,2.3937699999999995,-0.00016999999999999985,48.60649,3.1177099999999998,11.669420000000002,6.664059999999999,12.314489999999996,-14.596340000000001,7.433349999999999,26.90094,-13.490839999999999,83.53982,-35.92225,38.37825999999999,68.81702000000001,0.00092,-109.19732999999998,84.66805,0.005139999999999999,77.64446000000001,0.03696000000000005,7.537399999999999,0.008569999999999998,-12.36974,-7.864109999999999,0.0001299999999999999,-8.25206,7.2529900000000005,-4.038320000000001,-30.93887,8.24316,-0.9397799999999998,-1.7097100000000003,-15.560610000000004,5.542130000000001
25.019391509534692,0.0,0.0,6.758844233094413,0.0,0.0,8.394017697017018,4.309670771805481,10.328928979190383,28.406421351244944,1.937290060741259,-1.3912045725508861,-51.257398634437294,-15.446866248973649,-0.0003686375030802134,-33.26920029740549,1.6767622854602504,0.00013790679219886145,50.93982752892146,2.1056926615138636,10.874163299117397,7.3941317695726925,13.507741411785483,-14.635055433895342,6.475438290448485,24.901545005318333,-12.347453976996555,74.99803468971965,-33.883257947707655,36.58241586264889,69.025159284842,0.0017448868719373751,-104.39485634865466,89.83330973890264,0.005289021708966683,81.17542304827433,-4.111797116467681,5.635167616362615,-0.003681931885591357,-12.821504668584907,-9.148771500370353,-0.005234444980478402,-8.01499882547987,7.8420726990467955,-5.708633850347416,-30.719092712836844,9.425514584825628,-2.2557342343014444,-2.2101555123345378,-16.111403417102935,6.195538469183765
21.051321998483722,0.0,0.0,8.442939820273034,0.0,0.0,7.748046484568722,2.956246460820981,13.294591924791314,28.418903799466108,0.5803018123050815,-3.714089703559049,-49.61889398463121,-14.30638960279267,0.0013599938597565488,-33.992523342284784,1.4326415327124067,-0.0002363778266058422,51.92862729627173,0.7151282980245542,9.430911017482732,9.018785948484194,13.603892208154095,-13.96958651784475,6.568854701955498,23.67288536144294,-12.299591588622997,68.16171561442111,-32.69250780373502,36.441885587229834,69.7121151904829,-0.001032983034794484,-105.04078259069681,92.94490584934191,0.005972010581900909,84.36550542939752,-3.115501678890011,4.671105623315436,0.0035605763369815544,-13.12828785771315,-8.660484523295619,0.001460192366333552,-7.427880700322893,8.09283003268362,-6.210493977878409,-30.140134031884774,9.848706998033691,-2.6226018281805015,-3.564207796553388,-17.008762807551836,7.416089359025359
20.481102108297343,0.0,0.0,8.012740449986122,0.0,0.0,6.371240249778995,2.3644189997770657,14.6837286276319,28.1676474630127,0.18350779061670583,-5.156692871159674,-47.27987914254333,-12.533387770561099,1.6777999203434124e-05,-34.910156973042966,1.7000518883530285,-0.0003071773049247839,51.72921385675129,-0.4649972256910945,9.251934719637866,10.315505590339908,13.12104586325512,-12.99852925387427,6.553777057351295,22.85536682430832,-12.438472593474673,60.85494961468176,-31.754792580155858,36.937471888798854,69.5028512151971,-0.00020159847048367143,-104.97184119393681,94.28799003565132,0.006712226486299345,85.1109516532708,-3.4232457677079684,6.576640616508244,-0.0011066114473472308,-15.129006466148196,-9.990815385616376,-0.006576565238498778,-7.047056420311711,7.1838475708279095,-5.6724956321084665,-29.711005970555323,8.80438910035003,-2.4793467088820265,-4.584518946215525,-17.641749120190788,8.20152829946199
17.310885556631273,0.0,0.0,6.088901754797713,0.0,0.0,5.362185084070864,3.3271378026629628,15.792454754435672,27.579187261771803,-1.6852748261733599,-5.453627895218041,-44.816660117513024,-11.127872243652835,-0.002095273771772254,-34.787766966257706,2.0690034143336433,0.00040944429130521207,51.26430405521256,-0.9935485912867639,9.036848497887176,10.895124598500383,13.366913499008497,-12.601858029233368,6.097826548676718,22.562769914004953,-12.548290456554701,55.51445790742844,-31.497027372245576,36.885077288230804,70.43657000250184,0.0031592155191778925,-106.66143067008154,92.80293682118354,-0.0013173394198911957,84.23534525428093,-4.726416224244993,4.65058557288953,0.007097643694555933,-13.749801892637645,-10.53840308364391,0.014565982901370237,-6.385954191079085,7.0116708734866595,-5.263366159418861,-29.046244244859196,8.489078809033938,-2.167491117229424,-5.389741757303271,-17.66689405648547,8.470683975346903
17.9952848835511,0.0,0.0,5.204261059452666,0.0,0.0,3.490596478267697,3.6347154619213327,17.389200183979302,27.126528664559963,-1.826567412784787,-5.507298054728759,-42.138849161658854,-9.940924166701526,0.0009951472292625773,-34.15138718038678,2.6269007533148114,-0.00028403048773666925,50.88907705119637,-1.4765227532699894,9.48470828286672,11.269259913208062,13.333111121224482,-11.891397065117477,6.656675916891547,21.977343700515153,-13.174069524099338,50.69127974324864,-32.34305732482289,36.76169982227976,70.24207216458748,0.0031259204668340236,-106.19938929191548,91.42998439985165,0.004180878475041692,85.95281321904858,-3.4841731037916897,6.725479909296671,0.0035149839344303844,-9.571655222195009,-12.390181681907574,-0.0009023284538692809,-6.3480290622754465,7.158001890376809,-5.85925217996502,-29.007188492260074,8.851930024932782,-2.662458241055814,-5.780981989377079,-17.264652115544447,8.50153174905171
13.75154681928395,0.0,0.0,4.232883582821863,0.0,0.0,2.8895508140969928,3.3867350516278476,18.16367286574439,27.002072873261422,-0.7072964432185123,-3.5579714987522193,-40.73630336428087,-9.154400507461606,-0.00021409714433326345,-33.1925359801292,1.7343542548027733,0.0008059384458162333,50.69592153700151,-1.6759325536589502,9.885430275695764,11.090836770116635,13.013160302130856,-12.918719036051748,7.420229197689549,22.242331542520375,-14.245564662678982,47.97665280347299,-32.96685845954837,37.76015688257622,70.33009932524261,0.0008681046799311894,-106.70360046083503,90.91056145484961,0.006014890681944328,87.53876349793457,-3.5594534729326464,7.644519054723616,0.0001224962715626126,-10.967963968866396,-9.99068434945753,-0.00490528531047944,-5.595476472487819,6.735439578594827,-5.265410422144992,-28.240087930407707,8.234938150330125,-2.2769191771194732,-6.187119734628923,-17.263685616551363,8.017398764959582
14.69404156125958,0.0,0.0,5.632424212298298,0.0,0.0,1.4655355618702641,3.0846469147088285,18.376397253770794,26.449038469508693,0.23933734634951934,-3.7479369130084934,-39.45874293013365,-8.769136358879933,0.0003312851387334392,-32.40449833236002,1.7268021213538138,-0.00011915208574572735,50.41026351651813,-1.5360806498085664,10.357907077438995,10.946302914305534,12.681529889900341,-12.076027131613351,7.972185235852009,22.465644823760087,-13.80907266003032,44.50575943405081,-34.40016762777987,35.7674753827188,70.62839527667177,0.0011552581249987459,-103.98960390172086,89.88995428126691,-0.0024837201219490494,91.53480212137471,-3.5304794137218862,9.855368717186305,0.0005963927092517901,-9.182611656265136,-10.872307360077945,-0.023383072225322293,-5.705785251195108,7.016772846448319,-5.737168221976495,-28.358729678193264,8.674930345115884,-2.6043807301262025,-6.478647409263138,-17.575230987959074,7.839782865958265
12.794261628883385,0.0,0.0,5.099455428961135,0.0,0.0,1.6642447302405219,2.928598536238749,18.307602070961803,26.424886656875344,1.2363162780592936,-3.414070463322517,-38.768614823618286,-8.405426267968075,-0.0005890579921427327,-32.17995443734878,0.989622392999641,5.392548810467372e-05,49.9429710712444,-1.2367144035422493,10.755154735157555,10.789832930065366,12.558082035362766,-12.009161228014756,8.766038773427447,23.03988621189044,-13.961908948862366,41.739609371393456,-35.1956123869178,34.98668995498772,71.16915675927348,-0.0004976771557214935,-104.5498950115635,89.65823484004231,-0.0012287531662080302,89.1267773170151,-4.146796129175212,8.663588917561517,0.0008813614310626251,-10.190819538855699,-10.268272001000668,-0.0031097168093722712,-6.074197436946797,6.4766368735406505,-5.290215717145456,-28.70419479282855,8.005552980280191,-2.4005046252511852,-6.319711919601511,-17.6686997202616,7.570602013830145
11.196739683623058,0.0,0.0,4.4114162542430675,0.0,0.0,1.2128320418999836,4.165815911588204,18.578380912548674,26.50679374837946,1.0745103272880927,-2.5846456240931825,-37.952591926554945,-7.954844395605871,9.409227214521349e-05,-32.03267665696653,0.542962299829912,0.00013346311106074839,49.44586549714263,-1.4082060088497417,11.325985971254335,10.521655758114672,12.12158290591125,-11.71945279544494,9.512680724141216,23.32684185693361,-13.767248618519199,39.60740864645578,-36.51703871848065,34.090390576452805,71.88815973927164,0.000986434731633775,-103.36146339547722,88.54179106341323,-0.0036801926828938145,88.79364752204965,-4.404029290552915,8.197814399777858,0.00021444299378520042,-12.221416744793842,-10.59362558042771,-0.004052443710782921,-6.2606940854633315,6.1371900715409815,-4.647985413633433,-28.882378906864858,7.446662668257835,-1.9376797158176438,-6.238052332941797,-17.611417705874437,7.0773249048558
6.494378605330274,0.0,0.0,2.6318263061961833,0.0,0.0,2.309884979598224,2.627602472468808,19.46181285302074,26.842851122120432,2.4304196819723116,-1.5706115038097015,-37.2957768476298,-7.563496715890109,-9.322764329327231e-05,-31.919836865401248,0.6381152453498681,7.256207456934496e-05,48.59761092692157,-1.6428278125426534,11.458762394987744,9.729509977362744,11.381852633763186,-11.523937858379202,9.69427590532504,23.272469764492257,-13.54943637149191,37.65270949045237,-37.60797730999831,32.38030583250958,72.64948161609297,-0.0055760026010333455,-104.93292250504045,87.10527488784271,0.0007201661480773938,89.43461115784676,-7.080589425297482,10.382686730873896,0.0001573972685303417,-10.29881237855464,-12.072653982075426,-0.001389832932718147,-6.071356158547357,5.8696480188670845,-4.41308902900238,-28.68285770451528,7.109856972575748,-1.824010967483026,-6.425354371455016,-16.9182477669259,6.736695209830339
9.815432686031262,0.0,0.0,4.154204515380844,0.0,0.0,1.4311766033845572,3.1453818641047273,19.88981815540722,26.41902402612529,1.3025832862620206,-1.2714600462785635,-37.071220776936826,-7.513076113558163,9.5418330142655e-06,-32.367324920834264,0.9685841579738578,0.00020089712431718725,48.87363981181585,-1.1241807261622683,11.655491174040806,10.179407614485308,11.090950866074115,-10.720640306688239,10.952899138168112,23.09155674245159,-13.72126049248626,36.33330304494681,-38.24119691940696,31.410875534741493,73.22416406753999,-0.0003550495385754015,-101.70463325607346,86.58106545646298,-0.004728597143042765,88.14990742565053,-7.647557319449386,11.294099891925265,0.005658771851990103,-12.887720933396986,-11.276721102991333,0.002132320011879693,-5.723269580483858,5.142047112353313,-3.8188275184146874,-28.30888075109214,6.210818527592062,-1.555686378481987,-5.572911767719518,-16.137068345030524,6.830872236299642
11.185763642382177,0.0,0.0,4.4221409148669535,0.0,0.0,0.7313828525840197,3.107495225079549,20.071740484425245,25.66170687100896,1.68972469630058,-0.7746038180214899,-36.66146673479968,-7.619381560354763,-2.340239800941854e-05,-32.44231342037374,1.028919089676945,-2.011735619293727e-05,48.7208440656692,-0.8508640211351431,11.63306408145559,10.223987169977503,10.639485141541405,-10.192618962375914,11.865468553944229,23.067941897357645,-13.822815172567665,36.507311176152854,-37.77353163812957,30.349911061549967,74.70743565875429,0.0027225810515501036,-100.4346533581936,85.51281193837954,0.0030428707255104365,84.42820736771057,-9.794103612899207,9.854866772879893,-0.0011780126146296536,-11.102553038743794,-8.468056198459148,0.0001780139448017648,-5.274117693376261,4.80814415180048,-4.223612054633799,-27.841041453728902,6.057320731916037,-2.0591143331711828,-5.391017157078234,-15.580583698392655,6.20457749391897
14.963723589917064,0.0,0.0,3.425162427687004,0.0,0.0,-0.5746302021296901,2.821364428819234,20.455415495782884,25.480024950345975,1.4488649184123996,-0.4559905517892066,-36.37627326954886,-7.558514538389271,-0.00011057060743603517,-32.685738326185074,0.7977009545445028,0.00036905755940674543,48.392563285093495,-0.4847286602285018,11.910703314349487,10.093900322501325,10.366728698680628,-9.392928195795136,13.396699686615085,23.360201439181484,-15.23677288727468,35.743106418527304,-37.92126615046074,28.46170965043124,76.46602340613627,0.0025252732181716303,-98.09232505036181,84.03698746458831,-0.0014263874738972245,84.00286791975033,-10.33902332132934,12.431220164163948,-0.0005645230133149536,-10.406636880643513,-9.381399893909974,-0.01473493609370067,-5.497805746199885,4.886505270514814,-3.899767447960641,-28.072025808341643,6.005822645858847,-1.7292429049943279,-5.083865773198724,-15.071461593014426,6.139751197505644
13.292346162843007,0.0,0.0,5.231962569870284,0.0,0.0,-0.5729496326027822,3.68191972200994,20.23225767396649,24.11064459587423,2.548327183865536,-0.06713614178516925,-35.76840090736274,-7.710593736868829,-0.0002730140064916933,-32.901774794156566,0.562343163955216,8.027431214669873e-05,47.48910414338031,-0.24867675832038674,12.377467792626158,9.871533739134792,9.85933780484549,-9.282491707704404,14.323333739617464,23.06588098121639,-15.261228470817269,34.54577317529644,-37.705176093291996,26.15760406319166,79.77734038280501,0.00020259443536292657,-96.22640974013012,82.3708601683098,-0.001927332507583289,84.08843395804215,-8.988537170104866,13.371013899985035,0.0059296297148881665,-9.73136171314048,-11.989418946053554,-1.8086102130084043e-06,-6.124336461016588,5.554818014349993,-4.256898406707525,-28.72303669910948,6.759474162903805,-1.801381032165166,-4.937278987443869,-14.740162591225118,6.022613760579632
7.900110675438638,0.0,0.0,4.389890064580697,0.0,0.0,0.8076360717500881,2.6585799515911948,19.390798452276044,23.153275786754254,3.6098170752757306,0.8023339487539815,-35.62906921786888,-7.410604498629923,-0.00020880031080709442,-32.27803229353142,0.18794081530003964,0.00018491456054948535,46.7333755319798,0.04077116247252204,12.639470178464988,9.141392411499648,9.779910924936583,-9.343812788185527,16.867413363262447,22.5169042150771,-16.492496223388258,33.80900713075046,-37.2740765469835,24.703398439534297,82.33213541883545,-1.2726028673342773e-05,-94.89657982518251,82.53565733705678,-0.003995866320126469,84.87768117969935,-4.99962790154932,14.396906932646448,-8.173664912495911e-05,-10.225972956336703,-12.374529723839798,-0.003171976977901664,-5.892120972277416,5.210349442818215,-4.653858478952332,-28.469864753210093,6.593232757757624,-2.301974562535256,-5.367740806418452,-13.990243375776194,5.568141998292218
10.03805239322503,0.0,0.0,4.5310543057881025,0.0,0.0,-0.34056192546157216,2.5640070600012823,19.955840486750105,22.076636980670873,3.993208875643698,1.6129634892405948,-35.15028610488037,-8.061715898357265,0.0001274507396982206,-31.933151595142256,-0.20054569452123655,-9.185062853363518e-05,46.600271300979905,0.6283677408823569,12.289171768836312,9.123398580148166,9.647073838107328,-9.210754383212594,19.248941124848,22.365974018875164,-17.95383958297526,33.70526283711088,-37.01028504990715,23.632552641887397,85.8897265572548,-0.005419956323923546,-95.68791280193078,82.64106470266441,-0.0015323610997659033,84.63449393274831,-7.439035401524363,12.86946906105219,-0.00431612823940603,-12.440273380546978,-12.50779674315665,-0.011591639988956062,-4.98409314734966,4.564483175437374,-4.3966463126907875,-27.5386888348062,5.898465851904074,-2.3132406966919397,-5.304534538244092,-13.54352047952846,5.538575941481272
11.27751,0.0,0.0,4.33519,0.0,0.0,-0.5008,1.4997499999999997,19.94258,21.343470000000003,3.53909,1.7242499999999996,-35.19414999999999,-7.21813,-0.00013,-31.485560000000003,0.19474999999999998,0.00029000000000000006,46.56559,0.69252,13.144490000000001,8.88652,9.48673,-8.79446,21.302800000000005,21.858550000000005,-18.72553,33.23039,-37.12663,22.91728,89.00202,-0.0002699999999999992,-95.24265,83.92028,0.00425,88.43195,-9.3633,12.454560000000004,0.008029999999999999,-13.567790000000002,-9.798610000000002,0.00255,-4.628419999999999,4.50798,-4.24607,-27.183069999999994,5.78871,-2.19568,-4.96201,-13.038709999999996,5.32875
10.566511300388166,0.0,0.0,5.006716944659507,0.0,0.0,-0.36271333639340153,2.1213979255119044,19.496744853109597,20.361336453918366,2.912029529075979,1.6050376699985724,-34.696639316107635,-6.886789229376502,0.0005416622449508574,-31.22191433716864,0.6784374262112828,0.00013377691898497373,46.17682207947418,0.5416752469487873,13.477534475024978,8.711173575903102,9.091022855224521,-8.249424048763805,22.63138599457147,21.498246813467834,-19.446739822905542,32.07324107319754,-37.17527476771496,21.87635795510956,91.9583278679348,0.012124571198482282,-92.24198462151973,85.0839300716984,-0.00047133390348533927,86.87894162596642,-10.31508752033008,12.435523719735176,0.031238378975144844,-14.500811401683883,-10.902752443550588,-0.00045897445173907184,-4.685421247645997,4.316412814669106,-3.6906176470399052,-27.240241805460204,5.39936799754191,-1.7556117955486745,-4.616811516854405,-12.77258024668445,5.096969439113243
8.922911791611455,0.0,0.0,4.057334885334204,0.0,0.0,0.18642094288996086,0.9037076616872267,19.282497188286747,20.135345702580647,2.6813109456825184,1.5349016431047153,-34.501969841244616,-6.58482354303556,-0.00033645811774809625,-31.138769697060017,1.0145779324201358,2.048502798315284e-05,46.033082415460925,0.49980830369807633,13.284781404056547,8.67953746156675,8.738213874659891,-7.952213244742252,23.92285771356363,21.168831279191554,-19.864512069370637,31.578934327097798,-37.19262878634879,21.550108640597227,95.02315412854325,-0.011387850177073123,-90.33230659080373,86.53691313484948,0.0002831027279790856,86.31682091554879,-11.757863237386601,11.705311761550561,0.011056288400045126,-14.555551817709846,-10.432667129373208,-0.000753319376934996,-3.5032024899390386,5.06822970451786,-4.097268886907188,-26.082538969724848,6.249155860496101,-1.841796035659505,-4.543398911609327,-12.51331535901586,5.057961368524146
9.951988056781612,0.0,0.0,5.30239718574973,0.0,0.0,-0.07470441963576324,1.842238268648828,19.79205479395384,19.45358946424682,2.920426414516764,1.2873575221996167,-34.19751675039979,-6.577524624493692,8.706951296010937e-05,-30.94648091475249,1.1516710429065127,-0.00025073965584082944,45.98163390048836,0.49879303208515724,12.896657139735593,8.68504581625466,8.600784168355831,-7.090981290432394,24.80733745376075,21.02060742429792,-20.1523422777652,30.07597706421233,-37.365173934442325,20.370681839253333,97.41005783605019,0.006099058947882978,-90.75932598605158,88.71047046610218,0.0024388051962610175,86.6535574866683,-11.163861895700556,13.511949218846853,-0.0025372635856456905,-14.158144333200578,-10.037703171116547,-0.0014853964832841572,-2.69737877163933,5.116470329323224,-3.4486794660195397,-25.28538190270477,6.045600087465451,-1.223223901939523,-4.146562349844696,-12.260714627099052,5.448631511212906
8.15806075435977,0.0,0.0,5.422349740022378,0.0,0.0,0.9732733669656447,2.2478405538158537,19.775358445783592,18.51348343690751,4.197270161199828,1.7247984093572022,-34.162528617353324,-6.510864441511212,-7.859397593092553e-05,-30.368097833889255,0.7237600873976723,0.0001992508485712769,45.82637212970959,0.5152635642780655,12.490980341443171,8.373507055491375,8.68785193820264,-7.192961778664354,26.396204590852697,20.707113534051285,-20.832465893871962,29.54836408093032,-37.12686990990288,20.112608197855263,98.56435976359913,-0.0026941530847945858,-87.00097118104756,90.40610170162032,0.0043009235617175266,86.85517002933521,-9.223260804009893,14.721146140467022,0.0019400072160924292,-14.20937320627344,-11.288413405267693,-0.006152374444073268,-1.7877527286316188,4.780740378825223,-2.893442986466442,-24.366551966960937,5.523179166524095,-0.8394416063002352,-4.230751923290712,-11.533754839421146,5.34734328903861
8.60111519310401,0.0,0.0,4.718303528447175,0.0,0.0,1.4189200854042996,1.9223741023003071,20.51847383765366,18.223978374551418,4.258970711556642,1.853072799005356,-33.793388036269306,-6.399575517966653,-5.352910234312924e-05,-30.009966263045385,0.48744107647069673,8.20991789515691e-05,45.50181596265841,0.3661000849866581,12.281597382078175,8.116026497812667,8.434844843645864,-7.050716248086997,26.6108062069209,20.628042642145562,-20.98894016237491,29.461381040398443,-36.66621167027396,20.77948395007454,100.57981826308844,0.00167183875827864,-87.92752949372607,92.35459226299699,-0.003723232631416112,90.24482935374843,-9.305582215699058,15.676684546605857,0.0006140323987899923,-13.493672309280853,-11.901294703609828,-0.0029503097024677315,-0.7205997947422953,4.732772212301462,-1.6437767546925657,-23.299973711967596,5.000714136259981,0.2968344243284509,-4.066249867545424,-11.381663946706894,5.096341631179329
11.35033313738595,0.0,0.0,6.128552904836105,0.0,0.0,0.7336305877075422,3.075740617112442,21.150357237596662,17.192527477750794,3.996611924301518,1.6759450903513984,-33.29826249128454,-6.563659435778555,0.00015893062172545503,-30.10495924657241,0.8422652836167621,0.0001688167802419113,45.49998903136613,0.3312573733951091,12.237823857926339,8.456478275928156,7.997831347217031,-6.466673312409984,26.175637357688093,20.794253698935478,-21.584849872704186,28.636066628009488,-35.76908225566166,21.034748072895603,102.6515348575177,-0.0011010800338906968,-87.80321622039203,94.39546044014276,-0.001569741643026753,88.9328110698184,-10.08472186562105,16.063043838666516,0.001826143295048855,-13.143934001062291,-11.547627554239718,-0.0018733231386578453,0.4156899182217933,4.507523104881425,-1.4162184990341546,-22.15579406797593,4.705645743321223,0.42023700995271285,-3.8049828324224015,-11.188689173381269,5.076058043212268
7.3228214503568925,0.0,0.0,4.50869382059026,0.0,0.0,2.137692749782347,3.315343954602942,21.722126244845445,16.722628448703972,4.992652208484568,2.40101392061312,-32.87677445972831,-6.568511819704781,-0.0001364998370576547,-30.190126988054136,0.11924937660103524,9.734662445897342e-05,45.114618978537315,0.3732209930835146,12.078948037069903,8.494149220553219,7.961695436425225,-7.322231720475741,25.422938176160173,20.717298150772095,-22.55315847530249,27.508336717142576,-34.155721444099974,21.31840131942521,103.70792403572163,-0.0016374016796804464,-89.10824630503751,96.06776128651732,-0.003887264939670334,89.14053243036611,-10.959555514587525,16.38137486193602,0.00022398333378560557,-14.9473094572953,-10.895831855578585,0.0005153225297413528,1.8281011279635648,4.582019692018662,-1.1773141266995284,-20.744864443241248,4.68302061752751,0.6695834516820917,-3.7387024374909132,-11.022731380394541,5.381504642916607
11.84561610103654,0.0,0.0,7.11243033925819,0.0,0.0,1.6754316420867605,3.7688216310588887,22.58713085347235,15.581907263707713,4.540918834004933,1.95393663521059,-31.367468798065424,-6.505642873587035,0.000769841095864814,-30.266731730970353,0.3973379321079893,-3.663281845547159e-05,44.586848027690436,-0.2970863985757088,11.737943995962345,8.821572454611873,7.427407882846035,-7.08401959087197,24.334738353301905,20.975944799200946,-23.60051570987289,26.384487705068047,-32.5435046451103,22.09627028036069,104.39748050744778,0.0020338401102309,-84.55711346004603,97.53367799861292,0.0027736190253105277,85.03130172097354,-10.084250365815468,16.520697348698828,0.002145095156008958,-12.840133577923742,-10.629401915398727,-0.0014447256624207348,2.8940478431753007,4.150468110789205,-0.8001411089296172,-19.664218109909413,4.1401924916751245,0.8517945266461153,-3.325316400212653,-11.075912338905539,5.1694753946075025
12.174223916153792,0.0,0.0,7.271225360728621,0.0,0.0,1.8621585524594426,3.626583564429994,23.500694870088147,15.580209405316833,3.676507216760169,1.1877817260447001,-29.28390264557095,-6.33779196802414,-9.445628604680566e-05,-29.97918121724089,0.792379937415466,-3.815904026359579e-05,44.1803045750576,-1.2596302896002456,10.769547585631074,9.206485525156411,6.946196104297025,-7.029799764034846,22.669421241038116,20.99655283039951,-24.32405904656234,24.93553326107054,-31.093299488114674,24.014729277232775,104.2837188849631,-0.0021299053019335325,-87.90302015793105,97.97351644695335,0.0008817300178291061,85.2764095470567,-10.327921333816004,14.871265142888701,0.0012014064740279852,-14.844902532067486,-11.610147853152618,0.0016943592252291388,4.210312729799719,3.99530856882206,-0.6258665436511329,-18.342693944218606,3.9302192672499103,0.953075701926621,-2.8209580206978013,-11.036754581569367,4.904894704683556
8.004597351355347,0.0,0.0,7.409413803986927,0.0,0.0,2.6647034644860703,4.0020392226193096,24.364762923916032,15.213894599680575,3.8878432518061854,-0.40581831186046674,-27.91071168654857,-5.630185338652839,0.0004062431407157133,-29.344794289075566,0.9080508749907166,-3.8484593240416785e-05,43.06000810215576,-1.8977852082247324,11.443780167064535,8.529878751298119,6.712761488512874,-7.014320273643393,21.174329734240516,21.191883094158452,-26.076507174874028,23.74811677465336,-29.79926004325588,26.7710000299962,102.95232310908851,0.005280389056704113,-84.0691525228798,98.8856990224516,0.0007889724153038938,84.23372128239193,-8.734403963590884,16.89616528256628,0.003270056758817822,-12.979344809704218,-11.41543208134353,0.003842892068073416,6.038879136942188,4.146906277884086,-1.3538902410855012,-16.52150123825877,4.348793235148066,0.3389885659511396,-3.193312489241172,-11.055809755606573,5.11218386652752
8.41108745243552,0.0,0.0,7.826720329271183,0.0,0.0,2.1424200133257174,3.710007583984464,25.12734145954275,14.342246685117912,2.6650563295414615,-1.6032780372721713,-26.42602208736534,-5.803277139832591,-0.0001165945482276015,-28.530562587313355,0.8487460522367771,-6.6274030950946e-06,42.9676264561953,-2.1059487804145016,10.848997556813341,8.751478531247635,6.532580763420549,-8.216742429263803,19.43602507596902,20.901453639330526,-27.800486870953254,21.63523842639925,-28.396621090318718,28.568954257086126,100.2862776228418,-0.0023524739195053854,-86.16078464012755,97.69258504848085,-0.002657265546438101,85.41912981768928,-7.3434304928879515,17.479393474078098,-0.002551077150602356,-11.46741568789139,-13.756816313161012,-0.014490617184219741,7.5356611343243864,4.126443509380216,-1.3877556431223546,-15.024186238370492,4.342840250153078,0.29983291723810496,-2.7171666589527463,-11.080915588534882,5.625207261253661
10.207132764887115,0.0,0.0,6.546478793743637,0.0,0.0,1.545160213985985,3.374585104283067,25.537892811633018,15.114441629530784,2.6248421771031643,-4.269760754112304,-25.199223784543292,-5.488465486121287,-0.00047061706210500684,-27.709144522004248,0.8909753452161956,-2.675977351366882e-05,42.425454371430924,-2.4499506997127014,11.44465448136145,8.289059680886423,5.99990137868496,-9.101095550179805,16.87243393934284,20.727613984043963,-28.699215373854553,20.296429120578786,-26.39853728552613,31.656882112456092,98.11194987619712,0.0032719110891881354,-84.44908997154364,96.4475361645047,-0.0029253841047241,86.86351835950705,-7.321093640746103,16.04044744998287,-0.00019633457558215214,-10.115823197243678,-13.484431520742989,-0.008123566888585256,8.43007034858319,4.2494761204217495,-0.6070532904355703,-14.129707786163056,4.157748302573301,1.0681797278732186,-2.6522972467997072,-11.356921655767144,5.527420736538001
3.3645997230997633,0.0,0.0,1.3930043990944816,0.0,0.0,2.7723444333549794,4.25736585998556,25.58124971347347,17.497653333961438,1.9190512621220508,-7.508827089208078,-24.428554574581877,-4.997432042964826,-0.0006327185975165417,-26.617028817119373,0.44115416205590996,0.00047530536533398906,41.77608725827724,-2.2431000844652713,12.398266211276555,7.422881982470432,5.690163271859382,-11.69951950583002,15.51384479065793,20.357151445205027,-28.821568675998392,20.3711626267689,-24.866682205282206,34.69460296226696,93.99683378409794,0.014657306954049704,-88.86873361851337,92.98951078908053,0.005235867946109134,92.10899961567215,-9.121531683872057,16.546775342671214,0.002579447337940885,-12.991262110259424,-12.671883270401043,0.012179460378573348,9.874181507961678,4.146360564585348,0.5982630601017053,-12.669963301207464,3.6014840468691496,2.141257711824078,-3.1823954925293467,-11.02329521247361,5.994139399394571
10.125031084289857,0.0,0.0,3.704277073222976,0.0,0.0,0.6604396097810334,3.5048747802701694,28.019528395841764,18.22866670146822,-0.8562281980132227,-17.379646034658148,-23.636699376064804,-5.403412947507024,0.00018772520650931867,-25.282844757151853,0.328074358815523,-0.000759784759142228,42.54408414266248,-1.555323267733479,11.701163704579956,7.862281002388836,5.8043973857448385,-12.397146483861427,13.665113576124819,20.27758665375966,-28.58553804052697,20.50082603252655,-23.471115551774222,37.937274927719976,90.13922795320386,0.006385007441382205,-93.35976948193195,89.10851111135241,0.003753102409666012,92.32576958905555,-10.916885539598393,15.28851932023908,-0.0003882685400208897,-12.889044732473502,-14.370811994783379,-0.004492954554399949,10.535856047450208,4.136147157802086,1.8363634106385707,-11.985617610283269,3.118813581733138,3.279890082993706,-2.3278905570241823,-10.406519510237544,6.604832963420088
9.792850903799497,0.0,0.0,4.786367582357534,0.0,0.0,0.5793753300651923,4.1956051596658686,28.47911820361601,18.08458495239271,-2.776473495843343,-22.007183186839097,-23.46774153662357,-5.596543354612666,0.0001076245492911481,-22.310953303565277,0.38080695767188777,0.001663248368926918,42.9860788495395,-1.476935995699218,12.138552174637736,7.3885799872152615,4.7704510759284044,-14.018152709980178,11.151075603017608,19.70348438171971,-26.79571442724136,20.37907955001927,-22.538014526362897,39.87926459557813,86.39452381193028,-0.005895305809214503,-100.21218006827473,84.44557476351434,-0.007501572797222319,97.27361009972194,-8.68210624029618,14.585959798147163,-0.000822766884525123,-14.10755567584013,-12.830715623592042,-0.005822916479039034,10.062806090836183,4.163154340269836,2.5390993068882866,-12.442252987334927,2.875391031150847,3.938618734060774,-1.6420698680809185,-10.380591539500042,7.08555968367704
10.62286335414951,0.0,0.0,5.560658677319227,0.0,0.0,0.882658092901795,4.255935326978493,28.542150692019376,19.02567978794251,-1.5394529116573155,-19.363267837283203,-24.311850133813945,-4.887285020144968,-0.00042522812977652334,-19.471032015128774,0.827860962495246,-0.0008099339606021774,43.849427885429435,-1.7723615524804306,13.12390779262431,6.356558956109439,3.803113150940704,-15.104925677966046,10.263001372935001,19.181712030951523,-26.319043018434535,20.471179745767547,-22.266612986367154,41.7927492290936,82.51704154155341,-0.014444047910038766,-101.86010588525005,80.83396711340082,-0.009486135729403464,97.28384101310311,-7.236472750856491,13.947997486896615,0.002451063318297478,-14.733331641861668,-13.644497478972292,-0.002808673999384259,9.953811047573291,4.694925106910646,3.0576326916339007,-12.547164777804381,3.168799531696647,4.6207042902363735,-1.431100207719555,-10.71816481399046,7.254068510055085
10.588279999999997,0.0,0.0,3.2580199999999997,0.0,0.0,1.01582,4.30391,28.660920000000004,19.818740000000002,-0.8816100000000001,-18.04083,-25.317679999999996,-4.916869999999999,0.00026999999999999995,-16.910789999999995,1.0532,0.00020000000000000004,44.68504,-1.8277700000000003,13.367199999999999,4.8616,3.1409499999999997,-14.91695,9.638530000000003,18.920770000000005,-25.557199999999995,19.91343,-22.25511,42.86666000000001,79.3446,0.004089999999999999,-105.52171000000001,77.69769,0.011360000000000004,97.28747999999999,-5.673159999999999,14.17241,0.0038700000000000006,-13.53697,-11.71836,-0.01532,9.75771,4.45899,3.5424999999999995,-12.723059999999998,2.7659300000000004,4.977499999999999,-0.9512,-10.70225,7.141890000000001
7.949499192887848,0.0,0.0,1.217468702016639,0.0,0.0,2.2248990908546546,3.5432324379250333,28.49797289257731,21.28787061500891,0.8310877645833388,-15.29868678679749,-26.05550914851356,-4.841577526331204,-0.00019342182816260042,-14.635913409749442,1.0131351235882968,0.0006342703133306834,44.69846164213522,-1.7390067230269302,14.095944000745646,3.0154775475453484,2.4927314196541235,-15.898772251602239,9.526122416155964,18.91685010683384,-25.270800111555356,18.590399042609732,-22.893662828091546,42.65923476460187,75.47614601174567,-0.005612025738191457,-102.89143281042641,75.01463903340337,-0.0010523618966575745,100.59381307340107,-9.292931490819123,13.691288973049359,-0.004851108837671859,-10.133947602224948,-12.07387151081496,-0.004943504586175789,9.313959866401186,3.798772221246289,4.2299823385373845,-13.132820277090564,1.893808069054291,5.359210994902411,-1.0056409238382904,-10.4753895605307,6.835253629132198
6.627691018578403,0.0,0.0,1.6241376973664383,0.0,0.0,1.9077644577048294,3.6900814850736183,28.40656637313343,21.48469538390013,1.1497104381288727,-13.419898801502246,-26.550414664548605,-4.599629960482913,-1.7560379469331745e-05,-13.102713086647515,1.2617697417899483,-9.512974082472943e-05,45.28770440476507,-1.6491742948790986,14.075319962493928,2.2604986385718067,2.230829025281163,-15.756682971720139,9.602254236987068,19.406124263062576,-25.400819974473684,17.246318947386442,-23.24986728590322,41.97290052381418,72.5912347940888,-0.0012206246360917435,-105.61036617649303,72.4904745743233,-0.008048493324955516,102.55924450571686,-10.470927547872243,15.408621315594404,0.010093331580487593,-10.497859081228437,-10.33013937439625,0.002848472698629652,9.449262804572621,3.5234622073843886,4.077713703791344,-12.999539182658074,1.6973810941066225,5.113526184642688,-0.9009271770989902,-9.784029785251029,6.740727966886613
6.412174966268376,0.0,0.0,1.8505327805936742,0.0,0.0,1.4844922567754277,2.2599275575585165,28.584463427515754,21.67028430797243,1.3429438419596906,-12.535757508755967,-26.320586220684966,-3.892987543399269,-6.655189259710145e-05,-11.981034428103344,1.761081910895976,-0.0001167496067383591,45.282449454307866,-1.6679885852708125,14.008870916140403,1.5514052736243795,2.210982964473691,-16.250613807122996,10.06943414993457,19.04049683711546,-24.42809730361798,16.19555781340165,-23.601377171143145,40.62457952482653,70.39948351141673,0.006210019638924407,-109.24874918494426,70.28697764927229,-0.0008049184013038094,103.82973253691404,-9.44875332660892,13.110063919196259,-0.00030393772475193387,-10.78518775496877,-8.244407993826211,0.0008108716904650956,9.994490013104146,3.38097867812157,3.781281956984947,-12.462494734492516,1.6787029727158695,4.7854976498233,-1.4250289590122218,-9.149915085015941,6.54834311275823
4.801912660759462,0.0,0.0,0.9585464132805587,0.0,0.0,0.9825392823953827,2.7015465972533534,28.780444054493373,22.25304989615656,1.1671239372422888,-12.760171456636986,-26.175947659020853,-3.398345161855092,-0.00010387648158316054,-10.990485804164539,1.569086431342522,0.00017408774611084898,45.26484054755012,-1.6275244223956575,14.122693437010481,1.0796847651168846,2.4675981037577164,-16.14201598724635,9.37966123420213,18.919866418508764,-22.437192648480526,14.49806926851393,-24.317921350119562,39.29839753125699,70.04648735768059,-8.492795597277632e-05,-104.38336855055285,68.07281936764413,0.0036087172643383503,103.06852483693267,-7.001869318562632,13.736764834298697,-0.000490426086689116,-10.500875570956659,-9.235481322488472,0.001476320070647579,10.101115650109868,3.4597714017917545,4.42862214332137,-12.334691032484699,1.5047972044600986,5.413055680206428,-1.5146389731911178,-8.641521555530014,6.723752430833048
7.289755240743624,0.0,0.0,-0.6530344668512167,0.0,0.0,0.013078910660712526,1.3320752922715255,29.35623184036965,22.587271895217217,2.162678693835153,-12.778374509763308,-26.560267881568958,-3.517620345417961,-0.00028558118832582973,-9.760145257824812,1.065671932904188,-0.00027596513441185847,45.73825221410537,-0.9629851648888499,13.061734336960019,0.6854502921196484,3.120280028588737,-15.564026831391525,8.566601817765536,19.147755864826223,-21.419619179785347,13.056020900178009,-24.59650277389732,38.683979567522954,69.70269155581867,-0.0003188280109623517,-105.15405029698121,65.40922121767407,3.693325365469177e-05,103.74462049781377,-7.719985833869353,12.134843124414223,0.0019796076611118254,-12.380072500966303,-9.94812631611476,0.015679421255304637,9.441988186473909,4.106325081549018,3.559728588896272,-13.032088933823031,2.433481767866046,4.858416053815112,-1.1690153375530798,-8.257426976419643,7.504767279329789
7.018378467702601,0.0,0.0,-1.4824222472592916,0.0,0.0,-1.233610549766735,1.3016879948104492,27.941439309543526,22.900292048397798,1.4027634429693847,-11.979815069861754,-27.93714050672801,-3.1130345346167263,0.00022549032467236122,-9.148091478320115,1.3853628020966744,-4.274855863167905e-05,46.42329598100786,-0.6237939585373649,12.851617239717035,0.2925004696588645,2.6618407549306693,-15.171198750739181,6.653203530368116,19.49378752693526,-19.370258558084725,12.061862023448935,-24.505697422994327,38.07144934450637,70.4682312714638,0.0019737020348054163,-104.19412763201962,63.65709255184962,0.007113893508957531,101.44317462077778,-7.928262569620088,12.217081713024017,0.004639866822312028,-9.84641819117034,-7.07664169447627,-0.0002370765642302765,9.460430525158337,4.112694006812923,3.7167509349347765,-13.008576168518282,2.379513022416073,5.0057120833475945,-1.0038832017061843,-8.359304483736961,7.446059374765837
2.0527667460730927,0.0,0.0,-0.33593460172959877,0.0,0.0,-1.4153535933030301,2.082243034063457,25.235930358032537,22.895966111490203,3.2681198907913633,-10.500981648962412,-28.465128459604102,-2.7246343601788685,-0.00019354733138019842,-9.22955050211549,1.100661306122815,-4.5913095286212086e-05,46.089016921113014,0.0425776274899044,13.795276184949346,-0.07623576890430905,2.5578659921577285,-16.264911398205072,5.940433011543512,19.255721153861586,-17.588655717005388,11.319277991727816,-24.89091780915871,37.99031730126467,70.55822661049442,0.0004641822312221614,-103.93778466937262,61.58084799274943,-0.004338476476060838,102.17402258179662,-7.530560229884707,10.4332091048887,-0.0025973712353212965,-10.691401862516956,-8.779669792405706,0.000328053300264007,9.30116485308643,4.305417679388632,4.350960543726338,-13.148285649065656,2.3159840473399256,5.664412619632961,-1.4826695310963658,-7.894756814667767,7.322821962015534
3.4338084632975017,0.0,0.0,-1.8265920305679746,0.0,0.0,-1.817316136045796,0.3734947057636992,25.77914695240128,23.340912788613394,2.5305329699460914,-11.036427798891095,-27.817458971515286,-3.1441226151061987,9.163149240071492e-05,-9.451127332653343,1.2095203877548004,-1.554895842965227e-05,45.48746508506649,0.3361282619290509,12.402832400922682,-0.22965700482639737,2.6419215556142865,-15.202549669224158,5.436133934610043,18.72958564024329,-16.311434454001894,10.66325899732557,-24.655406142440764,37.45250962498657,70.21404463146311,0.0004585461127872466,-104.58915000093255,59.48375745338618,0.005629215150036258,103.58542445936997,-6.374349827834285,10.384967068028182,0.00012142305326751496,-9.81721169794594,-9.182650450986225,0.0001481282152656594,8.991401409705265,3.975678545434419,4.600312993083708,-13.443877324791917,1.9162679767166377,5.768473327850823,-1.6234871880268087,-7.424355252213431,7.374329465891004
2.38309080326493,0.0,0.0,-0.6658136814606781,0.0,0.0,-1.788799262350498,0.6629857095846801,25.935119174064784,22.858489514179343,2.1766120570509258,-10.98604281012824,-26.39356337780919,-2.6526508747336237,2.6264145699553237e-05,-9.936439929675988,1.4213417339905934,6.930111160427704e-05,44.322298373978356,0.05207329361128317,11.921666096281271,-0.41079056850079804,2.660496051182799,-15.120728469954745,4.496546201768534,18.37775537630186,-15.289721648746657,8.796881374538966,-24.51761565169485,36.469867710570774,70.03795297140714,0.000600197123271595,-103.3859566814854,57.78510521016105,-0.0023080682112939154,103.29183236716815,-5.627696320240306,8.695353314924452,0.0002912600354917219,-10.876665706664575,-7.57395300385274,-0.004313804286719548,7.406650330584044,3.5962176145200933,4.644658202484409,-15.022553180856027,1.548634035191291,5.664519364136613,-1.26294703066452,-6.758722610018189,7.432261739527979
2.553961523491226,0.0,0.0,-0.8037710872665534,0.0,0.0,-1.6884191482689712,1.36480882966803,26.906589366243338,23.16096831199489,3.1098675583265245,-11.53061397822372,-24.263551579857783,-2.5395579766812815,0.00027903637014853685,-10.13846264180729,1.2696932225124662,2.911763804118913e-05,42.97252661193631,-0.1923114304380915,11.375848815362355,-0.557847511720071,2.987850514113994,-14.395895143412773,3.6258190444974594,18.10100738618501,-14.360645036970725,6.890336742609842,-24.266408497650193,34.869835866178505,69.69837937685931,-0.0011449903239540286,-103.31347206732126,57.21126296568261,0.004502251845250057,103.79927216800264,-5.971220450203246,8.784260409786535,0.00022536062621699622,-10.339954881631352,-8.172716792086359,-0.005501909614436811,7.007607957401177,4.0203514538582334,4.236815881164629,-15.441882351419087,2.09598856100378,5.450172027088699,-0.9758152959483478,-6.286689197327681,7.2341177725008965
2.1870211632672154,0.0,0.0,-1.0365289291092097,0.0,0.0,-2.2606606930363684,1.8410067273995872,26.765018109005783,23.066549060955417,3.2150121741852584,-10.826347344247123,-22.756347459304898,-1.865234497121327,-0.0002750527520189145,-10.626032822789883,1.092093730865577,-0.00022308078981283605,41.97420610052798,-0.8554190867210049,11.916857609517226,-0.5743091240424189,2.7383062488589816,-15.293704232902499,3.5212585517592045,17.919447360325268,-14.745113581285748,5.426145276801933,-23.642189803309083,33.25246592189099,69.329066783786,6.659380959790197e-05,-101.71162974164847,54.30726282877179,-0.0009091297552771126,102.36953457354196,-6.884264694100593,8.464419660176585,0.00031758379147786895,-12.048550412107758,-8.531640210712084,0.002522680835718499,6.56945513241842,3.3662946549396726,3.39607729930229,-15.89919426203714,1.8120614762663656,4.4243615120899396,-0.7320622989031298,-5.967245703792754,7.777667832911238
2.520244072264085,0.0,0.0,-1.3488778044030436,0.0,0.0,-2.2516979799535752,-0.04738488710474019,27.3945714510033,23.095256042314283,1.7786515194845383,-11.132985233532223,-22.360668318251715,-2.4128188407887787,-0.0003246458907681838,-10.797785148674373,1.3216630158457794,3.042093708381316e-05,41.52365242424547,-0.5271253539358308,11.081219093379666,-0.6594430997703191,2.675567285958457,-14.640715001878197,2.9434645962922303,17.241725390696853,-13.801531767978803,4.268959295570069,-23.543779033747054,31.595303632668678,68.94447084618996,-0.0005864102219767365,-103.13318451103709,53.17852939029009,-0.00020733047095574254,102.04128971252084,-6.405582010285515,9.505846079785519,-0.0006276866282210337,-10.184024424454384,-8.002036831665366,0.00017294144092068665,6.319366818183668,3.4891027096421383,3.3043678065474653,-16.1535451363946,1.9605331472607372,4.386683642913541,-0.8291131457369458,-5.813506159133681,7.72053161588882
1.97057933284175,0.0,0.0,-1.154764219270085,0.0,0.0,-2.804523330398075,0.44292509983536116,25.987233366334078,22.88310340058601,1.8861962559473668,-10.86425668751544,-21.836860319343106,-2.280622077010817,0.00025755869881981773,-10.736092378253824,1.1602950754960886,0.0001502603380587484,41.07401717816032,-0.259629167870362,11.78719078856154,-0.7940311794019119,2.732570804437404,-14.649878710431427,2.8016159010493267,16.977866983660416,-13.569030369422515,3.2624853664898805,-22.32194515399401,29.748872485842504,68.11362478094249,-0.0007308268901968614,-101.99046755264156,51.129114177949894,0.0009275052679774742,107.1520947564641,-7.852365093081227,9.365125307438504,0.0011140633554428913,-11.856945562084132,-7.287779143286087,-0.0007620415121857696,5.733453399211932,3.3148801045486906,3.77005092942115,-16.72317153596573,1.6219034238577965,4.749867957304529,-0.7400895960313525,-5.4317190132322475,7.95489395310186
1.5102188951667501,0.0,0.0,-1.140804432781578,0.0,0.0,-2.538615491073141,0.6697604690203001,25.38244950269237,22.410796121086605,3.221412826422136,-10.560152681937494,-21.699386166478206,-2.3841442842335403,-0.00010185912767063015,-9.666746439025594,0.7732462770344828,2.8233726535326803e-05,40.63973411128226,0.1113505363443024,12.044671634604425,-1.48917827598166,3.1322268987422666,-14.795837453286206,3.433496191992561,16.99798236987756,-14.26082169819872,2.971380148591549,-22.010620597053276,28.528129258027985,66.05828538039476,0.005269674806945356,-99.92939276063214,49.23067180670533,-0.0030615432828305206,102.93158894226636,-8.53862061560889,8.360697586966678,0.002018612233424118,-9.349522066982368,-5.690472751771392,-0.0021144572591315046,4.943113587229318,3.2663233008745305,3.0609759922288915,-17.53383351550474,1.847554878976078,4.076832271267985,-0.6289640932733473,-5.0197714241902425,8.227613118090666
1.0103434644719944,0.0,0.0,-0.8720662419250359,0.0,0.0,-2.593466544204602,-0.03224945728707359,25.264318856105604,22.38214678927663,2.657079585776551,-10.091535437424872,-21.62540249571546,-2.50096277526821,4.281185310175372e-06,-9.346138899833202,1.1203510953206879,8.815606597893926e-06,40.755962765479545,0.41961625308544115,11.972478097707961,-1.4865846960260791,3.0282941057809607,-14.771594802650977,4.361699474030075,16.553039916958376,-13.984174275670187,3.137149594934545,-21.300079495277043,27.874347489665283,62.573141479463104,-0.015773699001876963,-100.43370445944718,46.297280212077624,0.011278441820597332,101.75252255923363,-8.750688167867997,6.799471131712922,-0.0012821815481786406,-9.208179582847412,-6.193024673052096,-0.0009380749392158967,4.4891592416154005,2.8069348634691593,3.152918698877518,-17.980351267591328,1.3879567742579402,3.986036001656531,-0.3655445496233436,-4.89907098816851,8.475981843841856
0.85790476100549,0.0,0.0,-1.1961185513873671,0.0,0.0,-2.9878942395982886,-0.07578038954436529,24.677626654854027,22.48903874465207,3.0707875761682693,-9.686238664871,-21.820949939585454,-2.615686667157285,-0.00020448133820105417,-9.455133794251577,1.022661468149533,8.161592927523398e-06,40.678918233403,0.9232471990179425,11.963903646372653,-1.5490903976674748,3.2454849653955566,-14.878357358189575,4.677547859845879,16.52065958514327,-14.258949382258203,2.79205369856643,-20.926439792060204,26.744080752867358,58.218560002744056,0.014713195251303803,-100.08359965742306,44.02866897575732,-0.006670265855253146,102.03978607022773,-9.156479467734012,7.283986037552919,-0.0018275538699819023,-8.809072656265274,-3.385875272367986,4.198274006627072e-05,4.015301689422796,2.5517263739643283,3.210252477315521,-18.45055389923209,1.1302361240579715,3.9414224752014166,-0.30967923313230034,-4.572064208443339,8.640537524108362
0.74424,0.0,0.0,-0.8767599999999999,0.0,0.0,-3.4617199999999997,-0.36229,24.81826,22.556090000000005,3.14331,-9.29691,-21.311059999999998,-2.4779099999999996,2e-05,-9.508720000000004,0.87397,1.0000000000000003e-05,40.51706999999999,0.81894,11.834590000000002,-1.41858,3.2165299999999997,-15.144099999999998,5.14243,16.319909999999997,-14.214030000000001,2.9089800000000006,-20.052879999999995,24.981309999999997,53.833769999999994,-0.0030800000000000003,-100.93026000000002,40.15159,0.0011600000000000004,103.18241,-9.15772,5.852189999999999,0.0003300000000000001,-8.419570000000002,-4.14687,-0.0007900000000000001,4.744010000000001,2.7372600000000005,2.9697899999999997,-17.72961,1.3934900000000001,3.79032,-0.16240999999999997,-4.63846,8.90895
1.3017633198383072,0.0,0.0,-0.9821019862737386,0.0,0.0,-3.789408525329995,-0.09998445309361129,24.70058835061313,22.786986389555675,2.490164701166855,-8.813151014303289,-21.581244107413774,-2.2000734791511385,-7.512509641393862e-05,-9.485118118197358,1.103893308093677,-6.890920700330108e-05,40.605066246570004,0.9314851006457809,11.680948673657902,-1.5873464512394357,3.408443132753094,-15.292283463975531,4.855836647076058,15.650163288916875,-12.805766523304131,3.660948797733904,-19.749638830765306,24.561249340613497,48.59303093251201,-0.0018044844526521728,-103.53865542584774,36.279414450805575,-0.003452315277946681,101.43426609427154,-9.968450829869361,4.772767294053013,-0.0005797759990314188,-9.803822874335076,-3.9452313612023957,0.0007810629608175051,4.729181859262237,2.5531105617632583,3.7038329998539017,-17.722943593171234,0.9431383986882371,4.39771667496214,-0.2322777012164626,-4.248819462009953,8.65525794316011
0.4819973858498405,0.0,0.0,-0.7759627627886393,0.0,0.0,-4.185484135810122,-0.15586526168615333,24.981560372241077,22.712759349803452,2.564486025615881,-8.436383771363499,-21.42693659788914,-1.9551524351946046,4.720753367181555e-05,-10.032930974555693,1.0179868522957332,0.0003299771853827931,40.969584416124576,0.7740083435017495,11.329022289860685,-0.9540576296780539,3.3880214081426074,-15.76065090702726,4.91482651391506,15.926099661359785,-12.914768438425295,4.196958867944167,-19.412476607376487,23.160279816628922,42.49066690167551,0.00999600743307168,-104.58420975483206,33.16391466469071,-0.0015866956866333005,102.26013632277534,-10.677061630058503,3.968316985303897,0.0011448333191169877,-9.469210479535606,-4.672829000079613,0.0010892140875829934,5.076139639567094,2.480922335219523,4.138945335555044,-17.36228342219816,0.7104547913312448,4.771953807723408,0.005027496537044454,-4.296206680413289,8.603863926179223
0.5192833793802031,0.0,0.0,-0.9105772546546178,0.0,0.0,-4.1689868464474396,0.48478339495448897,25.72855887384987,22.65326007559879,2.346270238237455,-8.463468513614027,-20.857863379650347,-2.2696875113890598,-0.0001823788746798962,-10.493362332104528,0.8982835462970168,3.0885931456167073e-06,40.94869746092938,0.7574883920211909,10.83529231401439,-0.4545853404518874,3.382034641704541,-15.934346303215674,5.129143596110843,15.865483236545444,-11.793161072255154,4.819524948234378,-19.091060638693364,21.210930917774384,37.096976838773934,-0.0009494481188604322,-105.9818660297647,30.281180619873115,0.0017435069219747018,102.60611591287608,-7.791912137243479,5.457407417420291,-0.0037015256381866977,-8.666334104515139,-2.333720045204801,0.0007051721636592354,5.4388971075342205,2.517066028868382,3.3542363053706192,-17.02286105992986,1.0432469836638174,4.061122418051782,0.11897009342562914,-4.329805346351913,8.747152653414188
0.33507295720279856,0.0,0.0,-0.9338934213775764,0.0,0.0,-4.451752431068249,1.4760641079464798,25.85970852601375,22.775896882496525,2.6767079972632413,-8.936397728766169,-20.565624807313537,-1.7711879760151426,0.00014526043272119563,-10.83959564648416,0.9723426446533713,2.155664531966173e-05,41.05921554402308,0.39290387140845623,10.941311582274913,-0.11457306198411965,3.4449593188619447,-15.326843738257299,5.13923578015399,15.95116972589074,-10.864973990341792,4.84907276510608,-19.125984691618676,19.035534609776185,31.457903016767904,-0.024202738519411907,-111.23333029105734,28.028258275306857,0.00043894948377791725,101.6443595459181,-7.274530257857938,7.563368691911659,-0.009782485112680242,-8.110557248592633,-2.9392083022078888,-0.0006561098829980936,5.911484249555243,3.0027993404175093,3.8948257390536636,-16.538162956844715,1.2858922961371697,4.7458252910587495,0.2157221308260074,-4.27512305116314,8.496517398102206
1.3152773487215588,0.0,0.0,-1.459049837627173,0.0,0.0,-3.7873989334073386,0.4383387128378333,27.306824580006765,23.019717882147788,2.346708338936907,-10.00287097545617,-20.540734324525392,-1.5297699362927641,3.0333537065877576e-05,-11.07135407027196,0.8776392525429277,-7.4601238774258e-05,41.41509455621448,0.14330741988229428,10.03668501217535,0.28398315291685394,3.8785019380444368,-14.776359335328554,6.04144453727656,16.257876378833238,-10.05493146653696,4.670265143981146,-19.234145901622128,16.268929813572516,25.13398086914806,0.004895302135948622,-107.46381504026063,26.74080215680743,0.0008830958531970707,101.97225522399503,-5.444918600059362,5.349435787720019,-0.0014131049125678976,-8.374393140997453,-3.2993000995158237,0.0005256959742807555,6.245798200703224,3.0784115184354883,4.056123528027311,-16.199289836306484,1.294280918052702,4.923609055375503,0.32529539171550964,-4.222413083879616,8.267443011842046
