PaulMeinheit/Bachelor_Muay_Thai/processed_Data/N3/teep/scaled/JointAngles/scaled2.csv
L_MTP_ANGLE,L_MTP_ANGLE,L_MTP_ANGLE,R_MTP_ANGLE,R_MTP_ANGLE,R_MTP_ANGLE,L_ANKLE_ANGLE,L_ANKLE_ANGLE,L_ANKLE_ANGLE,R_ANKLE_ANGLE,R_ANKLE_ANGLE,R_ANKLE_ANGLE,L_KNEE_ANGLE,L_KNEE_ANGLE,L_KNEE_ANGLE,R_KNEE_ANGLE,R_KNEE_ANGLE,R_KNEE_ANGLE,L_HIP_ANGLE,L_HIP_ANGLE,L_HIP_ANGLE,R_HIP_ANGLE,R_HIP_ANGLE,R_HIP_ANGLE,L_SHOULDER_ANGLE,L_SHOULDER_ANGLE,L_SHOULDER_ANGLE,R_SHOULDER_ANGLE,R_SHOULDER_ANGLE,R_SHOULDER_ANGLE,L_ELBOW_ANGLE,L_ELBOW_ANGLE,L_ELBOW_ANGLE,R_ELBOW_ANGLE,R_ELBOW_ANGLE,R_ELBOW_ANGLE,L_WRIST_ANGLE,L_WRIST_ANGLE,L_WRIST_ANGLE,R_WRIST_ANGLE,R_WRIST_ANGLE,R_WRIST_ANGLE,NECK_ANGLE,NECK_ANGLE,NECK_ANGLE,NECK_ANGLE_SHADOW,NECK_ANGLE_SHADOW,NECK_ANGLE_SHADOW,Trunk_Joint_Angle,Trunk_Joint_Angle,Trunk_Joint_Angle
X,Y,Z,X,Y,Z,X,Y,Z,X,Y,Z,X,Y,Z,X,Y,Z,X,Y,Z,X,Y,Z,X,Y,Z,X,Y,Z,X,Y,Z,X,Y,Z,X,Y,Z,X,Y,Z,X,Y,Z,X,Y,Z,X,Y,Z
-2.9076700000000004,0.0,0.0,-3.2470300000000005,0.0,0.0,-8.054490000000001,-3.9145100000000004,15.313350000000003,18.239570000000004,4.707320000000001,-6.880210000000001,-16.019910000000007,-3.62,-5.000000000000001e-05,-11.23794,-0.13529,0.00013000000000000002,34.63949000000001,7.368010000000001,10.848240000000002,1.6475500000000003,0.9297800000000003,-10.573420000000004,24.167010000000005,14.841720000000002,-28.597480000000004,30.195680000000007,-15.058240000000001,36.50378000000001,113.01725000000002,-0.0014900000000000004,-84.42793000000002,105.36929000000003,0.00101,81.21156,-5.37924,9.63118,-0.0012900000000000001,-10.268670000000002,-9.335560000000001,0.00514,-2.10717,-0.062210000000000015,6.5958700000000015,-24.472510000000003,-2.57674,6.074090000000001,-1.71547,-0.20312000000000002,8.581130000000002
-2.6089729734476887,0.0,0.0,-2.5481037205435255,0.0,0.0,-8.069574126165831,-2.950271476902442,14.795697674966311,17.86329522127982,4.196261900412573,-6.613484449863063,-16.165320571342026,-3.5310016265223783,-3.754713377004502e-05,-11.088840122371739,0.09043793611002088,3.23697186344525e-05,34.94176818719073,7.330010799666776,10.847628611020255,1.7516786178915762,0.8813978811971959,-10.9306276284909,24.603205969112736,14.769649355236828,-28.68772433847258,30.706103230895472,-14.792502620618366,36.98265886863581,112.65076630711981,0.00020435017361418616,-83.97160610700784,105.27940139621934,0.0006964856499785688,77.87309316532891,-5.97312032339112,10.403442284518704,-0.0014746422008058545,-10.082740559490956,-9.929924601498584,-0.0012673248682679632,-1.9964741533415784,-0.20401931694956085,6.672515391128275,-24.361201157016097,-2.7370528075472884,6.091037089450206,-1.6169530063172506,-0.22251434529725386,8.486877139775773
-2.7048261294626155,0.0,0.0,-2.922564321984987,0.0,0.0,-8.019669480534112,-2.684524352025336,15.013349638967135,17.967181573110267,4.352006158535891,-6.648496170868326,-16.36423538732343,-3.559109417224052,-5.3741205205466374e-05,-11.074063330751601,-0.005611650353939265,-9.559031481281855e-05,35.13226039477796,7.325302225193743,10.657272776243097,1.80195093043955,0.94300688426432,-11.045509524854323,24.65908666248192,15.073671609264046,-29.063581731767904,30.824739684208676,-14.872867840202309,37.169543953505034,112.53099798991896,-0.00032629089492655183,-83.45861890691833,105.21812762858937,-7.058695306136654e-05,78.10198113765667,-5.980575713104503,10.836225593674069,0.0004130921886690564,-10.687350561475489,-9.904409039477791,0.001498858009776735,-2.0428624632143464,-0.276460851078998,6.7667144338490175,-24.40508462273479,-2.8398776988606307,6.150659513942155,-1.4252001982261728,-0.328140057908259,8.560400536613475
-3.3965158018553265,0.0,0.0,-3.6162872241004487,0.0,0.0,-7.778202210751366,-3.316719458281406,15.188265583285014,18.272209502885058,4.66017881385594,-6.824320606099824,-16.477201214010837,-3.460702453986236,-8.486429663736777e-05,-11.143485770849882,-0.18305714281360397,-2.9417322508818598e-05,35.11548600315234,7.301471386432337,10.740996193970465,1.7776878648515806,0.9576094500839972,-10.919421499273746,24.517428370430107,15.193071236799561,-29.19736295135754,30.69848125060519,-15.001820304863058,37.23263267691985,112.78586470083737,0.0007188959991717644,-84.11082944070873,105.0746597893326,0.002419607857949067,79.77176180475777,-6.1216500059737164,10.989975234111567,-0.0007451307798556023,-11.786418528451351,-9.627718692339998,-0.0036108064619779744,-2.0275237426239756,-0.14180861587547824,6.697518877777107,-24.39009839008017,-2.689026346191,6.13788210111122,-1.40355523677787,-0.29866518518647794,8.83859968660869
-3.501724196916429,0.0,0.0,-4.064176928305513,0.0,0.0,-7.727705040908707,-3.4008439293365176,15.491837429724104,18.430244036415942,4.322683489526608,-7.063545970644829,-16.443781864899826,-3.56135438969509,-2.990319129794699e-05,-11.238570829597489,0.019902346102148555,2.013750436490692e-05,35.2769348499686,7.225836893605337,10.597065364537041,2.061472157138978,0.6827579088750412,-10.709889722127699,24.4451975364409,15.113784880090732,-29.116564958595784,30.781921985622557,-14.96381191979081,37.23806277256359,113.06771618205262,-0.00014612746902433791,-84.37861188064856,105.06995979040325,-0.0013962921264878312,82.63615584606241,-6.666000126062434,10.858439170706959,0.00012251491826407242,-12.479771000834775,-8.463318515728758,-0.006023142933854923,-1.812580193106828,-0.3736167860431636,6.64883901412613,-24.18142598022912,-2.884869928146595,6.004503055401538,-1.4261532599630358,-0.4786940188854822,9.020154361744224
-2.992720619631897,0.0,0.0,-3.2643222205997424,0.0,0.0,-7.783895279364444,-3.7603347817167805,15.645868571571846,17.97937197089388,4.784290643652987,-6.897975998463092,-16.580247115559608,-3.321130589227695,-8.66724814229285e-05,-11.132294109998858,-0.018227372303318386,-6.409570020982465e-05,35.40555316628045,7.246779747832399,10.549428060739691,2.0919206830117907,0.7258709684353823,-10.797702028763496,24.508533038043367,15.259970787950081,-28.87798792697855,30.87161145299753,-14.788036979762078,37.60658605099011,113.28900565837051,-4.609055805315267e-05,-83.35909829560067,105.32075358513553,0.0006569756286245574,81.40686636245108,-7.072117276146334,10.530538776422718,-0.0010229382636289164,-11.638232693300184,-9.026318102935406,-0.001819408930451874,-1.433262652338088,-0.845840616510742,7.030266573315759,-23.796564457755988,-3.4667053313069585,6.1777841581154735,-1.5950672800311332,-0.44824298218101516,8.841349690058584
-2.345682696719616,0.0,0.0,-2.7919039565510926,0.0,0.0,-7.930443486214675,-3.3183326858958457,15.193661277270156,17.69552269396844,5.087745882099045,-6.566385432953564,-16.915336088087756,-3.1160418553904004,1.3923180231788497e-05,-10.843447939267598,-0.07290835699657977,6.608240550355401e-06,35.567870992323826,7.226077849940464,10.807317601884167,1.9082733551213833,0.7564043582270719,-11.038716390740385,24.21881564759217,15.39210923525358,-28.68072145071501,30.9075258457626,-14.725555649054733,37.93323575209692,113.36514407942529,0.0004389658022344229,-83.68568944871453,105.40289548293771,0.00017177055955522896,80.25759718398601,-7.295248230181991,11.459383411025492,0.0008585037305452619,-12.479609283177219,-9.699171998364122,0.0021427556250355633,-1.3467605499126993,-0.7785104341865955,7.070817305191538,-23.70685026414792,-3.419864274941621,6.241013250265603,-1.6353568893940686,-0.4616576665302095,8.67900961130836
-1.74874907930791,0.0,0.0,-2.1931425427295634,0.0,0.0,-8.144296668851025,-3.10058972026847,14.906325618698768,17.20167524390105,4.91206479129405,-6.101176433846522,-17.086824914482612,-3.078495430076899,-7.253959062518345e-05,-10.443915470646399,-0.02064860759307028,1.67643338607176e-05,35.768096940782115,7.310174031224664,11.119620690566023,1.8807124256450847,0.7523574389779257,-11.351134236362247,24.425884836914623,15.412494359864365,-28.941086519857826,30.97303658164315,-14.856840851202051,37.83193397903183,113.1756837207837,0.00011494251578050392,-83.01069771660315,105.47623881205261,0.0001521521042630616,78.88089980303366,-7.516719252933157,11.970422984535078,0.001624007391079382,-11.967901695652035,-9.236307787482588,0.002370905365725744,-1.6307927371870043,-0.39187219553736624,6.863824345182341,-23.99124951677065,-2.9835546778928497,6.196612653455063,-1.4863155093760967,-0.4571487934871806,8.704779357717094
-2.0151397332038297,0.0,0.0,-2.6637646347845068,0.0,0.0,-8.06081020681417,-2.940169285395453,15.228040906907903,17.32459967513429,4.560557564441765,-6.072672302374159,-16.992570853371145,-3.2357235518249468,-0.00011839605263789672,-10.489845377231363,0.09896893840902234,-6.930178438537738e-05,35.77454171451067,7.421760382723194,10.91632153208534,2.0100073098448674,0.6775492502844233,-11.006333201598256,25.318672533799568,15.14525982912168,-29.4228615926759,31.11956575162922,-14.98231160532181,37.53614455500909,112.98650157319624,0.00017014494971082412,-82.83177219183969,105.26759853251866,0.0008579794262722197,78.50561618603746,-8.515642994481746,11.84680434437452,0.0018606781554642016,-9.694694599360338,-9.705484475435094,-0.0032899069526097645,-1.6182879092044864,-0.3844467177712611,7.052068621877651,-23.970693223583638,-3.0482898281448056,6.373781116940016,-1.4099929301504586,-0.4572173348630518,8.857117862341912
-2.62215645505035,0.0,0.0,-3.5025043678185925,0.0,0.0,-7.826153206739559,-3.304093598090969,15.474696252046773,17.504798565852035,4.954957815648661,-6.645806815114341,-17.16329688284509,-3.3260642613563207,-3.5527881292212134e-05,-10.451031998761914,0.20643015658916192,3.329358599668792e-05,35.96117426281676,7.442055172515722,10.830102514331868,2.1078860534051245,0.4923655603118261,-10.431590880921389,25.60438306113348,15.230381421279887,-29.339403528687665,31.227704390191327,-15.209588396006158,37.59202094566395,112.79634418066262,-2.6536018405096676e-05,-81.4074242973023,105.35658642185197,-0.0009877986929104636,79.42365019056207,-7.600821043886909,11.489319026774615,0.0010099004589239457,-10.103398084845598,-9.517531803830654,-0.0022728243955193956,-1.4763520198061675,-0.5799644224436363,7.448994082831745,-23.81565821756948,-3.380027426317796,6.667009638244939,-1.5091672662323194,-0.5459069308231966,8.858550285337921
-2.6358281484893142,0.0,0.0,-3.091167589662379,0.0,0.0,-7.467872859025008,-3.898825510653853,16.076516672192632,17.433749611012836,5.061455647385237,-6.65791313616594,-17.197733441848435,-3.6090865700231576,4.4316328587339105e-06,-10.381813290153206,0.2916802185214512,2.584328000730769e-05,35.65781591654771,7.577596843890452,10.65957345685107,1.8645070911575572,0.35765439782892733,-10.22218923079199,25.291213401888005,15.516172214848773,-29.079054802726322,31.559407603903157,-15.27547435855455,37.79421232664041,112.65633657589606,-0.000821838501169038,-81.49807750412327,105.220766133797,-0.004856328068870093,75.94221779869568,-7.620306056570854,12.445053431967066,0.00010846181828805422,-10.954487791399236,-10.259030717206718,0.0016423377073765601,-1.313856836571931,-0.8778059688215671,7.406692664979738,-23.661963395317212,-3.6394299670610444,6.514367497012677,-1.850406353729997,-0.5993457905876604,8.962455225138614
-2.1258595683480666,0.0,0.0,-2.139147948150881,0.0,0.0,-7.480821576044248,-3.2112694675455593,16.14269037628693,17.196578711666977,5.036101353175861,-6.080341509191671,-17.292671963577114,-3.6405722391701305,-8.540963076420388e-05,-10.36131985932906,0.18750328476370542,-5.512669409315398e-05,35.694064223030935,7.599271884938657,10.617022718210865,1.9257056873295648,0.34174035735780856,-10.53308014338553,24.74455658757507,15.794410150562815,-29.090248072779566,31.332675765880293,-15.623207361172746,37.64584707702094,112.9405954166636,-0.0008277260392579122,-81.9665452889928,105.25119850457975,0.001735941015747065,72.37182463466681,-8.611786230752601,12.858261589663305,0.00448870108595419,-9.127171512411135,-11.844361242561764,-0.00407981134840518,-1.2301346909460151,-0.8861286478221357,7.367925330681864,-23.580140242301283,-3.632381039241736,6.4752798906166,-1.9016698606363311,-0.572646224904225,9.036015723950445
-1.6924048731458106,0.0,0.0,-1.7684794507269266,0.0,0.0,-7.628688432938111,-2.4289844289875107,15.822044897772619,16.934004856612173,5.667839156829714,-5.190110077116583,-17.409677865205293,-3.4748468204870497,-0.00022075800370179036,-10.259758129896085,0.013656641423970987,-5.7518280106108285e-05,35.94888122315393,7.3973660672784955,10.945264654678688,2.0867652529673713,0.12762163381462122,-11.292973565594906,25.324348283525644,15.464497459041269,-29.158756185805498,31.064527774536657,-16.1060053055377,37.146953052715126,112.88910971925019,1.4607002642403961e-05,-81.46860763803863,105.45338817574155,-0.0009981789591164412,73.99181511360699,-8.372255418227343,11.97508582835817,-5.9347498095702636e-05,-8.185320013494056,-11.907072469598255,-0.0024766151486925346,-1.0852518213409361,-0.7113987904023676,7.570853540666553,-23.422119699744243,-3.547915631992188,6.729873438983605,-1.899803466432732,-0.6945880566014424,8.95437193954577
-2.2556321743488006,0.0,0.0,-3.1773291041186384,0.0,0.0,-7.251447392257468,-2.9740734409516305,16.83477463663777,17.225121492312915,5.394489163753385,-5.423319346751635,-17.497585284772136,-3.729930088610939,4.7208015698339695e-05,-9.888513574188533,0.1185749508969936,0.00028322510946539477,35.893544900883406,7.36042964553533,10.611289055715991,1.819006120106829,-0.04148706930467535,-10.975184216660503,25.70480497726678,15.289251506917294,-28.9073137569213,31.256503583773537,-16.19734962218561,37.428914154837955,112.90041971458783,0.0014339005445988238,-81.7925344632676,105.82474165513803,0.0006566896713506071,77.07542973464115,-8.161388411194537,11.496161836525214,0.0006717454787265433,-10.356773774651161,-10.630927003150681,-0.00583084895682209,-0.6483908262652607,-0.7060633832757446,8.068350441412132,-22.9620110567296,-3.7319519377203583,7.192999366013746,-2.1955760988587576,-0.853022285772196,8.682005913298081
-1.8021983561705346,0.0,0.0,-3.1016232024370116,0.0,0.0,-6.972387445489231,-2.1051230604928852,17.011476973145395,17.03889714572796,5.3406974236193365,-5.1397560760855185,-18.104375859985684,-3.9754180335555436,0.00015334378029587532,-9.580456396659809,0.1671140022587309,-6.452926670479606e-06,36.310660047972526,7.5961624229343485,10.648541721083573,1.8340958969516565,0.02349122805661939,-10.970192646107533,25.40325541304307,15.563509037203321,-28.93164956124418,31.366198792654302,-16.308255101123876,37.3662307149121,112.87496710297398,-0.001514757323177976,-84.76779273053627,105.84839884409791,0.003279374281623265,80.55470460335845,-8.411933598631492,10.626775561581466,0.00040244611730570474,-10.726621207209922,-9.466845536528847,0.0038157466387877363,-0.5494226129208253,-0.7231719198755034,8.424951695506975,-22.84597544356554,-3.8831123044832885,7.517122562926872,-2.1753707731122915,-0.7124327135853826,8.398599268401597
-1.0185795032680343,0.0,0.0,-2.3305776547492867,0.0,0.0,-6.6689187417996045,-1.234564420087492,16.361897360341157,17.109821793361796,5.592332951019985,-4.486422099755999,-19.018835371925782,-4.002737270014834,-0.0007238829109790408,-9.882345674237857,0.14985103553510382,-4.289869704222325e-05,36.80932863180075,7.7921691753344335,11.115638376750105,2.032115683942254,0.0011957899017838811,-11.473978713417512,25.566896570805394,15.626258025042052,-29.41095664127459,31.53064141310313,-16.493836675710888,37.11797411922726,112.5165527375958,0.00023768664528069045,-86.40135370663715,105.71683449772141,-0.0008299627415432912,81.17271004561621,-9.214754610253895,11.04762750546165,-0.001921604968035216,-9.084971093324738,-9.398696947705377,0.0005532517510159183,-0.35088064407875186,-0.4664324107405891,8.440618967012428,-22.640224445611395,-3.651499397686618,7.629247051613392,-2.292217664746429,-0.5799792266212579,8.390052286831402
-0.9430517911966863,0.0,0.0,-3.2277690126492034,0.0,0.0,-5.869718961956283,-1.8329086865316924,16.179719268409183,17.59310090877565,5.279245482286777,-4.593098751707714,-19.974257593690005,-4.019064200258945,0.00015913167329432396,-10.195682836024798,0.15522317717708248,6.886273316812055e-05,37.193236576547,8.134188928596764,11.37952053490927,2.166170234691891,0.11398385253340226,-11.253152343970957,25.864534061987413,15.910976309310668,-29.733120445383232,31.336750293399167,-16.762978071302612,37.0382470256283,112.36950447615928,-0.0005878280686259347,-86.6570132107056,105.79326900076605,-0.000162770168559244,82.01378389721852,-8.652712981102162,11.69905080164031,-0.00012678444968672184,-10.16714756389942,-9.755795379051884,-0.0017021361876789402,0.03836086846072222,-0.25146127669983065,8.346980347014037,-22.250715007275474,-3.417076337350668,7.624130980514968,-2.4355307219612214,-0.5148637269407098,8.646527816842616
-1.0650910756509564,0.0,0.0,-3.790604309824464,0.0,0.0,-4.963133583419988,-2.1525530244278532,16.297045218382838,17.90081791633597,4.9948967937751965,-4.671575165697447,-21.079047132019333,-4.292416840027544,-0.00010361341659640235,-10.3732598065681,0.30966650664025086,4.2053101945728035e-05,37.67032711676207,8.549061382430503,11.420291739118998,2.338848430480331,-0.012063654285279743,-10.846237049961319,26.393066915115497,16.104964133750748,-29.77298379254013,32.052851343330815,-16.428277205420684,37.74738739676015,112.37043832686284,-0.0003034772844609234,-87.61800914575495,105.68335626535709,-0.001084328927566702,81.46328374759526,-8.152171535670753,10.842512944055837,0.0010772693187939971,-9.938862462962575,-10.634399952689346,-0.005310954592348243,0.48577297698734107,-0.40362175910393194,8.936964544315003,-21.775954884696166,-3.7815095968960244,8.113370687633601,-2.636553524883417,-0.5635632700427526,8.687381305346236
-0.5709036369046816,0.0,0.0,-3.8890192969555972,0.0,0.0,-4.164712062414538,-2.1128960297652286,16.235237034366477,18.017782648067627,4.826234032559878,-4.826900683036103,-22.532330403629267,-4.484179740488957,0.00011636437109782724,-10.237695039669951,0.6332372812172239,0.0001145692311610936,38.33606638089388,9.096739212372437,11.411637225875568,2.2031491917723156,0.08326654230053415,-10.592062243682621,27.046688260036174,16.116680747617472,-29.905572353741153,33.57998602461537,-16.149265185965813,39.00928979113938,112.43996722157763,0.002304135530388195,-85.36119912108855,105.15301510987166,-0.000982882003664704,79.2819896781677,-8.349832080322349,11.666619428880848,0.002330830554084154,-10.327747098622643,-11.692587316693176,-0.0026381571164518273,1.0283978382872168,-0.5247394698344962,9.282817739986026,-21.217431929820847,-4.024593153318325,8.38821662824752,-2.8903343089605125,-0.23658211367176551,8.582687685679327
-0.33582136256130013,0.0,0.0,-3.9513341512396387,0.0,0.0,-3.269711736795513,-2.0607954303271656,16.155229343091904,18.27606753840355,5.080778054446345,-4.3395091805438595,-23.95729714157356,-4.728047982460775,0.0003800447747305961,-10.30010731283415,0.5962022907154112,9.722627498666443e-05,38.94438534363387,9.824912907936328,11.537193267993143,2.202556886687584,0.3381299124967866,-10.855339995834465,27.648788782649305,16.592408125864814,-29.807245766332716,35.251428826067325,-15.951704925850137,40.224927429627854,112.36648441762236,-0.00034386931494950415,-81.85119658423794,104.43512532821363,-0.00265931991214739,78.99087995168229,-8.076310600296425,12.941753085277268,0.0010033210941537112,-12.138328971781906,-12.04037107852848,-0.0017956503842451535,1.6224284997903509,-0.6337512245001328,9.477144335851982,-20.615401435279225,-4.199041204985631,8.527171953415037,-3.201057584571841,0.13939790236404126,8.742363022579173
0.7319026616820397,0.0,0.0,-3.97320622919789,0.0,0.0,-2.866918917008455,-2.13267618877248,16.30876013882175,18.78450189003362,5.711698918887781,-3.655192512883112,-25.184216954555886,-4.869626714245886,-0.0005153744110741478,-10.45034752175271,0.6259418163452112,-1.7851815135101865e-05,39.521677522468586,10.025029587502095,11.525551617887595,2.1311751048785252,0.2449385179504006,-11.778966800663767,28.446787430330968,17.299911367124295,-29.595548819121237,36.26533679128177,-16.018586117561586,40.66764305428888,112.37123399003237,-0.0010358305364398018,-80.92750045164051,104.17234455934444,-0.004841921189231365,79.24671795988647,-8.50726943920444,13.278327766526683,-0.0034756904593146224,-10.937557875963565,-11.754440328862641,0.003101261172345342,2.223301518924002,-1.005395544189023,10.109916975784321,-19.98861815711872,-4.782390686632086,8.973676785486555,-3.408340020137263,0.19525183310487593,8.510464603713375
1.2538574615681934,0.0,0.0,-3.5062095973822447,0.0,0.0,-2.365518391605132,-1.0026393827808748,15.315975301653816,19.281804239197,6.048449122731883,-3.7052463640367734,-26.593015092253637,-4.733052963052235,-0.0005315488663382072,-10.314006391135672,0.8692917540576484,-8.458269639249919e-05,40.047288651627,9.875222678888248,12.18352261572107,1.61599439664152,0.12223389296842255,-12.418521051691569,29.084002212351614,18.010559679985736,-28.847195542701193,37.08289016768408,-16.176028107909087,40.95481004277187,112.20764815473625,1.368833416048913e-05,-84.17218148552045,103.56151234786513,0.014298183388564676,81.90242174189346,-9.387654778368384,13.736162620473028,0.0012620843247289908,-10.551802096476687,-11.55234793579649,-0.00790660299239149,2.8946089171203058,-1.5589874460910953,11.004481115551753,-19.280909888936026,-5.632792147465399,9.59520738572569,-3.4921063109299193,0.13133610145932792,7.957751688155879
0.7018308348728276,0.0,0.0,-2.9631866187192966,0.0,0.0,-1.1921466649645391,-0.4820733590357525,14.941190782135374,18.894523763891666,6.4925682285807405,-3.727134129772085,-28.009112191818062,-4.892688975766657,0.00035444117326446754,-9.46405727132553,0.6548716741934307,-0.0010122637567906048,40.248800224772275,10.561480468032194,12.464574443779707,0.8207706262946132,0.5500470521480515,-12.454662276668333,29.372809468496005,19.1641666360243,-26.85338902240147,39.680751602961905,-15.7053944025914,42.28411411983056,112.2884158547392,-0.0005640406960204637,-84.81884540971154,102.13185778712253,-0.0026692324249000397,85.41387624297523,-6.730222784330688,12.555576543677795,-0.011089150855165745,-11.609578944442756,-10.562697611133506,-0.00042741831824345307,3.8825518047885117,-1.67674499023174,11.533500017231194,-18.26277534647211,-5.941324073990409,10.042818097139538,-4.059302954088802,0.3388796513870046,8.16803427509381
1.0836487691970587,0.0,0.0,-3.3872185772592336,0.0,0.0,-0.6460418537881069,-0.22314479733616757,15.254188374144233,18.655440833684498,6.534650986922428,-3.482915025250043,-29.280341850779553,-5.28306998486761,-0.00023440873986480416,-9.330269105978498,0.6380135335804921,0.00017301843182543738,41.10027923291572,11.305011079234603,12.400853816374703,1.165548466833794,0.5977594505361326,-12.197072926756006,29.44150768526999,20.81466930976996,-24.689734796805077,42.649909361633654,-15.838391305964999,44.029758161587395,112.6296307194319,-0.0008346783779751935,-82.6574437755745,101.00239070622848,-0.007001320362387209,84.58666941961309,-4.290269587577365,11.979026546678615,0.0016226723717132074,-11.41897658676295,-9.386523474233842,-5.187867410615452e-05,4.9088428592170334,-2.0761267882218366,12.289342865958329,-17.20088704663015,-6.595835216690631,10.59548971687475,-4.093219199837468,0.46992249749475545,8.892027924631133
2.302039735727666,0.0,0.0,-4.799461033570815,0.0,0.0,-0.0703971231852626,-0.24317487635652577,15.101400401176486,19.038185242202896,6.011516334482525,-3.4482504572388346,-30.64840419878097,-5.71525218189131,0.0008008111370876465,-8.96132816899521,0.728297619931087,-0.00018195260059694626,41.75695644272178,11.392645815340462,11.747272063138745,0.815077447078234,0.5232656182948122,-12.284025382400442,29.923674702944982,22.657229016830488,-23.822906359032167,45.15787522777207,-16.45350755164139,45.930228395412016,112.75316085935793,0.0006620322790074326,-81.79703833064394,99.72599710794246,0.006074817726857539,84.43461778922197,-5.065529388297374,12.265497303027502,0.004410420592888934,-12.973874109775219,-9.187685984212811,0.003196193545657914,5.744228238275659,-2.6219538002006804,13.301863039018926,-16.316588859133297,-7.481990239496921,11.333259723994288,-4.049179228475581,0.35070653621822695,9.209025981710594
2.808208904243782,0.0,0.0,-4.47871515410875,0.0,0.0,1.2105569486271388,-0.7540426348906644,15.085735303980279,19.06280262263722,7.062331795504863,-2.858383318233775,-31.90500566370164,-6.010691445400237,-0.00015867731902911167,-8.79564274803816,0.3806977125088322,-4.6556294666626114e-05,41.82039050688057,11.313558527826343,11.33703000056976,0.23515404847491556,0.23335447884401006,-12.737350555519408,29.559985680634036,25.11615292005851,-22.31799663307942,47.79495086974614,-16.94265293846936,48.22090894538399,113.01236971660306,0.0016037515098568287,-85.13773347077593,97.81274949749935,0.0027106057020730386,86.22061395556482,-6.249160437322468,11.749972738599157,-0.007464493104772112,-15.647680831191362,-9.828552232556184,-0.0007400782129292319,6.776524562877593,-2.751591880481259,14.369133948662608,-15.206585580069733,-8.00192149219728,12.281615663150781,-4.449168681869025,-0.09588021404013579,9.531909897534316
4.72315487312087,0.0,0.0,-2.842785852717551,0.0,0.0,1.9476654489950618,-0.8335780690510475,15.216189357636349,18.95408330670696,7.308061666572325,-2.774455315467823,-32.679438686451995,-5.782678287515793,-0.0005472438660065079,-9.570807797889483,0.2185913762659737,-0.00037480999598213773,41.67198651235856,10.610590065443644,12.004222703637836,0.32811122667303655,-0.7380848740184571,-12.821887062961144,27.246775567997357,28.10765986307703,-19.491065385087506,49.68119595110459,-17.627387707368772,49.70330532041144,113.89919986747942,-0.003704041177653994,-86.35510753282014,95.56932434487734,-0.009016673704862992,85.58744494927637,-7.018641062840802,10.92230546946224,0.005720755619973439,-14.438720092015878,-10.282320623226754,-0.016130123614183173,7.015564447566576,-3.0155938329621788,14.356241476405065,-14.982676075665642,-8.241901742908759,12.169694738054256,-4.318133241852271,-1.1982182918460544,10.292666630068334
7.090309604814893,0.0,0.0,-1.8140555801694744,0.0,0.0,2.562941516081399,-0.5460861748430831,15.800637766453143,19.491546876262266,6.998444689140861,-4.1416105055707915,-33.60800858421267,-5.673058031658458,0.0004173161422927039,-11.358518057585993,-0.10663810656040243,-0.0017047879247071827,42.08354574879205,9.19699765349845,11.804979310638775,1.2316927921622665,-1.8571516392932967,-12.14882843547245,23.9463207265121,31.542335656803292,-16.642824507025956,50.78575811775669,-20.09069844761442,50.653647498179026,115.1638556733862,0.0016750250180812484,-85.96457120266876,93.54780908704026,2.1529786634596657e-05,86.05241732106506,-9.850032921398784,8.40729673954197,-0.00042047379133500207,-12.93065933717489,-8.09017398336567,0.0033879379260578434,7.154703030914035,-2.390917401453778,13.417526566727378,-14.886012125838443,-7.3112418673761805,11.528717378044979,-3.36588919304961,-2.7396743566552564,11.038438170075617
5.330709058851669,0.0,0.0,-0.261876197121719,0.0,0.0,4.456971213259817,-0.2864417899450298,16.783276254635858,19.549984625354735,6.994634164720101,-6.247089224683672,-34.54523358539037,-5.58069291498132,-0.00011961823044139754,-14.15754507731609,-0.8346805992912999,-0.0013878764214840125,41.36246914126833,7.755549353726796,11.599873233584171,1.7114884061432498,-2.7921444417763754,-11.417248022229968,20.759899705608564,35.228795024322636,-12.800972365277081,50.48925175193178,-25.32087023076442,52.09513734228859,115.06745223020668,0.004042294264273187,-85.92600266937616,92.31589526853962,0.005086747543779191,88.30012410965803,-8.44781619187195,11.02336211003638,0.05016588033291889,-10.980751591993286,-7.06865458132066,-0.002629092938651659,6.8899452327068005,-1.571727479920815,11.573234370475666,-15.248614775879735,-5.8590248221382515,10.119586410427331,-2.9206471448717384,-4.160110294521397,11.870806570685899
4.466942450156182,0.0,0.0,1.0441215048735617,0.0,0.0,6.25670536577115,-0.5166620058865548,17.428479862793377,18.982958988418737,6.750799350853627,-8.652575168586948,-35.10422439055612,-5.182787401319944,-0.00020269701461438796,-19.26096208313606,-2.051354968080104,0.008510596912582397,39.968581599148905,6.421050316266541,11.793948876936282,2.9472444126077986,-3.300520159841333,-10.894717708759826,16.208374544493857,38.31562340669796,-6.654144057191805,49.57744818544849,-31.01807985091159,54.59599675068149,114.67895277172796,-0.0056356371044694676,-92.23366682765189,91.03055901193585,0.0037169531536775527,91.13599470663442,-4.115402754715483,10.436680757707812,-0.0021407923723305734,-10.131464634436444,-7.289487274302845,0.003759174039018961,6.224139504269769,-1.3338749082480374,10.119508393758146,-15.997935149435918,-5.090115205284154,8.857926814151268,-2.516103682872025,-5.062580328062773,12.415111496514468
5.568047803234905,0.0,0.0,2.940898075872361,0.0,0.0,7.414414341908798,-0.5225696295731467,16.43398719234511,16.557420089048563,5.512147882664972,-11.09942512266908,-35.26512776829946,-5.045657305372906,0.00022270110637292095,-27.589776044880725,-2.833636805512703,0.0032130088762979394,38.54292280964057,5.557412481427263,11.667476386308763,5.756066870524827,-3.093860635281363,-9.564666345972341,10.609149812269195,40.70828300597492,-1.1656903037085207,48.126953978868436,-36.41199236922366,57.1883532417212,114.398461431105,0.0007247174910519917,-99.3618119873484,88.68902215214979,-0.02649345395066275,89.53437092249983,-5.8617933909506315,9.051261770856817,-0.008272145157917537,-7.400685396862771,-8.357155824284273,-0.01614410961729214,5.208030764348086,-1.1010159295996713,8.795145613857986,-17.08003368150111,-4.37312279685759,7.716794047314215,-1.823413298252124,-5.188389628032812,12.127320993441238
7.960429162894106,0.0,0.0,1.1944742867242646,0.0,0.0,7.7176370907905305,0.2613606875415995,14.929560367990494,11.34705834686969,4.689684381330948,-13.25286697452174,-34.58943014506197,-5.153902941196892,-0.00022576288869990927,-39.109861211315646,-2.600470616479485,-0.004148972067467767,36.897007609317534,4.797493485325326,10.517936204073148,10.515893682805531,-2.9475517160077707,-8.273919377220622,4.461036661233781,42.79561000689993,3.588065915727802,45.09278358905705,-42.49268494843287,58.423001531295306,114.076641846373,0.004260691851332084,-98.99705636949996,85.6745321482372,0.012862700578691892,89.2633764259927,-10.27312457321176,11.178234268662013,-0.01208836694694224,-4.569620681098679,-9.478545232347706,-0.002658528370501302,4.003609090494912,-0.5211467359054004,6.780173454783526,-18.36287080951456,-3.071281318737613,6.069895122779869,-1.051011595184398,-4.9618421612738635,11.327042593717943
12.586985948257096,0.0,0.0,-2.6421760114613804,0.0,0.0,7.550833586755889,0.1410821653770598,14.090823807596577,6.180845579964274,4.167486724990121,-14.809308952007461,-34.164835831229446,-5.0745809781397755,-0.0001271055688409249,-51.6604235024147,-1.6321003064459454,-0.008271758318028245,34.84828261396544,4.294448491608564,8.94770647032854,15.977864873071036,-2.481668089105525,-6.973628729875929,-0.25169881954118073,42.9427643908841,8.124403491240006,40.91016569022729,-48.67234746597027,58.04852454557927,112.52053956365178,-0.014674894955454446,-99.9618142561715,83.20483865112504,0.0049490864953713725,95.8310498067329,-11.408210734233853,11.153114884929385,0.0006272379154231288,-3.1313217541033773,-7.7589113636721025,-0.0009238934073856781,2.819847470235172,-0.021650185857891528,4.798060550782287,-19.60788156044304,-1.8542004494677466,4.4261302124077995,-1.028290173536361,-4.015941752814533,10.238318303131091
12.184691532950577,0.0,0.0,-4.16339164250929,0.0,0.0,8.449501356616008,-0.4446237465532641,12.62945738577681,5.672069690341187,3.629425453566631,-14.346716354668452,-34.52681352378924,-4.404255503600653,-0.0009852769404114893,-65.05008653058336,-0.5140582608641429,0.00972928779438957,32.81786663187649,4.025699574679509,8.256899222068096,21.961560305581344,-2.009715594611227,-6.617160270968648,-2.513380477917154,42.333161683687194,11.005220462485347,36.5500760004385,-53.77294925227268,56.65851167191472,110.33427892697712,0.010937914316105817,-100.19936701174889,80.85402545372669,-0.016477685920224482,101.24247987689866,-8.71438891547115,10.038644129409276,0.006304763536460274,-0.3701075299592508,-7.259229903035042,-0.005318078355822151,2.030756595617028,0.3672711999188925,3.621030288861674,-20.424294678864253,-1.045409868515994,3.4864069196153387,-1.503338515640678,-2.9172612190587737,8.90519590021665
13.171105637278957,0.0,0.0,-4.920201641823002,0.0,0.0,8.887839950570097,0.1270181769921377,9.953361423498274,7.843763875970945,2.691340158493502,-13.008486545845072,-34.540780419791666,-3.803360203848286,0.0009282036223104424,-78.58054143741577,0.9201717890582584,-0.018145002059641393,30.47646078131175,4.1193133333244925,7.889648298266823,28.146989467165604,-2.0913590905608825,-7.49405928395576,-3.2125612996400363,42.275086758515144,11.429024270554834,33.11663833385843,-56.94171880228258,54.85905654296235,109.01091625286142,-0.0022140362230866147,-99.08786683617464,77.21919312477051,0.04171507371931407,106.52040492744769,-6.827956206292576,10.251954471528354,0.005294186784054914,0.40587649915059615,-8.013900172133555,-0.0036453183659245813,1.3360305118454192,1.2473993249015096,2.844872960621462,-21.133225134113182,0.06445813075592677,3.1054554726913643,-2.410938546909237,-2.128410004409778,6.855095929768317
15.989202001069218,0.0,0.0,-4.298534348802108,0.0,0.0,9.108637898875042,0.5503952456063801,8.128131175964127,10.793783065094662,2.0738329882433097,-12.42403628442861,-34.33406372910436,-3.164544273970693,0.0002801770099600326,-91.38621676620717,2.1150015270554037,0.01242306090854993,28.537514122703826,4.508765600663136,6.886583658273137,35.51188595196024,-2.4999127762356017,-8.380325470714766,-3.674629203586301,42.07486482390892,11.175937081416036,31.458191166045733,-58.941175204557794,53.63625359587163,108.9617436012352,0.0017214871688846815,-100.17137204851683,72.75101120173292,-0.015539875942916545,110.07645820612827,-7.744849165461124,9.750340537398657,0.0002174647825345448,0.6521823070944621,-9.834261608893888,-0.005223411284254499,1.2270797786296759,1.5558234659944015,2.5332155772469496,-21.249005117246853,0.46855194196066907,2.935443875233485,-3.1869246220070457,-0.7560663502013346,4.342011255933562
18.183010334837785,0.0,0.0,-3.877103630670101,0.0,0.0,9.375366546155577,0.17173540159076506,6.407851063202842,14.223404159534253,-0.21925828277664708,-11.239145004504628,-35.037643895749376,-1.7304862571523503,-0.003736353539521825,-102.74376045710855,3.1154349418393132,-0.011883570184586249,26.842394272966605,5.1001384322551155,5.942369058017495,43.455642769669815,-3.0732727598538006,-9.323150825852762,-3.6099717492609624,41.791139862091555,9.954313604914788,31.31181849160726,-60.09826867034963,52.73575814911141,109.54923021023458,-0.004449698525526511,-101.16233847017611,67.93999425423718,-0.025355127846404583,107.66127525277957,-8.399257939752145,10.076127404168671,-0.00018224940591115953,-0.9351758874643495,-10.836116874591006,0.004516901485166821,1.9224197639368512,1.458078210314554,1.7001037551964202,-20.56736474871878,0.6967225319854901,2.1285059842466403,-4.7931316118277465,1.0668578696852655,2.3111233109144687
19.395593511478513,0.0,0.0,-4.971933349398014,0.0,0.0,9.480502323724354,-0.13042559075950091,5.911578200865714,15.702860439007631,-1.0598761566476056,-9.565648149487139,-35.78378815085962,-0.9059473625402216,0.0009495301358499001,-112.55100142976768,3.595781579502446,0.0028665384288286268,24.827837324569273,5.515331056734332,4.40490104652682,53.21188703482728,-4.107497205610475,-9.324464274178885,-3.1172847179274847,41.02097219400424,8.463026624977987,32.7044198676865,-60.574438782456106,52.50167758695869,110.58880239534976,-0.0025096440741319056,-99.28377632568332,63.62634706275953,0.009961522702954504,106.28248190841873,-8.632716541981674,9.70561154311778,0.0027020832835824315,-3.015777377969737,-10.429141390820547,-0.003957105711429194,2.7501119678550534,1.2109508916475211,1.0168743795388837,-19.746555130568094,0.7297129498633513,1.4028256047558776,-7.525852000203931,2.6733093286074285,0.8247680658395145
19.454611982392027,0.0,0.0,-1.7000089960928673,0.0,0.0,10.380543683517788,-0.5824934604208684,6.434312371280766,15.584240798020604,0.6130847975383557,-9.04836714073403,-36.054057723893344,-1.2601606746744722,0.0008134601383452382,-119.56822859012361,2.859096279655974,0.007242897139246851,21.149307015681586,6.758057796398185,0.8487298155335965,62.89558740303838,-5.65005830714096,-10.559039028091512,-2.4171676102982556,40.1867438664033,7.161421791212096,36.39155346912337,-60.80199991792247,54.62341791742399,111.0667839477723,0.0005547236061888589,-99.8637975299423,60.15872945728669,-0.0052261269517053155,106.95620790773444,-9.136861217313713,10.13415080987276,-0.0025454788721047715,-3.831373317288126,-9.44280280219822,0.002805290320873517,2.880916051424422,1.1732747765984173,0.560921792660735,-19.61915927640991,0.8693443189155877,0.9672021464733979,-11.76008301354336,5.32313338949027,-1.0299492452725576
19.486670428555925,0.0,0.0,0.20127850859591662,0.0,0.0,12.355855476109875,-0.6659380502022939,6.24137316504867,18.860696937744404,1.9438046832941,-9.196808139611534,-36.68404799285187,-1.755479441966703,2.5632004263231628e-05,-123.05025854883768,1.060296611782106,0.0005110047416333771,17.55927797172958,9.411847334234741,-2.698974156921437,71.63559267356612,-7.011054249031295,-14.02647391299525,-1.891475228233675,39.73628215483554,6.052967907306706,41.10852031861384,-60.097941098207016,57.60040741822762,111.25184750121295,-5.69173175452821e-05,-101.7034943129962,56.81346748052316,0.007947725611644573,109.15289905317303,-10.81711546587973,11.811205616272582,-0.0035231890634918055,-2.242080619482513,-9.781431799483041,0.003653102583332633,2.565822217063456,1.9324683233179132,0.5280692227897006,-19.940730094575482,1.583296948822929,1.2274977473819857,-15.956901323574042,8.755821349349102,-2.641009346534066
20.366479499590994,0.0,0.0,-1.9266444941072653,0.0,0.0,13.808544432863716,0.4050687831786605,5.290814239701492,22.89999542913109,2.9593763896793597,-8.660519704344154,-37.29645631808308,-1.6992769642077894,-0.0019286970319947346,-123.13698649827408,1.4593709866437148,0.010824747770859958,14.080863980978489,12.009746299753397,-3.519379745200691,80.58094502410034,-8.076984780750914,-13.945780920546188,-1.031474651088403,39.63484393431566,4.914468418535438,45.98286541314778,-59.3300699121891,60.75498390867629,111.60846583983579,-0.0008810800998377534,-102.36302977906722,54.08362632815062,0.0065044174225766934,114.25498737293421,-12.347438664081428,12.449584205946527,0.004028770145545934,1.3464237693139844,-9.710271597670319,0.002053776750043019,2.916077069902702,1.910774159968632,0.4160147716500555,-19.5911062615108,1.606130695011827,1.115686786726141,-19.794290798194076,11.428401983899635,-2.4515458966297516
20.774490732022976,0.0,0.0,-3.744310900129268,0.0,0.0,14.934713326988792,-0.2648669528586346,5.820803417896043,24.104762444434698,2.218941268948573,-9.763266151269,-38.361496729030385,-2.184601394172804,0.0027688508764423304,-120.52173890722388,2.1472561064088542,-0.030196068449239916,9.762638169045145,14.070735077786455,-4.496108714891527,88.91419421274307,-9.021695717205414,-12.589150182227984,0.1257728654679888,40.02371850992383,4.01694849041568,49.977348718700306,-58.98596936943925,63.9826306402803,111.384566900528,0.0038973185431372117,-100.10615554973015,52.34955711405249,-0.002050637962080909,118.50332508239217,-12.033068315134232,13.727491903610494,0.019029013688339654,1.4320349135263544,-8.465336547973296,-0.0015216891330809596,3.445377139794056,1.0792631861921538,0.5898953487560294,-19.053989329107488,0.7714004498687805,0.9579845577473679,-24.351882785217764,13.473613150075517,-1.6980826574599746
24.82481385417858,0.0,0.0,-4.537686296327808,0.0,0.0,16.292846063653815,-0.9485597359909392,6.699476705592383,23.362951823027604,2.134637845417859,-11.807988338704238,-40.351757481982744,-3.059717236978866,-0.0023365331012469037,-115.64540545836596,2.237304153516745,0.008692380881205525,6.1171145277080035,16.496194850589664,-5.703847622054627,96.89095673896443,-10.270382523969964,-12.472853525877309,0.2898455848004364,40.45520052884622,3.6218045060874666,51.68007418271192,-58.97412221865092,65.79443109524786,111.17120995164954,0.0006930857439613339,-98.42696004439438,51.174029669891,-0.0037978281998183785,119.31670202525629,-10.962103584407162,14.99411646877276,0.0019870414342435376,0.6491212176144632,-5.64458530979996,-0.001054489416558892,2.9208909601413113,1.0933815311421653,0.23519740265375474,-19.580447465499663,0.920162860973365,0.6357141780129867,-28.01517205784679,15.455385181770906,-0.6140734794222131
27.837190977044322,0.0,0.0,2.183592349889202,0.0,0.0,18.43037056872518,-0.9942189651737453,7.207919630301192,21.438984599176802,1.967395608192317,-10.233782844929607,-42.69812041658192,-3.3890934838685984,-0.0003947857870245898,-108.49417614120273,6.728339335956018,0.03800589756027851,2.8350866597064512,19.014396089229695,-5.30450729206637,103.77304468543129,-10.389904483845836,-8.875590071471237,0.11334883191436304,40.40671932675551,3.636712669557629,51.89415859575125,-59.87099499502597,66.98432186683564,110.88520527037697,-0.0020016701628724075,-100.33081600117445,50.493242865041786,-0.002420186784077235,116.43222888824424,-8.544608389167095,14.737614697285899,0.0022657300414805456,0.33964710461785763,-4.414389117306489,0.0008517878513071191,1.7663212105165336,1.1326257348791084,-0.5470030468135941,-20.736779498302525,1.2557199628497169,-0.07189718359963897,-30.322170549885538,17.20062237145862,1.8116986047777064
27.73594269329245,0.0,0.0,9.441275976883059,0.0,0.0,20.675493069712346,-0.4597633243749792,7.974687471377213,19.738697917550525,4.512038861968823,-8.700355387529791,-45.161224164587644,-4.514718752963629,0.0030421036579786854,-100.74194316696413,10.248825322451763,0.0006624456486497933,-0.6825801875650488,21.52474681069146,-5.673189571057831,108.13457480244507,-10.14569790460952,-6.703027073816251,0.20719649020097586,40.18224288431345,3.9659309846425743,51.71548873764075,-61.25834713563715,68.10712272567466,110.12263401060196,-0.0010901955953848221,-102.21037621517677,50.284581800085846,0.0002123215173753807,112.66165277717661,-6.72966344962854,14.896658981904153,-0.0009675214565967704,0.3126167127503549,-4.122602744444888,-0.0009244594221295835,1.4000059044278141,0.9057873145853655,-0.9048893015768873,-21.100571301665184,1.183105279498889,-0.48939024268614173,-32.62974285170254,18.859956825451032,4.118112658286345
28.612518106269132,0.0,0.0,13.792745883528356,0.0,0.0,21.812581401854295,-0.28752935972016763,8.60769324017494,19.033250705469833,6.618722150864335,-10.559669698973146,-47.34549141184577,-5.51370273966188,0.0019156702580029,-93.19228644947874,10.820703693433154,-0.0019933661889023776,-3.608823071900771,22.728978026958565,-6.823877388696413,111.04223200350448,-10.734776542435,-5.764602712555648,-0.25095947301879223,40.28701013631726,3.70444118026269,49.23040131264089,-63.3761292280456,67.49682556577942,109.96755040116899,0.000952742468649371,-102.28448598501396,50.59589914072692,5.030980059276686e-05,110.46150521897184,-7.775434824721656,14.15219613755637,0.0018423129277366963,-1.3724692224919537,-4.866703995412233,0.0028395799501021155,0.8697096237975172,0.7921688693373689,-1.94426628348096,-21.622984518759022,1.4757951195760037,-1.4933143952094043,-33.87381938886459,20.0330322116547,4.559017629630876
29.90582126115868,0.0,0.0,14.698945414917281,0.0,0.0,22.016676500771982,-1.3455436269775336,8.382579967407827,18.651009062508066,5.487132590213774,-13.092679963560384,-48.93603622912873,-4.987556753862153,-0.0045655122797871655,-84.49857751688916,8.961185925831323,-0.01078240368091335,-7.010937652285909,22.855214875893576,-5.684575021774792,111.39840358939146,-10.769331956339382,-6.849621656545007,-0.9778293568166566,40.76527789624015,3.3088037583910235,44.423499923085274,-65.60276809493139,65.16222798864807,110.40592737559126,-0.0021049515907130673,-101.01137054018815,50.77986432144548,-0.0010244587540366365,106.55400267436191,-8.994707990028013,13.537413779330825,-0.002424330460799381,-3.168626239438219,-5.312810773021888,-0.002196893924598024,0.2186459009877979,0.6227124649922949,-3.143179138554831,-22.255547773936478,1.7776755583789514,-2.666287817731518,-34.41956799097572,20.27133255349035,4.2982529338814
33.17322206680484,0.0,0.0,15.557604487812736,0.0,0.0,21.30921675841074,-2.619822578342275,7.4037562359559965,16.44478736080887,4.8681298119766545,-12.259633133859843,-50.90953112419653,-4.0114877213128635,0.002543415417091485,-73.7632449594997,5.285473410885728,-0.03802850693619311,-9.492349716969969,23.039589316301402,-4.736434147812397,108.47432538737614,-11.635330833040676,-9.028046953140006,-0.009286853775749102,41.363089050810984,2.297323756631364,36.50147735116244,-68.08410553455991,59.84301479079773,110.27158236944886,0.0013814288524809557,-99.09117050838199,51.12586803821138,-0.004799560299876479,108.34157199994043,-6.9242840467581965,12.541439621207772,-0.0027916885015110376,-3.8760315204420133,-5.286678572009002,-0.00024945229184240164,-1.510537848984601,0.7176724224020696,-4.941030027933142,-23.944319744366716,2.5521195153205767,-4.292601947664059,-34.01029997875351,20.80149322036304,3.6874830295633125
35.04010393565412,0.0,0.0,6.6668782502239985,0.0,0.0,20.395690339591347,-4.320368300498943,5.645694001793231,15.701566357104785,4.119636968609684,-9.530130387388763,-52.743169906932714,-3.516690875390924,-0.0004206056506747017,-60.89686500665313,3.7074772459942644,0.042559682895953986,-12.009828566529677,23.294003338732878,-6.585407186741665,101.05403637783482,-14.020186219889236,-7.597196840785271,1.0233877671602665,41.72123490503581,0.9766249505704265,26.547618154907248,-69.84934761601512,51.961187255808454,109.57603046879741,0.002327692631391539,-96.60041236889742,50.86731911468645,0.0008198096595163326,110.70732530013491,-6.195362420753204,13.552508374472058,-0.010440356174141763,-2.5432923963413097,-6.79022045806461,0.0022674710025399466,-4.342285582007709,1.1928442627060658,-6.887816356015503,-26.719656566592697,3.7333905626168393,-5.913493395502897,-33.13908922947838,21.590999854664467,1.0670195739803578
35.70682867055882,0.0,0.0,6.482417162399319,0.0,0.0,19.483916227838606,-5.278998658196256,2.348179135290729,19.21012959971983,8.064557062569445,-9.122273218441855,-53.37584079432014,-2.1648718620458722,0.00023952213258910489,-50.68318257774617,2.613913882296787,-0.015515388599274918,-14.546865179074247,23.009978130433474,-7.148713570899936,93.26754457116274,-16.312439214672274,-5.604129913778274,-0.21210784995401305,42.15310675600506,0.7982202127605219,16.40586568330232,-70.98730900393515,44.10244445271096,109.27274963785783,-0.0010937612935651728,-95.06594263801746,51.34700266172371,0.0013509501949675634,111.17397627190806,-9.858297550655577,14.882253640547788,-0.0030933762810457293,-2.6437746359669414,-8.667650373250796,0.005990511441176671,-7.5068279376622,1.560431345751816,-7.878385904913367,-29.852481368991857,4.450084585937731,-6.691441014683369,-30.91691406164548,21.232945006463048,-2.9205614661246844
37.398247375775135,0.0,0.0,14.82611883116708,0.0,0.0,19.327655007119194,-5.355702711188533,-0.5747047878649599,21.638343782239843,14.346859048570735,-11.049095404565804,-53.32544774766993,-1.6823082384485981,0.00010368687408863853,-46.532027458946274,1.893721475733427,0.007313702966673443,-16.271060406929198,22.282695707177233,-5.973832432699102,89.60348403790584,-17.07917859459811,-4.667561603146468,-1.473539031197639,42.81957802441639,0.9663552858331673,3.6884171519918794,-71.66282092364251,33.205410920077426,109.38468363954081,0.0013737138815471564,-95.15359849076164,53.46356136968169,-0.010521468421418025,113.57120506969925,-10.939847591023641,14.538939854005271,0.0034504366802318694,-3.0499508164248743,-7.61686562453294,-0.001972451443771212,-9.963360998346026,1.3278264708838445,-8.583938176855572,-32.268805885113515,4.502854480808904,-7.4345259084133035,-27.769448122778023,18.983120908763198,-5.556377690910307
36.30662764670086,0.0,0.0,9.213868560890544,0.0,0.0,19.948882437978533,-6.823461857214765,-3.3667802821671855,22.147632359095546,10.106883022942736,-12.094938695315333,-53.53984730032337,-2.199927181472613,0.00027357939157310123,-43.4715220773031,2.1080025597583902,-0.0050721062107213066,-17.462348965782247,22.131569699238618,-4.071088983380572,87.44030737082824,-16.881018724503935,-5.156609741862587,-2.302028537287982,43.59590314508418,2.491493601506856,-9.988334453315968,-71.7890332024055,20.279585846501547,109.5514169703365,-0.004370690951359983,-93.08921569482325,56.91903235006104,-0.006268389272634329,115.642805304832,-8.18661700048696,16.99528731376384,0.03862768134907215,-4.090586121858099,-8.483876200262747,-0.00033314524738297497,-10.311064238649474,0.9307602615928499,-9.232065130949838,-32.57100334131701,4.3811580358375375,-8.186952953543194,-26.14224024055243,16.484704938550927,-6.574104679544644
36.79177375279735,0.0,0.0,1.2302052944951496,0.0,0.0,20.266527024891676,-7.748433658914285,-5.4158348102883025,19.913178436003925,6.661402418193411,-13.645816561845654,-54.4174376829137,-2.3263596513848386,-0.0008763737081904944,-38.19953713130698,2.4546264759089453,0.017891308781810306,-16.940513151714462,20.67272034708562,-2.9960684071799344,85.67058536078972,-16.27217451029122,-2.4540403101824855,-1.3553808449679765,44.069591466252305,2.5992010566246235,-21.82925501452353,-71.55674761900104,7.748610866594678,109.6069802282158,-0.0013259199886999906,-88.09601340081613,60.69889917405427,0.024688102057287893,113.9182191020814,-8.665190031669983,18.861942881212247,-0.005498282071311372,-4.73888949750561,-8.99286923343693,-0.009867097626735148,-9.059247781135607,0.47810461324834885,-9.50979528628029,-31.29095275430746,4.067326316091177,-8.61652134419525,-25.476166228726594,13.831861873824334,-7.878226192906086
37.396489807275515,0.0,0.0,-4.886733718525708,0.0,0.0,21.644782914716284,-6.633321285819781,-5.594153465306897,14.523017277219235,7.129457360731961,-16.483995294463213,-56.009982082466664,-2.5199805947586116,0.0022138779690937674,-28.555247360408995,2.582035378930698,-0.025010705689494248,-14.368547816374312,18.524801172434003,-3.374604093582508,82.6660704397032,-16.06690034008651,-0.017564220247375167,1.913050791704203,43.79052818575801,1.3302172649747472,-29.703654445082652,-71.31074360607992,-1.3895397048759337,108.09464773322202,0.01305486345990462,-84.79072770593012,63.406112895283044,-0.007396791775503437,112.10557991297836,-7.927434259730452,20.080506211030315,0.030849886953207197,-6.596727263069393,-8.089578461591183,0.0015637151910397067,-7.9060819271425355,0.7263375427701435,-9.369453428390623,-30.1525874382015,4.24397469049645,-8.392088437948816,-25.210312489250466,11.90432041795095,-9.309470057933302
35.081968231102465,0.0,0.0,-0.21466479491691176,0.0,0.0,24.181148169683375,-6.027972149386409,-4.762425644233059,4.499889137449931,6.193138761490055,-16.527721783846165,-56.91024076504855,-2.540274715979617,-0.0005265178405274779,-15.749632067185733,1.889207690149898,-0.00021586062762816082,-12.80184520158232,17.371013734256604,-4.84379288958872,75.76727570184715,-17.6147438270829,-3.307391659322929,6.765275727667508,43.30365992414375,-1.6766291756911729,-33.39903660329363,-70.88295663295537,-7.154860448006069,105.02130953963585,-0.012593620142602964,-85.56317489155863,64.24524222571328,-0.002913510822167889,111.95586482492037,-7.073768002521554,21.391600955620515,0.10014054305598456,-7.449466308837484,-8.275203256431938,-0.00036081644469568915,-8.123940083645234,1.2038552650704566,-9.24867164851473,-30.391133640442135,4.64017629160831,-8.09858054820769,-26.794136952400667,12.092123354532756,-11.02134505307744
32.65377868800144,0.0,0.0,0.3131969358293138,0.0,0.0,26.62877202168561,-6.423439083419153,-3.696133773281283,-1.7402108096757298,7.388392552955014,-12.722856900014119,-56.80979294527948,-2.533162990500969,-0.0004758449612125439,-7.662223667590718,1.950035343936368,0.009243190068452945,-11.824320413704507,16.703723910774222,-6.127078514200707,69.72356817592471,-19.574931015539427,-7.372851290322128,11.71979888829483,42.83976051637017,-6.419612061296028,-32.14964019259425,-71.4477046916123,-7.385906672784897,102.69619905329397,0.014876558060053623,-89.40485582575471,63.357491122232936,0.0006228031771344595,110.16781624633511,-14.554833659927393,17.846421585380234,0.06255240960537682,-7.015865106375642,-9.50171733144415,0.003539560256039938,-9.484611723262159,0.7751300943169619,-9.28381625749171,-31.737252148722945,4.256711513517592,-8.294098002360236,-28.340257982470973,13.153077154918247,-13.333144251473126
30.474734580224073,0.0,0.0,-5.537707348867652,0.0,0.0,28.719617684197,-6.791077330886203,-2.9896800096076483,-3.2641735245738515,8.858954270659684,-9.728768811651445,-56.0660562621917,-2.440362813849439,0.001246617648529266,-8.07810787945922,2.609942400649873,-0.01974249140165791,-11.069940485407217,15.294317954344313,-5.338032411994337,67.1889209943551,-20.213737822003775,-7.370957383209836,16.469856255264073,42.375909118421866,-10.062082368996327,-28.26282730232322,-71.43862231337516,-5.051535420289434,100.35119904911434,-0.017336513813056897,-92.83639920208365,61.019660221573254,-0.0018298791657328968,110.97708112088522,-15.353553781981818,15.788452236183467,-0.012626464238647444,-7.7832850699006535,-11.181691055862485,0.0014065702452732052,-11.04474715966371,0.789129723992368,-9.313573631450662,-33.296136150987515,4.280941188699159,-8.316396114708446,-29.778316885622345,12.747775017770271,-13.765346353744043
29.19765845262249,0.0,0.0,-9.551167944194736,0.0,0.0,29.982701171789987,-5.727528917299809,-2.6922290786311325,-3.647089870669721,8.126393109927118,-9.716248099756958,-55.72584994780893,-2.143383841177876,5.4914102682385526e-05,-16.875790300112254,2.892239300217193,0.01200478332288202,-9.552704117315152,13.601410037249456,-3.7946105572317856,67.81998037752328,-19.37505300346484,-6.751711422574428,19.762569698642025,41.98330486836744,-12.326862334943057,-21.52858273345368,-71.44447790714838,0.10625664718202343,98.40274908636523,-0.008587343836731872,-98.63220264253582,58.263591243791325,0.00953444897363411,112.74187831956512,-16.685066192282672,12.817532074636544,0.013692571400112137,-6.56098692103027,-9.795583532235863,0.006724128005985519,-12.108071915910742,1.0244866354436246,-9.540576341322986,-34.35366003278801,4.584705237775881,-8.437720351405554,-30.43299177673163,11.789452345851421,-13.351836573741776
27.393988673228517,0.0,0.0,-13.224025992426153,0.0,0.0,29.913132291343736,-4.131255395420701,-1.6223433168131163,-1.8512235996217745,8.631490378174018,-11.464888653373785,-55.94114422525531,-1.357250257390574,-0.000993711024303993,-29.771412173368823,1.9287686653600065,0.011567812504602157,-7.005091029717599,11.748672909926531,-2.591141317898528,69.6599359768342,-17.484797316900718,-7.0166576043933695,20.959268281372694,42.024666948000714,-12.624297621245134,-12.083205640254008,-71.52961904619468,8.59755039158016,97.21961668407978,0.02106775048652298,-96.15895345446857,55.11818365126959,-0.002541046968109173,115.08510396897574,-15.7261050774806,12.14988405610043,0.002599629652912752,-4.852515638313209,-7.1248169191255455,-0.0036745481483718458,-12.022634744081044,0.9609501920902682,-10.47124115324575,-34.211070951348766,4.877746751828688,-9.326214796194256,-29.990518475627084,11.027471889975939,-12.868186953336831
24.27292416449798,0.0,0.0,-10.976391139231367,0.0,0.0,29.47643211959643,-3.4096640990417892,-0.30024769492178416,-0.2744196784403995,7.553410419585533,-13.536454891333081,-55.87290352943691,-0.02683206800804002,0.00033256365597743494,-43.21452604180499,1.1529506780878191,0.004274998731103561,-3.531083434070803,9.978444613616448,-1.5358882008869972,71.52808725781584,-15.064543799745875,-6.9902724690184135,21.42652409437225,41.69708582760096,-11.640095732544282,-3.0697065725784647,-70.92524331223728,15.676675358131071,95.4254391372848,-0.006742200297969388,-92.97975156552565,51.61640074627198,-0.014430059954383201,115.42030686461523,-13.273731851085834,13.581738717242523,0.0017412621745521916,-5.247608580007831,-5.358474020574209,-0.005082338524986395,-12.351750377041508,0.5177013193359714,-10.629882342941432,-34.51638330204486,4.527162608090128,-9.641475019805437,-28.27283957490217,10.791006064538209,-11.665106525105028
23.61065419885126,0.0,0.0,-8.134092841367137,0.0,0.0,27.922715812626812,-2.0798378976692273,1.6801841492242247,1.898037182756061,6.363294746899436,-14.76518833612761,-55.07820825126607,0.39277341095016977,-6.757220105083575e-05,-55.41085944478243,1.052505163676539,-0.007703725377558517,0.3576917136580974,7.846775135711396,-2.1448801288815225,72.20853449685318,-13.105831485917438,-7.086343907705562,20.917320648317308,41.31705480734442,-10.39527445936979,5.474206743014965,-69.83475433540127,20.79822652805867,93.76745523407705,-0.009261828494825056,-95.27006120501692,48.04036650679992,0.01509407527811362,117.55789492953834,-15.427469661475156,14.828976634660432,-0.009385613761363078,-6.280809101153225,-5.4984686540702565,-0.0024994050176467618,-13.130866684321191,-0.6174578397363337,-10.405153279266946,-35.28047819691363,3.3910677559762084,-9.86198219201407,-25.953967420349226,10.783278995939629,-10.77149225273379
25.56028784321487,0.0,0.0,-8.527308064370137,0.0,0.0,25.542772019266966,-0.07603188313509868,4.098248162425742,4.913326039856745,5.520874927397402,-15.241384203149087,-54.029549921924726,0.3971583277752511,-0.004473343198941873,-65.97368966451471,1.8089575901262456,-0.016522563722520894,4.929736188071184,5.614327194082024,-3.3912107449025424,71.99907956493722,-11.637349458806627,-7.361969633054658,19.3757646794298,40.69345305927531,-8.933829390940906,12.414876641081431,-68.8111963996948,25.1834274460025,92.73807282295535,0.004042637313203292,-96.42062276045957,45.08304124818289,-0.0037146036065217546,120.58747799743172,-16.672571176612685,14.53692145199377,-0.03797186191143946,-7.9999709617138155,-5.240250826227083,0.00015807689589576078,-13.192242616378628,-1.2359007020532353,-10.806722524393265,-35.30173233420088,2.9694358261241462,-10.467830234701381,-22.420300044591162,11.087823950261145,-9.85924842320576
24.202940608873334,0.0,0.0,-7.674141389538384,0.0,0.0,23.33421709833617,0.025416097694455454,6.441484149910619,6.763097253842838,4.695655588653099,-15.405645374220585,-52.06926459051188,1.3595823986738675,0.00772358263325023,-75.12126181411983,1.561603383815744,0.023245768466777277,9.161665649300183,3.4745393614747333,-2.8213769403260294,70.67358222033582,-9.667630526611894,-7.852060736296064,17.631394144424963,40.08018247428954,-6.342047956546304,17.15869137101203,-67.24811446335387,27.198719159156425,90.95383249289985,0.003909237542648515,-93.97082870774928,42.81554304424626,-0.0010418209065561194,123.0833177792096,-12.130347179874839,18.219361433983245,0.12837925479039816,-7.442171486032677,-4.967439630675144,0.000760777206113281,-12.350560531185044,-1.073204920045049,-11.840057653998311,-34.38851189434981,3.5084629287631843,-11.365513397623626,-18.709014264809483,11.021151168285922,-8.077906902322233
23.711025299666986,0.0,0.0,-6.282270588566689,0.0,0.0,20.187816218476602,-0.4348187188189331,7.404099504601771,8.234867489490712,4.684755257328036,-15.16777844937008,-48.64943025301759,2.5893799585977466,-8.468650182529849e-05,-82.50234713608587,1.4053085787373576,-0.01084724174986105,12.340019820207935,1.1796847374135428,-1.0912226401565372,67.37492640987254,-8.41882026384194,-7.485184412562097,15.263055879591963,39.964490684478406,-3.4884232077096957,22.42937825560669,-64.99806917956414,29.504053949342893,89.26137831546788,-0.003709183537367691,-91.31499374311912,40.48353969446455,-0.0014869044143900336,124.77166178506081,-6.0237741881890985,24.731163525471267,0.016484580458927554,-7.034818244054054,-4.632752508132485,0.002327931082750308,-11.546039953504614,-1.056971572323474,-12.31073521372931,-33.54814237526329,3.6999616286460992,-11.796551716817358,-15.477608629394757,10.161849190179813,-7.030328736120693
21.07941127493029,0.0,0.0,-3.8547878947207415,0.0,0.0,17.17684982422809,-0.9628373757388073,6.399105698623146,9.011811441833107,4.205508810163274,-14.905785504630174,-45.428909396221194,2.407094832235769,-0.0018130827668581928,-87.83905704419428,1.595375776648857,0.003207856922949699,15.098672398123579,-0.005874747060731567,0.5880987438139238,62.1601534849748,-7.455471417824263,-7.041841278014612,12.45281660061134,40.23072765207624,-2.0370028171860706,27.60264676265792,-62.72927603762208,32.62251133690229,89.11772481856812,-0.011179589829891227,-91.51790422524626,38.091438561102464,0.0030746822564300374,126.27013497668104,-4.703171799589241,26.478959878262152,-0.05591687849551474,-8.155446696942704,-5.64719609146287,0.003906915838451544,-11.082200408201397,-0.9485107064910518,-12.877211997081972,-33.04172879226581,4.0125346560642665,-12.282267842050269,-12.325847283287208,9.308996531749425,-6.326521206787403
17.537528651686877,0.0,0.0,-0.08835700896684148,0.0,0.0,14.949882072476438,-0.5047964324108146,4.791461654354892,8.57884388433751,3.3861759247434846,-13.939365061912088,-42.80188971985058,1.6608317850701892,-0.0013509726754409015,-91.03578737875549,2.212180954337099,-0.0033703396047764147,17.86913520641068,-0.43294749503511026,2.8058668569186236,56.007903830015884,-6.188223831443403,-6.120012219826725,9.582042342411805,40.39308071216625,-1.6936667258969698,31.452878164838356,-60.66554763754081,35.382550831341845,89.79376086440125,0.006470438584095333,-94.62564684719536,37.107817797085175,-0.0020656586057004015,127.81279418646282,-8.379306482078565,22.966632648524392,0.23080722248335203,-8.510903756554375,-4.9912404543490245,-0.0014217943623652516,-10.65439742469549,-1.7001957033047455,-12.809859386113116,-32.60155682139654,3.2901801738843313,-12.501284932753457,-8.93098393150919,8.638834801365515,-5.321128843687624
19.423188299205137,0.0,0.0,1.2268248768287846,0.0,0.0,12.696691668272967,0.9956953985790756,5.1179803359912155,7.425123098924164,2.2507491331597036,-14.213183021975032,-40.36895941716167,0.5978242833284392,0.001059206661116298,-92.06146731071645,2.7247708226588587,0.0022122447952426013,19.877267290010447,-0.9779626942417742,4.928653950884339,48.82812415123011,-4.851923895912396,-5.1045181631550545,6.738974038608321,40.798456387280616,-1.9723411293334203,35.3053022644088,-57.98500746609687,38.148460896981305,91.59682874877622,0.0012957652662413095,-95.60478233645455,36.691987080953595,-0.00926029619089096,128.64646340479047,-14.988607947082494,15.602044847280107,0.02411053640060832,-8.610235765520985,-3.5373544816381415,0.003169299612407437,-10.861033335756254,-2.6002957169893244,-11.459980664075637,-32.90064982392682,1.9504120540760224,-11.586635729445904,-6.287560798682999,7.843393979221504,-4.440004056152317
19.973575393686353,0.0,0.0,1.0205374779577572,0.0,0.0,10.324174297521612,0.9327197987455423,5.78111902461378,8.41613326928196,1.8813621733636974,-16.73659610690781,-37.936954533715486,-0.3876891195451663,0.000295181537039475,-90.73866241482105,2.4200060578807423,0.0006136812354620308,21.93876124774326,-1.3000789295000716,6.7087161870803085,41.35397742406499,-3.2026501878239424,-4.454417871896804,3.6637751914445835,42.11417374603178,-0.7182428952981614,36.766803317528314,-55.35085036622956,38.11316162405171,92.2244402226727,0.0015355555300069679,-92.69556904314747,37.5624289369692,0.012133020446098302,126.48991608348791,-13.914250775882081,15.814619400805462,-0.014219046480136185,-7.821871821945317,-4.058952703875372,-0.001312778683245475,-10.922583911060936,-2.4420845131082487,-11.322686321912006,-32.974749749772144,2.0455754086196536,-11.400004470239981,-3.919785749807191,6.796746688390931,-2.7575429699703005
12.354940552801207,0.0,0.0,-0.6530300195019217,0.0,0.0,8.996782304102325,0.3705040418004642,6.099012709775277,9.123496632540652,1.7345056016178835,-19.267431828556788,-35.515537623896684,-1.6533022103827237,-0.001575969297178917,-86.7074535232789,1.5339924163275733,0.005326477799618314,23.52045182218847,-1.4577162182681938,7.571132916569461,33.57618569227472,-1.8436238453526443,-4.241555827251431,-0.5680515004317481,43.110915058589036,1.0604160247876677,37.35615908964955,-53.15489521734038,38.283623078576,93.05338224478035,0.0013017094060608144,-90.17380556239539,39.35857690575802,0.013070558116395002,118.18213299682084,-13.778523550488334,16.132700257595296,0.005823785661627079,-6.777263025590425,-5.614736522305193,0.0013992399398072893,-10.197780549653393,-1.8522165632902043,-11.535209135446918,-32.242983596730625,2.6720236894822,-11.375400624753706,-1.7283647807790834,6.014629738679514,-0.375151652271029
11.17687532507536,0.0,0.0,-0.7825371290852128,0.0,0.0,7.52953468779428,1.183715742223839,8.12798892555238,8.81351727151249,2.468046872034191,-20.041483787263775,-33.71435536949151,-3.418385489948705,-0.0003561522895392236,-80.52850206741002,0.18628404416810065,-0.003924492090101483,25.180976213104277,-1.3163705970781014,7.630280633426216,26.128800295623254,-0.4604369510842668,-4.34887782741437,-4.376778861338418,43.095812279571014,2.903467548262552,38.57683664657255,-51.15542198016903,38.836794792134974,93.85831065068763,-0.003207692207243099,-86.53281067646583,40.528503754355896,-0.003526428616790573,110.83845792518346,-12.217280132787169,16.156580800866184,0.005157481304196566,-6.1478442358068355,-5.670424881306943,0.0029819723547577295,-8.857083999349802,-2.413338518461518,-11.208381393960545,-30.918231847527927,2.0293304060932758,-11.283302036500869,-0.13207251130234748,5.783959025065733,2.5125258158406183
11.057095291461627,0.0,0.0,2.9187523333818697,0.0,0.0,6.7647040963784555,2.5669245979886433,9.826827739179963,8.800513597831978,3.0315907458540132,-19.391598662829544,-32.59488414606987,-4.6251558143072735,0.0008051899448739191,-72.10454162432761,-1.976197233885577,-0.02515892255580558,26.979146528771185,-0.9809731446188685,8.511750319395045,19.119143579026957,0.8581504550376006,-5.154260606378025,-7.334154356966144,42.90763651690972,4.771684221110977,40.475342181963086,-48.64573259225884,40.39929221230687,94.21635124156207,0.0018233059120231303,-83.93221626778603,41.463946001510294,-0.004218302676863585,108.50854672014435,-11.264303868228259,15.628290829590815,-0.0011300734273462481,-7.915653393701939,-5.625179207804405,0.0014269736204753486,-7.5936309801920965,-2.548287275286648,-10.444811125158669,-29.708715494406192,1.6174174018839858,-10.62683866325635,0.9592220799786482,5.464372223828876,4.903549715886492
9.762184510144632,0.0,0.0,1.7216295203499965,0.0,0.0,6.897486534867066,2.0382698389158604,11.935971057588597,10.540815016733925,2.503038071124143,-19.661155953269297,-31.486016324244506,-5.562287086751062,-0.00018053631973469805,-62.1436797051407,-2.810317867342826,0.0076984875747591166,28.500062057486236,-1.1090013607151619,9.19253050370331,12.657189720591814,0.7729656433911508,-6.5452367002932075,-10.14068210504647,42.97824337145907,6.523492311904953,42.40551356162516,-45.63605292907073,41.910944884692675,94.57515882626844,0.0032166678919114547,-86.04042821652241,42.91887541399989,-0.010546910532123442,111.46372899812631,-11.856951376598289,13.87284412480442,0.011386723726450587,-8.171365622429306,-4.019616572350481,0.0072028740196992515,-6.617627878682992,-2.6612094484190276,-9.67052009606854,-28.78459884646858,1.2213050193300543,-9.952741418031508,1.6351634356077707,4.566348750992187,6.6522761376361625
9.880134959985075,0.0,0.0,1.5154310426149507,0.0,0.0,6.596395648574409,1.7988361708121199,14.209822465551218,11.740352934888744,2.733941958049403,-19.672258106999042,-31.061811927048417,-6.711075143322063,0.00017863209844359203,-51.765143368938794,-1.642586682147353,0.01852227066450016,30.795689028134525,-1.2288078230750064,9.700862005852656,7.661651923795845,-0.7481865120329259,-7.000102388438893,-12.664764413508502,42.89916193596054,8.169829666166777,44.036788553127444,-42.86598843493693,43.06652579521689,94.73670210246596,-0.0011312617468857216,-86.57933428251373,43.70796476629352,0.0024447442329445443,111.57813876295143,-10.640773566943402,13.934586319680546,0.0353586331637738,-8.097961459999622,-5.271458798298797,0.003726075461387201,-5.96128642097633,-2.635638088765386,-9.165078698335357,-28.161088487500468,1.0543471838900147,-9.475465679143998,2.5037995539357953,3.1935821531809183,8.998087019572347
10.856989802643831,0.0,0.0,4.479519239558569,0.0,0.0,5.498366941329019,1.9243752427813963,15.50287605780316,11.339117264126816,3.400092581624881,-18.50997035634572,-30.895349062450475,-7.84762216144225,-0.0004828675691590137,-40.583645864246236,-0.1837530066008391,-0.001109830279526583,32.950238366532155,-1.1523963389124756,10.636348031781589,3.1308141623237127,-2.366631279258804,-7.896960784323833,-14.179126056666847,42.63938208635059,8.80661768790001,45.4906804593324,-40.14734561474076,43.252559822950985,95.04535113695569,0.0010468573482604166,-85.87990769336318,43.82337272028926,-0.0014053878096696912,109.51108233405073,-7.0123753280191305,14.86520139737448,0.005802178061658794,-8.023600093325934,-6.381182271039034,0.0026012388810755104,-5.068998255317088,-2.7899120384354474,-8.563461364112708,-27.304844422275963,0.6842922209111632,-8.977418992504154,2.8835584915780395,1.7199755382152897,11.216145132880746
12.850106777287909,0.0,0.0,7.978755521696638,0.0,0.0,4.259007488896478,2.54041759595227,15.673008771165385,12.979811828375851,2.77800274678155,-18.663695781068903,-31.528808375590227,-8.478561932482801,0.0003490380658622375,-31.00500349145223,0.9429114128174824,0.0045430688284295966,35.4527815746593,-0.2869008139811306,12.09121624568176,0.0068573534345759,-2.9044461619970274,-10.040302927142825,-14.975744403717396,42.08841893086889,8.490815495375932,46.936617178810735,-37.57298502955353,43.84835603569244,95.38593559387797,-0.001441889864674722,-88.22900547018631,45.03151616895587,0.009636892955029947,107.26412038037526,-8.132297330758448,14.42063943892663,-0.004379371684968217,-7.875249253253564,-4.8265930553523235,-0.009477171829486587,-4.148938407329099,-2.7962942664631756,-7.572574134778103,-26.44092519440826,0.30340432473194534,-8.06387500403455,3.031556049566628,1.0046540545845353,12.838896311494024
11.231954390765939,0.0,0.0,6.6083987157292565,0.0,0.0,4.488786515864172,3.367255083328861,16.52961981005058,18.398087911919625,2.3466615056851814,-19.420376583133592,-32.91655515171003,-8.669852952356996,0.00043643475794474665,-25.493433140202928,1.3929413802128467,-0.007662398242207226,37.873364689358525,0.7858124269212747,13.835134232715507,-1.5615869641995082,-3.1556767973483657,-12.927352777962932,-15.744165200992283,41.49194925212294,8.679329596220725,48.82112635578621,-34.51575977755241,45.222900445312426,95.97780133774067,0.002411130738262016,-90.19007844474051,45.62932895436663,-0.004843769990320577,103.7162121101952,-10.334890953772234,15.277257815794787,0.0013090335428130766,-9.954558753705426,-3.9407062910818245,-0.000364525238328402,-3.1784375271495557,-2.630680255662308,-6.62884421457623,-25.518394985250733,0.09866173527784783,-7.128920583864769,2.641387621534004,0.4166188815491869,14.247913519218034
7.616228501632756,0.0,0.0,2.992611692861282,0.0,0.0,4.9320433558987915,3.779188232728152,18.128058225767216,23.11082204759116,2.1457520180742398,-18.976327864206105,-33.69340414767854,-8.340760255743465,-0.0005314132656903644,-21.614575566355043,1.0651607214960208,0.0008086662190304613,39.96013745030718,1.4770325875292991,13.96245862594635,-2.2838293315993523,-2.609849724998868,-15.495177701234176,-16.38620366102369,40.50099775898522,9.105195147064736,50.60506858148014,-31.20783292498749,45.291212236371955,97.08157970758943,0.0021257544774829816,-91.89297549962532,45.70030354597964,0.0021857026928185077,100.86830389961925,-10.658166461291433,14.733068587537455,-0.0016975099634899211,-10.283894409724986,-5.122991741887052,-0.0007750631782324287,-1.7624556518180403,-2.738376593662792,-5.80466434046413,-24.13966558453158,-0.31412433646932875,-6.408502907377308,1.7548673911324657,0.20461839607634721,14.814183728685602
6.156022998076285,0.0,0.0,2.4717018409013423,0.0,0.0,4.437196444581015,2.923109459306629,18.79498704844772,24.9579381964634,1.0404604035246088,-18.625281896558853,-34.044809372286075,-7.563139592427642,7.211089363641863e-06,-19.25615790701927,0.751669901698826,-0.00034334898382855594,41.88084887934792,2.591364403629811,13.741017305296982,-1.7495990707113205,-1.2504105631827864,-15.265381461213456,-16.04347770488665,39.73518742511556,8.372391250631624,52.04286322689401,-28.433926863744965,44.810771814260065,97.64808792891377,-0.0003712874756730436,-91.68084873239394,46.22247666860278,-0.0022964781600337387,100.87532518678807,-11.339125059003422,14.457082763443994,-0.0012285705398804201,-9.76547113083484,-5.08962600809113,0.0014323976353566653,-0.5010878233939562,-2.497459783723875,-5.496575527971949,-22.890657544749605,-0.20854879331256784,-6.0321808978915135,0.6834016206256368,0.5907556951577195,15.249502996142674
4.860074377035351,0.0,0.0,3.204271559496423,0.0,0.0,3.6987462439444108,1.7946669388462468,19.13639828961296,26.406924382358028,0.6576105170305225,-18.01280784661455,-34.17010401382083,-7.029441057728569,-0.00039426293817594377,-18.921340567140422,0.0854782582868864,0.000969875888633217,43.01233079735639,3.767801960363197,13.454417266829466,-1.1137409617590182,0.2440577733962415,-15.43656423832684,-15.293585299906425,39.064564090780294,6.916645186117967,53.16776225820777,-25.60645737858304,44.36355514660067,98.17755603691793,0.0004549534535503906,-91.79357754330515,46.64339512668737,0.0010814153563491874,101.63734047201895,-13.135372429615357,14.985488775819947,0.0004243499358550227,-9.204629692757882,-5.073567945025209,-0.0012694485890305137,0.19265140181595228,-1.9487657476388103,-5.4159772334724625,-22.200191442111393,0.26809485396859306,-5.748696796026381,-0.8876510588919807,0.9496026791224768,15.040167610729666
3.2305494607795495,0.0,0.0,2.1217084203580936,0.0,0.0,2.919145456216265,1.2668401342795583,18.976860632753954,27.448437898513713,0.3618955297863506,-16.869737210455565,-33.96012705563184,-6.056563445421132,8.396144719640045e-05,-20.302042249592596,-0.10152177746576438,-0.00021937259189667,43.56987724572353,4.792947174071734,13.399193061594145,-0.16143559231460597,1.5609210309949715,-16.008688079167545,-14.16188505197717,37.96701006372465,4.9812714872004635,53.71051709936413,-22.82568425686937,44.22349977094767,98.7721581962153,0.0015543578358122056,-92.65031582813936,47.20651817026237,-0.0004509829111966853,100.28861454697699,-13.168348740144657,15.167378943301289,-0.01155358236974352,-9.435318812169637,-5.4711052422830715,-0.001306227383711343,0.6768553502655179,-1.9447900004855625,-4.654111285041999,-21.743394124644,-0.0184634029699708,-5.043242294539316,-2.6123770251526377,1.6945948843887326,14.351050135021566
2.1088677741654096,0.0,0.0,1.2658326384493939,0.0,0.0,1.5659921185804888,1.1227668060457394,18.462332378806565,27.88720938891887,0.4953300032895676,-16.297486039693716,-32.96714145605969,-5.293008761381334,-0.00019522812849475797,-22.036794882578235,0.3353383747568039,-0.0011652459788995442,43.705141351167676,5.879628782716202,13.4672727576393,0.9923985419199275,2.6080046160536883,-15.954931921215849,-12.18506760565384,36.40485039363077,2.5678688203566638,53.091146670180436,-20.660009524206526,42.9130512906553,98.81510071716423,0.0004699121736829624,-93.86832695679657,48.34688412886423,-0.004019700145352684,99.37024413955088,-12.001444770316711,13.967675618809809,-0.006587884362470173,-9.675322935803152,-5.763663411790379,-0.002805031026189627,1.0005956981224866,-2.1460279656102963,-3.959092181665972,-21.442062615350167,-0.46952692635761745,-4.477998342569477,-4.145025145519239,2.5983641579536285,13.893848156529424
1.4922592779286135,0.0,0.0,0.7855713962484829,0.0,0.0,-0.1548666936434132,1.1769769441463855,17.983033259810348,28.095996326206958,0.9065277393318695,-15.916464771906453,-31.28230112555278,-4.844511567029664,-0.00036240364505190416,-22.989355821174787,0.8356882166594592,0.00041199948361300714,43.26513227167876,6.681789717046329,13.659763988105906,1.6437925869012668,3.3189604925585607,-15.534583422102761,-9.59197860925384,34.451354442869125,-0.8429179727197172,51.36295635349859,-19.310116329735614,41.17101035277479,98.3067745998405,0.0022899235317527323,-91.85786820359027,50.95282384802017,0.024425162782269992,96.31939619438113,-11.47184769038362,14.635680216731238,-0.0018601064373720635,-7.833018856924053,-5.706496379139116,0.0015133494078215914,0.8730919484831713,-2.0603333964259654,-3.524982264091072,-21.5816120188644,-0.55598228190657,-4.044316501400444,-5.600963086598104,3.086301493625873,13.767755717608779
0.9027937847502293,0.0,0.0,0.5137826030936347,0.0,0.0,-2.032796883416252,1.1713979218408237,18.007514233307766,27.67555800647749,1.096969923653338,-14.994572883420838,-29.15252138895643,-4.618704949372884,0.0006721485606254896,-23.004187350077775,0.7244284967218947,-4.6236583347109694e-05,43.064148426279516,7.124930881155946,13.58160070793334,2.53764096065521,3.9705617716383954,-15.900902309091082,-7.098566139955009,32.12867095923856,-3.874115214769306,49.06630624972051,-17.98346699899909,40.21503620144737,97.81371248018557,-0.001733031915569394,-90.94012108979653,54.01063321152171,-0.016151165794268667,94.57347499403298,-9.449608556304266,14.583443945853135,-0.0030408022378694277,-7.477930218448662,-5.956238381732354,0.0031954212452434123,0.08158645036865605,-1.746183703290648,-3.4970481866828695,-22.372985438776592,-0.27630633427472534,-3.8985239781691376,-6.022344639343063,3.1964294907902677,13.837055995401894
0.4024431324099726,0.0,0.0,0.02942283343934401,0.0,0.0,-4.137411216341897,0.46925078124989916,18.804181452995305,26.723969809826084,0.35656671512969323,-15.039742692966936,-26.6993759049247,-4.623715609301169,-0.001983420244105359,-22.106520655407706,0.46719126812593453,2.3189000213497258e-05,42.703392834754005,7.251944573165216,12.569821628310548,3.050904931465598,4.796280898679524,-15.695394698768624,-5.355526437796329,29.815598929044288,-5.902841581192828,45.97779705120999,-17.042387200236917,39.10938291212242,97.38321922333802,-0.00142828477417399,-92.94602582554288,57.3872747622526,-0.0036589037904084143,95.25653361392568,-7.569597791522957,16.25971804872363,0.006004870341966106,-8.275947539854814,-7.900767523838884,0.00011235199716876302,-0.26018673520871655,-1.5030954412525168,-3.3733796218470853,-22.71759424833569,-0.09886640258088279,-3.691424759086612,-6.122676131214422,3.1093199227838197,13.786500866135
-0.744816989859214,0.0,0.0,-0.2673946902614438,0.0,0.0,-5.7681525234226925,-0.9001194618974903,19.67135477155305,25.957470868129676,0.04618520533429181,-15.513986401522438,-24.12323345926196,-4.591271162451673,0.00045473431839622734,-21.2490962152336,0.18337767520101952,-4.833271286444293e-05,42.170425914740555,7.417626746981234,11.10357449825039,3.514202958282731,5.5841683225966285,-15.020440141514465,-3.986883834976359,28.031323422031797,-7.901104981838881,42.5622099833264,-15.918020331802024,37.91947809806321,97.20205074459076,0.0008595225973495756,-94.96814310689291,60.71431926967897,0.011274170875412987,94.36136326965342,-6.8743559992781895,17.566820703466586,-0.007966482516154743,-7.822382648454225,-7.723767977598226,-0.0012377878579695426,-0.04589006766946314,-0.9437181422315589,-3.230987543762086,-22.507147304268116,0.3636879713317603,-3.3461689149627447,-6.18822049114157,2.840516220699443,13.859155289291428
-0.6735048894073433,0.0,0.0,-0.20241738077636384,0.0,0.0,-7.02143910856236,-1.8315735283977663,19.98106471549088,25.082692074073822,0.03458428414327947,-15.15487806864284,-21.779580087744282,-4.097443353767526,0.0018422632676269473,-20.54636500771377,-0.20025711016628894,-0.0008154444522379433,41.42315415963449,7.4273445510889955,10.674489659541223,3.827337171787739,6.004674338052355,-14.75817116533987,-2.9756599948257816,26.573588205202892,-10.258972132485331,39.08048970407731,-15.232589186459906,37.113709980918756,97.74148637134813,-0.00230974643960833,-91.91307153214098,63.870613230420105,-0.0016805544206507893,92.53140413827026,-7.572929061747059,16.592995542240885,0.00449911568350304,-5.736736960845834,-7.877999398859139,-0.0017452735662491412,0.6747788621854292,-0.3471632738285963,-3.2509743596558622,-21.788595456367897,0.922624177892532,-3.136689700764502,-6.24737864760175,2.4879250296658304,14.147357797378644
-0.6595719586907455,0.0,0.0,-0.7650169501179592,0.0,0.0,-7.987844940546594,-1.9688450673533633,20.321073111192614,24.257232065451884,0.5129557114217961,-14.321063385306362,-19.592610462627366,-3.8408398003986446,-0.001706510910448946,-19.539616939049573,-0.20728650002477647,0.00042778584233110496,40.77045519465186,7.354036915395407,10.250222652653521,3.937188212518526,6.133154258864792,-14.997976145497493,-2.649640589137088,25.59821481410063,-12.057862562818915,35.806260600347514,-14.555943575021216,36.85450951345201,98.93050284725197,0.008891504369267524,-92.85700002849565,66.93576101869783,-0.01857606392885222,92.18058351305572,-11.244226938382793,14.30598194116707,0.013497667314599157,-5.204460311630843,-7.548297501912649,-0.006112568379229113,1.3181852119038642,-0.3711729021112638,-2.6146456688087842,-21.157146772969813,0.6572441545426941,-2.557804161013828,-6.141354634055352,2.1682608468342552,14.125780284185776
-1.4432385952595936,0.0,0.0,-0.3061355846758176,0.0,0.0,-8.68637471104208,-2.4327473927442833,20.832812058721338,23.44936233960144,0.9932532820802232,-14.004286657646615,-17.420484428651406,-3.763313739370017,0.0005524041489605593,-18.472921159512975,0.3129644906013548,0.0010070869144642712,39.80758154972376,7.158588485238473,9.6557705075647,3.5396809693118794,6.056437076740505,-15.070576198488201,-0.9399752086123234,24.814514563143547,-13.96290767377504,33.10985739074313,-13.824711062975707,37.44435193254431,99.13395819957753,0.005662740262828132,-92.30419532692083,69.7402964219409,0.01567885651035838,89.69277585590346,-12.217376289820344,15.588613403235717,0.00840269740330377,-7.779526674455431,-7.149573981566128,0.001156522171460074,2.1979302385152355,-0.38330027000903844,-2.2209847809363614,-20.28361328251232,0.49552711077076234,-2.1986826022827226,-6.194472564230079,1.6554922013110138,13.812888996017573
-2.4702934666542533,0.0,0.0,-0.26382889457886277,0.0,0.0,-9.036896800096288,-2.898333009287964,21.16778843353959,22.845221434183788,1.052207834566573,-13.662408738628276,-15.691015193812571,-3.5452379504207436,-9.512778772325972e-05,-17.68937765114601,0.4721611308702017,-0.0007333823067521269,39.111220959129206,7.192003638405966,9.412830759963,3.3867579778628984,6.275117645289567,-14.997502920257837,0.7667998756463005,23.487638428750756,-15.094620523392397,30.57846043393398,-13.576844348367555,38.45611628156009,99.47693642399882,-0.009129000021318036,-89.06902270048802,72.63074405166134,0.017647937644899598,83.78801596457359,-9.674150575497508,17.415646220316294,-0.01949289514662741,-8.066216856536505,-8.022904280245548,-0.0025068577398679273,2.964474871497801,-0.3867594397901893,-1.708459396900507,-19.523776802756394,0.2963240338540764,-1.7264315540949215,-5.829201504801192,1.395065384819012,13.400370770182066
-2.333645526890208,0.0,0.0,-0.9217339708047205,0.0,0.0,-9.544347077915312,-2.4057317468163104,21.07862029458329,22.518994993237232,1.516403315468426,-12.34898081621112,-14.370858194111658,-3.2869511091604626,0.00039692577132451447,-17.15190059678026,0.1465665905838438,-0.0003444238678504201,38.530827072848766,7.301672314686565,9.392404921755755,3.256739820280825,6.629574023853661,-15.926980954961115,2.0134801219733154,22.456670588776532,-16.606328472283817,28.37634306125636,-13.911209410328402,39.47700137699221,100.375613032364,0.0012506527350183677,-86.456534105206,75.5393812295931,-0.02220274754236881,83.13749823595448,-9.041054069007084,16.546375702596478,-0.007004188910685086,-7.596690493502818,-8.289406047468036,-0.0018428871030250333,3.4390242022407502,-0.31143843347352634,-1.4416274722083868,-19.05219182766094,0.26385089550520924,-1.4510943314462441,-5.526349192891024,1.3889501242876157,13.381498882472348
-2.0589678150099964,0.0,0.0,-0.9409509395406712,0.0,0.0,-9.153812737193569,-3.2757215444018257,21.620794096112675,22.119135527081838,1.1561500970654979,-12.267985796819083,-13.436016138476353,-3.062534644418417,-0.00019173475555140358,-16.81225630173102,0.37305642625275975,0.00038330008211213945,37.77294772201207,7.400412273308337,9.153091674818908,2.813645607615029,6.798622211767625,-15.699609182991736,3.73966906661629,21.45975711927184,-18.664415684057996,26.573749269577903,-14.430934592250248,40.48754878018083,100.66213357807841,0.0009009872009988583,-85.76118488829415,78.11842438040524,-0.00924813648134248,85.24711082359461,-11.630145126455787,16.52678923905094,0.005052693128679361,-7.2957301898712075,-8.288712243677676,7.008206081215158e-05,3.3775202671216857,-0.29314334543781,-1.0535700351618689,-19.117016732772008,0.13230070530828472,-1.0855571830976567,-5.746038698708064,1.5264903955497562,13.351230339417523
-1.7137728285166167,0.0,0.0,-1.4150474396342396,0.0,0.0,-8.716380552692621,-3.299888359661587,21.63097329950948,21.900620312253235,1.2404959461392318,-12.167380035986746,-12.97713866938111,-2.9686757564242927,0.00011120410389000202,-16.356197103736953,0.706244433722844,-8.023789488665234e-05,37.55906501401285,7.530850753948938,8.84677108234382,2.5772280610311067,6.873894067653869,-15.390593396384197,5.018532180283685,20.70861426791101,-19.455353492406054,25.271380922034062,-14.593248461568376,41.26901456073257,101.23989056361432,-0.00022265387982070063,-86.13400887525448,80.46109839094116,0.012244595476233851,85.02370915811449,-11.887014963074721,15.154781560567084,-0.0023319345639815133,-5.3335705816739,-7.906780124389297,0.0008054817947067934,3.138142645767148,-0.2750207832757852,-0.49579108866642446,-19.359466157652683,-0.06437908420232358,-0.5632871458204167,-5.700601299624252,1.4564908436759987,12.908303303623075
-0.9594626663176791,0.0,0.0,-1.2405018817823625,0.0,0.0,-8.642242335883203,-2.594613353091142,20.622410890902174,21.265050797031666,1.489039464320586,-11.194603226741272,-12.620434958943138,-2.742610888168659,0.00013986463196476826,-16.021262180899548,0.6012601266957102,-7.74624550705071e-05,37.51781313853771,7.7473503277259255,8.960152190742878,2.580737496189597,7.177874832255937,-15.992690466075064,6.01017794402631,20.0697181976978,-20.12064182465749,24.2042626020867,-14.686028256521519,41.8313187251763,101.3504824751143,-0.00014656672643537498,-85.71483219796686,82.58914009944922,-0.006503209878412289,83.78831592175122,-9.678437242638854,14.488075529627093,0.0034799242392734866,-5.368868179328934,-7.891353907919609,-2.196863808133888e-05,2.957259684668221,0.0387719160135877,-0.27633811706432015,-19.541025604665684,0.1415708377127992,-0.24047078194324067,-5.507686978927098,1.5538789505305106,12.486808513323695
-0.7516569884611082,0.0,0.0,-1.150964306695036,0.0,0.0,-8.095318703188688,-2.4654615505853417,20.803152323497528,20.985498691263405,0.997323858740396,-11.104069717727807,-12.458106260738564,-3.018835090361083,-5.6617827095832826e-06,-16.08447525533711,0.6932723136253736,-1.514855808888337e-05,37.21690442152906,8.111708289501859,8.210668009342765,2.4831429633522233,7.330579867422455,-15.425387471364282,7.005862887502662,19.362993767824516,-20.68136982877763,23.079559756223883,-15.330593580032682,42.33673852353647,101.42380731815717,0.0003961400547477781,-85.18727118780966,85.17850034616802,0.008298104417145393,83.6743919122373,-8.303220237653347,13.587174953777861,0.0066498079275394625,-5.817003042673719,-7.6371176962069445,0.0003215475868522171,2.691755751721683,0.26168591813437064,0.2072843413831829,-19.80666381765519,0.1624498333433471,0.29164141404283567,-5.637809544958677,1.6047418666314544,12.191768067422453
-0.9262153209754069,0.0,0.0,-1.5327099183052943,0.0,0.0,-7.629230138861433,-2.111860186964851,20.10272545167808,20.946344523981665,0.49621373802405067,-11.122771204223563,-12.749118079261821,-3.2827915554054865,-2.631316225907311e-05,-16.27800948053861,0.9594574420640996,4.197819279254712e-05,37.227843828267666,8.43281508587528,8.143856064913747,2.634653519251189,7.148709592217133,-14.544340748705554,8.02460534021537,18.76681350195025,-21.136930706650812,22.17449528844306,-15.406129079724026,42.65982344378699,101.25794277506532,-0.00022912353660537563,-86.63481331725559,87.17178428328879,-0.00471574896395174,84.43049608617092,-7.924819113574135,14.896552057240207,-0.006445063282214291,-6.324978212202442,-7.1845747126864445,-0.001274504402689645,2.235065445720277,0.4841351429302561,1.1082151065030041,-20.25897996073273,0.023258327223114557,1.2091125980609416,-5.475513683824458,1.2824758773850924,11.930727385874906
-0.7902503933563084,0.0,0.0,-1.6523633830353708,0.0,0.0,-7.650729048898928,-2.216301934634977,18.670215283412205,21.16321099193029,0.8131226383207406,-10.775616249750595,-13.112986012270367,-3.160108394905342,-0.00012564533241543764,-16.830223923586097,0.876770517891736,0.00053630612418484,37.1978773044321,8.738049131718308,9.13085495436524,2.9036119599047487,6.856281808274045,-14.298448690591886,8.276074745959603,18.398700850248733,-21.259885559670206,21.284426153208784,-14.89379913882409,42.44109550505139,101.40575065570124,0.0014233472773267088,-87.94524383864854,88.54422567831685,-0.0009946811639690838,86.50466533400764,-8.022981743721411,16.367644697083268,-0.001129535088652797,-6.160062280547571,-6.36686186792242,0.0023192899399822765,1.6373903211672058,0.6605631006886992,2.0299429962080024,-20.846294355585947,-0.16629030552087182,2.12818555983937,-5.136509403861491,0.9241001305694102,11.837157265388294
-1.0706535069832515,0.0,0.0,-1.702104044976895,0.0,0.0,-7.998066738885589,-2.3304383030991196,18.648104714162343,21.605448621518775,1.484556292534151,-10.900190874260685,-13.238887288098223,-3.2366453919172247,0.00014370415837708142,-17.48838604010507,0.8916151303083211,-0.0002990849421443111,36.93378533480516,8.922502629355277,8.749157890550116,2.891393747868666,6.594363664541304,-14.17461904845221,8.497672862928109,18.089966497009378,-21.895809894817805,20.276322941190795,-15.167657736570352,42.05593296600777,101.59641455340659,-0.00010583367905122306,-87.35000709905614,90.29081953017906,0.009417877727447798,85.62231043310786,-9.439311327568648,16.196137869043273,0.004891235466363623,-6.24105506611039,-6.180292080541932,0.001643345651240407,1.0317699376650964,0.8281463372506522,2.7794114101498035,-21.439119747070272,-0.2979550183689825,2.884740063180521,-5.086003835481202,0.8569354036216965,11.61238981180461
-0.8264640641437189,0.0,0.0,-2.0217162732231877,0.0,0.0,-8.100412855645908,-2.214321676691193,19.199559755253585,21.855102438617887,2.0844319783489937,-10.445990864034316,-13.556837908014407,-3.4851517179069025,-2.311451305006262e-05,-18.013923635139324,0.842490991127264,0.00030279917561961724,36.860580166319195,9.415887243876234,8.180624065979629,2.877855664721384,6.5592616755049375,-14.529829850460583,9.507387601551216,18.02057456940483,-23.14832532383624,19.80008070856696,-15.519248570841757,42.0757789869144,101.63463875352089,0.0008551224510913763,-85.49398185137332,91.65305578671723,-0.007350809873511733,86.23945747388741,-11.419314179798121,16.481539154835747,0.001664282894676871,-7.123981595137575,-6.571199773550599,-0.0004024360997922335,0.7754125503577026,1.1727283011135792,3.2592403327404607,-21.684787951026653,-0.1628415030654043,3.4597593052543196,-5.233968521906804,0.9836288126793891,11.51913688238155
-0.2797722740549633,0.0,0.0,-1.732328121892448,0.0,0.0,-7.7423852550446055,-2.730073103098602,18.917862669566652,21.690678687701062,2.197268549046521,-9.793587167949894,-14.127437524094413,-3.4390787830077585,-0.0002586344538923879,-18.273114488666543,0.6841835850873679,-1.9674358669775204e-06,36.939413062707196,9.923574756920688,8.588986417628517,2.917309998888558,6.568592785803245,-14.550659677811435,10.196258474979707,17.770580721385784,-23.847008078284375,19.55186402099119,-15.577668801220009,42.49111719436041,101.8980683662545,0.0012113726257843831,-86.02096772679332,92.63559842706819,0.0017803350836955202,87.10729098145288,-10.678011658376025,15.43562133381964,-0.005183787562657843,-8.058037000783902,-6.531382751117466,0.00022310814371591706,0.7179629740422125,0.8228483623071823,4.190923995701974,-21.719645005510678,-0.8419330545238188,4.1871401632906995,-5.140746268262706,1.1555199675102867,11.464954003822916
0.16221285503497715,0.0,0.0,-1.7122389477075524,0.0,0.0,-7.621797309534201,-3.5353711966531347,18.520808440204235,21.78362886869637,1.6638880590017107,-9.85269686665413,-14.608541616043137,-3.5035161436161966,0.0002644498371438971,-18.344455825929924,0.7954443652835583,-0.00011312934379955768,37.03334547286528,10.17335071949982,8.396030093273028,2.826013474401639,6.514589258793957,-13.781726998735085,11.431435941580597,17.86980013047249,-24.952338976630955,19.54039306378729,-15.366064235614457,42.55294211487031,102.27635512147239,-0.002119987428579194,-85.87823950318369,93.2060840389079,0.0018323130361533179,84.63030910359224,-10.200560826117007,13.630687410083027,-0.00011906539393149144,-7.365044472986762,-6.748244249668838,-0.001694529729123831,0.2634691100422826,0.560836191232364,5.193344642177672,-22.14536154954413,-1.4664846182430067,5.013919179847574,-4.889023888244338,1.13866575247924,11.22726783561713
-0.015609196863115047,0.0,0.0,-1.5938513453413337,0.0,0.0,-7.762661217240234,-3.4460659462512453,17.720132521640604,21.9908598862297,1.8987112538933952,-9.4883390550587,-15.080801778382817,-3.6811299928401042,4.835545513776962e-05,-18.469356383414375,0.5359119915860601,0.0003716106988715047,36.86471640781005,10.422301496933992,8.550836083928033,2.561965536941608,6.410635577631837,-13.712997677283084,12.54890261029361,17.902006174634288,-26.566724914455666,19.627806495872882,-15.197453361126794,42.076600241742455,102.72702338221353,0.0039567788487688636,-87.78328857388736,93.54701104492943,-0.002978934941211789,82.63482478390544,-11.509921413232927,12.801499664786338,0.0022167329944793317,-5.045112003832859,-7.240513938327837,-0.0011251308106615678,0.16531246210986653,0.9740773931846445,5.674107410418143,-22.22272360655227,-1.267594324404164,5.616006372150514,-4.906119190722012,0.8693594454998678,11.164699962402773
-0.624465066011827,0.0,0.0,-1.1589781539643256,0.0,0.0,-8.418184870562463,-3.24692744062142,16.63161395649185,21.910775205239517,2.5812887162454423,-9.034205454691277,-15.292489406304263,-3.736437981935389,-5.529222602768446e-05,-18.745565596499617,0.2615352429202316,4.372411634562317e-05,36.492661960378825,10.623063236250175,8.874899490025586,2.3035802156579885,6.158179345395019,-13.795238703451595,12.915072134120303,17.476699246973734,-27.55851849091446,19.58118108936195,-15.265881396386089,42.050896240312206,103.18364649375218,0.0003770011113533454,-91.56286448099962,94.0389940808712,-0.0007042748231950721,82.94866490364309,-12.005721957625877,11.623927128912904,-0.001956177469396075,-5.390005000443251,-8.203083466994432,0.0058627424677926716,0.27650247941836315,1.1987757694760695,6.374480837546387,-22.081654491530152,-1.3263520785107024,6.349266035760373,-5.016596741195459,0.6993894695953143,11.302093809616323
-2.31169849457516,0.0,0.0,-1.2921254794145558,0.0,0.0,-9.51267775759947,-3.828422520479067,15.738257310952548,22.17242997565948,2.7816055805592064,-9.359811124999657,-15.327796332087669,-3.7228945572528485,-1.9271158196044527e-05,-18.976757227505026,0.35352804968979895,-0.00024608300637767093,36.295211064949065,10.878005194002515,8.448178829772543,2.135097300256434,6.066037895890451,-13.307406589560783,13.369626248794733,17.388086421984106,-28.49167224959821,19.297382975933637,-15.225261115532213,41.725917366826955,103.37209247353252,-0.001152595148215438,-91.61377963371379,94.58477285190294,0.0029013091719221865,78.63969297932148,-10.542872685108122,11.630689951944724,0.0018065865083886992,-5.3264924622656675,-10.527611966181173,-0.015346947926745772,0.12071953922094453,0.8593801243433196,6.768800013561572,-22.223955555400277,-1.7901764670686608,6.584913935782536,-4.834963269536971,0.805519451537775,11.46749372688346
-5.117212500316817,0.0,0.0,-1.8993383820283622,0.0,0.0,-11.373663456655857,-3.928413951473619,15.4585300531158,22.728101636511422,2.8837362392442527,-9.369279006325838,-15.075421463264416,-3.5759681227226774,0.00012730309331761752,-19.624481601411066,0.5294876697223325,6.813695172269315e-06,36.38616771623841,11.152321102956883,8.158948095552113,2.592709119520054,5.945771298329622,-12.826219587945646,13.237997659840618,17.123255407624896,-28.986297013649548,18.537232554093322,-15.130991236203105,40.83637478469655,103.51081433126025,-0.00011864931050780973,-89.816669905123,95.43118691732396,-0.012518570112729695,77.72623809899214,-9.774872473600531,11.751429300546157,-0.00036026194562365475,-2.5855054177437276,-11.480941042818849,0.011208612958945938,-0.09047573313928814,0.4989559635504959,7.394634444047874,-22.4117055983128,-2.361360049123582,7.027092694942969,-4.2087160157587835,1.067138139704867,11.442475081891569
-6.03052155137266,0.0,0.0,-1.2465675423387033,0.0,0.0,-12.872358371162198,-4.2875034839197825,15.633925303285647,22.631535433317982,3.228818271170824,-8.6789918913854,-14.741946863800711,-3.2636044613725685,1.0368946077958611e-05,-20.332127563945388,0.5405098073862703,8.242675442945933e-05,36.186651956258,11.170981778653056,8.370804294299479,2.801485154446255,5.672189058643916,-13.088898324340814,13.56247457814108,17.12886835859972,-29.941680449817195,18.427908388234037,-15.114487786077829,40.545705224680184,103.61129233758038,0.0006307813860117052,-88.7333517419181,96.38866788050557,0.004769194379050047,76.9520968653142,-9.661691996940258,10.944716758700826,-0.00027149220110146715,-1.652231299199591,-11.70157898205392,0.003821659918249693,-0.08372682265251334,0.6889749359454315,7.781557583256582,-22.38331412096715,-2.3324441771281657,7.457540018391759,-4.074594839397622,1.1241418644093535,11.364717188076224
-4.934942630969358,0.0,0.0,-0.4347149395128861,0.0,0.0,-13.366377930883669,-4.400977501235445,15.389003146352795,22.378868762837666,3.317542134878109,-8.296273622340856,-14.86384987324821,-3.0680245566667645,0.0002422153606197425,-20.896939845918485,0.6468237494481643,-0.00017762371178215634,35.648731780294405,11.089464956849394,8.967378141991043,2.4682789983570674,5.291480506281197,-13.068475459489175,13.876750367209363,17.245065212953936,-30.93716345217935,18.24826160981489,-15.37227226348161,40.242248261514675,103.49210645967395,-0.00018449136289493096,-89.2930387914853,97.28040792826756,0.003845875070415302,73.82727617421365,-9.061079174506757,10.497513708803162,0.0014654211553677193,-0.1914027655425489,-13.72466636606705,-0.0064189924826916385,-0.31397475180377526,0.4924147383448698,7.934811142158926,-22.609106200495273,-2.5724502731020404,7.524805729247353,-4.320738939699079,1.0366760853082742,11.196491210156477
-6.3375807972963285,0.0,0.0,-1.2388828404799137,0.0,0.0,-12.650819072597455,-4.235178982075451,16.112542575521882,22.584825669945182,3.0745629101887495,-8.860118804141305,-15.284423863424644,-3.243464454761021,-3.9373513108735036e-05,-21.41934255867809,0.5623871295090902,0.00019163777595790246,35.8201990862269,11.274709721818152,8.556003380979881,2.795741341161825,5.329748782689758,-12.278402414773794,14.449710482005468,17.041246206859554,-32.022116759260186,18.379683599859852,-15.325135419187571,40.26934720916382,103.03693579317502,-0.00194828667210279,-91.64568745800197,98.07095002256143,-0.004394067280148673,74.35694834701293,-9.966315496515353,10.41726441298383,0.0033543837829678445,-0.533810877538214,-13.46671306560067,0.0021734387618732,-0.4660132697863412,0.33031642957361085,8.291073367162012,-22.745877492738384,-2.85755171282003,7.793274279933575,-4.056870997580853,1.1072052459662038,11.03684197983656
