PaulMeinheit/Bachelor_Muay_Thai/processed_Data/N3/teep/scaled/JointAngles/scaled4.csv
L_MTP_ANGLE,L_MTP_ANGLE,L_MTP_ANGLE,R_MTP_ANGLE,R_MTP_ANGLE,R_MTP_ANGLE,L_ANKLE_ANGLE,L_ANKLE_ANGLE,L_ANKLE_ANGLE,R_ANKLE_ANGLE,R_ANKLE_ANGLE,R_ANKLE_ANGLE,L_KNEE_ANGLE,L_KNEE_ANGLE,L_KNEE_ANGLE,R_KNEE_ANGLE,R_KNEE_ANGLE,R_KNEE_ANGLE,L_HIP_ANGLE,L_HIP_ANGLE,L_HIP_ANGLE,R_HIP_ANGLE,R_HIP_ANGLE,R_HIP_ANGLE,L_SHOULDER_ANGLE,L_SHOULDER_ANGLE,L_SHOULDER_ANGLE,R_SHOULDER_ANGLE,R_SHOULDER_ANGLE,R_SHOULDER_ANGLE,L_ELBOW_ANGLE,L_ELBOW_ANGLE,L_ELBOW_ANGLE,R_ELBOW_ANGLE,R_ELBOW_ANGLE,R_ELBOW_ANGLE,L_WRIST_ANGLE,L_WRIST_ANGLE,L_WRIST_ANGLE,R_WRIST_ANGLE,R_WRIST_ANGLE,R_WRIST_ANGLE,NECK_ANGLE,NECK_ANGLE,NECK_ANGLE,NECK_ANGLE_SHADOW,NECK_ANGLE_SHADOW,NECK_ANGLE_SHADOW,Trunk_Joint_Angle,Trunk_Joint_Angle,Trunk_Joint_Angle
X,Y,Z,X,Y,Z,X,Y,Z,X,Y,Z,X,Y,Z,X,Y,Z,X,Y,Z,X,Y,Z,X,Y,Z,X,Y,Z,X,Y,Z,X,Y,Z,X,Y,Z,X,Y,Z,X,Y,Z,X,Y,Z,X,Y,Z
-1.7558200000000002,0.0,0.0,-0.7435600000000001,0.0,0.0,-6.006060000000001,-0.8372000000000003,18.106110000000005,22.822890000000005,3.4100200000000003,-9.764560000000003,-20.881320000000002,-3.1708800000000004,-0.00013,-12.920580000000001,-0.28379000000000004,-5e-05,38.40633000000001,3.6139600000000005,10.076260000000001,-1.4270600000000002,3.3888100000000003,-16.522990000000004,30.33188000000001,8.971720000000001,-11.328080000000002,41.21968999999999,-3.4936300000000005,25.767590000000002,84.63933000000002,-0.002820000000000001,-50.26082000000001,70.97225999999999,0.0021,52.94536,-3.3423200000000004,11.82308,-0.00822,-5.628140000000001,-9.28858,0.0003500000000000001,-0.7685400000000001,-0.16934000000000002,4.78797,-23.19845000000001,-1.9868700000000001,4.360420000000001,-0.30848000000000003,-2.0945800000000006,12.583680000000003
-2.12846,0.0,0.0,-0.6732800000000001,0.0,0.0,-6.004800000000001,-0.9284400000000002,18.615250000000003,22.98658,2.91843,-10.21811,-20.96703,-3.3491000000000004,1.0000000000000006e-05,-13.275940000000002,-0.22693000000000002,4.000000000000001e-05,38.259460000000004,3.7199400000000002,9.752910000000002,-1.4673200000000002,3.4451800000000006,-15.89819,29.666390000000003,9.34668,-11.163880000000002,40.254780000000004,-3.8057300000000005,26.183950000000003,85.12409,-0.0012699999999999999,-46.91852000000001,71.94133,-0.0015000000000000002,52.18993,-2.48969,12.41921,-0.004110000000000001,-5.3004,-9.71348,-0.00017000000000000007,-0.81566,-0.12117999999999998,4.831990000000001,-23.243650000000002,-1.9591500000000002,4.419520000000001,-0.5373800000000001,-2.0772700000000004,12.36048
-1.8594199999999994,0.0,0.0,-1.40531,0.0,0.0,-6.058659999999998,-0.87152,18.889249999999997,23.161459999999998,2.1582799999999995,-10.00505,-21.18008,-3.3795899999999985,-3.999999999999999e-05,-13.44058,-0.26337999999999995,-1.0000000000000006e-05,38.48915000000001,3.87876,9.73489,-1.26521,3.58498,-15.989689999999998,28.952739999999995,9.08196,-10.88288,39.259000000000015,-4.21663,26.195519999999995,85.73612,0.0023699999999999997,-47.091609999999996,72.76177,-0.0023299999999999996,52.93461999999998,-2.60754,12.33013,-0.0028599999999999997,-4.87593,-10.32619,-0.0005699999999999998,-0.6973699999999999,-0.10039999999999999,5.043269999999999,-23.118719999999993,-2.02054,4.622869999999999,-0.5298599999999999,-1.95568,12.353930000000002
-1.5815400000000004,0.0,0.0,-2.1587600000000005,0.0,0.0,-6.1710400000000005,-0.7724900000000001,19.02987,23.200470000000003,2.1051,-9.86006,-21.29557,-3.3310899999999997,6e-05,-13.479530000000004,-0.23615000000000005,-1.9999999999999998e-05,38.72274000000001,3.7541400000000005,9.58599,-1.12034,3.5570499999999994,-16.34305,28.50754,8.805380000000001,-10.71295,38.731440000000006,-4.405740000000001,26.076790000000003,86.40026,0.0038800000000000006,-49.944869999999995,73.12756,0.00073,52.62725,-3.76063,11.725300000000004,-0.004760000000000001,-4.406670000000001,-10.394020000000001,0.0005300000000000001,-0.27691999999999994,-0.08252,5.262030000000001,-22.6911,-2.08743,4.83206,-0.5450800000000001,-2.06102,12.16701
-1.6480000000000001,0.0,0.0,-2.214260000000001,0.0,0.0,-6.342200000000001,-0.27880999999999995,18.639180000000003,23.03863000000001,2.68898,-10.146920000000003,-21.435720000000003,-3.28726,-4.000000000000001e-05,-13.405760000000004,-0.2155900000000001,8.000000000000002e-05,38.83062000000002,3.8841800000000006,9.697050000000004,-1.1277500000000003,3.6728500000000004,-16.171850000000003,28.311310000000006,8.750500000000002,-10.965660000000002,38.430730000000004,-4.56066,26.069170000000003,86.77637000000001,-0.0001700000000000001,-52.07069000000001,73.36566000000002,0.00128,52.37035,-5.5170200000000005,12.372840000000002,-0.00321,-4.012340000000001,-10.20256,-0.0010700000000000002,0.000609999999999996,-0.19103,5.1786200000000004,-22.41776000000001,-2.1559400000000006,4.713480000000001,-0.6803600000000002,-1.9978200000000002,12.1167
-1.8321099999999997,0.0,0.0,-1.8044299999999995,0.0,0.0,-6.399540000000001,0.30038000000000004,18.08027,22.69334,3.0884800000000006,-10.0777,-21.56892,-3.1793899999999997,1.0000000000000003e-05,-13.37201,-0.20085,7e-05,38.88132,4.102549999999999,10.228710000000001,-1.11536,3.70419,-16.168030000000005,28.39651,8.87967,-11.162350000000002,38.03093,-4.753549999999999,26.005730000000003,86.63509000000002,0.0016600000000000005,-50.376419999999996,73.66167000000002,0.0011200000000000001,51.81122,-5.577659999999999,13.4099,0.00264,-3.3599200000000002,-10.415070000000002,-0.0011600000000000002,0.30722999999999995,0.07909999999999999,5.06277,-22.11118,-1.8620400000000001,4.70941,-0.7757700000000002,-1.9397000000000002,12.19045
-2.2322300000000004,0.0,0.0,-1.6006,0.0,0.0,-6.2793800000000015,0.15626000000000004,17.75069,22.597040000000007,2.9934,-9.867420000000003,-21.546150000000004,-2.946880000000001,6.999999999999998e-05,-13.554710000000004,-0.11668,-0.00013,38.77070000000001,4.113340000000001,10.61088,-1.09261,3.55178,-16.07172,28.416320000000002,8.96309,-11.437170000000004,37.64219000000001,-4.81629,25.93595,86.31155000000001,-0.0013300000000000002,-50.05088000000001,73.93446000000002,0.0002,52.43621000000001,-5.123569999999999,14.990610000000004,0.0010500000000000002,-3.490530000000001,-10.353320000000002,-0.00058,0.6930100000000001,0.1955,5.416500000000001,-21.712390000000003,-1.8893,5.08099,-1.0111200000000002,-1.95358,12.20902
-2.3703599999999994,0.0,0.0,-1.26787,0.0,0.0,-6.282469999999999,-0.47543999999999986,18.121080000000003,22.690140000000003,2.9694300000000005,-10.030580000000002,-21.523980000000005,-2.9035300000000004,-5.9999999999999995e-05,-13.713780000000002,0.1541,2e-05,38.65486,4.08727,10.30047,-1.1638399999999998,3.4345,-15.75327,28.157709999999998,9.0503,-11.870070000000002,37.12272000000001,-4.901260000000001,26.003230000000002,86.26336999999998,0.0011500000000000002,-52.2249,74.24981999999999,9.999999999999994e-05,53.32253999999999,-5.681860000000001,15.77758,0.0009599999999999998,-4.523639999999999,-10.47563,0.00167,0.7861500000000001,0.08781,5.86493,-21.60493,-2.1597299999999997,5.45479,-1.21853,-1.8833199999999999,12.058649999999998
-1.9739200000000001,0.0,0.0,-1.4621,0.0,0.0,-6.42916,-1.14772,18.942780000000003,22.731580000000008,2.7405500000000007,-10.217650000000003,-21.469970000000007,-3.019910000000001,-6e-05,-13.759610000000002,0.35326000000000013,5e-05,38.54699000000001,4.141360000000001,9.698000000000002,-1.2705200000000005,3.409510000000001,-15.59471,27.617760000000004,9.490710000000002,-12.060590000000001,36.63650000000001,-4.877540000000001,26.035740000000004,86.54549000000002,-0.0011300000000000001,-52.49632,74.24727000000001,0.0009300000000000002,54.536480000000005,-6.418690000000002,14.900010000000005,0.0014700000000000006,-5.923180000000002,-10.824120000000002,-0.00026999999999999995,0.8801600000000003,0.18825000000000003,5.70616,-21.515260000000012,-2.0063800000000005,5.346190000000001,-1.2810700000000002,-1.8939600000000005,11.95912
-2.1866899999999996,0.0,0.0,-1.44272,0.0,0.0,-6.195379999999999,-1.30216,19.217039999999997,22.59787,2.43988,-10.0888,-21.42488,-3.0170000000000003,-2.9999999999999997e-05,-13.77777,0.41857000000000005,9.999999999999999e-06,38.48175,4.32718,9.672410000000001,-1.25371,3.4456800000000003,-15.352320000000002,27.29797,10.050290000000002,-12.227479999999996,36.37153000000001,-4.79607,25.98895,86.65560000000002,0.0008399999999999999,-50.506509999999984,74.08964,-0.0016100000000000003,53.38360999999998,-6.210340000000001,14.664349999999999,0.0008600000000000001,-6.32837,-11.226050000000003,-0.00171,1.1832600000000002,0.34757,5.60763,-21.213630000000002,-1.8215399999999997,5.3157700000000006,-1.3437,-1.8861800000000002,12.048049999999996
-2.66941,0.0,0.0,-1.1699900000000003,0.0,0.0,-5.946819999999999,-1.1529600000000002,19.211769999999998,22.3956,2.6246199999999997,-9.754079999999998,-21.42467,-3.09761,-8.470329472543003e-22,-13.69278,0.39858000000000005,8.470329472543003e-22,38.62836999999999,4.51041,9.841760000000003,-1.0980600000000003,3.4698399999999996,-15.340650000000002,27.637079999999997,9.8635,-12.03045,36.46696000000001,-4.897689999999999,26.224869999999996,86.42507999999998,-0.0008499999999999998,-50.095839999999995,73.91649,-0.0009,51.83855,-6.310889999999999,14.740809999999998,-8.999999999999991e-05,-6.187969999999999,-11.74147,8.999999999999991e-05,1.6683799999999995,0.30863,5.85693,-20.71998,-1.9525200000000003,5.531549999999998,-1.3958499999999998,-1.8334500000000002,12.08558
-2.10745,0.0,0.0,-1.03933,0.0,0.0,-6.29372,-1.3997000000000002,18.936859999999996,22.18189,3.08515,-9.802630000000002,-21.410639999999997,-2.9436199999999997,-4.9999999999999996e-05,-13.510729999999999,0.33937999999999996,4e-05,38.79489000000001,4.638199999999999,10.01681,-1.04786,3.5919300000000005,-15.40701,27.848459999999996,9.72845,-12.213859999999999,36.51136,-5.112540000000001,26.407039999999995,86.11835,-0.00045000000000000004,-50.83202999999999,74.00578000000002,-0.0004100000000000001,52.16959000000001,-6.657920000000001,14.624320000000003,-0.0031199999999999995,-5.96132,-11.68927,0.0005700000000000001,2.07643,-0.12715999999999997,6.13566,-20.307950000000005,-2.46161,5.623370000000001,-1.5233099999999997,-1.6769100000000003,12.203350000000002
-1.65435,0.0,0.0,-1.5950000000000004,0.0,0.0,-6.492520000000001,-1.6830800000000004,18.91036,22.299530000000004,3.1742,-9.897760000000002,-21.51959,-2.8208,9.999999999999979e-06,-13.517630000000004,0.41466,-0.00011,38.92608000000001,4.77243,9.86826,-1.0316199999999998,3.658419999999999,-15.442070000000001,27.832339999999995,9.938629999999998,-12.920759999999998,36.26241,-5.22416,26.31972,85.76534000000001,0.0008600000000000001,-50.483009999999986,74.33363,0.0024699999999999995,51.8601,-6.40905,15.666570000000004,0.005659999999999999,-6.23823,-11.310940000000002,-0.00034999999999999994,2.25698,-0.10054,6.0348500000000005,-20.13073,-2.3986100000000006,5.540230000000001,-1.7143299999999995,-1.49514,12.407369999999998
-2.796,0.0,0.0,-2.1595499999999994,0.0,0.0,-5.97168,-1.9157599999999997,19.533449999999995,22.728729999999995,3.361440000000001,-10.225479999999997,-21.960519999999995,-2.9747499999999993,0.00041,-13.694779999999998,0.5649400000000001,-2.0000000000000005e-05,39.29563999999999,4.844829999999999,9.283550000000002,-0.8549199999999999,3.62932,-15.152140000000001,27.72481,9.96523,-13.048979999999998,35.57386,-5.450959999999999,26.311669999999992,85.55123000000003,0.0011899999999999999,-50.4411,74.91068999999999,4.000000000000008e-05,52.03206999999999,-5.418020000000001,16.61389,0.00422,-6.71885,-11.07658,-0.0008099999999999998,2.7099699999999998,0.13296999999999998,5.798220000000001,-19.682889999999997,-2.0925699999999994,5.41028,-1.75719,-1.39384,12.38945
-2.8497199999999996,0.0,0.0,-1.6505000000000003,0.0,0.0,-5.91136,-1.43789,19.529419999999995,22.735430000000004,3.95585,-10.10549,-22.27929,-2.99387,-0.00010999999999999999,-13.809520000000001,0.54532,3.9999999999999996e-05,39.57156,4.91685,9.27114,-0.70075,3.6371299999999995,-15.334190000000001,27.428970000000007,10.102310000000001,-13.06525,35.127770000000005,-5.77062,26.583439999999996,85.78151,0.00236,-52.72382999999999,75.17699000000002,0.00083,54.105349999999994,-6.678469999999999,16.62401,0.00040000000000000013,-7.37232,-10.664930000000002,-0.00094,3.1868899999999996,-0.11449999999999999,5.90347,-19.205839999999995,-2.36147,5.41333,-1.8341,-1.2785799999999998,12.277619999999999
-1.7284499999999998,0.0,0.0,-1.17198,0.0,0.0,-6.19286,-0.95845,19.22314,22.420390000000005,4.042830000000001,-9.78912,-22.337029999999995,-2.9237600000000006,2.9999999999999984e-05,-13.816809999999998,0.65504,5e-05,39.75207999999999,5.04251,9.791780000000001,-0.5444600000000002,3.54207,-15.41507,27.281199999999995,10.73384,-13.418499999999998,34.885670000000005,-5.8987300000000005,26.84355,85.85754,-0.0014600000000000001,-54.51652,75.31743000000002,-1.999999999999989e-05,54.97523,-7.5680499999999995,16.41982,-0.002959999999999999,-7.635730000000001,-10.616980000000002,0.00021999999999999998,3.6859199999999994,-0.14444000000000004,6.259380000000001,-18.694060000000004,-2.5247100000000002,5.7313,-1.9762799999999998,-1.31702,12.343560000000004
-1.7927399999999998,0.0,0.0,-1.23765,0.0,0.0,-5.94345,-0.80921,19.29228,22.329339999999995,4.403400000000001,-9.80548,-22.635229999999996,-3.2012499999999995,0.00035999999999999997,-13.819879999999998,0.7478299999999999,-1.9999999999999985e-05,39.87999,5.35561,9.736000000000002,-0.5179099999999999,3.49634,-15.23839,26.939289999999996,11.388820000000003,-13.34411,34.49667,-6.126360000000001,27.238369999999996,85.94167,0.0018199999999999998,-56.37307,75.38297,0.00055,57.709609999999984,-6.4712700000000005,15.29504,-0.003880000000000001,-8.09122,-10.74059,-0.0006499999999999999,4.154560000000001,0.26100999999999996,6.444579999999999,-18.211749999999995,-2.22027,6.05716,-2.17129,-1.33343,12.352919999999997
-1.5141899999999997,0.0,0.0,-0.93749,0.0,0.0,-5.74828,-0.44286999999999993,18.888060000000003,22.26119,4.824569999999999,-9.34007,-23.06519,-3.39211,-0.00063,-13.73514,0.50976,-3.0000000000000014e-05,40.15803,5.68336,9.61029,-0.47895,3.6645600000000003,-15.735909999999999,26.469210000000004,11.780299999999999,-13.22474,34.31324,-6.5507599999999995,27.64631,86.19982000000002,-0.00021999999999999987,-57.70311000000002,75.16192,-0.00032999999999999994,60.10625,-4.97268,14.71318,-0.00043999999999999985,-9.11745,-10.669090000000002,-0.0016499999999999996,4.611179999999999,0.22554000000000002,6.5911599999999995,-17.74967,-2.30884,6.17932,-2.3656,-1.1619199999999998,12.279869999999997
-1.2272699999999999,0.0,0.0,-1.22885,0.0,0.0,-5.51375,-0.6884599999999998,18.9576,22.28057,4.530759999999999,-9.02959,-23.637660000000004,-3.5755699999999995,0.0008699999999999999,-13.607219999999998,0.4921,0.0,40.57961,5.993429999999999,9.197019999999998,-0.50459,3.91414,-15.813889999999999,26.62881,12.236919999999998,-13.709090000000002,33.99054000000001,-6.99197,27.99916,85.82428,0.0020899999999999994,-57.72197,75.06549000000001,-0.0017099999999999997,61.69021000000001,-4.21393,14.26692,-0.0011899999999999997,-10.173069999999997,-10.6095,-0.00213,4.90158,-0.12183999999999998,6.572359999999999,-17.465729999999997,-2.62294,6.0296199999999995,-2.6951400000000003,-0.8091000000000002,12.287999999999998
-1.4452299999999998,0.0,0.0,-1.44438,0.0,0.0,-5.144159999999999,-0.05322000000000002,19.10117,22.204830000000005,4.43815,-8.838910000000002,-24.68894,-3.93511,0.00044999999999999993,-13.437759999999999,0.20534000000000002,-0.00018000000000000004,41.27841,6.488839999999998,8.82249,-0.43455999999999995,4.400729999999999,-15.898310000000002,26.994789999999995,13.074209999999999,-15.0462,33.45996999999999,-7.649359999999998,28.400220000000004,84.97828,0.0008800000000000006,-58.20235999999999,75.14132,0.0010799999999999998,63.79096,-5.31629,15.21035,-0.0071,-11.254260000000002,-10.71886,-0.0033099999999999996,5.093699999999999,-0.17388999999999996,6.432569999999998,-17.280070000000002,-2.61787,5.88039,-3.0149200000000005,-0.36669000000000007,12.23054
-1.07448,0.0,0.0,-1.4596099999999999,0.0,0.0,-4.748220000000001,0.36293000000000003,18.03864,22.15534,4.01998,-8.54571,-25.663099999999996,-3.7452899999999993,-0.00145,-13.288629999999998,-0.02756,3.0000000000000014e-05,41.55937,6.93319,9.559509999999998,-0.6329699999999998,4.703310000000001,-16.06755,27.31109,14.25839,-16.469590000000004,32.789229999999996,-8.371779999999998,28.14315,84.11525,-0.009499999999999998,-61.28743999999999,75.03970000000001,-0.0023200000000000004,61.43947,-6.255569999999999,16.13585,0.0006699999999999998,-8.961379999999998,-11.59466,-0.005740000000000001,5.6447199999999995,-0.26017,6.40494,-16.731659999999998,-2.68713,5.82193,-3.57916,-0.18335,12.44725
-0.6529500000000001,0.0,0.0,-1.63673,0.0,0.0,-4.27864,0.26549999999999996,17.765880000000003,22.232790000000005,4.247249999999999,-8.44745,-26.374449999999996,-3.6979300000000004,0.00025,-13.102359999999997,-0.16414999999999996,-8e-05,41.69455,7.30311,9.93027,-0.8608799999999998,4.843990000000001,-15.87933,27.417179999999995,15.54515,-16.75931,32.59483000000001,-9.09281,28.38422,83.14484,0.00507,-62.686809999999994,74.55376,-0.00046,60.63926,-6.355359999999999,16.06751,0.0006200000000000002,-7.64517,-11.499730000000003,-0.00447,6.143509999999999,-0.22403999999999996,6.699309999999999,-16.22049,-2.76575,6.10822,-4.052639999999999,-0.16740000000000002,12.840340000000001
-0.42985,0.0,0.0,-1.5268099999999998,0.0,0.0,-3.78323,0.7722999999999998,18.69084,22.045980000000007,4.78942,-8.39198,-27.312959999999997,-4.154599999999999,0.0009799999999999998,-12.746139999999999,-0.10088000000000001,0.00017,42.27248000000001,7.738050000000001,9.90911,-0.83948,4.8230900000000005,-15.61837,26.844419999999992,17.019859999999998,-16.62458,33.05977,-9.6539,29.660749999999997,82.76929000000001,0.00042000000000000007,-62.183670000000006,73.88264000000001,0.00582,63.69639,-7.7541699999999985,15.204130000000001,0.00466,-9.633499999999998,-10.62316,-0.005789999999999999,6.509319999999999,-0.47233999999999987,7.47244,-15.82655,-3.2893899999999996,6.729699999999999,-4.265659999999999,-0.15767,12.998489999999999
-0.06352000000000001,0.0,0.0,-1.5411199999999996,0.0,0.0,-3.281999999999999,1.06584,19.221080000000004,22.06014,4.299579999999999,-7.9132299999999995,-28.259770000000003,-4.66977,-4.999999999999996e-05,-12.55618,0.0923,-6.999999999999998e-05,42.97673000000001,8.00148,9.76596,-0.64951,4.569279999999999,-15.62076,26.10427,18.905099999999997,-16.27987,34.26603,-9.93683,31.49579,82.59715,-0.00167,-63.93721,72.56567000000001,0.0013500000000000003,66.38971,-7.5286100000000005,14.05884,-0.002250000000000001,-10.52301,-10.71681,-0.00039999999999999975,7.217759999999998,-0.8409899999999998,8.146529999999998,-15.095519999999999,-3.8864399999999995,7.21415,-4.449699999999999,-0.30629,12.7534
0.3582699999999999,0.0,0.0,-1.44788,0.0,0.0,-2.70559,1.23161,19.04308,22.293430000000004,4.395809999999999,-7.12942,-29.36638,-4.9468,-0.0008999999999999998,-12.466110000000002,0.01578,-6e-05,43.59475,8.162940000000003,9.804659999999998,-0.5578,4.27908,-16.13789,25.003209999999996,21.05893,-15.545109999999998,35.8976,-10.581710000000001,33.52946000000001,82.44646000000002,0.00045999999999999996,-63.58431,71.08391,-0.00077,67.51625999999999,-4.833119999999999,14.454860000000002,0.01007,-11.272170000000001,-9.971659999999998,-0.005890000000000001,8.288930000000002,-0.67335,8.49904,-14.002599999999997,-3.8651100000000005,7.6047699999999985,-4.77308,-0.55965,12.69723
0.42580999999999997,0.0,0.0,-1.35227,0.0,0.0,-1.78096,1.38854,19.01708,22.31763,5.35821,-6.489049999999998,-30.67958999999999,-5.118509999999999,8.999999999999988e-05,-12.127830000000001,-0.02698000000000001,0.00024,44.06279000000001,8.48225,10.320709999999998,-0.7466800000000002,3.8749599999999997,-16.6685,23.685790000000008,23.071059999999996,-14.9722,37.336490000000005,-11.40036,35.191019999999995,82.33762000000002,0.0018600000000000003,-61.91909,69.55708999999999,-0.005629999999999999,68.68787,-4.88769,14.81838,0.0029600000000000004,-11.10463,-8.64654,-0.00036999999999999983,8.83793,-0.21120000000000003,8.798580000000001,-13.4266,-3.5510099999999998,8.058099999999998,-4.991690000000001,-0.7742599999999997,13.05479
1.4092799999999999,0.0,0.0,-1.5642900000000002,0.0,0.0,-0.9905199999999998,1.121,19.638109999999998,22.1013,5.99225,-6.016990000000001,-31.597859999999994,-5.578720000000001,0.0001200000000000001,-11.31231,0.043809999999999995,-7e-05,44.25106,8.814700000000002,10.38481,-1.2295499999999997,3.4542299999999995,-16.44023,22.997380000000003,24.961079999999992,-13.98291,38.49388,-11.758649999999998,36.65322,81.27832,-0.009149999999999998,-62.75873,68.16617000000001,0.0004999999999999996,70.29951,-5.32886,15.41105,0.012699999999999998,-10.23236,-8.861640000000001,-0.005319999999999999,8.984490000000001,-0.17431999999999997,9.512130000000003,-13.2392,-3.787,8.73388,-4.95563,-1.11071,13.216740000000001
2.5317500000000006,0.0,0.0,-1.62749,0.0,0.0,-0.29775000000000007,1.36259,19.53676,21.831670000000003,6.229,-6.08081,-32.54171000000001,-5.558560000000001,-0.00217,-10.74241,0.15203999999999995,-7.999999999999999e-05,44.87073999999999,9.023329999999998,10.86026,-1.1946300000000003,3.12705,-15.552109999999999,21.56364,26.60856,-11.988709999999998,39.73485,-12.124469999999999,37.84653,80.24883,-0.0018500000000000005,-65.73011,66.8221,0.014489999999999998,74.94778,-3.4665600000000003,16.78172,0.005850000000000001,-9.96272,-8.53742,5.999999999999994e-05,9.337619999999998,-0.51823,10.17795,-12.855459999999999,-4.35705,9.22153,-4.375189999999999,-1.2954599999999998,13.402710000000003
3.2430000000000003,0.0,0.0,-0.62202,0.0,0.0,0.43608,2.2282099999999994,19.62002,21.63008,6.269399999999999,-6.424850000000001,-33.41756999999999,-5.7979400000000005,0.00139,-10.726479999999999,0.4781099999999999,-0.00025,45.17862000000001,8.9864,11.112650000000002,-1.1195199999999998,2.35952,-14.746239999999998,18.979669999999995,28.661590000000004,-10.05936,40.8094,-12.800040000000001,38.81702,80.52516,0.0036599999999999996,-68.32594,66.09346,-0.00399,78.3367,-3.3624800000000006,16.799779999999995,0.0004,-8.745470000000001,-7.97976,-0.0030899999999999994,9.59103,-0.64913,10.107220000000002,-12.61018,-4.451530000000001,9.10625,-3.818209999999999,-1.7812199999999998,13.84838
2.81906,0.0,0.0,0.54227,0.0,0.0,1.8220799999999997,1.6901799999999998,20.119949999999996,21.32593,5.8406199999999995,-6.464700000000001,-34.31471,-6.21198,-0.00069,-10.83642,0.6410499999999999,-1.0000000000000026e-05,44.85786,8.696539999999997,11.15586,-1.45345,1.38137,-14.5415,16.45827,30.669510000000002,-7.38369,41.98522,-13.767209999999999,40.59376,81.21709,-0.0008599999999999999,-71.32897,65.97207999999999,-0.00014000000000000004,78.49074999999999,-2.65201,15.978609999999996,-0.00382,-9.02081,-8.30139,0.0005699999999999999,10.18086,-0.3898499999999999,9.80796,-12.031019999999998,-4.098380000000001,8.926699999999999,-3.8578599999999996,-2.58665,13.921949999999999
3.0351999999999997,0.0,0.0,1.8466099999999999,0.0,0.0,3.2158599999999993,-0.20965999999999993,19.79239,20.904250000000005,5.696400000000001,-6.721080000000001,-35.32829000000001,-5.860529999999999,-0.0021999999999999997,-11.609940000000005,0.4041199999999999,-0.00017999999999999996,44.60316000000001,8.07608,12.01184,-1.3952000000000002,0.3124100000000001,-14.758150000000002,13.965129999999998,31.91216,-4.10407,43.06067,-15.103739999999998,43.16059,81.73000000000002,0.0008799999999999999,-74.41244000000002,66.19010999999999,-0.00539,79.82158,-0.07060000000000002,15.011389999999999,0.0019199999999999994,-10.48999,-9.18345,-0.0017099999999999993,10.72297,-0.11408000000000003,9.726720000000002,-11.486550000000001,-3.8123699999999996,8.9558,-3.6620499999999994,-3.5754599999999996,13.68035
5.311069999999999,0.0,0.0,2.81173,0.0,0.0,3.8254700000000006,-0.57659,19.478879999999997,20.57877,5.313570000000001,-7.824089999999998,-36.23667,-6.050489999999999,0.0014899999999999998,-13.369349999999997,0.07163,-0.0033700000000000006,44.51650000000001,7.68777,11.89452,-0.82322,-0.2314,-14.366669999999997,11.395960000000002,33.313230000000004,-1.85219,43.45793,-16.91218,45.28207999999999,82.30571,0.0013,-76.04097,67.23739999999998,-0.0030500000000000006,80.56902000000001,0.19512000000000013,14.409649999999996,0.002660000000000001,-10.563960000000002,-10.35405,-0.0060799999999999995,10.74214,0.57367,9.270019999999999,-11.4789,-3.0030000000000006,8.792750000000002,-2.88524,-4.45956,13.616789999999998
7.0470299999999995,0.0,0.0,3.8363299999999994,0.0,0.0,4.618979999999999,0.15892999999999993,20.136089999999996,19.97288,4.908229999999999,-9.794279999999999,-36.94691,-7.001739999999998,0.00111,-16.224709999999998,-0.6136799999999999,0.004799999999999999,44.00471000000001,7.45918,10.698689999999997,-0.10068000000000005,-0.11905999999999999,-13.258339999999997,10.513130000000002,34.46323000000001,-1.3275399999999997,43.428,-19.61849,46.91622999999999,81.20352999999999,-0.030880000000000005,-80.54031,69.56307,0.0227,78.38549,-3.9206299999999996,15.72504,-0.03497,-10.32882,-9.52025,0.0025599999999999998,10.292580000000001,0.9695799999999999,8.2042,-11.981059999999998,-2.23307,7.95538,-2.37396,-4.9036,13.60691
8.578889999999998,0.0,0.0,4.320860000000001,0.0,0.0,5.453340000000001,0.91552,20.01739,18.910510000000002,5.310069999999999,-11.566860000000002,-37.529030000000006,-7.08712,-0.00111,-21.34686,-1.4870199999999998,0.00259,43.39739,7.108839999999999,10.509019999999998,1.7913199999999998,0.10111,-12.238850000000001,9.96802,34.46974,-1.7578800000000003,43.10391,-22.94374,48.27184,79.89408999999999,0.005189999999999999,-84.20846,72.09721,0.0007200000000000019,75.93569999999998,-8.595400000000001,15.678210000000002,0.013890000000000001,-9.474930000000002,-8.92257,0.00647,9.205309999999999,0.8701200000000001,6.99484,-13.12915,-1.8661499999999998,6.798159999999999,-1.6569599999999995,-4.73331,13.510830000000002
10.205819999999997,0.0,0.0,5.1199200000000005,0.0,0.0,6.35773,0.77572,18.828389999999995,16.37932,4.83675,-13.813290000000002,-37.95883,-6.33291,-0.0002200000000000001,-29.404450000000004,-1.6507899999999998,0.00563,42.607569999999996,6.66264,10.9529,5.21362,0.20525999999999997,-10.60482,8.958909999999998,34.0698,-2.23694,42.60367000000001,-26.214909999999996,49.563469999999995,80.14120000000001,0.00466,-86.00214000000003,74.19569,-0.03389,78.07708000000001,-9.18335,13.311960000000001,-0.00976,-9.023550000000002,-9.87959,-0.014899999999999997,8.175309999999998,0.88519,6.363870000000001,-14.186349999999997,-1.61232,6.220109999999998,-0.8859299999999999,-4.36096,12.978680000000002
11.31023,0.0,0.0,5.29362,0.0,0.0,6.88755,0.7642300000000001,17.238040000000005,11.66384,3.7220899999999997,-15.696970000000002,-37.941919999999996,-6.1145499999999995,0.00021000000000000006,-39.45471,-1.29841,0.004259999999999999,41.17335,6.230829999999999,10.85315,9.58378,0.19982,-9.413509999999999,8.692580000000001,33.242720000000006,-3.41238,41.85119000000001,-29.5265,50.41538999999999,80.67884,-0.0006700000000000001,-87.71133,75.7975,0.01279,79.12224000000002,-10.11663,12.091370000000001,0.0027399999999999994,-6.680439999999999,-12.301269999999999,-0.03366,7.42984,0.9939299999999998,5.696230000000001,-14.957199999999997,-1.25766,5.644030000000002,-0.73807,-3.9388300000000003,11.875070000000001
12.899239999999999,0.0,0.0,0.8024,0.0,0.0,7.025019999999999,0.8183000000000002,15.556029999999996,7.657389999999999,2.4706899999999994,-16.28279,-37.11133,-6.695389999999998,-0.00211,-50.39310999999999,0.00021999999999994246,-0.026409999999999996,39.26265,5.9262,10.22822,14.740360000000003,-0.18814999999999998,-9.034279999999999,8.40969,31.8959,-4.92234,40.5416,-32.77676999999999,51.09807,81.9603,-0.00211,-88.92845999999999,77.88687,-0.00344,77.57779,-10.87503,12.074609999999998,0.00483,-6.986269999999999,-12.557229999999997,-0.012950000000000003,6.517149999999999,1.2196099999999999,4.786260000000002,-15.900369999999999,-0.7022799999999999,4.888790000000001,-0.57632,-3.3948199999999997,10.39339
13.803610000000003,0.0,0.0,-2.8221700000000003,0.0,0.0,7.435309999999999,0.59206,14.452509999999997,7.641730000000001,1.12786,-15.940340000000003,-36.66399,-7.296299999999999,6.000000000000001e-05,-62.06470999999999,1.4863299999999997,-0.001170000000000001,37.37393999999999,6.09774,8.973280000000003,20.32761,-0.14046,-9.07049,8.29112,30.52035,-7.30894,38.95922,-35.56264,51.37896,83.89693999999999,0.010029999999999999,-90.31403000000002,80.62492,-0.01893,78.85615000000001,-11.541119999999996,13.270359999999997,-0.006530000000000001,-7.497959999999999,-11.23326,0.007080000000000001,5.63597,1.6678899999999999,4.403810000000002,-16.792540000000002,-0.14206000000000002,4.70635,-0.7154600000000002,-2.3856900000000003,8.829719999999998
12.83972,0.0,0.0,-2.8723499999999995,0.0,0.0,7.93764,0.5931500000000001,12.83366,9.74032,0.67608,-14.814700000000004,-37.08798999999999,-7.01072,-0.00065,-74.02615,2.1357299999999997,0.009920000000000002,35.5693,6.843629999999999,8.000310000000002,26.093899999999998,0.33854000000000006,-10.20991,9.3215,29.594519999999996,-11.40917,37.777170000000005,-38.382810000000006,51.30246000000001,85.70574000000002,-0.0015300000000000005,-91.33855,83.74320000000002,0.025959999999999993,78.87684,-12.128349999999996,14.119859999999996,0.005429999999999999,-7.26433,-10.253190000000002,0.0011600000000000004,5.33005,1.9431500000000002,4.17888,-17.105499999999996,0.19816000000000003,4.603589999999999,-1.76812,-0.7495400000000001,7.386569999999999
14.186640000000002,0.0,0.0,-3.38718,0.0,0.0,7.56671,0.35457000000000005,10.43753,11.680680000000002,1.5924499999999997,-13.90617,-36.913360000000004,-5.899219999999998,0.0015500000000000002,-85.61135,2.60427,0.020229999999999998,33.82357999999999,7.068619999999999,8.13984,32.88032,0.027880000000000012,-11.386710000000003,10.93331,28.604109999999995,-14.93555,37.40323,-40.97117,51.19163,88.07431,-0.005290000000000001,-90.81619000000002,86.65026,-0.007319999999999997,78.05578,-8.465589999999999,14.633589999999996,0.004750000000000001,-8.553419999999997,-9.650130000000003,-4.000000000000016e-05,5.37665,1.5179,4.32805,-17.054409999999997,-0.2518099999999999,4.579130000000001,-3.0788,0.58941,5.70961
17.388170000000002,0.0,0.0,-3.5401099999999994,0.0,0.0,6.89189,0.17433999999999994,9.238139999999998,13.11251,1.50536,-12.63418,-36.25613,-5.16262,-0.00057,-96.20531,3.46372,-0.014919999999999992,32.38985,7.242629999999998,7.652339999999999,40.97897,-0.36335000000000006,-11.482100000000003,11.992779999999996,27.35695,-17.91957,37.85611999999999,-42.68411,51.34123,90.72991999999999,-0.006409999999999999,-90.43717000000001,89.22095000000002,0.004299999999999998,78.56248,-7.667699999999999,15.920289999999998,-0.017799999999999996,-8.294449999999998,-9.302030000000002,0.00355,5.413090000000001,1.37804,4.432549999999998,-17.015060000000002,-0.4209500000000001,4.62233,-4.10395,1.73615,4.31815
18.10063,0.0,0.0,-1.3872499999999999,0.0,0.0,7.0529399999999995,0.02190000000000003,8.82491,14.362199999999998,0.27064,-9.565339999999999,-36.27074000000002,-4.6637,-0.0019799999999999996,-105.64951999999997,5.6424,-0.04046999999999999,31.0519,7.716470000000001,6.979159999999999,49.541929999999994,-0.8948199999999997,-10.08512,12.929990000000004,26.25047,-20.322099999999995,38.2336,-44.09502,50.70641,92.70428000000001,0.008989999999999996,-91.03540999999998,92.19738000000001,0.0072499999999999995,78.07656000000003,-8.7239,18.049740000000003,0.004999999999999999,-6.31752,-9.279539999999999,4.0000000000000105e-05,5.878069999999999,1.45475,4.2743,-16.554719999999996,-0.28968,4.5053600000000005,-5.56191,2.95266,3.2946499999999994
17.334829999999997,0.0,0.0,0.73019,0.0,0.0,7.719809999999999,-0.6223399999999999,8.90674,16.08495,1.4104,-7.953339999999999,-36.36706999999999,-4.24939,0.0004099999999999998,-113.36043999999998,6.29516,0.024640000000000002,28.885910000000003,8.378989999999998,5.838230000000001,57.86825,-1.38437,-10.1239,13.77322,25.421299999999995,-22.08528,38.87727,-45.28762,49.7219,95.63669999999999,0.014180000000000002,-93.45097,94.63366000000003,-0.00169,79.23578000000002,-7.94485,16.78952,-0.00208,-5.93872,-10.35206,-0.0003600000000000001,6.93202,1.5737299999999999,4.2049199999999995,-15.50268,-0.15323,4.4866600000000005,-8.02622,4.58849,2.2591000000000006
15.57564,0.0,0.0,1.5040299999999998,0.0,0.0,8.29547,-0.18703000000000003,8.39886,18.159970000000005,1.9811199999999998,-8.3166,-35.320519999999995,-3.726939999999999,0.00183,-119.09691999999998,4.97682,0.011570000000000002,25.84212,8.529120000000002,4.75103,66.34572,-2.87517,-12.18953,14.67125,25.021279999999997,-23.97709,40.74637,-45.8863,49.53067,99.22276,-0.021829999999999995,-93.86475,96.3865,-0.01029,82.60664,-7.682570000000002,14.124549999999997,0.00021,-5.624709999999999,-12.26585,-0.0169,7.914549999999998,1.90409,4.55616,-14.508969999999998,0.01819,4.93723,-10.909320000000001,6.079770000000001,0.55569
15.402829999999994,0.0,0.0,2.684840000000001,0.0,0.0,8.934369999999998,0.08281000000000001,8.25499,20.035800000000002,1.45227,-9.040009999999999,-34.21567,-3.62629,-0.00155,-122.85821,3.2372999999999994,-0.0007899999999999999,22.56575,9.25244,2.88227,74.70991,-4.564549999999999,-14.776499999999999,15.774829999999998,24.80646999999999,-26.23448,43.58288000000001,-46.51171,50.23110999999999,102.37286000000002,0.006749999999999999,-94.62370000000001,98.14569999999999,-0.0013500000000000005,85.99911000000003,-9.095930000000001,13.72931,0.0006399999999999999,-4.87088,-13.32891,0.0015199999999999992,8.065080000000002,1.64144,4.94079,-14.34575,-0.37123,5.1924600000000005,-13.89207,8.29761,-0.8751799999999998
16.646620000000006,0.0,0.0,4.5947700000000005,0.0,0.0,9.832959999999996,0.03684,8.513990000000002,21.10427,2.72118,-9.928239999999999,-34.28699999999999,-3.467129999999999,-0.00059,-124.51380000000002,1.7192699999999999,-0.0007,19.26016,10.99036,0.51666,82.20043,-5.87861,-16.76955,16.873009999999997,24.310270000000003,-27.87279,46.445989999999995,-47.28463,50.73158,105.17874999999998,0.005679999999999999,-96.85995,99.49203999999999,0.00762,86.20361,-10.167240000000003,13.385659999999998,-0.00099,-4.84091,-13.690509999999996,0.0073,7.80808,0.9899600000000001,4.926199999999998,-14.60614,-0.9679300000000001,4.93057,-17.33976,11.6488,-1.6169200000000004
15.927419999999998,0.0,0.0,3.1491399999999996,0.0,0.0,10.96704,-0.32907,8.61941,22.482300000000002,3.5869,-10.136979999999998,-34.65151,-3.0747999999999998,0.00022000000000000003,-124.15071,1.05111,-0.00265,15.54334,12.61059,-1.13073,88.79437000000001,-7.09036,-17.094619999999995,17.646880000000003,24.19536,-28.23906,49.9383,-47.36719999999999,51.624700000000004,107.59764000000001,-0.00421,-98.92188999999999,100.42396,0.00145,85.74421,-8.47871,13.740609999999998,0.006440000000000001,-7.01419,-11.407199999999998,-0.038029999999999994,7.73118,0.7652399999999999,4.690530000000001,-14.69209,-1.0858000000000003,4.62698,-21.048209999999997,14.535340000000001,-1.7792499999999998
18.19455,0.0,0.0,-2.1752600000000006,0.0,0.0,11.6182,-0.5035300000000001,8.49184,24.59239,3.84709,-10.529600000000002,-35.10317,-2.89584,-0.00069,-122.42623999999998,0.65893,-0.024709999999999996,12.217439999999996,14.20901,-2.1146400000000005,95.57951,-8.065230000000001,-16.82375,17.9439,24.749770000000005,-28.425400000000003,53.44717,-47.76138,52.582640000000005,110.35526000000002,0.0029700000000000004,-100.00287999999999,100.50721999999999,-0.0172,84.81413,-6.621139999999999,14.198669999999996,0.0009000000000000001,-8.962779999999999,-11.1266,-0.06945999999999997,7.7090700000000005,0.62633,4.37827,-14.724490000000001,-1.09507,4.2853,-24.310459999999996,16.90041,-1.3936799999999998
20.48857,0.0,0.0,-6.936440000000001,0.0,0.0,12.625639999999997,-0.16766,7.98281,24.862229999999997,3.4331999999999994,-10.95008,-35.88649,-2.9539500000000003,0.00056,-119.35061999999998,2.61975,0.014910000000000001,9.3658,16.10287,-2.18387,102.50987,-8.87852,-14.20424,17.82898000000001,25.272550000000003,-28.99183,56.59257,-48.97263000000001,53.09459,112.69897,0.00403,-100.59882000000002,99.04888,-0.02139,80.96297000000001,-5.644589999999999,15.006629999999998,0.006920000000000001,-5.621359999999999,-16.47396,-0.08912,7.343349999999999,0.12951,4.484170000000001,-15.09167,-1.59471,4.19356,-26.79019999999999,19.10658,-0.5886500000000001
20.47274,0.0,0.0,-3.3067699999999993,0.0,0.0,14.082389999999997,-0.06367,8.126580000000002,23.508760000000002,1.9367299999999998,-9.77923,-36.59725000000001,-3.3261399999999997,-0.00017999999999999993,-114.97072999999999,8.646050000000002,0.058879999999999995,6.433999999999999,17.87576,-2.41271,108.18712,-9.357410000000002,-8.088239999999999,17.81305,25.88416,-29.495,59.601500000000016,-49.88551,54.542359999999995,114.24619,-0.00392,-99.82712000000001,98.60417999999999,-0.00967,80.3559,-4.34369,16.360639999999997,0.014480000000000002,-6.6755700000000004,-15.120659999999997,-0.009730000000000006,6.3069,-0.22684999999999997,4.615269999999999,-16.128690000000002,-1.9741299999999997,4.17873,-28.766440000000003,20.850229999999996,0.5411099999999999
21.733429999999995,0.0,0.0,6.50302,0.0,0.0,15.135779999999997,-0.024679999999999997,8.76663,22.988189999999996,3.40091,-8.27319,-37.14599,-3.6184399999999997,-0.00035,-110.18347,12.647679999999998,-0.036969999999999996,2.95826,18.95087,-2.18905,112.33849999999998,-9.150579999999998,-4.662350000000001,17.388149999999996,26.219949999999997,-28.986549999999994,61.48214999999999,-50.93577,55.50758000000001,115.29898999999999,-0.0033100000000000004,-96.85985999999998,97.25225,0.043719999999999995,84.03088000000001,-3.8385799999999994,19.427959999999995,-0.020389999999999995,-9.234959999999997,-16.994059999999998,-0.08858999999999997,5.13963,-0.6348499999999999,4.402000000000001,-17.30744,-2.26981,3.8256299999999994,-30.74301,21.84888,1.73658
24.471869999999996,0.0,0.0,10.463900000000004,0.0,0.0,15.709600000000002,-0.29525999999999997,9.39337,22.955,5.170550000000001,-7.99293,-37.62175,-3.95143,1.999999999999997e-05,-104.75956999999998,12.301949999999998,-0.03778,0.4706600000000002,19.2599,-1.3939699999999997,116.75661,-8.41593,-5.6123,16.359629999999996,26.901749999999996,-28.26586,61.57797000000001,-52.72167,54.332,115.88268,0.006960000000000001,-96.01207,92.62552,-0.004030000000000001,87.08980999999999,-6.734799999999999,23.097130000000003,-0.015450000000000004,-3.45842,-29.24392,-0.25268,4.132829999999999,-0.8463999999999999,3.7320900000000004,-18.332940000000004,-2.2094500000000004,3.12523,-31.062970000000004,21.915580000000006,2.4429600000000002
26.99872,0.0,0.0,11.554080000000003,0.0,0.0,16.43407,-0.29404,9.329450000000001,22.680980000000005,5.44308,-8.44145,-38.27624999999999,-4.20018,0.0006799999999999999,-99.30771,13.910629999999998,0.03278999999999999,-1.7713999999999999,19.775370000000002,-1.4400000000000002,119.52013999999997,-8.77179,-4.68332,15.9466,27.902879999999996,-28.550100000000004,61.19686999999998,-54.72545,54.118359999999996,116.94821,-0.003629999999999999,-96.40606999999999,89.47865,-0.01817,85.48346000000001,-9.09058,23.163419999999995,0.0195,-0.43955999999999995,-31.74913,0.03923,3.137870000000001,-1.08904,2.7326299999999994,-19.34883,-2.05161,2.1083599999999993,-30.82372,22.601529999999997,2.13773
29.480940000000004,0.0,0.0,11.048200000000001,0.0,0.0,17.29034,-0.51889,8.54149,22.002919999999996,3.4264299999999994,-9.013770000000001,-39.24593,-4.055689999999999,-0.00234,-93.38417,16.081830000000004,0.01759,-4.19283,20.692829999999997,-1.34262,119.91808000000002,-9.734060000000001,-3.4636499999999995,15.973909999999997,28.37647,-28.77177,60.92967999999999,-56.99818,55.83467999999999,118.12999999999998,-0.0016300000000000004,-95.54124000000002,88.92618999999999,0.02065,85.25445000000002,-8.22953,22.35692,-0.0031999999999999997,-6.787649999999999,-21.399970000000003,-0.23427000000000003,1.9118300000000001,-1.13197,2.1591499999999995,-20.58246,-1.87194,1.56185,-30.890379999999997,23.81154,1.16065
32.59574,0.0,0.0,12.793849999999999,0.0,0.0,17.97205,-0.6975100000000001,7.55425,19.93287,0.86189,-9.995,-40.43629,-3.90877,-0.0001499999999999999,-86.24612,16.027319999999996,0.033069999999999995,-6.016919999999999,21.449989999999996,-0.43122000000000005,118.87663,-11.081660000000001,-4.125,15.56414,28.539080000000006,-28.258970000000005,60.12897,-59.759969999999996,56.8355,118.79404,0.00043999999999999996,-96.04954000000001,87.13937,-0.005369999999999997,85.17583000000002,-7.69648,22.0288,0.0007899999999999996,-12.09843,-14.603369999999998,0.06168,0.4245300000000001,-1.10301,1.25819,-22.076369999999997,-1.5004899999999999,0.7403399999999999,-30.429359999999996,24.74668,0.28463
34.0357,0.0,0.0,17.46695,0.0,0.0,18.84817,-0.74678,7.932439999999998,16.753539999999997,-2.4725800000000002,-10.578659999999998,-41.268100000000004,-4.97541,0.0009599999999999999,-77.49933999999999,12.692919999999999,-0.07117999999999998,-7.56971,21.74934,-0.7665799999999999,116.13687999999999,-12.549670000000003,-7.04588,15.366499999999998,28.8621,-28.08585,58.24628,-62.64445,56.93839,118.89881,0.0003699999999999998,-94.43273,85.08982,-0.03032,79.08221,-7.056839999999999,21.667410000000004,0.00398,-13.146649999999996,-14.612749999999998,0.018960000000000005,-0.43565,-1.2073999999999998,0.02659000000000003,-22.93871,-1.1256699999999997,-0.43750999999999995,-29.042489999999997,25.166320000000002,-1.1367
35.4817,0.0,0.0,19.632780000000004,0.0,0.0,19.19762,-1.48835,7.77262,15.129389999999999,-2.12982,-10.40854,-41.62660999999999,-5.60669,-0.0010799999999999998,-66.71124,7.23083,-0.07293,-8.91767,21.72527,-0.5249900000000001,111.07368000000001,-13.647419999999999,-11.750309999999999,16.38911,28.85134,-28.481700000000004,54.71436999999999,-65.65697,55.532729999999994,118.04897,0.0018599999999999999,-92.77541,84.20275,0.009919999999999998,76.20402,-6.91886,18.89702,0.0132,-11.837039999999998,-14.613839999999996,-0.011309999999999999,-0.5895599999999999,-1.2477,-0.9344599999999996,-23.087169999999997,-0.7951899999999998,-1.3407500000000003,-27.199459999999995,24.95262,-2.9417300000000006
36.65870999999999,0.0,0.0,13.313579999999998,0.0,0.0,19.30349,-2.5739599999999996,6.15147,16.74246,7.67609,-10.13716,-41.1449,-5.491909999999999,0.0008,-58.47418999999999,4.1697500000000005,0.03245000000000001,-10.7729,21.3542,0.3426699999999999,105.47813,-15.388649999999998,-13.601379999999999,17.55127,28.861499999999996,-28.48874,48.66263,-68.50518,51.26402999999999,116.63638,-0.00637,-93.4333,83.88017,0.010319999999999996,84.18125999999998,-8.062760000000003,18.544640000000005,-0.015290000000000002,-8.816059999999998,-13.31984,0.0032099999999999993,-1.4185499999999998,-0.9409200000000002,-2.28805,-23.898109999999996,0.005920000000000002,-2.4738700000000002,-25.223799999999997,23.976299999999995,-5.4254999999999995
36.828359999999996,0.0,0.0,13.002209999999998,0.0,0.0,19.870179999999998,-3.4103,4.08979,16.450260000000004,9.57345,-10.532419999999997,-39.66517,-5.42165,-0.00034999999999999983,-54.61596999999998,5.07013,0.022950000000000005,-13.42878,20.661470000000005,1.4281,101.39676999999998,-17.06408,-12.562189999999998,18.28586,29.062739999999998,-29.088360000000005,39.84021,-70.83834999999999,44.279939999999996,115.94618999999999,8.999999999999991e-05,-94.49548000000001,84.05072999999999,0.00066,88.53239,-10.19971,17.71473,0.03043,-6.1729,-11.11669,-0.00036999999999999924,-2.6828,-0.7747199999999999,-3.0384099999999994,-25.148629999999997,0.44628999999999996,-3.10363,-23.575970000000005,22.16562,-7.450659999999998
37.19287,0.0,0.0,18.554779999999997,0.0,0.0,21.13464,-3.31942,2.60955,15.79473,6.86774,-13.359189999999998,-38.39564,-5.637410000000001,-0.0009800000000000002,-52.08737000000001,7.9414,0.010460000000000002,-15.515590000000001,19.94605,2.25163,98.87093999999999,-18.30527,-9.67819,18.73032,28.982029999999995,-29.65193,28.690200000000004,-72.80294,34.899770000000004,115.51669,0.00586,-92.58626999999998,84.71514000000002,-0.0034799999999999996,89.61277000000001,-12.63868,15.30107,0.000979999999999999,-5.55468,-8.913249999999998,-0.00459,-3.90953,-0.69019,-3.47966,-26.365989999999996,0.6929800000000002,-3.47911,-21.998310000000004,20.25132,-8.908610000000001
37.28648,0.0,0.0,16.18822,0.0,0.0,22.302039999999998,-2.8819600000000003,1.51642,17.01473,5.07914,-15.882539999999999,-37.91526000000001,-5.294360000000001,8.999999999999999e-05,-48.83997,8.45382,-0.010090000000000002,-17.012950000000004,19.15506,3.15895,96.14714000000001,-18.9906,-7.655109999999999,19.27098,28.57491,-28.530089999999998,16.19444,-74.40909,23.343839999999997,114.93841999999998,-0.0010799999999999998,-90.63467,85.59203000000002,-0.0030600000000000007,91.07928999999999,-12.195410000000003,15.704370000000003,-0.010149999999999998,-4.83243,-8.819870000000002,-0.0035200000000000006,-4.2719,-1.23722,-4.28406,-26.704979999999995,0.49446,-4.43137,-21.609720000000003,18.722440000000002,-10.2268
34.99985000000001,0.0,0.0,10.88058,0.0,0.0,23.26969,-3.1126,0.5273,17.05443,4.39808,-16.59077,-37.623549999999994,-3.957149999999999,0.0015799999999999998,-43.41366,6.766109999999999,-0.008959999999999997,-17.35511,17.80944,3.57496,92.73985999999998,-19.11123,-7.25303,21.009940000000004,27.97831,-27.162489999999995,2.923280000000001,-75.17591999999999,9.57077,114.5189,-0.0014200000000000003,-90.39442000000001,87.0858,0.011,90.11095,-10.286010000000001,15.631110000000003,-0.00213,-3.1163700000000003,-9.04608,0.0037399999999999994,-3.0766000000000004,-1.7648199999999998,-4.25366,-25.509729999999998,-0.004800000000000002,-4.604610000000001,-22.55915,17.44227,-11.324449999999999
31.36241,0.0,0.0,3.90278,0.0,0.0,23.96981,-4.083630000000001,0.14912,15.427100000000001,6.022000000000001,-16.35331,-37.266270000000006,-2.86314,0.00040999999999999994,-35.15643000000001,5.13843,-0.012559999999999998,-16.915429999999997,16.71525,2.39339,87.66263,-19.36696999999999,-6.99142,23.692569999999996,27.39045,-26.78232,-7.3413,-74.84674,-1.9296,113.60767000000001,0.00363,-89.47748000000001,88.18802,2.000000000000092e-05,87.40006,-9.79284,16.58424,-0.00027999999999999987,-2.0739999999999994,-8.709359999999998,0.00094,-1.60702,-1.49539,-4.08062,-24.04547,0.17822,-4.341910000000001,-24.399069999999995,16.718240000000005,-13.00909
29.238420000000005,0.0,0.0,-4.52797,0.0,0.0,23.77724,-4.130659999999999,-0.04694999999999998,11.720299999999998,5.09219,-16.27929,-37.05794,-2.44645,0.00015,-24.95334,4.333209999999999,0.019779999999999992,-15.78118,15.214590000000001,1.15502,82.03455,-19.19135,-5.45821,25.98762,26.86670000000001,-26.89235,-10.195059999999998,-73.87396,-6.112499999999999,112.14545000000001,0.004570000000000001,-89.08104000000002,87.27297000000002,-0.012190000000000001,84.63526000000002,-9.877840000000003,16.829429999999995,-0.0037099999999999998,-2.1113499999999994,-9.198819999999998,0.00149,-2.07557,-0.75433,-4.31919,-24.509949999999996,0.9542200000000001,-4.279550000000001,-26.07269,15.5406,-14.75893
27.90951000000001,0.0,0.0,-8.586220000000003,0.0,0.0,23.23142,-3.2334099999999997,-0.76758,4.975499999999999,3.8771,-15.92824,-37.149849999999994,-2.181069999999999,1.999999999999999e-05,-16.011419999999998,3.68309,-0.011059999999999999,-14.01317,13.223119999999998,0.62114,77.4026,-18.885869999999997,-4.19062,27.821320000000007,26.11323,-27.278179999999992,-9.940769999999999,-72.62006999999998,-7.178920000000001,109.30339999999998,0.012629999999999999,-89.69482999999997,85.24358000000001,0.00087,84.12942000000001,-9.306610000000001,17.412689999999998,0.0051400000000000005,-3.0208399999999997,-8.76953,-0.004869999999999999,-4.418400000000001,-0.3633,-5.673930000000001,-26.812729999999995,1.8322500000000002,-5.383100000000001,-27.080929999999995,13.939800000000002,-15.95137
26.651909999999997,0.0,0.0,-4.599230000000001,0.0,0.0,22.163340000000005,-3.42263,-1.3777300000000001,0.6439900000000001,7.19998,-14.58043,-37.4935,-2.21455,8.000000000000002e-05,-12.48706,3.3804600000000002,-0.0021999999999999997,-12.655819999999999,12.052910000000004,0.23485999999999996,73.64105,-19.0822,-6.0621,29.451199999999996,25.071019999999997,-27.51208,-8.71755,-71.03526,-6.98681,104.78645999999999,-0.03816,-92.2208,83.04143000000002,0.012109999999999996,86.09311,-7.5309099999999995,19.43218,0.011199999999999998,-4.2088,-7.87722,-0.0011500000000000004,-7.24911,-0.25061,-7.089759999999999,-29.58823,2.47525,-6.650400000000001,-28.277479999999997,12.84475,-16.84731
25.062229999999996,0.0,0.0,0.8664099999999999,0.0,0.0,21.018219999999996,-3.710799999999999,-1.4282699999999997,0.58213,11.682469999999999,-14.288530000000002,-37.556250000000006,-2.33011,0.00038,-15.86563,4.526789999999999,-0.015400000000000004,-10.62425,11.000220000000002,0.65808,72.72420999999999,-19.19287,-6.097680000000001,30.73922,24.00866,-27.874709999999997,-6.583230000000001,-69.61149,-5.613419999999999,100.93917000000002,0.00022999999999999974,-95.70802999999998,80.34628,-0.0036400000000000004,88.13991000000001,-6.65476,19.339790000000004,0.0023799999999999997,-4.05277,-7.45674,0.0004100000000000002,-9.246790000000004,-0.13456999999999997,-7.387410000000001,-31.574470000000005,2.6956900000000004,-6.88187,-28.25257,11.651959999999999,-17.09919
24.67569,0.0,0.0,-0.1850799999999998,0.0,0.0,19.974480000000003,-3.5507600000000004,-0.44804,1.7123499999999998,11.717850000000002,-13.880100000000004,-37.29149,-2.72082,-0.0010999999999999998,-23.91854,4.40956,0.01941,-8.007020000000002,10.633849999999999,1.1668699999999999,73.58435,-17.569930000000006,-5.516490000000001,30.253269999999997,23.61404,-27.420819999999996,-3.82035,-68.70478999999999,-3.48572,99.37583999999998,0.010810000000000004,-96.88656999999998,77.48060999999998,-0.00038000000000000013,88.99079999999998,-7.485329999999999,18.02799,0.00022000000000000003,-4.621509999999999,-7.960029999999999,0.005810000000000001,-9.709440000000003,0.14078000000000002,-6.72642,-32.07081999999999,2.69907,-6.16504,-27.1751,11.09434,-16.19297
23.286319999999996,0.0,0.0,-5.05895,0.0,0.0,19.016490000000005,-3.2845699999999995,1.4154,3.54043,7.8655,-14.95646,-36.53003999999999,-3.231829999999999,-0.0018999999999999998,-33.86014,3.5979200000000002,-0.010610000000000001,-5.73035,10.51594,0.28758,74.24299,-15.301589999999997,-6.052149999999999,28.20101,24.188489999999998,-26.190150000000003,-0.6571200000000001,-67.89674000000002,-1.42598,99.25547999999999,0.0005299999999999999,-97.24206999999998,75.14994,-0.00422,89.84146,-9.28951,17.19414,0.013770000000000001,-5.342639999999999,-9.01475,0.00063,-8.991659999999998,0.5361400000000001,-6.1693999999999996,-31.382020000000004,2.85262,-5.498670000000001,-26.307630000000003,11.3564,-15.04185
21.73359,0.0,0.0,-7.843629999999999,0.0,0.0,17.80429,-2.2750499999999994,2.39687,5.42032,6.508989999999999,-16.50012,-35.39746,-2.61126,0.0029299999999999994,-44.62879,2.599639999999999,0.007119999999999999,-3.7443100000000005,9.66017,0.25526,74.77879000000001,-13.242869999999998,-7.07831,26.853289999999994,24.306479999999997,-25.63355,2.5511799999999996,-67.48967,0.7509399999999999,98.44953000000001,0.0059299999999999995,-96.3652,73.43001000000001,0.00362,91.52946000000001,-10.675660000000002,16.44782,0.01174,-4.987069999999999,-9.19241,0.00038,-7.8928899999999995,0.7401700000000001,-6.27326,-30.283449999999995,3.0808299999999997,-5.517000000000001,-25.40865,11.540039999999998,-14.12932
19.84129,0.0,0.0,-7.348949999999999,0.0,0.0,16.421280000000003,-1.57874,2.8351599999999997,6.389969999999999,6.274280000000001,-16.913630000000005,-34.06065,-1.47264,0.0015200000000000003,-54.88007999999999,0.9978000000000002,0.01193,-1.15879,8.807239999999998,1.82206,75.55027,-10.728480000000001,-8.4459,25.89614,24.29182,-25.726869999999998,5.05344,-67.1888,2.60011,97.09173999999999,-0.00407,-96.27961,72.11716999999999,0.004629999999999999,94.78128000000001,-12.02391,17.326860000000003,0.0009100000000000002,-5.2684299999999995,-8.831790000000002,0.0011099999999999999,-6.892159999999998,0.58028,-6.548170000000001,-29.269049999999993,3.037659999999999,-5.83252,-23.452910000000003,11.17723,-12.83817
19.96307,0.0,0.0,-7.001969999999998,0.0,0.0,14.380420000000003,-1.4117500000000003,3.8781800000000004,7.567070000000001,5.737729999999998,-17.571009999999998,-32.5931,-1.27589,-0.00247,-63.87698999999999,-0.43439000000000005,0.0038999999999999994,1.8109599999999997,8.07878,2.69304,75.84411999999999,-8.01505,-9.58907,24.179339999999996,24.77003,-25.226329999999997,7.818259999999999,-66.87764999999999,4.62173,96.43192000000002,0.0007000000000000001,-96.09174,71.0228,-0.0030199999999999997,96.35796,-15.153809999999998,18.13702,-0.00182,-5.67951,-8.70152,0.00031000000000000005,-6.3277600000000005,0.33337000000000006,-6.300030000000001,-28.70948,2.7148699999999995,-5.69691,-20.734300000000005,10.611320000000001,-11.63045
20.176800000000004,0.0,0.0,-7.957050000000001,0.0,0.0,12.336579999999998,-1.49814,4.147429999999999,9.73139,4.89113,-17.56757,-31.07345,-1.51939,0.00046999999999999993,-71.74144000000001,-1.07512,-0.0049099999999999994,4.37943,7.43509,3.18955,74.70821000000001,-5.73201,-9.9201,22.359110000000005,25.208819999999996,-24.343310000000002,11.661909999999999,-67.05779,7.64564,96.57748999999998,-0.0042499999999999994,-93.44109000000002,69.797,-0.00265,95.94013999999999,-16.422840000000004,18.551500000000004,0.00481,-5.843750000000001,-7.84093,-0.0018200000000000004,-6.01625,0.13443,-6.18039,-28.39905999999999,2.48536,-5.662000000000001,-18.29427,10.269709999999998,-10.67615
18.3361,0.0,0.0,-6.995519999999999,0.0,0.0,10.851020000000002,-1.4859299999999998,3.38358,11.02847,4.42261,-16.63432,-29.328919999999997,-1.63944,0.0009600000000000001,-79.35665,-0.73935,-0.009,6.27833,6.33362,3.7432500000000006,72.52439999999999,-4.40522,-8.494350000000003,20.897500000000004,25.240949999999998,-23.05802,15.92107,-67.30835,11.44552,96.74093999999997,0.00122,-89.74065999999999,69.23357,0.00045999999999999996,95.35579,-13.89057,17.90459,-0.00825,-5.907630000000001,-7.203179999999999,0.0011299999999999997,-6.033990000000001,0.13521999999999998,-5.87608,-28.428040000000003,2.3701899999999996,-5.38007,-16.09496,9.489520000000002,-10.727879999999999
19.802480000000003,0.0,0.0,-4.987219999999999,0.0,0.0,8.57932,-1.98149,2.6851,11.16729,4.277,-14.966999999999999,-27.53496,-2.1290199999999997,-0.0014300000000000003,-86.20094000000002,-0.005000000000000018,-0.0010700000000000004,8.38,5.11421,3.7869099999999998,69.66332999999999,-4.094669999999999,-6.87184,19.76004,25.516239999999996,-22.119459999999997,18.893009999999997,-67.15515000000002,14.172499999999996,96.80089,0.0004400000000000001,-87.67363999999999,69.59036999999998,0.0014300000000000003,94.3017,-11.905360000000002,16.29994,-0.00036999999999999983,-6.645840000000001,-7.848939999999999,0.0029999999999999996,-5.89863,0.2688499999999999,-5.47073,-28.30875,2.3392499999999994,-4.95403,-13.63678,8.28825,-11.484250000000001
19.89539,0.0,0.0,-3.07331,0.0,0.0,6.868169999999999,-2.7800899999999995,2.08464,10.82141,4.655939999999999,-13.9718,-26.640589999999996,-3.13346,6.0000000000000076e-05,-91.35432,0.6264900000000001,0.006729999999999999,11.246120000000001,4.91296,4.97011,66.01036,-3.8113499999999996,-6.386699999999998,18.676359999999995,26.333820000000006,-21.84828,22.314,-66.53281,16.58703,96.98955999999998,-0.0005,-85.47479000000001,69.15742,0.00152,93.29943000000002,-11.658620000000003,16.25159,0.00099,-7.860179999999998,-7.68657,-0.0022699999999999994,-5.623549999999999,0.5881099999999999,-5.14593,-28.049110000000002,2.51052,-4.53166,-11.127330000000002,7.153339999999999,-11.45794
18.151410000000002,0.0,0.0,-2.17772,0.0,0.0,6.491100000000001,-1.6472899999999997,1.5349599999999999,9.73406,2.9765,-14.7879,-26.09887,-4.17347,-0.0008300000000000001,-95.17893000000001,1.68477,-0.006410000000000001,13.523509999999998,4.80125,6.766670000000001,61.27382,-3.1048799999999996,-5.685419999999999,17.67239,27.14895,-21.729929999999992,25.3923,-66.04432,18.284299999999998,97.28438999999999,0.0012599999999999998,-84.47533,68.94362999999998,-0.006819999999999998,94.48387999999998,-11.26328,16.80689,-0.0006100000000000001,-8.503900000000002,-7.366079999999999,-0.0012999999999999997,-5.488660000000001,0.76692,-4.814580000000001,-27.926850000000005,2.5493799999999998,-4.156810000000001,-9.26981,5.93763,-11.054439999999998
19.07847,0.0,0.0,-1.5173499999999998,0.0,0.0,6.0589699999999995,-1.7298299999999998,0.99047,8.50945,0.35879999999999995,-15.855130000000006,-25.746029999999998,-4.119379999999999,0.00062,-97.29674,3.3753199999999994,-0.0007600000000000002,15.118919999999996,4.201019999999999,8.757800000000001,55.04635,-2.2861600000000006,-4.34547,16.951030000000003,27.674649999999996,-21.56633,26.811169999999997,-66.06868999999999,18.402100000000004,97.37293999999999,-0.00044000000000000007,-85.85221,69.73887,-0.002880000000000001,95.95158999999998,-10.75411,16.701079999999997,-0.0037799999999999995,-7.67086,-6.360709999999999,0.004550000000000001,-5.55125,0.9826399999999997,-4.730719999999998,-27.995509999999996,2.71676,-3.9967899999999994,-8.007750000000001,4.829750000000001,-10.586870000000001
21.187100000000004,0.0,0.0,-1.1559499999999998,0.0,0.0,5.2383,-2.8381700000000003,1.5622799999999997,8.452229999999998,-0.031100000000000013,-17.7424,-25.606010000000005,-3.8906499999999995,-0.0009299999999999999,-97.43747000000003,3.39237,-0.0027899999999999995,16.924239999999998,3.4068900000000006,10.528270000000003,48.35696,-1.4704400000000002,-4.33869,16.46313,27.97173,-21.539449999999995,28.380889999999997,-66.47169,18.91016,97.04062999999996,-0.0021700000000000005,-88.40315000000001,70.54876999999999,0.00536,92.62074,-11.03228,16.853749999999998,-0.00997,-6.88729,-6.0287999999999995,0.0034599999999999995,-5.55741,1.3111,-4.813810000000001,-28.005780000000005,3.05205,-3.9481,-6.5645500000000006,3.70204,-9.718200000000001
19.52301,0.0,0.0,-2.2552900000000005,0.0,0.0,4.946540000000001,-2.4660899999999994,3.4887400000000004,9.0941,0.07804,-19.176579999999998,-25.5216,-4.84108,-0.00121,-95.67831000000001,3.63739,0.010569999999999998,19.06048,2.4210200000000004,10.831450000000002,42.10369000000001,-0.9395800000000001,-3.7980099999999997,16.45184,27.913290000000003,-22.34142,30.842450000000007,-66.89998,20.57044,96.72802999999996,-4.0000000000000024e-05,-90.48364000000001,71.20992,0.0009599999999999999,88.14411,-13.58008,15.2942,0.03307999999999999,-7.437199999999997,-6.916699999999999,0.0025900000000000003,-5.348280000000001,1.53443,-4.855880000000001,-27.800270000000005,3.2745100000000003,-3.90161,-4.76927,2.07253,-8.43242
16.50248,0.0,0.0,-2.5021699999999996,0.0,0.0,5.802249999999999,-1.7890799999999998,3.89124,9.18972,0.38244,-20.03411,-26.103779999999993,-5.752870000000001,0.00019,-91.98062,4.500029999999999,0.01702,20.69657,1.9948100000000002,11.239109999999998,35.17323,-0.27335,-2.7725799999999996,16.486959999999996,27.72605,-23.37662,32.98852,-67.19202,22.057549999999996,96.75894000000001,0.00121,-91.89547999999999,71.89288,0.00114,84.51754999999999,-17.230019999999996,12.80756,0.008830000000000001,-7.209509999999999,-6.7785199999999985,-0.0011099999999999999,-5.3474699999999995,1.54123,-4.29968,-27.813129999999997,3.0683900000000004,-3.3843899999999993,-3.6856099999999996,0.6150000000000001,-6.891909999999999
15.131629999999998,0.0,0.0,-1.5471399999999997,0.0,0.0,6.70603,-0.6109,5.2654499999999995,9.04498,0.5164099999999999,-20.79864,-27.167190000000005,-6.890900000000002,0.00139,-86.14252,3.2651,-0.01085,22.61777,2.23248,11.516220000000004,28.489200000000004,0.66744,-3.3619499999999993,15.96529,27.71204,-23.42988,35.1744,-67.24667,23.407199999999996,97.03117,-0.00349,-92.02573000000001,72.40891,-0.002,83.02065,-17.00886,12.320479999999996,-0.00951,-8.01275,-5.55739,-0.0047599999999999995,-5.7348,1.55951,-3.42862,-28.218160000000005,2.7524200000000008,-2.57174,-2.5082499999999994,-0.67594,-4.6522
16.51137,0.0,0.0,0.6130799999999998,0.0,0.0,6.77379,0.38747,7.333029999999999,9.20696,0.61386,-22.03885,-28.123879999999996,-8.154360000000002,-0.00133,-78.38335000000001,0.3604399999999999,-0.04231,24.59227999999999,2.8016299999999994,11.976019999999998,22.50461,1.56471,-5.093210000000001,14.845780000000001,27.7166,-22.277490000000004,38.99176,-66.83709,26.0315,97.50877,-0.00366,-89.49896000000001,72.39523,0.00299,84.78429,-14.948590000000001,13.84342,0.020019999999999996,-8.81816,-5.0006900000000005,0.00521,-5.835179999999999,2.0428299999999995,-2.86707,-28.33614,2.9842500000000003,-1.8673899999999999,-1.35178,-1.9452999999999996,-1.9798200000000001
17.68882,0.0,0.0,1.5972399999999998,0.0,0.0,7.062250000000001,-0.05184999999999999,9.124389999999998,10.30156,0.99428,-23.48826,-29.183340000000005,-9.070099999999998,0.00101,-69.14353999999999,-1.8951099999999999,-0.0024700000000000017,26.65656,3.2982500000000003,12.643529999999998,17.050809999999995,2.0958899999999994,-6.22861,13.869489999999999,27.73304,-20.47694,43.0301,-66.02839,28.81456,97.62226,0.002149999999999999,-88.04738,72.38776000000001,-0.0018699999999999997,87.66765000000001,-13.242169999999998,16.430840000000003,0.00582,-8.96414,-4.267340000000001,0.00021000000000000012,-5.50912,2.2973999999999997,-2.5397499999999997,-28.01891,3.09424,-1.4672,-0.24811999999999998,-3.2150100000000004,0.55796
16.26834,0.0,0.0,2.5753099999999995,0.0,0.0,7.82067,0.3127,10.8574,10.665700000000001,1.7193899999999998,-23.746390000000005,-30.294410000000006,-10.141899999999998,0.00014000000000000004,-58.77713,-1.66491,0.04246999999999999,29.069289999999995,3.4890600000000003,13.056310000000003,12.159929999999994,1.51042,-6.045799999999999,13.522860000000001,27.59953000000001,-19.636000000000006,45.570080000000004,-65.41356999999999,30.484070000000003,97.99963,0.00789,-90.12976,73.10641000000001,0.0029999999999999996,87.98027000000002,-14.404210000000003,16.12945,0.005270000000000001,-10.363170000000002,-2.55544,-0.0076700000000000015,-5.07937,2.1821,-2.0167,-27.591249999999995,2.7876199999999995,-1.0279499999999997,1.0268800000000002,-4.688749999999999,2.80834
15.221819999999997,0.0,0.0,2.9458,0.0,0.0,8.114600000000001,1.30229,11.767809999999999,10.137130000000003,1.8064899999999997,-22.5764,-31.438840000000006,-10.66905,-0.0024300000000000003,-47.68327000000001,-0.7525300000000003,-0.006329999999999997,31.36383,3.1844200000000003,13.84235,7.57987,0.015000000000000069,-6.69028,13.55247,27.42436,-19.00266,46.93623000000001,-65.0895,30.797450000000005,98.70647999999998,-0.0027199999999999998,-90.78869999999999,73.81445,0.0007800000000000001,86.41522000000002,-12.813549999999998,15.187809999999999,0.013569999999999999,-11.18535,-1.8084899999999997,0.0018999999999999998,-4.64914,2.43393,-1.56093,-27.168110000000002,2.84586,-0.5102,1.8437100000000002,-6.496149999999998,4.92087
15.09421,0.0,0.0,4.92522,0.0,0.0,8.021269999999998,1.8206099999999998,12.505779999999998,11.573799999999999,1.39173,-21.23373,-32.44899,-11.446,0.0009699999999999998,-37.29384,-0.46798999999999996,-0.009840000000000002,33.56941,3.2313200000000006,14.3568,3.77644,-1.1821,-8.91347,13.07315,27.40726,-17.562120000000004,48.44380999999999,-63.772769999999994,30.675950000000004,99.47467,0.0004200000000000001,-89.24494,73.87041000000002,-0.0024300000000000003,85.18505000000002,-9.65551,16.36796,0.009679999999999998,-10.420650000000002,-3.61716,-0.00431,-4.25906,2.6931199999999995,-0.9187699999999999,-26.78365999999999,2.8395700000000006,0.18251999999999996,2.5149200000000005,-8.289390000000001,6.429490000000001
16.21408,0.0,0.0,6.44834,0.0,0.0,7.9624299999999995,1.98433,13.517969999999998,16.044799999999995,1.08416,-22.14025,-34.04454,-12.368819999999998,0.00375,-29.985370000000003,0.20537000000000002,0.008279999999999997,35.91751,4.277969999999999,14.54557,1.16454,-1.4539500000000003,-10.458810000000001,12.319949999999999,27.52341,-16.093580000000003,50.03487,-61.62013000000002,30.922489999999996,100.68608,0.0017499999999999998,-88.74303,74.42830999999998,0.0011700000000000002,84.34752,-9.541820000000001,16.1594,-0.00429,-10.439030000000002,-4.07307,-0.00612,-3.60778,2.64155,-0.021589999999999998,-26.127939999999995,2.4486299999999996,0.9914799999999999,3.05617,-9.257829999999998,7.595490000000002
17.090970000000002,0.0,0.0,4.9908,0.0,0.0,8.171,1.7601999999999998,14.126159999999995,20.415780000000005,0.03821000000000002,-23.484970000000004,-36.533159999999995,-12.261229999999998,-0.00335,-25.164680000000004,0.71544,-0.0047599999999999995,38.37962,5.85678,14.994089999999998,-0.5916899999999999,-0.8728100000000001,-11.407410000000002,11.79467,27.312499999999996,-15.026879999999998,51.05044999999999,-59.775119999999994,31.001780000000004,101.77756,-0.00396,-87.47628999999999,75.72284,-0.00302,83.94308000000001,-8.4043,15.085959999999996,-0.00231,-12.173770000000001,-3.3386699999999996,0.004639999999999999,-2.7569800000000004,2.41366,0.59241,-25.2687,2.0032199999999993,1.47123,3.13831,-9.306179999999998,9.133539999999998
18.028360000000003,0.0,0.0,5.04687,0.0,0.0,8.03444,0.9380999999999999,14.328719999999997,23.39293,-1.06417,-23.34423,-38.891859999999994,-11.191850000000002,-0.0038999999999999994,-21.216009999999997,0.80356,-0.0016,40.73628,7.00825,15.58238,-1.70541,-0.13908,-13.065239999999996,11.571989999999998,27.233879999999996,-14.263139999999996,51.92987999999999,-57.789919999999995,30.814150000000005,102.28779,0.002,-86.60817,76.62751,0.001609999999999999,83.34245,-6.646749999999999,16.49338,0.0007400000000000005,-12.5178,-4.993709999999999,-0.0057399999999999994,-1.6631300000000002,2.81889,1.22141,-24.17273,2.1370100000000005,2.2073100000000005,2.8533100000000005,-9.38524,10.11992
18.76304,0.0,0.0,5.35636,0.0,0.0,7.01151,1.19964,14.69631,25.93665,-1.8798,-22.100869999999997,-40.55953,-10.26837,0.0012999999999999997,-19.58078,1.2490099999999997,0.00041,42.79823,8.169879999999997,15.968700000000002,-1.7885900000000003,0.3767899999999999,-13.992380000000004,11.622799999999998,27.141560000000002,-14.21546,52.52955999999999,-55.806099999999994,30.604,103.16729999999997,0.004570000000000001,-87.79087,77.84544,0.009450000000000002,81.50220999999999,-9.22376,17.09782,0.03747,-10.191659999999999,-8.5666,-0.029540000000000004,-0.45763,3.1444899999999993,2.16507,-22.95476,2.07712,3.2032299999999996,2.33862,-9.40041,10.424509999999996
17.83011,0.0,0.0,4.5683,0.0,0.0,6.194769999999999,1.9592499999999997,16.26336,27.738599999999998,-1.27799,-19.252939999999995,-41.453010000000006,-10.108889999999997,0.0015400000000000004,-20.574460000000002,1.43381,0.00187,44.26196,9.651169999999999,14.825879999999998,-1.11532,1.08393,-14.725609999999996,11.629770000000002,26.788979999999995,-14.466919999999998,52.649530000000006,-53.68167,30.446929999999995,104.31333,-0.0034799999999999996,-87.23006999999998,79.69395000000002,-0.01311,81.66357000000002,-12.38766,16.34209,0.03817999999999999,-9.158689999999998,-8.597280000000001,-0.011659999999999998,0.8979799999999997,2.99142,2.941839999999999,-21.578920000000004,1.63901,3.86172,1.43805,-8.61505,10.45297
14.458700000000002,0.0,0.0,3.9898599999999997,0.0,0.0,6.30197,1.79407,18.21298,28.396830000000005,-0.5654499999999999,-16.01002,-41.84583000000001,-9.77673,-0.0007499999999999998,-22.463030000000003,1.6085800000000001,-0.0022699999999999994,45.27297,10.71969,13.030889999999998,-0.11538000000000004,1.76627,-15.982510000000005,11.193560000000003,26.08057999999999,-14.286680000000002,52.347660000000005,-50.75274,30.156609999999993,105.06360999999998,-0.00049,-85.42827,81.88239,-0.0038399999999999992,82.93263,-10.599009999999998,18.22954,0.0344,-10.79906,-5.977499999999999,-0.00511,2.1880300000000004,2.89077,4.01211,-20.256970000000003,1.1376300000000001,4.81132,0.032169999999999976,-7.416780000000001,10.17982
8.969940000000001,0.0,0.0,2.8762099999999995,0.0,0.0,6.49043,1.46035,18.96749,28.594959999999997,-0.47346000000000005,-14.341689999999996,-41.959520000000005,-8.817280000000002,-0.00031999999999999997,-23.807830000000003,2.40133,-0.0003200000000000001,46.16993000000001,11.62494,12.37022,0.8697600000000001,2.34882,-16.207349999999998,11.03836,25.09113,-15.04875,51.10498,-48.076559999999986,29.544959999999996,106.15256000000001,0.00564,-85.71866000000001,84.12560000000002,0.01799,82.25605,-11.069509999999998,16.85854,0.02678,-11.27542,-6.13204,0.00352,3.17368,2.83175,4.76639,-19.24504,0.7956100000000002,5.48523,-1.17196,-6.34019,10.02677
6.815449999999999,0.0,0.0,1.9152999999999998,0.0,0.0,5.52951,1.44012,19.104559999999996,28.482619999999997,-0.48407,-14.05867,-41.59550000000001,-8.51715,-0.00033,-23.610030000000002,3.0084,0.0019099999999999998,46.54807000000001,12.674340000000003,11.84909,0.9775099999999999,3.3118700000000003,-15.860219999999998,10.91012,23.86891,-15.566829999999998,48.30825000000001,-45.77613,28.42794,106.4281,0.00011999999999999996,-86.53729,86.62675,-0.016619999999999996,81.08743000000001,-10.4025,14.42556,-0.00895,-10.20949,-7.75096,-0.00795,3.59746,2.81801,5.257630000000001,-18.80248,0.59587,5.93362,-2.11865,-5.6362,9.892069999999999
6.447400000000001,0.0,0.0,0.73057,0.0,0.0,4.57538,0.49600000000000005,19.47079,28.257409999999993,-0.92247,-13.967690000000001,-40.76401,-8.429039999999999,-0.00043999999999999996,-22.36623,2.5517800000000004,-0.00229,46.05435,13.716339999999999,11.42825,0.26184,4.788389999999999,-15.5974,10.114170000000001,22.699479999999998,-15.21538,44.21430999999999,-42.69492,26.9043,106.28177,-0.00135,-86.80162000000001,89.32425000000002,-0.007130000000000001,81.82636000000001,-7.68732,13.383299999999998,-0.00301,-9.632170000000002,-8.07971,-0.00889,3.3363499999999995,3.067099999999999,5.36154,-19.060559999999995,0.7866200000000002,6.124489999999999,-3.1146800000000003,-5.26669,9.64989
6.306979999999999,0.0,0.0,0.8000699999999998,0.0,0.0,3.41382,-0.53982,20.139179999999996,27.545019999999997,-0.9140100000000002,-14.24681,-39.48293,-8.25307,-0.0009500000000000001,-21.12353,1.5730999999999997,-0.00052,45.54648999999999,14.64649,11.02952,0.015159999999999986,6.359359999999999,-14.727639999999997,9.162490000000002,21.516360000000002,-15.582649999999997,40.10931,-39.31045999999999,26.20934,105.99116999999998,-0.0028799999999999997,-87.92739,92.00076000000001,0.04560000000000001,77.52324,-7.019549999999999,13.61891,0.0009299999999999999,-10.70288,-6.59075,-0.0029600000000000013,2.8781100000000004,3.30354,5.3341,-19.521350000000005,1.01567,6.189259999999999,-3.6687000000000003,-5.00239,9.68844
4.58626,0.0,0.0,1.4125800000000002,0.0,0.0,2.0326199999999996,-0.54205,20.31027,26.58266,-0.18708,-14.361520000000002,-38.06883,-7.5724,0.00092,-20.310579999999998,0.7015499999999999,0.00028,45.41259999999999,14.976429999999999,11.412440000000002,0.5242499999999999,7.177240000000001,-14.06435,8.8909,20.448360000000005,-17.06845,36.38743000000001,-36.2717,25.311,105.40698,0.0024100000000000002,-87.29836,93.81281,-0.01972,76.48854,-6.455559999999998,14.696619999999998,0.0015300000000000001,-10.330570000000002,-5.28593,0.0026600000000000005,3.2091199999999995,3.5100399999999996,5.135970000000001,-19.20003,1.28196,6.085090000000001,-3.8422200000000006,-5.27471,10.126469999999998
2.2529600000000003,0.0,0.0,0.7464499999999998,0.0,0.0,0.74581,-0.26707,20.445099999999996,25.79832,0.2108,-14.284149999999997,-36.266529999999996,-6.821160000000001,-0.00054,-19.668640000000003,0.26677000000000006,0.0003600000000000001,45.101569999999995,14.6237,12.022320000000002,1.1715299999999997,7.147069999999999,-13.69097,8.837520000000001,19.30752,-18.50483,32.69407,-32.72307,24.601040000000005,105.11549999999998,-0.001,-86.09906,94.60498,-0.004420000000000001,81.50480000000002,-6.36508,14.958839999999999,-0.0035499999999999998,-10.286729999999999,-5.0533399999999995,-0.0015899999999999998,4.0943000000000005,3.983949999999999,4.7413,-18.335599999999996,1.8702400000000001,5.901699999999998,-3.80997,-6.0357,10.543480000000002
1.14798,0.0,0.0,0.09157,0.0,0.0,-0.50906,-0.8959399999999997,20.70972,25.06292,0.8190899999999999,-13.790120000000002,-33.97742000000001,-6.18719,0.00147,-18.89205,0.19351999999999997,-0.00021000000000000006,44.42394999999999,13.88456,12.412589999999998,1.5612200000000003,6.640179999999998,-13.62101,8.56398,18.376169999999995,-19.99433,28.483719999999998,-28.93598,23.593089999999993,105.16407000000001,0.0004799999999999998,-87.24666000000002,95.09493,0.00471,83.80585,-7.86932,14.345609999999997,0.0029,-9.49412,-4.97449,0.0021399999999999995,4.803390000000001,4.194629999999999,4.730620000000001,-17.629689999999997,2.06905,5.97228,-3.5939500000000004,-6.8223,10.805670000000001
0.4672799999999999,0.0,0.0,-0.32943,0.0,0.0,-1.4558599999999997,-1.5160099999999996,20.63188,24.21698,0.91848,-13.117190000000003,-32.00807999999999,-5.5908299999999995,-0.0005099999999999999,-17.79672,0.30139999999999995,0.00042000000000000007,43.629920000000006,13.345429999999997,13.001149999999996,1.43839,6.30511,-13.65203,8.14772,17.701929999999997,-21.494049999999994,24.43769,-25.347989999999992,22.567450000000004,105.51226,0.00459,-90.95235,95.39293999999998,0.00045999999999999996,83.84441999999999,-8.88263,12.356570000000001,-0.0010799999999999996,-7.87956,-3.8251499999999994,0.00347,5.440430000000001,3.8529100000000005,5.0937,-16.97375,1.6150099999999998,6.176840000000002,-3.4937299999999993,-7.23916,10.941180000000001
-0.06851999999999998,0.0,0.0,-0.61144,0.0,0.0,-2.07482,-1.9148999999999998,21.075090000000003,23.608330000000002,0.93988,-13.239999999999998,-30.38919,-5.24929,-0.00046000000000000007,-16.77732,0.51266,-2.0000000000000025e-05,42.90427999999999,12.891220000000002,13.01404,1.06131,6.227609999999999,-13.490169999999999,7.79367,17.18199,-22.945529999999998,21.254909999999995,-22.112820000000003,22.374480000000002,105.78225999999998,-0.0010399999999999993,-93.18449,95.42628,8.000000000000002e-05,83.02782,-9.372870000000002,11.94885,-0.005159999999999999,-7.21416,-3.5276299999999994,0.00156,6.466829999999998,3.56594,5.273199999999999,-15.937170000000002,1.28143,6.23306,-3.7766500000000005,-7.22813,11.07695
-0.014850000000000002,0.0,0.0,-0.9407100000000002,0.0,0.0,-2.8549999999999995,-2.6278399999999995,22.064960000000003,23.30585,1.00202,-13.54582,-28.75629,-4.98471,0.00024000000000000003,-16.01902,0.7764099999999999,0.00041,42.57391,12.167259999999997,12.41282,1.00305,6.12479,-13.546419999999998,7.589599999999999,17.09166,-24.43174,18.280270000000005,-19.35803,22.469009999999997,105.80839999999998,-0.0006300000000000002,-92.2448,95.44852,-0.0005599999999999998,81.14482999999998,-9.928029999999998,12.408040000000003,0.0001999999999999999,-6.725500000000002,-4.926490000000001,-0.0003399999999999996,7.1999200000000005,3.3897599999999994,5.20161,-15.205589999999999,1.14579,6.099819999999999,-3.9048299999999996,-7.201899999999999,11.007160000000002
0.018949999999999995,0.0,0.0,-1.0313200000000002,0.0,0.0,-3.8346499999999994,-2.1046,22.285279999999997,22.84259,0.8151399999999999,-13.41294,-27.289679999999997,-4.779199999999999,4.0000000000000024e-05,-15.480629999999998,0.8106299999999999,-0.00041,42.36262000000001,11.63163,12.290870000000002,1.15974,6.090749999999999,-13.90366,7.800300000000001,16.54573,-25.821350000000002,15.525950000000002,-17.40645,22.70318,105.45676,0.0012200000000000002,-91.47264,95.06339,0.00114,81.22705,-9.79653,11.23419,-0.0026800000000000005,-4.51796,-6.49517,-0.010399999999999998,7.084530000000001,2.91823,5.3256000000000006,-15.313119999999998,0.66266,6.0345699999999995,-3.63026,-6.840569999999998,10.98575
-0.13145,0.0,0.0,-1.1662699999999997,0.0,0.0,-4.68655,-1.0797499999999995,22.299409999999998,22.348790000000005,0.54389,-13.123899999999999,-25.922529999999995,-4.698170000000001,-0.0008399999999999999,-15.166599999999999,0.5457299999999999,-5.000000000000005e-05,42.04966,11.247240000000001,12.358530000000002,1.4285399999999997,6.090139999999998,-14.208379999999998,8.415289999999999,15.63204,-26.907310000000003,13.451599999999997,-16.02556,23.6423,104.68378999999999,-0.00222,-91.35434000000001,94.46565000000001,0.00138,83.57109999999999,-9.54066,10.1816,-0.00389,-3.8841099999999997,-7.16027,-0.005220000000000001,6.83296,2.54222,5.592559999999999,-15.55277,0.21342000000000005,6.137889999999999,-3.47311,-6.2964899999999995,10.97368
-0.10564999999999998,0.0,0.0,-1.40926,0.0,0.0,-5.297160000000001,-1.55756,22.98905,22.16669,0.9030700000000002,-13.31834,-24.6416,-4.581430000000001,0.0003399999999999999,-15.229450000000002,0.33566,0.00025,41.65429,10.98223,12.198190000000002,1.82921,6.031959999999998,-13.8956,9.068949999999997,15.23178,-27.987219999999997,12.40455,-14.70764,25.705470000000002,104.22521999999998,-0.0006,-91.55187,94.04522999999999,-0.0025299999999999997,86.20893,-10.176109999999998,8.811049999999998,0.0012199999999999997,-6.67029,-7.18763,-0.00222,6.789380000000001,2.4441499999999996,5.98269,-15.579909999999996,-0.025650000000000003,6.46096,-3.5583600000000004,-6.02781,10.93232
-0.6038199999999999,0.0,0.0,-1.6725100000000002,0.0,0.0,-5.6082600000000005,-1.9231300000000005,23.18999,22.20309,1.52574,-13.416130000000003,-23.535810000000005,-4.30232,0.0002900000000000001,-15.44846,0.2874700000000001,-7e-05,41.162929999999996,10.881540000000001,12.44941,2.07074,5.99581,-13.544759999999998,9.564380000000002,15.108039999999999,-29.144639999999995,12.21716,-13.65953,27.57096,104.10906999999999,-0.0004000000000000001,-92.65563000000002,93.36554000000001,-0.00172,86.2184,-11.294319999999999,8.37349,-0.00207,-7.760679999999999,-7.96851,-0.0007300000000000002,6.67139,2.45287,6.47777,-15.67583,-0.20575,6.921729999999999,-3.8143200000000004,-5.67023,10.993140000000002
-1.01265,0.0,0.0,-1.7666600000000001,0.0,0.0,-5.95117,-1.9081,23.29411,21.88619,1.5450599999999999,-13.49935,-22.515810000000002,-4.221619999999999,-0.0003699999999999999,-15.500239999999998,0.37215999999999994,-3e-05,40.66156,10.88839,12.482149999999999,2.1270099999999994,6.084529999999999,-13.208499999999999,10.262520000000002,14.852340000000002,-29.607220000000005,12.467409999999997,-12.795669999999998,28.888869999999997,103.89477,0.00031,-93.21992000000002,92.64442,0.0017900000000000001,86.58544,-9.83324,8.219940000000001,-0.00619,-9.15201,-8.40834,-0.005600000000000001,6.51438,2.42323,6.5869800000000005,-15.827809999999998,-0.27463999999999994,7.011369999999999,-4.296339999999999,-5.118080000000001,11.00841
-0.82448,0.0,0.0,-1.4773200000000002,0.0,0.0,-6.517019999999999,-1.3488800000000003,23.21828,21.540910000000004,1.1606299999999998,-12.973669999999998,-21.804300000000005,-4.22473,8e-05,-15.58802,0.39042,0.0002,40.35732000000001,10.811119999999999,12.693040000000002,2.20096,6.07564,-13.691689999999998,10.785390000000001,14.49558,-29.61784,12.504809999999999,-12.196119999999999,29.953429999999997,103.79374999999999,-0.0007600000000000002,-92.69701,92.35391,-3.0000000000000038e-05,85.99677000000001,-7.148770000000001,8.075869999999998,0.003229999999999999,-9.824269999999999,-9.07684,-0.007899999999999999,5.888409999999999,2.28505,6.654969999999999,-16.450919999999996,-0.42826999999999993,7.02169,-4.560979999999999,-4.49297,10.681790000000001
-0.7841,0.0,0.0,-1.1319399999999997,0.0,0.0,-6.655560000000001,-1.71433,23.351330000000004,21.560170000000003,1.35145,-12.645469999999998,-21.26003,-4.232890000000001,-4.000000000000001e-05,-15.82913,0.31899,2.9999999999999997e-05,40.08566,10.657590000000003,12.790439999999998,2.3240899999999995,5.94594,-14.014750000000001,11.23751,14.312920000000002,-29.876909999999995,12.523689999999998,-11.818180000000002,30.88824,103.58466,0.0006,-91.30343,92.56206,-0.0020500000000000006,85.17548,-7.518539999999999,9.62227,-0.01208,-10.29458,-9.61612,-0.006919999999999999,5.12773,2.27999,6.799629999999999,-17.204779999999996,-0.48788,7.15347,-4.65499,-4.01978,10.45351
-1.03286,0.0,0.0,-1.6504399999999997,0.0,0.0,-6.602029999999999,-2.7709200000000003,23.58099,21.778029999999994,1.00953,-13.166269999999997,-20.911290000000005,-4.24577,-0.00013000000000000002,-16.14863,0.4930999999999999,-0.00037,39.81721,10.621130000000003,12.35005,2.3797800000000002,5.945069999999999,-13.350270000000002,11.976019999999998,14.120300000000002,-30.12518,12.988390000000003,-11.475650000000002,31.549099999999996,103.15848000000001,-0.00014999999999999996,-89.91648000000002,93.06379,-0.00106,86.08894,-9.568470000000001,11.569390000000002,-0.0041199999999999995,-10.989719999999998,-9.29144,-0.00448,4.836020000000001,2.25399,7.134140000000002,-17.48032,-0.6389000000000001,7.452800000000001,-4.95463,-3.5636400000000004,10.41167
-1.0279499999999997,0.0,0.0,-1.53005,0.0,0.0,-7.22428,-2.50424,23.284130000000005,21.85918,0.6205199999999998,-13.217569999999997,-20.36594,-4.2125900000000005,-2.9999999999999997e-05,-16.60441,0.4568000000000001,0.00071,39.62608999999999,10.43269,12.2377,2.6834500000000006,5.840690000000001,-13.40346,12.75762,13.733319999999999,-30.45018,13.80172,-11.303750000000004,31.861769999999996,103.31614999999996,0.00255,-89.52344,93.56195,-0.0013099999999999995,85.92017,-11.121350000000001,11.86098,0.00363,-9.99328,-9.534229999999999,-0.00063,4.37579,2.1271299999999997,7.527659999999999,-17.92126,-0.9055200000000001,7.76848,-5.205260000000001,-3.28514,10.21536
-0.9792899999999999,0.0,0.0,-1.1360699999999997,0.0,0.0,-7.611250000000001,-2.3357199999999994,22.990889999999997,22.061710000000005,1.0981899999999998,-12.93514,-19.858580000000003,-4.03068,0.00019,-17.141280000000005,0.20993,0.0001700000000000001,39.48726,10.18528,12.56893,3.1479299999999997,5.57293,-13.912210000000002,13.367630000000002,13.584079999999998,-30.997519999999994,14.463689999999996,-11.40972,31.987979999999997,104.12778,0.0020300000000000006,-90.75188,94.26482,-0.00073,86.02083,-12.6157,11.71685,0.00156,-10.641440000000001,-9.903870000000001,0.0033500000000000005,3.263000000000001,2.0351200000000005,7.300629999999999,-19.046150000000004,-0.9045399999999999,7.52363,-5.206140000000001,-3.14991,10.153350000000001
-1.2997099999999997,0.0,0.0,-1.3884900000000002,0.0,0.0,-7.67202,-2.45312,23.29375,22.22403,0.91818,-13.164359999999997,-19.639050000000005,-3.96713,-0.00012999999999999996,-17.61804,0.45989,-0.0006499999999999999,39.53640999999999,10.139290000000003,12.37171,3.59023,5.323449999999999,-13.56457,14.48349,13.99792,-31.427619999999994,15.383049999999997,-11.43241,32.23261000000001,104.52063999999999,-0.00105,-90.89105000000002,94.6595,0.00088,83.56713,-13.869039999999998,12.80772,-0.006729999999999998,-10.57119,-11.12064,-0.007080000000000001,2.31206,2.06801,6.85787,-20.018530000000002,-0.70608,7.12676,-5.06594,-2.89103,10.21814
-1.8968799999999997,0.0,0.0,-1.2601499999999999,0.0,0.0,-7.9703800000000005,-2.32489,23.82121,22.11191,0.5823399999999999,-13.31319,-19.43937,-4.18974,-8.000000000000002e-05,-18.08126,0.5651299999999999,0.00025,39.58661000000001,10.2556,11.877940000000002,3.99285,5.29206,-13.239540000000002,16.081950000000003,14.333069999999998,-31.33454,16.834300000000002,-11.16313,32.97263,104.49697000000003,7.999999999999999e-05,-89.38942,94.69121999999999,-0.002929999999999999,81.36387,-14.722870000000002,14.919229999999999,-0.0011500000000000002,-9.93283,-13.269970000000002,-0.00462,1.76302,2.22755,7.190489999999999,-20.550630000000005,-0.68474,7.49485,-5.19365,-2.66757,9.958020000000001
-1.5072900000000002,0.0,0.0,-0.70699,0.0,0.0,-8.425239999999999,-2.03036,23.711939999999995,21.9027,1.07274,-12.755509999999997,-19.25202,-4.05501,0.00012000000000000002,-18.47454,0.26672000000000007,-9.999999999999979e-06,39.361300000000014,10.048950000000001,12.168429999999997,4.095739999999999,5.12016,-13.637889999999995,17.617359999999998,14.436849999999996,-31.344389999999997,18.04277,-11.077830000000002,33.416129999999995,104.66739000000001,-0.0005499999999999999,-86.70383,95.09589000000001,-0.00806,84.47369,-14.76679,15.729379999999999,0.00224,-11.12942,-14.410410000000002,0.0003300000000000002,1.36803,2.25381,7.634590000000001,-20.922700000000003,-0.8288499999999999,7.915420000000001,-5.464059999999999,-2.61179,9.67593
-1.44993,0.0,0.0,-0.7627699999999998,0.0,0.0,-8.436269999999999,-2.37968,23.723200000000002,22.064550000000004,1.4051999999999998,-12.553229999999997,-19.27782,-3.66463,-0.00018,-18.96017,0.11218000000000002,-2.0000000000000025e-05,39.20699,9.55733,12.484749999999998,4.2215,4.63228,-13.814529999999994,18.25389,14.584839999999998,-31.00537,19.29566,-11.24253,33.49511,105.16924000000002,0.0002900000000000001,-85.82883000000001,95.53942,0.00015000000000000007,86.03751,-12.818470000000001,16.21829,0.0031299999999999995,-11.658379999999998,-15.86114,-0.007859999999999999,0.9073500000000001,1.8654899999999999,7.676349999999999,-21.38382,-1.2039800000000003,7.80673,-5.45706,-2.70571,9.58357
-1.67496,0.0,0.0,-0.9053199999999999,0.0,0.0,-8.604920000000003,-2.2302199999999996,23.559549999999998,22.34581,2.3360499999999993,-12.536290000000001,-19.476089999999996,-3.5200199999999997,9e-05,-19.38052,-0.13642999999999994,5.000000000000002e-05,39.27136999999999,9.245649999999998,12.693000000000001,4.444869999999999,4.231120000000001,-13.976099999999997,18.42232,14.671359999999996,-30.34679999999999,20.973409999999998,-11.27936,34.01286,106.02950999999999,-0.00105,-85.5598,95.85299999999998,0.0023799999999999993,84.45069000000001,-10.30968,16.24144,-0.00218,-11.741270000000002,-15.439409999999999,-0.009579999999999998,0.22075,1.8653999999999997,7.624569999999999,-22.073100000000004,-1.18443,7.758789999999999,-5.29125,-2.75594,9.44134
-1.8005499999999999,0.0,0.0,-0.39557000000000014,0.0,0.0,-8.64284,-2.14747,23.323300000000003,22.19261,2.5731900000000008,-13.051280000000002,-19.778700000000004,-3.5945700000000005,0.00020000000000000004,-19.329050000000006,-0.16131000000000006,0.00011000000000000002,39.607240000000004,9.31995,12.318990000000001,4.66491,4.25862,-13.573830000000003,19.01213,14.238410000000002,-30.098049999999997,22.717759999999995,-11.387120000000001,34.68084000000001,106.79926000000003,-0.00037000000000000005,-86.17337000000002,96.36944,0.004750000000000001,80.85264000000001,-10.006149999999998,16.247640000000004,-0.00194,-12.402790000000001,-14.198200000000002,-0.0021700000000000005,-0.00569999999999999,1.7152600000000002,7.918260000000002,-22.285470000000004,-1.43468,7.973530000000002,-5.15352,-2.3518100000000004,9.32259
-1.31992,0.0,0.0,-0.30156,0.0,0.0,-8.84999,-2.30241,22.48998,22.16974,1.74203,-13.59042,-20.18977,-3.44408,-0.00039,-19.11082,0.1002,9e-05,40.00497,9.40075,12.05743,4.80767,4.17935,-12.97211,20.37538,13.88275,-30.26357,24.17801,-11.36106,34.8389,107.2584,0.00325,-88.8526,97.0132,-0.01245,81.17347,-11.12524,16.16717,0.00203,-12.8929,-13.80798,-0.00595,-0.19343,1.29625,8.35927,-22.45416,-1.98951,8.22282,-4.98407,-2.04961,9.2447
,,,,,,,,,,,,,,,,,,,,,,,,,,,,,,,,,,,,,,,,,,,,,,,,,,
,,,,,,,,,,,,,,,,,,,,,,,,,,,,,,,,,,,,,,,,,,,,,,,,,,
,,,,,,,,,,,,,,,,,,,,,,,,,,,,,,,,,,,,,,,,,,,,,,,,,,
,,,,,,,,,,,,,,,,,,,,,,,,,,,,,,,,,,,,,,,,,,,,,,,,,,
,,,,,,,,,,,,,,,,,,,,,,,,,,,,,,,,,,,,,,,,,,,,,,,,,,
,,,,,,,,,,,,,,,,,,,,,,,,,,,,,,,,,,,,,,,,,,,,,,,,,,
,,,,,,,,,,,,,,,,,,,,,,,,,,,,,,,,,,,,,,,,,,,,,,,,,,
,,,,,,,,,,,,,,,,,,,,,,,,,,,,,,,,,,,,,,,,,,,,,,,,,,
,,,,,,,,,,,,,,,,,,,,,,,,,,,,,,,,,,,,,,,,,,,,,,,,,,
,,,,,,,,,,,,,,,,,,,,,,,,,,,,,,,,,,,,,,,,,,,,,,,,,,
,,,,,,,,,,,,,,,,,,,,,,,,,,,,,,,,,,,,,,,,,,,,,,,,,,
,,,,,,,,,,,,,,,,,,,,,,,,,,,,,,,,,,,,,,,,,,,,,,,,,,
,,,,,,,,,,,,,,,,,,,,,,,,,,,,,,,,,,,,,,,,,,,,,,,,,,
,,,,,,,,,,,,,,,,,,,,,,,,,,,,,,,,,,,,,,,,,,,,,,,,,,
,,,,,,,,,,,,,,,,,,,,,,,,,,,,,,,,,,,,,,,,,,,,,,,,,,
,,,,,,,,,,,,,,,,,,,,,,,,,,,,,,,,,,,,,,,,,,,,,,,,,,
,,,,,,,,,,,,,,,,,,,,,,,,,,,,,,,,,,,,,,,,,,,,,,,,,,
,,,,,,,,,,,,,,,,,,,,,,,,,,,,,,,,,,,,,,,,,,,,,,,,,,
,,,,,,,,,,,,,,,,,,,,,,,,,,,,,,,,,,,,,,,,,,,,,,,,,,
,,,,,,,,,,,,,,,,,,,,,,,,,,,,,,,,,,,,,,,,,,,,,,,,,,
,,,,,,,,,,,,,,,,,,,,,,,,,,,,,,,,,,,,,,,,,,,,,,,,,,
,,,,,,,,,,,,,,,,,,,,,,,,,,,,,,,,,,,,,,,,,,,,,,,,,,
,,,,,,,,,,,,,,,,,,,,,,,,,,,,,,,,,,,,,,,,,,,,,,,,,,
,,,,,,,,,,,,,,,,,,,,,,,,,,,,,,,,,,,,,,,,,,,,,,,,,,
,,,,,,,,,,,,,,,,,,,,,,,,,,,,,,,,,,,,,,,,,,,,,,,,,,
,,,,,,,,,,,,,,,,,,,,,,,,,,,,,,,,,,,,,,,,,,,,,,,,,,
,,,,,,,,,,,,,,,,,,,,,,,,,,,,,,,,,,,,,,,,,,,,,,,,,,
,,,,,,,,,,,,,,,,,,,,,,,,,,,,,,,,,,,,,,,,,,,,,,,,,,
,,,,,,,,,,,,,,,,,,,,,,,,,,,,,,,,,,,,,,,,,,,,,,,,,,
,,,,,,,,,,,,,,,,,,,,,,,,,,,,,,,,,,,,,,,,,,,,,,,,,,
,,,,,,,,,,,,,,,,,,,,,,,,,,,,,,,,,,,,,,,,,,,,,,,,,,
,,,,,,,,,,,,,,,,,,,,,,,,,,,,,,,,,,,,,,,,,,,,,,,,,,
,,,,,,,,,,,,,,,,,,,,,,,,,,,,,,,,,,,,,,,,,,,,,,,,,,
,,,,,,,,,,,,,,,,,,,,,,,,,,,,,,,,,,,,,,,,,,,,,,,,,,
,,,,,,,,,,,,,,,,,,,,,,,,,,,,,,,,,,,,,,,,,,,,,,,,,,
,,,,,,,,,,,,,,,,,,,,,,,,,,,,,,,,,,,,,,,,,,,,,,,,,,
,,,,,,,,,,,,,,,,,,,,,,,,,,,,,,,,,,,,,,,,,,,,,,,,,,
,,,,,,,,,,,,,,,,,,,,,,,,,,,,,,,,,,,,,,,,,,,,,,,,,,
,,,,,,,,,,,,,,,,,,,,,,,,,,,,,,,,,,,,,,,,,,,,,,,,,,
,,,,,,,,,,,,,,,,,,,,,,,,,,,,,,,,,,,,,,,,,,,,,,,,,,
,,,,,,,,,,,,,,,,,,,,,,,,,,,,,,,,,,,,,,,,,,,,,,,,,,
,,,,,,,,,,,,,,,,,,,,,,,,,,,,,,,,,,,,,,,,,,,,,,,,,,
,,,,,,,,,,,,,,,,,,,,,,,,,,,,,,,,,,,,,,,,,,,,,,,,,,
,,,,,,,,,,,,,,,,,,,,,,,,,,,,,,,,,,,,,,,,,,,,,,,,,,
,,,,,,,,,,,,,,,,,,,,,,,,,,,,,,,,,,,,,,,,,,,,,,,,,,
,,,,,,,,,,,,,,,,,,,,,,,,,,,,,,,,,,,,,,,,,,,,,,,,,,
,,,,,,,,,,,,,,,,,,,,,,,,,,,,,,,,,,,,,,,,,,,,,,,,,,
,,,,,,,,,,,,,,,,,,,,,,,,,,,,,,,,,,,,,,,,,,,,,,,,,,
,,,,,,,,,,,,,,,,,,,,,,,,,,,,,,,,,,,,,,,,,,,,,,,,,,
,,,,,,,,,,,,,,,,,,,,,,,,,,,,,,,,,,,,,,,,,,,,,,,,,,
,,,,,,,,,,,,,,,,,,,,,,,,,,,,,,,,,,,,,,,,,,,,,,,,,,
,,,,,,,,,,,,,,,,,,,,,,,,,,,,,,,,,,,,,,,,,,,,,,,,,,
,,,,,,,,,,,,,,,,,,,,,,,,,,,,,,,,,,,,,,,,,,,,,,,,,,
,,,,,,,,,,,,,,,,,,,,,,,,,,,,,,,,,,,,,,,,,,,,,,,,,,
,,,,,,,,,,,,,,,,,,,,,,,,,,,,,,,,,,,,,,,,,,,,,,,,,,
,,,,,,,,,,,,,,,,,,,,,,,,,,,,,,,,,,,,,,,,,,,,,,,,,,
,,,,,,,,,,,,,,,,,,,,,,,,,,,,,,,,,,,,,,,,,,,,,,,,,,
,,,,,,,,,,,,,,,,,,,,,,,,,,,,,,,,,,,,,,,,,,,,,,,,,,
,,,,,,,,,,,,,,,,,,,,,,,,,,,,,,,,,,,,,,,,,,,,,,,,,,
,,,,,,,,,,,,,,,,,,,,,,,,,,,,,,,,,,,,,,,,,,,,,,,,,,
,,,,,,,,,,,,,,,,,,,,,,,,,,,,,,,,,,,,,,,,,,,,,,,,,,
,,,,,,,,,,,,,,,,,,,,,,,,,,,,,,,,,,,,,,,,,,,,,,,,,,
,,,,,,,,,,,,,,,,,,,,,,,,,,,,,,,,,,,,,,,,,,,,,,,,,,
,,,,,,,,,,,,,,,,,,,,,,,,,,,,,,,,,,,,,,,,,,,,,,,,,,
,,,,,,,,,,,,,,,,,,,,,,,,,,,,,,,,,,,,,,,,,,,,,,,,,,
,,,,,,,,,,,,,,,,,,,,,,,,,,,,,,,,,,,,,,,,,,,,,,,,,,
,,,,,,,,,,,,,,,,,,,,,,,,,,,,,,,,,,,,,,,,,,,,,,,,,,
,,,,,,,,,,,,,,,,,,,,,,,,,,,,,,,,,,,,,,,,,,,,,,,,,,
,,,,,,,,,,,,,,,,,,,,,,,,,,,,,,,,,,,,,,,,,,,,,,,,,,
,,,,,,,,,,,,,,,,,,,,,,,,,,,,,,,,,,,,,,,,,,,,,,,,,,
,,,,,,,,,,,,,,,,,,,,,,,,,,,,,,,,,,,,,,,,,,,,,,,,,,
,,,,,,,,,,,,,,,,,,,,,,,,,,,,,,,,,,,,,,,,,,,,,,,,,,
,,,,,,,,,,,,,,,,,,,,,,,,,,,,,,,,,,,,,,,,,,,,,,,,,,
,,,,,,,,,,,,,,,,,,,,,,,,,,,,,,,,,,,,,,,,,,,,,,,,,,
,,,,,,,,,,,,,,,,,,,,,,,,,,,,,,,,,,,,,,,,,,,,,,,,,,
,,,,,,,,,,,,,,,,,,,,,,,,,,,,,,,,,,,,,,,,,,,,,,,,,,
,,,,,,,,,,,,,,,,,,,,,,,,,,,,,,,,,,,,,,,,,,,,,,,,,,
,,,,,,,,,,,,,,,,,,,,,,,,,,,,,,,,,,,,,,,,,,,,,,,,,,
,,,,,,,,,,,,,,,,,,,,,,,,,,,,,,,,,,,,,,,,,,,,,,,,,,
,,,,,,,,,,,,,,,,,,,,,,,,,,,,,,,,,,,,,,,,,,,,,,,,,,
,,,,,,,,,,,,,,,,,,,,,,,,,,,,,,,,,,,,,,,,,,,,,,,,,,
,,,,,,,,,,,,,,,,,,,,,,,,,,,,,,,,,,,,,,,,,,,,,,,,,,
,,,,,,,,,,,,,,,,,,,,,,,,,,,,,,,,,,,,,,,,,,,,,,,,,,
,,,,,,,,,,,,,,,,,,,,,,,,,,,,,,,,,,,,,,,,,,,,,,,,,,
,,,,,,,,,,,,,,,,,,,,,,,,,,,,,,,,,,,,,,,,,,,,,,,,,,
,,,,,,,,,,,,,,,,,,,,,,,,,,,,,,,,,,,,,,,,,,,,,,,,,,
,,,,,,,,,,,,,,,,,,,,,,,,,,,,,,,,,,,,,,,,,,,,,,,,,,
,,,,,,,,,,,,,,,,,,,,,,,,,,,,,,,,,,,,,,,,,,,,,,,,,,
,,,,,,,,,,,,,,,,,,,,,,,,,,,,,,,,,,,,,,,,,,,,,,,,,,
,,,,,,,,,,,,,,,,,,,,,,,,,,,,,,,,,,,,,,,,,,,,,,,,,,
,,,,,,,,,,,,,,,,,,,,,,,,,,,,,,,,,,,,,,,,,,,,,,,,,,
,,,,,,,,,,,,,,,,,,,,,,,,,,,,,,,,,,,,,,,,,,,,,,,,,,
,,,,,,,,,,,,,,,,,,,,,,,,,,,,,,,,,,,,,,,,,,,,,,,,,,
,,,,,,,,,,,,,,,,,,,,,,,,,,,,,,,,,,,,,,,,,,,,,,,,,,
,,,,,,,,,,,,,,,,,,,,,,,,,,,,,,,,,,,,,,,,,,,,,,,,,,
,,,,,,,,,,,,,,,,,,,,,,,,,,,,,,,,,,,,,,,,,,,,,,,,,,
,,,,,,,,,,,,,,,,,,,,,,,,,,,,,,,,,,,,,,,,,,,,,,,,,,
,,,,,,,,,,,,,,,,,,,,,,,,,,,,,,,,,,,,,,,,,,,,,,,,,,
,,,,,,,,,,,,,,,,,,,,,,,,,,,,,,,,,,,,,,,,,,,,,,,,,,
,,,,,,,,,,,,,,,,,,,,,,,,,,,,,,,,,,,,,,,,,,,,,,,,,,
,,,,,,,,,,,,,,,,,,,,,,,,,,,,,,,,,,,,,,,,,,,,,,,,,,
,,,,,,,,,,,,,,,,,,,,,,,,,,,,,,,,,,,,,,,,,,,,,,,,,,
,,,,,,,,,,,,,,,,,,,,,,,,,,,,,,,,,,,,,,,,,,,,,,,,,,
,,,,,,,,,,,,,,,,,,,,,,,,,,,,,,,,,,,,,,,,,,,,,,,,,,
,,,,,,,,,,,,,,,,,,,,,,,,,,,,,,,,,,,,,,,,,,,,,,,,,,
,,,,,,,,,,,,,,,,,,,,,,,,,,,,,,,,,,,,,,,,,,,,,,,,,,
,,,,,,,,,,,,,,,,,,,,,,,,,,,,,,,,,,,,,,,,,,,,,,,,,,
,,,,,,,,,,,,,,,,,,,,,,,,,,,,,,,,,,,,,,,,,,,,,,,,,,
,,,,,,,,,,,,,,,,,,,,,,,,,,,,,,,,,,,,,,,,,,,,,,,,,,
,,,,,,,,,,,,,,,,,,,,,,,,,,,,,,,,,,,,,,,,,,,,,,,,,,
,,,,,,,,,,,,,,,,,,,,,,,,,,,,,,,,,,,,,,,,,,,,,,,,,,
,,,,,,,,,,,,,,,,,,,,,,,,,,,,,,,,,,,,,,,,,,,,,,,,,,
,,,,,,,,,,,,,,,,,,,,,,,,,,,,,,,,,,,,,,,,,,,,,,,,,,
,,,,,,,,,,,,,,,,,,,,,,,,,,,,,,,,,,,,,,,,,,,,,,,,,,
,,,,,,,,,,,,,,,,,,,,,,,,,,,,,,,,,,,,,,,,,,,,,,,,,,
,,,,,,,,,,,,,,,,,,,,,,,,,,,,,,,,,,,,,,,,,,,,,,,,,,
,,,,,,,,,,,,,,,,,,,,,,,,,,,,,,,,,,,,,,,,,,,,,,,,,,
,,,,,,,,,,,,,,,,,,,,,,,,,,,,,,,,,,,,,,,,,,,,,,,,,,
,,,,,,,,,,,,,,,,,,,,,,,,,,,,,,,,,,,,,,,,,,,,,,,,,,
,,,,,,,,,,,,,,,,,,,,,,,,,,,,,,,,,,,,,,,,,,,,,,,,,,
,,,,,,,,,,,,,,,,,,,,,,,,,,,,,,,,,,,,,,,,,,,,,,,,,,
,,,,,,,,,,,,,,,,,,,,,,,,,,,,,,,,,,,,,,,,,,,,,,,,,,
,,,,,,,,,,,,,,,,,,,,,,,,,,,,,,,,,,,,,,,,,,,,,,,,,,
,,,,,,,,,,,,,,,,,,,,,,,,,,,,,,,,,,,,,,,,,,,,,,,,,,
,,,,,,,,,,,,,,,,,,,,,,,,,,,,,,,,,,,,,,,,,,,,,,,,,,
,,,,,,,,,,,,,,,,,,,,,,,,,,,,,,,,,,,,,,,,,,,,,,,,,,
,,,,,,,,,,,,,,,,,,,,,,,,,,,,,,,,,,,,,,,,,,,,,,,,,,
,,,,,,,,,,,,,,,,,,,,,,,,,,,,,,,,,,,,,,,,,,,,,,,,,,
,,,,,,,,,,,,,,,,,,,,,,,,,,,,,,,,,,,,,,,,,,,,,,,,,,
,,,,,,,,,,,,,,,,,,,,,,,,,,,,,,,,,,,,,,,,,,,,,,,,,,
,,,,,,,,,,,,,,,,,,,,,,,,,,,,,,,,,,,,,,,,,,,,,,,,,,
,,,,,,,,,,,,,,,,,,,,,,,,,,,,,,,,,,,,,,,,,,,,,,,,,,
,,,,,,,,,,,,,,,,,,,,,,,,,,,,,,,,,,,,,,,,,,,,,,,,,,
,,,,,,,,,,,,,,,,,,,,,,,,,,,,,,,,,,,,,,,,,,,,,,,,,,
,,,,,,,,,,,,,,,,,,,,,,,,,,,,,,,,,,,,,,,,,,,,,,,,,,
,,,,,,,,,,,,,,,,,,,,,,,,,,,,,,,,,,,,,,,,,,,,,,,,,,
,,,,,,,,,,,,,,,,,,,,,,,,,,,,,,,,,,,,,,,,,,,,,,,,,,
,,,,,,,,,,,,,,,,,,,,,,,,,,,,,,,,,,,,,,,,,,,,,,,,,,
,,,,,,,,,,,,,,,,,,,,,,,,,,,,,,,,,,,,,,,,,,,,,,,,,,
,,,,,,,,,,,,,,,,,,,,,,,,,,,,,,,,,,,,,,,,,,,,,,,,,,
,,,,,,,,,,,,,,,,,,,,,,,,,,,,,,,,,,,,,,,,,,,,,,,,,,
,,,,,,,,,,,,,,,,,,,,,,,,,,,,,,,,,,,,,,,,,,,,,,,,,,
,,,,,,,,,,,,,,,,,,,,,,,,,,,,,,,,,,,,,,,,,,,,,,,,,,
,,,,,,,,,,,,,,,,,,,,,,,,,,,,,,,,,,,,,,,,,,,,,,,,,,
,,,,,,,,,,,,,,,,,,,,,,,,,,,,,,,,,,,,,,,,,,,,,,,,,,
,,,,,,,,,,,,,,,,,,,,,,,,,,,,,,,,,,,,,,,,,,,,,,,,,,
,,,,,,,,,,,,,,,,,,,,,,,,,,,,,,,,,,,,,,,,,,,,,,,,,,
,,,,,,,,,,,,,,,,,,,,,,,,,,,,,,,,,,,,,,,,,,,,,,,,,,
,,,,,,,,,,,,,,,,,,,,,,,,,,,,,,,,,,,,,,,,,,,,,,,,,,
,,,,,,,,,,,,,,,,,,,,,,,,,,,,,,,,,,,,,,,,,,,,,,,,,,
,,,,,,,,,,,,,,,,,,,,,,,,,,,,,,,,,,,,,,,,,,,,,,,,,,
,,,,,,,,,,,,,,,,,,,,,,,,,,,,,,,,,,,,,,,,,,,,,,,,,,
,,,,,,,,,,,,,,,,,,,,,,,,,,,,,,,,,,,,,,,,,,,,,,,,,,
,,,,,,,,,,,,,,,,,,,,,,,,,,,,,,,,,,,,,,,,,,,,,,,,,,
,,,,,,,,,,,,,,,,,,,,,,,,,,,,,,,,,,,,,,,,,,,,,,,,,,
,,,,,,,,,,,,,,,,,,,,,,,,,,,,,,,,,,,,,,,,,,,,,,,,,,
,,,,,,,,,,,,,,,,,,,,,,,,,,,,,,,,,,,,,,,,,,,,,,,,,,
,,,,,,,,,,,,,,,,,,,,,,,,,,,,,,,,,,,,,,,,,,,,,,,,,,
,,,,,,,,,,,,,,,,,,,,,,,,,,,,,,,,,,,,,,,,,,,,,,,,,,
,,,,,,,,,,,,,,,,,,,,,,,,,,,,,,,,,,,,,,,,,,,,,,,,,,
,,,,,,,,,,,,,,,,,,,,,,,,,,,,,,,,,,,,,,,,,,,,,,,,,,
,,,,,,,,,,,,,,,,,,,,,,,,,,,,,,,,,,,,,,,,,,,,,,,,,,
,,,,,,,,,,,,,,,,,,,,,,,,,,,,,,,,,,,,,,,,,,,,,,,,,,
,,,,,,,,,,,,,,,,,,,,,,,,,,,,,,,,,,,,,,,,,,,,,,,,,,
,,,,,,,,,,,,,,,,,,,,,,,,,,,,,,,,,,,,,,,,,,,,,,,,,,
,,,,,,,,,,,,,,,,,,,,,,,,,,,,,,,,,,,,,,,,,,,,,,,,,,
,,,,,,,,,,,,,,,,,,,,,,,,,,,,,,,,,,,,,,,,,,,,,,,,,,
,,,,,,,,,,,,,,,,,,,,,,,,,,,,,,,,,,,,,,,,,,,,,,,,,,
,,,,,,,,,,,,,,,,,,,,,,,,,,,,,,,,,,,,,,,,,,,,,,,,,,
,,,,,,,,,,,,,,,,,,,,,,,,,,,,,,,,,,,,,,,,,,,,,,,,,,
,,,,,,,,,,,,,,,,,,,,,,,,,,,,,,,,,,,,,,,,,,,,,,,,,,
,,,,,,,,,,,,,,,,,,,,,,,,,,,,,,,,,,,,,,,,,,,,,,,,,,
,,,,,,,,,,,,,,,,,,,,,,,,,,,,,,,,,,,,,,,,,,,,,,,,,,
,,,,,,,,,,,,,,,,,,,,,,,,,,,,,,,,,,,,,,,,,,,,,,,,,,
,,,,,,,,,,,,,,,,,,,,,,,,,,,,,,,,,,,,,,,,,,,,,,,,,,
,,,,,,,,,,,,,,,,,,,,,,,,,,,,,,,,,,,,,,,,,,,,,,,,,,
,,,,,,,,,,,,,,,,,,,,,,,,,,,,,,,,,,,,,,,,,,,,,,,,,,
,,,,,,,,,,,,,,,,,,,,,,,,,,,,,,,,,,,,,,,,,,,,,,,,,,
,,,,,,,,,,,,,,,,,,,,,,,,,,,,,,,,,,,,,,,,,,,,,,,,,,
,,,,,,,,,,,,,,,,,,,,,,,,,,,,,,,,,,,,,,,,,,,,,,,,,,
,,,,,,,,,,,,,,,,,,,,,,,,,,,,,,,,,,,,,,,,,,,,,,,,,,
,,,,,,,,,,,,,,,,,,,,,,,,,,,,,,,,,,,,,,,,,,,,,,,,,,
,,,,,,,,,,,,,,,,,,,,,,,,,,,,,,,,,,,,,,,,,,,,,,,,,,
,,,,,,,,,,,,,,,,,,,,,,,,,,,,,,,,,,,,,,,,,,,,,,,,,,
,,,,,,,,,,,,,,,,,,,,,,,,,,,,,,,,,,,,,,,,,,,,,,,,,,
,,,,,,,,,,,,,,,,,,,,,,,,,,,,,,,,,,,,,,,,,,,,,,,,,,
,,,,,,,,,,,,,,,,,,,,,,,,,,,,,,,,,,,,,,,,,,,,,,,,,,
,,,,,,,,,,,,,,,,,,,,,,,,,,,,,,,,,,,,,,,,,,,,,,,,,,
,,,,,,,,,,,,,,,,,,,,,,,,,,,,,,,,,,,,,,,,,,,,,,,,,,
,,,,,,,,,,,,,,,,,,,,,,,,,,,,,,,,,,,,,,,,,,,,,,,,,,
,,,,,,,,,,,,,,,,,,,,,,,,,,,,,,,,,,,,,,,,,,,,,,,,,,
,,,,,,,,,,,,,,,,,,,,,,,,,,,,,,,,,,,,,,,,,,,,,,,,,,
,,,,,,,,,,,,,,,,,,,,,,,,,,,,,,,,,,,,,,,,,,,,,,,,,,
,,,,,,,,,,,,,,,,,,,,,,,,,,,,,,,,,,,,,,,,,,,,,,,,,,
,,,,,,,,,,,,,,,,,,,,,,,,,,,,,,,,,,,,,,,,,,,,,,,,,,
,,,,,,,,,,,,,,,,,,,,,,,,,,,,,,,,,,,,,,,,,,,,,,,,,,
,,,,,,,,,,,,,,,,,,,,,,,,,,,,,,,,,,,,,,,,,,,,,,,,,,
,,,,,,,,,,,,,,,,,,,,,,,,,,,,,,,,,,,,,,,,,,,,,,,,,,
,,,,,,,,,,,,,,,,,,,,,,,,,,,,,,,,,,,,,,,,,,,,,,,,,,
,,,,,,,,,,,,,,,,,,,,,,,,,,,,,,,,,,,,,,,,,,,,,,,,,,
,,,,,,,,,,,,,,,,,,,,,,,,,,,,,,,,,,,,,,,,,,,,,,,,,,
,,,,,,,,,,,,,,,,,,,,,,,,,,,,,,,,,,,,,,,,,,,,,,,,,,
,,,,,,,,,,,,,,,,,,,,,,,,,,,,,,,,,,,,,,,,,,,,,,,,,,
,,,,,,,,,,,,,,,,,,,,,,,,,,,,,,,,,,,,,,,,,,,,,,,,,,
,,,,,,,,,,,,,,,,,,,,,,,,,,,,,,,,,,,,,,,,,,,,,,,,,,
,,,,,,,,,,,,,,,,,,,,,,,,,,,,,,,,,,,,,,,,,,,,,,,,,,
,,,,,,,,,,,,,,,,,,,,,,,,,,,,,,,,,,,,,,,,,,,,,,,,,,
,,,,,,,,,,,,,,,,,,,,,,,,,,,,,,,,,,,,,,,,,,,,,,,,,,
,,,,,,,,,,,,,,,,,,,,,,,,,,,,,,,,,,,,,,,,,,,,,,,,,,
,,,,,,,,,,,,,,,,,,,,,,,,,,,,,,,,,,,,,,,,,,,,,,,,,,
,,,,,,,,,,,,,,,,,,,,,,,,,,,,,,,,,,,,,,,,,,,,,,,,,,
,,,,,,,,,,,,,,,,,,,,,,,,,,,,,,,,,,,,,,,,,,,,,,,,,,
,,,,,,,,,,,,,,,,,,,,,,,,,,,,,,,,,,,,,,,,,,,,,,,,,,
,,,,,,,,,,,,,,,,,,,,,,,,,,,,,,,,,,,,,,,,,,,,,,,,,,
,,,,,,,,,,,,,,,,,,,,,,,,,,,,,,,,,,,,,,,,,,,,,,,,,,
,,,,,,,,,,,,,,,,,,,,,,,,,,,,,,,,,,,,,,,,,,,,,,,,,,
,,,,,,,,,,,,,,,,,,,,,,,,,,,,,,,,,,,,,,,,,,,,,,,,,,
,,,,,,,,,,,,,,,,,,,,,,,,,,,,,,,,,,,,,,,,,,,,,,,,,,
,,,,,,,,,,,,,,,,,,,,,,,,,,,,,,,,,,,,,,,,,,,,,,,,,,
,,,,,,,,,,,,,,,,,,,,,,,,,,,,,,,,,,,,,,,,,,,,,,,,,,
,,,,,,,,,,,,,,,,,,,,,,,,,,,,,,,,,,,,,,,,,,,,,,,,,,
,,,,,,,,,,,,,,,,,,,,,,,,,,,,,,,,,,,,,,,,,,,,,,,,,,
,,,,,,,,,,,,,,,,,,,,,,,,,,,,,,,,,,,,,,,,,,,,,,,,,,
,,,,,,,,,,,,,,,,,,,,,,,,,,,,,,,,,,,,,,,,,,,,,,,,,,
,,,,,,,,,,,,,,,,,,,,,,,,,,,,,,,,,,,,,,,,,,,,,,,,,,
,,,,,,,,,,,,,,,,,,,,,,,,,,,,,,,,,,,,,,,,,,,,,,,,,,
,,,,,,,,,,,,,,,,,,,,,,,,,,,,,,,,,,,,,,,,,,,,,,,,,,
,,,,,,,,,,,,,,,,,,,,,,,,,,,,,,,,,,,,,,,,,,,,,,,,,,
,,,,,,,,,,,,,,,,,,,,,,,,,,,,,,,,,,,,,,,,,,,,,,,,,,
,,,,,,,,,,,,,,,,,,,,,,,,,,,,,,,,,,,,,,,,,,,,,,,,,,
,,,,,,,,,,,,,,,,,,,,,,,,,,,,,,,,,,,,,,,,,,,,,,,,,,
,,,,,,,,,,,,,,,,,,,,,,,,,,,,,,,,,,,,,,,,,,,,,,,,,,
,,,,,,,,,,,,,,,,,,,,,,,,,,,,,,,,,,,,,,,,,,,,,,,,,,
,,,,,,,,,,,,,,,,,,,,,,,,,,,,,,,,,,,,,,,,,,,,,,,,,,
,,,,,,,,,,,,,,,,,,,,,,,,,,,,,,,,,,,,,,,,,,,,,,,,,,
,,,,,,,,,,,,,,,,,,,,,,,,,,,,,,,,,,,,,,,,,,,,,,,,,,
,,,,,,,,,,,,,,,,,,,,,,,,,,,,,,,,,,,,,,,,,,,,,,,,,,
,,,,,,,,,,,,,,,,,,,,,,,,,,,,,,,,,,,,,,,,,,,,,,,,,,
,,,,,,,,,,,,,,,,,,,,,,,,,,,,,,,,,,,,,,,,,,,,,,,,,,
,,,,,,,,,,,,,,,,,,,,,,,,,,,,,,,,,,,,,,,,,,,,,,,,,,
,,,,,,,,,,,,,,,,,,,,,,,,,,,,,,,,,,,,,,,,,,,,,,,,,,
,,,,,,,,,,,,,,,,,,,,,,,,,,,,,,,,,,,,,,,,,,,,,,,,,,
,,,,,,,,,,,,,,,,,,,,,,,,,,,,,,,,,,,,,,,,,,,,,,,,,,
,,,,,,,,,,,,,,,,,,,,,,,,,,,,,,,,,,,,,,,,,,,,,,,,,,
,,,,,,,,,,,,,,,,,,,,,,,,,,,,,,,,,,,,,,,,,,,,,,,,,,
,,,,,,,,,,,,,,,,,,,,,,,,,,,,,,,,,,,,,,,,,,,,,,,,,,
,,,,,,,,,,,,,,,,,,,,,,,,,,,,,,,,,,,,,,,,,,,,,,,,,,
,,,,,,,,,,,,,,,,,,,,,,,,,,,,,,,,,,,,,,,,,,,,,,,,,,
,,,,,,,,,,,,,,,,,,,,,,,,,,,,,,,,,,,,,,,,,,,,,,,,,,
,,,,,,,,,,,,,,,,,,,,,,,,,,,,,,,,,,,,,,,,,,,,,,,,,,
,,,,,,,,,,,,,,,,,,,,,,,,,,,,,,,,,,,,,,,,,,,,,,,,,,
,,,,,,,,,,,,,,,,,,,,,,,,,,,,,,,,,,,,,,,,,,,,,,,,,,
,,,,,,,,,,,,,,,,,,,,,,,,,,,,,,,,,,,,,,,,,,,,,,,,,,
,,,,,,,,,,,,,,,,,,,,,,,,,,,,,,,,,,,,,,,,,,,,,,,,,,
,,,,,,,,,,,,,,,,,,,,,,,,,,,,,,,,,,,,,,,,,,,,,,,,,,
,,,,,,,,,,,,,,,,,,,,,,,,,,,,,,,,,,,,,,,,,,,,,,,,,,
,,,,,,,,,,,,,,,,,,,,,,,,,,,,,,,,,,,,,,,,,,,,,,,,,,
,,,,,,,,,,,,,,,,,,,,,,,,,,,,,,,,,,,,,,,,,,,,,,,,,,
,,,,,,,,,,,,,,,,,,,,,,,,,,,,,,,,,,,,,,,,,,,,,,,,,,
,,,,,,,,,,,,,,,,,,,,,,,,,,,,,,,,,,,,,,,,,,,,,,,,,,
,,,,,,,,,,,,,,,,,,,,,,,,,,,,,,,,,,,,,,,,,,,,,,,,,,
,,,,,,,,,,,,,,,,,,,,,,,,,,,,,,,,,,,,,,,,,,,,,,,,,,
,,,,,,,,,,,,,,,,,,,,,,,,,,,,,,,,,,,,,,,,,,,,,,,,,,
,,,,,,,,,,,,,,,,,,,,,,,,,,,,,,,,,,,,,,,,,,,,,,,,,,
,,,,,,,,,,,,,,,,,,,,,,,,,,,,,,,,,,,,,,,,,,,,,,,,,,
,,,,,,,,,,,,,,,,,,,,,,,,,,,,,,,,,,,,,,,,,,,,,,,,,,
,,,,,,,,,,,,,,,,,,,,,,,,,,,,,,,,,,,,,,,,,,,,,,,,,,
,,,,,,,,,,,,,,,,,,,,,,,,,,,,,,,,,,,,,,,,,,,,,,,,,,
,,,,,,,,,,,,,,,,,,,,,,,,,,,,,,,,,,,,,,,,,,,,,,,,,,
,,,,,,,,,,,,,,,,,,,,,,,,,,,,,,,,,,,,,,,,,,,,,,,,,,
,,,,,,,,,,,,,,,,,,,,,,,,,,,,,,,,,,,,,,,,,,,,,,,,,,
,,,,,,,,,,,,,,,,,,,,,,,,,,,,,,,,,,,,,,,,,,,,,,,,,,
,,,,,,,,,,,,,,,,,,,,,,,,,,,,,,,,,,,,,,,,,,,,,,,,,,
