PaulMeinheit/Bachelor_Muay_Thai/Sub01_Teep/scaled/JointMoments.txt/scaled2.csv
R_KNEE_MOMENT,R_KNEE_MOMENT,R_KNEE_MOMENT,L_KNEE_MOMENT,L_KNEE_MOMENT,L_KNEE_MOMENT,R_HIP_MOMENT,R_HIP_MOMENT,R_HIP_MOMENT,L_HIP_MOMENT,L_HIP_MOMENT,L_HIP_MOMENT,R_ANKLE_MOMENT,R_ANKLE_MOMENT,R_ANKLE_MOMENT,L_ANKLE_MOMENT,L_ANKLE_MOMENT,L_ANKLE_MOMENT,WAIST_JOINT_MOMENT,WAIST_JOINT_MOMENT,WAIST_JOINT_MOMENT,NECK_MOMENT,NECK_MOMENT,NECK_MOMENT,L_SHOULDER_MOMENT,L_SHOULDER_MOMENT,L_SHOULDER_MOMENT,R_SHOULDER_MOMENT,R_SHOULDER_MOMENT,R_SHOULDER_MOMENT,L_ELBOW_MOMENT,L_ELBOW_MOMENT,L_ELBOW_MOMENT,R_ELBOW_MOMENT,R_ELBOW_MOMENT,R_ELBOW_MOMENT,L_WRIST_MOMENT,L_WRIST_MOMENT,L_WRIST_MOMENT,R_WRIST_MOMENT,R_WRIST_MOMENT,R_WRIST_MOMENT
X,Y,Z,X,Y,Z,X,Y,Z,X,Y,Z,X,Y,Z,X,Y,Z,X,Y,Z,X,Y,Z,X,Y,Z,X,Y,Z,X,Y,Z,X,Y,Z,X,Y,Z,X,Y,Z
-12.637830000000001,-32.14643000000002,3.52485,-6.434800000000001,0.10607000000000001,0.59005,-49.03189000000001,-47.58411000000001,4.91949,0.45691999999999994,-4.65972,-0.014420000000000004,-10.174840000000001,21.768,-1.3650400000000003,-7.940690000000001,3.5898000000000008,0.8440600000000003,-9.27928,-3.8883600000000005,-0.4939,10.472410000000002,3.2776100000000006,-3.692540000000001,4.145830000000001,-3.108810000000001,-1.09568,5.752390000000001,-5.02223,0.5151400000000002,1.4831600000000003,-1.54202,-0.10071000000000001,2.06042,0.7785000000000001,-0.37661000000000006,0.22009000000000006,-0.14583,0.03804000000000001,0.23415000000000002,0.05179000000000002,-0.051470000000000016
-10.592448326570803,-31.19295774287979,2.740521615211336,-7.023256883725834,0.13984939036739064,0.4462930662886618,-42.10702443851648,-43.713831545842694,3.3870419828471756,-3.8280889798354254,-3.4988891740210866,-0.26236220031743285,-10.515435878181206,23.035745577470788,-1.60010894885737,-7.791820508375526,3.5091994651006915,0.6381419463930454,-7.310597941244145,3.090645571542369,-0.41641196910325284,16.342506655609025,-11.0237823167961,4.0864489349300435,5.159733996721372,0.3016693129600301,0.09042735301692552,5.3542787159578085,-4.4002057617272206,1.0409274412214808,1.2278469963305323,-1.7653879642496986,0.15604539822348906,1.7616066193902478,0.6115012822978627,0.014861177577008958,0.2472903758403436,-0.13394287640487276,-0.019311853725357698,0.19797883339626232,0.057845822355388994,0.032964424280949006
-9.145005122843797,-31.52581691240765,2.238405092869726,-5.662568331964668,-0.4855916374695237,-0.09181324155954809,-43.696545458968544,-43.26976029232021,3.287464638922532,-2.0006504797866507,0.8999337994989437,0.3538261600621163,-10.878702321630707,23.59436547163514,-1.9469751292088575,-7.828112008668876,3.363028022220113,0.42177601200631987,-5.919206479716565,10.473108179805985,0.4120543416424961,9.37371172019553,-13.93108133528068,1.3761503422636805,5.686220439707271,0.22661557956072176,-0.2082978056752056,4.490322840207749,-4.859827215084945,0.1759211839283774,1.125237584403352,-1.518080413216269,0.03577455388328119,2.0241147080668043,0.41684279445550737,0.07662676545368481,0.20415050290124354,-0.05018901756226012,-0.06694980487382157,0.20970585771096897,-0.006298863423054952,0.031112574559979168
-8.872882164069443,-30.8351620391392,1.9657427215498373,-6.351238536569494,-1.3522569713253942,-0.1880503584188685,-45.01022788943127,-40.398853195354185,2.8112334373494905,-0.7832838818574324,-2.539273194609526,-0.05153920944230238,-11.040255640456994,23.700400828748823,-2.1295572798153555,-7.921799723741247,3.228734268616518,0.23803469291798054,-2.5092097856318087,10.415502624210207,-1.768890016693336,15.158259539207279,-10.41411527060082,0.39877920683294027,2.8317206193565485,-0.34564546141387203,0.4172883506366078,4.270670886498901,-5.068201575752369,-0.48463515124991247,1.316373946678806,-2.011669832075053,0.035633499314282086,2.392632082505883,0.39727788064137526,-0.04011998113194938,0.19146873088027871,-0.2191935199483799,0.03974430188916131,0.23132882659103662,-0.02634980180090311,-0.021548531795432674
-8.358965864679682,-30.950863050977325,1.8634843882966277,-7.286261222058989,-0.6021561796217815,0.21545240419046774,-42.13135613998162,-40.430303424440005,1.9730533965676194,-2.0031843441335075,-2.083250959219716,1.1275725735786915,-11.081539777688846,23.471939945892792,-2.1363245323408737,-7.99773672244772,3.3000734854252287,0.395454266748445,-2.822206770157326,7.524583553050004,0.579409875003965,22.013478777953452,-6.835079293247655,-1.4480862899476252,4.652382893015694,-1.3287115648677155,-0.3603769737414205,4.921000805016415,-4.019705920916006,0.38713505163414885,0.5899929470996682,-1.4303108494631267,0.2875585885399993,1.9862689946155168,0.3948679886093851,-0.1789551506474293,0.09248340880111114,-0.13057448726542464,0.04084742796833781,0.21705572491237524,-0.01287606652725759,-0.053444026862306086
-7.924049325203095,-31.946209337417038,2.1821419751603233,-7.622313784732581,-0.4972940930839501,0.20752706287246336,-47.09880047673156,-41.13552549129901,2.917386847436974,-4.290355862324194,-1.1336644456247182,0.4475543250342427,-11.194621977451083,23.682215104767515,-2.0578553002780327,-8.661433994142653,3.509998080465991,0.5389783858347961,-14.472681509882042,8.389769843976968,0.6211171371019026,13.2260717788451,-2.849118544879264,-4.084839293184023,7.231908512083381,-0.8817300501966813,-0.7587756709988105,4.550211793470692,-3.9511028414988654,-0.004638562844737836,0.47882696080443726,-1.174949540959276,0.2989061285837811,2.0598451926343606,0.6459484785034524,-0.15923913306967213,0.1932537309301089,-0.06302121338316652,-0.055690486687053384,0.2560590636875664,0.03955636098110057,-0.022775438006914384
-6.463804173491635,-32.286793522542006,2.067725105721667,-7.5770443432300345,-0.02116428763260957,0.10015301892695204,-46.10902352344328,-39.76616528702434,2.8663138016824248,-4.086186573817867,-0.33395075381877776,-0.15729051173822997,-11.841536586516966,24.727353148800766,-2.1184447944348967,-9.744341911716452,4.049381753640777,0.6675714921083475,-11.763507130603783,10.969174194410748,-0.7033189403847981,7.191598751737339,-9.632648565379329,0.7900397520982247,3.8575906851670894,-0.7167277780814325,-0.07397096524850043,4.804238176870999,-4.983522985625139,0.06065217199813176,1.382373870583664,-1.9276210933282387,-0.14473593970088067,2.3001340068195546,0.6135033901505232,0.2424610768635745,0.27106623226859095,-0.27126570394400523,-0.004710198571286368,0.23871835532795516,-0.007915004181176678,0.11960852548286958
-2.7579899999999995,-30.587640000000004,1.3925799999999997,-7.66652,0.5594399999999999,0.40942,-36.757279999999994,-33.993500000000004,1.35891,-3.49383,-0.48282,0.37198,-12.763809999999998,25.83706,-1.99917,-10.658560000000001,4.72565,1.04536,1.1568300000000002,15.895309999999998,-1.8972300000000002,18.75058,-18.50283,-0.76729,3.7015300000000004,-0.45067,-0.044309999999999995,4.58041,-5.88971,-0.38530000000000003,1.0876199999999996,-1.52327,-0.08308,2.1650100000000005,0.32892000000000005,0.008350000000000017,0.12255999999999999,-0.10432,0.005750000000000002,0.20768000000000003,-0.08061,0.03325000000000001
-0.46332278534403193,-29.7295556605846,1.6431128250174383,-7.32621937325723,0.12463186236335437,0.468304908513568,-39.52494899163392,-31.703026003677174,2.215454268881346,-2.2701789057686335,-0.372895138749797,0.5943293031318466,-12.796976147015815,26.331272123413044,-1.6783097687966986,-11.579255291027797,5.397458425981781,1.3668113820542793,-7.062851188968395,11.962877796431332,-2.3147066411740456,15.808790566482703,-10.762563580729728,1.1565251945716273,7.096389963981848,0.070943378594175,-0.3943808606720308,5.4058878139102005,-4.586475462601619,0.5236929611131369,0.828240584794517,-1.4811223634965107,-0.050634135500112254,1.6195188741452802,0.5482882747667063,-0.4307402756023733,0.14302925693941151,-0.07620929262361402,-0.07439835864746082,0.1409018505169822,0.03931719829422805,-0.11378592188404307
2.2302863699778017,-30.2275839048317,1.7345155210925398,-9.339275414414615,0.9622893640161034,0.8576445423815146,-38.0180933125579,-30.980742943844913,2.240732446953145,-6.479817647120216,2.3415188247011587,2.2293538766638785,-12.61089187630431,26.799557205325385,-1.483659338822557,-14.24520909906749,6.769702027762551,1.8132823724133103,-15.242803274041542,11.830139684772021,0.38285635987321076,17.459256407711077,-1.924836150532158,-0.8738259298224367,5.575982315118427,-1.7275551975035048,-0.39912235768919935,4.960703918836547,-4.084491305421388,0.27749423693243425,0.789560741324036,-1.8210120076802645,0.252797746188022,2.155515748058307,0.6171037625888904,-0.11657460962269445,0.15160412201258108,-0.21917238883391837,0.06357998827911651,0.2692130697830234,0.054600349738178684,-0.03576887099627032
4.641659461555874,-32.342116201276895,1.782617395061339,-11.806484892106901,2.4771928623109045,1.5418074302877416,-37.392820752823766,-31.086328525981333,0.7498707928344737,-13.598114007549153,5.256578830524166,3.6194978693162514,-12.245635450703366,26.550952727776583,-1.2805276233731426,-18.32067572563071,8.952829711488237,2.672643039020306,-24.25562762728702,13.83521693394268,1.9980690833090415,19.581099664175404,-12.161202501928317,1.783567340979787,3.22707537264632,-1.6320606550761028,-0.06590915183608174,5.2435931716267135,-5.066261719529799,0.7699191346664113,1.2352022530275542,-1.992912385808717,-0.02851733163269025,2.325419031563006,0.18061840712861355,0.46581734986673606,0.18325660913969122,-0.24427537711251116,0.06823594978918267,0.3249593796554294,-0.10068683012792999,0.15179118992105817
7.0024599850590326,-35.249632583878025,2.334205380277932,-11.927656151286904,5.251583344821149,2.316047600375528,-36.875258970605046,-29.288961111369805,2.4831704585542695,-11.065651169086236,7.703179131764614,3.2780624624937302,-11.691444613057831,25.258064799828578,-0.8997876303454503,-21.80524990388176,11.082820993442837,3.89649936977539,-23.311454449017162,13.812603445279006,-0.35289497082502086,18.834612805267415,-15.117405050301777,4.472869348973207,4.865014324236114,0.0541568571734053,0.60860132657056,5.641782957518975,-5.252273785992956,0.4517020367603319,1.1852068637292261,-2.118498287645477,-0.08153825673234255,2.1202106198147352,0.5058107608614723,-0.056362706611489025,0.22988978825241943,-0.20882891988873334,-0.01875045808521026,0.2269710530049925,-0.020966538314170613,0.014320086160267758
8.549644881258057,-38.560145889708345,2.9421850761079944,-13.266857515753605,7.3661574571827835,2.991423975108797,-36.1103560792996,-29.218349736429605,3.16521875871007,-5.575574175191353,9.551361908503841,4.540776931773477,-11.725702969826147,24.345123503788102,-0.5138211097647652,-24.4898750019866,12.707240313350436,4.680265762394106,-14.913046942751356,14.840619055057276,-2.279721433708537,31.752409973608515,-9.458306915306219,-0.8164452740778879,6.104878950459399,-0.77198158956577,-0.10554226662450367,4.962376504012534,-4.8742852842250475,-0.383628600993788,1.2135175241023883,-1.8527993895557713,-0.15349843969720328,2.4312076073002498,0.7404799890543462,-0.13228759219822162,0.2477711584121717,-0.1556432935251752,-0.03305941654910925,0.23336064909418344,0.05379989203130126,-0.03484459288471119
6.939776682200764,-40.799987639289746,4.175200957691028,-16.343319912077845,8.485532600235489,3.4221276671795335,-44.17054772894943,-32.106393873514726,4.456497287438987,-12.825194077980738,12.101508170170751,5.6835985577132515,-12.155859282983132,23.10010997840933,-0.17877723027209833,-28.093597723027045,14.939747795693526,5.2244970149418615,-30.745103718302666,16.033015347624143,0.09886376295114098,34.82810749337599,-23.231582854648217,3.438834736580723,5.807759100249438,-1.0913847836706998,0.4677989062371316,6.50703520478162,-4.920057366356303,1.8315888898563244,1.032637405166815,-2.3295722121556253,0.1730614328022314,2.210335412596672,0.20994833980852928,0.4986124761725668,0.22633906983194724,-0.24965470314198127,0.06929244309755456,0.22837777990629268,0.005194167240018441,0.07111921130647018
6.003849999999999,-44.14409,4.836259999999999,-18.834690000000002,10.29612,3.5015,-48.49854,-37.61946,3.395539999999999,-18.731779999999997,14.002120000000001,4.48224,-12.524760000000002,21.620499999999996,-0.09491000000000001,-33.22872,18.545749999999998,5.87684,-46.078540000000004,8.30938,-3.1029199999999997,38.216080000000005,-16.66532,-3.023450000000001,6.224240000000001,-2.27733,-0.47869,5.7231000000000005,-5.831899999999999,-0.40276,1.48598,-2.7597900000000006,-0.44079999999999997,2.7458499999999995,0.7361499999999999,0.023690000000000024,0.3205199999999999,-0.34224000000000004,-0.07379,0.34912999999999994,0.011719999999999998,0.03073
5.637907844189143,-47.875743508384396,5.260295008541889,-19.96015986470158,12.733002888405107,3.663470203419404,-52.568708513179075,-38.195594937352645,3.0566327361028733,-9.530149270590046,14.689610049304118,5.636888035128361,-12.808594596747982,20.53974530453602,-0.10494804148771102,-36.940910921026926,22.0801646743085,6.456369122821844,-35.26955745305794,7.832442143074075,-5.7600428948176114,37.722819158222016,-10.236794214922487,-3.8812436511582087,6.194410956642125,-1.5733852471365346,-0.7082585701626625,6.058419813381917,-6.647074182488533,-1.3578147330146368,2.023022292892649,-2.591507613410732,-1.0540190295693541,3.1778058394469406,0.9917599940922025,-0.24927920535785042,0.3886671438914887,-0.3104549829734626,-0.18493089936985932,0.4405079772360216,0.06701736256642735,-0.06504948161880299
2.779620812226101,-52.299759965888036,6.617561087258233,-19.771339716955033,13.331484088892353,3.6223588245805054,-64.95396077872294,-35.60747175321125,6.6582001061642995,3.918518975200658,15.485216940693167,10.24095534650295,-14.089236532847579,20.165595372573883,-0.14591501524876965,-32.87655645555433,20.858763518309917,5.654885179118992,-22.727184995521064,23.559859202580615,2.2683851717936907,26.515881978457728,-16.10735693881112,1.6242693791245018,6.49759002599903,-2.1507720568273934,-2.004016096957074,7.918455892885168,-7.1373353620431015,0.633420518051206,1.9207722389539856,-1.487393427739091,-1.1041293006068678,2.9802201597303304,0.6305535802190341,0.16792205642526828,0.3524030545076189,-0.14884581748195427,-0.17641842596234272,0.40378976869443983,0.07064327606457277,-0.03312890831621743
-2.7073725024360797,-60.858694441219704,8.63349246012961,-19.48947468664796,12.30411763600791,3.218000653306217,-80.920637860444,-44.79175500424989,7.852757160454519,7.636923117729713,8.649451314884622,7.8030938735987485,-17.089078823757674,22.039924787189456,-0.6026747108342223,-20.516544683905387,13.065085560786255,3.2470116994945006,-27.72031924608783,21.85103398145889,5.85076366565962,30.96439168962096,-14.33135239876483,2.1071399717832597,6.708202890149748,-2.1509122658126794,-1.4869300922487827,5.421900494336354,-6.108311718060683,0.21654259225845313,1.028931388251014,-1.3352014330438267,-0.5528553672013407,1.9909937466727505,0.2671704391931596,0.5522898613473544,0.20014200468728688,-0.002687886046966719,-0.10569008771112497,0.20315679031196232,-0.07375455298695183,0.14351216116527554
-11.12300559663398,-68.14514978331245,10.329314036007064,-12.790479524737803,10.46855504988395,1.9536096537506917,-102.06216770848827,-48.22709105596491,8.271994718161524,29.530572071637632,-4.1022166634282815,1.454837666041309,-21.210354949340225,27.030805347383744,-2.1100296612681495,-7.209183688766156,4.598155373836562,1.1759063338482676,-20.810306702164876,18.891486470826983,-0.1376202979543642,36.88166351847855,-20.45970405094051,-4.7555730396167695,5.357091039919607,-0.689356908557144,0.30362268115330787,3.2847856325338887,-3.9332148398572375,-1.393068821798361,0.7343030891092754,-1.9796349630149972,-0.7099401876359283,2.072425566037689,0.8311151621631125,0.46551942447835165,0.2399829713897323,-0.20794984578858747,-0.1858498808933987,0.22718932300590175,-0.012871256909174457,0.1709664711520646
-17.131659296379492,-71.41649145172799,10.315503608127791,-3.789095929802651,6.744883941945559,0.899885412888669,-110.74835743065071,-45.995134434794586,6.57700817083669,50.124001988236145,-16.5570572273444,-1.5668299303503108,-25.411600701654894,33.0283836843523,-4.18858640322226,0.2215110223036843,0.1098944788677512,0.5773605973136174,-4.35499360764648,9.388230219253193,-4.013961056115146,27.141039719195145,-33.93269042061713,0.8194354153197897,4.232403418846558,-0.5603640448828769,1.229092213941368,5.255778612321377,-4.789193260199264,-0.970045508474598,0.1684944376227617,-2.1759857052135034,-0.31445733723785896,2.4842420716142724,1.0022467697702646,0.096101594468243,0.0845410030568493,-0.3133082304897782,-0.030846221832326357,0.3562952875065061,0.0511205939656778,-0.00387246948135727
-17.496532982910075,-72.8382182447024,9.602800389994249,1.1002334237680924,5.886879181704819,-0.09002992004353447,-109.67830469863794,-44.84218688469189,5.99667568673482,55.17193503483473,-11.204192971578172,6.187166474254728,-28.265794141333124,37.23920567517501,-5.75896223998494,1.62646626539824,-0.6531195132774107,0.503253030786918,4.28504456111416,17.78756400924152,8.771963672139618,-0.9174643356519352,-14.645925378010638,7.127837767309779,6.294543594255237,-1.0631096558064423,1.2798225239866976,6.035146065101449,-5.308490519991822,0.5687643737848892,-1.4114011011447898,-1.3178215100265998,0.9866421100034004,1.2358051460439952,0.8353266224485758,-0.4112494851763261,-0.19360036857728122,-0.12641317984799366,0.2324277922095748,0.08057351248821441,0.06368152550381845,-0.15113203553353727
-15.606109999999997,-69.60011,9.294390000000002,7.05616,3.3977199999999996,-1.7270300000000003,-110.28603000000001,-39.517689999999995,6.943069999999999,60.12045,-11.517069999999999,5.64628,-29.305390000000003,40.96588,-6.530290000000001,1.99008,-0.7264200000000001,0.24252999999999997,2.4271000000000003,22.25344,4.992569999999999,2.8024199999999997,-10.572340000000002,0.7388499999999999,5.77544,-0.7131599999999998,1.5277799999999995,6.06969,-3.8396599999999994,0.8106300000000001,-1.7230099999999995,-0.85592,1.34874,1.2708199999999998,1.76518,-0.5722800000000001,-0.27763,0.02861,0.33543999999999996,0.19080999999999998,0.25295999999999996,-0.10677000000000002
-10.398023760316173,-64.7384263439086,8.971449896804033,13.511119505295463,-1.0923373081778778,-2.6674343316555453,-101.28351217955458,-41.905109879052524,4.782355486884582,58.110173733320394,-18.138992251284805,-2.4865962321287003,-29.441252250059744,46.17055539869615,-6.52432046473483,2.528542978084967,-0.7831844505565846,0.13192434633820496,-1.1873601280042243,1.1279885282338038,-10.37210591575653,16.376207720736854,-19.787068950573317,-3.2168494110836243,5.74345333529656,-0.926469849720099,1.206323767681409,4.824454095322158,-5.34100475779624,-2.4530028638917827,-0.9421020973237727,-1.4883844428096082,0.42940386846048284,2.566450863760168,1.503962269718634,0.7780247313291685,0.017766669471472596,-0.1542996333786773,0.06979610895981585,0.36384379835364894,0.11187775929143812,0.19713552269344856
-2.225142035367545,-60.11041056983649,8.536970395269218,14.403047550676899,-1.2131333944222489,-2.9051008142822767,-87.47217909850691,-40.13926053749941,1.1777490910581574,60.02695497108322,-18.36237306344831,6.753035276660679,-28.50552697684952,51.49522156311924,-5.908044886703592,2.381170860817356,-0.8270026524989059,0.1714343335108504,12.132478297810856,-2.9545494732670243,-0.5767086228401355,21.49750546424775,-20.448348587034516,-2.998353929953697,4.853345559763443,-1.4819140222234795,-0.07786791323897478,3.397294743382567,-4.315055592711307,-3.857790666671072,0.5333578023453077,-2.2140087002755076,-1.139927224277098,2.286007538589145,1.4185305309732223,0.33860951254671795,0.30989194472539616,-0.43187672325181525,-0.2645402207247225,0.27414405342549725,0.12637365469292156,0.006420659322851656
4.8963889995865895,-55.26649668453741,8.221030306438337,12.613894995914485,0.1208166579923397,-2.901962861551928,-74.72152678601819,-21.509733528273294,2.8573705949332484,54.350384736273696,-14.163259585020807,14.514494188299663,-27.092368841323932,56.264575686031705,-5.6560324565786315,1.9587227190320244,-0.7930836127233182,0.11909499566991498,14.899710208750598,27.17556537628549,14.928734768068729,-4.992716561864583,-15.284798686257314,-5.194766002251626,3.9758218031467316,-0.7246149804325178,0.9556744094626778,3.0083813991209176,-2.5904611083039453,-1.6317259061351452,-0.4972559119416521,-1.5924359770118064,-0.39019582209570974,1.1618736648290033,1.2169660685756056,-0.41798913338655197,-0.06799469691360616,-0.19310085579899522,-0.024926608923232015,0.06518415388545899,0.11541218071043699,-0.16334353517996886
10.008068667534557,-56.050768070422244,8.84624494801507,13.958860652224548,-3.1995695078043003,-2.474991959633268,-65.03679364485214,-21.017301430410793,3.293433474002165,51.68820622159471,-19.170045919760902,1.0577457441057587,-25.37943641685906,60.92659238638553,-6.247311302692348,2.1894872514193784,-0.9621412379982597,0.03751100254949948,17.501223353994202,17.104684719995895,-1.4918794426689337,-15.313550985948169,-14.430257762915481,-1.0884051857365251,4.8473202111570926,-1.2325888377198806,0.7178054717750195,4.559379742952579,-4.0805598765523206,0.5606688889597524,-2.0186519524479976,-0.9995423231498007,1.031044030568215,0.825642802688925,1.28569037172169,-0.19903259927688383,-0.2496203117296351,-0.010123496624906102,0.18044168172711558,0.029533514962588762,0.09686694356099891,-0.022140476665266216
17.066375470720118,-57.30681185729084,8.218008449830988,15.20083971311708,-3.5486937950698643,-2.577305460737094,-48.924514077454184,-16.88159137479554,3.1962404661418238,48.80037297791003,-15.067743306539429,3.7306772225934948,-23.57326173691638,64.68485753647658,-6.993635384478655,2.4203813425275293,-1.0787880832494172,-0.2892165051737067,27.665283282761774,21.521558221579188,4.2610679414644395,-7.9153013200470435,-19.1093753399797,2.5965586361302417,5.249235133789834,-2.2574264790007073,-0.4284526981923971,5.248468414965331,-4.999266877469429,1.3369693440929236,-1.7973893000093213,-1.6112511225362764,0.7720508595970795,0.8161005386798413,1.4689913820890976,0.012520766833114375,-0.18133583088412994,-0.25056443393723343,0.14699301283643973,0.03023563170774733,0.1575886451246266,0.04237182062052714
25.615463453550554,-60.13520017453006,7.409910325690864,10.771879106231996,-3.9099813948363176,-1.8356044194897985,-29.003089592393234,-21.901781878905197,3.7758119984050995,35.93355533095034,-9.632612075409105,0.0034014754467812667,-22.365669228001742,67.21434514905486,-7.444648838323198,1.8727243333815946,-0.8846648081177211,-0.4895745925378903,29.40907888967052,16.87975668538599,0.9826653729094057,1.9149185829399973,-20.04487460057253,-4.91217623456382,4.991978675724438,-1.7459900457146065,-2.636985529329174,4.254035930658002,-3.778313069777034,0.6337615568082571,-0.3988324497307407,-0.4347158093182254,0.2604948730625231,0.864412735049983,1.530849260208524,-0.27806286724506,0.06078716817241215,-0.06367534020052315,0.003772681052301843,0.06170206476233508,0.28056591410090936,-0.10406362969056214
32.56045000000001,-62.835089999999994,7.43937,7.07158,0.5389299999999999,0.21696,-18.764800000000008,-28.01511,2.68235,20.976870000000005,-2.4511700000000003,-1.8428800000000003,-21.76245,68.80421000000001,-7.40409,1.7505100000000002,-0.5798499999999999,0.59894,13.936659999999998,14.34862,-3.128240000000001,-10.719130000000002,-19.51908,-5.249159999999999,5.7191600000000005,-1.1348600000000002,-2.4815500000000004,3.06508,-3.08072,0.6810400000000001,-1.3453600000000003,0.36203,1.0440999999999998,0.64422,0.7236,-0.31511000000000006,-0.0003599999999999888,0.1329,-0.011080000000000005,0.13832,0.04896999999999999,-0.05380999999999999
37.61333925606893,-63.07083888762841,7.717146312541943,2.634709103422124,4.175927675499198,2.9496385967089065,-6.412148945576085,-26.401952611200173,2.3336857280435677,15.224188987983519,-1.3479301192301019,7.050246781091105,-22.01678075824757,69.59176546815156,-6.89084426168924,1.6122221760719484,-0.7087191807319386,1.4485730419112277,22.117868844815458,21.612090116175317,7.373502688889712,-15.276559878017522,-38.22661463681889,-1.513251740982207,5.804201438603499,-1.1765602200261696,0.8294578916570097,4.3135923893514905,-4.6613575849008875,0.22498545956518468,-2.1871798381464713,-1.227638239360006,0.7897664671882924,1.2117168315295601,1.0655042455765993,0.02857682913067578,-0.24575829262331095,-0.18525384475493972,0.07016206405062878,0.19907944604659653,0.08348498715277819,0.0002969444834843805
43.602484434424845,-60.3364857717159,7.12833907420511,-2.609609632542385,4.247238807657249,3.4480641653970077,6.905429964411872,-21.187034990072195,2.807678531737254,8.567835609200538,-0.9682980480572605,5.539784836647861,-23.06510398077023,70.02190626268838,-6.075061100653316,0.773360049115035,-0.5999071866098018,1.0524128096230316,28.935994844006796,26.527838853272737,1.8409031417481958,-2.4658589393624677,-36.27293118338469,2.069004262670382,5.322396567090112,-1.1517433348160055,3.2107291426683524,3.9443521041437264,-5.086328313562835,-1.5495745838567951,-0.5385952921657434,-2.827608381627256,-0.94986382563723,0.692298447103231,1.8119383189637033,-0.4106404654547714,-0.05493229666223745,-0.31199782963585804,0.05186376669659085,-0.17164294658834042,0.16802281407952993,-0.11313973687946471
52.14312146255214,-60.635787010171256,6.678261350288683,-5.535273732801207,4.570050516040498,4.1769095512709455,24.608007720616655,-25.82819902708351,4.035897903688691,2.083079637994287,0.46953185467782643,5.930952470082041,-23.79941904436428,71.24584948285272,-5.385360622665582,-0.049530680183494824,-0.28479814140895854,1.0064021108370529,37.48679803392962,20.757353908319686,4.544650659569033,-10.230744546645377,-23.4287368988254,-1.4290815512757333,7.913413334111299,-1.9258601064995646,0.6023804815285316,4.667063971862779,-4.806825541480416,-3.925942153073013,-0.893185318578514,-2.144884138009455,-0.6808589599783488,2.8244264081487978,1.8176494162225483,0.9653640008073466,0.01411905859484106,-0.1265983721062204,-0.04578065365977597,0.38856597167661794,0.1591101540902878,0.13578422299200188
60.02485108509239,-59.99533988122733,6.510737301914882,-13.8645425484183,6.1446478227226695,5.943093193618334,37.48435710687092,-33.063998654483626,2.9895961663672677,-19.595668199108438,4.829981729943213,12.712964229943095,-23.935110343457488,73.85947247189571,-4.6750098489586565,-1.360493344685873,-0.20121707795577104,1.3048827334524067,25.03844197937635,14.93044180638733,13.029506068086748,-10.743361804529375,-9.389443402544323,-8.040358084980385,7.46255673966178,-2.152515549613964,-0.5530976119750863,2.7026881929466526,-4.268387541376774,-6.186790864126211,-1.469799833820981,-1.612639113745891,-0.01544938568100056,2.2202705427945264,1.2769284328951516,0.6132973368131689,-0.046077171110737905,-0.17372391677387963,-0.057360216803058334,0.2808628122482845,0.11794925697876242,0.032447130871515566
68.03479194771634,-57.36403659628357,5.10907022446703,-15.226285320706177,4.941114517074719,4.111642666945942,50.14506456666918,-29.619115197197473,1.3594551775105777,-32.07029383463456,5.110027078599416,12.530003828345698,-24.313844612529877,77.6637651084647,-4.483364182169001,-2.104720840223704,0.3210446782563361,0.5144723065824877,18.619944270175864,16.236248279734873,9.842120902381035,-6.126983812679377,-22.686248511080226,-10.397844069123403,7.909037668468026,-2.390971378381816,2.226080936403002,-0.9544366397496703,-3.4632173510429847,-6.430887156951206,-2.0106933022565237,-2.9272827706209643,-0.17226288906037887,-0.9163951449206251,0.9435819487924574,-1.1601226833970744,-0.2125564305788813,-0.4483836429801188,0.07957631362852449,-0.529371586726302,0.12548559552846716,-0.2862407566033281
75.66097193982255,-56.36566135011646,3.2600612044019726,-9.1609637429401,3.430420985767988,3.2739205478491282,67.36747340385826,-25.356508528327655,0.7541620441018918,-38.43484227449565,9.803027076566172,8.159196675292488,-24.868516633141837,81.93517359358731,-5.391154107692196,-1.2411257621114709,0.4309573532211904,0.22064292939918695,30.484050190969683,21.958820961982042,-4.014849971185073,13.861589980803142,-29.634555560602564,-15.28864725606741,9.714680723116993,-1.9968702947172068,4.459702168110633,-0.6604280576631963,-5.2508664337838065,-10.832936303053039,-1.883457871843438,-3.5157468084279073,-1.3143671776085317,0.8624238952388319,0.6718271727929129,-0.12720229808819558,-0.11521173638051092,-0.425701439758311,-0.12509622337567014,-0.20266954742819923,0.07213385086321654,-0.22419517616736215
80.21393,-57.735499999999995,2.98777,-12.71616,4.48654,7.748,79.78074000000001,-29.19699,2.1927300000000005,-41.20392,11.456380000000001,17.454170000000005,-24.7245,84.58104,-6.69586,-0.12540000000000007,-0.32115,1.5517299999999996,38.90264,17.21043,11.61798,-0.1955699999999998,-16.901799999999998,-14.782810000000001,8.303580000000002,-1.45962,6.70401,-0.74654,-6.110390000000001,-13.275039999999999,-1.7965199999999997,-3.7221899999999994,-1.6557799999999998,2.0280500000000004,0.90146,0.5608400000000001,-0.03868,-0.38458,-0.12978,-0.0017000000000000006,0.1482,-0.15358
83.2597408265038,-56.875699041077,1.6827286303084663,-19.404005239246345,3.9038356815411492,5.880295097900649,94.25343923116705,-28.069065905065088,0.5134276640707474,-38.530336381326215,8.646815678406014,9.448374835057917,-23.278118939173993,83.67883007064458,-7.336120356570423,-0.2924068787312813,-0.3553285110194171,1.0869700134098406,44.920644948286096,16.336113217571572,14.048745000833405,-10.329684770844459,-26.943927137958728,-6.254381083874884,8.606413809733796,-1.6563327716163367,3.4352414434547422,0.057647204378496957,-7.013658428857029,-5.562587732947757,-2.1672531633733256,-3.010752609176487,-0.5580137189200419,1.8503848700007477,1.0463389032584238,0.24865219318586096,-0.16345034238530343,-0.3648154351902648,0.022888585785166324,-0.0236009814902009,0.10276427931335455,-0.06675397992729312
85.82405184681708,-54.141843914723324,0.003606580221940124,-15.028230638457426,0.45097025381319783,-4.988788158190535,107.9491252166647,-26.267504775368,-0.7529011176968214,-9.407442715789081,1.658346190133908,-14.235692458949854,-20.848916537104518,80.9363395110486,-7.355073899251998,-1.1185453469683073,0.06205602046234545,-0.3483194480926442,89.02924912570106,19.151009620096925,-6.308751630489195,9.434443113677249,-36.62240231925996,-4.758656020835639,7.231001029738833,-1.1689348772844124,3.37322072253103,-0.45974924296111414,-3.062611783681767,-4.225264557589414,-3.1264678140601863,-2.7421289397250956,0.5240378894307702,1.1124863689735742,1.4254104905900642,-2.003129268915892,-0.4126793326079097,-0.27249170162283526,0.24560284651035458,0.04050990399827281,0.33490788806772875,-0.47641215813856297
91.53054250515291,-51.09315334078015,-2.230951641961454,-1.197873398271721,-2.059898568851637,-12.97746864461564,123.00917871331569,-33.11314903515724,-0.3781294403964237,34.18587704800914,-6.583675590999836,-31.816127226439864,-18.950530210277904,81.07412742654617,-7.604309337325934,0.3571495016999889,0.30148689992585104,-1.2290042307185218,165.85370184304028,0.8678741637732652,-26.504241712830293,-34.83303399309699,-53.81496832073112,-7.993543007688281,4.1733021672248,-1.2415625689559935,4.94677996492175,-0.46890709604608927,-2.614575649167234,-0.43102538008992686,-2.7119130155686366,-3.2131664532601194,-0.059477066259763595,0.7842801818964702,0.6162838704437456,-1.310531771937683,-0.37355163998372265,-0.45671065285663887,0.15327853447840575,0.05026451771753797,0.24527785595654922,-0.7141770997183658
103.71445330761502,-49.141165634352035,-5.974246263571739,12.928017400230976,-3.3013351689640946,-10.743358266496017,139.32378151448444,-34.693938936316506,-3.090832938799479,66.60622001457564,-12.73933801892317,-22.268651234962103,-18.08285775159298,84.73351677939706,-8.34971038562574,1.4413555705462038,-0.6326458730450437,-0.6745200687291947,228.80725679272206,-10.597075768813372,-23.908143104872007,-87.2943034388292,-33.539468182815796,3.308847504466347,3.2214292533262436,-0.8901908144489905,2.977932937447626,1.4086554456141394,-1.2191727886360055,10.660016595118716,-2.252681743021917,-2.7288163475383693,0.4159484906663369,0.4103452190302259,-0.0017409246643305296,2.3532687157657817,-0.3140194482737168,-0.4107684285449137,0.18656565285512772,0.03919771809588381,0.022081819207821783,0.08372787707939444
115.31627086120945,-51.71289747857446,-8.254355612759017,12.473289553503324,-2.733488189701252,-6.985263913467753,140.44676347524853,-38.16597880237497,-6.232268602175688,78.02417055567128,-15.324727693093822,-10.608448801057635,-17.771501175578397,87.7612728544622,-9.673413976301894,1.1489856848645876,-0.46955913963776186,-0.5746569276399074,242.89770500597868,-11.114053943913378,-13.712599545806919,-78.0810399651127,0.12160725551303238,11.277825968050436,3.2268347799357056,0.5635282759908445,-1.681529459755042,2.598180057543707,1.556404439206791,10.315508608411928,-2.3445556679006723,-1.4069001998567334,2.3309700960413475,-0.5486638084573143,0.25557873000750914,2.465535796239007,-0.36337749986496787,-0.20950099597929564,0.355061477731854,-0.07212929251785634,0.06875076022511335,0.45739265693696246
120.90237941314449,-59.45062460731648,-9.328307087678049,4.763399468335748,-0.31690236937399996,6.934218152361308,141.68182804625485,-43.05398819342189,-10.388146419412005,66.54523708816001,-10.356732257102038,5.47390791724132,-18.655286983941707,87.51356149362978,-11.48134372768488,-0.31160278052599494,0.11544365095324119,0.8110919444653871,244.08634856517003,-3.6967424996208,-6.310283042822039,-94.2113944145826,-3.697053417921303,13.980850721883586,4.409060341540368,1.3960071476107652,-4.655315270467911,2.766589896491515,-1.126017778986516,9.26206503666725,-2.0552316825206947,-1.2233527726646034,2.6379171272008146,1.4523931247956627,0.18160843441139496,3.5455906527489214,-0.28198589525213624,-0.21385096097925568,0.3469208853824141,0.18872609663454326,0.12639464839000245,0.7106497802927656
118.43544,-68.76241,-8.17757,-8.54053,2.95306,23.675389999999997,146.70921,-49.72268,-8.58147,28.682659999999995,-2.36173,46.33734,-20.717070000000003,85.85886000000002,-13.12469,-1.57149,0.04278,2.5837800000000004,219.78996000000006,5.322980000000002,46.4877,-102.49533,-15.57553,13.187470000000001,5.677700000000001,1.3951299999999998,-7.397349999999999,3.1452,-6.8948599999999995,9.91839,-1.23692,-1.2816600000000002,1.2057599999999997,5.160489999999999,-0.9274,3.63842,-0.01646,-0.18782,-0.06117,0.64999,-0.004799999999999999,0.6403
109.48064687457327,-71.52530821685181,-6.0089718897246405,-9.963429119214654,1.5893251410433034,10.580002775100642,131.5457447414971,-57.05151024809331,-5.944175170834269,10.373265762188336,-4.971473734394976,9.307798854163206,-22.51837139861397,84.63511024198097,-13.95267491752598,-1.0684049560253388,-0.40039784241896037,1.9603729526769382,182.72183524908584,-6.505156955670808,1.1744467660518314,-100.1545316077235,-23.039761117768705,-2.2890204003150427,6.719696809008729,1.6337018765758418,-7.414604391087949,3.6096813788146216,-9.424343802173357,8.972427031931607,-0.9953026990520508,-1.2320220615031237,0.4821915017175765,8.010236595692817,-1.894337286567551,4.876803522028477,-0.02345118626994229,-0.06278948804196624,-0.13029651569651082,1.0618843703194665,-0.14977943761486265,0.6227026009658452
101.90351816018637,-68.31501338870882,-5.398047070195259,-13.08982058746251,-1.1091663755323393,-8.521644148474326,118.91923827510527,-63.834334676076026,-6.00389766829879,-3.355134105741563,-2.703352563175334,-17.3165597959793,-23.632461360179043,83.94774274300018,-13.73700694273536,-0.8678932366585638,-0.18339579249539922,-0.305000817236434,147.74295751686122,-10.720641410877375,-23.743766433097033,-83.94338285144886,-17.402953752392378,-7.741491902692729,8.612223360153235,1.383622520270987,-5.099645694433384,1.787365872260057,-7.412146512962067,5.89294837709409,-0.5038792277079591,-2.575420236833955,-0.3292781279395187,7.891255044797047,-1.211059132467711,5.7760475855684,0.1371121864141014,-0.2539620504788832,-0.19334165618329266,0.9220637630095757,0.0689243470066917,0.5420702837296527
90.27898598881204,-63.36423457314567,-4.101007084866952,-13.737756268761022,1.0052876288867425,-0.5944604714296797,100.78775758057091,-58.86268855721887,-4.27270631240978,-0.7439938282240333,1.8619266233813212,11.395788719016918,-24.854183016163926,82.17946275747927,-13.442519573360025,-0.9035693182622078,0.08397464327052243,-0.32890855550399,129.14866951469378,8.492775903123652,18.941554951819395,-77.5816790429094,-16.598531233365893,0.1493972908669894,8.860216842122645,0.9938413760617406,-2.9034135008025257,1.4095268890341297,-7.817463955089265,4.6199312761094955,0.14959320344367497,-3.4090657880073865,-1.652420876335852,7.747431876134697,-2.1093047083910372,5.105680294962291,0.24355972860121003,-0.5046344421934602,-0.3826732364609585,0.9619216294194748,-0.07058275700560832,0.5642296880999494
74.46323276622937,-57.74933910697977,-2.7417770289172227,-6.90525884815994,-4.664929293058114,-10.350893402902145,75.93275356045787,-50.14688882664512,-2.5182382129002647,11.222413641678022,-10.594484044348128,-31.701982452457937,-26.572186924619746,78.57804891675792,-13.58118137113319,-0.2655511733256087,0.17493123730574545,-1.5972709685676771,110.38705091093769,-2.402649325572843,-39.68400707798217,-94.41153461613271,-8.926969559780305,9.283497764936783,8.897401651938416,0.852856715998672,-3.0245428876517075,3.862211344483973,-10.713444206483718,7.072679996561541,-0.703394358360973,-3.267442101855965,-0.09807401625492233,7.939603580226876,-3.3514401836502414,4.298061947075196,0.059109472592149305,-0.44726133144379787,-0.0878160946185959,1.0381729804763522,-0.23538987953446705,0.5371355735243409
60.513895439862466,-49.92849443843396,-2.9282572948546846,-5.572514870729939,-1.0277374136568953,-2.45370211105121,61.70884946445982,-43.49529311115219,-2.2841132466391825,7.241993814461301,-4.139410817028647,-19.54779546307304,-27.78951675528861,74.35224789356562,-13.708926441481879,-0.05875476185230777,0.030653435187546676,-0.4490979989545855,94.31984213598986,3.090926852786253,-28.041751323668006,-98.32616705898003,-13.617412438947236,6.019159287564418,8.097667536783385,1.1017010620067174,-1.3727481422128918,2.1398601342541226,-10.452399887847518,4.920309150350528,-0.914105573165379,-2.898695677927815,0.18455128190121992,7.1127015997987915,-3.6309957516479825,3.2308198671822907,-0.07950276988520613,-0.3549598467528641,0.05661767584452221,0.8860458085405565,-0.2943882165698,0.36773145787051914
49.581547967102985,-41.22121130381118,-3.369788493160929,-5.08541876104373,4.611368560757197,4.243944573839285,48.68856300410445,-39.560104710908405,-4.1349280778658235,13.643271041404233,1.8821955944803295,5.960399087419899,-28.280317843683296,71.14554402745073,-13.360903581019864,0.06373100082602921,0.0014790411165297146,0.4590784819170132,97.72629817146112,12.176648020864608,5.633745844720933,-68.17254984510555,-17.184807314511136,3.24220897950909,6.370319758518292,1.0014704419858855,0.9722636855840521,-0.8572433048662502,-10.040274828943511,2.349468362215032,-0.5736889509807609,-2.8068417414560534,-0.17408698588758634,5.884785108216999,-4.123107847768242,1.963874851179994,0.00019461230081340222,-0.3450029910243684,-0.012606258807679049,0.6962286629921164,-0.458830050435244,0.2304733468239157
38.77885,-34.69194,-1.8430900000000001,3.20069,3.2874900000000005,1.8640400000000001,23.152640000000005,-33.86496000000001,-2.90249,32.41468999999999,-1.3902,6.55835,-28.96233000000001,69.31558000000001,-12.572040000000001,0.9292300000000002,-0.28166,-0.07165,88.19478999999998,12.147109999999998,2.7721100000000005,-50.618390000000005,-12.51,5.654960000000001,6.67005,0.7867,-1.03728,-3.48262,-10.612390000000001,1.67301,-1.04699,-1.9932999999999998,0.8066599999999999,3.8027599999999997,-3.6870899999999995,0.52525,-0.07691,-0.19828000000000004,0.12943,0.31104,-0.26265,0.107
29.72201210303938,-30.428345741205,-0.38762337624785287,9.897399178683802,2.007820338045576,-0.015805455667200048,2.6787929538775423,-26.722660260276864,-1.5538940814688134,52.41231066549131,-8.980640431189686,-0.7193687958897973,-30.47491284361296,68.01900455199213,-11.86216931345884,1.6583286059731954,-0.44587120927368434,-0.21688416353253054,88.26270960812175,12.095047425684958,-6.195740736161403,-58.99301889440388,-11.736220166719626,16.35141470966031,7.414437831945564,1.061343738054933,-1.6418884153761584,-1.0192352659187696,-12.83560758212515,2.809927310665171,-1.4302751883941804,-1.648074083179116,0.788704499254091,3.1751375753504396,-4.003837108641155,-0.3701230690397762,-0.13612272503702624,-0.07476981133378438,0.029970652603312827,0.2299575478064034,-0.2991196389602703,0.06273152060414672
20.759191625350827,-27.105976944736618,-0.08989144277831596,16.622937179114018,5.906315286130814,0.770646208625799,-10.220253955300045,-20.61625884337588,-2.583657158092325,66.33214144872605,-8.839308827510422,2.498173517077176,-32.37505329906054,66.4794985976708,-11.868924495745052,2.6736052630332385,-0.20411151961209556,0.8308956383184891,96.91331462279815,19.20181725267961,-7.710291593579226,-65.15813158419147,-25.84078439725291,7.975254716691356,6.660211910176969,1.0254879307266944,1.0255731433562103,-1.358916131459369,-9.145084289565785,0.08721979060790577,-1.236344526466494,-2.3681123685277274,0.6300887993703809,2.3833901845220544,-3.9183087281665974,-1.2762811430305507,0.03787161583530469,-0.30822550507609286,-0.050908509977798895,0.1168746885229846,-0.5706295794844445,-0.18433867460387343
7.098410691794245,-26.713167904281384,1.0745026761400867,17.030247387638525,3.480665904400426,-1.0144909763411587,-31.267719477792124,-21.959617543971937,-1.9003673673106807,65.49713980360465,-8.513893315917258,7.702621520324457,-33.51143207980353,63.66419999447524,-12.729015816916885,2.9495442380243544,-0.9380174759231686,0.4340771202390639,79.71180427016762,15.197356122623091,-2.1177263457657065,-56.8863533771966,-23.791536157982463,2.1544283951715504,5.6596356249216715,0.4497620082838313,1.0369799122446708,-1.5961363377812043,-7.042902910449778,-0.32410012618591927,-1.2322153127051874,-2.060914498448545,1.1926347292037822,2.7941807229946933,-3.3678191037055694,-1.0580264915871618,-0.04407266800060644,-0.2660603929789036,0.21435428943265952,0.2750474617844019,-0.5220520588976233,-0.16398819720717117
-6.965966857430545,-26.81235192155614,1.8773654701080618,16.464283631555475,-0.5547462457726791,-1.8619792618592812,-51.00125173221256,-20.84495972873257,0.4048945823926825,65.39910939040746,-8.123596148590286,12.513513869805493,-33.89155325274472,60.13793717578847,-14.027984259241041,2.7822934479352863,-1.3658240340890695,0.6068544117248056,63.92886039560888,20.200891308938914,8.4418768741482,-40.36873538247248,-36.230562901955025,-5.381251413147073,5.0517345153155135,0.1446386286327614,0.12372804187529052,-3.1339111810953177,-6.7323237765802695,-0.14950363331339464,-0.9708901107894605,-1.5481389369716152,0.9338410996862565,2.582558243529821,-2.932322599127129,-0.9721399062024189,-0.11372860195094016,-0.15967535232791608,0.24834855018248087,0.22969487280311673,-0.3435053534265201,-0.05318546424538962
-16.210048363139723,-26.218256896513175,1.4151890615446125,15.88949798528823,1.6824387817278628,-1.936241852376092,-59.84943124938662,-15.106187539143503,1.286425503628509,65.50584046648046,-10.449587965551947,6.470454187525824,-34.103944388210884,56.12034185399279,-14.99904483654489,2.4517378178794416,-0.3775277147675412,0.9032818128480762,56.695660527188586,27.101510599607476,1.8244426409934424,-30.022443968005852,-28.96553965949806,2.0424639667362645,5.406121013361373,0.04736768838926374,0.01647631247493041,0.09765265422158033,-5.521909860001001,-0.19175540273606562,-0.8742976509284436,-1.7354621286049585,0.4678659956551144,2.488435908848257,-2.5840624899474114,-0.9944445991349841,-0.059871729389203515,-0.1930883532075757,0.09050146861191145,0.21785415426487906,-0.34011932628378866,-0.0936653124279039
-21.935446011395204,-26.31151264346555,0.8908265742238086,13.422799531388856,3.2279360760597533,-2.399680963688611,-72.12349019181046,-13.16913750864194,-1.931220451835196,55.06278537519511,-9.684702310977764,2.6502268622747662,-33.20515503033681,50.806892714330786,-15.01653837430917,1.938713566964474,-0.24267971417746578,0.38447116462382924,31.749634025084486,28.12933344527748,-8.8257893191967,-25.611396722420363,-15.695564841794567,13.67523437915672,3.82422138920887,0.3200249699970154,0.51772354429657,2.2180872163814835,-5.451533094036685,0.6878751721024593,-0.4962524653930641,-1.4182179312576066,-0.2679940189323613,2.484461654092096,-1.8830621833503007,-0.6430777962058098,0.026086055898566017,-0.12289816770970043,-0.13678207025591718,0.2527768062836584,-0.2330244282822223,-0.08932206089341178
-22.726739999999996,-27.66087999999999,0.8904099999999999,12.456350000000002,3.19289,-2.56676,-75.17233999999999,-16.089720000000003,-3.6446500000000004,54.678529999999995,-6.69831,4.836640000000001,-30.156109999999998,43.68442000000001,-13.922419999999999,2.0995700000000004,-0.6689999999999999,0.24683,36.47663,26.759590000000003,-9.340159999999997,-31.353280000000005,-20.794780000000003,12.795950000000001,3.89309,0.13432,1.30911,1.6112699999999998,-5.39869,0.5241499999999999,-0.66176,-1.8683899999999998,0.24744999999999995,2.64668,-1.8975499999999998,-0.73922,-0.033310000000000006,-0.30652000000000007,0.06479000000000001,0.2929899999999999,-0.29959,-0.16334999999999997
-21.48953913002479,-28.157888642271736,1.931604969633474,10.497182245311338,2.031893825097753,-2.029175767173595,-72.54510345652821,-14.309027917805594,0.023048481439506885,58.03353257753837,-12.032177919297055,3.1238558299027077,-25.60008474634788,34.19767133057546,-11.712004005813043,1.4066048752562692,-0.4131041729583329,0.45773789027624506,44.217873936103885,22.676827871041294,-8.337576906040606,-18.43432369751525,-26.83992432631003,3.377407171621348,5.787049772658264,0.24986952948683044,0.47383773317304867,-0.6753087701544214,-3.5079526707482604,-0.31005343159480914,-0.22805361612915592,-1.7494868620095825,0.03869494692097944,2.3798264262408124,-1.5606297058620358,-0.7602816972521721,0.04217767137036855,-0.21944904249998765,0.04342351313955395,0.1820109425865305,-0.15139634206167366,-0.1057295403150659
-17.3798736105028,-26.68933847039589,3.0731638179873784,7.217446167655578,1.218677462562372,-1.711579172735404,-66.70838343500317,-13.587597964528436,3.2384560453781703,46.356210139830836,-9.788744774454377,2.864153784577434,-20.581659679903435,23.977332561908625,-8.40830746784434,-3.792170936257575,2.7712138804194586,0.586597593254152,29.228957299192995,21.553085859384947,-4.014833620196047,-9.087829024376644,-19.227492712700826,4.9183246360642325,5.474224641829708,0.2058709394596361,-0.410399412729398,-0.6823617090415955,-3.5727994635984923,-0.40951403364248623,0.1695465263312123,-1.109766515637045,-0.34234464254506874,2.270093362961613,-1.7144312110600115,-0.7508199643853286,0.08595819563872484,-0.019414843549026752,-0.05184914666329988,0.161208879760793,-0.1765510504341664,0.016151517597416433
-9.639556335752811,-23.321748843832168,2.9180578180495393,-1.0939478218798195,-1.1691505701903684,-1.3790381017284772,-48.31682744010827,-13.729843791142324,1.8683506279726068,27.705958735220037,-4.307373395609273,5.086177212738022,-15.080657347110895,15.674629478747958,-5.256448904288756,-19.392136980028873,12.055217123942363,0.578345747198254,19.388476111209375,14.901975466027688,-3.2798028904778525,1.1532370328156403,-20.430365999670226,9.062446452242297,4.960699048379142,-0.31284698733309046,0.5712356168570418,0.21259669430781666,-5.296588429365811,0.09808169730764568,-0.16124600572778536,-1.9937585416780197,-0.11776254585302474,2.653670953933261,-1.9595220000372389,-0.8496901788246825,0.01158480909304209,-0.16543529823820122,0.03888915484738098,0.3451110325352078,-0.34805044444758126,-0.03669152714094102
-2.1485409621625196,-19.43783112755679,2.7110827265065636,-11.991829088169478,-3.155453200856541,-1.0086262508875505,-30.32958003584642,-11.495415814630398,1.8497903009455994,-0.5113654667256957,8.068922966027195,5.935307707462254,-9.9387720214154,10.07193140639007,-2.8521127147313154,-39.99638378278167,24.17470322987234,1.3266746852085138,-9.120245379925167,14.451934260260602,-4.033696092781907,9.368928716415507,-25.003305963163456,5.787693403474114,5.62748579379693,-0.7929723581195625,1.3369384932687802,-0.05318579220564888,-3.366279505095097,-0.06091505541424333,-1.2420379140461402,-2.6888184400741864,0.7272082718062494,2.0745342840621905,-1.19691495189195,-0.6819586168238192,-0.15796545128865627,-0.3496282704262882,0.18010023205438397,0.261013806836583,-0.19530810518597844,-0.10801391334211047
3.7481650674875535,-16.691376891283557,2.4809624766015284,-14.681382269070738,-3.0843405679102767,-1.0289070801171218,-22.737013658617045,-7.378090070506025,0.7710120498562493,-22.241293015706812,26.99720431405501,8.171107549723748,-6.111337644506452,6.817549029677765,-1.2442415008028649,-53.42420244331619,32.66206199176103,2.747217494174165,-49.77046381822686,24.872445131021017,-3.992002490386168,18.545575261256467,-16.326495042118708,0.2472472740888745,5.1752280518138205,-0.06865760974007803,0.9815939004507978,0.5105741556086212,-3.1448400394039195,0.4558937581524898,-0.007209645142952772,-2.1748262307760933,-0.2034314406310092,1.5322228315469695,-0.8177613075903065,-0.29766887104486706,0.05504502390399895,-0.24682740799376895,0.0025823786089096933,0.039815766534429406,-0.049700812119076884,-0.03727227746604559
6.4189972085056555,-13.612363128991609,2.1066098130867768,-4.856334805537127,-4.459594881872459,-1.7554631866318033,-15.072083071688937,-5.8876522132899956,-0.2610595296594449,-24.253900950065116,36.83000792185605,8.738471455156356,-3.5317267797551897,5.236119386890732,-0.4137254298532288,-60.245998405975946,38.065938253103205,4.493858385110454,-62.839088913278815,24.67484639747282,-1.8638244898966023,28.458695261886113,-23.26703059239614,0.03938602346228432,5.311563684417799,-0.416217978744439,0.7505404695849899,-0.6708071028269303,-5.555188739996219,0.5364387523078004,0.502152602285908,-2.3356685946848397,-0.34849999471824283,2.8319206124866207,-1.4796223219132485,-0.5656896154013631,0.16943732163329348,-0.27465656526946824,-0.0016547314381194006,0.18625705260138542,-0.14236131225158102,0.002127937955579782
7.37363,-9.95028,1.5101900000000001,8.57699,-3.72998,-1.6290900000000001,-5.85848,-6.342600000000001,0.4158799999999999,-25.098780000000005,38.88506999999999,7.39673,-2.2553199999999993,4.494060000000001,-0.13346,-63.63771,41.51153,6.843959999999999,-66.85892,13.742089999999997,1.2101799999999998,41.42236,-30.069259999999993,-2.4453199999999997,6.171339999999999,-0.31806,0.63716,-2.99587,-2.40687,-0.43705000000000005,0.29198,-2.31282,-0.38892999999999994,3.28187,-1.43996,-0.13487,0.15607,-0.20479999999999998,-0.08074999999999999,0.35164000000000006,-0.22782999999999998,-0.03035999999999999
6.0371958283951015,-7.83973164029999,1.2494576174642906,16.36494576186384,1.3120626591292837,-0.7233298070268166,-4.128163691280437,-8.380515009718527,0.854293109781245,-27.506241644188748,44.839984138419446,6.148201825209034,-1.862773746579123,4.5564080394175,-0.33567048776742536,-66.16824513631288,43.54908700131062,9.175171980804263,-73.60826473444787,9.601627558656878,1.5751598242773408,55.76632047671377,-6.224839551099869,-7.533690850264034,4.265159575827244,-0.568537531999238,-0.3892991994004797,-2.446838300337621,-3.5138402281170866,-1.5158821145814756,0.6241839262987601,-1.6207063517352551,-0.9142513138937618,3.244836056923816,-1.4897347552393962,-1.2651116996136191,0.1435562044005993,-0.031875639898638924,-0.21067549381066378,0.3202873283353442,-0.24158706367600843,-0.14581583471535137
5.114763905345099,-4.750775693865006,0.658398398241254,20.07455181900325,7.2642175947252285,-0.07452166407003763,1.886667782125173,-2.7707053512974125,0.2020015571720063,-14.45393284342332,59.77579693356947,10.943573115046696,-1.80395901367946,5.459547729619926,-0.5071789345459106,-69.17771953981604,44.989750965681196,10.70118759986593,-54.9133314282845,29.035809191250323,4.760636728718189,41.90731679697524,-20.75351846137243,3.0142502106918,4.3353199625683505,-0.44746803573372634,-0.008477790886414545,1.910162565363356,-2.3182963562166052,0.8074761132431612,0.8177992265891483,-2.1447572145128557,-0.8921424022233243,2.998636914002528,-1.1475994087229568,0.6530364817441137,0.08660994409210658,-0.2586854224164033,-0.10516300728598688,0.32714812717116926,-0.20055905861997247,0.16182483776948542
3.3102677110987777,-0.5752600603866269,0.3085878708086099,17.67109585848886,7.820210534735364,0.9559384634749171,2.0407950662583105,-2.1423163091229624,0.8028167188951266,-16.002860955890693,60.09942942117352,11.52815017301111,-2.0491885200451496,6.830042205601356,-0.5755767713902921,-71.9456605909106,45.538276340991615,10.947034313609116,-62.28090906608066,25.32205992297199,7.134110151826292,48.91415017647161,-20.468538525463664,0.982700674437286,4.227384432356877,-1.385114687883389,-0.8915723070804799,2.0108868043955788,-2.0219579972875477,1.2781432105164447,1.4781882653898677,-1.8465947829416738,-0.9133143188971546,3.0545999552905645,-0.8594994245746842,1.0236911149557133,0.2549146639283432,-0.17575488358902117,-0.08801002980280621,0.4493695792071257,-0.1536008710433954,0.11551305799019032
1.872526795196886,2.9070112818825606,-0.12061555407266049,13.86503736554355,6.255965543548288,1.6939716961526063,0.1731231193025758,0.3308170772698692,-0.05242826796670484,-19.402271807290646,54.823757746287235,10.629223373162448,-2.1591751543752418,7.547440961626934,-0.5063659802804905,-73.63449032760604,45.366086732642884,10.54266149908365,-68.53317850998069,21.30735703179518,6.088273244961154,61.18575493546681,-15.570074858065512,-7.359879229910704,5.501465383718893,-2.0032436612798055,-1.1090492000026222,0.8597434043901881,-5.6666746910037675,-0.7073163461714356,1.2649705316533335,-1.7505166367033091,-0.4378067292600859,3.862913010236799,-1.080356105030311,-1.2103337412735642,0.2791819692129117,-0.16807571936936674,-0.011055908718972992,0.3890841531732344,-0.1440311335996158,-0.29293613700143756
-0.5705681349178113,3.383935267598514,0.37254206716490484,10.109262282292791,6.101497795488925,2.0866243181847617,-8.591063179033762,1.507103627366694,-1.453209202121513,-20.40028253675615,55.199701401213176,11.903801007949442,-1.9916045085989256,7.6299802090960664,-0.29085194608623754,-74.20574007423036,45.212919793075905,10.079450146121218,-78.9178068638782,22.3611749911124,4.180909356912263,62.80518377919091,-20.411140779355737,-8.900644953145301,5.532804435821861,-0.7254463619586089,-0.10364453771014805,-2.999848570319628,-4.360070031269612,-2.262594628837863,0.8994958518696922,-1.9496075639607922,-0.36950643106162984,3.287614105074373,-0.9841387349769272,-1.337256449361704,0.16715547335194972,-0.16340727245125677,-0.016761017062068794,0.22146362511992188,-0.16806524719849075,-0.2371550238728024
-0.033225725322556576,5.209387774392171,0.7801680479351251,7.161957432002632,5.9767764860294,2.2948218488362926,-8.614522993241263,1.6246700561130374,2.1950551133641323,-21.259322819894816,53.69862862198811,11.124911445769111,-1.7229620807785888,7.647423265155459,0.2150867006118444,-74.37704901277922,45.45939405830919,9.802519019566208,-83.4071389596857,14.789868787389622,6.6674305920041945,68.32556756955778,-23.805730284555125,-2.936145474456951,2.880970223115226,-1.9125938186852895,-0.7699842565830226,-0.14121043406923223,0.1392232750161057,0.45433693280865495,1.0036400751812085,-2.015255612553374,-0.719905329974413,2.8935746621723104,-1.0440824552518424,1.5609214145024153,0.22398759788361944,-0.23590870970228237,-0.13381667860693172,0.3783769126560771,-0.31373016090705685,0.3895005671068168
1.7156699999999998,6.31198,0.06843000000000002,3.827330000000001,7.44652,3.20632,0.26488,4.797249999999999,-0.74328,-23.238410000000002,51.94116,12.423129999999997,-1.4882000000000002,7.27867,0.61933,-74.16542000000001,46.23579000000001,10.063690000000001,-72.41429000000001,17.19413,6.454819999999998,66.25775000000002,-24.34161,4.278230000000001,3.1785199999999993,-2.13638,-0.45363,1.2244,-2.06867,1.1475699999999998,1.0690900000000003,-2.3809499999999995,-0.4696100000000001,2.17007,-0.582,1.1419799999999998,0.20864,-0.31697,-0.02257,0.27056,-0.14584,0.22595
1.6194377831771336,4.205544710248741,0.3564236293719388,1.0535211751913587,11.27258425498573,4.289304840201724,-1.9653992516976102,2.7541699147922527,-0.6638106113425349,-31.846682757717822,59.85918930472202,12.33004560472208,-0.8637292851283387,5.35314240120327,0.7169631578660449,-74.09491324501133,47.49750189250453,11.053234378983039,-83.91600216383182,25.11142544332084,7.693313763682062,65.59010459380707,-14.539151620551507,-3.4841417192066277,4.538559621054109,-0.9988736061740082,0.16784365278350769,-1.4112467243453186,-3.736838105170195,-0.9282363191607597,1.065936445708905,-2.4763311960372105,-0.37293125872151406,2.046315592582567,-0.14678157810884448,-0.29374819198071433,0.17661848807467453,-0.28413862035190357,-0.002793552987305382,0.11977808304638209,0.04322675927993437,-0.14762448294773725
-0.6999804372819688,4.346814440181081,0.2996227354796788,1.4340235399666434,12.393257182994898,5.101349040359418,-4.036762533361925,5.7372203578808065,0.8764052900848788,-24.60303488373831,61.46171090942428,13.216774906738015,-0.2654425115798263,2.6187057046916165,0.5364797386506538,-75.7277165862922,49.399206700138144,12.128103314844616,-77.92331903668003,29.175732767130597,6.299262794232913,59.289022607952724,-19.53823613688576,-7.6953862521124305,3.7182119227968373,-0.21635236154571366,0.6627016786941945,0.7234397886922068,-3.771483187118718,-1.2966241511154142,0.9963860255570982,-2.4140021664895324,-0.42078169714427377,2.8110940030443037,-0.17789530852503133,-0.7700597912101794,0.2466992799411589,-0.27218520564803794,-0.10412163433451398,0.18412159596725455,-0.028992992908144048,-0.17478696948089126
-2.584317933380147,5.145644395737086,-0.6167727449946246,-0.17096869096909637,12.842187494493231,5.855188242325192,-4.913216560887106,8.354191616114477,-1.4730520764136947,-23.81996174640989,63.235903114427074,15.620707389607366,-0.09806451100018208,0.49467879967511064,0.1248642639653941,-78.091378213532,51.06545453266676,12.725449302112022,-79.2874169234721,30.554541674828243,4.76575936115204,80.74064763658804,-31.991252711024064,-13.154936428129014,4.995317267628632,-1.8385945814248221,-0.5950256279297844,0.44130466520455985,-1.9295941439779887,-1.6281831625331362,0.9840689873292282,-1.8308833131926272,-0.3386255525269468,4.15341467520495,-0.3605347345330882,-0.11309874243568185,0.17583369570885188,-0.1741868204653325,-0.04612374880469711,0.4837004467326125,-0.1337468795046851,-0.1115106271871319
-5.106630233957053,4.522634397935643,-0.628025232507113,-3.076340730401325,12.576136084784148,6.595290738609259,-9.07232718269056,3.503002227868901,-1.4260063625848856,-35.090700349070126,64.08931446052298,16.171884995684444,-0.22296974053602212,-0.43803690265553097,-0.3842983424888955,-78.53915154307073,51.6333362209734,13.01432010009807,-97.83157396938145,19.8089106635892,7.130004668897704,87.59459388892056,-24.692940511581966,-13.252279100542752,3.5601927435776273,-2.194356684383471,-0.9972056471031555,-1.0499911640190545,-2.256377357171831,-2.1074723094648333,1.305431542290365,-1.6985052253675195,-0.594933648934346,3.7674593841792285,-0.09879990073663629,0.018567862720081922,0.11007104998386372,-0.12172869777684506,-0.025698005230489835,0.4549053775418829,-0.07608017789316726,-0.07858050842495355
-5.2097279514961174,4.664195206265179,-0.6147746721899714,-3.833149796044731,13.666750788774578,7.1497788305348156,-7.491464432609728,6.3430074458967125,-0.9221646161287328,-36.38497559925023,62.012267209942905,15.026940675706557,-0.3860502949543553,-0.43096747780989225,-0.4325559164287568,-76.33741553602279,50.88993070814614,13.464902436988684,-97.6380900100866,19.02642361074023,5.708844028178556,75.68718999467902,-14.21335962705152,-7.773069126072595,1.2715092307898839,-1.9960342309855632,-0.6217462029994135,0.1400976729167081,-1.6408653046993462,-0.39979899196611696,1.4725871616475967,-1.7496181300909628,-0.5855877084294641,2.1348892863438396,-0.033934569319619357,0.5745804198896369,0.11727716119161305,-0.10384787859139034,-0.004028797428673951,0.12092577088553302,-0.018464839962129713,0.08484473998502995
-2.1463134525605225,3.9847809374132073,-0.6591903986957184,-3.7778926116167244,15.243408079049873,7.530834141792468,-6.296835722355504,4.985037475613991,-1.414249223988733,-36.21189864138574,61.98338371723918,15.031181803597033,-0.09385148610669604,-0.2424347827838518,0.011110011982645078,-72.2707425150415,48.81467972234036,13.661387173665467,-96.88005879521684,20.228738061362947,6.42774248440213,78.12484757607434,-14.51886337905634,-3.864596773332062,5.095714377990103,-1.2545821955443803,0.26777796007143634,0.8035190225279505,-0.9294030134539158,0.11956829219589366,1.5047144757737083,-2.354183471536862,-0.1705386034910475,2.737326540017353,-0.3493697153161054,1.079296947113448,0.3852281097576133,-0.22449429215814717,-0.06518820841779008,0.2909256616596926,-0.10617455409052985,0.1137086102791904
-0.9569499999999997,2.4712200000000006,-0.023760000000000017,-5.677349999999999,14.56672,7.59296,-6.629439999999999,-1.15581,0.32474999999999987,-34.78811,57.57430000000001,14.322420000000001,0.21741000000000002,-0.39438,0.35087,-66.62455,45.44495,13.27862,-94.30579000000002,9.82872,8.790070000000002,82.71897,-5.94291,-2.9774000000000007,5.744480000000001,-0.43451,0.61658,2.25752,-3.8767900000000006,-0.9964299999999999,1.46212,-2.72739,-0.24533,3.3229200000000003,0.09681,-0.10569999999999999,0.28078,-0.30435,-0.06181000000000001,0.37873,-0.06266,-0.08009
-1.4580154806567132,1.6558972447876528,0.2742702084741778,-6.516939008143395,14.096800518044553,7.08557811037888,-4.6776137952292896,1.2394484265586945,-0.040612728125696225,-29.722714781640725,61.50054096838467,15.784625916632768,0.2595603876198101,-0.5567228841627014,0.4104613689951695,-59.96001105417218,41.219312459818596,12.416908754511963,-84.11005430832728,18.651399949463894,8.505651656990466,76.19684668778369,-23.53341864802767,-4.407660397733887,2.4872400978738267,-1.4566888898280845,-0.8495505218060416,1.72831877372872,-3.339850538428704,-1.306263311779785,1.8842237185743302,-1.7122435285222162,-0.8522037047423195,3.0672227313228713,0.28759530286526525,-0.1545766900714716,0.21013939395230738,-0.19055999307727034,-0.062423217910796525,0.3735601803492534,0.0009070507026778374,-0.09519857300286272
-1.8744840674142196,1.6023372478342799,0.3709054120209436,-6.667254814060032,11.773301152945567,6.368913402761798,-6.411225209917619,1.5436502803358916,-0.10512104925980534,-29.594889815038773,57.15054851283952,14.793095700054462,-0.06437277162727648,0.8790181871951396,0.11431473730746967,-52.6066837139436,36.92922578220301,11.267728676390385,-84.10037449798449,14.734351249829524,5.3038490979245285,78.90982769419317,-35.09183738071519,-8.1339429141586,3.0078565336526584,-1.9148352768544221,-1.1659568169479846,0.0413491495995843,-2.7989661107935495,-1.2322370339630844,2.1489945336656526,-1.6103118809969217,-0.9293842486232564,2.4437618913666035,-0.010819674926243396,0.40848354149686944,0.34744143227512786,-0.1655015865595824,-0.11731062929294116,0.159320190305962,-0.0014419294349450587,-0.048335064044713744
-0.3136559698214831,1.7647510051797177,0.08811634585848184,-4.538697010679576,10.733962550768924,5.18577107529472,-5.065286873862634,0.1076812232510487,-0.42815607773656456,-28.90529188842457,55.70634841680256,13.884959702361156,-1.3955690150778057,6.364733540313136,-0.6979900655999808,-45.67005361534116,32.504061055149265,9.771887081232192,-78.27218284514872,15.549287635673107,6.097023511791849,65.35174113445692,-21.047884082097337,-10.329785087133798,1.7950734737184184,-4.502710320558172,-1.7404634776997845,1.2463921924420374,-3.0929528957867896,-1.3215439467931047,1.67242849416707,-1.6457718988172099,-0.5869945605796361,1.9858109994952213,0.5389715456032004,-0.16344792718440534,0.24451028727312474,-0.2681982638495495,-0.005291882674166569,0.04989987460823694,0.06830981367592612,-0.04628472127524705
1.114736411427143,0.8054724225594379,0.36288729208645604,-3.3626635459203653,8.78400504699137,3.736037882911582,-5.694767688071723,-4.153922200662366,1.4318463085679918,-32.84544741076597,48.19994142002165,9.761209720971504,-3.6643001961977206,15.413308372955264,-2.0058177569992433,-38.72393792865506,27.567439743696948,7.9703937056485845,-75.58208734507082,9.832872902982322,7.8350442709827455,72.99071695677077,7.199134401073354,-2.6034492582062057,3.5220148735474552,0.23774281576448916,1.2243719846855239,3.4360580119398234,-4.370157202051693,-0.4245859520566137,1.394334061230338,-2.75314506668243,-0.0002581753111127504,2.0992166933724032,0.39277186898043936,0.06729027617843403,0.23147267398039587,-0.2253956877331312,-0.03101812927391765,0.19757032272213387,-0.1419072775778536,0.1535386409731152
1.269481380555823,-0.9527354974613569,0.7874785938481063,-3.5919597070434266,5.72176097743157,3.016132550225543,-9.323698277851301,-5.996395259996744,0.4502356149375722,-29.84494136079983,41.54741944126451,10.31869998966645,-6.091176188480589,25.51290093342886,-3.227568025729551,-32.10071052829242,23.02498585728634,6.566800017384212,-61.32675167408394,19.558729950720412,8.567252861320801,71.38755369836434,0.7162126790524956,-0.7741047128996568,5.220057963992458,0.7275772066228793,1.421690340472267,2.189061674641837,-3.9790802777056244,-1.5484716912545355,0.6529737556449463,-2.320011175045194,0.3830730366682576,2.9662277265560135,0.4069407890042989,0.15197021973122998,0.12300206056524006,-0.22114327249411733,0.02610981487036147,0.34793273370201333,-0.054794394268926544,0.006076625854545355
1.7192949965084785,-3.6979295267916825,1.1893471003949254,-5.370371573807449,3.1301112312781942,2.421850629855834,-12.45192412958698,-9.493058325535527,0.737532084241088,-25.09057755628388,38.45215158725422,10.087873574459875,-8.300769714716957,33.86619466182845,-4.290277149136215,-27.521153069863352,19.67319032816479,5.562548086793268,-49.45448842669785,26.286535972313395,7.3043538440432405,52.70243326632399,-20.96347902249125,-3.1802837198846627,3.429702257112682,-3.3926977215480907,-0.8683403932319856,2.7718090521865943,-1.3826517096598636,-0.21569226434173025,1.102003925574991,-1.6028302418291251,-0.060684324620171426,2.8444667089399505,0.3926153583956081,0.4326622532346733,0.13041617666555827,-0.2873009799284394,0.09723968093872291,0.29347465535525324,0.06980777499344107,-0.05285026182602368
1.57198,-4.805409999999999,1.06417,-9.09571,0.58895,2.27788,-15.466499999999996,-10.91493,0.18514000000000003,-27.91675,24.245529999999995,7.11539,-10.26381,39.65562,-5.02154,-25.677149999999997,17.80945,4.927239999999999,-50.94026,15.074709999999996,2.36262,41.63707000000001,-16.39575,-3.30415,3.568129999999999,-2.75039,-0.6195400000000001,3.81837,-2.17764,-0.5695899999999998,1.6764200000000002,-1.9264199999999998,-0.2605199999999999,2.1898800000000005,0.9370199999999999,-0.3342699999999999,0.25688,-0.20902999999999997,0.004120000000000002,0.18721,0.15408,-0.11569999999999997
0.3351406045229094,-6.733236344097656,1.2156672058131779,-13.108698191611158,-0.5352871267752327,2.3295098574866855,-19.593808325619975,-13.42039716580435,0.5132107393484892,-28.282789296322363,14.440755917621296,4.675490017241202,-11.41128726151926,42.96455872488942,-5.417405551180701,-24.733788601412257,16.504120672375873,4.621190778110029,-46.212266083869125,11.651879135339609,-1.7130888022772877,45.88943203624896,-7.858763905404305,-10.158805249572554,5.90194486005786,-1.8397044727740972,-0.556583242348226,3.726688235411159,-3.6348780218897923,-1.5058680864642193,0.4646969449749516,-0.8077925317481487,-0.02583162768766039,2.4047295685614323,1.1334623832948716,-0.37869378642482054,0.11256207138909334,0.10240447570940389,-0.13452930958403547,0.2792985743359196,0.0981727815906837,-0.027601689868580356
-1.4651470023104092,-9.549777809118536,1.9511308407992514,-15.224543352134477,0.020909287822048248,2.3809758008726947,-23.280693887895854,-19.384523639951865,4.448142465562718,-20.667904086911,9.651511925070299,4.0529587000819,-11.873179410940491,44.47206112021823,-5.54652431256747,-23.780888607676964,15.003393186468038,4.359770200872304,-29.543440722402718,9.528861587436458,1.7419130952751964,36.249050428399876,-12.253418239398204,-2.3924541962936847,5.406615775630999,0.29364104666720564,0.5684125650200174,3.9961449438703553,-3.726542469168504,-0.9297304596889785,0.6610747311688369,-1.4559780850715434,0.09862369163494616,2.393258368181637,0.6925433581491836,-0.051254645425196026,0.13852395129838468,-0.023003544405974602,-0.09583691615504797,0.20185021009677598,0.010156127087592714,-0.014587247603907567
-3.3083854492323375,-13.068748227170198,2.013038258206393,-16.49532967958961,2.7155309887311607,2.9712836351250163,-25.837085538793076,-25.919865596795162,2.2082896031444452,-21.453604553603743,12.226262471590967,6.161343873167014,-12.175017674270055,44.76844821224387,-5.470377335200914,-23.096324978633284,13.876626596853397,4.356309510408142,-26.88925466773317,14.505017469912477,4.795058029070236,27.585155736546056,-7.245163952703773,0.1391768688842403,4.97470749294222,-1.5344071967010344,-0.2290497736357066,4.686293994547144,-3.821864581487179,-0.720084085866047,1.6698626333061328,-1.9411685082347534,-0.12412728000268657,2.4868097066142876,0.7057553363177582,-0.06615786078475723,0.34553442697741577,-0.38671055780189045,0.045329912466974105,0.24336613713182734,-0.018170407299358253,0.005212034960300749
-4.80758072875332,-16.07254364337767,2.1511406796132357,-18.772260887421982,4.295076858380945,3.3527115348219922,-34.28209018249677,-28.195658426621257,1.6623578446354252,-22.695535525572442,10.450314338432406,5.425540362428533,-12.52136444586467,43.31345603396357,-5.148089324250492,-22.625613550973764,13.351442769208948,4.337360257920503,-34.952581491518096,20.269009298768864,0.7863422844226836,24.461445186736157,-23.946841338133996,-3.088502796899581,5.600544548006953,-3.4751885312029844,-1.7152928220450563,5.83116422790674,-3.7152753318901808,0.06322079576258878,0.6155265293221219,-0.18492180890713708,-0.11351414125556449,2.1636418465777325,0.7968940958443012,-0.0956736124442234,0.07406576007778913,-0.11754920509045143,0.0947944396392362,0.14133867503019165,0.028251272598276665,-0.0028262939519488506
-6.4131770513438635,-18.301847092584982,2.472267030442794,-17.119290882178543,4.535041632292417,3.027050657811058,-37.72861070137917,-34.64435011274913,3.27530233661603,-17.194252110870828,2.136948405507899,3.327353084285034,-12.494619995349822,39.94091358314838,-4.534923795744667,-21.505884934697068,12.564942905846799,3.8935571663175437,-28.786039270464826,2.912945665801869,-1.897463991564382,35.59934053086117,-16.757012211796894,-2.277487476771891,6.265439264486289,-2.138560172576894,0.10674178603559575,5.479141361618598,-2.644276583107983,0.3481167438288037,0.5293538418568191,-1.8802734910626306,0.39356970503701594,1.9557579723318024,0.8596309567732074,-0.14074102821985346,0.08522748826138829,-0.08328075511001072,-0.024949534154147242,0.10324689222377348,0.12920347740172783,-0.07839959122225895
-9.232927341066022,-20.830364979589994,2.8569490069701446,-11.908475363342133,5.118506795064303,2.3502473707694245,-40.75224466269996,-39.277885467352974,4.325610930854689,-10.253385502335075,4.56474211183941,1.3659349815497825,-12.268580653197118,36.258980674209525,-3.974938553651272,-18.207328387682377,10.853960596520245,3.5195137941785615,-18.93841175453777,5.138663796750169,-2.302425976275878,34.54047515842737,-7.591797511769595,-1.1308094945201663,5.190315151861253,0.03189646881022329,2.061123083541722,3.9150440119073946,-3.0191839142779684,-1.1437698253887572,0.8292926978551093,-3.411539205505442,0.7994870416395902,2.2016620679164935,1.0058775830711908,-0.31152025748167733,0.1985807794655122,-0.2904174130136573,0.022872981499659144,0.278405661511048,0.11845572004852563,-0.06958331842691302
-10.939179999999999,-21.47983,2.7200000000000006,-9.07755,3.7742299999999998,1.9793500000000002,-42.13680000000001,-36.51101,4.633689999999999,-5.0261499999999995,2.8087600000000004,1.4834800000000001,-12.39346,34.65622,-3.73935,-14.112820000000001,8.23016,2.87487,-7.108249999999999,13.840290000000001,-0.7497,15.149309999999998,-3.5975099999999998,-0.66707,4.50944,-0.64577,0.6379600000000001,5.88884,-4.06043,-0.33068,1.0977899999999998,-2.18443,0.14383,2.26821,0.80932,-0.20190000000000002,0.14966,-0.10657,-0.02757,0.33435000000000004,0.026790000000000005,-0.009750000000000002
-13.385433368506858,-22.339773949152107,2.4660030056192803,-7.87603939547289,2.671235915246464,1.494570419633618,-42.04492473955028,-39.843387760728945,3.5287608893331046,-5.276820151812794,4.694215583561705,2.990537765642591,-12.557092102676137,35.44352407567923,-3.90076807367187,-10.347678804491359,5.705263310396437,1.909844919207706,-7.140620513529612,15.021406250349916,3.4085905189164776,15.631451651421417,-8.49121990575001,3.1136116285027304,5.46246086516974,-1.612063991298628,-0.16711106171615392,7.1153850817675215,-3.446379155212552,1.2421538745338014,1.4665046673993067,-1.818326451768263,-0.04354884438316914,1.7346579911962543,0.5951597725220378,0.04327259428649209,0.19807103845819218,-0.07428292780985353,-0.0028174640860765673,0.11852867653480506,0.0052094904222947346,0.032996560981679864
-16.664388919861015,-24.2232933222096,2.5930107710858024,-8.217229016026067,1.7928532144480334,1.0390230646932865,-51.82370582715414,-38.48871624168592,3.75718588801646,-6.156590188848381,5.065136826669238,2.531229261558482,-12.673833674179738,36.70600199276947,-4.153902332287315,-7.158108551561445,3.7479878765292858,1.0673352523767345,-23.15305232891878,22.810522334604407,-0.2821618438313161,16.771913138979944,-21.389210037895342,1.8539075972112968,4.458639245315887,-1.5680996590093317,-0.41450148607968973,5.924621480353535,-2.2225206189569504,1.397436975985896,1.1210669571626368,-1.1508052401468545,0.005440877672629813,2.167441278006618,0.3583914621273503,0.45425391426641865,0.23176678941318218,-0.18715119737232516,0.06744057762726943,0.26867654310269057,0.0247556166960806,0.05021360733175155
-16.336486625399214,-24.546838123215448,2.0179288639075867,-6.544960766119594,1.6301851563672112,0.8636367120245988,-53.3947071785088,-39.58563592232854,3.1975198593319543,2.8419782762427257,2.9002772242092547,2.7805336391875484,-13.004726592033991,36.86964972187141,-4.268660643195521,-4.4773584444635794,2.110138717577288,0.6893037002623542,-9.804191211403571,25.52562096660858,-2.0202371430274555,20.046219317203708,-30.340290011729753,4.63460080490612,4.005846928495993,-0.5839374466252751,0.4702800547719014,6.530478042108914,-3.7260687402823214,0.21217285330691932,0.5481712070961717,-1.2291898647364436,0.35582452323415836,2.544376523452416,0.6262503837944992,0.05727654851843678,0.164169933610098,-0.09214227476066271,0.031224503579546058,0.3571749962238465,-0.04240679824017229,0.04866124865841278
-17.22566707265867,-25.55148956297349,1.4643066803617488,-4.67427036303948,0.7149565692286677,0.696173365893988,-52.18221767868486,-49.55386546517283,2.1880141999504454,4.7398890461783845,-4.254064482437353,-0.19512996484073494,-12.986992200939731,36.09907699036281,-4.545188306884808,-1.8905440412940253,0.5867127032803786,0.39605220777675604,-2.551917226182966,-0.5759859015240452,-0.11360397944537702,17.75846156571726,-13.202781313925172,1.5075818056671877,5.272603842221342,-0.42385780042272986,0.7674114624571919,6.391081655178611,-3.6391842135884476,-0.510589443975303,0.5632068483619538,-2.156514724761074,0.2624366125162956,2.0501803115138646,1.2125945021519167,-0.6013324461815219,0.06779931461918035,-0.13908882563193492,-0.05731345289285475,0.2499812290340729,0.12707607291637388,-0.09506986032834716
-20.35064063388865,-25.99830676688804,1.3302473035470417,-2.202667572213407,0.31096000533292223,0.37377910628571454,-55.11745351016458,-45.28021799251256,3.0057567411996593,7.31862464491272,-2.2771379531522085,0.20931302129079882,-12.571846049913345,34.54609769642416,-4.872528441137735,-0.08016058577287556,-0.41685108188902686,0.17053420351559156,-3.4432045891594183,9.274314698905048,1.45901986553232,13.233350139135359,-13.345010041618494,0.8239272442898106,6.332248506062986,-1.0042164748661844,-0.03053881364820721,5.590933727008048,-2.326804096479709,0.35911043507491536,1.018351390527546,-1.6824584998373167,0.12256860930512144,1.5673988345697327,1.0207726844992362,-0.2904930585948024,0.15442959792215125,-0.16394986169698397,0.025422673541458926,0.1256526481783619,0.1876152841591253,-0.08195369383174497
-22.32100054830485,-27.368770001129754,1.151648564945034,0.5729786781581085,-0.579929316943787,0.1241412339486153,-59.14506186515992,-45.34027263420735,3.408066009195929,17.12365672413361,-5.919947037823122,0.4617524881932989,-12.521249635333946,32.34397851864994,-5.118733847891156,0.38706094015697856,-0.6356645873737753,0.1037995267251912,4.950306758978557,7.073079209529006,-1.863715721351307,7.182043334997832,-11.237807058627975,1.5740535480042466,5.7102274153284505,-1.527554352573007,-0.2800245903018098,6.100421815602045,-3.1334686858645764,0.7151200215139017,1.176060139191081,-1.6518921050325914,0.047210916445828276,1.4659522261868083,0.7690538854301254,0.01663580833739056,0.20400504217777318,-0.16762552371503905,0.017265288630368997,0.07384362794784162,0.06961586770747101,0.037504552997125094
-23.242490000000004,-28.92512,0.82658,0.06424000000000003,0.5751199999999999,0.45343,-59.16195999999999,-50.81759999999999,2.00905,16.93627,-7.165469999999999,-0.13821999999999995,-12.10446,30.358710000000002,-5.264139999999999,0.28583,-0.36274999999999996,0.32447999999999994,6.896149999999999,-4.27575,-2.22257,3.0101000000000004,-1.0193700000000003,0.42138999999999993,4.98828,-1.2849800000000002,0.21330999999999994,6.82538,-4.88274,0.04146000000000001,0.39281999999999995,-1.7373,0.33475,2.11882,0.4817499999999999,0.03689,0.05266000000000001,-0.18044,0.022840000000000003,0.22053,-0.07286,0.03517
-23.253835066835283,-29.514041157474335,0.5173568877860385,0.26802593439727784,0.754972007961163,0.5246032947044572,-58.687951183911956,-52.77631839938282,2.0157150074602317,13.555175914549658,-3.2634412136328015,-0.16133079701922293,-11.332735993599568,28.494272894017175,-5.414773064645148,0.4934841590122813,-0.3163958261058416,0.5568515632834669,1.502333199246207,1.1414315656024379,-0.8401565554759842,-0.18177246565250976,-8.995792737618622,0.43720849872170325,5.407001186040599,-0.7241631397155563,0.8064893744533738,5.942255944774637,-3.3893163204834433,0.3678493272851313,0.7014914458740528,-2.092155220301145,0.5220829536467745,1.9615061709968686,0.3840242205343655,0.0005502622013423856,0.1540522214279244,-0.2124186536822374,0.07426471480487762,0.20219927275395472,-0.013946687781082268,-0.040314189744199536
-24.28011142295101,-28.287115650332368,0.38028476754925045,2.9076310277571635,1.907626830271976,0.33349306322808014,-63.88904348749139,-41.66732923203793,2.7374193800601705,19.88493389730482,2.6484082335778765,2.336640907853073,-10.908574043386855,27.289128948087665,-5.538087061116543,0.687220299241375,-0.2695320425081167,0.6248739905852808,-0.9033935798892891,29.797096299033413,-3.7765831896836284,3.8483911465177703,-32.13612402193565,1.9712815744044911,4.945978989332253,-0.576128809658905,0.2501004331464867,6.279051157710871,-2.227673551934589,1.2626860596023362,0.8206636222530033,-1.4990778748015914,0.1677739518713198,1.6383172712127547,0.2837662675267552,-0.011283039511295582,0.19464428575215245,-0.13948020620132767,0.0004841628905981571,0.1285481852060228,-0.059375276420804514,-0.020249165816326832
-25.347711055244794,-28.970386932082587,0.5371446205962319,3.6120166663002546,1.9161228984401335,0.3729748576663937,-63.78166062084917,-44.00762019651436,2.383153140203842,22.226256695448495,-0.2778618475232139,2.0742411384811557,-10.794412746866348,26.954122011947856,-5.476696488881597,0.7441212269752253,-0.25042440531602145,0.6087736588508241,2.7807144332230367,18.10012300111936,-3.7046017033889607,9.380078210781923,-18.21775881075245,0.9815891566330972,5.419406650809351,-1.678575354731241,-0.7601002158196615,6.48350713782139,-3.229278210036303,0.29075589515189104,0.5091957540216603,-0.8004026380840918,0.09161350763265755,1.4599597763750356,1.041599074349434,-0.25349895182834514,0.062114128344253026,-0.032546236563197356,0.01761424303149113,0.14726524532665364,0.06958703853729135,0.03155419654275888
-25.402427462774533,-29.92726121775087,0.8157736989798777,2.6570904315176516,2.313212049862081,0.5766123696913247,-61.20145502448752,-50.604810604239816,1.8668817271350597,21.512504596675914,-0.31361607831501614,2.729594789955182,-10.572298744507677,26.77255143869267,-5.186990213473124,0.6874115495697489,-0.24442371071985738,0.6151437509065265,8.810942232839793,8.112335782048467,0.13399977621335898,7.763741852167987,-7.564614048791473,0.14565907031227487,5.191845011055992,-1.2444385079713347,-0.2795861040594777,5.844899580807111,-3.5742284703988103,-0.09405142202387169,0.6557396559905403,-1.1475243552515884,0.1907480554099275,1.3398175964339476,0.9713302566341112,-0.2907442032060067,0.0719404625229179,-0.10361224042975521,0.06852308290277406,0.12884836259587995,0.10044002475779533,-0.011966610394294017
-24.86835374816763,-30.496769174098546,1.3095399319474328,1.8305198770994153,2.1499030080380988,0.501408912807368,-62.000974104126875,-50.89815479314302,3.417889384354018,20.139801920134335,0.5080777012865526,1.894167879401555,-10.089740431251554,25.7446710222034,-4.854721550771018,0.6898992768430499,-0.2865320232392857,0.5626891034917652,7.06000475749439,10.455003296855805,1.4445802646382866,1.6618635851533958,-8.351833009340746,1.6842437630140514,5.8706249201323,-0.979401640857962,-0.2687443478171511,6.784971165885806,-3.7429208738285067,0.6346529586392199,0.6325672954066613,-1.3454572001394718,0.03365059892466106,1.5085591243032783,0.7538661559281526,-0.1311743864795376,0.1521095131617562,-0.13114107921068033,-0.04077772023183267,0.17681944915297768,0.07253431132576117,-0.00639458450993804
-23.836708361763844,-31.144637594365115,1.8131257654367672,1.500176637140199,1.1592496039874534,0.47079608650492627,-63.981332315473374,-48.710616715485145,4.243481686856831,19.47617702079755,-4.408029795510718,1.020507921858921,-9.568763050203339,25.13146103178675,-4.442835216538906,0.5455580325927062,-0.2520753220976794,0.4102369115729945,4.311981662176304,6.529627799317644,-1.0897777531576465,0.4147296282724344,-8.65576686612602,4.159257260314633,5.761287626034114,-1.5927220803016902,-0.5072034366253357,6.956322018927409,-4.04766348066205,1.3549180993482282,0.5053003741365271,-1.4600793343199285,0.015586399651164424,1.2729752635613862,-0.02842252774723758,0.09619724980010284,0.1221083369314581,-0.14000371796006986,-0.05748925423698528,0.020120573160817733,-0.15520687814594655,0.022420493133837916
-22.627240000000004,-31.0032,2.0012299999999996,0.54524,0.7408200000000003,0.45330999999999994,-62.531160000000014,-47.39437000000001,3.9861899999999992,17.072720000000004,-5.143849999999999,0.5580499999999999,-9.18997,26.105269999999997,-4.256670000000001,0.3841499999999999,-0.24533,0.32949,4.57578,8.5407,-3.1335299999999995,2.888299999999999,-16.334630000000004,2.3749000000000002,5.595829999999999,-0.7951799999999999,0.0038499999999999993,6.424570000000001,-3.51729,0.46484000000000003,0.6795499999999999,-1.5463400000000003,0.03133999999999999,1.6778799999999998,0.6880599999999998,-0.04956999999999999,0.17453999999999997,-0.12145999999999998,-0.05589000000000001,0.10217999999999999,0.03473,0.003109999999999999
-22.13952161189676,-31.11368405604718,2.1184483765413042,0.4423760885172886,0.3628724146478057,0.21469964099971822,-62.625440752459504,-52.584728240935746,3.4849966171855775,16.757180689118115,-2.038276207228842,0.0785972768776919,-8.914526174123674,28.081553272616134,-4.358743739963589,0.27078584081359586,-0.22371441634302816,0.32306989063872393,4.005788533251425,6.565893131848452,-2.5313981213894072,4.42088923071284,-16.54366160439859,-2.010600798963105,6.0032601314578695,-0.8785864082639051,0.002765231485887885,5.691523753592777,-4.2705319865036975,-0.8483596885080018,0.531222763322103,-1.223816764662963,0.3501107465846478,1.7717361838603134,1.0233186732913888,-0.2232482215880241,0.07393228522171438,-0.0678932861204066,0.09214609735212814,0.15357567039220307,0.059495720460426005,0.015116449420652076
-20.815440651402856,-31.431907642335457,2.3961445361365667,-1.1848702755679101,0.45179896639383166,0.5190448273342525,-61.142131994771546,-45.093157112336144,3.923513347832114,12.887239624864751,-4.193058178644014,-0.13625637833855653,-8.882261205799896,30.24204141007139,-4.429015300800637,0.12855412258582613,-0.17451486284443823,0.32795230797362596,0.7462544557978195,11.217330762759829,-2.4379503153541413,-0.14225944380560684,-13.50013555041516,2.734546926576456,5.206893719131735,-0.9499141345391043,0.41482803093754905,6.6021120116691865,-3.6082621594283686,0.6199058912683507,0.4663571530146382,-1.826719116208442,0.37495829961045835,1.7489176189379871,0.3567822105050825,-0.13818785170751258,0.08934571672012177,-0.23856807626523596,0.09795884485628566,0.22912678040022613,-0.06155999904570888,-0.032932939059204726
-18.45788171472143,-31.494131826518803,2.277182732609874,-2.339036247880908,1.5883955473674467,0.7688293202973265,-56.52273028129928,-40.111278085033405,3.7824005821173863,12.054968118122357,-4.285922259518592,-0.1310579636649728,-9.340937414121331,32.51518303271767,-4.729818278248591,-0.27669895576132597,-0.003625922164968851,0.36039806353859466,6.877508107992456,15.923335788248533,-4.107313370661338,0.8931062741210043,-11.78616980156548,3.3541262713262583,5.2661617488005925,-0.7722912221646404,0.14471550005487246,7.238441705001919,-3.5890892280468325,0.6514040587568135,0.6786696491724111,-1.8243719703987618,-0.03399693029163438,1.9540871009381726,0.8674643407985819,-0.12676096752901192,0.18933283504759685,-0.23572732631832427,-0.04478975945756353,0.2167222343276774,0.08735206194925343,-0.022102089960528436
-17.156041200357876,-30.89527178072483,2.2130852848121165,-2.1990161763307454,0.8436305545367591,0.7772139668124843,-55.69964084769691,-47.683054661938165,3.3411627147250487,11.553098988432735,-5.264988897578878,-0.08471766454800699,-9.625447189342799,35.0898529623189,-5.131540057289252,-0.8355651545620183,0.34573166484475476,0.5348575791892344,8.252448914322306,5.923740770335032,-1.2796735396861423,5.563088924693001,-15.251395777712533,0.4452295479833258,5.539125370910593,-1.1783397798883661,-0.21815232549645944,7.014623999897839,-3.8560063952316406,0.5167609400320784,0.569310817405898,-1.324682000255999,0.12980693510985306,1.9809983358598988,0.73563006370607,-0.04171231010642997,0.1333331256616164,-0.06848320946261764,0.0077392958486303814,0.1923233054765421,0.027892338220495524,0.006186557146860888
-16.619200618216542,-27.994241974308416,2.251506842770747,-3.7503578472748957,1.5115414033076964,0.8689930048893824,-56.58217811858304,-48.441055491003304,3.1595177244719967,7.244561102663313,-2.0894138455698075,1.1644565279049115,-9.773522221410687,38.76282643800854,-5.541052371020113,-1.7230782721010087,0.9815031946687536,0.4816208947656108,2.173593371509305,5.29149064140551,1.768384247864356,2.1504394503557136,-13.764186691254771,1.3932341521134115,6.211971566562428,-1.5060235887483273,-0.4805897015108478,6.242638039826352,-3.6495221567168667,0.6842505877097962,-0.030936573170876322,-1.076809564801775,0.31174483912434936,1.5509544441125886,0.43320988071236666,0.0003646483261698938,0.030553978184536437,-0.053202004295612164,0.017171666330129978,0.13167126219461991,-0.0027763478688637598,-0.0083785585945663
-13.092433823542455,-24.225150197950615,1.7588959595350697,-4.3251855332277,0.8977096027113031,0.43327244633393486,-51.10430245548579,-40.603304988338614,2.3575948427555287,7.073913110671872,-2.774326580318601,0.5818949921674628,-10.084881677155588,42.30851819325336,-5.952533487166243,-2.767929970996161,1.5214440200756574,0.23595333625941528,7.108040128154258,12.934224907761669,-1.0925293931643627,-2.944884531025848,-8.277349013695995,2.8843454579196175,7.081943121665603,-1.1228323179975113,0.34587264636125986,6.466020795869155,-3.999081308449784,-0.038624642637893676,0.14790688410367756,-2.0045518183129767,0.40051558901187395,1.6415455216679715,0.8507105804098305,-0.33722902753236084,0.06455528802648283,-0.22493889547699478,0.06897962822232423,0.20277285094186115,0.05703478295578654,-0.04778689053208266
-9.04875,-19.94567,1.50034,-4.390860000000001,0.09358,-0.05855,-43.00394000000001,-33.270889999999994,1.8721899999999998,8.33181,-3.0340800000000003,0.75844,-10.374039999999999,45.751090000000005,-6.11756,-4.28845,2.37058,0.04019,15.98419,16.11188,-1.72173,1.0112800000000002,-15.061940000000003,-0.77738,4.74971,-0.9884700000000001,0.21242,6.24161,-4.236490000000001,-0.18901000000000004,0.12896,-1.66502,0.15668000000000004,1.1769599999999998,1.00485,-0.45469999999999994,0.07091,-0.21086000000000002,0.006420000000000001,-0.0019999999999999996,0.10046,-0.06489000000000002
-5.286830456150126,-16.861766582106103,1.6383839621557068,-5.902540516072179,-1.0107167215947146,-0.35346385124315427,-44.649056492307025,-29.116330620520834,2.8037033272957332,0.19985058851351228,1.3561112771049113,0.2937090920862433,-10.560292469741396,49.08308083665242,-6.340242929022389,-6.514577461729798,3.5073928677637163,0.21416790981331807,-1.653802842306482,23.084820944234632,-0.7001563587804674,7.144809877755407,-29.542825972012473,1.6660029914851218,3.340888917311543,-1.1164563034348924,-0.2504223914671501,6.520297116017895,-3.9550902758415027,0.9030451102094288,0.3270716458356524,-1.1415059643301841,-0.04842571651869873,1.7520958313401147,0.5619153247977556,0.3060077492733404,0.11944869026111296,-0.11963474400067096,-0.04116763216316856,0.18515276189318072,0.01921104974501071,0.09185635922116095
-0.2155431467719606,-13.631482644418004,1.1475214882749334,-6.338211225325437,-2.133578576503429,0.10473778013807533,-37.0258427074916,-23.35973311970726,1.195448485723457,-5.058498885444126,-0.46240470311973203,0.07214188317377221,-10.515447530812324,52.521354634372805,-6.6199067343830835,-9.381081921171388,5.130469941417691,1.1385450274310804,-9.055340414489912,17.98280859253972,-3.755994390335872,9.435782699532293,-25.745721355853874,4.4346090593491505,5.717985220443869,-0.37927491344371395,0.49324982862147165,6.523691443136222,-3.0203106133428146,1.3403049644669016,0.5838013582670589,-1.522317312644504,0.18471985780541977,1.9837037645859885,0.3689734453103603,0.22689276582355508,0.17344424223599803,-0.09338342135289203,0.0347533211955885,0.24019576714378163,-0.01650975977038167,0.027659974490726068
4.013678541387043,-9.798406882515136,0.6527649460749365,-5.589570256352683,-2.9593899652560305,0.8233520170945532,-25.50795265362812,-17.430644275921047,-0.5057443579821996,-5.923373540231921,-2.1376575185351134,2.1624494042280618,-10.38981347689819,55.027247865087574,-6.672298529317036,-11.565481569224163,6.8171915501218585,2.0824598345313543,-4.172605374636768,11.181197074657348,-4.235564912108866,1.6800405272158092,-10.520525266489578,3.389023874013539,5.185249474868781,-1.2879617303568018,0.1080301183088447,6.418861189839323,-3.4039447272277084,0.9260568842717365,0.376814588986081,-1.6984282853038528,0.15996933481409298,1.5896372608506075,0.5532534930681123,-0.09831969535308953,0.10525731089643574,-0.19587198822814,0.04844844230635157,0.15046981625541977,0.018677934243218727,-0.02909094958311209
7.278686840817801,-7.398488164969392,0.5440300681260709,-2.843932965438875,-1.8149844406784914,1.1159119464546043,-19.332967759572117,-15.66312913459302,-1.0229321943224479,-9.217317239329747,5.2435532961900515,3.970513972923158,-10.277400495698604,55.13342189433405,-6.478726930597496,-12.28694664750782,8.102150683789588,2.6595651226605823,-10.957724739524961,12.7335819446942,-1.142298155674783,8.348866809075172,-6.591208224430433,2.287949158972058,5.145210150749267,-1.3000503054931272,-0.13659872704693649,5.328741184026928,-4.379548924387083,-0.22591856502425164,0.4322376768652948,-1.6828925441052949,-0.08854058401808973,1.1684722110996948,0.7508786274157723,-0.15403921321231723,0.14226183915664595,-0.21446369468241794,-0.0386987495326855,0.02383403234148272,0.04733324866461607,0.0013113098275912382
9.998085521165844,-4.7216743352861945,0.3140271648591943,0.26517128454670064,-1.4164154707498162,0.9932130657744239,-14.88456191138683,-10.319308531044125,-0.5029560589946717,-9.73695257987722,12.57899003483258,3.849750921539075,-9.97728651448521,52.34289990915078,-6.012463794653303,-12.410349137399887,9.122235039498879,3.0485748326954534,-17.762040881685778,18.516122132219195,0.11719610048462467,11.972714513362778,-10.936076734054746,0.15541022891459622,5.48877988710612,-0.3097538652585593,0.1424143794116386,4.821859396147178,-3.567019277979823,0.05668766546566736,0.4239256830745957,-1.1471266863590264,-0.07342540552688444,1.5374404188582635,0.46136888621151895,0.06885263919320653,0.10465258070976396,-0.016905255707875114,-0.05133375512939719,0.1310225291422456,0.029406498610211943,-0.004882136719204255
10.20218210767494,-3.2112937300429887,0.14683497588026007,3.0634449766359335,-2.5315536194160844,0.8187152707279303,-8.417264042032517,-3.9537825311791464,-1.4350873951900858,-5.869528820013999,12.489026531794401,4.115225931610954,-8.898144414171696,46.745578951459514,-5.292386905789954,-13.558421077441366,10.320253551879246,3.2766547355885587,-13.459387462975126,18.403059865941994,-1.1057964215259228,15.074542856657935,-17.30510947550647,-0.614884540576067,5.6386031562505705,-0.5955983157988898,0.49415643995907993,5.244223619169842,-3.5420567517472925,0.13832698786054023,0.11858647627576509,-1.2833966328184525,0.318850821057778,1.6447888771831753,0.5128988884702589,-0.029477911690355914,0.04994059584498272,-0.00981621096075316,0.045689130280907625,0.189835631631942,-0.008272917439487356,0.0018292570375574345
9.82807,-0.93432,-0.27947,6.46521,-1.28005,0.95025,-2.13175,-1.10029,-1.51755,-4.02571,18.86531,5.47131,-7.38414,38.42465,-4.30167,-15.35254,11.7432,3.7031,-17.16867,15.15106,0.75013,31.44904,-22.95774,1.4542,3.39798,-1.58751,-0.03589,5.78728,-3.89133,0.19577,1.05096,-1.84894,-0.16776,1.62833,0.68576,-0.10982,0.26162,-0.203,-0.00232,0.16227,0.02551,-0.00426
,,,,,,,,,,,,,,,,,,,,,,,,,,,,,,,,,,,,,,,,,
,,,,,,,,,,,,,,,,,,,,,,,,,,,,,,,,,,,,,,,,,
,,,,,,,,,,,,,,,,,,,,,,,,,,,,,,,,,,,,,,,,,
,,,,,,,,,,,,,,,,,,,,,,,,,,,,,,,,,,,,,,,,,
,,,,,,,,,,,,,,,,,,,,,,,,,,,,,,,,,,,,,,,,,
,,,,,,,,,,,,,,,,,,,,,,,,,,,,,,,,,,,,,,,,,
,,,,,,,,,,,,,,,,,,,,,,,,,,,,,,,,,,,,,,,,,
,,,,,,,,,,,,,,,,,,,,,,,,,,,,,,,,,,,,,,,,,
,,,,,,,,,,,,,,,,,,,,,,,,,,,,,,,,,,,,,,,,,
,,,,,,,,,,,,,,,,,,,,,,,,,,,,,,,,,,,,,,,,,
,,,,,,,,,,,,,,,,,,,,,,,,,,,,,,,,,,,,,,,,,
,,,,,,,,,,,,,,,,,,,,,,,,,,,,,,,,,,,,,,,,,
,,,,,,,,,,,,,,,,,,,,,,,,,,,,,,,,,,,,,,,,,
,,,,,,,,,,,,,,,,,,,,,,,,,,,,,,,,,,,,,,,,,
,,,,,,,,,,,,,,,,,,,,,,,,,,,,,,,,,,,,,,,,,
,,,,,,,,,,,,,,,,,,,,,,,,,,,,,,,,,,,,,,,,,
,,,,,,,,,,,,,,,,,,,,,,,,,,,,,,,,,,,,,,,,,
,,,,,,,,,,,,,,,,,,,,,,,,,,,,,,,,,,,,,,,,,
,,,,,,,,,,,,,,,,,,,,,,,,,,,,,,,,,,,,,,,,,
,,,,,,,,,,,,,,,,,,,,,,,,,,,,,,,,,,,,,,,,,
,,,,,,,,,,,,,,,,,,,,,,,,,,,,,,,,,,,,,,,,,
,,,,,,,,,,,,,,,,,,,,,,,,,,,,,,,,,,,,,,,,,
,,,,,,,,,,,,,,,,,,,,,,,,,,,,,,,,,,,,,,,,,
,,,,,,,,,,,,,,,,,,,,,,,,,,,,,,,,,,,,,,,,,
,,,,,,,,,,,,,,,,,,,,,,,,,,,,,,,,,,,,,,,,,
,,,,,,,,,,,,,,,,,,,,,,,,,,,,,,,,,,,,,,,,,
,,,,,,,,,,,,,,,,,,,,,,,,,,,,,,,,,,,,,,,,,
,,,,,,,,,,,,,,,,,,,,,,,,,,,,,,,,,,,,,,,,,
,,,,,,,,,,,,,,,,,,,,,,,,,,,,,,,,,,,,,,,,,
,,,,,,,,,,,,,,,,,,,,,,,,,,,,,,,,,,,,,,,,,
,,,,,,,,,,,,,,,,,,,,,,,,,,,,,,,,,,,,,,,,,
,,,,,,,,,,,,,,,,,,,,,,,,,,,,,,,,,,,,,,,,,
,,,,,,,,,,,,,,,,,,,,,,,,,,,,,,,,,,,,,,,,,
,,,,,,,,,,,,,,,,,,,,,,,,,,,,,,,,,,,,,,,,,
,,,,,,,,,,,,,,,,,,,,,,,,,,,,,,,,,,,,,,,,,
,,,,,,,,,,,,,,,,,,,,,,,,,,,,,,,,,,,,,,,,,
,,,,,,,,,,,,,,,,,,,,,,,,,,,,,,,,,,,,,,,,,
,,,,,,,,,,,,,,,,,,,,,,,,,,,,,,,,,,,,,,,,,
,,,,,,,,,,,,,,,,,,,,,,,,,,,,,,,,,,,,,,,,,
,,,,,,,,,,,,,,,,,,,,,,,,,,,,,,,,,,,,,,,,,
,,,,,,,,,,,,,,,,,,,,,,,,,,,,,,,,,,,,,,,,,
,,,,,,,,,,,,,,,,,,,,,,,,,,,,,,,,,,,,,,,,,
,,,,,,,,,,,,,,,,,,,,,,,,,,,,,,,,,,,,,,,,,
,,,,,,,,,,,,,,,,,,,,,,,,,,,,,,,,,,,,,,,,,
,,,,,,,,,,,,,,,,,,,,,,,,,,,,,,,,,,,,,,,,,
,,,,,,,,,,,,,,,,,,,,,,,,,,,,,,,,,,,,,,,,,
,,,,,,,,,,,,,,,,,,,,,,,,,,,,,,,,,,,,,,,,,
,,,,,,,,,,,,,,,,,,,,,,,,,,,,,,,,,,,,,,,,,
,,,,,,,,,,,,,,,,,,,,,,,,,,,,,,,,,,,,,,,,,
,,,,,,,,,,,,,,,,,,,,,,,,,,,,,,,,,,,,,,,,,
,,,,,,,,,,,,,,,,,,,,,,,,,,,,,,,,,,,,,,,,,
,,,,,,,,,,,,,,,,,,,,,,,,,,,,,,,,,,,,,,,,,
,,,,,,,,,,,,,,,,,,,,,,,,,,,,,,,,,,,,,,,,,
,,,,,,,,,,,,,,,,,,,,,,,,,,,,,,,,,,,,,,,,,
,,,,,,,,,,,,,,,,,,,,,,,,,,,,,,,,,,,,,,,,,
,,,,,,,,,,,,,,,,,,,,,,,,,,,,,,,,,,,,,,,,,
,,,,,,,,,,,,,,,,,,,,,,,,,,,,,,,,,,,,,,,,,
,,,,,,,,,,,,,,,,,,,,,,,,,,,,,,,,,,,,,,,,,
,,,,,,,,,,,,,,,,,,,,,,,,,,,,,,,,,,,,,,,,,
,,,,,,,,,,,,,,,,,,,,,,,,,,,,,,,,,,,,,,,,,
,,,,,,,,,,,,,,,,,,,,,,,,,,,,,,,,,,,,,,,,,
,,,,,,,,,,,,,,,,,,,,,,,,,,,,,,,,,,,,,,,,,
,,,,,,,,,,,,,,,,,,,,,,,,,,,,,,,,,,,,,,,,,
,,,,,,,,,,,,,,,,,,,,,,,,,,,,,,,,,,,,,,,,,
,,,,,,,,,,,,,,,,,,,,,,,,,,,,,,,,,,,,,,,,,
,,,,,,,,,,,,,,,,,,,,,,,,,,,,,,,,,,,,,,,,,
,,,,,,,,,,,,,,,,,,,,,,,,,,,,,,,,,,,,,,,,,
,,,,,,,,,,,,,,,,,,,,,,,,,,,,,,,,,,,,,,,,,
,,,,,,,,,,,,,,,,,,,,,,,,,,,,,,,,,,,,,,,,,
,,,,,,,,,,,,,,,,,,,,,,,,,,,,,,,,,,,,,,,,,
,,,,,,,,,,,,,,,,,,,,,,,,,,,,,,,,,,,,,,,,,
,,,,,,,,,,,,,,,,,,,,,,,,,,,,,,,,,,,,,,,,,
,,,,,,,,,,,,,,,,,,,,,,,,,,,,,,,,,,,,,,,,,
,,,,,,,,,,,,,,,,,,,,,,,,,,,,,,,,,,,,,,,,,
,,,,,,,,,,,,,,,,,,,,,,,,,,,,,,,,,,,,,,,,,
,,,,,,,,,,,,,,,,,,,,,,,,,,,,,,,,,,,,,,,,,
,,,,,,,,,,,,,,,,,,,,,,,,,,,,,,,,,,,,,,,,,
,,,,,,,,,,,,,,,,,,,,,,,,,,,,,,,,,,,,,,,,,
,,,,,,,,,,,,,,,,,,,,,,,,,,,,,,,,,,,,,,,,,
,,,,,,,,,,,,,,,,,,,,,,,,,,,,,,,,,,,,,,,,,
,,,,,,,,,,,,,,,,,,,,,,,,,,,,,,,,,,,,,,,,,
,,,,,,,,,,,,,,,,,,,,,,,,,,,,,,,,,,,,,,,,,
,,,,,,,,,,,,,,,,,,,,,,,,,,,,,,,,,,,,,,,,,
,,,,,,,,,,,,,,,,,,,,,,,,,,,,,,,,,,,,,,,,,
,,,,,,,,,,,,,,,,,,,,,,,,,,,,,,,,,,,,,,,,,
,,,,,,,,,,,,,,,,,,,,,,,,,,,,,,,,,,,,,,,,,
,,,,,,,,,,,,,,,,,,,,,,,,,,,,,,,,,,,,,,,,,
,,,,,,,,,,,,,,,,,,,,,,,,,,,,,,,,,,,,,,,,,
,,,,,,,,,,,,,,,,,,,,,,,,,,,,,,,,,,,,,,,,,
,,,,,,,,,,,,,,,,,,,,,,,,,,,,,,,,,,,,,,,,,
,,,,,,,,,,,,,,,,,,,,,,,,,,,,,,,,,,,,,,,,,
,,,,,,,,,,,,,,,,,,,,,,,,,,,,,,,,,,,,,,,,,
,,,,,,,,,,,,,,,,,,,,,,,,,,,,,,,,,,,,,,,,,
,,,,,,,,,,,,,,,,,,,,,,,,,,,,,,,,,,,,,,,,,
,,,,,,,,,,,,,,,,,,,,,,,,,,,,,,,,,,,,,,,,,
,,,,,,,,,,,,,,,,,,,,,,,,,,,,,,,,,,,,,,,,,
,,,,,,,,,,,,,,,,,,,,,,,,,,,,,,,,,,,,,,,,,
,,,,,,,,,,,,,,,,,,,,,,,,,,,,,,,,,,,,,,,,,
,,,,,,,,,,,,,,,,,,,,,,,,,,,,,,,,,,,,,,,,,
,,,,,,,,,,,,,,,,,,,,,,,,,,,,,,,,,,,,,,,,,
,,,,,,,,,,,,,,,,,,,,,,,,,,,,,,,,,,,,,,,,,
,,,,,,,,,,,,,,,,,,,,,,,,,,,,,,,,,,,,,,,,,
,,,,,,,,,,,,,,,,,,,,,,,,,,,,,,,,,,,,,,,,,
,,,,,,,,,,,,,,,,,,,,,,,,,,,,,,,,,,,,,,,,,
,,,,,,,,,,,,,,,,,,,,,,,,,,,,,,,,,,,,,,,,,
,,,,,,,,,,,,,,,,,,,,,,,,,,,,,,,,,,,,,,,,,
,,,,,,,,,,,,,,,,,,,,,,,,,,,,,,,,,,,,,,,,,
,,,,,,,,,,,,,,,,,,,,,,,,,,,,,,,,,,,,,,,,,
,,,,,,,,,,,,,,,,,,,,,,,,,,,,,,,,,,,,,,,,,
,,,,,,,,,,,,,,,,,,,,,,,,,,,,,,,,,,,,,,,,,
,,,,,,,,,,,,,,,,,,,,,,,,,,,,,,,,,,,,,,,,,
,,,,,,,,,,,,,,,,,,,,,,,,,,,,,,,,,,,,,,,,,
,,,,,,,,,,,,,,,,,,,,,,,,,,,,,,,,,,,,,,,,,
,,,,,,,,,,,,,,,,,,,,,,,,,,,,,,,,,,,,,,,,,
,,,,,,,,,,,,,,,,,,,,,,,,,,,,,,,,,,,,,,,,,
,,,,,,,,,,,,,,,,,,,,,,,,,,,,,,,,,,,,,,,,,
,,,,,,,,,,,,,,,,,,,,,,,,,,,,,,,,,,,,,,,,,
,,,,,,,,,,,,,,,,,,,,,,,,,,,,,,,,,,,,,,,,,
,,,,,,,,,,,,,,,,,,,,,,,,,,,,,,,,,,,,,,,,,
,,,,,,,,,,,,,,,,,,,,,,,,,,,,,,,,,,,,,,,,,
,,,,,,,,,,,,,,,,,,,,,,,,,,,,,,,,,,,,,,,,,
,,,,,,,,,,,,,,,,,,,,,,,,,,,,,,,,,,,,,,,,,
,,,,,,,,,,,,,,,,,,,,,,,,,,,,,,,,,,,,,,,,,
,,,,,,,,,,,,,,,,,,,,,,,,,,,,,,,,,,,,,,,,,
,,,,,,,,,,,,,,,,,,,,,,,,,,,,,,,,,,,,,,,,,
,,,,,,,,,,,,,,,,,,,,,,,,,,,,,,,,,,,,,,,,,
,,,,,,,,,,,,,,,,,,,,,,,,,,,,,,,,,,,,,,,,,
,,,,,,,,,,,,,,,,,,,,,,,,,,,,,,,,,,,,,,,,,
,,,,,,,,,,,,,,,,,,,,,,,,,,,,,,,,,,,,,,,,,
,,,,,,,,,,,,,,,,,,,,,,,,,,,,,,,,,,,,,,,,,
,,,,,,,,,,,,,,,,,,,,,,,,,,,,,,,,,,,,,,,,,
,,,,,,,,,,,,,,,,,,,,,,,,,,,,,,,,,,,,,,,,,
,,,,,,,,,,,,,,,,,,,,,,,,,,,,,,,,,,,,,,,,,
,,,,,,,,,,,,,,,,,,,,,,,,,,,,,,,,,,,,,,,,,
,,,,,,,,,,,,,,,,,,,,,,,,,,,,,,,,,,,,,,,,,
,,,,,,,,,,,,,,,,,,,,,,,,,,,,,,,,,,,,,,,,,
