PaulMeinheit/Bachelor_Muay_Thai/Sub01_Teep/scaled/JointMoments.txt/scaled5.csv
R_KNEE_MOMENT,R_KNEE_MOMENT,R_KNEE_MOMENT,L_KNEE_MOMENT,L_KNEE_MOMENT,L_KNEE_MOMENT,R_HIP_MOMENT,R_HIP_MOMENT,R_HIP_MOMENT,L_HIP_MOMENT,L_HIP_MOMENT,L_HIP_MOMENT,R_ANKLE_MOMENT,R_ANKLE_MOMENT,R_ANKLE_MOMENT,L_ANKLE_MOMENT,L_ANKLE_MOMENT,L_ANKLE_MOMENT,WAIST_JOINT_MOMENT,WAIST_JOINT_MOMENT,WAIST_JOINT_MOMENT,NECK_MOMENT,NECK_MOMENT,NECK_MOMENT,L_SHOULDER_MOMENT,L_SHOULDER_MOMENT,L_SHOULDER_MOMENT,R_SHOULDER_MOMENT,R_SHOULDER_MOMENT,R_SHOULDER_MOMENT,L_ELBOW_MOMENT,L_ELBOW_MOMENT,L_ELBOW_MOMENT,R_ELBOW_MOMENT,R_ELBOW_MOMENT,R_ELBOW_MOMENT,L_WRIST_MOMENT,L_WRIST_MOMENT,L_WRIST_MOMENT,R_WRIST_MOMENT,R_WRIST_MOMENT,R_WRIST_MOMENT
X,Y,Z,X,Y,Z,X,Y,Z,X,Y,Z,X,Y,Z,X,Y,Z,X,Y,Z,X,Y,Z,X,Y,Z,X,Y,Z,X,Y,Z,X,Y,Z,X,Y,Z,X,Y,Z
12.713930000000003,-32.248540000000006,1.0746500000000003,-36.08423,31.127680000000012,8.15804,-9.034090000000003,-35.56602,-1.7076700000000002,-24.315890000000003,44.88141,17.10303,-7.888790000000002,23.424830000000007,-3.475860000000001,-77.97712000000003,47.88433000000001,14.454350000000002,-40.09754000000001,-2.4079,-3.0918300000000007,68.7863,-8.828780000000002,3.32578,3.30979,-0.80002,-0.44772,4.704440000000001,-4.003940000000002,-1.2615200000000002,1.3606400000000005,-1.0463000000000002,-0.70544,2.342210000000001,1.093,0.5524600000000002,0.22794,-0.014410000000000006,-0.08322,0.22648000000000004,0.03406,0.05634000000000001
7.170401059838032,-41.94629245311063,4.259445577153221,-36.160815007392635,23.560527289085314,5.398001806843148,-25.60882009676819,-46.954623041192754,1.2994970263510772,-25.695938794526043,37.12364046882482,14.860760633998712,-12.788475992482313,30.40357500594987,-4.311401172126914,-62.49063036653223,38.2446464755827,9.668791064715617,-36.492379719886195,2.251706474893329,2.964611772466086,53.25685237137816,-26.064853120260803,3.564127108981474,3.3622226650603806,-0.7085285450819061,0.6685795778163924,5.226953031650148,-3.9004483358709003,-0.9264345718320764,0.9147292176596912,-1.848754358734102,-0.5273047462441782,2.53949902369956,1.1677965164076995,0.5742216396947203,0.2369168202388202,-0.18376502851544743,-0.04383375528925065,0.39298500663888614,0.03144415826160504,0.0911205954635423
-1.3125437169590823,-50.574599797109535,7.824689315275708,-35.65999454533307,17.604246576058497,3.7966466479016634,-54.509888985586,-47.0471355437544,5.013621398464096,-30.637673992044906,27.801126314182063,10.00775917042012,-17.656814408355732,37.10534039919781,-5.302003628087713,-37.525868925615654,22.263164160889772,4.152058954774005,-50.4559895923755,24.862615789741334,9.287986544910533,33.93186018477059,-24.038771403171907,-4.731551541019897,4.435850505043028,-1.1949692759106436,0.9888580941385912,4.301665763893446,-3.651911274354947,-2.1863232146692075,0.2118095514408512,-2.699669781235212,-0.6201015542878718,2.2151707201358852,1.5104760645367878,0.0916783691166019,0.0960355842418317,-0.46122500305052455,-0.057898977064216324,0.37756246426403545,0.055644461491634045,0.020323359941535574
-5.960331018714232,-60.6979513713282,9.474884344616983,-27.173771602863507,12.947066814197427,2.9307482509234215,-72.96827453804741,-51.94013558867675,5.24049471041908,-7.679429533276608,11.772003950808534,5.557186828551231,-21.215315967361313,42.84987479675894,-7.267957326887241,-15.256719512388402,7.987710180415417,0.968217243489722,-29.9812805934867,20.562689209979524,11.57460238490792,12.378653761890343,-8.69004309497139,-6.868856776515257,5.2793706900198965,-1.7116947874751474,0.5261820190670292,2.941441840874133,-2.6004401994472097,-2.879882573593279,-0.9865882165636702,-2.1487765362720337,-0.11208813038069892,1.397523889613665,2.1258603092680044,-0.334301911677232,-0.15852907982988748,-0.39983425809893086,0.02570235097572359,0.16546283985767007,0.2511899914279765,-0.07302272248044932
-8.045460405969827,-70.54727394177881,9.94620436118085,-11.240405645560879,7.68424895585714,1.7549470863668368,-83.86691024466066,-50.16764311163351,3.5818379637046553,28.010388899535357,-3.773538436464339,4.886780175606412,-24.045370949960787,47.485608567751974,-9.719684791307136,-2.299832341770252,0.6227488654730208,0.4865452706550436,2.4805660273516716,12.858124716253435,9.821867711200978,4.270383107508379,-6.064288843048056,-3.4586712865882028,5.91399135657052,-1.9680535168765798,-0.3426011933767371,4.080765978617391,-2.67107435487162,-0.6979998767261943,-2.0733401439071786,-0.5270120360486971,0.8670002886705854,0.728693779752434,2.061966380415609,-0.46253251779938165,-0.233975334168903,-0.04165175047441309,0.09586916468988621,0.05587642309078143,0.35844052209773236,-0.11657977030192467
-7.344943925295532,-76.58581367854354,9.558045042683228,0.5069745366230234,3.4616251695211,0.2998573692775324,-88.84491443012416,-35.41187725764434,4.362204746471668,47.790566656047986,-13.519526326224321,3.8658383085130925,-26.51779620798235,50.16349017666328,-11.754862285533198,2.0955030592052597,-1.289695854580542,0.572763082635707,13.988261811052736,23.53453174503659,5.263297742082078,2.0006992424435524,-22.984066697004693,1.013145109576547,6.705858572632712,-2.004145877765841,-0.32858971300821355,6.982125673060286,-4.799664933022126,2.2323966012233916,-1.3749472129893565,-0.7121444112443205,0.7374949672531196,0.6110257494101956,1.2758211259457812,-0.41891355393082147,0.08928462560855639,-0.0755796091198409,0.002992263031400547,0.13302456634841126,0.13542090533762088,-0.0551343952113228
-5.410085061640027,-80.63890910703233,9.507555993187651,7.878146208489048,-0.41117164416001395,-1.134193141466564,-86.73280307013977,-32.22284242279247,7.137545500430836,59.965842282250414,-21.459729525965805,-0.4113957281211671,-28.402030183490663,51.32306044076229,-13.077643234500634,3.026664416088789,-1.58195901911843,0.37471643169267715,23.432063388259177,18.710266588427665,-1.5780059549991476,2.8423925372389682,-28.56885328794211,6.267298623074019,6.142654695568002,-1.695604898278111,0.4887664962919255,6.648578522638302,-5.3232371580663305,2.3715220988077608,-0.20194166603940472,-1.6608369048512002,0.21753901190547958,0.8400705047677828,0.49095448622986876,-0.10915319782932041,0.2376423949947428,-0.2255207711197498,0.056253284514872506,0.17500704980521206,-0.09364991988720517,0.014999772994259655
-1.8525653462304688,-84.96867953112846,9.831340933786917,15.663760485502962,-2.201309373417373,-2.6730123470239975,-79.95390833920823,-45.5803827566156,5.39197754874353,66.86660121996947,-21.692444162507094,0.024577104092228803,-29.471875948911823,52.477679549537214,-13.652376132453705,3.3550872865784895,-1.1975202933191278,0.47228540828492027,33.2726946041788,-1.0412550802957488,-4.54775613607751,-3.04570629989429,-18.004600044611248,7.1114839845334,5.46347457466843,-1.0427097857681855,1.7251232996490047,4.4158732652754455,-3.7461301591875595,1.9523763014571807,-1.1122497962276952,-1.6940649810110924,0.5545531480655315,0.5549545427772494,0.2817718588734161,0.2225377943284653,-0.15124858513038267,-0.14293809567408644,0.2648235631447091,0.08002532527634452,-0.024225193690737033,0.06269149699057508
6.131801233209653,-84.37061877203953,8.77599775039161,18.7629701097361,1.3975362420681634,-4.0498496465266145,-69.66202587892654,-44.67290707104378,0.7296260012149614,66.37444767077868,-13.96743620401358,8.69462022675913,-29.935208869309516,55.254235737779254,-13.471406877056088,3.1002985570687307,-0.47542539972271947,0.6542592069693366,41.845512928797504,6.614346029407439,0.9425489147630582,-30.637665331152267,-15.784680233954827,2.7810963226253937,6.145232079017958,-1.410715413598542,1.1052288335433673,3.9143107351595403,-2.7791120264097597,1.5782281409682422,-1.932401526088834,-1.4921060994982165,0.5034854442476047,0.46738897730492596,0.8366493631553017,0.032192949240816206,-0.26233817258663833,-0.16761086446609502,0.12663925843243976,0.006058506818834303,0.1235132219653357,-0.00447722550313193
15.072502079525476,-79.75353608500993,7.664679635313354,16.690217343150426,3.5079493807944084,-4.157421919159933,-66.48447084112725,-31.41716657918232,-0.13055656591975728,64.16113635241446,-12.574620609080124,14.525709447366204,-30.08194067555525,60.14835161607946,-13.318134579161669,2.5777906567652575,-0.43821740612339555,0.3843898891855474,38.63404111101488,28.132252760978893,9.252722186325396,-35.809826297952306,-24.854558215720626,1.0446760332944485,5.486576171583137,-1.8326010457957338,-0.30816196763188636,4.449394985123286,-3.5479444008335217,1.2906750826325077,-1.3663278219201211,-1.2732199932337203,-0.03765384893424017,0.11304326885068117,1.2146016141411813,-0.4489669013067412,-0.01159186354605055,-0.21189006081688416,-0.14950044706853194,-0.10117197582529502,0.09294460324390957,-0.07141579247179489
23.83044887731125,-75.92233792166579,6.819554489353789,16.655252742607065,0.7475593294689183,-3.6566258159161666,-60.84417085990932,-23.690654676750135,-0.1699169591344842,69.7057514676933,-20.461393481009853,8.79829233765964,-29.888041938630877,65.83510143557243,-13.531741952683255,2.7149092025785055,-0.897121499740671,-0.08125909843410142,46.87038074689105,28.93098115657636,3.9712245285834094,-30.97824642526391,-33.43351566073531,2.1654946112304074,4.984408031356001,-1.9139790994432127,0.43321542087205933,4.881398761615681,-5.040350666119165,0.28331351814913275,-1.643376065880203,-1.5912630142481023,0.317510813928944,0.30507585505222495,1.2978795997918178,-0.49973943584278424,-0.10646145295521856,-0.29169513984391615,0.017590753307911586,-0.009813498713870855,0.10067438763839522,-0.07845649753559192
35.13194744932399,-71.53878904949148,4.7775348268779325,17.24281175109416,-0.8285785614409488,-3.3101959914227987,-38.83866559244945,-21.73317748195189,-0.7882223230340787,68.31255176039916,-21.35322152823524,1.4088230294768138,-29.438706751184334,71.06277953982219,-13.481430632149769,2.9466983106517923,-1.059909865748721,-0.4520105684478626,65.47622655839301,26.27280082260553,-2.7631873898784844,-35.98242184849872,-35.032241601762145,6.130999187545817,5.4494655149980336,-1.9854476260849596,1.0696954917040593,5.77470745521846,-5.584665802471026,0.5663575851903907,-2.2737875946401087,-1.8665448979835881,0.5702329351430154,1.1139243814790376,1.4110757601002484,0.05069233831349053,-0.288837804629038,-0.3734726796821642,0.11942859483575019,0.2107303461819578,0.20795850557199902,0.014236744302423285
44.49009766195597,-65.96579300702894,3.4316562962024104,13.710594354193926,-0.378463111808079,-2.275975774242361,-24.951257207685515,-28.51587175704106,-3.563535381449829,48.6085271481513,-12.338991794037833,-0.25285545621207967,-28.503402671365727,75.2185563492839,-12.974571420447138,2.704873034307387,-0.9018425389942225,-0.6288582046064539,46.80451362601472,17.73815337281467,-9.09412987269262,-30.96881247342446,-23.853945858048856,2.517839270669861,6.362992759726506,-2.061438510323638,-0.11410386893874952,6.498901541015202,-5.564132587240609,2.487704994862319,-1.703780386158042,-1.111474416576421,0.7112740585880382,0.8172969602914483,1.0303445880454005,-0.14522371800033396,-0.10542405988382136,-0.15464022154960372,0.09469397244397514,0.14833183788501095,0.07963064365303654,-0.02137474117063846
50.598826590348715,-58.553537635061815,2.2363556715050783,7.772698107186515,0.9022256290265869,-0.5525649634357628,-20.297296045912592,-27.97185173632112,-6.68120534932769,28.034574933342903,-2.595321602760661,6.275443924263183,-27.282527242720494,77.55863771900705,-12.291792520065624,2.276839112895049,-0.7262408728037081,-0.289187055302491,16.033341083234713,17.79561968762577,-7.528501807406225,-17.289681540945708,-17.370776164964937,-2.2167493153531495,6.8817011539959045,-1.9552119053069834,-1.0452627303741064,6.481592485243995,-5.985930267130018,2.7247752130702336,-1.1348763442914616,-0.3040956815422204,0.7974816755569641,0.5534129649965225,0.7936834425135247,-0.20319998963923228,-0.003975221340812515,0.17657914415837084,0.14385506202504605,0.05533593060734618,-0.0922166275607077,0.007732431003506126
57.18008832234447,-54.10342674907104,0.7120948800617979,6.597686052396311,1.3769225555853808,0.7288666211952665,0.1247432672044638,-20.73321586917842,-5.791155099843177,23.262470318588665,-1.1836834003073133,7.645074700670382,-26.0672315923935,78.02528174651763,-11.5026999530339,2.493041565716203,-0.8669273633222612,0.41088679338024076,33.62722927646491,26.628626257281784,-1.8732788664498663,-8.37179151006894,-19.635400793684195,1.2163870966659545,6.787162636219593,-2.1420029843108015,1.1140579001716187,5.971269361757715,-6.711712636177758,0.23953546966089131,-2.1673691359350866,-1.7246690517492982,0.6034688820720789,0.8429764831649365,1.3184213964287652,-0.3167171385681402,-0.26250590380700356,-0.16435626165284992,0.1851388496831194,0.04864957180811498,-0.02371913949707903,-0.04701170534921469
62.14836789079341,-51.443282691151495,-0.22353666096271407,3.9276113051961477,1.0227080715540664,1.8257031089079685,25.849965199213095,-15.983433845384738,-3.3493558017891085,11.402435605666364,-2.176489729253679,0.6392443938335084,-24.844770915303705,77.45609460412331,-10.64671192561444,1.9130351051468686,-0.9864856038942053,1.1786053944912298,55.75677888852716,29.165557679672464,-7.873283036319136,-7.495581924101913,-26.93095600904735,4.618998856226635,6.786341503294233,-2.5607923583848198,1.1901310895338626,5.670911064818649,-7.02165046644268,-1.3646611094422403,-1.7403799811022354,-2.5567547740847436,-0.050531471089656846,0.8220966596202159,2.204127466210029,-0.5118838752918927,-0.10724952438289452,-0.43221643027543677,0.013737067600305467,0.07041651923192183,0.20387394292791808,-0.08158309918856357
65.04409859019515,-49.57148633633748,0.08246353899731121,-6.0964972139466616,2.9595533030100465,3.6617695069118104,39.87328426884931,-17.376692389035853,-2.096371730825496,-16.469752378693716,3.210062120694209,4.567782580410211,-23.32830321735388,76.3882493967918,-9.698596594334047,0.17576601172912898,-0.72222886267546,1.548858740214372,34.899394822533395,28.44931654491728,-2.0567555370517367,-17.76634415218616,-38.31465029053917,1.5139799288006408,6.664717470208295,-3.119378498340881,-0.5727248371323957,6.057671902800337,-6.9888893414155735,-0.36935816510310693,-1.1423738923664037,-2.257307646873877,-0.20179996650980495,1.281994640723315,1.7667754917402783,-0.00711174386875877,0.01194857089727741,-0.35973969247352394,-0.014403444116463646,0.2116401775049656,0.13972031528351644,0.026549790677742168
67.85597140529798,-47.14367776728225,0.34484653352919437,-13.863467539480006,4.553347618823574,4.209130887789739,46.34441441036684,-17.852829207029703,-2.5555298645663163,-32.0325056258198,6.800158024710677,11.157691159651083,-21.437824264227597,74.75689440676351,-8.632110034247374,-0.9011245786956014,-0.3319572117719228,0.943913733765252,14.823976368159899,25.878167900149116,4.809150701937447,-14.188293550984005,-37.34305162398014,-0.765393289305867,7.468585755131956,-3.789686903242817,-0.9284781660086162,6.106255635870055,-6.71733797620215,-0.07264070327957814,-1.4923589489646418,-2.7893207713641055,-0.707181718493545,1.940043064318132,1.3509823324359265,0.46936529240850244,-0.10137790869291001,-0.4210550221131847,-0.07800366147743908,0.3690300294024586,0.08309715222744495,0.0961258659917362
72.64786383302783,-44.67742496147089,-0.2969817867358584,-20.03089987373648,7.7327076374724975,6.905595051253481,56.06624204563389,-14.500042257999016,-2.161324357956112,-43.684006172391655,6.606228911035183,25.304045919557286,-19.489455413416056,73.15981248925054,-7.638852705491905,-1.8530394999773836,0.2199157774151522,0.4428928007394712,7.26519104341584,26.673404125522534,22.152059794126867,8.0228948193383,-31.74802340061116,-2.8068182783086812,7.106645606017244,-3.240805893771835,-0.24932941999777847,5.552177221155479,-6.250348882001253,-0.7465265386190156,-1.6091778978137892,-2.5143806047023674,-0.749951946928212,1.9672127731751816,1.6282297401639438,0.4805882697029352,-0.11508148898473783,-0.40284183722521394,-0.137903783159613,0.2956775100903206,0.1548091810985459,0.06831233471958915
79.23108913772772,-43.132435847158696,-1.6874507390903195,-33.75287174411053,7.65731908640618,5.184427385122613,71.92565134368574,-13.193981796080685,-3.315313756774287,-58.45841518588651,8.355748185183105,15.518172182318255,-17.71414967560612,72.66229476714467,-6.887384652789039,-2.41651097701235,0.3071575409068541,0.5000823206169175,6.95350745530941,28.853421013985113,13.211805665246777,21.378980683871546,-35.00553040771198,-7.438810395859493,5.822856504678102,-2.046031003066309,0.8465850899175305,5.056925981217559,-5.665286801974204,-0.20758782354347985,-1.3044537935280374,-1.7772355940526996,-0.25833194036678053,1.9989332792910015,0.9690625687753069,0.6861310630210243,-0.01764700026588929,-0.33028271876044246,-0.09397986796657162,0.1902155949424439,-0.0140301451969509,0.05875165068867215
84.66130729387572,-41.2295915662979,-2.566519133681458,-46.93768970256126,7.9693130491165,2.681690326493388,83.34968401862422,-15.993534765546512,-3.4934406500679964,-68.39189986524245,15.210905966709408,-3.3728497764411864,-16.402881971840696,73.08550728558828,-6.2494307173377655,-2.9516791489060803,0.05026641887380741,0.9686606775647111,4.558189106231079,29.47843408433365,-3.495148233610532,13.922749839698703,-45.64135451615407,-7.376764519151536,6.311497237502999,-2.1248213495412345,0.6022164706831743,4.8880773768170895,-6.061684955158711,-0.17512751913272223,-0.7269349194875443,-1.8586594532856933,-0.6100891595437544,2.075725271069586,0.4476768585500055,0.7947041319058763,0.08998800767234057,-0.2627574869715541,-0.09828197567615762,0.2089676456209166,-0.13022861538211317,0.05396017615321534
88.09400178686604,-39.61215457552375,-2.8086165205144296,-44.79397786014299,6.842053725224415,-2.0234844937616003,89.35236331994756,-23.354191458204287,-3.8826516796992157,-65.80435317246476,22.214630398040796,-21.333734850426257,-15.718984742577467,73.51608947074789,-5.70622217332569,-3.5781331507395633,0.5083879956973992,0.6339915455603747,9.197130834221266,25.881400306689713,-27.042509033921515,0.5439866591573633,-48.43532906877656,-3.6254113919661215,6.539462714883132,-2.3215942424506815,-0.16132187429476552,4.94491599589922,-6.96292689169001,-0.9546565035287552,-0.32100899885273926,-1.871291488133568,-1.067647653406928,1.7584552267665763,1.159774896229497,0.34237436439381164,0.06794372310361121,-0.20532649084105567,-0.10178201187585414,0.20972034564083716,0.023614728317161198,0.007272508848778881
88.94887693469471,-38.522427651817154,-2.699668122473539,-19.049371662153643,1.1761682250509506,-6.618267830139118,93.94810608130848,-27.519564097465732,-3.0234561570422005,-35.04861009047647,19.31539072098863,-35.060085525001305,-15.637473257523725,73.7683821021055,-5.691625607216446,-1.8240686767525385,0.317356005793931,0.16321167549660226,51.76935313795598,20.579749993156273,-50.509004704004575,-1.236964743079913,-27.736850282363434,-4.644140297980924,5.13207041076293,-2.148957717039482,-0.8311668582792215,3.979749009507021,-5.8795846883743454,-0.30759653545041377,-1.0246431805530474,-1.127451794915982,-0.35722425301939753,0.929163678552771,1.5797953490565968,0.009573171959761638,-0.08514490136621526,-0.18721490881540198,-0.0789343969072098,0.06336995696993102,0.16407084419186632,0.001960262693983158
89.26817828136664,-39.637752041341955,-2.3310278812594483,9.131393324377479,-4.575436476796467,-6.327960184580173,92.8806574430737,-27.019069735276084,-1.3162465674063712,9.278904214236968,9.236417034968259,-37.7432790708791,-16.02089435434601,74.60206547499648,-6.413189372425086,1.181534799607538,-0.8923879057557979,0.4527972217443468,98.78084694527116,16.0109358106459,-57.89137609091642,-7.047967092231532,-12.865492114874295,-5.139554666116392,3.9591759189032523,-2.235431529744977,-0.782011880012334,3.083953934529699,-4.524532267016919,0.11289972136307362,-2.459910969853274,-0.5945418685873333,0.8884179029787793,0.7192675877217045,1.4372801332242404,0.11267577761051628,-0.31891853712754387,-0.17326288034677076,0.07259540990693221,0.006502598698881618,0.1867250214082304,0.01845322930892675
91.5741096340542,-42.66236215049232,-3.343616108614046,13.354822575273745,-3.7725014556906418,-2.525350098000645,93.25504767295025,-26.033396385534292,-3.7774381790025924,19.92911349366478,1.0241225609281237,-16.80227344760669,-16.738071938741278,76.01857276750728,-7.761011622272465,1.9256352404482422,-0.9604778121430528,0.43597611002006253,103.66225110106674,12.915228429447515,-29.755250548119886,-12.828413988430805,-32.60749919746183,-3.34382169221038,3.6514336132606204,-1.9082987871009103,0.8668894707315886,3.217068369469888,-4.799543706528096,0.0587476412627423,-2.454409572516696,-0.8493039325469337,1.0462924748154445,0.9280837042360434,1.3251409992910073,0.077585961093629,-0.37372702754924997,-0.10435721207948788,0.29048922330406435,0.08988948781530365,0.13209171103031045,0.005042018263711087
95.37902888609524,-47.94768023286172,-5.31967229554845,7.245740445038871,-1.2654773948081472,-3.500267956969809,100.1829843768373,-30.95043043226497,-7.368894369892034,28.771053736619915,-6.190660285307844,1.5897159461825225,-17.589660113529042,77.32104366349132,-9.508441330568793,2.2241093371742595,0.14098173938211755,-0.932465752820043,127.60967028581284,5.127434008860503,1.9208561978059635,-3.0499809562463343,-39.64039162392219,4.182029640795739,5.443613451435831,-2.3291711734560643,0.7315593582350068,3.610016138586735,-5.503471489700041,0.42109595827910645,-0.5375895818832744,-1.9568519915350613,-0.9116707048747856,1.0034941618633717,1.1883271942088327,-0.07648316657414826,0.01455902007288869,-0.18289207943318067,0.03960746867465241,0.13597856447630033,0.07180884544464551,-0.03182532374468682
95.73735178709018,-55.85829227304261,-5.739464862276593,3.8181601576787463,-1.168579039390469,-7.592174970223538,97.39234241322225,-36.08604751632358,-8.02483121456681,46.016464273892346,-10.511996611885797,-7.404879525838032,-18.656581677763725,78.26366467413423,-11.442768711748993,2.3826014011171495,0.42094305839405366,-1.4430250747926687,154.72532446244523,1.1875229077549996,-5.307797403623348,1.0427419505654298,-31.35207676915388,3.218379633421244,7.165109578597422,-3.1855388721438223,-1.113959755317044,3.5537073362716605,-5.8511026165782924,1.1106123171780966,0.25149180222694956,-2.3114362397056034,-2.1809613445613323,0.7673419749991273,0.8737532352383685,0.05211778353015878,0.2704447489359822,-0.3332757470027908,-0.39843229456460344,0.08548302754999948,-0.020927312835824132,0.025528358175851844
90.95294431371777,-63.86777265705352,-5.594803493356076,-1.872615173827016,-0.18656382624337717,2.818591809669022,99.11881967519531,-36.7825207132317,-5.98342550845833,46.028267882731555,-11.798499907370031,3.8268291496356426,-20.257528975793395,78.61836588974279,-13.907173456080615,-0.20848590589392899,-0.7543739099680267,0.659005436606631,174.17420407691887,6.571651915627255,0.9701629314491659,-22.512809680015366,-32.87056483382244,-13.275269600866931,6.8286690637847345,-3.3280986988490153,-0.37576860269338397,4.00288237187563,-6.4985448430304995,-0.21430665315508696,-1.8072702683037862,-1.374227331972259,-0.35293615085855395,1.2476714866122374,1.4501215986308122,0.37438859763034704,-0.11865015018076007,-0.2146195447476669,-0.13514719871927408,0.09808715103532847,0.11153348051253102,0.06197829486218794
83.24752888517013,-67.25161318078811,-6.727004911756976,-16.271190479419094,3.3222974294383762,16.57121604955745,98.89366768637962,-37.77589891172096,-6.179684830742002,19.173097609647918,-7.7070639717156775,49.94640471951899,-21.490025846190363,78.36508450560196,-16.68454484560756,-3.5910369355188543,-0.8971479009159864,2.1473387835768896,159.70243937600608,14.034876252806146,54.034730433608615,-49.81681865952409,-24.306782597579655,-10.701995330957034,5.941390606167296,-3.732141098506134,2.293629283990745,5.318642647900606,-7.925688167584648,-1.6886703263120904,-4.1569346462129975,-1.6791305605473377,0.8843989318878058,2.155532544264739,2.0874626610140536,0.16260439741549157,-0.5411932459030333,-0.23820614356809305,0.2046053667692195,0.21165891144178872,0.19366784279860433,-0.06264686603823477
74.6515594816928,-67.07402393227115,-7.484546720946559,-26.352443261822916,5.256780102443665,8.332798880712343,78.66333678835667,-48.568462687947125,-8.207404072032121,-8.887816258031627,-1.6174962381494196,31.566363479930157,-21.957239870353035,78.30932424322332,-18.936401123728942,-3.4068977457579006,0.31037470065121786,1.1232370174828412,102.15107968506348,2.3400011118182946,33.80317531408067,-50.786565597963865,-2.270602362135711,8.705541702868711,6.137816549489367,-4.04473569982072,2.1776689007980146,4.980131353327922,-8.09598153793984,-0.6218061950242345,-3.8088408873292745,-2.0573198757037727,0.7326924298766792,1.5255807032625008,1.624647742560586,-0.26709158367844377,-0.39559623215266954,-0.3382420351732233,0.1861874062209311,0.13988902800070077,0.015142658226281627,-0.07731790850223616
67.20538588948702,-64.59841589633348,-8.052105552308605,-19.6031784426626,3.2750417643963576,1.0120438760982509,61.63628205854646,-50.621348063239004,-9.17403485878307,-3.8275264256831,-2.0248633559031073,-19.584694921678757,-22.53225370784814,79.13611010971638,-20.275293389954975,-1.2011537808076933,-0.04393679441588828,0.8590294301995463,81.84758054229715,-5.5740670384416635,-33.89824082095659,-49.117213296008494,-15.640626497136271,6.3452177460380526,8.054966496851712,-4.014079615115094,0.244982727862015,4.532165631123684,-7.949484338213715,0.616427929703399,-2.3656276256598194,-1.4008229971644028,0.57571902431343,0.998186402988261,1.330033884674365,-0.09160559418792369,-0.09637614280406506,-0.2688851815469905,0.05050390764125395,0.045176822254246074,0.009317019034254017,0.007542596186677425
61.39873759656285,-63.457885926971194,-8.260117585816642,-10.5533883935854,1.4977736096310945,2.083823345846037,55.36615789388655,-47.88382199347974,-10.317594848407577,15.591474306481835,-5.689910671554671,-21.278520059188136,-23.437943927615354,80.50390792345385,-20.896307590391686,-0.3833644929388221,-0.5501069177687292,1.0814275796524657,100.27215953107422,-5.116114265155346,-37.597391545113844,-54.13572425005342,-30.36319809283875,-4.695089145440931,8.89066307800347,-4.185514077782047,-0.1901628544923308,5.260443448315114,-8.987911429850843,0.5265899228834685,-2.18277063800547,-1.2550552936364123,0.7031526910832737,1.3644272818783247,1.9038942163599608,-0.0015658628007066697,-0.07943625907451156,-0.26899014584103786,0.07615068713688244,0.1040854189766148,0.16883780588721847,0.024105893249691274
57.11314139503755,-64.62966898177699,-7.687944908162246,-5.30890656040404,1.3844051561178952,2.498342721260073,46.48260992317528,-50.937988192098544,-9.777077171316229,30.184245892173035,-7.086871671482405,8.120118233924346,-24.49517299312405,81.32072272067848,-21.10519541810832,0.02787689118674247,-0.1744935693667274,0.2188969308108259,113.09095495002038,-4.2675192699278455,6.450901276077077,-56.47975183594948,-11.82716298481685,2.5298868398945373,7.182402987750042,-3.856731265781394,0.08661704196870242,5.116140413095421,-8.758764671409708,0.7927772685322524,-2.2501845660425888,-1.419609167692322,0.3290977629306819,0.8811538131202873,2.4187798615678835,-0.6656836248651468,-0.16517058884741712,-0.24330948610412015,0.06832187959263361,0.05808680787913139,0.25082330435987976,-0.060514983965414645
52.51070234449058,-63.72212995362278,-7.230353182279594,-2.0858668364384205,2.900021646513494,5.058420742741149,29.46685495421858,-47.14949865398846,-8.78568674176223,29.344360195498073,-4.063506180160709,19.649461772303603,-25.307932578403754,80.79984865690503,-20.94939604918814,0.494272006315777,0.0746483525048323,0.13751162035040132,88.93968947505788,5.041513383620223,17.71993749588993,-55.43887311601917,-14.86455312750824,9.915966701016572,5.527200227420616,-3.2856352910424733,0.5834430062512689,4.603235896956256,-7.707478707835563,1.3619508543246766,-2.2558310731936837,-1.6010765392909192,-0.320428674277202,0.6454645816226561,1.9016164235754636,-0.7129249543555459,-0.21702718559006604,-0.2278040873964427,-0.04670020076641049,-0.04050055123688745,0.16959056050484309,-0.11153382365327172
46.881037238525025,-59.97890097760576,-7.626489891279697,3.624972060405107,0.21168921699086074,1.29639130182651,21.32523695893027,-39.20172237193635,-9.591164183292598,32.31037474605688,-7.8453667142859524,1.5349997655714143,-25.59669246212895,79.23512024243504,-20.59635103935785,1.097354100510532,-0.2872031869174093,0.14827831239016664,83.98063860639273,6.079003865138621,-10.361668372166045,-51.08680752256401,-25.509067277984514,10.299529875378415,5.523926610473603,-3.0492313273137404,1.00532389813196,4.5028115328149605,-7.371988351165113,1.6041752415464747,-2.1519842248293055,-1.3797053014637557,0.07214835667112243,0.9548750788195999,1.601250191019315,-0.23173798715689795,-0.1365110329068566,-0.2157007075721324,-0.0033709190314019275,0.09049679320098164,0.08191422435384647,0.022129240757570535
38.65444852780061,-56.332931587662046,-7.432339995442906,9.184655891583185,-1.749562017909097,-0.5884330911522254,14.671639718951745,-36.23314868878824,-9.645580000264765,41.22351247808546,-9.945779775819407,-2.41861257265168,-25.8909507265975,77.27860689437514,-20.470686578661365,1.8161664155559332,-0.8250069389117518,0.18809855123158659,93.62132269340324,4.012833711271856,-14.861368601267197,-45.43145318278261,-17.127652532395054,4.941316493138839,6.581752541712108,-3.173830585581202,0.8596439858603371,4.3216810496191,-7.3675219890535075,2.1446772316225085,-1.9225419578629839,-0.988308437416694,0.5367186179435184,0.7390533520634404,1.3920107763544487,-0.3145712722134874,-0.05446762962609082,-0.11291608475737623,0.08546705818839428,0.16971001905697583,-0.012033118577043212,0.07175854780038954
29.365713604090153,-52.25915503382684,-6.81910797699169,10.717713042346727,-0.3147995155849646,0.3860684538557143,4.326434361841242,-36.268738611456584,-8.676915868336145,42.72490264625253,-7.351241031788403,5.322765744319114,-26.3102023090927,75.1029287402842,-20.352379582739474,2.126932171636552,-0.8898997984002868,0.16159903986718857,87.17906302778093,5.502241174723262,-3.028467050251854,-62.25683675260716,-17.033945591046763,1.4479785227184847,6.188664743349951,-3.653971469954653,0.7427638537183661,4.106514482806538,-6.96488472182414,2.3952060809886078,-2.20317575440767,-1.6014334576830258,-0.0077213633619296965,0.5259058592502355,1.067809410026755,-0.506114655578885,-0.1730837531733063,-0.2447831133066333,0.027235101351563686,0.012188430305365965,-0.013061617622522588,-0.051572001089879714
21.137607578988423,-48.9696349620254,-6.270428173844795,12.110930938681188,-0.6609999799225965,-0.6300663962357079,-5.517372638207247,-39.71184100610394,-8.721849081715282,48.44517638562615,-11.129919622490835,-0.14003681088990705,-26.517003522629167,72.60582681955533,-20.07853550432786,2.2501305379960144,-0.7643446527736748,-0.17765217403913042,84.24556933279335,-6.200404818865125,-10.49744958281074,-69.55081980433184,-20.374102050528734,6.858754707117918,5.051242398489222,-3.5173156377665054,1.3306627721920379,4.044562614118068,-6.594488051228959,2.3150442031628478,-2.508926351526033,-2.009203748449699,-0.18156255943064437,0.6436040256805777,1.262236215651982,-0.3529849260845389,-0.2798730281209064,-0.3626576939923266,0.0346712755001595,0.005187530544550523,0.09268536438793384,-0.03738714443152578
14.24565714273362,-46.98849470778596,-5.567858851260608,14.092094961894464,0.3300725324811705,-0.7268283862560371,-15.903068053417794,-40.86920662972324,-8.235738238108109,60.562327444893846,-15.252156811119436,-6.366011903693227,-26.506467629837935,69.70611644405668,-19.6282919891095,2.2787863515143867,-0.5314961933563581,-0.06987829722149246,87.99054789701361,-14.881396208161775,-19.075743235198033,-60.29583019160991,-12.301896431826167,9.026911413719496,5.280427818216531,-3.2250727888769966,1.483473125698453,3.97672881944501,-6.1305342964287,2.927971054021328,-2.388889523490275,-1.5021562760415224,0.333881852119592,0.37163960495193277,1.5739806628733721,-0.503591265975691,-0.21305424694494926,-0.2251112151088732,0.12500055610708966,0.061375706180064264,0.1827512172050968,-0.008732732711013028
9.915621400295663,-44.006371283616126,-5.409374766884113,15.15161913499204,1.9639629383345532,-0.5173620451450447,-23.366268152600902,-32.36877694274638,-7.626869961292616,68.03819146938517,-14.806612890214389,-1.429153599372133,-26.175502558698287,66.61521224829798,-18.863777149039343,2.098641831441673,-0.31779048726220843,0.2959477901541362,91.73206494154792,-0.038941486934682246,-11.484056122816616,-49.89134333508176,-9.802852284985383,5.080374968657162,6.091716422463968,-2.9853594759322135,0.9446120126815533,3.965743555011106,-5.801858917333998,3.048917644785534,-1.826921703515637,-0.8768455303913107,0.48001076116323776,0.47115982146048363,1.248196345077448,-0.5397915468279493,-0.017898776498592964,-0.10947854378114139,0.03460353955502535,0.11877772430165846,0.11221102642531233,-0.03990125767705728
7.447224110578029,-41.64157936105949,-5.527668404356172,14.017996761611832,1.8045668771030232,-0.943574486863282,-29.525348937452765,-23.769788845000512,-8.278601602293675,64.67574402526007,-12.489800000977306,7.091728140481069,-25.63771952425389,63.440233922163266,-18.034863190279392,1.8105840039698,-0.41761244057047003,0.2916875753321135,84.67309265103431,17.46819236503605,-0.9062686117836195,-48.42631290967724,-16.0002948221135,-0.26510129661778326,5.38739370320002,-2.8436584101289784,1.126880688037914,3.081048135197697,-5.552536858533075,1.513804815854396,-2.229676574916601,-0.8983608333174304,0.5807207203248915,0.7394492773127459,0.7082368267552623,-0.03971339848043066,-0.1664349822731974,-0.15673322973601042,0.07769180860603013,0.1001945400621753,-0.034094451045579774,0.044173059097985336
5.403760785425875,-42.646469669233355,-4.829408699833829,10.305036696643542,2.0244906218640297,-0.696231989183827,-36.55188086064442,-25.77170729634422,-8.553982938833071,53.42219335563526,-9.823833079754527,9.609272051034804,-25.11544759339849,59.87035870602326,-17.102955656450764,1.5510684609146752,-0.5039057484111754,0.2626490040353744,65.19029787170396,15.419589365268028,1.2222125040121081,-45.863011999757866,-11.44918975568571,5.1975881683982,4.576966904086857,-3.1050371116483455,0.9539425842966033,2.678512319555732,-5.934954882799038,1.027810219729335,-2.500524458299832,-1.4134106964643178,0.2509499244131872,0.3212020461484984,0.9259129242636748,-0.2973341333618425,-0.3082979595768078,-0.31966730227700235,0.06301906045412609,-0.05400545285314073,0.02612900987575708,-0.007782111583568927
4.361464018972751,-44.96608493440507,-3.753505572733382,8.035813015712153,2.4583811547757977,-0.70247262214938,-42.01303469218055,-31.849785447587887,-7.6464689632470275,46.61457237030911,-7.62508092496753,8.381383902698627,-24.583050513531525,55.5305491201479,-15.871181749862247,1.489436597502421,-0.5088016265511531,0.11177333230218489,51.10941727378598,5.677107428695989,-0.34457042388966413,-50.810783912030544,-13.598797748763673,15.039992509507934,3.860758704799333,-2.4353769828647,2.11339031896067,3.882939314096233,-6.665149873941028,2.0788032553524403,-2.6832281583045607,-1.3636766514781893,0.4896597230263058,0.5384988374055822,1.2523482540798747,-0.5791741323857527,-0.30668333933077774,-0.2816343060911316,0.12155991340190984,0.031022879895596177,0.1086679955284478,-0.08327821051018428
2.84101813610966,-45.81690634473736,-2.8606217111211354,10.502365856843431,1.5067726306741638,-1.7603961842260498,-47.751297916870065,-30.74704304382129,-6.518599246613898,52.58460850142331,-9.322826330726594,6.300585391588029,-23.894263548159657,50.55493655427868,-14.591244406778635,2.019843583999531,-0.7654219517715832,-0.13526529591699002,54.346333373570076,4.666626543573889,-3.427014395255572,-45.25154664630601,-26.469855436448828,10.710414389145651,4.168134410264989,-1.9919042154157662,2.105679184296108,3.926914177051438,-6.127092128248286,1.6140210501303944,-1.729540521251693,-1.2599639239907912,0.32953125937754163,0.9699863135650557,1.2224568383305645,-0.410686336257343,-0.06394217349978881,-0.19250524634348906,0.08647774576944414,0.16828613066099246,0.08247028953794133,-0.04867645862334703
-1.7041130198078813,-47.519379785773594,-1.34452174479588,12.493794619418217,1.3126386521902365,-2.208640311035422,-58.018680682152684,-26.045435815063303,-4.017667710511441,59.13673799305894,-11.432449834920764,4.689656697442364,-23.115704637569372,45.240260850405505,-13.62570369254923,2.3864885835538803,-0.8035292596941033,0.04687516250649354,52.5624355836444,12.272022183209671,-4.580679212515793,-20.917227496901855,-24.968524678115116,4.023562267054005,5.0282238621695745,-2.423516623721167,-0.2878973336815416,2.831571083968261,-5.234765819193149,1.3638551850965097,0.087588919720015,-1.4208118630929694,-0.8769904140971879,0.5145090588260018,0.6482854383248541,-0.07188341965764844,0.22547753261714076,-0.1876500223371013,-0.17112754086039553,0.0157838957832514,-0.05297880019313257,0.04666353840806531
-6.051213164228146,-50.80922294964653,0.0903949152212995,12.009816639449639,2.936197839062084,-1.9934200730481928,-62.06498451740724,-23.571049548480296,-2.5883583758243436,59.37691755460942,-11.01961616509982,4.330205310718473,-22.482064466447238,40.07050759912807,-12.668123796034592,2.117027639025547,-0.4280155410288183,0.3397234598247721,50.398850836030014,19.46971618399231,-4.541423885620998,-32.38640321402727,-20.50316539115714,4.979781406980608,4.072434168706687,-2.2223937196061603,0.1977871201513242,2.651974420429015,-5.333279367392655,1.5925574950487835,-1.1221994846267163,-1.1236734225293898,-0.3714712734364566,0.06977379016431878,0.5810476629394125,-0.21724689520428755,-0.15402097755880614,-0.10062891429735778,-0.00866634001194193,-0.1519205284175502,-0.049954981291071,0.008952251179142945
-8.98980671244128,-55.15347906593295,1.5075648902454664,11.544923346655,2.6678211922006385,-2.1837162655272353,-62.12025851252597,-28.602867634707124,-1.9376038194670526,57.995503095177746,-11.621946437008631,2.9218890135980233,-21.948365458901158,35.5404962279845,-11.571632968471077,1.7362102597442555,-0.2707867228767242,0.2797102306605469,55.453649811672804,15.639857029185652,-6.148712651189325,-52.21470349581801,-18.823037753086734,6.679833489376412,4.309817042244519,-1.973748237602523,2.782827637732189,2.9500513511764703,-5.2757490424354945,1.3940416346510078,-3.167343234834062,-1.0006041490867292,0.9901173392477448,0.18097356741615794,1.0361057163938658,-0.6087917769747637,-0.4965122987349763,-0.08621248710148399,0.2937263059439139,0.025757624386235706,0.09303379179419337,-0.06964269250742776
-10.841548874786486,-56.51131801010469,2.87811327338762,11.05190285313181,1.2378097479182206,-2.2714905861527157,-70.22837971109885,-31.905826384846463,-1.090223857419414,53.9810930886253,-10.232982527174233,2.7585827294772285,-21.158172569745545,31.904870323166552,-10.210153922918964,1.6201362142511064,-0.4771523438025444,0.14349562388255563,43.36758212445601,14.62766119134008,-7.434906798873289,-34.00763045262254,-19.341158602284185,3.139649774499143,5.881365025201866,-2.4362045792194076,2.448294364300132,3.5058488570227957,-5.159173791741625,1.051705973974418,-2.1330879162865344,-1.5291830753138693,0.6066808691440412,0.9340752347936823,1.2493425826915896,-0.48123785393585194,-0.16317980615326655,-0.25968215119747073,0.1577185315560276,0.23402628132268113,0.17993849962093023,-0.08204032907475531
-10.504903088357212,-57.49687211504605,4.265690841338271,9.984684809516951,-0.7058834024203056,-1.7150692088242747,-76.24605872049264,-35.45425606129984,-0.9299825232252285,51.65000637437964,-14.426910994727217,2.0482251504881184,-19.648903751101532,28.607687777583873,-8.406088160411263,1.7030073381871984,-0.7439555603980393,0.17609819055162237,31.64369521670334,7.23048841223578,-9.079414293419248,-6.080211837764742,-17.217392552032134,0.29947787763114636,4.972968539839325,-2.6091617753647047,0.6059710491416431,3.372855127596839,-5.05882875875369,0.3640982368564756,-0.8322370862491275,-1.8129467207520507,-0.42388943961817943,1.3455507615368865,1.0684169703828295,-0.11264731425827978,0.060338499694320605,-0.30913066880995155,-0.0855532467286907,0.0953320058177152,0.1335117152692661,-0.0639290245435655
-8.445075239083373,-57.947668873385254,5.866345392897641,8.685029027323308,-1.291786486191736,-1.2355079325076517,-76.19508506277379,-37.088016436298204,1.2871213866457918,51.614801391277645,-16.53111103313199,1.3310530928353483,-17.469119952607482,24.576690982805662,-6.110936042374226,1.756346268441227,-0.8361142280644394,0.23648264250436102,32.55586941597579,5.5896777846799175,-7.891284706578626,-13.070505384456368,-12.366917372265661,4.563674186794808,3.810567154673661,-2.684214682348057,0.6285164467233582,2.994214022278042,-5.266845783916333,-0.25461395034562223,-1.5612325350830651,-1.5671447352750993,0.12666984282982272,1.300525309849882,1.0057799132345557,0.056973202300013764,-0.12452361086073571,-0.18112418908069103,0.07865755485892337,-0.03392866549431068,0.00872691400005902,0.02404733278464363
-6.068932464541045,-56.69218608597868,7.212136876338733,7.195323893775022,0.09693659856059775,-1.1324992787758479,-71.21733977846229,-35.39240857761486,3.9121880982035484,44.0344015773766,-12.04046028263163,-0.6933727513724529,-15.312571232385801,20.086343385876706,-3.7094173938797987,1.6372317428746523,-0.6561247350641536,0.22954083789500393,27.690681661106105,10.703212043790595,-6.516957493576644,-40.715619292273054,-13.169631440704899,8.177289592089394,5.0042119564680485,-2.644708974039022,1.7604800040773665,3.748544350568029,-5.71201533253502,1.3645510866401347,-2.288234792064973,-1.798074863566147,0.5526091981483932,0.656997231218932,1.039763962770216,-0.3023393717755365,-0.22742283332356245,-0.26889290852696923,0.14716742593026066,0.058929136158810125,0.02292703315361362,0.0259581758425349
-5.623550621504089,-54.89152851337194,8.296590978320049,7.183754536628244,0.5065183010251091,-1.1910951536610719,-65.2746879584948,-32.2776808462614,5.762399900657144,41.13956410520671,-12.000566944594608,-2.568427367682122,-13.510316736768221,15.66540080085755,-1.779864239824904,1.5383211177458604,-0.5853769761755236,0.18292434560201143,30.426317533319168,8.68446327919465,-5.551638128827513,-32.957178705850765,-18.31740924319924,4.047396247573793,5.672495789215617,-2.446646091275211,1.9420953385456186,3.790979424908991,-5.4167116472351635,1.5697352794512023,-1.8404238638744714,-2.3719109699851835,0.1738309669789169,0.7526946288140041,0.8095969227215107,-0.2771457293058187,-0.18974888085375638,-0.4583278538867683,0.08964502648770377,0.220315225096957,0.11050384114822033,-0.032416795753216016
-7.092662269104459,-53.4723328940072,9.304724417933233,8.068671405582634,-0.3162330188513164,-1.070123301030933,-64.37826623061625,-31.035554715590827,6.921019374565052,47.822175350386225,-14.469358719919224,-0.6852945567224128,-12.144911832224315,11.397027313776473,-0.34767506904907375,1.2526605306665823,-0.5114691372085526,0.18667276848941156,42.782442574022554,5.23808333406627,-2.5306295310788585,-4.7943295489332325,-25.84646587251537,-0.1404676317231569,5.793332389511326,-2.3972476528109583,0.8954354887802264,3.117643570390238,-5.174979172617894,-0.6045399166028881,-0.7668654794606707,-2.172186928414324,-0.12665569468990762,1.940223825116282,0.729782034038401,0.11365077240351686,-0.016886265360653196,-0.3932729271125743,0.04361717885631195,0.302523820622989,0.07035439167063359,-0.02082506591945994
-6.868354385906733,-52.8429025203778,9.92151224602544,5.977987531646464,0.27095291939244165,-0.4211391796745982,-64.0384847447237,-31.46869028365151,7.238521540726989,43.826166092243106,-13.04758700897296,1.3115949731305692,-11.039049122902622,7.491530313412448,0.8505564011270277,-0.6559733471968813,0.604158355251025,0.481345241718776,38.146567968347306,8.510326396285857,-1.1535155935345645,-3.1090512958093637,-24.370872811602037,5.049090771234381,5.001710451609595,-2.355558069469451,-0.3464945286956062,3.9577954912172983,-5.501383155058717,-0.44619753641818555,-0.009851177538455339,-1.4077841869557077,-0.22428366609848083,2.156996882509973,1.178723837852411,-0.10580129488769431,0.1424128120059597,-0.11997230085204923,-0.006601121616372481,0.32243460378143035,0.0804963450793036,-0.015010796566527571
-4.3236879618453345,-51.91296621820574,10.08739936200845,-0.0764163573963515,2.6987813795017823,0.6430616803799676,-58.28195594448404,-31.1199139192723,7.495153781967303,26.184358008094616,-8.71542960010924,0.8850049159928897,-9.826905054960758,4.104327709156534,1.916187681340218,-4.788369780036368,2.930753860507431,1.1663940766317127,20.560386277961506,13.60855373680158,-1.520954883392193,-10.242677286863218,-14.560286809641564,9.406994854406555,4.660449629509693,-2.8601975398440556,-0.9666354938847218,4.673002567631126,-5.21599491143138,1.3739183826415666,-0.47119986825053417,-0.9042751569326531,0.1656525636514615,1.277177302675302,1.1071950452817287,-0.24602480621954834,0.0869913385025913,0.012698202903500936,0.01163002682432871,0.16137001241693003,0.09545430275733713,-0.003986278387573315
-1.972892283842066,-49.532433107253325,10.046986661337542,-4.1404574207176825,4.848813280591622,1.4252094116280059,-50.99262083835153,-28.22889774038599,7.719812494685692,18.623240319749105,-4.0315046799125405,1.2449984062147574,-8.219851950654284,1.2728637864477175,2.792357413715392,-9.954873040822715,5.739198873152928,2.0735979757533927,15.644713619970254,16.786941680897705,-1.7679769156532663,-0.7671334403301258,-14.67711932199366,3.7968696018365704,5.844347073262288,-2.6811115464640003,-0.1575707113989337,4.090147773588098,-4.68392208558042,1.6962431463501948,-1.4189322496095425,-1.3229483353917486,0.39586558012981965,1.066941485807951,0.3684165530771373,0.2306996767659721,-0.12729884754312945,-0.1070642909294697,0.03692389325839277,-0.02677325938213302,-0.020385191614112206,0.05734094755746111
-0.814421922643632,-47.46266003898087,10.15237710958896,-6.976840678791562,7.2693206662841225,2.0691115882353026,-48.471993877698814,-26.72431462046629,7.519150678730661,17.518190671105994,2.0192029600050994,3.056506221982035,-6.349693018962177,-1.165038502741605,3.4548625516981355,-15.204628027095348,8.397881859732253,2.930119277255839,12.96227335151119,20.607596536072172,-1.4045928371025567,1.9554737328603877,-14.99131677156449,-0.7255093390244048,6.228674362732647,-2.0292562697828544,-0.08706182943897012,4.063044869589371,-5.2809457299701785,1.1290090328770854,-1.0119693336119382,-1.4352068917466057,0.11780299533639851,1.329490085357559,0.12765695365956398,0.18991297912348018,-0.1295077592036692,-0.1764306707442538,0.009355806330867848,-0.012048621693139052,-0.10185789731954187,0.027977348516030162
1.1536029568074193,-45.411608651904814,10.041290808580394,-10.51988986431337,9.059068617732901,2.606304236573745,-45.49617939117451,-27.414392283334724,7.228681859860889,8.54862735388917,8.642132957396539,4.140043483661175,-4.816783175088118,-3.3885237553908376,3.987327809976204,-20.026948753901834,10.458866439646567,3.5501227824665103,-1.2699869031961413,23.264562740385042,-0.4160718970910759,-3.3026523202029963,-16.50131955346306,1.3055643201871048,5.338192249864485,-1.5432641132842553,0.1541856935902649,4.518224521096928,-5.522823792578125,1.929793651223165,-0.2599852162240917,-1.742997423570295,-0.15279021583070876,0.627554707938211,-0.1204035319260263,-0.10754063113329557,0.04967129268944384,-0.24189424757198708,-0.036699606904177055,-0.01565668476634624,-0.16373938129705198,-0.01311253651964182
3.151989263370216,-42.26344973505192,9.721568979350243,-11.786625792666975,10.314195067908809,3.0525083334024687,-41.55714212691285,-26.251382159641075,6.914478304877014,0.19091158211165965,12.44389865616317,4.719261451385405,-3.6427488793127893,-5.0082897598673055,4.443684211844469,-23.633457832204805,11.830728149581414,4.066901145179514,-15.38128340613034,19.585193768469246,-1.1010604807702808,-0.44331439039227205,-20.587724710881346,0.5495644683312905,4.055502327896253,-0.8760497520077074,0.6688325369428492,3.7257573727426143,-5.374161965335505,1.1417148392802607,0.2881199851697167,-2.165134167971753,-0.4904693254648501,0.9807500356741059,-0.33142458960972904,0.14848873306913202,0.14667314342716908,-0.287387558870479,-0.09165564364096378,0.0581654887109761,-0.1691797362317298,0.007671299901116756
4.571246397554539,-39.18980988658944,9.514910492821354,-11.466687346697936,12.141285021043288,3.40297817223679,-38.74289215905043,-22.46259028378554,7.136336285960764,-6.184033594240431,17.64178920941713,4.859621255398696,-2.7619261784693947,-5.587755456476167,4.760346594668805,-25.536307548142197,12.566232497245764,4.494454649619171,-27.14409567925218,21.58162469749115,-1.1660703212465768,9.534455556197535,-22.272842774491437,-2.2464637647868364,3.7630758793485586,-1.487962711676337,-0.536992534689288,2.7466915943094135,-5.76122799407361,-0.9308574278051337,0.5067269211015399,-1.581256887303273,-0.5733940593641037,2.210985164708692,0.4150727925677581,0.4350094971912368,0.13282800210846574,-0.2045115421306579,-0.10940414265286498,0.23296209460880515,-0.0015585952262534737,0.08800050842218628
6.7845361249671585,-38.42269981729369,9.333911327405973,-10.654212012589563,13.316744761679434,3.6257952284591046,-30.436845394640606,-21.19275988372009,7.329691579613942,-7.849156119178962,23.57377317474855,6.437994978237053,-2.1097206205652355,-5.606073096798532,4.853048171789095,-26.099655802331522,12.81927183721681,4.667216573511929,-23.075758698955408,29.044219741582474,4.644265267390673,18.18182982741985,-22.32873006551298,-3.9319252396845976,4.838737571066911,-2.8308628897745547,-1.5212439602262648,2.4890783686686286,-4.894100354029702,-1.9121292778965475,0.08803693349059183,-0.9997604583029074,0.02931939105571464,2.8691068791020737,1.1894809420596641,0.2259864807420672,0.07831158690619755,-0.11389040129266158,0.002526831558606069,0.4233233345795131,0.11434506937086579,0.09161326506880028
8.136576073415478,-37.595661475002046,9.002084581746256,-9.95133500980332,12.99387206390104,3.7290243321942222,-25.249880537585017,-21.857034689940434,6.7139439629749775,-7.951872918500244,23.147712932877408,7.6435124988731085,-1.4584779405819044,-5.675266452264563,4.740617502495378,-26.856598143557882,13.217304616917525,4.668965919718726,-18.73429253620776,26.901204289987596,7.636459012281183,19.665784208817005,-18.121584597741858,-1.2410380221396629,4.398897430471499,-2.3810724781632318,-0.8183007954210032,2.8012307675837365,-3.8832520743272396,-0.8916586663288582,0.2571222339949545,-1.1831467519556937,0.22944115025187986,2.025128307454155,0.5707205606705829,-0.15088663162619778,0.10454283003954089,-0.1144728006638619,0.083496313305266,0.2774617955624711,-0.0414855939365179,-0.01045382585449455
9.254718612574248,-34.42679486958635,8.196641747891109,-9.409056435481677,12.412846913278193,3.6245552692521827,-22.1543617868372,-18.8718807233842,5.64891951619037,-8.664278330076367,21.317811758498088,7.197964737568194,-0.9638902943110443,-5.898767869279312,4.567191763394298,-28.736360841559627,14.076435736534169,4.684699252524738,-17.458035143005237,22.45837163140457,4.627722074397557,21.897972914582308,-13.425522657015515,-2.5534575628620706,4.43388475962416,-1.2451384390437552,-0.511098241968601,3.8317203832872306,-4.443364256707384,0.9807155987632593,0.6812287774571718,-1.283477411524262,-0.2877178543026128,1.1974622052214732,-0.545192949317102,0.1454386149956277,0.16285325820869528,-0.07077827883232934,-0.06622610078878592,0.03293860745321438,-0.2464767833061063,0.015191071529912828
9.745646278964013,-31.109055475418447,7.447264709621533,-8.898984629154086,12.495835248020178,3.417067814531062,-20.041356501713803,-17.119169531184326,5.315390710566333,-6.504587338059681,22.60400326396096,6.655198587482843,-0.6579053702679025,-6.159424881124966,4.33305107950293,-31.30542324888721,15.101820649980162,4.711507567197662,-14.788745360835621,18.819378189066956,2.2836971380398494,29.02850488296037,-11.570501591684732,-6.786794352697375,5.381263447853461,-1.1178034226165692,-0.4527107791636195,4.121879604722011,-4.753197803076291,0.17713924097010683,0.537157174307742,-1.7558256749384171,-0.3820670304054734,2.241945387866793,-0.049031099883334546,0.12740809261794167,0.03690273049585422,-0.16072636310277685,-0.06653504814108015,0.1897390974000426,-0.07216382707906345,-0.04151445601361141
7.736486190532982,-28.67801228306285,7.052772561992994,-8.425839196273248,13.513235964741725,3.4035678211724325,-23.34806993181004,-15.975587556332501,5.4146217704246435,-7.061765316646515,29.64187249074984,8.067572530142664,-0.41068062954655865,-6.152515191469077,3.8630102447954666,-33.91796796213153,15.916207360207636,4.735011428573659,-26.73574418168328,23.30713708115141,4.081654301527944,31.738592553193484,-21.438174000613355,-5.502239839322556,5.242485375555162,-1.1927117836829961,-0.4457683799453261,3.347609220527512,-4.547481507887517,-1.5538629812577018,0.7803106974130399,-2.204060644572869,-0.4632527078465991,3.38722551568505,0.7062457093059233,-0.12717965712890886,0.03974771545097379,-0.32238918221154833,-0.036434580581172965,0.43068851612326564,0.09128878016514007,-0.09656133354609873
6.61127043852997,-25.874212072237054,6.185043464435902,-8.727125580173865,12.668404095974603,3.4440816390886186,-19.357924208399393,-13.60400408827263,3.990924904485266,-15.166023766143926,34.0810554061007,9.18019085323223,-0.28860579841921524,-5.708354132530484,3.3124408547797795,-35.488494767246685,16.4076999617222,4.69463240993458,-42.670960957019716,25.136560324956854,4.546517231946083,33.877041545879884,-31.18165412921252,-5.6501452785891475,4.9864609246878455,-1.424405892254998,-0.9752876357426563,2.440306729457293,-4.125390242817147,-1.4142044693153843,1.3551760866818623,-1.8436959585345267,-0.6525359289117834,3.0321016559113305,0.5133993606869434,0.1325670466538269,0.22942531783069164,-0.29849893047761694,-0.08941432290803389,0.3703459821244116,0.0699874783223229,-0.018895178124972312
8.251209562807196,-22.196274482841545,4.730936523644288,-8.34616201633937,10.609058761966985,3.2045019789069857,-7.026453439051721,-11.321564368949273,1.8969075773754638,-22.448332334258843,35.972367745822936,8.766447926800677,-0.10139711575626865,-5.181716417233618,2.833278295993992,-34.95452868054908,16.429990105624217,4.4749074828252775,-47.26192359493154,19.908926779744117,3.6267524289724697,47.407539833865386,-35.827596492809505,-5.9414160952713155,3.7516367468333516,-1.109717406681328,-0.49977296369372587,2.271230291176779,-4.169628306564364,-0.5120463794750115,1.418698013177822,-1.5827764882735358,-0.3966976715542971,2.5674407830089296,-0.08264526079981502,0.6306137847354246,0.28560782714867133,-0.19676221822060558,-0.03897998099978484,0.2457231292658257,-0.07471138334861349,0.1242862032485706
7.437327029102956,-18.508744565947595,3.966956458291264,-5.981934641518305,10.79389893314171,2.9616502311499273,-8.142231747350857,-9.528550944012188,2.4330333878685195,-23.684138069883137,40.178865672050165,8.108106553681937,0.28180081581834193,-4.774003684893109,2.2960525097642157,-32.42284381243564,15.685723560775179,4.206306774147072,-56.95767433561511,17.524329568082525,2.944107228298858,49.74719758328873,-28.144969687844828,-2.0211159864753565,2.525112041380426,-0.8912822777615255,0.5971451267246183,2.911340895743254,-4.950505406035705,-0.4684919085580668,0.923686839122699,-2.013692446839754,0.18481303663756085,2.59566387728973,-0.1093465412305612,0.45256819053050273,0.15749148309308966,-0.17545665923353815,0.06971491439991688,0.2296165178069949,-0.14262377080353647,0.11937771714519357
6.176310983796711,-14.409357077520513,3.333330048799089,-1.899450471659007,12.481981508928103,3.0607022496524405,-8.383310129673276,-7.555925694645245,3.5029936302895663,-22.434652822173287,40.92718524087284,8.260915223148382,0.7005941758551494,-4.19005178355131,1.856841467325515,-28.93052241998663,14.461450743462166,3.990074432549673,-59.825398556996824,14.084207586315975,4.175871733981955,42.11061497639727,-12.498947422316476,0.31720896169232604,3.2407426234857666,-1.1815689411498445,-0.3256862805747592,3.614132976968937,-5.1833763622261495,-0.9238773949586958,1.47896589705626,-2.0213344639012916,-0.4969710820032409,2.8845945043480317,0.29346506506510217,-0.15859467640283909,0.2602547908095366,-0.1883646418196841,-0.1084530548730233,0.35251110367482497,-0.0675949797617944,-0.033751644518759276
7.155310457699594,-10.78640001727985,2.1716911399351693,2.75862241520013,14.868585948128445,3.2250340423233164,0.9446349034676143,-5.394610505952626,1.2085197736720246,-19.783873192715383,44.00180768401322,9.467808515426112,0.9081873692072954,-3.4253492914099875,1.640834620781333,-25.54035628334031,13.418395956452219,3.8335067327705477,-51.23323005392017,13.821516365907627,5.0161644160554335,48.478479011550405,-16.228486271076925,-2.7415964398037556,4.199807959337312,-0.5100364210830969,-1.0636957212475,2.749742053519467,-4.470009959567195,-1.338683935961936,2.0203528358907348,-1.6041702790016887,-1.068897060838491,2.7302960656925883,0.42385317910195414,-0.3570367666095268,0.2657726821323386,-0.11068082733843926,-0.1607948032892854,0.29699571728790997,-0.021866048154330513,-0.08750463052704209
7.075263354095768,-8.130609567378208,1.569963405196289,5.887950546268398,16.68840565071124,3.091766235687781,3.5312072898368414,-3.575144168821818,0.6283109826368276,-19.603882290470594,51.4801871465529,9.526661152770469,0.9363270343192011,-2.7195455228133376,1.445952506147703,-22.614703478508925,12.637910324763075,3.7275445156181246,-52.11397569207965,17.945080477894887,5.263185567020052,60.43221276738268,-14.392997881472045,-6.5175039047518375,3.261633911214001,0.030109394767193647,-0.3630972062648184,2.47486740039267,-4.606094389687904,-1.269464985888794,2.06293032751247,-1.844865527713389,-0.7817787122517237,2.9151297317050178,0.36249478163126336,-0.12545317941819162,0.20152854408376702,-0.09940059369804208,-0.050740846982173876,0.32072817125525177,-0.020057841021924813,-0.03707532078427179
4.960486907034793,-5.661890412848364,1.3250237479528486,8.406643321486754,17.478408298823414,2.8840277336503206,-1.499657003056321,-4.630228361608273,0.34283127159743926,-20.090690582273474,57.076456502029984,9.667366580373095,0.8804521443671741,-2.0499318597178444,1.2170206246914284,-20.62263601030651,11.894028219934889,3.5704661533006874,-60.653406011880286,18.222276095735825,5.159502091563881,55.9518196112481,-6.791804231374979,-5.849999544010213,3.04737965679607,-0.9346035560320693,-0.2212849847545092,2.809890063998367,-4.989873002929717,-1.117639785018306,1.7916124503158868,-2.146278601098046,-0.4525708086156877,3.2203546872082236,0.41550030889425715,0.013258557537007078,0.2689716524901408,-0.1971908213849578,-0.06800877558621422,0.38410666473724775,-0.028615432837415973,0.022555058860031035
3.870020289390171,-3.8855363344765426,1.0330937764084769,10.678508305334207,16.956764089460115,2.4321468897684255,-3.149215071161042,-5.462042453679434,0.16758454057375127,-20.314462530689994,58.75316591609323,8.807357911239388,0.8524093193485173,-1.6304074794075245,1.0266374747895348,-19.347819069250566,11.009081529752232,3.2337080767678543,-67.01364868535163,15.665298274625403,3.957908579479167,55.709333877554656,-10.753704063087364,-5.758603733926868,4.265152081731328,-2.2021159864760302,-0.5211056495339854,3.0388284879725216,-5.219276134589725,-1.2252110896924213,1.5492904564989285,-2.3710270945596372,-0.15758156456652708,3.4754428798701467,0.5147572201790908,-0.05694238278482688,0.348520842893027,-0.3089531041928331,-0.08490531861276265,0.3997727782456079,-0.05208415730754497,0.04707868216824863
4.426436765328523,-3.052626327592726,0.6790771934070845,13.297803965078398,15.17317314084875,1.8952914554266203,1.0240013586575216,-2.179074493513258,0.44202828951706014,-17.231541900484714,57.95891056745147,8.47490612993059,0.8531691052623825,-1.4872776611393366,0.8812896851132401,-18.0534079024712,10.053562634160135,2.8164787050313165,-61.603974842054576,17.753987131784072,2.993669912746966,57.33727938105592,-15.416928572639817,-7.5494855159751735,4.958240614196307,-2.528049268445598,-0.9898051100461205,3.4694533456798604,-4.755283805108815,-0.8579035162061782,1.772014379606039,-2.0597230818186714,-0.25716828772102546,3.14809085325175,0.45986280320586864,-0.20010569628790503,0.35156280959119185,-0.24942103171246055,-0.046079195926377575,0.3337046116841616,-0.04270083042044672,-0.009063611151586649
4.220954181217871,-2.7038785733606074,0.5915151181412608,16.032152896103902,12.22129659389933,1.2976136386607409,2.298574911052609,-1.0072219778488467,0.6720195667556773,-16.665290129175766,61.52786944894844,9.769945033145964,0.8388728104544103,-1.4158925456910665,0.8045549136475976,-16.397534608839727,9.096114920164888,2.3639001767447385,-61.80216931120079,22.879885471044112,6.317534238885805,56.59588188044725,-10.734015623239953,-9.20926066343073,4.771106875364516,-2.074938411925593,-1.3482299286390014,3.4595853102186855,-4.847514143593767,-0.9094170462323352,1.8615821107727024,-1.5598897042067212,-0.5922848819637613,3.167315132832907,0.49719494023865335,-0.3306289509497182,0.28016705053047114,-0.11202368785918529,-0.08871464321257329,0.4213919843735584,0.00172591438007075,-0.08109714226769511
3.864895413261337,-2.072300691507487,0.47166861986002606,18.355339390048982,8.28361224434405,0.7234586191335052,3.444702373926563,-1.9524004086657178,0.40061227170297925,-21.083300619441182,62.56096037623764,10.568246225474473,0.8584060104936881,-1.3691890347639377,0.7948399975951883,-14.53022964784301,8.228763623479319,1.88487203158404,-67.81619466404997,21.37413598443077,9.540270077792824,56.459139029775265,-3.8361856967023615,-7.238820071403941,2.7312736404149227,-0.8360195776023538,-0.835414426867015,2.6018845526670105,-5.179609597430917,-1.3252448875150704,1.8884223732570802,-1.3543434246198813,-0.7643850708802731,3.0735133205204472,0.662513731356203,-0.3436881497679403,0.23572426724703596,-0.05838334543982957,-0.10718249877456971,0.37957101784801667,0.03593148509023353,-0.05747638530045371
4.214674258678624,-1.0926408943694788,0.2236786393439468,21.189841233249027,5.152867018696023,0.23668068053838834,5.900925618058406,0.9920310282837739,0.6392047449916645,-21.051815755390816,55.265523983152214,8.640123297471874,0.8988225026231464,-1.46391323712237,0.7920294762278451,-12.38879996013278,7.276821168615078,1.5281955951869648,-65.52920488390555,15.072788475511906,6.920948895601462,54.478564208929086,-5.964956209804731,-2.0137740753955975,1.7548989725351978,0.06817982121356947,-0.15627197883403227,2.666231900197605,-4.469604984068376,-0.8778645479645799,2.1747051721920037,-1.6958031527947945,-0.6633222566555504,2.7810580318297276,0.6215301346362163,-0.10537753225546695,0.3142667684820261,-0.11609967039896882,-0.08196624690509947,0.2246661144029178,0.017967396485929012,0.028009419769762983
4.225815383754913,-2.1310070947203417,0.5167892600210788,23.407892743879593,3.899926729224591,-0.12553672597060456,4.154166778673722,-1.7170791894355166,1.4370880743580048,-20.222343664015444,50.5255030891925,6.269572995245389,0.8957866233053936,-1.626375445268711,0.8081466712485221,-10.198097448385525,6.192869497469427,1.3112462331994064,-66.6115711658339,6.3074770377590585,4.8904505287899855,57.74709262528564,-16.335743045021,1.2446585453526604,1.795551607734103,0.3565758717566,0.5552285755028582,3.677108407860221,-3.244405292259639,0.18100654830773977,2.940450451890838,-2.6555724798140554,-0.40360291849281354,2.8959290628697167,0.2889473931430386,0.2989448208746248,0.38983545319375057,-0.18640233958643887,0.023791110404563595,0.2769988142982486,-0.027762387837440606,0.07508363810918806
4.074142690720771,-4.181538379906983,0.8756297503478232,24.80826333792849,2.9882134859659235,-0.3553687427495112,1.6021203571598517,-8.120381254864016,0.615403871738964,-19.00278866603946,50.17707120541308,6.287908249352702,0.8996921469143142,-1.7219905036911451,0.8516025846511335,-8.457286932303706,5.294790663841784,1.0907443804030288,-67.79648268567996,-1.0511437814494418,4.502392336440898,61.15333353743449,-12.792913549097003,0.9283217325361816,2.2005139551413677,-0.19234484317911335,0.28130985867307456,4.064623455893534,-3.2726583417580626,0.17281174858338433,2.9798941963342735,-2.9106692639109517,-0.5042805287243207,3.1031434966814393,0.3555453364365063,0.1278204457264264,0.3843850825863702,-0.258379175552415,-0.010590056808515814,0.44674597778882796,0.01544137534996446,-0.0023274997869340962
4.474486324463609,-4.599878795255195,0.8429609205595641,25.91843188829119,2.157012307571535,-0.5848711439469427,2.775967218596756,-8.132372759189803,0.04449636347543607,-14.110540622812843,51.544415918302256,7.0532339151348085,0.9440574970597206,-1.834452266358326,0.8923480186173312,-7.159228324751828,4.80055998293326,0.9448942826023996,-60.2375152244824,2.5036670329347968,4.457643273152732,63.31098311707019,-1.8913749940010323,-2.825212842107583,2.147339847096558,-0.4103568513198149,-0.0426768733150642,3.154158415924989,-4.365357696110765,-1.0239466349787403,2.3091555033289533,-2.3757059322159173,-0.5379674702924216,3.2321870964486448,0.8269457071116281,-0.3304853175647918,0.3198035624131446,-0.22917846361327499,-0.12347855711404263,0.4375712729099787,0.09078206758061136,-0.0649663821116221
5.656976213934915,-4.062604265246971,0.5755515372277152,25.689198540378808,1.4502439085302619,-0.7109749727175173,7.577184416570174,-5.66888171647357,-0.02128335725802106,-11.769386564959024,51.02420727826766,7.569812322677299,1.0406681126896153,-2.0963831403887134,0.9936644585965141,-6.409048858646623,4.793900476328302,0.8474909392365785,-50.22872559209865,5.7101679374799135,5.149210181494082,58.25295972968035,-1.2097843839839915,-7.993534718667045,2.8813250879141856,-0.7993808109846051,-0.09633075717312428,2.201839674696582,-4.942126171121978,-1.7553055008196665,1.8284248113236985,-1.9834532146449313,-0.18104239972764324,3.301202747246138,0.8789363382773016,-0.4251786868987463,0.2587744761850042,-0.17502614795403218,-0.07519898370263088,0.3639298183246562,0.09156073322762985,-0.09606943126281904
6.277827079771056,-3.9211333341952974,0.8021230389190794,24.15584137090035,0.13967918904231116,-0.9330581780024626,6.814587426041239,-4.277246584230064,1.959659971597019,-15.34014877198734,47.68733092869261,6.059658393268055,1.2371715583950882,-2.4647518792945324,1.142744201217091,-6.62709281061156,5.091457969918674,0.7389941431762997,-55.135885316567126,3.0940146744612536,5.239144702962872,53.590930021837096,0.016034995199698705,-10.450694784202549,4.284666997527894,-2.286971132997904,-1.2092787295617071,2.2071267903198906,-4.232482276115565,-0.9629828112564097,1.8848410974141332,-1.4825340888803709,-0.5532807724642144,3.1913323206181636,0.4490142547395944,0.1285536301224396,0.2698162008591915,-0.18844356288412273,-0.05187621074400595,0.39001084811138315,0.039622096127702976,-0.0046361367471002045
6.566039864174135,-4.916217838447885,1.0887514857764982,23.068574407322433,-0.4667045746063011,-1.04540437658032,2.997813781719759,-3.8594935481077157,2.2738893678500016,-17.955760528554126,46.05115552243397,5.413159559938045,1.3992606681947426,-2.846869090942006,1.2673953858328777,-7.738449727843046,5.484754517759607,0.7198829804799505,-62.35052828710868,5.4693770082659965,4.451810735416114,58.82765701806859,-0.41895025320595475,-8.258706859891538,3.799867752536926,-2.729559708867638,-1.8528857296015355,2.7228005419749484,-3.2113055097294203,-0.15531735044927283,2.0980468282898563,-1.4406143994451792,-1.1881001231515094,2.8882453784529574,0.24313061257296198,0.34219287199234916,0.22951346325321464,-0.2624777571837294,-0.10032451327605028,0.4089964239342067,0.015347095328503462,0.040879437317088096
7.321868924492535,-6.533489174291264,1.110909102962406,21.13407936400041,0.8682253172415365,-0.8248916773529045,4.593481469136354,-4.699363555728147,0.3311142081526013,-19.88210085141327,44.40401283570341,6.282418231044024,1.4969661022698564,-3.2752364890463848,1.4322721100301734,-8.99251674689981,5.735376037652243,0.7161192018554265,-60.736408549982514,4.056798727409893,4.260039337866378,58.67511763840494,-1.122151052017263,-3.4827249524722825,2.959622534347984,-1.735856476115657,-1.6204805692509734,3.3231620416693124,-3.389511880070221,-0.3542863559638159,2.327313029814744,-1.5118020159698085,-1.3815076982119496,2.87781420104548,0.580306051327292,-0.09944588173040342,0.31167405741116605,-0.2701576094151642,-0.2750479256596814,0.4292639151797791,0.0727442040657948,-0.05470548858876844
7.38099051218921,-8.655853045701244,1.5198749477259392,19.141322740327546,1.4994515324232922,-0.704738807255779,4.310485004763149,-6.999526384713175,-0.11753987875195158,-18.45574240370912,39.912053047879816,6.425271635204334,1.6158533906452568,-3.800722623820538,1.614076647032176,-9.700631381683026,5.669381388164697,0.6390686173813718,-56.526420262077366,-3.600146926385699,2.651449648340008,47.332893512165256,0.326467970767527,0.5366234574224719,3.8678914141857175,-0.39666707346802726,-0.0733206005847839,3.66678124395827,-4.072607468193502,-0.5433910751077661,2.322471047756938,-2.1953787613893474,-0.09486989668764438,2.7551631900047373,0.8148501064942366,-0.3809335227144591,0.5532914112647401,-0.3479535851963707,-0.1706284030148541,0.3885040522025948,0.07365155348793723,-0.056927426821549755
8.418889274477609,-10.717995778318851,2.0963651463823894,17.623570028398362,1.1676778713761404,-0.9148420870820705,2.3994853213586302,-6.783791989006195,1.6121598234834509,-15.668583781921317,39.016582858237406,5.347815086238877,1.6813671895104116,-4.436504770196977,1.8743927978220487,-9.745105399282927,5.298643701306148,0.5746715732589825,-49.99605165760954,1.9026269265492652,0.552568948087759,42.193764082129576,-2.295143363792831,-0.1555397186194076,4.6061705874623895,-0.22029511344050764,1.1836440301504363,3.4548398838483063,-4.445469828463115,-0.40426996418351985,2.1324589034731565,-2.774655015808131,1.17642609031043,2.567459429579382,0.6917281014923167,-0.19282670187502002,0.575244085547997,-0.37117032279902035,0.21759037734554487,0.32364340184688234,0.03305586518488969,0.013937636317188192
10.88140491838294,-12.923973892069716,2.463559727431173,15.348147169043985,1.2055605601185404,-0.7776254679283899,3.555156126572424,-7.034267297736159,2.4971821124142366,-18.11296697217128,38.73200834779464,5.084721143926384,1.5945872529867562,-4.985445530059994,2.248884221802983,-9.407173512243444,4.975301582112836,0.693647620425712,-45.990828036652026,8.535288303931525,2.206567175331139,44.689872333559485,2.4298885639260948,-3.42625308392285,4.095216498113752,-1.5798279557992128,0.1016507704485887,3.380873749844428,-4.228627563762117,-0.06076599124569157,2.770880478326259,-2.6681682299743543,0.19609600450148904,2.564142176344204,0.5030428555835208,0.1329576506092922,0.49966313382224053,-0.3771921815048764,0.18642410977541385,0.32408487677368186,0.012218328429146346,0.0754905424174586
12.40634257252411,-14.53954581480006,2.755548613063449,12.502603197153563,0.8045570650047716,-0.34699886799158064,5.692400809093299,-8.267615651143437,2.086770182231451,-20.366321523001943,32.39165802386989,5.127564781725513,1.3817707243994528,-4.776691225854099,2.5778201024517062,-9.107765574587836,4.977656284393099,0.9048376220391052,-42.08647394897625,5.613905181437122,4.735117456653609,50.31095078448744,6.847160618545368,-2.2073158345169173,2.868839143507814,-1.2782161537597865,-0.6645177434655054,3.0949157023996254,-4.242756410222605,-0.5312007266277343,2.6252558956721095,-2.4852833934771863,-0.7981478168249535,2.559193888147871,0.7047215939557137,-0.1043407804455793,0.3872386276288566,-0.4483682910932524,-0.13869520871240767,0.2953198531626081,0.06675660275455557,-0.007184925767583095
11.430729137049868,-16.79001305495751,3.465969687321367,9.48678930746342,-0.6147414800560159,-0.09295403215111518,1.3702325497088623,-10.506964029396102,1.951052215050395,-18.54063106553988,24.621399681803126,4.437368483306371,0.7707115505956753,-3.3253886788021583,2.624158496971082,-9.449118771742482,5.174548270175822,1.1349010087152123,-38.28449742862376,1.1248534190995119,2.2213676053622122,43.34230555269483,4.254158364326268,-2.053672841743878,2.689595253373733,-0.46814806078784965,-0.20709704997556083,2.8544508097666905,-4.20810614581921,-1.2235551754591585,2.048874303377732,-2.1336829824015746,-0.36834962803012583,2.8200781720207178,0.9023919189896821,-0.42355645952748083,0.3741029965637392,-0.3750655713972416,-0.12157247528924775,0.3335746982387106,0.10670128551678444,-0.11324811060849059
9.420116743214786,-19.641363679070786,4.203433393202081,7.069339601717721,-0.7945305281945523,0.29392950886520625,-6.473774970155542,-12.02490509929947,2.8757253907078844,-15.973797047479335,25.309590713249264,5.873576442452985,-0.5685186507782981,-0.7367410444686346,2.200692696388065,-10.519973656627212,5.40880953381954,1.5216109628325187,-37.121625253668086,6.84285374671082,1.8610856537338354,31.46976318435739,-7.664056994409956,0.6832284447283387,3.8389355415607045,-0.19281950175912174,0.6918387524010274,3.4410364575615136,-3.5787181239377697,-0.3735137237850916,2.433082395082549,-2.353117184362466,0.5480049200936921,2.616029585615321,0.6639383684966916,-0.14512012417542805,0.47128436963673653,-0.18499981331297538,0.09137732103688341,0.31236375818001066,0.08183418501012521,-0.07431203248656691
8.765095974503298,-22.374298319007007,4.64013792952379,4.053814051073074,-0.2684485590652412,0.5661663899456065,-9.536588432157197,-13.531013844100565,4.583513214258005,-17.662023069807553,26.34646364667015,5.525842444016077,-1.8931927968157745,1.8052325934230258,1.673780854558959,-11.875564999846972,5.484314142710559,1.8379123331876375,-37.476920948578574,11.951446727917666,2.8187993909642874,36.55317584764037,-8.647857984068896,1.906270063506093,2.855530599500963,-0.14461909967763728,0.37507826764402086,3.6383316376260435,-3.162251436786968,0.2819663770107054,2.666659633347577,-2.449280005728609,-0.05730983474472304,2.134241642105978,0.607178574017736,0.05648810757297453,0.3309775435817743,-0.1435125516502915,-0.03893876934749689,0.23344708308839268,0.0846253129217302,-0.004801325637679447
7.888505599556395,-24.01679356207007,4.800734129218773,0.2746726109866741,-0.690755704209304,0.9279888748358476,-11.629782461765473,-16.95446448300978,4.398546470990889,-18.548441671667362,20.13604986434851,4.28944584650483,-2.5986983652307285,3.2153550864331963,1.4504095117415343,-13.495523262688446,5.63464822844058,2.1586590498151335,-35.763063942540235,7.3228589199260545,1.2445310145079873,43.34600583890131,-5.0051056108446375,-2.8761142674157063,2.432169570181642,-0.575730904903782,-0.4174458796191492,3.6460874367360616,-3.365739125522014,0.04632778891910895,2.210195211079091,-2.001599359472856,-0.6216944612536126,2.1984757678548763,0.6450093579574405,-0.05797273098536739,0.22731264431458553,-0.23877809065649516,-0.1088184381497387,0.24831841171500788,0.06296942028217475,-0.008703021334471667
6.644076781377271,-25.61405864279549,4.998073265405072,-2.713636774673491,-0.47415668660966664,1.7431431905538308,-13.768142346701504,-23.424989075359235,3.661044013796751,-17.26345997885941,14.583399134270751,5.606191282059409,-2.864179995948637,3.515545594789004,1.4565227178270377,-15.600560704861351,6.351450133539746,2.76476112429534,-31.850511090142966,-1.555423151913341,2.9651646451219142,40.537837873096414,-7.83034260721073,-5.078815814558344,4.381816649298887,-0.43202330654321797,-0.003860995136345635,3.3633376423664156,-4.154696016589617,-0.531409773781236,1.8850282890613805,-1.7926687946563844,0.2841909278804235,2.8260559911042353,0.4305995074708708,0.020181530316191652,0.3259645005094951,-0.24215903179486514,0.1608485680494283,0.33916168634123606,-0.032247339231177834,0.0029654370870512295
6.480809899810133,-27.072435659783725,5.131164286904829,-5.998684234743205,0.3445565099877766,2.466986899346534,-13.990495917872058,-24.218577871743225,3.9779678788570663,-21.085410176064336,11.038418424539296,5.264813167050223,-2.99924686205866,3.074949192070015,1.5492219233812408,-18.556523488368107,7.599008132924485,3.497679726552701,-34.8986708053952,-4.373771810595622,2.2100849248267225,36.93840944991895,-0.6081549160934395,-4.491981562283167,5.6881977692743515,-0.26998289372346257,0.27519381527407016,3.5207372893606266,-4.2394775938366935,-0.7640679802343594,1.6780020857156575,-1.9963534093796333,0.71356617581381,3.2905663055633423,0.6741810365463632,0.04025189714506788,0.3370646868791518,-0.25494692367011235,0.20739869279393017,0.41018311062008006,0.04054388394288194,-0.021350476781584516
6.909389147013973,-27.888730827763375,5.055341897398119,-9.374854490927024,2.172837751979567,2.9383046529554178,-13.681109958797318,-21.21527183342333,4.076985149640405,-25.676643013303483,13.158229108958398,4.342446580046595,-3.1264535152791546,2.452790211100115,1.6515557210364662,-22.26131885725941,9.021409660851607,4.188399997414331,-38.86316222684273,3.9890397333566554,0.25406319059947213,35.54129494059157,5.673335894869889,-3.0534449074007197,4.971801709813677,-0.776206383587506,-0.6291121188190257,4.04441440274478,-3.399611716185122,0.10189357797095037,1.4221481446520272,-1.659920752306732,-0.14966415410718634,2.7942396724386525,0.7489226985009535,0.20109736422608665,0.23417274979595937,-0.25011111829159344,-0.07884695385544889,0.37569581763722687,0.08090229931147638,0.05696917480666981
6.440176230029755,-29.019635418489067,5.174517858078081,-11.164253698441632,4.50914580450129,3.39465897814083,-16.940087714932826,-24.89949513333862,4.076538840663156,-25.318226978592293,18.71935455662494,5.4052871124093675,-3.1957477319544862,2.0620661720267743,1.722638677679015,-26.094317400264764,10.568386542957917,4.862103483423104,-39.85867111065776,9.230125527815334,2.0709944821225195,33.73796202838234,-2.291557227498133,-2.2964291232602516,3.033997932293042,-1.6668593253318644,-1.2758734122571822,4.860029653151687,-2.7424578308812104,1.2296754682891484,1.3629234883736088,-1.0062602005455334,-0.8213549744601804,2.1155879730889797,0.5286261564096235,0.3204371494916026,0.2194290200833814,-0.19604217633092982,-0.2268832897583299,0.27810155744071025,0.03970430426477945,0.10745483699497048
5.555377221083354,-30.577066914657173,5.496697333081103,-11.445631210373666,5.913983068065672,3.903390736662305,-21.313714931154255,-31.071685308342904,4.596561269509467,-18.06797545164893,17.510711523436875,6.921167104350674,-3.2327199074683173,1.7960168808218357,1.8077191039328477,-29.33512855837894,11.972007730426165,5.46928987364061,-32.78092251266334,4.402401128384137,2.893965803928101,31.957045188351326,-6.057201832065638,-2.707832099003796,3.2512224913229235,-1.9077256418808646,-0.6302855797141996,4.747981165640705,-3.744938148923983,0.7069749608676785,1.607736734279614,-1.4187164511058468,-0.24076636735747442,2.1562071097109285,0.5227433088088884,0.10200829426648006,0.3546635880831854,-0.2502392973172009,-0.05771425400584331,0.22513494119314076,0.011643895850136754,0.042651728516802094
5.715405732104491,-31.684445543787884,5.664605406203761,-12.198711794718067,6.319443663326232,4.108658010814407,-21.813956659396585,-33.00818600841439,5.432993307976669,-16.46835916418495,15.088793523089786,7.533112060318525,-3.407523759852026,1.881841324306974,1.9343707068775324,-31.436977346886998,12.818571279813137,5.704784842956721,-28.931490769447617,3.0638208510597575,3.4292122596150683,37.87520508491969,-1.7355923047097412,-0.42675265414916447,2.810948603212628,-0.9935898718003177,-0.4041892999237296,4.2156142317584715,-4.699143762781118,-0.2683547111685149,2.626088717023745,-1.9434735353521866,-0.5953685989295691,2.344649795649843,0.7303789579991196,-0.17313505798121978,0.41204653773339983,-0.21818540626260327,-0.09830024458013718,0.22062411474032567,0.05927786534760886,-0.05377855187489771
4.643843241146733,-32.64561475149957,5.734626442815804,-13.710182862106182,5.958013437510994,3.7921018514754548,-24.467299424526914,-32.8301170608354,5.55973965431113,-19.86791837554789,14.645507537673465,6.735465909842238,-3.9283090558820613,2.7143595221454904,1.859814150402657,-32.013801984978706,12.98517745208068,5.461986834170398,-34.277765409387264,4.773025829481184,3.6430462785919016,43.40726261916559,0.36338739632205885,-0.6357346773271477,1.3990980857717281,-0.21059331592147862,-0.9244284739731843,4.155263019972282,-4.038325047918339,-0.36283948762033624,3.1391237651353068,-1.638972700930935,-1.4789507140588698,2.5075224451723006,0.8344533356552458,-0.1649288969722236,0.4047830088550703,-0.15076097582600684,-0.26638463330406104,0.27507122741256074,0.09700222886661954,-0.06718786977208305
3.1728013336009244,-34.34453163544862,5.788307677315539,-13.925875080966021,4.761130527571438,3.1037060764334456,-26.875658072039933,-32.78678784628693,6.1854485258342375,-15.266336940223017,10.649151979548835,4.242197755733328,-4.655593480351889,3.947488212260442,1.5599060054731988,-30.823164632559354,12.327538827585183,4.929684216086442,-27.7958974870056,4.285711847646053,0.05137919446241834,33.03401836185807,1.1584961008510555,-7.9721081926780375,4.420896690624987,-1.430929627842922,-1.106814338662392,3.8175861298638623,-3.4804601319156023,-0.5123383665347553,1.5223345156911696,-0.7928559909019742,-0.36138271240172,2.8535410194197355,0.7188479690364733,0.014761725203288178,0.31297283752862337,-0.1406063128081115,-0.0021359088550865456,0.37618212531476325,0.0515204836721671,-0.01831076937914284
1.5464896124606173,-36.532743774058765,5.611529582850104,-13.549055130201832,3.7298639758485517,2.527478738147139,-29.76143479655677,-35.0465593168898,4.509382903655694,-11.602874116650613,7.006822032178532,3.7351465590769357,-5.430489585932582,5.252355869125459,1.2748229790188892,-28.20126167387574,11.129190156447585,4.142337235021377,-22.346831193216655,5.3491394316914445,-2.538167843758607,31.115035859749867,-12.209315403515873,-1.387376424662928,4.860501460518173,0.6480517935385299,0.6171776486831058,3.8730880219126096,-2.8663353632197777,0.27876464679964497,1.205762438756027,-1.4754852680428525,0.6712622112191576,2.771553786239096,0.25257785252391773,0.4948700324612831,0.07862392547714511,0.03127682439758601,0.13498163382580783,0.3704454059733459,-0.03460896209730196,0.07692146789007946
-0.20506369164525087,-38.83512075538495,5.523950759426689,-13.901146405028179,3.3820527893628793,2.019097934882973,-32.34452289076834,-40.74676712606389,3.534285493743699,-14.785829507456471,8.242056428087668,4.939947703461175,-6.09763196503895,6.742385996280909,0.9468624027542528,-24.53530371974491,9.49346471611225,3.1191514765253,-24.64748096161867,7.053257755786229,1.6592202333027608,33.92062512739326,-27.833057599729575,7.864958281578561,2.775572544542717,2.690009353633854,1.6134265722175714,3.978490205635793,-2.2341770586612117,0.8062405403385188,1.9916941831920671,-2.60068525106124,0.29168907420432566,2.527459436908667,0.19054978992672808,0.6692193763706941,0.10562387640996133,-0.017345313817088263,-0.027622913011333232,0.317284111339256,-0.008602564589451944,0.09808506576747278
-2.0721470040959593,-39.86951955039198,5.721619826538244,-12.012573958791466,2.540565220988804,1.4196627323617528,-37.130797557712725,-44.27622966562667,5.980344670458509,-11.348228853735401,6.282341398016936,3.700739536059105,-6.7110292898447765,8.429806183321853,0.5770512333072488,-20.236000180103847,7.614958981401611,2.337647188680143,-21.18953898376552,6.65107992433419,3.6144732698865845,18.80297851789531,-7.905643789432146,-0.041964387707505046,3.9934751654977942,-0.605288761735187,-0.31934143825914424,5.060577833106144,-3.9681105071074247,0.01631666723249659,0.7430982429136548,-1.4397694549248727,-0.02561791279473094,2.2616993141267057,0.9617206612564323,-0.15428550633079585,0.13102024549722935,-0.19518817486173756,-0.0728738078745855,0.31578940230370656,0.11320915600045325,-0.01615035185862097
-4.356204330370263,-39.78474747777091,5.637724682090762,-9.135727757462126,0.17550463890796733,0.7277755252872447,-41.859784066622396,-43.89513350566914,6.29435193460519,-4.579872350314875,-1.2600939498035304,0.6236892947012339,-7.443044018827744,10.128373214807745,0.25380193974450793,-15.85662642797343,5.806535323207183,1.6598384269630395,-13.990098000414728,3.2869567356354317,0.2106108931668857,8.900820902817914,19.996057230663876,-3.3990390180319223,5.3185141380100704,-1.375846287332456,0.33571672409462944,5.701524013460032,-5.291823897246714,-0.8384472293624436,0.180709203494561,-1.5985652706684446,1.0396560043866008,1.6702001672211304,1.5600645971302551,-1.0605369687538317,0.11610452088954706,-0.2133484922654334,0.16754915278345964,0.21862927421103742,0.18708662065176646,-0.16016773407855936
-6.590924799695641,-40.783394200717936,5.4946978556469865,-8.224440352161974,-0.9470045273829627,0.11795816245153809,-46.12419002054368,-42.40335977160085,6.009330133912026,-3.4188320919561277,-2.091317577857818,-1.2585798327777051,-8.129861771951777,11.647238877520367,-0.1914367152816444,-11.576916612646462,3.9594781588268924,0.9039438163566526,-13.775562298988824,8.803906027212722,-1.1017245589464255,15.279459606082687,3.312517242485425,0.6752663639387297,4.194444038798317,0.3744457125641083,0.8979614854972694,4.6820967076265925,-3.863110512217478,-0.5798042182749212,1.657822878521207,-2.051366350734764,0.5634847760660723,1.8364761405572985,1.0571236387611938,-0.5766063935336052,0.29164404290883844,-0.11876913190199362,0.1117859370973766,0.17119835844063036,0.08711027760954762,-0.10045375614429378
-6.971505089418972,-42.98178155830416,5.180170063971564,-7.6374451948510025,-0.07484180972423189,0.13291985985671453,-48.9764085208305,-45.4589682645752,5.0522748136284275,-3.971783465718262,0.7209001432694335,0.24927717998951454,-8.929589454274918,13.552571220136432,-0.6801323594742343,-7.682731457123804,2.350577620748002,0.3804278413975806,-15.974129296638663,11.511321072097266,1.4927726398251973,27.320529658037973,-12.202026779189024,-4.336478244588379,3.9085967348957578,-2.1706013399786124,-2.2338339349827208,3.6494260401182705,-3.2290719260022107,-0.7656707007535345,1.9460762460487193,-0.6893963724722182,-1.2950388603669738,2.6929618896286276,0.8024476781220906,0.062262177857012865,0.3414910830572072,-0.19463955855215456,-0.18285261545212408,0.29478058225434783,0.07731356963630681,-0.03232573798084556
-7.207547051396309,-44.052330587711886,4.813411751136892,-4.959828066774492,-0.617272114211984,0.17638590683007094,-51.01115718400483,-47.889030334969384,4.538405427198891,-0.24309158766367642,-0.9148490739068673,1.317702161187085,-9.770863424643958,15.617925035903452,-1.186099052715214,-4.044473652656283,0.8889307284708796,0.10836798531230726,-14.4207821745735,9.625295649534232,3.3673001398467552,30.465089517923833,-11.281380664570571,0.37140935320801255,3.3220459047783915,-1.5057145837044768,-0.91992978484082,4.124848863594132,-3.506794911577765,-0.3319529785126344,1.4211926467173979,-1.3186142369624572,-0.5024384765614248,2.2443548432076783,0.6943556680660624,0.02997177356294691,0.24120978848297692,-0.22014625754672343,-0.0656823302468599,0.27695646270682384,0.05127100649858971,-0.008813609672050717
-7.549679341466867,-43.4569058500474,4.367886270949693,-1.341929014363926,-1.5791503810133807,-0.07533646740652897,-51.4720070565313,-46.876381808586636,4.457019876899017,7.835108567014048,-2.8741674983345176,0.5745649977320059,-10.591758859219986,17.451304857430326,-1.6595203018763443,-1.028877264219958,-0.2559934011297692,-0.04640336731928602,-4.895991630020745,12.162769902222113,1.907049643537314,21.09843088011798,-18.79061325395548,5.645454770362676,4.175571093409867,0.5979633676781408,1.271967908760962,4.706498567771034,-3.240715594169421,0.11773653966498276,0.9448914394811155,-2.1643276023431834,0.836449273213809,1.84944794865267,0.6433822368215506,-0.11537158690905876,0.22508265818878043,-0.17665153878591355,0.10701399759534468,0.2588709109814467,0.01599656190531668,-0.00491813594691495
-7.282628896912089,-42.78140773359031,3.785465548204731,1.2000451194968025,-1.3478849963342776,-0.1444449337690342,-52.08268382378923,-45.65252572465759,2.9258486337998377,15.19288875602038,-3.1348009957021925,0.7617484132237493,-11.42283653894307,19.544615365521267,-2.044339273290836,0.48651779260531025,-0.6384873022028332,-0.05558092887097351,5.937656626831598,16.024094581813774,-0.688395800503856,9.7584177515391,-27.176215539898052,2.389891223657319,5.477302680181666,0.7272816885203761,1.0234995006481955,4.994561346831625,-2.837528072115357,0.4924881312552638,0.6549741763746381,-1.9731419636601717,0.8580772074092826,1.9756730861374419,0.6308786513656945,0.08872209125497786,0.17605103552914197,-0.145176141791106,0.0822255336659415,0.2464631508055059,0.009178985374352222,0.04237651105153177
-7.866584611957864,-43.38816324489037,3.7684888278206996,1.3627465269941041,-1.0749292616235517,0.12216664142363201,-56.34688274148859,-48.68507558668876,3.0761690150288192,13.26547917015612,-3.581620849168036,0.5301567970088834,-11.802573242145359,21.38063716782199,-2.3745173625963147,0.7910043410092144,-0.5818846992644519,0.1743288080722006,-0.8919623559350627,10.70371263595495,-0.9999273172202982,3.256400937591637,-16.71170794850196,0.3487639382961951,4.4898855229630446,0.7820485894388118,0.9810136794173703,5.305516885653177,-2.7238348340290974,1.1727837622891928,0.5820008434747584,-1.7531853454146622,0.7233805523299554,1.838523921875329,0.4149287832027773,0.3836790529521566,0.0853327426729504,-0.10736959251348281,0.09312366486317049,0.19096160029335654,-0.030815712263802513,0.11222925068268051
-8.179263138147547,-43.36710684403968,3.790071185049089,0.38892577539767687,-0.12402214985640234,0.5281214590554993,-56.45487634156416,-51.2439126643435,3.4306709805090403,10.747249424851795,-4.642077373841411,-0.3818138200867445,-11.738016756889888,22.46964059538372,-2.5113484476733943,0.4691292488326307,-0.30519642817169057,0.48505271547357287,-4.7582836232071,3.7536658980273945,-1.401363771517374,1.5344082929219756,2.2280770788914555,-0.6743891088059893,2.3002803954020865,0.8755072024528233,1.0629681096970516,4.418783424832439,-3.46208339873865,-0.31021479691046283,1.0948389669864111,-1.78261624208219,0.33803820972758436,1.79222339732462,0.8575934386660182,-0.24731679027806464,0.10050691337176607,-0.09119057853520716,0.07830668196542129,0.18241851286864744,0.04729559120304191,-0.029754936648745848
-7.293722565739166,-42.5049506672371,3.6523695904871865,0.04098838125568084,0.24696869585354128,0.4622672555086601,-52.67630465051661,-48.40346060331729,3.8495881955313616,12.114532041046754,-5.469623003680624,-2.289847878166648,-11.4116270365762,22.408586672195824,-2.427697381989401,0.37614965416779805,-0.2260016665903399,0.5404825773866894,0.37662159825339814,5.669551866471703,-4.063872502432571,8.291553264496718,-4.116701190825567,-0.9882514372140504,3.5415364838139927,-0.11168798962812235,0.3157825468258747,4.703407272582989,-3.999871621312855,-1.1677301006411118,1.123581699406524,-1.3212780986170805,0.25016275696692136,2.136755768956552,1.2273364951261916,-0.738059490048631,0.14080740231150757,0.004191143393228484,0.04431302586227691,0.24327748814612515,0.10816695924676857,-0.15554553890325903
-6.073855286961034,-42.38256135211995,3.8147703708359,-0.48971399353044753,-0.1955735365939224,0.28552509427920925,-50.48845042959249,-47.46182700146921,4.169972574194579,9.77428171518884,-4.605696065591389,-2.439786128641195,-10.93969986816043,21.400485635053503,-2.0334711581004083,0.5277675470640295,-0.3512998752909792,0.38630459023366875,-0.8306756269803577,8.94150713499587,-2.507543659961298,16.14670036167287,-12.29052244303394,0.617561511917923,5.674645737549869,-0.9574939940335113,-0.12766180610138564,5.1623734439637055,-3.701830704866637,-0.049650793141510115,0.531107966426527,-1.3847989939172047,0.48119846847135167,2.1716803927987867,0.779980868351064,-0.11351639204599324,0.12491953023770493,-0.08322167463668712,0.01682482987794121,0.22783265812288603,0.02240188340182664,-0.010853007589067055
-4.298529591148275,-42.54592924101249,4.147200581549031,-1.6822681395588264,0.40332719578905923,0.47374391499991453,-46.74066906262857,-48.189277201628286,3.5855927794199336,6.572515102353703,-0.8854977236049398,0.7859146592791011,-10.320238986915832,19.67841761730676,-1.3034839545396224,-0.2718456616982982,-0.11625704217852316,0.3004998568868237,0.2508122538826022,13.864803067802237,3.1232871299297376,19.515917647009534,-12.849939877995814,1.8703565591494837,5.29072966626655,-0.03319895066992095,0.2022973380601457,5.070048451050992,-3.2035639207755566,0.8829894084604714,0.8934422753026353,-2.2215340051779977,0.18906283129630921,1.8788197408888505,0.36375130989341486,0.35662050221061464,0.18445320940671586,-0.2860304126796403,-0.03962260984414732,0.18009607686032733,-0.03363068924657234,0.09282166413007878
-2.4168527143550094,-42.68927209064873,4.680590109909136,-4.925755996046717,0.9584718129099172,0.6167328370295417,-42.81690511068638,-47.8975696120432,4.084816195488535,3.6075597114622955,0.07536024997647625,2.010086109000278,-9.39600781207002,16.90579321497294,-0.5105925260138943,-3.2882570389437213,0.913356879127044,0.350540465680869,1.7785068699392461,12.195237274200261,4.751540757505344,15.808864872950627,-14.845398137393445,-2.5836536798471075,5.494788511741776,-0.815914212667419,-0.3121782178232808,5.533901170659681,-3.124309344480385,1.1233426449850565,1.271269755443154,-1.8564755039826675,0.01972719489973567,1.6678420053057492,0.3222751590362651,0.17802077645532438,0.22122623115761375,-0.15464250014560765,-0.0457449392637838,0.1265333174446652,-0.05132819707024071,0.052905604190419286
-0.46590621891005735,-42.7029871662288,5.22933077772535,-9.30128285187265,1.364963015665393,0.9296637000891738,-40.58021370894329,-45.1573888358433,4.802080710003787,-1.8724844072101567,-2.229830547400557,0.6041643432144052,-8.12548293667519,13.117687103040845,0.26037689225802507,-8.115937594347239,2.8113193737162847,0.9082982359762708,-4.632252589093011,5.20738655806599,1.571786092361817,9.129452334589045,-9.627192400389339,-7.696300435394383,7.315991986074964,-2.8351351731996326,-1.898667372455704,6.074384071916508,-3.9542439343652105,0.46862318053920615,1.5534147351791834,-0.8704530300621562,-0.34187351178984304,2.135542158356366,0.6128602874877459,-0.15502518144288838,0.34787745088603744,0.04387342658354737,-0.13813598323840137,0.27590884450355624,-0.015108888483809623,-0.018270825601772324
2.0375912051040546,-42.841065564627876,5.778557663547054,-12.422719035248285,3.7018377886084712,1.5754444344516685,-40.64165130707512,-40.306270792279065,5.826422691241512,-7.052583553786137,2.2853552402275352,1.2731473701179545,-6.657438815743015,8.957750909027066,1.0603934848448415,-14.565693542745166,5.530164264714839,1.973617393307615,-17.40277244504248,6.493728493761347,0.06809637233913415,19.1321379385458,-6.715810734819106,-4.195551969034098,6.2232909192381305,-2.1318383274500294,-1.513544893579591,6.248829922185847,-5.1753382818649465,-0.3351915915531233,1.5951060960092955,-1.0920073389231855,-0.4073654177388845,2.5935047522519,0.9037261085001003,-0.3496905871300818,0.28535072545868045,-0.039599523180824665,-0.08961419687446556,0.39320595012611576,0.07227347761315085,-0.0902433434373164
4.012245652844452,-43.13754161394981,6.235181790061609,-14.492282773307535,6.655238045072364,2.1079114797573517,-40.29757764043027,-36.14346656879037,6.207366671472862,-7.961777057427527,11.522307118891057,3.936852562822355,-5.235090880779855,5.3048685772335045,1.7001979241629377,-23.11702009557536,9.276527176298693,3.177875517787156,-26.207916972476465,12.320959292452763,1.1831731724557777,37.73975047501848,-8.703953737897542,-0.6833968001819342,5.60919235988998,-1.2063828627100799,-0.1593172961534643,5.854601236344003,-5.7622665953434495,-0.6229650602760884,1.7155497888059246,-2.4277204667395065,0.028475612971981663,2.7927383772828773,0.8663679532754422,-0.10263279980037594,0.27647253070847383,-0.3116361098270667,0.042498670561506274,0.38565980627520885,0.05941548716553218,-0.026079134732273915
5.045862793445664,-42.99705615040914,6.294297482954136,-20.698559473028148,9.651867904442694,2.7234526482522483,-36.8887054496322,-33.148908128744125,5.015222300557372,-11.181158587592286,17.667734797199024,6.176227902053815,-4.281660069678732,2.6870362362501097,1.9886507372626634,-34.029582944843746,14.409876553698986,4.412416000617525,-32.02446027361421,13.33285777601175,-0.3955931238341762,49.63275272151609,-6.384931391431201,-2.0707376504770187,7.505082978965895,-2.157578801167178,-0.7545699214026778,6.145664733888757,-5.998196056425221,0.2584816800418187,2.671421502939183,-3.2213777458042294,-0.43748553000151785,2.648996363336134,0.47100342628670955,0.4899258805821833,0.5143429037670658,-0.45295275523544093,-0.08234747590106324,0.3021894831061258,-0.06426917679755709,0.1541217143699363
5.0976,-44.14788,6.754,-28.26651,12.7972,3.28588,-36.29869,-34.20362,5.80062,-14.1252,22.02416,7.73498,-3.9646,1.48571,1.99441,-45.92708,20.83472,5.75497,-38.0202,8.02156,-1.36603,50.45113,-3.80128,-3.82845,8.90131,-4.2889,-2.43573,7.74356,-6.13569,1.62634,3.28054,-3.07569,-1.19844,2.65771,0.27116,0.84084,0.63589,-0.43604,-0.24369,0.27003,-0.09047,0.21605
,,,,,,,,,,,,,,,,,,,,,,,,,,,,,,,,,,,,,,,,,
,,,,,,,,,,,,,,,,,,,,,,,,,,,,,,,,,,,,,,,,,
,,,,,,,,,,,,,,,,,,,,,,,,,,,,,,,,,,,,,,,,,
,,,,,,,,,,,,,,,,,,,,,,,,,,,,,,,,,,,,,,,,,
,,,,,,,,,,,,,,,,,,,,,,,,,,,,,,,,,,,,,,,,,
,,,,,,,,,,,,,,,,,,,,,,,,,,,,,,,,,,,,,,,,,
,,,,,,,,,,,,,,,,,,,,,,,,,,,,,,,,,,,,,,,,,
,,,,,,,,,,,,,,,,,,,,,,,,,,,,,,,,,,,,,,,,,
,,,,,,,,,,,,,,,,,,,,,,,,,,,,,,,,,,,,,,,,,
,,,,,,,,,,,,,,,,,,,,,,,,,,,,,,,,,,,,,,,,,
,,,,,,,,,,,,,,,,,,,,,,,,,,,,,,,,,,,,,,,,,
,,,,,,,,,,,,,,,,,,,,,,,,,,,,,,,,,,,,,,,,,
,,,,,,,,,,,,,,,,,,,,,,,,,,,,,,,,,,,,,,,,,
,,,,,,,,,,,,,,,,,,,,,,,,,,,,,,,,,,,,,,,,,
,,,,,,,,,,,,,,,,,,,,,,,,,,,,,,,,,,,,,,,,,
,,,,,,,,,,,,,,,,,,,,,,,,,,,,,,,,,,,,,,,,,
,,,,,,,,,,,,,,,,,,,,,,,,,,,,,,,,,,,,,,,,,
,,,,,,,,,,,,,,,,,,,,,,,,,,,,,,,,,,,,,,,,,
,,,,,,,,,,,,,,,,,,,,,,,,,,,,,,,,,,,,,,,,,
,,,,,,,,,,,,,,,,,,,,,,,,,,,,,,,,,,,,,,,,,
,,,,,,,,,,,,,,,,,,,,,,,,,,,,,,,,,,,,,,,,,
,,,,,,,,,,,,,,,,,,,,,,,,,,,,,,,,,,,,,,,,,
,,,,,,,,,,,,,,,,,,,,,,,,,,,,,,,,,,,,,,,,,
,,,,,,,,,,,,,,,,,,,,,,,,,,,,,,,,,,,,,,,,,
,,,,,,,,,,,,,,,,,,,,,,,,,,,,,,,,,,,,,,,,,
,,,,,,,,,,,,,,,,,,,,,,,,,,,,,,,,,,,,,,,,,
,,,,,,,,,,,,,,,,,,,,,,,,,,,,,,,,,,,,,,,,,
,,,,,,,,,,,,,,,,,,,,,,,,,,,,,,,,,,,,,,,,,
,,,,,,,,,,,,,,,,,,,,,,,,,,,,,,,,,,,,,,,,,
,,,,,,,,,,,,,,,,,,,,,,,,,,,,,,,,,,,,,,,,,
,,,,,,,,,,,,,,,,,,,,,,,,,,,,,,,,,,,,,,,,,
,,,,,,,,,,,,,,,,,,,,,,,,,,,,,,,,,,,,,,,,,
,,,,,,,,,,,,,,,,,,,,,,,,,,,,,,,,,,,,,,,,,
,,,,,,,,,,,,,,,,,,,,,,,,,,,,,,,,,,,,,,,,,
,,,,,,,,,,,,,,,,,,,,,,,,,,,,,,,,,,,,,,,,,
,,,,,,,,,,,,,,,,,,,,,,,,,,,,,,,,,,,,,,,,,
,,,,,,,,,,,,,,,,,,,,,,,,,,,,,,,,,,,,,,,,,
,,,,,,,,,,,,,,,,,,,,,,,,,,,,,,,,,,,,,,,,,
,,,,,,,,,,,,,,,,,,,,,,,,,,,,,,,,,,,,,,,,,
,,,,,,,,,,,,,,,,,,,,,,,,,,,,,,,,,,,,,,,,,
,,,,,,,,,,,,,,,,,,,,,,,,,,,,,,,,,,,,,,,,,
,,,,,,,,,,,,,,,,,,,,,,,,,,,,,,,,,,,,,,,,,
,,,,,,,,,,,,,,,,,,,,,,,,,,,,,,,,,,,,,,,,,
,,,,,,,,,,,,,,,,,,,,,,,,,,,,,,,,,,,,,,,,,
,,,,,,,,,,,,,,,,,,,,,,,,,,,,,,,,,,,,,,,,,
,,,,,,,,,,,,,,,,,,,,,,,,,,,,,,,,,,,,,,,,,
,,,,,,,,,,,,,,,,,,,,,,,,,,,,,,,,,,,,,,,,,
,,,,,,,,,,,,,,,,,,,,,,,,,,,,,,,,,,,,,,,,,
,,,,,,,,,,,,,,,,,,,,,,,,,,,,,,,,,,,,,,,,,
,,,,,,,,,,,,,,,,,,,,,,,,,,,,,,,,,,,,,,,,,
,,,,,,,,,,,,,,,,,,,,,,,,,,,,,,,,,,,,,,,,,
,,,,,,,,,,,,,,,,,,,,,,,,,,,,,,,,,,,,,,,,,
,,,,,,,,,,,,,,,,,,,,,,,,,,,,,,,,,,,,,,,,,
,,,,,,,,,,,,,,,,,,,,,,,,,,,,,,,,,,,,,,,,,
,,,,,,,,,,,,,,,,,,,,,,,,,,,,,,,,,,,,,,,,,
,,,,,,,,,,,,,,,,,,,,,,,,,,,,,,,,,,,,,,,,,
,,,,,,,,,,,,,,,,,,,,,,,,,,,,,,,,,,,,,,,,,
,,,,,,,,,,,,,,,,,,,,,,,,,,,,,,,,,,,,,,,,,
,,,,,,,,,,,,,,,,,,,,,,,,,,,,,,,,,,,,,,,,,
,,,,,,,,,,,,,,,,,,,,,,,,,,,,,,,,,,,,,,,,,
,,,,,,,,,,,,,,,,,,,,,,,,,,,,,,,,,,,,,,,,,
,,,,,,,,,,,,,,,,,,,,,,,,,,,,,,,,,,,,,,,,,
,,,,,,,,,,,,,,,,,,,,,,,,,,,,,,,,,,,,,,,,,
,,,,,,,,,,,,,,,,,,,,,,,,,,,,,,,,,,,,,,,,,
,,,,,,,,,,,,,,,,,,,,,,,,,,,,,,,,,,,,,,,,,
,,,,,,,,,,,,,,,,,,,,,,,,,,,,,,,,,,,,,,,,,
,,,,,,,,,,,,,,,,,,,,,,,,,,,,,,,,,,,,,,,,,
,,,,,,,,,,,,,,,,,,,,,,,,,,,,,,,,,,,,,,,,,
,,,,,,,,,,,,,,,,,,,,,,,,,,,,,,,,,,,,,,,,,
,,,,,,,,,,,,,,,,,,,,,,,,,,,,,,,,,,,,,,,,,
,,,,,,,,,,,,,,,,,,,,,,,,,,,,,,,,,,,,,,,,,
