PaulMeinheit/Bachelor_Muay_Thai/Sub01_Teep/scaled/JointMoments.txt/scaled6.csv
R_KNEE_MOMENT,R_KNEE_MOMENT,R_KNEE_MOMENT,L_KNEE_MOMENT,L_KNEE_MOMENT,L_KNEE_MOMENT,R_HIP_MOMENT,R_HIP_MOMENT,R_HIP_MOMENT,L_HIP_MOMENT,L_HIP_MOMENT,L_HIP_MOMENT,R_ANKLE_MOMENT,R_ANKLE_MOMENT,R_ANKLE_MOMENT,L_ANKLE_MOMENT,L_ANKLE_MOMENT,L_ANKLE_MOMENT,WAIST_JOINT_MOMENT,WAIST_JOINT_MOMENT,WAIST_JOINT_MOMENT,NECK_MOMENT,NECK_MOMENT,NECK_MOMENT,L_SHOULDER_MOMENT,L_SHOULDER_MOMENT,L_SHOULDER_MOMENT,R_SHOULDER_MOMENT,R_SHOULDER_MOMENT,R_SHOULDER_MOMENT,L_ELBOW_MOMENT,L_ELBOW_MOMENT,L_ELBOW_MOMENT,R_ELBOW_MOMENT,R_ELBOW_MOMENT,R_ELBOW_MOMENT,L_WRIST_MOMENT,L_WRIST_MOMENT,L_WRIST_MOMENT,R_WRIST_MOMENT,R_WRIST_MOMENT,R_WRIST_MOMENT
X,Y,Z,X,Y,Z,X,Y,Z,X,Y,Z,X,Y,Z,X,Y,Z,X,Y,Z,X,Y,Z,X,Y,Z,X,Y,Z,X,Y,Z,X,Y,Z,X,Y,Z,X,Y,Z
4.886510000000002,-45.6062,7.120870000000002,-31.37177,14.00959,3.5010400000000006,-37.58549000000001,-36.781349999999996,6.297320000000001,-14.946390000000001,22.541530000000005,8.068140000000001,-4.0361,1.4684800000000002,1.9181900000000003,-51.12371000000001,23.990340000000003,6.391920000000001,-41.37215,1.7741900000000002,-2.2248,49.32174000000001,-4.107730000000001,-3.4719100000000003,8.425250000000002,-4.584910000000001,-2.7574800000000006,8.038700000000002,-6.0959,1.6841500000000003,3.414710000000001,-3.0016900000000004,-1.4561000000000004,2.8257200000000005,0.3215700000000001,0.8369000000000002,0.6251800000000001,-0.42103000000000007,-0.27407999999999993,0.32030000000000003,-0.0681,0.19606
4.254529260791573,-50.13040101200292,7.787659873420105,-36.876397771031215,16.28528094047261,3.9742464619333018,-43.85625092963609,-44.6667657160926,5.633617454607795,-16.718142018091562,20.278636941118986,8.37151026806479,-4.84699989581058,2.761510217149414,1.491308512785822,-61.83405559361555,31.340050575696807,7.849009762069842,-51.93975005004201,-15.278345282308377,-6.938876926992382,51.73209572690432,-7.342722807194797,-0.30329038757911875,5.66476450461195,-2.724314039904641,-1.5597598589644113,7.140890157749243,-5.727719922041243,0.28659535186868385,3.5730947488784426,-3.3857177430632666,-1.593164218930019,3.123104992295601,0.6354452890251232,0.38691905972757273,0.5539885544243468,-0.46912366743486267,-0.21563636541815695,0.44957289511538395,-0.019640477707042022,0.06469600379218536
3.0779977618663956,-54.24650567296244,8.153552703749668,-36.955337723919364,18.591190743915423,4.097745845844755,-51.23545367801361,-47.09210505376216,5.15503054658902,-13.324664802874493,21.683338258684557,9.720206703635528,-6.829475240024968,6.3763170624967955,0.7230656686093571,-66.49800395223355,35.95243155659271,8.595148418326403,-51.38606612224676,-11.009066725015462,-8.854104288135323,48.626076296928716,-7.166510337667909,1.6322177332549324,5.471632598857836,-1.2726235816731741,0.13926129779103436,6.059044144945091,-5.534194650033259,-0.5458977096229354,2.996782328167982,-3.8104208390300793,-0.9304154497574857,2.4787333234029503,0.6602337853057736,0.004725257833202486,0.48888769126512166,-0.4921916932148063,-0.0686594133684205,0.31773763986191206,-0.06918406934958926,-0.0002863419627809983
1.088956220946314,-58.32427482993905,8.826280698663027,-35.00488584450884,19.86987808055724,3.5716094431749426,-56.06368880979124,-45.99539458368322,7.075635309566337,-13.111381227068152,21.759356490282396,7.851138099170043,-9.89513149995085,12.333992859743764,-0.08037137385376258,-58.82923395849918,33.50574020445978,7.2612114115263005,-43.97195103120869,4.530849959806767,-6.315410260613767,28.73642640605054,0.4969137664242775,4.624984829967062,7.716927850839475,-2.924546991252692,-0.13417955384449698,6.071538115631122,-5.7824500325742445,-0.38884859540549493,1.8602219673037108,-3.6379985476013337,-0.21556416206224885,1.3716782917192134,0.9112478527992934,-0.26161750465244643,0.41094326901029954,-0.4355360431907381,0.014729575086968795,0.0789644906789378,0.0024157732092918837,-0.02936804384159123
-1.539465231199184,-62.92324407272996,9.794116866676404,-36.70704588356175,19.479858684016314,3.421825516318293,-63.33378639486127,-48.49430354697215,7.796589961824845,-21.41846454580709,14.388750448952951,2.49343374286792,-13.594039069978852,19.333028155590835,-0.7087326354664272,-39.918098166436664,23.425862502319543,4.0165364172215465,-45.95140541667673,13.945240735340262,-2.780390913448282,21.26467559397788,-1.9647560774593866,8.046750041542941,6.905722921433501,-2.199219149972873,-0.24898753169977944,6.042412416327552,-4.424877488041781,-0.12067966864787842,1.6496006555638336,-2.9643461188332285,-0.5726625680571151,1.7910436950209578,1.1877882166688385,-0.07623285993378848,0.39088313737117647,-0.2758512832396344,-0.09475534113629723,0.25648534368281567,0.17455485762175638,-0.04246166925469992
-5.4434531891640825,-67.24964140244701,10.89658015911033,-33.568531000298144,16.15313905591562,3.5992546335773663,-77.28096181157551,-56.79997286447269,6.3892080504232185,-11.241783822160938,6.441865966365645,1.1159637364441597,-17.171621798332062,25.5331453417173,-1.4783148959423806,-19.326555597901628,10.844372712194366,1.305889219805695,-36.89936584301909,15.205442849376169,3.982402144491973,24.65409910844824,-19.03227322046023,4.2718124425867705,3.951276925827672,0.7621536642364218,0.3301458229643031,3.667522736277135,-1.7565827623606731,-0.06867825074440481,2.545569397041022,-1.8004278570914978,-1.5554357293998007,1.5659851728234893,0.9883082010999342,0.12862725406072936,0.4430965097010269,-0.07038780891979504,-0.24349035230019897,0.2287717749640751,0.19418322591594817,-0.028216027123139715
-9.732697546146706,-68.0257370402806,11.269680732766954,-16.426690615962073,9.291922244178638,2.636910300206295,-89.37896775623337,-60.17257913438156,4.597290154927322,25.85644677249779,-2.9512583303062914,4.400569389141427,-20.277547027445628,30.66952465441492,-2.8182761900895246,-4.458327675194946,1.958796771471417,0.6936698564370852,-2.9443135143124337,5.716797198827957,11.841538475693772,9.797364073907886,-17.84860693722454,-0.8283487830668095,2.7923651520558725,0.5628535007834569,0.038108325726457046,1.4981573107447048,-1.016929849026832,-2.470330344378653,0.8779585654682187,-0.3439957918749199,-0.588400866010204,0.8990029130553201,1.6956040556998575,-0.5230496618622384,0.06283870749892814,0.060010292538197875,-0.05386304456390732,-0.039592556194276526,0.2446432801677356,-0.16148748794006565
-9.808860000000001,-65.11170000000001,10.240880000000002,1.67319,4.813210000000001,0.23815000000000014,-90.86038000000003,-40.70021,6.0776,54.36129000000001,-6.4177100000000005,8.52814,-22.800450000000005,35.34311000000001,-4.43794,2.3408800000000003,-1.2596600000000002,0.84212,23.73344,24.107209999999995,18.049620000000004,-6.221599999999999,-11.740590000000001,-2.1447400000000005,3.9832100000000006,-0.6743200000000003,0.4634400000000001,3.1518200000000003,-1.6779300000000001,-2.545490000000001,-1.9931000000000003,-0.030370000000000022,1.2624200000000005,1.9494,2.1722600000000005,-0.06364000000000003,-0.36994000000000005,0.06744,0.24253000000000008,0.24948000000000006,0.3557100000000001,-0.06929000000000002
-7.264940654177113,-65.70742706266229,9.536885664409319,9.329649096183717,1.235335593583459,-1.4116266679521556,-87.75572671125637,-26.07444951511539,7.597401604976939,60.234892718139264,-15.128659468084857,2.7591205987817156,-24.58360026392274,39.607537498261536,-5.911391337942406,3.3943093739473933,-1.5438775289481348,0.6803881539462742,21.93328841465454,30.131265390765332,6.588350950563458,0.8493495318678101,-18.686262848963317,-1.8969207894546196,4.420080024987521,-0.42645327971779184,1.446195445040606,5.132589575510428,-2.7521478895394713,0.4980639417821569,-1.9603341905823182,-0.6410434448674325,1.1777227374068662,2.025575408940958,0.9442172723458976,0.6875740881903786,-0.20560678787732337,-0.02988533232874509,0.1775406888498226,0.4154955189765563,0.12368496093163518,0.14772281174705895
-5.390778402340042,-66.96982419022866,9.456155788998467,14.574371086424657,-3.840322627287752,-2.278506568041118,-84.17820233898114,-30.733665160802474,4.322610076812876,63.10459832616036,-26.382705534941156,-5.519848059168333,-25.441497172380895,43.196214202644136,-6.925843340331352,3.354424246725825,-1.5024802019044228,0.37700235535966065,17.745718595481893,5.13121505173777,-13.144075893596288,7.650677997663956,-20.086930494461075,1.152614193097233,2.4936917168863184,0.7851964420370541,1.4674182651939471,4.777410476325964,-3.2395652459580435,2.1738284367530234,-1.0834289659128327,-0.03471590772044066,0.4372125599498719,0.5837929073515745,-0.37151025228785084,0.12705281172172717,-0.1724210698924258,0.1283928041792474,0.0432481385179879,0.11258691676251857,-0.13527428360417168,0.004763141529803273
-3.1781661341475873,-62.704650604622,8.742864437600966,19.766929786278094,-3.2804673665411017,-4.100707160188003,-78.39093454039532,-29.64134646543528,0.8850778622949113,67.1847229691561,-19.037033609056742,6.243936824074397,-25.853122951922785,45.61167642503937,-7.448631609527856,3.463010262587365,-1.2285033264235896,0.18755150278965865,24.339094809561235,12.533811338140596,-3.43974566494951,-11.099687306143611,-22.088435546194358,0.1584552278151477,1.8193084355744271,1.489886941430362,1.478083356969625,3.6534642533269697,-3.5079767580143235,0.2310589432001708,-0.7153519634472122,0.32961718547599844,-0.02663996858306755,0.26278836323267424,-0.1147823221265109,-0.2780264550054739,-0.22856968416001072,0.21395444822090964,-0.030152401226448085,-0.05233823144591528,-0.12406664065392886,-0.11320509144863157
1.963694480271284,-55.146087353592215,7.092512210405522,19.143503102496094,-1.9431914531124599,-4.607934372315461,-67.6473839944168,-16.71184018438671,0.36134886144984657,64.12878754275377,-13.858397293139083,15.282079904281302,-26.065645615833837,47.19247215415183,-7.551185839770451,2.841870596525643,-1.1122373292333934,-0.11010407411403875,31.36758760568024,33.83090917841391,10.478765574951616,-28.982485463038042,-24.393519797334086,-3.5485701917653687,2.567689308334834,-0.00665367754605536,1.201841209620951,3.6196129548765716,-3.299259320532471,-2.7557210965613,-0.6007587661456133,-0.8960970668007112,-0.04910984335141287,1.536672989022005,1.3785994054886117,0.14635595944152024,-0.04946006654983957,-0.1564257778488973,-0.015784202726020578,0.1558191145867398,0.09386149738058293,-0.003824006044582513
7.612278979749978,-50.317772144572665,6.206663604995102,18.076877160628968,-3.205467041625905,-4.025461343271527,-57.12526944903276,-11.6211021293883,-0.1318693399412325,60.44077518019623,-18.839049313642466,3.416771111256433,-25.25985398379372,48.65642076357732,-7.370779933677352,2.7188677509847476,-1.1524850080073337,-0.38489887888843344,33.87287979609009,25.594526823849446,-0.5515698837758017,-15.714813835031103,-31.39628030746246,-0.9247210798398268,3.4990273470669866,-1.5400401336940706,0.6793677147765426,4.7667408766475825,-3.1188073351927,-2.2841084259390874,-1.4290123443363218,-1.3703371704824239,1.0720548438261408,2.1007117350536837,1.9563178775064443,0.5597892552850274,-0.04659160329306419,-0.29608572092978314,0.21860551425235475,0.2531828588322637,0.23271201273027942,0.07857327225485645
12.088640472844185,-48.03942232711225,6.376256954421228,20.16385719553093,-1.4152054767589697,-3.9692449992202734,-51.12950498372203,-13.423851106080601,-1.8684835857640878,53.072635365650235,-14.215094661532733,1.8400460351960672,-23.481255285923094,50.23577734967324,-7.003164532826886,3.252507336421086,-1.018566249725212,-0.21235095359904183,22.845756207008804,18.93749442240945,-2.752066894927087,1.0474475415055222,-33.68348518847829,-1.4639168089993513,4.550771871351696,-1.0285293470150956,0.15112985066903806,5.20945153374596,-3.4526038974455986,-0.5715608548956969,-1.9047175883117353,-0.2647570765703712,1.8193133845322804,1.6401064322875731,1.3319981131949243,0.5085630318840555,-0.15805525431922557,0.02973512948977867,0.31976841596133987,0.1701774241302123,0.1448337327383455,0.05187170688051349
18.22171,-44.93223999999999,5.858090000000001,17.56805,1.50844,-2.5435500000000006,-39.95859,-9.96814,-1.26221,43.82096,-7.157899999999999,9.229140000000001,-21.958239999999996,51.96741,-6.58323,2.86358,-0.88043,0.12715,21.32345,29.52928,7.657720000000001,-12.615049999999998,-27.32794,-1.63151,4.659080000000001,-1.04496,0.03701,4.70895,-4.5155,-0.7918099999999999,-1.35048,-0.8250099999999998,0.7715400000000001,0.56975,0.9709699999999997,-0.08056999999999996,-0.12235,-0.06983000000000002,0.14170000000000002,0.052569999999999985,0.010880000000000003,0.002160000000000002
25.308087896002885,-45.67275058293622,5.840107060042487,11.629521673771563,0.31985311079305856,-0.8804522487500016,-25.46179391606842,-10.140185789129369,1.2965936316333662,31.391743446617927,-3.7548765999865195,2.5597871500587903,-21.089059675356037,53.929128345282315,-6.316007780152257,2.25094375370377,-0.8261989975588142,0.2029301797130639,21.744523414777426,31.272358129381306,4.173544233531527,-23.25020657546998,-28.174588884995153,0.7309271607513783,4.179327761171377,-2.0111391084655454,-0.03519038813032315,5.1308266654459755,-5.135389065800351,-0.8448418589798817,-1.3378667559787525,-2.1897048194305966,-0.3813759898433287,0.035604056345999786,1.3893909927743784,-0.6595614508778425,-0.14336308967593217,-0.4032473016451895,-0.07257705412419728,0.05604289356228619,0.07022349113629432,-0.07911117431270365
32.89651895214087,-49.39188163986204,6.066670573353452,7.316234076182871,0.5642200126524889,0.5060896440515285,-11.748562544807298,-7.6833898764830995,1.8813024552365107,15.265900000800002,-3.2211018435753096,1.9354149964465022,-20.757916943712985,56.069228539506014,-6.104183678118754,2.3728883522322906,-0.8469474398779968,0.6041106719150104,12.879084972453162,30.50842902445052,5.7610994450509825,0.5075350274925245,-40.3530432067202,-1.0936023228273495,4.199977565905804,-1.683916021928952,0.07728255811317047,5.693657549856806,-5.2129773709718155,-0.1425019073152812,-1.1984490055414883,-1.8506837384140233,-0.5235829188938828,0.4277613001687404,1.4730518774225752,-0.40808212822229883,-0.14686560148597752,-0.23847314853981805,-0.07292287481815679,0.08909711721912239,0.13872124465682847,-0.07912714457379806
41.74494378078258,-53.86150685293868,5.884583274774246,3.474009504881913,4.184212059212012,3.409329045748506,1.8347865595721768,-2.691001853992456,0.034662392449168154,1.132116142088183,2.0249720001618927,10.611728418831024,-20.64356774557119,58.237371906881144,-5.856157614612142,2.090592500153583,-0.9227424907166858,1.3033624420099283,10.541531257824964,38.25112743398748,2.470245634633122,19.07969154871663,-38.699255919396,-3.9268098113670074,4.811614382994348,-1.259979390699471,0.8739036257416458,5.889449600310393,-6.280378433867527,-0.2766456712244003,-0.8781063349160168,-1.6149823208636738,-0.25878218794947283,0.7018593589755738,1.0805219947895244,-0.03581009770974793,-0.09596987265928603,-0.13296209467474068,0.07537821082905863,0.0810914855208784,0.01271395631456791,-0.0034753057689113154
51.583451374716624,-58.5446597497345,5.878335506152211,-3.2065677140439,4.407706934558405,4.086559397141482,18.096064009033455,-3.3154143396413147,0.27283854147430614,-7.652836283771239,11.33674383376021,8.247257277992365,-20.397414422605596,60.34258361632627,-5.5416215378345415,0.6670616313074891,-0.78339699947492,1.168693638725164,16.90504253505929,47.4469513168523,-8.553205433843567,2.837667057241311,-27.20257195793103,-4.263725532896551,5.62684190759147,-1.868227921977036,0.8588992112532681,6.4219435013877,-7.348632048139023,-0.7082494676257396,-0.7505281021362407,-2.3510678387088,-0.6249960868786322,1.12732293382039,1.0409993129696704,0.25056461824655607,-0.031625499281963385,-0.37135925246395285,0.016860229973533453,0.16647894625026585,-0.08270039832835516,0.07644489142476749
61.16909950888671,-61.266090818129584,5.975501568671423,-9.65876962679832,2.7497936251444073,2.2324493750555034,32.493812974684154,-7.960918174208122,2.182429915930517,-8.066108939682294,4.854157800453089,4.472940271411126,-19.88028594264105,62.32210252574895,-5.076791148668629,-0.25118259317607444,-0.4861824848708828,0.6084450119375516,31.60562465362441,41.077049220841076,-2.3477639100396845,-9.47216477073926,-41.91598581863413,-4.361910075299448,6.592616316877503,-1.999616083350149,0.8210351353855095,6.954637380287668,-7.952615652258787,-2.606519269732236,-0.9790218080064474,-2.4426348325515312,-0.7114551887779534,2.1336068956421683,1.7064442170381284,0.6169205912314168,0.0005834339679288061,-0.3640186949788023,-0.05651858026878097,0.2629579418074591,0.040555693392015396,0.05420185397939219
70.41247658207152,-63.108211898900834,5.946939967106055,-17.4208730617254,4.206208045439389,3.7111946223383896,42.395401208145145,-17.943140581106015,2.1746258483361105,-31.075291426753203,1.08602337859084,8.283855248869825,-18.783836665878663,64.47658075038885,-4.738228260089638,-1.5139764069735955,-0.13565455736933194,0.9610612093276697,17.706028860396263,25.46999747863295,7.511944543996605,-1.7256869714221503,-56.52659167100509,0.3793119404109017,7.02165753673972,-1.7863388483113678,1.6418450817187489,6.424642607830722,-8.458037526703938,-3.265044388510455,-1.6106264231925658,-2.3815526726226297,-0.7267572913822217,1.5938518331060265,2.0145439868866624,0.22412258281873726,-0.037551547114027826,-0.2904494486435467,-0.16644708909344674,0.03417221091590478,0.09217644126010743,-0.05232956151729859
80.88888000000001,-63.409240000000004,3.6833,-25.461869999999998,6.71996,6.481279999999998,55.81403999999999,-22.55695,-2.4376399999999996,-60.380129999999994,9.317699999999999,12.21507,-17.248040000000003,66.51703,-4.885810000000001,-2.7383300000000004,0.10320999999999997,1.2312199999999998,-6.30509,23.708050000000007,4.460399999999999,19.12744,-48.49685000000001,-2.3012700000000006,7.03553,-2.1443600000000003,0.90329,5.67539,-8.27793,-2.6122199999999998,-1.59275,-2.57953,-1.3181800000000001,1.53486,1.6066100000000003,0.5640900000000001,-0.08569000000000002,-0.3507000000000001,-0.27455,0.027300000000000005,0.0024700000000000017,0.04161
90.41733356233745,-61.00439671147471,-0.49613471766645706,-31.003662576096,8.461388332605035,9.069245245405522,71.32335684476261,-15.151568418214154,-5.875489152006055,-74.68856031579574,18.02432326734469,14.150186285023961,-15.953575291811125,67.82140517352384,-5.682164883492353,-2.749873512312631,0.048301906549524515,1.39925539865077,-17.699733106360718,39.57421389290531,1.5860343559103227,19.220070209172718,-36.440066865237554,-10.86150467594619,7.6892730931250455,-2.6803200813882495,-0.04133034209881852,5.773717278817828,-8.646344367285355,-2.103452417031055,-1.119966879448633,-2.790218977425505,-1.575510497812656,2.2006627220311046,1.289303042282795,1.3531659425163058,-0.04564700194941761,-0.35090973387876345,-0.17207307516939588,0.23176459938285143,-0.03404753834836312,0.19260076929547232
97.12695033277524,-62.55974763403931,-2.8794432454052963,-28.346629224595674,7.526802489835201,10.967628785740493,90.88064802958131,-17.65268016635589,-3.9188995990624993,-66.57072805939136,18.902139050447172,10.632120027602951,-15.15488338891901,68.36686484798825,-6.947565216925598,-1.5356519655017677,-0.21300024222778582,1.9250618304707368,12.018576220920576,40.851115118939475,-0.9301932541292635,5.191332100464314,-42.075126748569886,-5.738705142549317,9.31406823247216,-3.5548789777705347,0.64284951107943,6.60225222542197,-10.056360423324731,-0.506958491523024,-0.9646527697536853,-3.801961386483545,-2.045890124618125,2.2989813654668474,1.8848941754384299,0.8832221863787908,0.10383272103544001,-0.5768995399067728,-0.2410995553013976,0.30895136055077355,0.07397834323934294,0.09694586975135208
99.59335037197106,-62.379499554459585,-5.3881618285802695,-21.08988666931119,4.81093867149237,10.170622574804751,116.2662056668014,-17.239986280563624,-4.367760448249734,-42.95244690003679,9.738310911084511,9.836908636662551,-14.497120178770455,68.30833141218177,-8.410892467216486,-0.6903968295366141,-0.25387543407703567,1.6833330857145445,74.28201706992226,35.34495787211621,3.6318659439936587,0.09823423910387641,-44.46279387833537,1.7858546442502414,10.985090368972642,-3.8390593343131756,0.24384605824305033,6.137717683583608,-9.630040618015961,-0.23776740530410137,-1.4547321400920952,-3.5396156502106084,-1.2590012164171078,2.379459618365796,2.2124730860794286,0.5291497156055134,0.10775427908646856,-0.6032546732133897,-0.2239511185670082,0.2717194212333139,0.13064706632820677,-0.03493719093435999
98.43820051164758,-61.54442857912601,-6.291254562205519,-16.173216504519747,1.539170025405147,-0.27212384128395634,127.68528844883986,-24.55904695923729,-4.305405263048775,-17.27501779048987,-1.7747602236484796,8.054326878230311,-13.570942666172916,67.40832215317506,-9.786099696251206,-0.9364981802811837,0.12951419426629418,-0.06101441727406902,108.87736956226429,13.323064175019628,14.697124318005693,-13.735789635990686,-37.63510183243188,-0.8574127927461264,10.209157371209038,-2.9039390096253834,-0.23969808489532948,4.864307043144316,-7.825585273564517,-0.6217960772110479,-2.3891726630560948,-2.0477785108066993,0.28542041233294446,2.3324587764693945,1.9124749903626164,0.8074592716950606,-0.15719779205888473,-0.25355136962851793,0.046775995782441106,0.25072805858888597,0.14305679564854673,-0.026752092211496208
100.3119555987182,-62.67998764230393,-6.596893165680366,-5.606351461278087,-1.7734889142242907,-12.109148875386161,133.60610011013364,-40.657914536497,-2.9297328361493853,10.897579168463713,-10.555762035727316,-0.588647813794837,-12.111751308428614,65.7212229509421,-10.757013991137278,-0.2204902839390942,-0.1133145905180741,-1.1585579140167763,141.1426398161211,-16.554041273921502,15.669515282933595,-36.13069258334458,-27.22605289273615,-3.7378866037904093,7.114048136721781,-2.143186071425344,1.3606301668711038,3.230210543691833,-5.642183247322173,0.8109421028263708,-3.335356510363693,-1.574242799054216,1.2036473009460624,1.7649452524289206,1.5552284893275177,0.510221109746074,-0.4672319096622031,-0.1184024043547275,0.32774098256424344,0.3013664540354195,0.13916069001432083,0.044191961654748806
108.56731816972174,-61.347251093270806,-9.3458240027772,8.625019292102188,-3.251304168961011,-9.755742587228264,142.82047676520025,-39.84711724988037,-4.602609038335857,46.05143182358675,-10.492154373477694,-7.221284718249742,-10.176416822695312,64.2515948931926,-11.194545163036805,1.0871652951672055,-1.4498880054089724,-0.1895696543353262,197.26083951998885,-9.2834158659067,3.3657695801771,-45.178115791682,-18.89010906714929,-5.23541348994423,5.8733736910498955,-1.9223310509998748,0.6967227026442446,1.4446395014667737,-4.524692827398706,3.496849908458422,-2.7333820505354196,-1.541780096696391,1.1159614851100346,0.8858845919314546,1.4997219763390266,-0.2865556037353084,-0.31822649275881154,-0.18576065292111849,0.25760043035468716,0.21607708681000395,0.07614017846413564,0.1316015601672103
119.51797,-59.62975999999998,-12.968310000000002,8.67134,-2.2696200000000006,-5.017549999999999,152.23203000000004,-34.968909999999994,-10.48834,61.38254,-4.28194,-23.76570999999999,-8.404299999999997,63.680749999999996,-11.331510000000002,0.93582,-1.2789599999999999,0.3729799999999999,229.36403000000004,6.333520000000001,-32.44001000000001,-42.62398999999999,-13.784260000000002,-3.7209700000000003,5.887269999999999,-1.9333500000000003,-0.5451899999999998,1.1609399999999999,-3.6215700000000006,4.04208,-2.09029,-1.6431300000000002,0.4533499999999999,1.15636,2.4733800000000006,-0.7485300000000001,-0.11673,-0.24009999999999998,0.02936,0.24264999999999998,0.32292,0.04642000000000001
126.2434697349509,-61.88435947261406,-13.135501413820354,3.0275265851103534,-0.3534352848057821,-6.5433578364088225,156.45088815662447,-45.109208169388694,-11.43898045349564,55.983619669568,-3.578513249478144,-26.70284819711067,-7.613479320645699,64.0722807095287,-11.40968285555509,0.49415146259719656,0.2829227901351031,-0.6848135525459998,232.23330959316687,-6.6293397596339005,-42.19504616287456,-39.84762163203059,-10.811822287961274,0.5001378085548117,5.845324517603025,-1.6358812001371994,-1.7413346936937744,0.7244405894117231,-2.203927575114569,3.766388764701339,-2.597705406469533,-1.2967636917114538,0.7316094676855835,1.1668053463008992,2.8402837054062386,-1.3555316570312372,-0.251988793166222,-0.15970757162800764,0.017150178699350083,0.1659973994369824,0.5354508076463147,-0.2241196405162529
127.3308664139665,-67.10430751022562,-10.691097547173372,-10.519527327705944,1.8113131894959391,0.9750496859697528,158.03632322574688,-55.716966848776444,-9.531402427594019,24.518066682780503,-1.2257805701650244,4.399138377399371,-7.97234226087483,64.87477739753649,-11.5438023096345,-1.202664030590884,0.910081014940773,-0.337185353164746,206.03585338217923,-11.003538250649804,-1.7102448474832468,-69.92799096712284,-8.246272779949408,13.246345966022805,5.660770963702023,-1.4168170237520044,-2.1750547801687286,-0.6671643335922198,-2.568737967672614,5.2441616345527144,-3.1320485114701877,-1.1125970587827148,1.3180542474713748,0.439910377351909,2.5299635732250616,-2.4669589498416173,-0.40359133240722694,-0.1606898998620682,0.09356913390153086,-0.028343999375582775,0.42095274943720257,-0.40055548883568054
126.21272540892933,-73.21187698383727,-8.429566679835277,-27.934299059643738,3.725234424994429,11.43953126096166,156.69024243697788,-60.12409157537797,-8.569213202122459,-14.406779618709592,4.996079355576544,11.492607044780803,-9.366818057448816,65.34628711986511,-11.846639083660467,-3.7921920299558374,0.49199892939891476,2.13227864320278,163.52877660149605,-3.7013214636314786,6.804607426754566,-124.11023872878285,5.140857133864124,21.878715419134636,5.5657429800275455,-1.668141233875565,-0.9072806341938429,-0.22837925730405814,-3.826578396879964,5.003637708428301,-3.4200052367364004,-1.3891312014372803,1.7116520870886576,0.8128905980390864,2.797595105832312,-2.209378171811042,-0.49180727698853677,-0.22699300508792436,0.2833383546682951,0.06952192051672894,0.32940942191232425,-0.21768738412738356
121.60359658183911,-77.12095299339981,-6.207679731561426,-21.547046863225525,1.9303076452209778,16.28205393424198,142.26731811530237,-59.668054846958825,-7.408353709445339,-4.5592425905130325,0.8272860604214588,-1.668219849927966,-11.256303849593534,65.60199548678503,-12.112793647737247,-3.2671997176534844,-0.8670283935399018,4.26994463788377,161.1310672609674,-6.427768500594438,-13.577166442117996,-138.47441462569685,13.004572776221522,11.349692963450638,5.8308530998636305,-2.8837646120274485,0.23131883250138427,0.647045279899446,-4.7009711364002165,3.6510869379445636,-3.705024484295186,-2.5150197517037864,1.3894750764023656,1.3135794020028937,2.6082577904879516,-1.1767168484506865,-0.46460782609894546,-0.49405563783226186,0.29290822319931686,0.2453659726991965,0.23217698341943074,0.04306692683299542
114.64335717556897,-79.94727683371072,-3.672476188608991,-13.901342883412568,0.5425688799649481,11.935581180332397,127.16848220312791,-56.56801942669049,-4.249328384212144,9.607396366753846,-5.526614763533248,13.80744615103556,-12.87841184311401,65.61823495842054,-12.29826723335485,-1.6901387682660114,-1.208966836329845,2.9902086500122813,166.5846523613103,-3.718866456244083,15.603005811046188,-134.57145411377724,3.3873080792746855,1.6278255568318294,4.430305812863261,-2.566772762253663,1.36158596410084,-0.15121286113070947,-4.446216854860154,3.9209327181837033,-3.3544063710687464,-2.2576627309807424,1.287567585561822,0.7049440677112236,2.4630564873171457,-1.8892329070375484,-0.3402235316472689,-0.46063929601567194,0.15176070607442405,0.15437001165448577,0.30213206838468215,-0.13083074571254194
108.72507676424382,-84.12987143432122,-1.402345346598183,-12.491863964935,-1.5847621096506184,-2.9277065265220474,118.31336277041041,-56.758746143550766,-1.6969830661133818,8.43849849261028,-4.454468162660032,12.990052535968669,-13.812076855670577,65.0334511474812,-12.465348865599486,-0.5183455241774024,-0.8371235837006413,-0.7523764804960585,156.2048970900489,1.724251831585113,25.089603130549204,-120.53731673187573,-6.294146025798133,7.833055879027473,4.202965904526434,-1.0946895262808964,1.2905787754017493,0.5164714948692573,-5.09589661993832,3.7612077183082735,-2.112806278242582,-0.8389253813978197,0.5468965577288208,1.0635215352251353,2.7686141199766094,-1.6624913746066736,-0.20177927786860103,-0.03081794070116583,0.021082060706007433,0.14724370692121752,0.40711561136389934,-0.21773352120686618
104.05273999999999,-86.72019,0.0040799999999999725,-2.4400000000000004,-2.2118799999999994,-4.780420000000001,108.92015,-53.10667,-0.83614,20.924440000000004,-2.9811999999999994,0.9464399999999995,-14.427499999999998,63.38172000000001,-12.27581,0.8800799999999998,-0.79755,-1.4461400000000002,156.7094,6.91377,5.019950000000001,-84.30017000000001,-12.152650000000001,11.32119,5.5819100000000015,-1.4257299999999997,0.8654,1.7323799999999998,-6.995970000000001,2.6651699999999994,-1.8957799999999998,-0.98284,-0.21650999999999998,1.6287800000000001,2.43729,-0.48999999999999994,-0.18449,0.028120000000000006,-0.009099999999999999,0.16035999999999997,0.24702,-0.05612999999999999
99.84620855594056,-85.08064836722448,0.4197372583486934,4.582382122824159,-3.10819339454352,-5.027259940635477,99.07017438958744,-42.87502873059012,-0.8443463488084609,36.802998340636826,-9.412239587460274,-17.204709357313096,-15.262373457278429,60.51867768910836,-11.545503261995915,1.5288855630796863,-0.49694164860164386,-0.9445721884811593,165.23431082534066,10.793118670305176,-23.426213400405445,-73.33355356227295,-14.612358936060923,-1.4557419607255626,6.5703903037465015,-3.147758684667378,1.7206292734207675,1.5091311795082045,-6.817535411415585,1.6539600645348587,-3.5299342421831925,-2.433212256381217,0.6171341499983337,1.1471123569210635,1.8721505855267335,-0.40626641616444353,-0.3502833942449455,-0.3391314925151896,0.12303547124580877,0.09013309338554372,0.14703655240801064,-0.022314122184214493
94.50495603696966,-79.84130419401369,0.9297156143826824,3.9929256119454166,-3.9839012060535275,-5.032640056226322,82.43251679111778,-42.0824653953016,-1.273609326490852,35.79326284413765,-12.757791623716026,-22.51286021144741,-15.894846398346665,57.02922496465912,-10.446768928111057,1.390927721282384,-0.365923089389258,-0.9214841322064575,144.00867923275493,2.860939477372871,-33.22525045694517,-91.14875157974292,-19.699050818073847,-3.143464027260474,6.408988919873889,-3.7486764058405986,2.4533714725714963,0.7802214048542634,-6.5342892641887484,1.4655859754550213,-3.9116696179737325,-3.103007271625217,1.0220134494060562,0.2666686993677588,1.6496614378324848,-0.9614698537855854,-0.44999756417218806,-0.5725538495644779,0.27402439456541267,-0.107229385748491,0.09510504199153483,-0.08797211795205657
89.46653361704612,-73.03956812792794,1.050513440624141,1.617721895559662,-2.6166382134169583,-2.6389250860766067,65.98548676980654,-47.31716145284098,-2.5680027777749004,28.453826785860993,-11.1575648064001,-18.03542074549249,-16.19630892731074,53.68293600794103,-9.346015300003378,0.9073538631425098,-0.36671459114245947,-0.7144705967064999,114.04397291884219,-9.289153603923571,-29.008763775832556,-107.68094210853464,-19.00727653213132,12.507933148770718,7.068878105458046,-2.8933019061555663,0.6753399924706577,1.1478412469255093,-8.36772517802291,2.392123665701113,-2.6985062380801814,-2.3511437284704035,0.1698511126609147,0.21404675503981993,1.8495856846814758,-1.1093489611313387,-0.29880351978919734,-0.4013956232888663,0.08874235807927427,-0.08749755764758559,0.06682703322838951,-0.052753931751399676
85.27525220988532,-66.94484508195131,0.6295426504577027,3.229681123783667,-3.029533739802832,-2.7288782137455314,59.92048922619818,-40.79589883312221,-3.3035462963839723,33.18289112436247,-11.791515498083076,-14.714851195794237,-16.83243072120437,50.919459791129924,-8.48563042653835,0.8292704120297505,-0.5122186017869921,-0.7072658588083769,115.63565893950732,-0.9402033199529943,-23.438918731651995,-108.78341108041623,-22.31322067725962,11.578387340592304,7.604790734073815,-2.2188633544713854,-0.1601451107695389,1.9920709439395694,-9.176778636322913,3.4571704676013026,-2.1722022089264654,-1.6109253077176533,-0.04155960761213413,0.5962183220165794,2.1060688425279603,-0.875349579109678,-0.14153139361971218,-0.1962081064310313,-0.08243365914606912,0.030338272684536254,0.2108896305453657,-0.05608774623745921
80.09042991017006,-63.37432290534102,1.1431203663545346,8.946956140081394,-0.37422693948608093,-1.713017669307345,55.336281495500025,-33.64059649010021,-1.9604021985942983,42.36019135476389,-5.778171024565201,-1.308051658165472,-17.952038448577767,48.472090843237694,-7.799163164290579,1.4816098621411244,-0.5377339892433227,-0.3268930614293458,126.16269981118806,18.72713683467256,-6.5475602050486765,-95.77104513670875,-32.05371931207746,0.6591342722448835,6.301126092808333,-2.0657013038210557,1.5670171738154597,2.572034387806408,-9.339960016920028,3.793871307800188,-2.496540171943138,-1.5467052566840567,0.5105594840252025,0.780108482042636,1.9269250670578237,-0.6606916511755817,-0.1794329304227288,-0.12308368338873639,0.08041416017060599,0.018796306302282254,0.18924368323459065,-0.07783192020579474
72.85075295845324,-59.88332671957498,2.421847300906609,11.667927299385605,4.679380419302568,-0.21560541445113185,40.63932961751884,-32.79754229595132,-0.42175625604498684,53.57350199284951,-0.5279582366961955,6.727571170104908,-18.97375660339373,46.632739644797844,-7.190161943083711,1.8554143331680975,-0.3273340485778501,0.14092892548790356,126.06401343757851,25.38453562826511,3.2332896928614008,-80.81138456806457,-24.59195468953942,5.941986908682452,5.096575381782097,-1.8366025970597086,1.9862863536883308,2.5317991087881464,-8.699809548954102,2.4074000553644317,-2.6489430473772475,-1.4054781338921705,0.7211899358196571,0.6859832486342697,1.3494078752074254,-0.4591095454109862,-0.2774096874779936,-0.09365221553414631,0.1725105753022776,-0.06814050706978435,-0.005961089797859325,-0.05618033149464015
65.10558,-55.48384000000001,3.36669,12.483089999999997,6.122489999999999,-0.39059999999999984,24.915489999999995,-28.069900000000004,0.15208999999999998,65.20119,-5.7849699999999995,3.51399,-19.663830000000004,45.69380000000001,-6.701439999999999,1.8480899999999998,-0.19904000000000005,0.30152999999999996,125.28604999999996,26.712179999999996,-0.58084,-68.52299,-20.997880000000002,9.476820000000002,5.63046,-2.03944,0.84375,2.17388,-7.27307,1.8461300000000005,-2.40353,-1.62062,0.3113,0.3932,1.22422,-0.5861200000000001,-0.21885999999999994,-0.26482,-0.0034299999999999956,-0.05712,-0.01941,-0.03734
57.29495137198283,-53.14525084188692,4.574138666575341,15.262992086938613,1.6927837978365687,-1.9099969174225422,15.345373842779628,-26.957625512930726,1.2305623638438796,60.33112074948267,-9.233532334481284,1.823256772307018,-20.492958792774576,44.93080039280492,-6.404907401491501,2.508465262395165,-0.7394174124726667,0.1706556441950034,113.9953024964551,24.81460341749517,-2.4853727606341973,-77.44153212405786,-35.96436960357555,-3.263491895533971,5.958477506618592,-1.966112908299471,0.44485963830009545,2.515596227330864,-7.088524370984865,2.7399730641060756,-2.6553042686181754,-1.4529175011274005,1.0126357666692594,0.5341755601123844,0.8496335467429198,-0.19003332894616495,-0.22446563393668273,-0.33066959637402715,0.04419781348282659,0.05526117721046899,-0.02804184909919295,0.03514815516903123
48.02902501630758,-52.12073043803509,6.103476560784659,12.799772732029036,0.0992690722886777,-1.3816219525236277,2.686650027756552,-30.10466697604515,2.2454968359066645,47.15340632913711,-4.726097781559353,7.859387512226147,-21.64381654892234,43.8235018079112,-6.335445781952328,2.8270934705687907,-1.0549707698159738,0.4213121453366801,91.60772745656705,22.18677071027609,5.983631630934593,-80.31277846419508,-44.8191052077074,-5.560666664224184,5.58078468720252,-1.5594149864332512,0.8568012126361292,2.563467719947,-5.954159323060416,2.0476965467744668,-2.1917402763816978,-1.0931161739603101,1.1882486207571197,0.8222414740415415,0.6437251664034103,0.23259600372694106,-0.1617213993415814,-0.14834277984914743,0.1871870614763214,0.08396926274876709,0.04087200792418858,0.04029297170882454
38.546848718818396,-50.51740554172231,7.13440651424729,8.995990888053639,3.803156555573276,-0.13340922416350193,-11.699125994177239,-27.67256227972645,2.917831468194911,46.75744338122617,-1.5434461079067425,11.90738926329831,-22.614570437781833,42.34385488731634,-6.420313318205369,2.4852307941055276,-0.5663564193122851,1.044121520020428,76.94145192014238,24.254737791572502,11.405686185355602,-67.07368616267695,-36.0902074604553,5.804118073450171,4.664852612514602,-1.140111331666219,1.8964034196392825,2.5836049605438958,-5.636892082969178,1.4636175001736635,-1.3333525910083392,-1.183033727705127,0.27319615377645196,0.8983501647334835,0.7343941322618495,0.26961371787775623,-0.10355189820091752,-0.02459622148438855,0.18061017255055878,0.08333902225605941,0.05333433836455348,0.05262483912455376
31.724956441307455,-49.044834063560494,7.506397459700217,10.101214301507193,6.076344815636245,-0.4394682109267101,-18.134334836870924,-24.58845096767598,3.4943453225815624,53.877421691364404,-5.9607305919032765,5.835844633885231,-22.99921503316162,40.48753387323889,-6.358172340432945,2.1857916186157973,0.16280095979724238,1.2738012160184524,76.40434409328009,22.179279962802024,2.3848173349378112,-53.75020648814099,-17.96425946603849,5.184604062343363,3.8683506912128025,-1.024824448025653,1.621388612407228,3.002738666851799,-6.693995927824516,2.072041603917986,-1.633579318051705,-1.1342701844528538,0.1373125808769488,0.7689736824797987,0.6249420173922458,-0.02313488841237548,-0.22435793038320648,-0.14198120991488758,0.049061882890066744,0.08549175580396544,-0.020818279948743947,0.014497943151183565
25.526342606128903,-47.394359370440505,7.832929770755391,11.008126553344301,7.294207105012121,-1.6591161021672685,-24.079167818598812,-25.807293898507528,3.5726905144628027,55.529575639887035,-4.358904855142566,2.705564321791426,-22.817641526682003,38.53846507865439,-6.160955056619446,1.8707357856751299,0.3649168713238224,0.779366571389146,73.99658974675003,25.777009950426848,-1.3266191405417223,-39.35571755595604,-15.1722645237872,1.87324865116258,3.968416452562766,-1.4950890864664652,1.1741890988305488,3.2454781907545067,-6.345965042018493,1.5717576610292947,-1.4677819837533743,-1.6898679055747876,-0.3918780523405875,0.935802763548845,0.822940453158585,-0.28792454045549193,-0.14054445756388223,-0.37914131061674916,-0.15007835962289243,0.11923169783793336,0.04590473397081849,-0.07917898040167998
18.22520545414319,-45.84965538484242,8.573037334560064,10.966303026578828,6.627768769120967,-2.3762951422469514,-34.73795607013784,-28.890923730642463,4.3875031281291355,55.69832638466262,0.02231878033016802,4.758344178707381,-22.25849200027556,36.180106881516245,-5.941327478042032,2.2181599362541706,-0.41297025797222575,0.33310525767683297,69.09366682503716,29.150446894701048,2.871481290762324,-35.37640613512335,-22.271854929821004,5.473083561378359,5.139268501521785,-2.133056426665051,1.151443175720515,2.9502748909657437,-5.513005064517937,1.1525426955816152,-1.1351268388623308,-2.3141449942412535,-0.5188930125162343,0.7420453862260901,0.8098907840582062,-0.3567225157538457,-0.024642140797787603,-0.39666370403993806,-0.04860591860037421,0.019342556741613975,0.0432441144714517,-0.09757495970975015
12.697099999999999,-43.29327000000001,8.87392,12.36206,4.225,-2.2071600000000005,-43.91658000000001,-24.68421,4.6943399999999995,58.70501,-2.7399899999999997,5.59151,-21.02772,33.329029999999996,-5.377689999999999,2.2958,-0.6488499999999999,0.3568,64.9493,29.45515,1.4204500000000002,-33.10966,-24.764419999999998,1.5999,6.590379999999999,-2.4054,0.30245,2.5711000000000004,-4.651869999999999,0.82289,-1.6140699999999997,-1.79058,0.45618999999999993,0.8724199999999998,0.34275999999999995,0.09341,-0.033699999999999994,-0.17869,0.11728,0.06576999999999998,-0.03326,-0.0051
10.18008410572301,-41.06379234167717,8.939348961258831,11.981133933315057,1.2614945296802538,-1.7084719072935306,-42.2390485005097,-25.544218145150328,5.667901947042576,57.59861363341872,-9.243169005988435,3.0113705659367818,-19.2348259657957,29.892575819506387,-4.4621966460824565,-0.720614029170483,0.7500010389512881,0.4666497462901423,62.76690004240985,15.149270013627556,-1.0779438347229804,-40.047331063091015,-30.190667319348456,0.47854965727018794,5.641297813648589,-1.6186036928933896,1.1105253908177983,2.9969885602659803,-5.037181675545763,0.6629889003065353,-2.2330536821835905,-1.2009828637374702,0.9827123762924143,1.5484663964275802,0.01712465028189369,0.771995207147679,-0.22554266693475705,-0.06276406698142309,0.1800253918212834,0.22950563935346124,-0.1602426102804024,0.16829092060296924
6.891845099076831,-37.286876523227,8.921779771897407,5.9218940236288224,0.07010304272675226,-0.8953753845513848,-41.43163142756191,-27.964937305260456,8.105841694076242,52.54167786332296,-13.091624668150512,1.9695782367576071,-17.252230255607618,25.854417194690992,-3.586489805397839,-8.582085693951411,4.549398901083657,0.611750598718038,56.00431360273911,1.9257409037947961,-1.6723884150608337,-32.61815319320922,-34.910520570160045,-0.06580665519014467,4.24297555498374,-1.086349818670243,1.1042927236253806,4.356757438696619,-6.569333601425318,0.8964253996723691,-1.2289550585994637,-1.380991772408789,-0.18046971332723952,2.1852726834023213,0.2713108178316264,0.8072272875583216,-0.1710632692096668,-0.11082245513261656,0.010907214575503803,0.34154331690166356,-0.15011273621363178,0.1744148970001565
3.9073840264277546,-30.2286029759766,7.569406082731157,-2.780247758298305,3.7131293055840415,-0.16710714262605805,-37.73415084943517,-20.4639487356612,5.98738592324008,36.09540067551267,-4.388242225410125,6.392306265820635,-15.01926193494577,21.82020128782908,-2.764431283238564,-23.25560090365974,12.825347770076222,1.0620734768152245,37.428999970826474,11.406666221153223,-0.17254701379772341,1.1171410868612033,-23.746818696744334,0.6025172229963719,4.585989572927287,-1.6304959039943705,0.10508154788179032,3.914527443913717,-6.39444177805542,0.3006617403840009,0.02129941639587156,-2.0061438431096836,-1.1373308260953678,1.5231167135735348,0.7124884960019762,-0.0008512163117239957,0.0659459597386929,-0.2648758178094765,-0.1326177047910769,0.09970047793740831,0.0865801865201698,-0.08117151529157612
3.422250158356708,-23.396598293046495,5.936397996138396,-11.445256135273047,7.92689180834269,0.18854177027712332,-27.90962593914012,-12.839103964435003,2.5330363024201525,4.852203479055209,16.896675424853324,9.33110211614369,-12.45961798488251,17.953440080659757,-1.7945757377057772,-42.930443453702736,23.6213140316116,1.8417846509779818,-2.0798134856833377,26.748117119567006,1.339569195945922,12.301801652674444,-3.463238813287818,6.629580693966046,5.261815043997708,-2.0373262129075114,-0.3655410275011857,2.7534185297623406,-5.9776359209366,-0.9111369872958077,-0.3831981027392334,-1.8747114226663102,-0.5721450370685579,0.9688896664360559,1.1342075225098236,-0.29498574436734176,0.030364182383240648,-0.30341547477865266,-0.07871362253123307,-0.023349854889384174,0.19696383914840476,-0.10302311781111516
3.0488169924004955,-17.69871175821804,5.1481968251368135,-18.247227133167215,9.400764836881597,0.1453655774517545,-25.951262627095655,-9.035448921164692,1.8377411779535624,-20.78499197771773,35.91773014877116,8.432619292769964,-9.591254374275502,14.392582386240953,-0.8132246936871477,-58.85313090265745,31.856885769003675,2.453240413491999,-49.25297754202904,33.33005696074871,-0.6952723763569516,6.513327048984853,-5.529563356688579,2.381910088502895,5.184663449099415,-1.606149854912855,0.1291751340099023,3.062190966762146,-7.157943513426934,-1.73803113698517,-1.073479470144696,-1.4439562303584892,0.11632659211932354,1.9420784141310221,1.0673516146447406,0.21785434337701143,-0.07025994099224843,-0.22698087755665391,-0.004643110735228726,0.27487800370917076,0.01802423672982819,0.1059404341001793
3.7581693906101497,-13.27156219526967,4.51319570717093,-17.284789894140786,8.421218175840519,0.00036736583487662067,-24.47611945006319,-4.680478133858972,2.516695189726553,-27.11061767510491,40.65287974082773,7.511690672869258,-6.7911127901447905,11.343272651428236,-0.05601339187158763,-66.58452326745076,36.043105799285684,2.890624220279894,-70.25094604018697,31.657079808535396,-3.0809583892929524,4.1021323144020565,-18.50257557335851,-5.051481859777148,4.405948059808994,-1.1093269039687508,0.28472458108606935,3.223897492349004,-7.4206713744548285,-1.3891114390174972,-0.8900151406092296,-1.2014328232962552,0.12010099608525976,1.8678502538727773,0.8025286059614172,0.1115624989790221,-0.1153568505088502,-0.144030470759915,0.04312520946010767,0.2505943121662043,-0.06759449707638295,0.08020362364561426
6.13051,-10.57421,3.5728399999999993,-10.98688,9.54121,0.74208,-14.867159999999995,-5.024749999999999,2.1668999999999996,-24.289639999999995,40.22415,8.73053,-4.515959999999999,8.79733,0.47353,-68.90484999999998,38.28069,4.141020000000001,-68.27003,20.27008,-0.81982,16.055319999999995,-21.2883,-3.2366900000000003,4.76928,-1.64887,-0.75249,2.35451,-5.11734,-0.4895800000000001,0.05993999999999997,-1.3573199999999999,-0.42018,1.1068899999999997,0.26046,0.01327,0.03844,-0.07622000000000001,0.0028299999999999996,0.07363,-0.04036,-0.01338
8.013052567244934,-8.974878131015519,2.834565302905653,-3.7539151375982147,12.623034014944698,2.218567400849496,-3.9025088882539922,-8.1681584910078,2.3267017697314967,-19.789369897707616,38.5551733620483,8.248191758031286,-2.8722139720227147,6.645528007765027,0.8397069704957194,-68.81080429499416,39.74565591538595,6.243141227674763,-59.518178461614134,5.192903406122588,1.7228213602965943,42.055338747782166,-16.803050078718844,1.4208213885755527,5.555764096740275,-2.2061045620177233,-1.2039075113956825,2.3487047734276274,-5.057819867069596,-1.6802305125338528,0.6858122311252794,-1.6066648550075255,-0.5567588456974005,2.0281594477931644,0.4638657047543867,-0.07451158360173633,0.1904880920977086,-0.05928094299869797,0.01295312100789213,0.1865573914518387,0.03157357036457715,-0.09407900044116024
6.686847754221551,-7.457248377535589,2.6201523323273483,1.3261970034870505,18.893650570121924,3.681745556959853,-2.276570867921234,-6.815894885618992,2.841002330325533,-15.814857822953114,43.42412189743013,8.18395261072261,-1.9576180530932168,5.106283645784552,0.9561206168090403,-68.06471133880873,40.19574071647092,8.18857733879098,-57.784818299667705,6.823333996558581,2.126375114582052,56.40829476581669,-15.075937276816937,2.5319020258783764,4.563098177385777,-1.472845403724627,-0.7152537935958777,2.9454405355140016,-6.845387620771298,-2.6231033359927456,0.6395070385547684,-1.444259255553771,-0.6238372533414162,2.7532871706226305,0.8721915650513382,-0.2307926883118659,0.1450716066555812,-0.09404033426009036,-0.034454561573154206,0.2765943432309562,0.04992942715836708,-0.09987531768053795
4.544049499621984,-6.138670844771451,2.2787463213325667,3.4364497722014082,26.859972477912027,4.88854375203117,-2.683891700762284,-6.056960015753612,1.391012479125251,-12.652127767213317,56.69263950008546,10.963241837482117,-1.5968238096461569,4.253434541399491,0.8631961730137737,-67.59284208795428,39.40745054949801,9.370618886268558,-56.5341500984461,18.894944827413838,3.552919337366377,52.385766055231514,-19.875433453182097,-2.13025083196091,4.069431183191316,-0.2910321475878919,-0.1758241535563539,3.384143880265254,-6.9823446918619965,-1.786900797405884,0.7832116592291376,-1.361334639168833,-1.0805778198387976,2.8728542819967964,0.6137467504565957,0.19276620863753713,0.13706574224877127,-0.11355245090527724,-0.17353043352732478,0.34689616762455,-0.06335885230675235,0.06135548776008042
4.000865742520205,-5.168753676367775,1.722448817822374,2.1970643865388477,30.459237190220005,5.541778933147465,1.3034018071010858,-5.381105338666351,-0.2647844703208009,-6.309922521766786,65.58571558939285,13.62942943398701,-1.4784526068047177,3.9452254180404407,0.7423239300346411,-67.66922367487469,37.715949091166124,9.533636005486605,-43.30818660060539,26.853375196341005,4.342793206675656,40.99843266904738,-21.70674924233372,-7.700620752221343,3.9042913867316096,-0.5435544909557515,-0.9403550081137827,3.582705694206168,-6.58189363799017,-1.211316237960515,1.1290677220342895,-1.180244175788902,-1.3404866551743513,2.8368319900618815,0.4391958382063936,0.3794025294570709,0.21891960626411186,-0.06347467306782971,-0.2508628162760068,0.3314730161719384,-0.11069304713673998,0.12450455210430002
3.042159036733495,-3.6907609934102075,1.438207540834729,-3.7425024261561934,28.999596634890597,5.862133248701984,-0.5191305570819061,-1.7677118765141597,-0.16522442913404373,-9.717323436172295,66.99958961718289,14.671480487803096,-1.543743195958795,3.9489546038017043,0.6072269510033524,-67.5708099651436,35.81394339344035,9.03078278063772,-50.97706092051985,28.467466386952893,4.617333301897653,44.21678127121406,-20.927429889432858,-6.213704153801507,2.7291657457934377,-1.445742812407912,-1.0569855995536719,3.892728019566473,-6.574192261303882,-0.8710373542661375,1.128298939477329,-1.4767667356734426,-0.9972056177537623,2.258028788605791,0.32970723599848667,-0.03840313445745253,0.15184243713538415,-0.11760965593982435,-0.0944864049689556,0.1480849801629564,-0.06714979688364574,-0.022467319314228937
0.6098153921829069,-2.6641797998676955,1.6756468004783227,-9.749132655378022,26.61930917211287,5.979452292184299,-7.271807799971345,-3.209426733571026,1.8358552234879868,-21.674227867559615,66.31721302959072,14.003281050455493,-1.602370206093219,3.819274396286177,0.3664330306356175,-65.8770877536852,33.90461965166425,8.506388155889947,-76.20542770503818,23.060915176313177,7.367269016040485,57.52283089393915,-17.564367763061167,-6.591620286112918,4.095369093747793,-2.346912131078492,-1.0142829995070326,3.5361800374011745,-5.890016084081916,-0.608872810233932,0.9218235635048887,-1.6403979363976138,-0.25893115703497116,1.7508629637871316,0.09447721140150744,-0.20064752002731345,0.11799951886910562,-0.10623241528380245,0.10691459560093361,0.07893154061807715,-0.05835703798875865,-0.10129531340881014
-0.27842,-1.5568999999999997,1.56327,-10.50462,24.83638,5.83716,-6.051489999999999,-4.36978,3.43552,-27.52104,63.755630000000004,12.537459999999998,-1.42202,3.5020899999999995,0.21809999999999996,-62.26901999999998,32.095710000000004,8.13699,-82.00941,18.57916,9.79243,55.65269,-13.418849999999999,-10.68397,6.28958,-2.38134,-1.25109,2.3940000000000006,-4.671319999999999,-1.3265299999999998,0.6955700000000002,-1.5022700000000002,-0.16453000000000004,2.54722,0.25411999999999996,0.16743,0.22882000000000002,-0.1103,-0.0045200000000000014,0.3194600000000001,-0.08055,0.026570000000000003
-0.0339261367969253,-1.2118787102848814,1.0307571296662559,-7.532601400985083,22.941505507833412,5.654784826706634,-0.5119079035467511,-3.1590112833027013,0.7257011615337445,-23.593163220827044,58.90597378693524,12.69738305631102,-1.1937247059600555,3.210334188951002,0.23537331906915945,-56.88578070386052,30.184328822962982,7.7918534528401775,-67.30460253908083,17.12327050488282,7.962303760334715,50.44641394302679,-20.719375005495948,-5.661306310471887,5.534268759293378,0.23166601665579412,0.8465070287337273,2.4656103763544968,-4.464038957783103,-1.635629557073627,0.5433853892385793,-2.068786072656977,-0.43036067336067124,3.255792147774021,0.5070793371251197,0.3292881551346041,0.23258536911042776,-0.2016677224656455,-0.13637445160396777,0.4260818970900428,-0.07281390754301907,0.09795870199904896
0.3892108136997455,-1.0451636184797561,0.8161720681506487,-6.142087629672349,21.353741515018655,5.140166103604109,-1.5228158157655984,-1.65698249620981,-0.2735379671777784,-21.696398669944394,56.492076950793965,12.183549350241822,-1.0509108266844676,2.9468160890470245,0.2980338161476262,-49.74418603055942,26.86716938353818,7.061669648396198,-62.45604384783957,19.495605250701388,5.418228987727051,50.153405140143825,-27.49684519699591,1.2076626429604544,3.9641880709413098,1.3358236709987483,1.7709596380042956,2.632359030639871,-4.518574425842723,-2.099926420505182,0.9785962097359303,-2.7042249468558808,-0.712560374339989,3.426969007443537,0.7613252898938823,-0.10903470182232718,0.19118634723461686,-0.29315551446620564,-0.10985771268538708,0.4018671656391011,0.042734759822237185,-0.06177188215998008
0.7818362039717396,-0.14231723902403653,0.6682624772345455,-6.3239313785073445,21.328859685792924,4.458369309315182,-4.452751905960651,-0.27139055356557706,0.4286421974223846,-23.666761209858798,60.16033078784154,12.005231015590542,-1.0100966405238923,2.957594597334267,0.3029124827701223,-42.71108681624459,22.981643850189577,6.039869236304792,-65.10025457875369,27.57150841106561,5.060638084481708,52.61715461310932,-27.064811570383267,-4.68706262414826,2.574346967328395,-2.2438723058426064,-1.4290747291318655,2.5903548130596223,-4.552284278174878,-1.6854318713889491,1.7099922914729184,-2.0268035235369943,-1.2038522372264644,2.871636748429578,0.5202280720552246,-0.17211939424428999,0.27480372540622866,-0.2655088038341144,-0.14862202194740093,0.283115254739138,0.036725952491562006,-0.10499135611822963
-0.010286384191018258,0.3738897080539322,0.5775182021644237,-4.748856928579745,20.80446204837188,4.075133260407857,-9.395679357085537,3.1497329109500876,0.11638025769027989,-24.31883544382753,61.270546835447256,11.394659029816973,-1.0762284988181934,3.2377471944210443,0.11184500853801699,-38.29439448085363,20.49886221766325,5.512065681275529,-73.25462497305149,32.074302441465704,2.619406508271519,53.176502095184425,-27.763285666200883,-10.1364635954095,2.2165597465565217,-4.9512992178192965,-3.1363761849055263,3.2892933013538883,-4.333353147234622,0.023552998785950283,1.6340157620761988,-1.4730453983441467,-1.0084125964949986,2.1523881166770704,-0.13398241947986395,0.42493100542064494,0.2604605150958293,-0.25103160332524715,-0.082957507037949,0.18655931960532152,-0.14274718971753955,0.08268831392203432
0.9147698954148125,-0.8499010882177197,0.3128543060283472,-2.924095086035211,19.799916501671923,4.173276486845168,-6.002536187303734,1.5533385118940226,-1.5191461088393894,-28.99445998013433,57.41480675280758,10.416658224713903,-1.244080664340883,3.6776306820505704,-0.09145517459561546,-36.48014767688597,19.681556453407755,5.537746377523095,-74.90502070573135,24.57496556641698,3.7367643252018983,55.09133727116976,-20.038448791241276,-6.922797082781888,4.939716962677562,-2.514939517328062,-0.9949137962431518,3.579694963292598,-3.9445804468828345,0.2778376490504243,1.071957527730535,-2.085544100836792,-0.3290350637668101,2.228695908475016,-0.027317829833517944,0.5498206146128255,0.20634515376999746,-0.2184818100181759,-0.026768459192334067,0.2266796693662223,-0.15405685662710883,0.15328410845080295
2.4941844467635685,-3.1867784636796577,0.43583184027964195,-1.8633325497916537,19.153796312576116,4.2325894249841305,-0.9212188237931923,-5.081923555905838,-0.37559459033381115,-32.54572866538052,58.392021176535906,10.874105034984026,-1.5012976778787988,3.9358871629470307,-0.2540417924848175,-35.636957740473996,19.319434684837475,5.561942621192505,-71.24444320938323,19.38836439402202,9.870971228678608,59.27170468643278,-11.82392997828926,-3.90270280773235,6.0500624751069365,-0.42821211773258894,0.23045180654054356,3.385505788308156,-3.9924345800914667,-0.9710706283558947,1.241860044290111,-2.474242618398719,-0.22470504052640766,2.855434792441694,0.5028661062180344,-0.07875163841480233,0.24051219033781718,-0.21682302250244004,-0.021243921791510155,0.292528988549586,0.030928658161314522,-0.08122953663824556
2.43865,-4.21919,0.68828,0.03289999999999996,17.741859999999996,3.9334799999999994,-4.631079999999999,-4.04566,1.2226499999999998,-25.2501,60.821939999999984,12.65661,-1.70277,4.09498,-0.42432999999999993,-34.77382999999999,18.7257,5.31717,-66.93152,25.50559,10.89382,67.50121,-12.601569999999999,-2.7918599999999993,3.9197899999999994,-0.9988800000000001,-0.24049999999999994,3.2857999999999996,-3.76515,-1.1586700000000003,1.3980700000000001,-2.03888,-0.38708000000000004,3.2876699999999994,0.51758,-0.027610000000000003,0.22128999999999996,-0.23511,0.0032899999999999982,0.41474,0.013180000000000004,-0.07670000000000002
1.6468327827013005,-5.36140515836184,0.7490298910284832,-1.3189947743753045,15.624350356532041,3.661685152102139,-8.278354800069907,-2.1130351617419767,0.2663141020052277,-22.86406109554391,55.51076048893667,11.970061569098904,-2.0112274776241814,4.437277804994406,-0.6191274834056364,-33.36323138683762,18.182222136967688,5.043482282930034,-67.24191039267313,23.67762129696113,5.9003801719122695,71.35839948780004,-16.418918694352538,-3.99491920650658,2.7130471650985513,-1.6108980929245562,-0.249109984280535,3.121333534249336,-3.8625567062537756,-0.9942101566145851,1.4624071857408292,-2.0611979277336587,-0.3340219871409381,3.1805492336324255,0.3993491953620086,0.19516223852372983,0.286375281456357,-0.2741868896230498,-0.00014184694340778575,0.43265528916011287,-0.08342041143325281,0.0413713954015481
1.071512184954409,-7.1049542447046266,0.939512815187487,-4.235015925604836,12.927903433076311,3.5723167892144545,-8.407643597441796,-3.4799207551937106,0.23966347536876964,-27.8565691670889,44.39642847183132,9.226219875431827,-2.5356678159534707,5.092836874329347,-0.8408581858905538,-31.34980961061607,17.34999735897828,4.9063775806683845,-68.15049217058485,13.908517779722636,1.5560328790631996,64.28097453446989,-13.652340299486923,-6.603660375701185,2.695657237217977,-0.9384369527188833,-0.19594790134352072,2.5762259531692595,-3.8439831772303106,-0.9215765991512034,1.784888268902695,-2.1188959697893712,-0.6286322028356415,3.031177699492232,0.21449854207071786,0.40968732456225215,0.34048497707806646,-0.23577579407366844,-0.09108478354454443,0.38463012655993967,-0.09936747347880186,0.07474982596567693
0.7513084990798842,-8.211958864379106,1.1379043501634534,-4.445570628924734,12.058414058439483,3.6270634288983024,-8.266899233182881,-4.036494720472469,1.1717920306569463,-30.81875154910604,40.21248032013548,8.050418104668019,-3.31406891108687,6.37345458104544,-1.067148610010737,-29.68777521148823,16.233796465320356,4.935853209427659,-65.94044951220513,13.017017616271163,2.296880204519148,52.827424325597406,-9.753602468973817,-7.857268226931325,4.169141134255465,-1.6329490515221852,-1.0518808726354771,2.259601777434017,-4.2243506121157015,-1.326108758623925,1.603925602119904,-1.553121437207582,-0.6724340709821987,2.8350815164563654,0.492978871208864,0.24232617201920928,0.2194269491240282,-0.10574553468409056,-0.0899300382809824,0.2543325193780731,-0.021730403233632727,0.04777633809023185
1.2707233093910808,-10.236122285006047,1.3345430922362198,-2.6789723115169113,12.339169475363803,3.8185688722280138,-10.92952114834167,-6.390874468632988,0.7959257850335096,-29.17448736734229,43.26227759018881,9.412315655066383,-4.045376252419607,7.829696382894699,-1.195312391686586,-28.351788168407225,15.065449877589018,5.101023147829941,-65.37785077823175,17.979769964014935,5.2819325749522825,50.88509800630653,-3.8036127469312833,-9.038630297549641,6.61262329492252,-3.2214012091820563,-1.7427777214619642,3.3133514962298705,-4.888022609002145,-2.007100887121487,1.3888616843734853,-1.4629963234642294,-0.4509057027904495,2.8349695234448387,1.275555222727401,-0.5770103266048032,0.21313145252753718,-0.07257227556960082,-0.0884055410209878,0.2244743419253767,0.1215544804058101,-0.08971636835077924
1.9678379314674173,-11.822603665800752,1.4305574153804697,-2.451753756201828,11.38304589494267,4.004501605702431,-12.503353508532593,-10.221564512913197,0.3879139055386563,-26.557265574558066,42.74783306694431,11.178021661751648,-4.633188870262563,9.021080469096074,-1.2513075323237115,-26.820749060721496,13.881885247951365,5.151533983747509,-60.444525633102835,17.577788651002898,7.430018552880784,56.905906989855154,-7.332688846077189,-3.50875583917296,5.730594954872424,-1.1986907429745668,-0.36265897492240495,4.534498911909972,-3.833572912740526,-1.0992222672476668,1.5876027707060891,-2.1268254095566936,-0.2587457552495701,2.9324728803525226,1.0896008178078025,-0.5822038173971327,0.2554632810904626,-0.09915188702236631,-0.08792016906844473,0.3295385622884658,0.10536110098489883,-0.13466601634226977
1.9186175473898543,-12.087517360817301,1.5373259227002276,-3.3158028600609866,10.142754183883126,3.9578351289270945,-14.63686528063678,-11.896196716382338,0.7059287142839898,-25.559798408723402,38.45806523294087,10.50348778215404,-5.166691149776986,10.06724370456688,-1.2168331035046416,-25.034572002509154,12.746421759121336,5.053872463882824,-56.91002506820304,16.03821006584526,5.791366816849966,60.283400076012825,-19.741727409355562,-0.12188226439505279,4.630062601836711,0.2532056136880855,0.571226527395661,3.220734958691692,-2.695943368523457,-0.3646494754250118,1.6498201494929268,-2.50723781048088,-0.08517170603224969,2.9816381670652063,0.24718678255805046,0.28443545403973325,0.32659225386468027,-0.18853719379582637,-0.07266734600421443,0.36555283433168684,-0.017527745172500532,-0.02590117096525718
1.43847,-13.208480000000002,1.84493,-3.9619200000000006,9.06968,3.8343800000000003,-15.604550000000003,-12.613859999999999,0.5754999999999999,-24.263559999999995,34.84615,9.457979999999997,-5.789429999999999,11.129269999999998,-1.04312,-23.13019,11.737279999999998,4.92931,-51.936539999999994,17.421969999999998,3.3474200000000005,53.84033999999999,-18.02268000000001,-3.519999999999999,4.790150000000001,-1.08673,-0.20914,2.4985799999999996,-2.30376,-0.32779,1.2333800000000001,-1.77889,-0.07032999999999999,2.5928399999999994,0.15312999999999996,0.3775299999999999,0.3040800000000001,-0.19896999999999998,-0.05446,0.27793000000000007,-0.04290000000000001,0.015869999999999995
0.5494838348201491,-14.769512461967855,2.5061368121909924,-4.6554955289310405,6.319010578291869,3.5727210224998793,-17.016750269882667,-13.860470585342494,2.108221637337092,-24.42744452373938,26.212388748181727,7.127426762082466,-6.444449731102776,12.443981554601876,-0.8295767014400559,-21.0549765670501,10.775031172166674,4.766642832721429,-49.15015003768199,11.829709610690285,1.9622076871276604,42.11636518449861,-11.333471391513127,-4.927039060493194,3.427526385470849,-1.0408421195007986,-0.3698722805520736,3.277844612623982,-2.60628815118325,-0.3495428570077868,1.3392474154768217,-1.410080370326935,-0.22590771869465542,2.608543628658774,0.5429153234237853,0.19263155199331164,0.19628831199225538,-0.1291613831816752,-0.0008149253774505069,0.3289690381849022,-0.024679241070716555,0.0684162978034852
-0.2908747922659737,-15.650104616800256,3.0425743294564254,-4.991949510081403,3.5364465141340027,3.3360657591402054,-20.306188506638932,-17.255420627349494,3.445226553128877,-23.765741203849174,19.022049779734935,6.441077287599385,-7.043327768360933,14.267158061548992,-0.6728160983525591,-19.1294684886373,9.960169253985221,4.5373948273684475,-48.53318362244272,4.547833423718326,3.6451234245261572,39.389985670633976,-4.793682732891615,-3.6721626290080414,3.7999351867307047,-0.41719393385828624,0.02644648890632117,3.793821861485984,-4.089246266578677,-0.7902918555194957,1.7464680915979454,-1.8107219554216354,-0.15981988734306382,2.6383910245145206,0.8358425413414998,-0.11443705479318605,0.24301107193237348,-0.10315065438146517,0.009938390625543548,0.29965050702577134,0.05436629214284423,-0.004659319900211325
-0.3745577604944722,-17.26195412394706,3.408721133410547,-6.812168169061005,2.4730337119631582,3.087925232561465,-21.556733060718933,-22.578435811278258,3.478040632844316,-24.615746831858907,19.019976617026835,6.8975281894704565,-7.74880382403155,16.356239350965062,-0.513701813917371,-17.62075854346375,9.199906077687267,4.181876793097654,-46.78419731874244,3.6175556923238648,5.626791767706607,46.87647224099448,0.6241777077530986,1.2121254066506508,5.083124918065055,-0.8899029394533338,-0.14000673477766584,4.842925679911411,-6.192193664082475,-1.2781833507597888,1.8170620105619617,-2.0169237110890763,-0.1748107598394958,2.2427024763025156,1.2075882675477645,-0.7862923888550821,0.33572119470039874,-0.1020990620621286,-0.07927113064211419,0.18618580302934506,0.1355440066779525,-0.14546239276009995
-0.30090905387904443,-18.72428452408824,3.4912967806531365,-8.866954255551814,1.8776199350959704,2.763464464684698,-24.570564985833027,-25.673107603338043,2.7978906695627037,-25.869325411716172,16.134480703411338,5.326180862204591,-8.78067572510959,18.33121832522943,-0.4410275706150106,-16.730018873238393,8.386285203990111,3.805637786778862,-46.69904779274805,4.439578308361163,2.1096558118715203,42.518129049988495,-4.0459512652237235,0.44752863610530785,4.168991772960857,-1.4724684536505193,-0.0758528853811613,5.002861148634521,-4.802795492791939,-0.6784319888706032,1.9879254313937407,-2.3091911824187212,-0.1462592824503173,2.3629163456922857,1.0521199989416474,-0.5215505812443407,0.3649489904396555,-0.22290059538210522,-0.014204277612705667,0.24697656042717156,0.08015882988655441,-0.07234030926738506
-0.33330055541124304,-18.897656235068087,3.379604044558977,-8.351994912322802,1.6684151212078886,2.497180423622854,-25.752278013799373,-22.459849533966814,3.325120125260664,-17.577143610464656,12.101492766939252,4.308848022718245,-9.752844232242188,19.832346445224115,-0.4533666818050332,-16.39275927566184,7.754033656974828,3.588800773017933,-32.08958057522647,11.824805689734875,-1.2833810902250202,32.48009956553782,-8.165626146661225,-6.813540869715071,4.620452699560971,-1.345752944447469,0.25269719336715485,4.095547426914413,-2.4233787854370896,0.013286205108459778,1.6181326493372277,-2.3520706520908967,0.23866229128910457,2.775392733667018,0.556780637981001,0.18049679027107707,0.30523864159115416,-0.27699876297651216,0.0819413836252258,0.3196355464747679,-0.0062555162299052815,0.02933959432735961
-0.868046989067278,-19.821059316586343,3.448502358828531,-9.080635292764791,0.647266177994418,2.398400046090083,-22.591481760700304,-24.06520647952841,4.156772347679953,-14.244381880908989,7.248645970298903,4.17298929260974,-10.297339075834634,20.80631214419123,-0.40974687820553224,-16.518388887120732,7.408273676724608,3.4347336182130133,-20.131109153605315,8.905954408057877,1.0387542448786642,32.45236053044698,-1.5168378005439649,-4.565983912882413,5.527670662395288,-0.31375431874418674,0.5830546483285419,5.230147846972451,-2.6252339035412584,0.38618905344194,0.957139497594737,-2.203872626355018,0.4909552627459176,2.791329377719441,0.5135043085206015,-0.02047822693770396,0.1751225461815112,-0.22835279056101906,0.06383408689394686,0.3865360706571069,0.0030856268532108927,-0.05328304350582955
-2.0588099999999994,-22.028749999999995,3.6234699999999997,-12.44564,0.677,2.53381,-23.748229999999996,-34.12291,3.9408099999999995,-21.1379,4.0616699999999994,3.42096,-10.659400000000002,21.43023,-0.33251,-17.080579999999998,7.330409999999999,3.353349999999999,-26.52067,-3.17872,3.38241,29.696149999999996,3.0514199999999994,0.7696900000000001,4.92257,-0.45231000000000005,0.42749000000000004,4.9159999999999995,-4.42929,-0.4817299999999999,0.88451,-2.20975,0.3501500000000001,2.44475,0.78887,-0.36053999999999997,0.13101999999999997,-0.23345000000000005,0.02734,0.29586999999999997,0.01303,-0.06122
-4.400266541268071,-22.635916232056488,3.7228208746156204,-13.712566103947106,1.932593519373927,2.551426242910556,-29.87035445326375,-35.83768745604563,4.232883776837456,-20.215357594641404,5.351715601046574,2.98393484935904,-11.050597554302101,21.805676668275265,-0.32993560988062237,-17.709078579514994,7.296748194407584,3.3225980749322934,-27.542695138414924,2.112674391780016,1.932187898283127,25.369659383541723,-4.496748558422479,0.16154341702755926,4.126675974710202,-1.9885438145427767,-0.6830830966981547,4.333732489843654,-4.337787019052278,-0.19073290253531755,1.458212947121522,-1.6925503035333704,-0.2814914346149318,1.920358597218234,0.7488474517006191,-0.01073226884280781,0.23135069352968304,-0.138733969663961,-0.06766578469798716,0.14275097244614215,-0.014855743302844589,0.08868827415107354
-7.033541108867496,-23.296776821531328,3.830584470260607,-13.92751803031129,2.466216684655462,2.394546167098657,-34.39300196161034,-35.044447258909436,4.381184443530704,-16.137805877879348,7.65640111415984,3.95047871370668,-11.403429129631906,21.90995035221372,-0.30353498936965395,-18.356468119343393,7.380587330001376,3.15793695842246,-24.45667613112383,10.815750868008722,1.808544309461687,28.708355425491053,-16.22259463071363,0.004123407661916021,4.10248880084423,-1.7363951380922844,-0.7329450957770105,5.665779843758998,-2.948288795114583,1.2231380064378423,1.5500459805282019,-1.5764742385113482,-0.3757146837469497,1.974657829031726,0.37705117199468896,0.26321955378062023,0.2442385702448678,-0.08623174026756802,-0.09921752609798862,0.23228696577377828,-0.02896294828273631,0.07238304831499431
-8.173299163725096,-26.008436121426787,3.8085701878279927,-15.983400907754806,1.9104604202398923,2.163609153621222,-33.28259986906924,-41.35466861346713,3.791903806648221,-17.5682503434889,3.8253875963125474,2.91878394921092,-11.549025321721917,21.51620701703919,-0.27770606473120585,-18.906882484505736,7.591020149218258,2.9036592162533994,-23.891996783051425,3.321704863352145,1.0353448063261232,27.701707842449544,-9.34152298161681,0.6629430305961433,4.36804462779611,-0.6388284955336441,0.26542726028976826,5.49724570276829,-3.250705279189731,0.8221299990874357,1.351055609950959,-2.065447884952464,0.17519638043517413,2.3423245485753386,0.36597059055461756,0.2404838751729864,0.2707668410679783,-0.1828468582605829,-0.00840453776195045,0.2926665309696899,-0.03226947125649457,0.03749954104982927
-8.930070009103146,-28.176617394279706,3.74505744645357,-17.90782224682607,1.960313349355262,1.94881823515963,-31.163196765807534,-44.551253480247425,3.6776256955133877,-19.401209719929223,0.4668132023216928,1.4357110422831034,-11.243962960666567,20.788412582908148,-0.25025438552349344,-19.368394534806473,7.784302774777509,2.642635985146049,-22.508409170201265,-1.2153676368238027,0.488279776319729,25.529390833949336,6.4431933681276,-0.9182135423192145,5.170882354420328,-0.2667294948039701,1.0525677469683126,5.396420670520632,-3.3099786471850763,0.4786947162542146,1.373681699032835,-2.548078944135468,0.7938718519385535,2.29733421780229,0.5122257626351531,0.07906654003961013,0.31281495904004936,-0.2758795307349748,0.15663021387010453,0.24561324412005442,-0.026431893937148173,0.02356785531399228
-11.26363099717355,-29.35198557631838,3.9342568133284312,-16.698105404583686,2.670159232206998,1.6125721199086702,-36.31581651879766,-44.44197082672242,4.3941360970209375,-12.514289754513369,4.087944784608413,2.7512916214518466,-10.565806798011751,19.808572454947136,-0.23404585711342948,-19.58827032280989,7.942025747646005,2.3464640271414936,-17.92964813603269,4.657466078588805,1.0982212481099303,26.34644164103665,5.301852074856454,-2.0983909813014066,5.185212264610371,-0.4129883116816197,0.6376151352008254,5.063498848186436,-3.6694741251279055,-0.07855285274820378,1.2082931108820367,-2.1893473253330535,0.6126394735753053,2.047101468808643,0.8727662185901148,-0.17283689413877246,0.18486405695528707,-0.2022968224197247,0.1459821408864553,0.21589399697744419,0.058228188163995095,-0.005243185203454815
-13.179534526480756,-29.904028054391897,4.041555770636475,-15.541778613135104,3.2825284968396033,1.1384915370739022,-41.83426593712424,-44.581373761785876,5.400019451780272,-8.69359858950868,8.09479626305595,3.7064748454839336,-10.06833860227668,18.593191122001343,-0.2756484817268597,-19.131717961217607,7.9617234936935795,1.8925689014919982,-17.23802835418691,11.586466115067983,2.399319233692567,30.022867821870992,-7.8281903476195325,-2.4324122507245245,3.834662246492262,-1.747309014068168,-0.8951737547247608,4.20963224898464,-4.432238137240075,-1.1997067427969312,1.0801422841041144,-1.3538579882982538,-0.365154068447141,2.2649709528221678,1.0935932111704025,-0.40836329938911586,0.14058073173672406,-0.14674572674456646,-0.08676677302270956,0.2724894411921804,0.08404303542660858,-0.05632304472909915
-13.978220000000002,-30.40594,3.8642399999999997,-15.669969999999998,3.01699,0.74227,-44.22834,-46.17766999999999,5.547799999999999,-11.201939999999999,5.16219,1.7101600000000001,-9.77272,17.54186,-0.39414,-17.966419999999996,7.61198,1.4405700000000001,-21.28112,7.47655,1.08396,24.54715,-12.032630000000001,-3.4272399999999994,4.17695,-1.27046,-1.2748300000000001,5.145479999999999,-3.9422699999999997,-0.32685,0.99408,-0.99644,-0.60152,2.37871,0.74933,-0.20992,0.14132,-0.12367,-0.14412999999999998,0.33687,0.028159999999999994,-0.05287000000000001
-14.744074574524431,-30.91584345356881,3.4891419233085053,-14.190855410405987,2.5727551257262937,0.5685230382820611,-43.87416947794674,-47.03954621664912,4.448558437756845,-10.73996633612773,2.7877407614430405,0.9414054867438014,-9.570003344022718,16.66525711876968,-0.5745256756311511,-16.153340581264125,6.993862392824952,1.1687637620450135,-20.554169537331582,3.1839814301607254,-0.0501925745006479,11.552604898820153,-7.766775575140699,-3.493085884922648,6.235953360872486,0.20242444984813457,-0.14832278249900668,6.309406690366276,-2.9130875370997957,1.1479572197964916,1.1466116669117943,-1.8210825767324939,0.10436072775198425,2.1456899516195196,0.5137939316149004,0.1232430953999759,0.22441351926289396,-0.204223305225711,-0.01360805097947118,0.3470839309514566,0.0262897112595712,0.007819181266185126
-14.659429651318202,-31.21510142772468,3.1171906179872835,-12.05115221651652,2.5334849651292655,0.4950759713670558,-42.81778869208259,-46.50425389516353,3.6882310896153876,-9.52083680930695,4.37260493719456,1.860227312887136,-9.49106340754034,16.06708035117275,-0.7058524214423724,-13.895264996479762,6.219775412155213,0.9609906103558459,-16.843235962254038,7.074091131592289,1.9996900026825444,10.385200105191576,-1.1225886415836215,-2.345850507614471,6.175771162054057,-0.6763477584933105,0.1807004230387783,4.9403013131304485,-2.7412602707044234,0.1159540412234413,1.6553888948964142,-2.340173657111325,0.3696296878096143,2.033756222227607,0.8242143637021415,-0.1032833895800624,0.28977529291577464,-0.20148118814599444,0.08516065855755553,0.23040459487202042,0.06307908776461177,-0.024822683142953907
-13.92860743616906,-30.78480493533628,2.5671313578376784,-11.189436485570463,1.6980561897724202,0.3669108946505446,-43.24996909032846,-41.740046305575845,2.8521744478877458,-9.344239353701017,2.3289243044995995,1.4433621243661183,-9.564168222679774,15.92325607528545,-0.9472226266486725,-11.42418934040006,5.253239186204227,0.6680722063899996,-13.499819184989029,13.784983568489741,0.5550297229314232,13.94913196209194,-7.652626682626153,2.33508447122992,3.8122889011422036,-1.2729907116433319,-0.2257570096197575,4.145000958999067,-2.8300227262430226,-0.5626560273840941,2.0686834812950683,-2.1441562179396447,-0.28198655886916085,2.1045790259748958,0.8288474281658958,-0.2099126741906716,0.29963829445813545,-0.14763506485969746,-0.011864179670455537,0.1751564980216775,0.021694125319965597,-0.04741706037431198
-13.265277262815323,-30.29502434651708,1.9381192913578509,-10.07780195733488,0.0249551668376802,0.1231604611064566,-45.64081924450516,-37.78342632755896,2.4997446983033136,-7.463316764618451,-2.3298555853556646,-0.7184326059038575,-9.651762363112551,15.71536295700553,-1.393564427031362,-8.52256152460855,3.8529999455146684,0.3787255206406555,-13.281764376559108,15.269128157191206,-2.317366537398335,9.90983968288564,-16.123591974583228,5.303382658247207,2.8404638047794903,-1.5340697968136154,-0.5425803773408382,5.547340633333085,-3.4251025460012063,0.421087947378569,1.1210825267885431,-1.5028859601235045,-0.26682051436568305,1.9853447833331674,0.5493128591156387,0.0500102331142888,0.19261915311801772,-0.15958551228645862,-0.06613065485679344,0.22746065703510676,-0.037122846717919065,0.027927715632396398
-12.180823893506272,-30.426024040532116,1.3206617083605596,-7.951657905331197,-0.6830895468582461,0.05070064415499423,-47.91175553376658,-38.4741631903583,2.2888214110989487,-5.566738874106714,-3.892547589131734,-2.1146649444784336,-9.700555712752827,15.408558419254872,-1.8672999493994982,-5.6395213575323755,2.322244603555095,0.2587438821835422,-16.290955429762537,12.998022719810896,-3.3849033779442017,11.873323133190588,-12.845858581981009,0.4211800840774647,3.614554467041214,-1.8401485991551234,-0.6740711868094328,5.423355938615686,-3.014052015352817,0.6320017029447598,0.4586739075352487,-1.0319089278741447,0.15097185431396373,1.8997345084591413,0.6061156226330432,0.18419968582654314,0.11793080635269114,-0.099173316307642,-0.012428879764010758,0.23867012469694068,0.017511263135896408,0.05341919264923661
-12.195118342668044,-30.951569098271708,0.871638993410335,-5.203421522332409,-0.36833000428826124,0.26612479283595913,-50.039148134018326,-39.6998540882176,1.7211265504681132,1.9269251291968577,-4.539260247692581,-1.4481163677243685,-9.639144295325254,15.200062303641717,-2.2989811086793006,-3.196316455525673,1.0515643182566516,0.31552700772890085,-9.28603014989162,11.87932223419974,-3.352929918128377,14.217046925039359,-12.88310409829578,-3.8769768928729675,5.370014690747232,-0.11260892135647096,-0.06308947954279312,4.3915073143801475,-2.670973611519368,-0.0756110711536971,0.7503025587531361,-1.297324727782721,0.3223920787448498,1.8316285163738744,0.6848796180479684,-0.043528729394009966,0.1849053784058559,-0.053953058314556435,0.002772962246484172,0.15068123356354926,0.044692856401290136,-0.02923290055050086
-13.664379999999998,-31.544380000000004,0.7552799999999998,-2.547999999999999,0.41622999999999993,0.5451,-52.29834,-37.79071,1.37496,9.9813,-4.400639999999999,0.18338999999999994,-9.36535,14.91691,-2.58113,-1.2937800000000002,0.19226,0.4024799999999999,0.2576,14.29298,-2.00143,11.0459,-9.45638,-0.6781,4.66108,0.34797,-0.12541,4.34294,-2.4858300000000004,0.012799999999999978,1.19646,-1.3569500000000003,-0.10411999999999999,1.64921,0.57081,-0.14983000000000002,0.17621000000000003,-0.05589000000000001,-0.033109999999999994,0.15038,0.032029999999999996,-0.06606000000000001
-14.661295927921756,-32.88508950488751,0.7342620853370173,-0.46044395166279223,0.20883212315353708,0.5027354010696278,-52.82216800723557,-36.97218318669335,1.1115823518692154,10.683750489965815,-3.710563030653979,0.6942912029082808,-8.973912234232397,14.178487599021114,-2.7257959499276976,-0.02884097994629313,-0.3062742119385905,0.36618662771292837,0.790246059776132,15.389344750532382,-1.1791718592498617,11.271411559460397,-5.577824922784045,4.755620155827439,3.886772649676082,-0.03124948873650284,0.028954340041279034,4.749625125369982,-2.6284788782974755,0.3129464394858463,1.1199395028932715,-1.7088162882703912,-0.0754076385691896,1.3554956233982987,0.6345398104570806,-0.1251647667720912,0.10448263116498892,-0.17276497425990986,0.014591883536674724,0.1287762346933347,0.03967592464655361,-0.019103111824466834
-15.121472705786239,-34.62376812043442,0.6985794790714418,1.1735291428356927,-0.7233939399377222,0.26694095087629843,-52.71074387002815,-37.60695911884035,0.7419873060351674,10.399286990187163,-4.092028090688421,0.29778111114610506,-8.426544165975596,12.853929523588514,-2.8224062187598364,0.5667097490184646,-0.5327458213071814,0.2865423257026731,-0.06083286863164343,16.020893570300263,-1.6544236883623136,9.47666646989797,-13.367356500279454,2.5282921386741233,5.818936626807989,-0.4984251289288323,0.4325436324947862,5.545902621265195,-3.229073331810326,0.27609640340702973,0.7462811744447614,-2.3214232069534324,0.5781183065377749,1.789300591362843,0.7676856629511567,-0.005897379707359891,0.13406320824306947,-0.30216160010525006,0.09956758567921156,0.23438046505649682,0.03120613607165997,0.035001354504638246
-14.98921762017027,-36.465991654966054,0.9262511131441078,1.728299250946239,-1.3781391696416547,0.08863723619289467,-52.25189704477236,-40.91466853247345,1.406786391797452,13.709817890609447,-4.929955971916065,-0.5061208823047545,-7.677749713386995,11.185287161029919,-2.753337662674965,0.5710495161874618,-0.6427184652156338,0.2971984656859253,4.907939321346284,12.994506092157204,-1.6295407224794551,12.16038875862287,-19.307951307082234,-1.7450820242247198,5.8512180062009955,-1.1155178053122985,0.14798729408120365,5.246943741892204,-3.1158659193620823,0.046223492334407146,0.6076007206472006,-2.237855362948581,0.5029669891531418,2.2268673068973737,0.6504436955866589,0.05638767584109532,0.1773637589041451,-0.3130875979406858,0.03640248538913201,0.29038218918924225,0.0358954408861303,-0.017161337622901195
-15.097975375423857,-37.751370223341695,1.27063970733799,0.5342753314236084,-0.900364373073094,0.21793233180676613,-53.578999029823876,-42.54780553825618,1.8941083046806007,14.208447606513147,-4.002684753506402,0.05334594064885859,-7.09485447045369,9.75573781362808,-2.593420924370608,0.22811233787490337,-0.5071439793357231,0.33991948446817044,4.017492534919651,11.616512462314613,-1.3697348842550803,16.901265370502077,-15.777275839914966,1.6096568759269376,3.161689355897389,-0.4648655478966678,0.3471599085950145,4.925181525784215,-3.021929373012361,0.21205955157669734,0.4555479741221664,-1.5709033943621995,0.3108694664267367,1.6596306487702568,0.5090980897335258,0.010762014433025012,0.05064588008842702,-0.18619185910589112,0.054874940005714884,0.17628624869060303,-0.01963804511244268,0.010085790402076019
-15.819190913713983,-38.64863561203196,1.7244129436587552,-0.07395910222286259,0.1829116341276549,0.5642861079257184,-56.81452021027785,-40.7333597950619,2.278680748408145,12.651710675689072,-2.7207841022785466,0.9883099750009521,-6.726584902873592,8.574384113818455,-2.4151500443956975,0.23062581663341097,-0.2908886939664514,0.49413406721332737,-3.813437955027561,14.495895580668162,0.1683159454659015,18.657432966890074,-11.505900026699324,4.545936929850915,2.884717079046242,-0.15265539256029395,0.23878430225205624,4.865566319472988,-3.0505361345749376,0.2188371219713794,1.0196289163677306,-1.269002318837668,0.06916876178206276,1.3676521637573773,0.5767558059582114,-0.027019408515810587,0.14989844643625608,-0.06484965871132746,0.02899799191761684,0.10998979497577212,-0.027009139520379838,0.03941612371259625
-15.50191469237561,-40.267143951275536,2.1965723144241625,0.2984552581882407,0.43386028563903145,0.8186032362138291,-58.02251060625356,-41.598299928885496,2.440019869485398,13.08078148544461,-4.334363366017627,0.8372394297124038,-6.82182669562558,7.982648482901989,-2.138010886773072,0.38050945592247376,-0.19621630383192507,0.6784017525241622,-4.189318748175003,11.747800344575682,0.7472641096191002,11.69599366876103,-12.996763829268916,-0.4926067593197331,5.422094489519475,-0.3108063861973844,-0.2624366741158312,4.7864337369096805,-2.9154905960376953,-0.38227679050906005,1.544483342997234,-1.443975706528802,-0.14127362891994294,1.7998828569110472,0.8861249083496606,-0.26391573223097387,0.2940586328211913,-0.04427831330108589,-0.0445944397822614,0.14448498224179893,0.08117255354500515,-0.07391452886407414
-12.893539999999998,-42.606410000000004,2.5384100000000003,0.24064000000000005,0.6845000000000001,0.8027100000000001,-58.61948,-42.933519999999994,2.5667999999999997,13.678150000000002,-4.27725,0.46589,-7.28619,8.03716,-1.7274300000000002,0.52793,-0.22854000000000002,0.65493,-2.2899099999999994,12.99892,-0.88399,9.47855,-15.319230000000001,-2.79295,6.30889,-0.18622,0.004339999999999976,5.83339,-3.1117099999999995,0.12474999999999999,1.29428,-1.8061499999999997,0.06977999999999998,1.7431299999999998,0.87589,-0.27657999999999994,0.19002,-0.09781999999999998,0.00839,0.15413,0.06731,-0.06035999999999999
-9.768643308169468,-45.191133161998266,2.994809492314061,-1.0375969017391242,1.4869100036772585,0.6353487264610561,-57.84799816967363,-44.49008469280585,4.361293682383927,11.91029616765023,-1.5917365745779901,-0.38435739975748806,-7.410309972077063,8.151830819038645,-1.385825819696927,0.30062650365751875,-0.2110793347513925,0.5142342416391462,-3.9426073274557054,14.637073830534833,-1.2870472581558157,12.417210248350187,-17.418911996139336,2.7205834736916166,3.983324202527487,0.20951302021632925,0.44177927138985446,6.025985427582753,-3.296975447859245,0.8177196628133809,0.7999541204226518,-1.7981908443846288,0.043491095916582775,1.4836700474827078,0.5404480699411907,0.07972730310958591,0.08860038080954981,-0.15451472412514847,-0.016853020393847513,0.14873038403446556,-0.028518273462025286,0.06528556632537795
-7.669267471384708,-46.95432622766488,3.242573967132443,-1.0875117656188527,1.1359560308820325,0.6036036234055357,-52.78726349493046,-44.99019856489859,4.3372906048987305,12.888894352293171,-3.7733221878298724,-0.497976789720559,-7.094180545296378,8.077818921369905,-1.138167819428322,-0.5515136669554301,0.19511377476780725,0.5186932504781323,4.984194727243233,11.863785822327607,-0.12210581913733837,8.558434688158298,-15.150741348519167,5.421575833880547,3.150665126733448,-0.3651023377927002,0.08403384271232699,5.710142506970605,-3.594081253101615,0.5905817928635767,0.786881903655553,-1.5260825801356677,-0.08636453242461546,1.5354845643046846,0.421700437771988,0.10159960046511653,0.13737522857568002,-0.18282648947856964,-0.0365645737788659,0.18827315699785988,-0.04086091174006697,0.0535698652756628
-4.796534534611143,-48.98014881606667,3.3244913512318455,-1.427299411983973,0.12956848050339173,0.39956830870616633,-48.300093135180795,-46.65846108489093,2.543753235174489,12.459284624872634,-3.8904781166402627,0.9801219839628345,-6.428676426696866,7.309423775664904,-0.7752790613181553,-2.0442323619805944,0.7621582702122311,0.4190662314426008,9.713630127239156,12.040122744435273,1.2922606577964737,6.735764430158243,-14.061503806509595,1.1299496279934114,4.928232739341407,-0.7866744405041711,0.005801747239189239,5.699195213265991,-3.741181761389413,-0.05457890319801334,0.8414141206702553,-1.6934295600111877,0.15901364497254833,1.9732992199409158,0.6321753158623531,-0.11115426660320434,0.15019084510099093,-0.18831669768210493,0.03630089572477069,0.2445954419910414,0.001112192651660755,-0.02394650742849269
-0.9068554592407317,-50.92088247009819,3.6016676865552086,-3.285674911221882,-0.2514539086431629,0.27908514340445084,-48.217499136775274,-49.231519389865134,2.5305331014990777,7.958849394953048,-2.4932255832423817,1.3909370127993281,-5.884084195442886,6.073825548030515,-0.3313903120760761,-4.162502100314008,1.487001628033271,0.4409277754998988,0.7182471888247696,9.881477634610286,0.44029301655570546,11.010779356628001,-10.268439556822797,-3.107099355677726,6.828102300389099,-1.0674013076663538,-0.0003788296844290073,5.223809990528881,-3.316950037549318,-0.3635022332436588,0.6435811500473421,-1.7462692172171506,0.4807379067787242,2.2985698262164957,0.7742256868193661,-0.07357029953620599,0.15861376433623448,-0.15283723962895976,0.07516043333524791,0.25393841753626595,0.03606245874343275,-0.02727488405867199
3.215903891682941,-53.36600601329005,4.131587823595821,-6.653941634959597,-0.14781337329787833,0.2690194079988557,-48.02328049693498,-49.2440423609477,4.9547572395434605,1.041976461959904,-4.063463267342414,-0.7574011561747107,-5.35142977762886,4.613177469461375,0.0929059495029431,-6.8832965250497296,2.4447119992216395,0.603042655604177,-9.819985721144672,6.3264738061729515,-2.494981265971328,18.91007206509728,-9.60849350631736,-1.1272736728482053,5.2072395071363315,-0.8103554872381836,0.10280295288680173,4.774009386658494,-3.26348540241108,-0.4383107807848712,0.7984536422330097,-1.7683195623512835,0.2084847849942091,2.44196257604207,0.6666455702288189,0.07098141972933278,0.18915943989591222,-0.17225566415086435,0.01472611769125872,0.2923309540654425,0.031540945385506516,-0.008861725253655915
7.748022504425809,-55.63256756946583,4.462916606532959,-9.377237873681025,1.1678991038575774,0.36490607007777015,-40.9068517598698,-45.992280190052576,6.491055648249008,-4.377262650044274,-1.5369853884703573,-0.8431607778176142,-4.310910948721593,2.6204897557191664,0.6147754355962087,-10.148334816849989,3.690932091831791,0.7866068654328582,-8.350777243980458,12.502774981182114,-0.6659896283869979,17.141128678124694,-13.062244478168857,1.8451371286308185,3.150378117132583,-0.4581558899522512,-0.0850545024396146,4.949451163904688,-3.939748323461236,-0.18552166194971526,1.2849593017313956,-1.5100001977372248,-0.309218035435291,2.004162784660708,0.44105062093764585,0.1570638191632842,0.1703399873290744,-0.12271850670448177,-0.02336747706042554,0.1833685302257865,-0.031071532010566817,0.036762706045103004
12.451399999999998,-57.02793,4.47787,-9.53456,2.4695899999999997,0.60561,-32.30572,-44.3528,5.89251,-2.24837,2.20979,1.29998,-2.7793799999999997,-0.5539899999999998,1.24966,-13.392829999999998,4.987399999999999,1.09437,2.4171899999999997,14.94845,1.62589,8.6309,-11.73214,0.9755000000000001,4.112839999999999,-1.32552,-0.55223,6.27444,-3.964759999999999,0.4553499999999999,1.11527,-1.6082199999999998,-0.2945400000000001,1.68013,0.58426,-0.03326999999999999,0.18204,-0.20013,-0.0348,0.17611,0.0036299999999999987,0.01183
16.626387861842403,-57.681048621703006,4.402853316924246,-9.50245368184764,3.3617518714637247,0.9991719406996507,-27.66095168880174,-44.76814141922876,4.416056928719057,0.46322240073236876,1.9345377736970004,2.260043443283386,-0.9529960647592854,-4.4992288988527145,1.8812581215052844,-16.826507114399803,6.594965703182687,1.5910108192300398,7.029113365935111,8.223426258689502,-0.9307029765980872,8.312097505755965,-7.85252917919348,-1.0938561702563256,5.507490574593509,-1.7723479542286782,-0.7742610482080298,6.973723434560829,-3.7390146654387664,0.5569192518009274,0.8060578849238553,-1.4585351926730343,-0.11568177338938862,1.9358845327315117,0.8249864759473092,-0.17557099069052098,0.22048749888291583,-0.12711981017329171,-0.08304220454082174,0.2845088248709179,0.056624530414481365,-0.02478557066724872
19.74564662721169,-57.727041592671476,4.637905575644181,-10.879548307234419,5.067487181579189,1.4189710312391284,-23.928987892514737,-46.12213893641158,4.759299671872024,-3.5881621524120053,4.683533999374052,1.944889330993415,0.9241385503567416,-8.167545930279905,2.472889450578068,-20.889314564282078,8.620066368689656,2.219021904587051,-0.36329575852024676,1.2517221145559958,-3.224118660600171,12.62141735288531,-6.853578948482779,0.6067954205341731,6.351794144672285,-1.4723357194050137,-0.618527931613239,6.601471349628565,-4.180823595382989,0.34915913079606087,1.0037320542924375,-1.5634461864319922,-0.12390230251538267,1.905964492762011,0.6819076604509785,-0.11708275126364086,0.2812992130577087,-0.10938425886947686,-0.09489035715842088,0.27577293090448607,0.007867971910313042,-0.004071773451243416
22.01959384566445,-56.92278206476865,4.964584740019665,-13.54425625238678,6.691226254164991,1.8774624006138714,-20.02267019207157,-45.64299014567314,5.883965544573717,-8.901228878390581,8.292906598178043,2.8824435145162846,2.2623472314435804,-10.48371752142081,3.034399637759109,-25.763527934373037,11.050448713911024,2.841465495120951,-8.305463691448207,-2.433274301238909,-1.7664237844124728,11.184600431210622,-6.379316238490573,-1.0770792881730773,5.8849500326963895,-1.6702367216293101,-0.08489344615679137,5.4444536944436015,-4.153245695373921,-0.1533893129530129,0.7847640636598686,-2.2273695071547412,0.13063173359688338,1.6325064322016243,0.5976965826383038,-0.19058366040393793,0.1907830463141338,-0.3477202950024896,0.04469458053344854,0.19455435244841454,-0.019600014950132905,-0.017892645324913883
23.003392447883243,-53.78799212852751,4.951561840761561,-17.121098808821664,7.4646925495275065,2.1820782151603617,-17.066116940856052,-39.421032692660994,5.77485625250845,-14.741499915723299,11.883012770008987,4.534382135782195,2.9862837969328417,-11.251788797342858,3.4877784693211606,-30.938376245281997,13.673228593056514,3.404045709927514,-18.79610191373937,1.4393398896921723,-0.4418299596452822,27.94295696057354,-4.794470026332765,-4.1170271523889115,5.18707566717171,-1.822401245603713,-0.09740434338260451,4.623705816352005,-3.793262539910744,-0.7214763352177463,0.709934322913046,-2.174797199243668,0.09200614695805877,2.0915453790156793,0.8178232987331527,-0.055126831126755746,0.15107619626036475,-0.3416064729845696,0.04531564089204858,0.25354297065980336,0.04186278874899572,0.0029700447807613152
22.859244102004162,-49.770046671192695,4.884958717892259,-20.549841206906443,9.89376301315554,2.678768692381115,-16.262802412713814,-33.65822751202578,4.675616724054255,-20.847593471432344,17.46143349316627,5.15013296984921,3.3037179704310575,-11.161540887560026,3.9214444771806636,-35.854867462395404,16.364375248857918,4.08576220014252,-31.813293313264488,5.683830275768911,-2.383142377470241,44.46445900111968,0.8158188002377335,-1.8756208302796729,5.618315139574936,-1.442120781756194,-0.6055733821704163,5.123136651688224,-4.57580512893281,-0.7815558244094664,1.1238762509834759,-1.2527926457434897,-0.16193015759037324,2.238309708076859,0.885150253702784,0.07281042492770799,0.20544927457845957,-0.02674535259403305,-0.02491146420624842,0.2339805305270839,0.06485084567940429,0.03175805744257399
22.685487808654695,-47.904005868969726,5.136606587824806,-23.607013259045914,13.165667176204966,3.6462834175210856,-14.239661738580413,-34.31130480168983,4.045721628943134,-20.421502397640257,16.40085828966278,4.923272907651282,3.274408670010618,-10.590247328849594,4.355924816210536,-40.44509137859606,19.121959729145562,4.997400330415662,-28.33937001219353,-3.312862024976735,-6.525772196658169,38.28832526387764,5.236171129203516,-0.5700006271081868,5.618013772553984,-1.883333008689099,-1.3725889052771532,6.479124812313606,-5.443180624159958,-0.26976978575462957,1.5183610145381383,-0.9556957462543352,-0.5628211590552328,1.9660297466022298,0.7460227380247562,-0.04352379712581484,0.2759479222938743,0.06258310965605726,-0.12258289383284904,0.2195198559755241,0.0043893672428375104,0.022094667688885343
20.89445,-47.32458,6.05811,-25.30477,15.87584,4.70657,-16.22989,-34.90608,6.39954,-12.63077,13.67475,5.18822,2.64618,-9.16045,4.64821,-43.58169,21.67365,6.07004,-17.29266,-6.9508,-6.27885,28.93289,-2.37333,-0.23955,4.18902,-2.8677,-1.67842,6.8281,-4.76301,0.61185,1.72688,-1.67191,-0.81419,1.70746,0.37373,-0.01172,0.31055,-0.23672,-0.11649,0.25813,-0.09478,0.03499
,,,,,,,,,,,,,,,,,,,,,,,,,,,,,,,,,,,,,,,,,
,,,,,,,,,,,,,,,,,,,,,,,,,,,,,,,,,,,,,,,,,
,,,,,,,,,,,,,,,,,,,,,,,,,,,,,,,,,,,,,,,,,
,,,,,,,,,,,,,,,,,,,,,,,,,,,,,,,,,,,,,,,,,
,,,,,,,,,,,,,,,,,,,,,,,,,,,,,,,,,,,,,,,,,
,,,,,,,,,,,,,,,,,,,,,,,,,,,,,,,,,,,,,,,,,
,,,,,,,,,,,,,,,,,,,,,,,,,,,,,,,,,,,,,,,,,
,,,,,,,,,,,,,,,,,,,,,,,,,,,,,,,,,,,,,,,,,
,,,,,,,,,,,,,,,,,,,,,,,,,,,,,,,,,,,,,,,,,
,,,,,,,,,,,,,,,,,,,,,,,,,,,,,,,,,,,,,,,,,
,,,,,,,,,,,,,,,,,,,,,,,,,,,,,,,,,,,,,,,,,
,,,,,,,,,,,,,,,,,,,,,,,,,,,,,,,,,,,,,,,,,
,,,,,,,,,,,,,,,,,,,,,,,,,,,,,,,,,,,,,,,,,
,,,,,,,,,,,,,,,,,,,,,,,,,,,,,,,,,,,,,,,,,
,,,,,,,,,,,,,,,,,,,,,,,,,,,,,,,,,,,,,,,,,
,,,,,,,,,,,,,,,,,,,,,,,,,,,,,,,,,,,,,,,,,
,,,,,,,,,,,,,,,,,,,,,,,,,,,,,,,,,,,,,,,,,
,,,,,,,,,,,,,,,,,,,,,,,,,,,,,,,,,,,,,,,,,
,,,,,,,,,,,,,,,,,,,,,,,,,,,,,,,,,,,,,,,,,
,,,,,,,,,,,,,,,,,,,,,,,,,,,,,,,,,,,,,,,,,
,,,,,,,,,,,,,,,,,,,,,,,,,,,,,,,,,,,,,,,,,
,,,,,,,,,,,,,,,,,,,,,,,,,,,,,,,,,,,,,,,,,
,,,,,,,,,,,,,,,,,,,,,,,,,,,,,,,,,,,,,,,,,
,,,,,,,,,,,,,,,,,,,,,,,,,,,,,,,,,,,,,,,,,
,,,,,,,,,,,,,,,,,,,,,,,,,,,,,,,,,,,,,,,,,
,,,,,,,,,,,,,,,,,,,,,,,,,,,,,,,,,,,,,,,,,
,,,,,,,,,,,,,,,,,,,,,,,,,,,,,,,,,,,,,,,,,
,,,,,,,,,,,,,,,,,,,,,,,,,,,,,,,,,,,,,,,,,
,,,,,,,,,,,,,,,,,,,,,,,,,,,,,,,,,,,,,,,,,
,,,,,,,,,,,,,,,,,,,,,,,,,,,,,,,,,,,,,,,,,
,,,,,,,,,,,,,,,,,,,,,,,,,,,,,,,,,,,,,,,,,
,,,,,,,,,,,,,,,,,,,,,,,,,,,,,,,,,,,,,,,,,
,,,,,,,,,,,,,,,,,,,,,,,,,,,,,,,,,,,,,,,,,
,,,,,,,,,,,,,,,,,,,,,,,,,,,,,,,,,,,,,,,,,
,,,,,,,,,,,,,,,,,,,,,,,,,,,,,,,,,,,,,,,,,
,,,,,,,,,,,,,,,,,,,,,,,,,,,,,,,,,,,,,,,,,
,,,,,,,,,,,,,,,,,,,,,,,,,,,,,,,,,,,,,,,,,
,,,,,,,,,,,,,,,,,,,,,,,,,,,,,,,,,,,,,,,,,
,,,,,,,,,,,,,,,,,,,,,,,,,,,,,,,,,,,,,,,,,
,,,,,,,,,,,,,,,,,,,,,,,,,,,,,,,,,,,,,,,,,
,,,,,,,,,,,,,,,,,,,,,,,,,,,,,,,,,,,,,,,,,
,,,,,,,,,,,,,,,,,,,,,,,,,,,,,,,,,,,,,,,,,
,,,,,,,,,,,,,,,,,,,,,,,,,,,,,,,,,,,,,,,,,
,,,,,,,,,,,,,,,,,,,,,,,,,,,,,,,,,,,,,,,,,
,,,,,,,,,,,,,,,,,,,,,,,,,,,,,,,,,,,,,,,,,
,,,,,,,,,,,,,,,,,,,,,,,,,,,,,,,,,,,,,,,,,
,,,,,,,,,,,,,,,,,,,,,,,,,,,,,,,,,,,,,,,,,
,,,,,,,,,,,,,,,,,,,,,,,,,,,,,,,,,,,,,,,,,
,,,,,,,,,,,,,,,,,,,,,,,,,,,,,,,,,,,,,,,,,
,,,,,,,,,,,,,,,,,,,,,,,,,,,,,,,,,,,,,,,,,
,,,,,,,,,,,,,,,,,,,,,,,,,,,,,,,,,,,,,,,,,
,,,,,,,,,,,,,,,,,,,,,,,,,,,,,,,,,,,,,,,,,
,,,,,,,,,,,,,,,,,,,,,,,,,,,,,,,,,,,,,,,,,
,,,,,,,,,,,,,,,,,,,,,,,,,,,,,,,,,,,,,,,,,
,,,,,,,,,,,,,,,,,,,,,,,,,,,,,,,,,,,,,,,,,
,,,,,,,,,,,,,,,,,,,,,,,,,,,,,,,,,,,,,,,,,
,,,,,,,,,,,,,,,,,,,,,,,,,,,,,,,,,,,,,,,,,
,,,,,,,,,,,,,,,,,,,,,,,,,,,,,,,,,,,,,,,,,
,,,,,,,,,,,,,,,,,,,,,,,,,,,,,,,,,,,,,,,,,
,,,,,,,,,,,,,,,,,,,,,,,,,,,,,,,,,,,,,,,,,
,,,,,,,,,,,,,,,,,,,,,,,,,,,,,,,,,,,,,,,,,
,,,,,,,,,,,,,,,,,,,,,,,,,,,,,,,,,,,,,,,,,
,,,,,,,,,,,,,,,,,,,,,,,,,,,,,,,,,,,,,,,,,
,,,,,,,,,,,,,,,,,,,,,,,,,,,,,,,,,,,,,,,,,
,,,,,,,,,,,,,,,,,,,,,,,,,,,,,,,,,,,,,,,,,
,,,,,,,,,,,,,,,,,,,,,,,,,,,,,,,,,,,,,,,,,
,,,,,,,,,,,,,,,,,,,,,,,,,,,,,,,,,,,,,,,,,
,,,,,,,,,,,,,,,,,,,,,,,,,,,,,,,,,,,,,,,,,
,,,,,,,,,,,,,,,,,,,,,,,,,,,,,,,,,,,,,,,,,
,,,,,,,,,,,,,,,,,,,,,,,,,,,,,,,,,,,,,,,,,
,,,,,,,,,,,,,,,,,,,,,,,,,,,,,,,,,,,,,,,,,
,,,,,,,,,,,,,,,,,,,,,,,,,,,,,,,,,,,,,,,,,
,,,,,,,,,,,,,,,,,,,,,,,,,,,,,,,,,,,,,,,,,
,,,,,,,,,,,,,,,,,,,,,,,,,,,,,,,,,,,,,,,,,
,,,,,,,,,,,,,,,,,,,,,,,,,,,,,,,,,,,,,,,,,
,,,,,,,,,,,,,,,,,,,,,,,,,,,,,,,,,,,,,,,,,
,,,,,,,,,,,,,,,,,,,,,,,,,,,,,,,,,,,,,,,,,
,,,,,,,,,,,,,,,,,,,,,,,,,,,,,,,,,,,,,,,,,
,,,,,,,,,,,,,,,,,,,,,,,,,,,,,,,,,,,,,,,,,
,,,,,,,,,,,,,,,,,,,,,,,,,,,,,,,,,,,,,,,,,
,,,,,,,,,,,,,,,,,,,,,,,,,,,,,,,,,,,,,,,,,
,,,,,,,,,,,,,,,,,,,,,,,,,,,,,,,,,,,,,,,,,
,,,,,,,,,,,,,,,,,,,,,,,,,,,,,,,,,,,,,,,,,
,,,,,,,,,,,,,,,,,,,,,,,,,,,,,,,,,,,,,,,,,
,,,,,,,,,,,,,,,,,,,,,,,,,,,,,,,,,,,,,,,,,
,,,,,,,,,,,,,,,,,,,,,,,,,,,,,,,,,,,,,,,,,
,,,,,,,,,,,,,,,,,,,,,,,,,,,,,,,,,,,,,,,,,
,,,,,,,,,,,,,,,,,,,,,,,,,,,,,,,,,,,,,,,,,
,,,,,,,,,,,,,,,,,,,,,,,,,,,,,,,,,,,,,,,,,
,,,,,,,,,,,,,,,,,,,,,,,,,,,,,,,,,,,,,,,,,
,,,,,,,,,,,,,,,,,,,,,,,,,,,,,,,,,,,,,,,,,
,,,,,,,,,,,,,,,,,,,,,,,,,,,,,,,,,,,,,,,,,
,,,,,,,,,,,,,,,,,,,,,,,,,,,,,,,,,,,,,,,,,
,,,,,,,,,,,,,,,,,,,,,,,,,,,,,,,,,,,,,,,,,
,,,,,,,,,,,,,,,,,,,,,,,,,,,,,,,,,,,,,,,,,
,,,,,,,,,,,,,,,,,,,,,,,,,,,,,,,,,,,,,,,,,
,,,,,,,,,,,,,,,,,,,,,,,,,,,,,,,,,,,,,,,,,
,,,,,,,,,,,,,,,,,,,,,,,,,,,,,,,,,,,,,,,,,
,,,,,,,,,,,,,,,,,,,,,,,,,,,,,,,,,,,,,,,,,
,,,,,,,,,,,,,,,,,,,,,,,,,,,,,,,,,,,,,,,,,
,,,,,,,,,,,,,,,,,,,,,,,,,,,,,,,,,,,,,,,,,
,,,,,,,,,,,,,,,,,,,,,,,,,,,,,,,,,,,,,,,,,
,,,,,,,,,,,,,,,,,,,,,,,,,,,,,,,,,,,,,,,,,
,,,,,,,,,,,,,,,,,,,,,,,,,,,,,,,,,,,,,,,,,
,,,,,,,,,,,,,,,,,,,,,,,,,,,,,,,,,,,,,,,,,
,,,,,,,,,,,,,,,,,,,,,,,,,,,,,,,,,,,,,,,,,
,,,,,,,,,,,,,,,,,,,,,,,,,,,,,,,,,,,,,,,,,
,,,,,,,,,,,,,,,,,,,,,,,,,,,,,,,,,,,,,,,,,
,,,,,,,,,,,,,,,,,,,,,,,,,,,,,,,,,,,,,,,,,
,,,,,,,,,,,,,,,,,,,,,,,,,,,,,,,,,,,,,,,,,
,,,,,,,,,,,,,,,,,,,,,,,,,,,,,,,,,,,,,,,,,
,,,,,,,,,,,,,,,,,,,,,,,,,,,,,,,,,,,,,,,,,
,,,,,,,,,,,,,,,,,,,,,,,,,,,,,,,,,,,,,,,,,
,,,,,,,,,,,,,,,,,,,,,,,,,,,,,,,,,,,,,,,,,
,,,,,,,,,,,,,,,,,,,,,,,,,,,,,,,,,,,,,,,,,
,,,,,,,,,,,,,,,,,,,,,,,,,,,,,,,,,,,,,,,,,
,,,,,,,,,,,,,,,,,,,,,,,,,,,,,,,,,,,,,,,,,
,,,,,,,,,,,,,,,,,,,,,,,,,,,,,,,,,,,,,,,,,
,,,,,,,,,,,,,,,,,,,,,,,,,,,,,,,,,,,,,,,,,
,,,,,,,,,,,,,,,,,,,,,,,,,,,,,,,,,,,,,,,,,
,,,,,,,,,,,,,,,,,,,,,,,,,,,,,,,,,,,,,,,,,
,,,,,,,,,,,,,,,,,,,,,,,,,,,,,,,,,,,,,,,,,
,,,,,,,,,,,,,,,,,,,,,,,,,,,,,,,,,,,,,,,,,
,,,,,,,,,,,,,,,,,,,,,,,,,,,,,,,,,,,,,,,,,
,,,,,,,,,,,,,,,,,,,,,,,,,,,,,,,,,,,,,,,,,
,,,,,,,,,,,,,,,,,,,,,,,,,,,,,,,,,,,,,,,,,
,,,,,,,,,,,,,,,,,,,,,,,,,,,,,,,,,,,,,,,,,
,,,,,,,,,,,,,,,,,,,,,,,,,,,,,,,,,,,,,,,,,
,,,,,,,,,,,,,,,,,,,,,,,,,,,,,,,,,,,,,,,,,
,,,,,,,,,,,,,,,,,,,,,,,,,,,,,,,,,,,,,,,,,
,,,,,,,,,,,,,,,,,,,,,,,,,,,,,,,,,,,,,,,,,
,,,,,,,,,,,,,,,,,,,,,,,,,,,,,,,,,,,,,,,,,
,,,,,,,,,,,,,,,,,,,,,,,,,,,,,,,,,,,,,,,,,
,,,,,,,,,,,,,,,,,,,,,,,,,,,,,,,,,,,,,,,,,
,,,,,,,,,,,,,,,,,,,,,,,,,,,,,,,,,,,,,,,,,
,,,,,,,,,,,,,,,,,,,,,,,,,,,,,,,,,,,,,,,,,
,,,,,,,,,,,,,,,,,,,,,,,,,,,,,,,,,,,,,,,,,
,,,,,,,,,,,,,,,,,,,,,,,,,,,,,,,,,,,,,,,,,
,,,,,,,,,,,,,,,,,,,,,,,,,,,,,,,,,,,,,,,,,
,,,,,,,,,,,,,,,,,,,,,,,,,,,,,,,,,,,,,,,,,
,,,,,,,,,,,,,,,,,,,,,,,,,,,,,,,,,,,,,,,,,
