PaulMeinheit/Bachelor_Muay_Thai/Sub01_Teep/scaled/JointMoments.txt/scaled1.csv
R_KNEE_MOMENT,R_KNEE_MOMENT,R_KNEE_MOMENT,L_KNEE_MOMENT,L_KNEE_MOMENT,L_KNEE_MOMENT,R_HIP_MOMENT,R_HIP_MOMENT,R_HIP_MOMENT,L_HIP_MOMENT,L_HIP_MOMENT,L_HIP_MOMENT,R_ANKLE_MOMENT,R_ANKLE_MOMENT,R_ANKLE_MOMENT,L_ANKLE_MOMENT,L_ANKLE_MOMENT,L_ANKLE_MOMENT,WAIST_JOINT_MOMENT,WAIST_JOINT_MOMENT,WAIST_JOINT_MOMENT,NECK_MOMENT,NECK_MOMENT,NECK_MOMENT,L_SHOULDER_MOMENT,L_SHOULDER_MOMENT,L_SHOULDER_MOMENT,R_SHOULDER_MOMENT,R_SHOULDER_MOMENT,R_SHOULDER_MOMENT,L_ELBOW_MOMENT,L_ELBOW_MOMENT,L_ELBOW_MOMENT,R_ELBOW_MOMENT,R_ELBOW_MOMENT,R_ELBOW_MOMENT,L_WRIST_MOMENT,L_WRIST_MOMENT,L_WRIST_MOMENT,R_WRIST_MOMENT,R_WRIST_MOMENT,R_WRIST_MOMENT
X,Y,Z,X,Y,Z,X,Y,Z,X,Y,Z,X,Y,Z,X,Y,Z,X,Y,Z,X,Y,Z,X,Y,Z,X,Y,Z,X,Y,Z,X,Y,Z,X,Y,Z,X,Y,Z
0.9703000000000002,-35.53125000000001,2.87564,-9.989240000000002,3.7481000000000004,0.7813800000000002,-37.83352000000001,-39.60255000000001,2.81359,-6.016480000000001,5.486849999999999,2.7146600000000007,-9.136330000000001,19.44279,-0.9411600000000002,-12.958430000000002,6.209320000000002,1.1961000000000002,-8.880810000000002,15.366720000000006,0.7256,8.711840000000002,-13.018180000000001,2.177020000000001,6.28118,-0.83968,-0.33951000000000003,6.150080000000001,-5.3563600000000005,0.52604,-0.1182,-1.4289500000000004,0.34402000000000005,1.9137500000000005,1.0307000000000002,-0.31540000000000007,0.08400000000000002,-0.23494000000000007,0.04346000000000001,0.29411000000000004,0.053590000000000006,-0.05019000000000001
2.7797997536948795,-35.02370161871137,2.5524512078914396,-9.584685228068613,3.413613275000754,0.6816324189305533,-34.075481571824206,-40.07190876106489,2.6591107636579174,-6.516326886551737,6.214850089839973,2.5326587612880442,-9.347655312010211,18.43271504251787,-0.7801246003665826,-12.409895516647744,6.007476508550257,1.1648771973434917,-5.761756506541163,14.638997107788446,1.4978819885770167,4.827540800065097,-22.922952907371428,0.04277197759782984,6.884513753613102,-0.08906313464972228,0.26882480154798793,5.130737196334744,-4.635781706400825,0.1218611820567942,0.2635259630576935,-1.7351335438088595,0.2537316200032222,1.8501617643103105,0.9374053643108021,-0.18987773752423986,0.19123688053151228,-0.29018984678205595,0.027641074075459553,0.24198753203443374,0.12496579346036336,-0.0894387194946459
2.5267339797743382,-35.68626383723789,2.5034452887054512,-9.698945169281837,2.3442523061149707,0.40839999779553404,-34.24107373181401,-41.8916777182315,3.4696494935647837,-6.260237900731131,4.16659685530429,0.8466620688482396,-9.6087561578051,17.510437263950426,-0.9259938323041909,-11.936331921352021,5.857907500821183,1.0655432786992438,-4.153278962514447,12.707278091780346,1.198561733836935,7.838695856185456,-19.60467381851147,0.888192164321262,5.681333003470939,0.5794050240177044,0.8166000683389658,4.825789678468097,-4.620851662301813,0.7686127480947448,0.6001565266486202,-1.6356503487446536,0.04825204258944689,1.4617780535248726,0.6693047519596204,0.22050080726468613,0.10618730478483433,-0.11207956263357888,0.007091973803935487,0.11952049685576302,0.11730867496174237,0.0012447845646400757
2.5997610471556136,-36.30378364013143,2.2846191919455654,-10.352361049473062,1.9914678476152117,0.44093995965531696,-32.9646695836046,-43.241117808414714,2.0391992573625983,-7.583907180387266,0.8858916584375667,0.005406872512073937,-9.694573273502836,16.96522889482295,-0.9262004045047101,-11.95411676332159,5.979493230996571,1.016986747656594,-3.018178329129304,7.3272595574500095,-2.3765583328193673,13.320085712939575,-8.078939614233054,1.3059529826324636,5.9707911006153385,-0.5295921039144672,-0.4299605805367475,4.873750771318157,-5.195019179983652,0.3742295574959414,0.5382607098312397,-1.3061849159120447,-0.023556615801717553,1.584581971260328,0.5887699115910446,0.2571599504297989,0.07377176353570358,-0.09286341942260638,0.00025144857312223547,0.19778621187411433,-0.01102983104877119,0.09425424981667682
1.6334889334602656,-35.744600866152254,2.4059870841333653,-10.379038147157072,2.7780693190869403,0.5581034725557615,-34.861624195421975,-40.751685073218724,2.1556828625725704,-8.990198222526391,2.709262778050316,0.9095999653688118,-9.521846372720724,16.283341528445458,-0.8151090310881164,-12.114472950147178,6.137862719224455,1.0241589737379364,-9.337118107318187,9.509861262514194,-1.769807856550589,17.568035832139763,-2.549025649745563,1.7243514380040652,6.070827959414455,-0.6475740954365389,-0.5455045240128374,5.480714401770891,-5.916368883697906,-0.7625745961338548,0.693164591431162,-1.3388187223598909,-0.007220931306747744,2.164676225449653,1.0449708661481725,-0.12785511494815083,0.17818400526183678,-0.1772188861167899,0.012956402875951002,0.3243562928760164,0.00836923408066744,0.021293796483614
0.9732482943383657,-35.89418053901426,2.5276335223953525,-9.293902414433001,2.6450477820219187,0.5153918283153185,-37.941349147322384,-40.102569581707385,2.4237258019190784,-7.345502602353182,1.4091002716918826,0.26016315951948,-9.193540565317369,15.111760395232048,-0.7537570789583958,-12.08748993694115,6.24469700501997,1.1076110937481094,-12.15408614178454,8.436243248699427,-2.4315062727958754,10.116428443866821,-5.526802107034222,-1.0734224749482828,6.139616194493936,-0.24254853202537155,-0.10700586773489083,6.0707074435624735,-5.6092887249864605,-0.17742593620459654,0.6055681930629647,-1.3484625824163063,0.14763648772183116,1.9638066871580386,1.1990860417056513,-0.28928254706905154,0.2045675893675891,-0.11310323934797976,0.016850953607746952,0.22380864654144478,0.05494962912533988,-0.031667576622983605
1.6657333667229768,-36.75886890814508,2.476458831668727,-7.925116640556548,3.030370006141316,0.5779025221322561,-38.113975362459044,-42.15974634267045,2.4098187171099097,-4.576543858992391,1.1821700902404828,0.20713297854976304,-8.707591099046835,13.536616194345989,-0.6990715520893133,-11.984443425662358,6.3276337193961165,1.2429662238684993,-10.021483418123148,5.502164178401323,-2.711662960558158,4.8333284547931274,-9.469328688393357,-2.1063393526990706,5.95013759150584,-0.15984722776034424,-0.054332551841480795,5.608216865276861,-4.559630630679417,0.5399738174893308,0.5569719491764963,-1.420877821516188,0.05524689486111856,1.5350628454547446,1.0590502790672867,-0.1840220729163866,0.17033784985094846,-0.1057716770487496,-0.01701183462144378,0.13403833518247923,0.09176499063371409,-0.02710896499026917
2.578169833865297,-37.76947910429363,2.5713989235414356,-7.679086638116118,3.7876815075939034,0.6855985722801534,-36.338669127908595,-44.18621060840522,3.597670007762018,-3.7028126578989546,6.400354703053751,2.1692556087091175,-8.116543215674104,11.771096394308122,-0.6050077351119898,-11.967984621207703,6.349296931466491,1.359260857106685,-6.894591019919422,9.888718701585749,1.7622689893515429,10.70683961694061,-14.251143177495848,1.0390882906697614,4.953199817333625,0.07669434829726425,0.3766150138484948,5.163672441051732,-4.840755521464411,-0.05669685328443685,0.7855158915368391,-1.760971197666778,-0.1381892409431533,1.7512467352539054,0.8930383647837192,-0.1389088716743909,0.19058233845960343,-0.23928033050977082,-0.028111242768870663,0.1964210243994842,0.08993373296918648,-0.05943995057984941
3.39722915443429,-38.35730564439659,2.4819772179601935,-8.188139138435693,3.4642743734374286,0.8044266790725327,-34.16317227035056,-41.84998786723613,3.6985930355508407,-6.0040163125227375,7.656808679371396,3.140636048651681,-7.582071222495705,10.16921432112879,-0.5014853921210914,-11.911247325646471,6.488144669407375,1.4677793362589542,-6.567087807577902,15.28280251601603,4.6142129972691395,17.990462148902655,-12.657325897932992,1.7578571748462462,6.270051800379682,-0.18129474626098546,-0.18851688319042967,5.92613594399376,-5.747564784594415,0.10676575540848592,0.6268981507586617,-1.5257861742512993,0.03583140123488279,1.9745187750246935,0.9097025482665136,-0.011203001394279051,0.21935740770284504,-0.2193677179736546,-0.005765362968685251,0.27366030401264446,0.05939786928606163,0.0018418999805881993
3.9826382785004157,-38.633380237283625,2.378518114914025,-8.03210047433316,3.4767279557457953,0.954879558100641,-33.87428483430385,-35.96135531370205,3.2354907038359917,-5.237220425642342,5.398925565389972,2.831851458537624,-7.1945338319841445,9.072567395529026,-0.335119332198979,-11.877779062456021,6.6954480609195635,1.5766944591623955,-5.435038057957578,18.475479941040692,1.1914362828525409,13.882210855021437,-10.156378637273663,-1.1514505672575548,7.394746620163786,-0.35053239607933045,-1.3146586207349855,6.067454749919501,-5.401787764163841,0.7286017789150783,0.4759963508523411,-0.6503738491245317,0.01597884876015812,1.712833640408018,0.9096407873656281,0.10037168179917769,0.1610310619512342,-0.00931349108014465,-0.031966158700358925,0.18478425933288048,0.03499013256254415,0.06250331818394757
4.793381874105458,-39.9961617331262,2.5457486831043203,-7.615117289241813,3.204555101969927,0.9149922922401144,-33.33712353561793,-38.23327537970003,3.3411045575336784,-6.146469883653108,2.743928199216677,0.9450055178758124,-6.809575658863016,8.305786702232979,-0.13607624341545121,-11.776813355339913,6.720437188580969,1.65061985057112,-5.901729936122138,11.174041094569892,-1.6946928979013147,15.717820047137135,-11.949485281570194,-1.2560239519446366,6.798009177704053,-0.16029795796937044,-0.8609652116656945,5.573467025902279,-4.711591155589692,0.4297311240538238,0.47845444440163415,-0.9433533191476251,-0.006321968906363966,1.5855668505916298,0.9445705782578194,-0.132632515835974,0.05881658094517583,-0.022764115638866215,-0.005808848610153265,0.13910303293066265,0.039583305982222025,-0.007230131385624223
6.191184401602412,-41.330110033906095,2.5405173408187243,-7.2417554893525935,2.8280349110306893,0.8352732951548161,-30.512129673815778,-45.32397267756241,2.4546662135522817,-7.094796401779291,1.9638665305421297,0.28883449367599334,-6.396293640669834,7.629985603383068,0.011205923376176168,-11.554163263517317,6.623888663662519,1.6413982269625171,-3.4143140776661443,1.7076701320592667,-0.46469314255818056,10.157095824883717,-11.521003094787284,1.5001470079595802,6.196199136140466,-0.09998554750732369,-0.226718641556383,5.14609702069129,-4.713791507274995,0.16850439404794257,0.5393655946062694,-1.5402609874922737,-0.026589824453636255,1.5227402248328599,0.870580544347347,-0.06742630061962433,0.09946592713233599,-0.1470317854646287,-0.015338401674825893,0.15858962788961278,0.036230290763097,0.011776409033214112
7.250353131966024,-42.7038505577761,2.4246502149075178,-7.349375983951826,2.437300029451737,0.7948130708596368,-28.672224808333755,-52.906976384485496,1.0935376918466033,-5.648017580995759,-0.30109893547222955,-0.0921392903902127,-5.93394412674101,6.573939397839713,0.00965482526637146,-11.360550735442468,6.41874519806154,1.5334653648233911,2.4562678057949694,-10.347662582359195,-0.48862760492442325,-2.081887714394483,-1.9167207266063684,0.7837961957053116,6.705101668049939,-0.3351268279581803,-0.8483579064009608,4.895743687294166,-5.018454944267224,-0.08724365333781084,0.87456000116315,-1.3699336728853309,-0.3184594985187417,1.5406638890280053,0.8322499500690987,0.07180036348560245,0.2829222564413175,-0.15388090883826747,-0.12544403268709858,0.17375174151614547,0.07710723049855894,0.025131329775369003
7.525663140384509,-45.826485156666806,2.580067083018546,-7.754211167494285,2.2641510386858616,0.727370151218128,-31.693710469943497,-57.937211095613,1.1843924700942727,-5.9299077422493225,-0.1061710986184387,0.2069307354407449,-5.372282872794193,4.732340035176513,-0.12823994839043437,-11.09229416680214,6.012508424999264,1.3612047615530325,-1.4002705608610917,-14.897214901371404,1.0015707095856081,9.12267587858356,4.8920617776924935,0.7576692217548057,6.696594025868095,-0.2488250922373213,-1.1083123575783016,5.0388187738595684,-5.036525393415884,-0.5008188279521503,1.3156838500918755,-1.043494117483034,-0.5336600355218946,1.9518404734199084,0.9129395500027351,0.01175111845150421,0.3278062180540949,-0.04074131006565869,-0.15662866971097184,0.25485155596399117,0.10712020919356598,-0.023211079679921195
8.413779070529271,-47.92876349268018,2.893410043388104,-7.340308647577852,2.74853578497619,0.5780569887229725,-36.6474927443063,-41.16057802421732,5.293308581658106,-5.455886313812225,7.981872829615773,3.3541890383239696,-4.686770189700752,2.494748249265901,-0.1134364752239987,-10.706370752742847,5.5888891058257775,1.21744324114977,-10.761555300749292,21.5439952389483,4.298335284071595,19.373154950005105,-11.56183565711882,-2.128007042720068,6.61867813836279,-0.4289931583501449,-0.6022945196921031,5.885246224383442,-5.072467038193667,-0.047987297021182956,1.0924081824860372,-1.451225951687088,-0.23332891912203663,2.165624169081892,0.884527448065166,-0.03738267604908843,0.22425868432909282,-0.09421460350750284,-0.049205817678318435,0.25359230844531416,0.06432041369479435,-0.04525037182926041
10.290252340104999,-49.273767152983076,2.972337826955604,-8.288815004793628,2.8243693573766953,0.5438996941710813,-32.86335072624719,-28.647676513021885,6.864677405604648,-6.894226027123228,8.536521049441209,3.145205649982724,-3.964970242971685,0.6484981281603109,0.19191726721893107,-11.184561564514466,5.712189828664166,1.1936344056739756,-9.136753280325138,38.480151167287076,1.7024496213143836,11.7561576611097,-25.959381753442553,-3.4195142615733065,7.2113078707585245,-0.41237802511034033,-0.05708003807294332,6.205945470682144,-4.976121310258366,0.7013963703985137,0.6204673285026081,-1.8574638228794063,0.26184542040125314,1.619854485588835,0.8564591176581742,-0.14089751065105585,0.16835741707164986,-0.24542408838016336,0.09182251975327949,0.16439104477140826,0.022889582635538135,-0.019668058440733906
11.03031190654681,-51.73999010354742,3.0974830129368636,-10.382444905905556,2.9538160681280443,0.8801220274632509,-28.60660111677014,-38.606337896400134,3.1835131399545915,-11.445515648119946,3.7588250624401276,0.891200178717625,-3.2472728034844396,-0.9512501192098242,0.5872762420958794,-12.490768822458048,6.396287372170697,1.4658106794926007,-9.816288459872641,14.152169537319358,-3.214132235824979,11.545881567009612,-13.576630904366368,-1.3032363509707248,6.818364629515178,-0.3986727581364422,-0.47479728655449427,5.450246287691307,-5.23453484774434,0.14017120717496978,0.38250391152782587,-1.2850618736970434,0.30169099779623626,1.2890006050830252,0.8819868300005136,-0.14624444200423306,0.138469131739932,-0.17047111648153146,0.0899388208606785,0.11062658065861454,0.0012734060791865112,0.022729372587376864
10.913798939783446,-53.65639075755178,3.8926184462734277,-10.38063720491555,3.981082936932018,1.3161467472707584,-32.83134125063795,-45.95022520514529,3.567213983384807,-8.757346250830011,3.6132325796548814,1.2305955190435827,-2.4399645655927342,-2.949885333721394,1.0423223082323054,-13.773845355220772,7.288817928890713,1.9743133519368752,-10.031084872225609,2.0734507357410803,-2.2889596207698233,18.32427939044582,-6.515419539338465,-2.788775496549954,6.412219075023989,-0.707296340003792,-0.9321567397399112,5.2072189972694325,-5.395868290592435,-0.6383622035577471,0.12606056375276803,-0.9378719751781442,0.2746087007155887,1.883326519425686,0.8669975412435253,-0.04381598497692557,0.09307999491905408,-0.08037982966337934,0.04955619246253121,0.2192478393276645,-0.004177012650380318,0.011841043550999058
11.873876570104006,-54.14416754696611,4.566156196366113,-10.204841389590799,5.779329306569208,1.7448399342249785,-33.65705528250514,-44.76726448477849,5.841514760966518,-6.816445759454977,6.923684695537808,2.3695508600846726,-1.5560342501079112,-5.162030158356423,1.5921224349900525,-15.096712310107453,8.291443545359392,2.4966247761553872,-8.43573985206085,8.475670563967213,1.4640609044843673,19.807909900051676,-19.15226494100571,-2.0225866294097066,5.881266823584453,-0.5446073668337549,-0.5062932603257239,6.056562849112377,-5.100322403907247,-0.2636681415435968,0.5401163781216666,-1.5217922370768153,-0.21312290312881155,2.302394687563747,1.1630194116295776,-0.10864177226746134,0.17875674983561105,-0.2075098841514131,-0.06971469850595698,0.3460504869202205,0.1131956740852433,-0.04021961586968567
11.531696840852403,-55.61884290811993,5.139549016433021,-12.906239789161697,7.902450424402929,2.3861951485676482,-36.06259751752336,-45.506847217692105,5.5562298982186435,-11.769110390115369,8.890861210162546,3.309278294213277,-1.0559162460059752,-6.65176359666863,1.9830441866815667,-17.308750540405814,9.525934140364791,2.9339212662429737,-19.225907258545877,9.19906602252232,1.5720024835797448,21.208400860112402,-18.002285726453042,-0.7373573828407882,6.038923981151767,-0.3826498158065688,-0.5744890017655087,6.272788325338768,-4.784059430213189,0.9012161312355467,1.0845604875945865,-1.570577520424144,-0.6681759549041162,1.6733958392418635,1.1302312750477397,-0.022159509589420368,0.29254594580298493,-0.1814443205585428,-0.1868397138521191,0.21152663159736493,0.15196792358873948,-0.005101447138122786
9.023395505101481,-57.534488248392506,5.9369444642288265,-15.678803460805172,8.639157010601338,2.661723665630442,-41.84068694383535,-47.54657935796135,5.213991913584493,-7.9194833300615235,7.803928669795495,3.7446001783950487,-1.5677255834747146,-6.731822378171425,2.1302266589566523,-20.091134574139407,10.808613218970905,3.2455684000491747,-18.409168080558395,3.6476444304811584,-0.8692759453601415,18.31987351581554,-2.4649840086935515,-1.950512842782293,7.025993934017226,-0.7437975087969175,-1.425338192137407,6.018795736875479,-5.3962671888264655,0.8033129352247007,0.41814271370056494,-0.6802663275015337,-0.22235834872620738,1.1484416185891326,0.9800107589815922,-0.08404119969047982,0.10813983278770908,0.05304308890769015,-0.09034585065637117,0.06379152506587865,0.06312897094595564,0.02445442192537503
4.3414811825691935,-59.169487563602296,6.965500527975473,-17.575875717719494,8.038641337831256,2.482210929140212,-49.744546433087486,-50.3657794881033,6.38665697326136,0.7100903009878489,5.788358689582102,3.897612484594318,-3.325910727282444,-5.019764228251466,1.9090136596399316,-21.8710656947135,11.442839022534852,3.22914079780403,-12.877795433849444,-1.0160930030473652,-2.243178529287662,24.324178254165826,-1.1292669357911467,0.21736664730281144,7.582513766425113,-0.83144970124184,-1.1414040635019842,5.499527261480425,-6.191792262210729,-0.7957659314114043,0.17346256590135037,-0.9409590800814002,0.031170183457842816,1.733523262725463,0.9265740083873935,-0.024579835703135714,0.054745727381235586,-0.018175944502030947,-0.004121754039800093,0.15276487917439252,-0.014571542885520115,0.03118323573763078
-2.5885522562826724,-61.88054895774582,8.32971729632405,-18.20221287163276,7.862939393335707,2.185283128107802,-64.93020963183965,-53.100097052043836,8.432675636010492,8.39611267130419,3.740560753041983,4.054329913179822,-6.003982013530564,-1.7971507901774593,1.2829788764285759,-20.739719123053355,10.493168119735719,2.654838070511122,-17.705057221828774,0.3387941985534725,-0.9892579169075517,32.12253070076707,-4.604398988867904,1.276873184508031,7.524972443612094,-1.169741906787759,-0.6652223757836073,5.388935001139032,-5.753188582333601,-1.449140232597772,0.7082175404190436,-1.7496808949845764,-0.1384246534165279,2.8405139442026366,0.789367473466065,0.33928087024511305,0.18108128034342988,-0.2132546474662793,0.010093141480734768,0.37738803338396026,-0.03868404286809149,0.05277242670124052
-9.767030378357061,-66.7899515811752,9.701080693356843,-17.708343892786424,8.008621028947733,1.8137912339454945,-81.841108685889,-53.203867852073316,9.134997941397694,17.70243935160987,-0.39623854853615414,3.6665672404495284,-9.523381886947867,2.74256526716132,0.448231054325559,-16.135898027523368,7.66040203706761,1.4876274449094344,-16.571496925629262,8.996189427489938,0.11919421882812711,20.78114857677924,-7.374240195393605,3.0486273268373547,7.367775467924169,-1.5475291019658926,-1.3069054815494479,7.647766056064354,-5.975838795619943,0.6902937569850638,1.3974990291350124,-1.6087318712820702,-0.5410235480285572,2.69936544760211,0.7988533172477575,0.23821697611330714,0.3381069533136869,-0.20014543651943573,-0.07306097523549945,0.445558081726953,-0.03646183649065743,0.05516627128425757
-16.36233626333149,-71.54493705168129,10.954305749298307,-15.779515239902667,6.875791646458448,1.4632673849707463,-93.87149621280699,-54.7393081331787,9.887999462237739,29.7433951736019,-6.83684553668992,1.906999587703088,-13.65804261174698,8.460893945479766,-0.6222888555470724,-9.186157686320248,3.7564769186986102,0.4003863831262809,-6.250156225800994,10.864481451210791,0.9628637160966095,6.0754118136543545,-8.68273250525009,2.484157603743938,6.721261756109158,-0.883816206460489,-0.8030396537079966,7.669840034393686,-6.177976896727858,1.2283491018750388,0.8398074627185219,-1.3111190305725473,-0.5159034945583443,1.6426592301740723,1.0460577298076459,-0.07641617121607491,0.2580907263056801,-0.1397492365248086,-0.1319014756708875,0.21800791794916569,0.06352091475823578,0.007161031170682764
-23.349444004247292,-74.65204626279224,12.093550263538779,-9.121479954138705,3.187582176384471,1.0888067979700902,-106.50105189933352,-55.70050733433765,10.63986904189838,49.147102647998736,-18.009490641613464,-1.8031793172639943,-17.858883599257606,14.934678374480127,-2.1147356859525437,-2.2567484740326917,0.4134159011088316,0.1540399115388154,7.0417276849983015,6.455914667691639,-2.2562832518149696,9.650437700059083,-16.73898712671918,0.2817657052628896,6.851665501144327,-0.6474599414204288,0.28613556745671315,5.987303611653199,-6.521528185809343,-0.5181707846206797,-0.19412314159971347,-1.7349376812694988,-0.16871845728367835,1.1061844358799302,1.1439913006359508,-0.18095138558197346,0.08328037364909081,-0.22805713569576044,-0.0839775987289862,-0.06753356861175351,0.08820046855427342,-0.05133286849181552
-28.036173045899247,-76.51821972584591,12.774244978909907,0.15785220624308832,2.1570356246834184,0.5253962783885285,-119.07892930736138,-52.48956603378654,10.2687525397901,62.81665672946239,-21.45237786329325,-2.4479486527118843,-21.919345635621525,21.53278212918632,-3.750890625512366,1.5344296641671247,-0.8031615561689343,0.4554421103280015,5.841546152345593,7.944244239389774,-3.936027417769586,8.03245620108622,-18.70116583681705,-0.02721044252670489,8.997292374345742,-1.6499053431462054,-0.5120631653668211,7.560348479454693,-6.833312671119249,0.17668570050646426,-0.9589879048336306,-1.8840359042287007,0.05506499701621916,1.468916740394702,1.3352726864431645,-0.3171402385726564,-0.016977548230169177,-0.24851723621471242,-0.08064283503597958,0.10183129983538851,0.01902532976027849,-0.0318480007389062
-28.481277376624522,-75.56595831595338,12.696373361739473,7.611967284072961,0.9820846543990995,-0.4153322603439278,-125.30557023117031,-44.44250856565433,8.499223265779287,66.89968303804467,-19.804379641551,1.2089873980308603,-25.63518932295114,27.787793751346975,-4.990678800583111,2.3078221362944027,-0.7456834605906281,0.5800801771957194,-2.578439462721783,13.60298575964175,-2.141414483769427,-3.265264965970256,-10.103529665510907,1.0752752936059253,8.933748856976091,-2.0351152561958736,-0.258082793403814,8.028285340147576,-6.496265058440774,0.5657432786594044,-0.9393045844704918,-2.268586451307474,0.08296470885978463,1.3014381826989738,1.7559255171806758,-0.6355370842835598,0.005139122241432839,-0.3516438150778121,-0.040767030519981824,0.21431251911292779,0.08574566150150621,-0.04246708371103919
-24.69967273382804,-74.04730075147071,12.519150421704664,11.372473759611955,-1.1778751126813425,-1.2146254023538745,-120.95351237191808,-39.78920494814226,8.202318734759976,72.53797902788818,-19.81692421815435,4.261462845785802,-28.470460655748273,33.242053515918286,-5.618174558819317,2.3440269409185333,-0.8439397475941582,0.4530174335962193,4.078769502178252,18.54149064366733,2.610771750056096,4.093443906292493,-14.137961135413223,4.3822797879057225,7.074553539947319,-1.4962583476884455,1.4168842967996866,5.840488346828532,-4.165097303683687,0.31526701690061043,-0.5312559348248185,-2.6479485960644538,0.14464294320548524,1.212089299672908,1.8684113479970825,-0.1621096620537219,0.041098824706982076,-0.4153968941913571,0.09292940498645658,0.2525987410071893,0.2570571271918819,0.049079970114291896
-17.677920949336706,-73.83663075364126,12.5867593785564,15.948411561128017,-3.082169520150134,-1.9273910737938373,-113.10923512313327,-39.377591844485934,8.671332004444606,78.23776279160332,-23.15827318347864,1.4286410478268257,-30.432687635686605,38.106495647584964,-5.8027132072440555,2.8861703168638404,-0.9467050848948961,0.4099577661576964,13.462296138407076,15.147672464945183,-1.7376166268168514,10.965877625167026,-22.744181557364442,3.670761242243817,6.925530484498885,-1.460783184857366,0.8605112715942257,4.583907573640085,-2.500203282997802,1.0512284735204473,-1.137935619460128,-1.8619307023326486,0.5024876316039192,1.8118244105528376,1.045552866518734,0.7942351789391904,-0.12131476364360483,-0.2510952232487912,0.156748136100467,0.35865859864193955,0.1752992314252944,0.18227374472608687
-9.65749993197044,-72.10770480657816,12.553240267705586,22.66960363421182,-3.136717123465379,-2.688315784353728,-108.44618039160459,-40.84350966181671,5.304857856938205,85.08361112292384,-27.2195178310038,-1.7934963119105296,-31.315565822939252,42.05403567238185,-5.460123581431306,3.8553043493125356,-0.7007204101168262,0.6152685684911364,18.59727023633477,1.658080874493287,-14.126520760622943,-6.991499610268082,-22.639573921577163,4.320131076985049,6.237604682673532,-1.3011758193358394,0.9252622627167277,4.973633638162427,-3.7441857960808185,1.7710501392948927,-1.8280448140994157,-1.3665238782765086,0.9164032349898508,0.927541279269988,0.4004287213231522,0.09728547536839824,-0.2346005233526547,-0.15128078784326474,0.19189543066491424,0.12022250744408301,0.007668929494066702,-0.018872587707787623
-1.4284208993236176,-65.18776116259957,11.85596195174636,22.254392169558866,1.983075736406413,-3.4050359761683158,-99.6705411700004,-30.25441783743888,4.683510711419436,87.13305280551975,-20.54243276980971,5.9334454162270385,-31.190948781854363,44.51563232998458,-4.634642402607259,3.4927391676027493,-0.252786424621571,0.5573218121628292,25.24584978301101,19.52417142165846,-8.176765440082137,-13.760022674505958,-11.332541243424108,2.3216958715775164,5.490969981151704,-1.6869297639313077,0.9111390983138996,4.986505483574444,-4.953794087077637,-1.1661120516512735,-1.0642226826413694,-1.8821835928891484,0.45509367088955754,0.6936130772909871,1.304121955067583,-0.7182903621892753,-0.009521488696395762,-0.2702765392747468,0.10007999561101305,-0.052241617975441856,0.07702828898296504,-0.1970066941842989
5.05429300181091,-60.224686759375274,11.59755836523333,17.848503786940782,1.4094054617247769,-3.1474980346708668,-88.28480233214727,-23.89480868250945,7.11092867302459,75.3539292249896,-17.584232652259843,10.98486830331138,-30.73559863799524,46.16296265678041,-4.161438060848368,2.380789993280914,-0.45147689231108995,-0.2591685133482973,18.715044835779697,31.697672398664448,4.6441079054592365,-18.626770528851054,-12.651435184838567,-4.67871668334511,5.701437725505999,-1.3726056233792334,0.9461638973564078,5.692607017064786,-4.868636796209736,-3.864812349443494,-0.5867431972320829,-1.7275321419800371,0.12472834145961037,2.436550753244011,2.4325682163847206,0.03294375034841805,0.10486805367638133,-0.16573937087020615,0.02613321692596006,0.2596796085772529,0.2301561920519878,-0.05293210589825286
10.9506083049522,-58.82569097359366,10.983366308847357,15.927133047789624,-1.6960164520081127,-2.583714309403064,-70.92662480408825,-27.189362882918076,5.778937502919405,68.16334591817674,-22.46565465583661,7.499063084455165,-30.15318548228423,47.956914004571345,-4.480759965811895,2.4027010017296995,-0.630748786593378,-0.7990059263275173,29.55022765983966,19.25394453861232,9.617002543325029,-19.375561459247393,-24.91650931038305,-0.0928347519492383,4.539940241370944,-0.5326557710937736,2.1635567289652435,5.762443636735012,-4.231170138507047,-0.20135891732873779,-1.671208276879847,-1.1986296793234368,0.6164760932510511,1.3113931099514693,2.0510776837847073,-0.03911460991112727,-0.23962159504536085,-0.04210162247746254,0.11845166315228449,0.14667409067267648,0.25371980710763803,0.009734616353813164
17.336767235999602,-57.17178391691945,9.710717159233583,12.33706883319035,1.9642227590512849,-1.253997838326071,-55.4737520889663,-28.79233906070226,3.2443804599724086,65.69454685019686,-19.458112779481187,4.949273445394531,-29.284257376571173,49.35285293383143,-5.133863186797479,2.882035328647573,-0.2821122682526411,-0.17671792330171243,44.007101686282994,14.374749832292725,6.322102091339183,-6.342574121810786,-26.42008966955835,5.542692980491936,3.5240452882856186,-0.801091459495009,2.725066986558447,4.405746848663202,-3.49653388541711,1.7198940248442427,-2.184603966459732,-1.5635292964903185,0.6818456519598748,0.1762237379486053,1.13589206670401,-0.4053968509253659,-0.4280653269469035,-0.15134152071043167,0.1715007899042832,0.018303664383370874,0.12392078918612676,-0.026962352257860433
25.26279869735247,-54.90212959196417,8.260689938796672,5.801693593552756,5.209167849282533,0.698684022794276,-44.28873246892697,-26.399052777824636,1.7959460033520824,49.24444905655263,-7.3073250589436025,5.5105885895229285,-27.974781498966657,49.94633198222824,-5.454979333300237,2.6479822060159965,-0.06949130188128791,0.43088863510477526,28.22570680756866,24.557864789567688,5.8471988191381845,-6.336151697285658,-20.406421959898584,3.0595606297946274,5.038271279324576,-1.3790423215742118,1.7939064916502254,3.5247883774739517,-3.454770756285307,0.6349645040207857,-1.5089084581754053,-1.7416886292960212,0.537441739587462,0.2588578692215552,0.7619522870856131,-0.16568120680557233,-0.15042478742181575,-0.16574631214505342,0.12513364682949327,-0.06809652892757997,0.03081207756414707,-0.03638335331330729
34.70269571241552,-51.742863319082225,6.628396151533039,2.0922080262902267,3.367892132959574,1.3105153984016567,-29.266262286822833,-21.2413698427784,1.6211219005748467,24.766152537493486,-1.1652094447866013,5.2398495489226224,-26.07304426134607,49.89563289404767,-5.189488960992431,1.888870976531966,-0.10543507984870061,0.5377547071969266,6.345134125421244,29.06459849939735,7.491893597576968,-4.768821957042663,-21.43065487282932,1.5507424118324635,6.261947761414154,-1.7231804336172787,-0.45852811632366075,3.576902051132678,-4.1793849633720805,0.17698194428496236,-1.096309594110878,-1.4039003908761885,0.20118386684953765,-0.417106156307297,1.0959283938522095,-0.7427357051590104,0.0027078904949259367,-0.14987604072247032,-0.04000937520064996,-0.285585574394087,0.09134912534261873,-0.16197895636885234
43.54335297096673,-48.82124280911112,5.429344768991543,0.20111775427695705,3.472182528210346,2.1259760495870696,-11.851013076038859,-17.46711832708118,2.1404890192841886,8.41886115438925,0.29877663586572867,3.7196167086401113,-23.908381115632253,49.40873804627349,-4.452330216206411,1.3845219538603815,-0.13608206942555598,0.8861290114288443,3.7632892917642344,28.6768892988319,4.525587041413989,8.438771992328872,-29.0990368361196,-2.9448614082766595,5.921460815209113,-2.013957300305883,-1.2258562868581442,4.316589674056892,-4.111006854476336,-0.1733762773395909,-0.9686937561546767,-1.6032234942726893,-0.2138915807067233,0.48329804087120054,1.522348533518836,-0.3185771264059111,-0.015232519673909012,-0.24798606045998473,-0.12317420832527183,0.06883016800661626,0.17202731162878787,-0.008211981326971424
49.65825911938102,-47.29381468502497,5.194975245064555,-3.0608373128690363,4.494078356457903,3.343986367446324,3.5914008682281824,-17.95139519743048,1.467301134883455,-2.3797546141015595,4.799953611604166,0.8038601760008883,-22.091808774290595,49.413783014183146,-3.7002541635192756,0.7599615222891547,-0.13305128030723096,1.1437071750030012,11.011502310190966,28.223879122044643,-7.962450370532719,6.2264405615066245,-35.376688158228966,-9.680880364765828,5.342802425112103,-1.9105277291120366,-0.6067812059339535,5.731017621142411,-5.352799786055218,-0.1495946482891125,-0.8655974537968153,-1.6931066713580671,-0.10816850546437042,1.706822751542455,1.2423171278946332,0.6809228070332733,-0.03411971350187894,-0.2662859080551286,-0.03214956864870399,0.2920979026994126,0.11150306918484758,0.1458928271613394
53.150059648091045,-45.2553085191175,5.09070078787577,-7.023859061516451,5.990361230419638,5.280261824739568,17.35982325761037,-17.59373092647879,0.9853982778689254,-13.367441564234447,4.8715286833202205,11.35551381265951,-21.17689630464361,50.69253040160051,-3.535182652351824,-0.170325233498168,-0.07196082645247458,1.27976914228839,13.860516233788365,27.82131045365974,4.304006673330868,9.765729350305008,-50.282841849478544,-11.117514982302968,5.571955062973889,-1.7699577089054814,-0.2691211906911944,6.822370567398932,-6.727553955470851,-0.9982335773385198,-0.9216937104101365,-1.687017708987033,-0.09821574799399146,2.237311051507609,1.2364249340802242,0.6781526344737329,-0.08396256801573983,-0.2549646923419202,0.001372141986500873,0.19262467302383732,0.013945139132898871,0.019225714010040865
56.99921673832279,-42.72101196459746,4.476761391772415,-11.946923756565596,4.39463313472097,4.015956580157693,28.307287593999654,-13.25207959269431,1.4730229375581092,-35.38499353408828,8.564366133123587,11.07353217855039,-21.29443541590025,53.71526760493242,-4.023849929111469,-1.3424628795604199,0.19426174422719278,0.8374965412270438,-4.197418971230972,29.340866688112246,2.3368588256317815,36.62947094577879,-53.57291455437671,-11.292273924528244,6.055735173238139,-1.8740423415171303,0.8369508342647222,6.671471680169941,-6.486139125866846,-2.652902698168393,-0.9100526685719896,-2.243256351506664,-0.7696095108088499,2.7009908846768584,1.6221313583655301,0.5259489905895008,-0.08082053746704498,-0.29919864082529307,-0.10887939007114475,0.32016632044274695,0.077800007193482,-0.02531709558125041
63.52519829123083,-43.830730351706805,4.154192686267816,-16.970035899783014,5.1382177296799565,4.706660818400352,34.24784548665061,-16.199065599401333,0.25046408499785444,-53.981000244938855,12.117832887477038,15.619091353470512,-22.03123067642145,57.994256009374006,-4.950020208517178,-1.9879500335775857,0.5092084125737645,0.6048559017812755,-29.891242748159183,22.496780619459958,5.710086181957408,64.86858597904944,-16.445244168476357,-9.29769955149495,5.026841711703178,-1.73930729750563,1.4272448866150946,7.312477312746351,-7.285120884102149,-5.758239031188195,-0.6662429553386789,-2.3641094198223307,-1.423152959603511,3.8557530971974607,2.3654461560749085,1.2403093189409233,-0.12916940391328086,-0.22228802639511494,-0.12343484907520377,0.5746691698736597,0.21003197450528757,0.15455149247638564
69.30353338210148,-45.06320217252552,3.663603202042368,-24.867987912120558,9.098366021043448,12.331569776811678,40.50321171134405,-17.95549967714475,-1.1833867717970739,-62.20969704827561,7.187058798455306,38.24154142056894,-22.923261222036306,62.40491394715845,-6.229181592017434,-2.187295928728603,0.2557639892902588,1.3223150994716915,-35.9937452467382,17.78719280892668,37.445454578356134,55.951207057360186,2.1963789491013257,-1.6414749830411421,5.60152217471907,-2.2559851318144566,0.42581381980900723,7.928281640936373,-9.151129385854842,-5.913368241633179,-0.3409535255404715,-2.5819054644197625,-1.3749709931410965,3.701121396333509,2.2827502652822953,1.3077845761587306,-0.11129884431111674,-0.25513274113566387,0.01703869885007624,0.37134162388015235,0.12482825767926413,0.13003753848189184
72.87985556042847,-45.26577650935016,3.0815803296667696,-39.33163155013871,7.697422201069329,10.444959375870653,49.97417801519337,-18.971815997949474,-0.5704918475892667,-67.41127742719141,5.8208266920067135,28.708555035125542,-23.35256590157206,65.92583096109468,-7.612615665781493,-2.828412751526552,0.10717217793997452,1.1731092496864515,-32.66349980289234,17.28254425270002,33.18114745590682,43.38048586417778,-18.194553586425062,-5.33567660032003,7.14689428624039,-2.55398780515062,-0.9222709356276096,6.099587803591464,-9.207392126900151,-3.1842805465750073,-0.10772642499455841,-2.451008019735254,-1.0841942737952834,1.936168952033536,1.2450311413116704,0.7512921935652604,0.11539718035549834,-0.35466111496588887,-0.07510191908120681,-0.06724279751945966,-0.005141405260797721,-0.03176300681679302
75.83622939047048,-45.08253909308602,1.8646929001148806,-42.31177722008803,0.689969736259737,-6.168430332632515,58.70079051533115,-17.322816602301756,-1.5158089339663627,-61.700014797169196,10.14877328876426,-16.793569114990742,-23.153531947730645,68.08187196963951,-8.95495709740454,-2.863886179168381,0.38354132246558825,-0.44634518591859634,-22.327442372489745,25.123653346815903,-18.11441586240625,44.14556435974536,-41.177083322222146,-11.365272634707543,7.0836306657347174,-1.6551361725613776,-0.6886434596055856,4.5587679302583215,-7.067774739931532,-1.264685109712718,0.0076765055523494215,-1.6896954477129789,-1.3550232951370271,1.6106842198732052,0.8016038146185054,1.2080078891530086,0.18699514249862806,-0.1592138285357741,-0.23669891079624064,0.038729504998708225,0.017305167905647692,0.12357644346609352
79.32235551847657,-44.264324088951916,-0.17320754971047983,-17.536827554234915,-3.213942892079581,-12.036103459299843,71.80096830451052,-11.719776042816687,-2.9310988978157355,-22.79827056896428,6.764477066723151,-29.85448178651369,-22.780718752510687,69.23135716499301,-10.177757869489108,-0.8280124173774907,0.1463426643173249,-0.8977051952388001,37.74585183594354,37.97532675389142,-33.79228389847257,30.484756197440415,-58.64759623165276,-5.96937301542352,7.029701021326549,-1.6750247808076713,0.8668150857920589,5.068466921028727,-6.02448673919382,0.7682230330801572,-0.5003787402555542,-2.098258232461294,-1.5395439507844213,2.1411185287799173,1.704918669218832,0.9272106534419646,0.06401590795959634,-0.152465745447632,-0.20855376557445196,0.32675406425303155,0.206153670668896,0.18788438508789052
82.10943847966955,-45.42021089714525,-0.8250352672434128,12.31045553523182,-1.9466341459473149,-0.8666956834171946,73.8532156752088,-22.46574688283916,-4.25446430064312,29.82327551855548,-2.0891011819028416,-7.436241737996696,-22.776176614710685,70.41900335284527,-11.103649395413488,1.1624109273659007,-0.7595788168187069,0.48486446289065455,92.7331024941265,14.751585722849006,-14.725440481740282,31.184638488461413,-18.07184352898388,7.249752015701462,7.711785646494046,-2.4573371040138965,-0.08206971207055942,5.9319435375164815,-7.083629085252449,0.6383794113386146,-1.387705897113601,-2.1039086192529024,0.056841777343277416,2.5873491944243177,2.635670515916295,-0.05773413315360358,-0.09062397497832762,-0.23720867948326488,0.13639748412030106,0.38817263742938274,0.3442720621740894,-0.018636065422570482
84.20543624595382,-49.317882890684785,-0.14503844344174882,21.966658816659052,-1.8220700247307533,4.301090285425469,70.19366478494548,-33.81696358650624,-4.131502330872197,49.336446034391564,-4.117138989482104,-1.2501990600840625,-23.040006435016924,71.75690521468303,-11.812431158968671,1.289530115248431,-1.435806107027957,1.540561403838852,104.84069083523863,-5.711922822985741,-16.600114906346324,36.93988391885442,14.743257157323288,11.804131068016103,7.232047204106559,-2.487535490102577,-1.1858092936797822,5.020039702816008,-6.363785180145126,-0.044675262105427035,-2.776018544226209,-1.375785281970893,1.4157907867964454,2.4009095939830845,2.0050919115431145,0.22026726408548702,-0.3358624103605281,-0.1928197445566388,0.22778114416143777,0.2309355066540022,0.21948636823974307,-0.09031335657065998
86.47212705101731,-53.590454710825654,-0.5813570385928675,12.829795553101418,-2.2605781035509125,-3.1295613366898536,82.86328987335824,-26.98829208014683,-3.980555663647732,37.68706414992654,3.1382733416265904,-21.50347422140735,-23.13175902141817,71.96271715328061,-12.487536066917194,1.3665819134925044,-0.5922109073484965,0.6452013924278769,118.58623919872659,20.47223102634058,-37.58123737569359,28.76531378455436,-40.259084854410034,-0.6986349176694595,6.62850194409977,-2.5798927600345887,1.518893800932407,3.650690696736577,-5.203225024201498,2.1005207265202963,-2.547222205544197,-2.427173079788847,0.013612825657147689,1.77625135189243,1.3088080681268845,0.6940772621980758,-0.2680074544138379,-0.3750469877669374,-0.0005679970448074617,0.13505273019628442,0.053359353376929604,0.06384951959175356
87.86665553000834,-57.87409902874983,-1.6550186354122813,1.8297811512726656,0.23735025333093862,-7.026764549697189,99.46413804383481,-26.405066369759382,-3.712685183768587,23.312681564715287,6.570486554173272,-26.220087087721744,-22.93356664231405,69.80874074682525,-12.915838758828421,1.97332389743188,1.0088549577305725,-1.0750092765580437,134.58113472499699,33.21724034994811,-36.419005843801855,25.076061897386392,-59.52166334325796,-6.862345722705841,8.888315387225553,-3.08214220327015,0.5143265900435828,3.2597302207121936,-5.135145361942034,3.794249780486941,-1.2642945013266247,-2.895330087701416,-1.549939620039602,1.6251931234420862,1.8240264123178083,-0.008568952006869118,0.05597082636108436,-0.3591323361299197,-0.2632850235665291,0.26564594057987106,0.16080359065895397,0.11145919675640642
87.74559567612077,-63.26375903851509,-1.4958957131776347,1.6694297045240427,1.035430756791628,-4.944161821945358,107.95214863372051,-39.735312742879486,-1.058480536349299,43.36306825609661,-4.891177766479693,-3.3356266373629335,-22.150120300894233,65.83124956032573,-12.8682082436884,1.881010717169141,1.5068337813110382,-1.9223541312966772,170.13120449236501,8.067455067021292,2.654077040920269,11.93855749480008,-27.240112831742103,-1.1008748820643302,10.262428290515652,-3.5149634716276847,-1.6156483037649207,3.4026704908808214,-5.096875787790683,2.943058863645916,-1.137566453237638,-2.7022447335650206,-1.523247375388698,1.7387159956260354,2.498157379974214,-0.6970078013185361,0.1201370641662853,-0.30352567696185484,-0.30374705082383796,0.3327030095217258,0.35816970707884144,-0.0048788697877788605
86.3985032442653,-66.40788549684144,-0.9815078260836415,-6.166883252376831,0.033541731646929106,-4.087512990137134,107.7647703607213,-52.38419526428797,0.8291248963579668,42.93287906704443,-12.801467628681467,11.534005879826228,-20.846015452543874,62.13118658293022,-12.418506580224479,-0.3467577376408701,0.5867992465488971,-1.2093554695415438,170.60839888621007,-13.587493720939921,31.591532799895706,-17.82592840384434,-0.8767910269726025,3.1045502349138268,8.824805516677909,-3.1754625182675453,-0.4872206875655513,4.090354228753229,-5.56103639008218,0.8756543924217831,-1.8541886810556523,-2.4483698771609967,-0.0790736049555555,2.066129598383427,2.5529568976920833,-0.31353084996867153,-0.093750923794522,-0.3283187485131912,0.03636092008747388,0.27955461041056373,0.3748360487698073,-0.06295550426988492
86.49161263303208,-66.97001681174734,-1.144942261650017,-14.972636114612673,0.4122988140262088,10.958028796900733,107.54701044101327,-59.81866973040552,-0.6391316393932222,25.36515899716031,-9.785672860596137,31.684175843193216,-19.887412788647897,60.483271071411174,-11.696137273738069,-2.8744081892560676,-0.7415934402013209,1.9939815755493022,161.631466848794,-15.637010897221641,47.93371711454979,-59.93101674714543,3.828903020597723,0.0852851703763534,7.736900487045824,-2.5772940306250085,0.8697744607925706,4.1256883377257925,-5.439866105199425,0.6407886510459583,-2.855454009701316,-1.9339019805294897,1.1233602855157463,2.0705495237543956,2.226699500218424,0.17222608421695365,-0.3197369472072482,-0.22533107895639345,0.2615365168123455,0.2581153112771249,0.2901288164552401,0.01865572414271187
88.43206041764145,-68.27399682547032,-0.7313196425175055,-22.42391838343802,2.8221457435277095,14.583100993585456,104.24573665107992,-63.13418655033058,-0.8028031290315479,-0.3147134007285506,1.3580219152856383,23.409963723684342,-19.983566028863237,60.93199221922975,-10.871847045169194,-3.279866110223173,-0.3310539299959348,2.2927293991756192,133.06168227593372,-7.274029280292006,26.482669683637432,-68.88169113373185,-9.970691622592172,-7.184328104108798,7.761699019731228,-2.4575432038686875,0.11469174796300699,3.2346606878951283,-4.841449711611613,1.1915594746010334,-3.127804132726654,-1.6960129164215167,0.9906716102230209,1.4848005606906207,1.7444922246880028,-0.19574487873733465,-0.3439667168461593,-0.2655634672113897,0.0879318145217347,0.14185457593146117,0.1681478172958267,-0.04003192158810645
87.75893481593769,-68.7308858528176,0.2833685718476817,-28.555148204084883,3.6533900401013644,6.4420940594772755,94.40552674244172,-56.649013420132135,-0.6043624999890909,-23.84533217626297,3.387731717803345,0.8378154663240973,-21.0532940539441,62.386538934098,-10.173835672241182,-2.9867405643042844,0.45685137404639636,0.9101149125571639,89.06621354812535,1.8831194925752166,-2.323655856568622,-47.16462070358816,-17.554645120074657,-4.04247010367405,7.052464147864902,-1.9223901988652683,-0.9660810029073182,2.803703122507573,-4.685959527791638,0.19585258307084172,-2.2111965698085263,-1.1735884861860855,0.647984879272523,1.0960905414489819,1.8849179123174995,-1.0128160765644587,-0.20239129265074657,-0.2096412154093057,-0.0049780677470190595,0.07675568360166797,0.19352123652378245,-0.17802631129969565
85.03649454934613,-70.11240162815531,1.5725344571767859,-22.809718956542326,0.6193906559995054,-3.5178447278985727,88.44468121302565,-50.621353826591644,-1.213919239083432,-11.27748243931264,-4.519167347650276,-18.21014229428511,-22.875627498406036,64.11562323642349,-9.881257789620427,-2.324265926929589,0.5358078478709709,-0.1541613507422787,96.3729974847352,4.54398046479665,-21.833011950157786,-53.54491808286624,-5.2290043532548705,0.11179118918463415,7.058833138339634,-1.8688039764230453,-0.898083899787775,3.695879122873891,-5.574428114437442,-0.36028703842675247,-1.902363660766354,-1.247161802175298,0.35734885923836307,1.5701321738711576,2.552671867187187,-0.7153165299635267,-0.1637271594236399,-0.19412593229138567,-0.013217027747991222,0.2202825914393469,0.3136883499449875,-0.03686953244286547
78.66383947186266,-71.72479593953955,3.987834515632852,-9.147137869498733,-2.146040302758939,-7.919837355794125,73.09198744220008,-60.86584365592181,1.3850190824422133,17.000598132938983,-6.15854949963994,-22.319859489008902,-25.284044751367425,65.77881145427841,-10.172154088184667,-0.5837569160441051,0.26605309019398526,-0.9367327336036533,110.31057907837258,-10.942444728851102,-24.829164306387568,-65.14175773524414,14.579848953845545,-1.2793559918453772,7.352215302008182,-1.8598996759839128,-0.5623380611003004,3.8396800561276576,-6.4805031748479704,0.35602738372457954,-2.4355813326818927,-1.1684412354531772,0.725849233607024,1.482637785691086,2.406603363650937,-0.1823252138928274,-0.2269003380692766,-0.11342289110194965,0.04654872250929659,0.12852672553629615,0.29656599659084604,0.026648311406359197
70.2396598963464,-69.40144993872988,5.3890191674829255,1.7088627204239655,0.20155637276107982,-0.5770454235390999,56.99349274011523,-68.2467520407746,5.279109007419108,36.36827542412133,-3.0769202206152757,-7.452338306475973,-27.425448494811242,66.47182113817192,-10.740130581335245,1.0356470105000426,0.07398782058596914,-0.38158860220820323,114.82379039541307,-20.46704816514008,-6.031814817957162,-67.49944216372343,17.407563797725103,4.551768931375614,6.288550695543707,-1.5959348363257801,1.026085556751503,3.0389734921806615,-6.927902813002414,1.4317454718454754,-3.0567696775281217,-0.9570573821015134,1.61202265898569,0.7326517457019851,1.9053456947785838,-0.9427038453885321,-0.30671013584821316,0.02120405163165698,0.25104569285617856,-0.07756685737148471,0.1795627343970367,-0.17005662959004242
62.58545896782933,-62.95568644284525,4.594010974239792,2.990297816459956,1.0127266584053798,1.5087756828059913,45.62490962310865,-54.60802377142774,4.543433480051123,36.35897232360339,-5.868129062746385,-6.386266288004195,-28.721521645143362,66.1379078853393,-10.992661209826839,1.5666579540056969,-0.06101932648303943,0.04851320889541954,104.01211895331575,-5.226502613790061,-5.786420439043977,-80.28817447868718,-0.4544260761648379,5.129674318383803,6.00698621435392,-2.2909159184283086,0.8011797387019358,3.335781061861456,-6.592672468482293,1.478007493299458,-2.342016972662959,-1.7036324894900576,0.9573674114882513,0.9575487818667394,2.2826987076579357,-1.2515727912622958,-0.13572492302587294,-0.18713391659852807,0.18530633664819166,0.08208578337668287,0.26631383641204176,-0.16654838635821773
55.424289971683805,-57.74107002424068,4.313208860038259,0.674893521382787,-2.2681651916325687,-2.327457149342678,34.511787810930784,-45.91984142463123,2.9509932206403695,29.62389414122579,-10.573679590291007,-12.34220055987152,-29.574502023920004,65.20228021424265,-10.706486107521041,1.383021493952551,-0.23015786674111977,-0.6421931770651018,85.81932650978148,0.3561513218135726,-14.269114513674216,-80.09627813218441,-18.713073388016838,-0.5918813801067995,6.3300765564484704,-2.6655218530160423,0.25309048558275393,4.2278411021343505,-7.278227343836877,1.9189820606536643,-2.0619644941328685,-2.0258377163793795,0.6698399363861688,1.475247408073904,2.2667897792545273,-0.5993787329512517,-0.10573213850073736,-0.33035971895276145,0.14580291605892703,0.16309388781080814,0.22487037065854262,-0.06217088939339113
48.93275473374531,-54.10512776877434,4.882358303107014,5.9213850781709745,-3.354407032607767,-3.471384322274538,24.820304345165983,-43.26118209453937,3.3991156004041208,41.36309796701286,-11.27927551161401,-13.184545052798574,-30.298091741385626,63.88363373111699,-10.05407383559206,1.5092932225607776,-0.4122111614406865,-0.9172167746662598,94.81724083166927,0.16864516398045998,-16.671751230655218,-67.29277969497274,-16.486806925471363,4.147799652075528,5.438270634074832,-2.229651258487353,1.432777824434241,4.009749864933482,-7.74486524835603,2.668020171163603,-3.00238726735196,-1.716220923559684,0.9956763704702328,1.0705645704137927,1.9507761842413265,-0.6164952374195921,-0.3906825746053734,-0.2584892428865884,0.1929095949908571,0.02958374084246339,0.0878465119896078,-0.031189172587185135
44.098388958925845,-49.476765189557526,4.683506631878151,11.21173261493819,-0.20302712931056607,-1.6153747710310318,15.861859090772331,-34.98498974529778,2.0807319069495733,54.22036905103826,-7.939098539138957,-4.261755985553243,-30.64123845714472,62.49978709033019,-9.310328578363293,1.8716675101798277,-0.3916701012299609,-0.4977573518756861,104.37075296971533,14.684144610216666,-8.26082939597361,-65.8220867556758,-14.825151160775713,5.537217795698848,5.932907004399363,-2.411420599534563,0.7066911691535852,3.5214837053899597,-7.430662628392027,2.5531325767294994,-2.852549633518434,-1.828209863038037,0.007966489304679388,0.6853462468438217,1.8951387366258592,-0.7194189025869546,-0.3324159732087025,-0.2569206167320119,-0.0936013393391778,-0.004046711398030204,0.0773865897129286,0.017901333985716607
39.520382008129005,-46.53133726605451,5.084619746071816,12.067961334788116,3.169366488245214,-0.3005891703885192,1.8988658934826665,-33.96353785868029,1.8407697534983016,59.61948628475494,-5.401976029910106,3.059846396823186,-30.688103501492396,61.214754399684566,-8.802825006332812,1.9803872947229382,-0.3475243976427816,-0.15303662491219114,95.57936906644242,20.49030536041172,-0.9097725429057122,-63.986934141584854,-12.035564057559645,2.811203566897159,6.909127853403015,-2.4985227402637356,0.6324190674607655,4.035133706407738,-7.79288129819033,2.367343897162189,-2.4094634264848267,-1.8958998090791155,-0.1465038348633706,1.0584936210446887,1.990911450619711,-0.7120361173005604,-0.21757590199369406,-0.22591565973379596,-0.08771280024144715,0.04668633094014545,0.14180219907957442,-0.06751459264209482
34.56319201776413,-44.29175390289276,5.647251399422786,13.218076450743002,4.80746054373438,0.11240160225415766,-11.709465921687652,-35.60957652395733,2.7077414123886254,64.12089343275916,-8.029588866965764,0.6036596257005888,-30.82766996700989,59.92766317428435,-8.562099328323502,2.2709619036691038,-0.16166572293595838,0.5824444453930548,87.63088208881992,14.414899295857873,-3.9381099227020617,-56.18869139396206,-4.674031190519593,4.996200684201683,5.573189102961556,-1.974635188700129,0.9913632425541087,3.7795740832098406,-6.861145689375492,1.596479065620472,-2.1051472634467046,-1.4720227249345434,0.5576778914218671,1.056483248675873,2.0341975091958835,-0.9535473902076923,-0.20519064113533314,-0.1830772043466228,0.11219193611360187,0.07281329697483752,0.16815579023671662,-0.1250557406938725
29.28767013050425,-43.16431533993384,6.027666636556859,15.9824888420169,3.1061827719676445,-0.9214822006136403,-20.642157107093343,-35.03980655288246,2.9646455746488423,68.74535470823143,-11.528732604362856,-0.17220546409186216,-31.077535528172007,58.12903093788256,-8.488169790033135,2.9135890803150843,-0.3741722990127806,0.7464379557460369,88.63367181414556,11.080220932632248,-4.82917555563101,-59.13148925317521,-14.5570926063804,5.288554887021672,4.6734636081212,-1.6100076417591458,1.478022694195126,3.470393809330214,-5.82682681589938,2.042458879100118,-2.264120276979893,-1.1905984156507041,1.0255052787535415,1.0332792455304942,1.7966428481284094,-0.5214397298502763,-0.2830311175795843,-0.16785014851251523,0.22162651951281653,0.1490925431372085,0.18314303178469546,-0.014624685625957323
22.284814400750577,-43.10555565935602,6.5697034117183435,19.073553389388668,1.2234288426644238,-2.157452756455371,-32.21917036555704,-30.35395325288926,3.271697795323424,70.44928338263249,-8.803740303717268,7.487842247960861,-31.22483677583819,55.515914027119145,-8.603889742717204,3.3919643842605445,-0.9447651895874076,0.454787753713582,80.57419882691204,18.287343129241755,1.73799921579696,-49.90697098327593,-24.52829051893466,4.117842874735225,6.2789740277803245,-1.7261141443221757,3.2168343750356083,3.5425392960923863,-6.25316492715523,2.9491968129958512,-2.4816090009883136,-1.6765414215041365,0.9328870018326736,1.0166128046859169,1.2428648447122415,0.019601961729086938,-0.26177071057183077,-0.19396970910989714,0.24113967038059703,0.13091878292604558,0.14423094321257193,0.03440488640743008
13.521842213811082,-43.469410338197925,7.179046281249299,18.375447488695848,1.330340628464714,-2.3078543063661137,-47.32097956578041,-27.200306809811934,3.425204461360521,67.25782891512227,-6.872253208960274,9.522833536305882,-30.943292919667535,52.22287908626658,-8.94220225222592,3.207948368263342,-0.9904940082771863,0.5067040125861378,60.68660326202142,22.08033296122916,1.2610824581835027,-38.9228582057279,-29.23637972017763,5.3286259380627055,5.508299127046624,-1.5731682338803183,3.281475827622744,3.6309343144319026,-6.632382473584712,2.578100548885494,-1.9524167920737345,-1.9026473826176802,0.29499626132263235,0.97588793051029,1.0923829117475221,-0.3178219203708435,-0.1604421697836335,-0.2477317589181888,0.10535044088884633,0.10408513005413766,0.0891398113700963,-0.06486779357631073
6.465779497560836,-43.989859831323116,7.261300248633874,14.690185403326073,3.4852762671132202,-1.9467713557981707,-57.59279562227767,-26.68671162915342,3.3666877315559405,62.19844275400735,-6.690390878927564,6.210222428751246,-30.226465404764706,48.21582127092309,-9.198183571375461,2.5486801997802084,-0.3290059537174908,0.7406453862702461,46.07520818252175,23.46071056428202,-1.8560976715568052,-41.11722056190742,-20.85346575489414,4.866565431843861,4.8059901599831205,-2.216291381579154,0.8767002172225302,3.7637030449323063,-6.516650022031134,1.5654946822764655,-1.1992552203356468,-2.2438642132529774,-0.7058183327120122,1.2154767004027995,1.0959531556348558,-0.27811224664824974,-0.056157717925046896,-0.372332964967513,-0.10977146803159461,0.15250844001553485,-0.011117097554039904,-0.019094672480402718
1.2467699804667756,-44.687784613798854,7.043323856754025,13.226100155699656,4.316959906991347,-2.0475866274368846,-62.45319744633345,-26.87979014062583,2.06388880019414,61.52119264138433,-7.937324933394308,5.087009970846836,-29.091243401111207,43.46721866553115,-9.04823962836821,1.9438201043721568,0.1315071323658634,0.7658088147823119,44.7169577754499,23.735983440770852,-3.035429085713916,-42.867383807068535,-16.503074363500712,0.6367905545719592,6.2331416640672925,-2.377714918422117,0.2157872527580093,2.8189147296028985,-5.250461258787618,1.1868567967335772,-1.584930206806166,-1.9361711828355057,0.006622809397850843,0.5250122725886099,1.1435628230956887,-0.43166542612358605,-0.036011732752757104,-0.32627410746458585,-0.045192206860208854,-0.06218304485156561,0.03520258661621323,-0.03294225205652986
-4.050595166154255,-44.52641812377427,7.254053386313957,13.363808040024901,3.2148299034652608,-2.291699466704491,-65.42189079141528,-25.33626924404188,3.6052180799808284,65.25777288452682,-8.535694336937423,6.457881909305909,-27.536241124905896,38.03013454175424,-8.511753983007642,1.822998549938093,-0.13973666544475793,0.6108787460037888,51.84005803251579,25.897366794671314,0.5274893515984779,-34.931717372757475,-26.86830472695075,-0.6147236360815268,5.774699003799078,-1.2172785233133887,-0.058296524833713885,2.271036187703682,-4.27381815544918,1.6315546911984733,-1.7278710895285567,-0.4455599596820571,1.252517399815109,-0.047727195417944616,1.2862060633554495,-0.7613508802295876,-0.06413528575453607,-0.05785820151272388,0.1207897941900714,-0.14722050946241946,0.1934062460061271,-0.10468606597613442
-8.546520303996235,-43.93435982260879,7.5576153953197815,12.3790615403117,2.817619944271492,-2.280953476316528,-65.68777120351733,-26.080815625169294,5.015420542636901,63.95614561659498,-6.736823900381937,8.547776235901427,-25.385980147748942,32.61527364197289,-7.713865398910868,1.890856090182975,-0.37840408530246006,0.38247223689152904,54.707245399489466,24.25820905650808,4.507396856241528,-37.9428892448556,-34.86424905021661,2.187847354755177,4.266149263874376,-0.6253272653190772,-0.39779715503714846,3.370780641620566,-5.3807020595898,2.1839317119203283,-1.5790942438601463,0.12342111808915532,1.2005823805663443,0.584405079679228,1.060326893914,-0.399727910091996,-0.1736353910511531,0.08083843384538744,0.1436474703223349,-0.04652946948864315,0.12993072591536603,-0.0873779772559591
-10.993182353201805,-43.85759551997599,7.737299711497168,12.353970864886385,2.0503310892715776,-2.2018366205527475,-68.23861743429073,-32.48290611861458,5.878544114890849,58.74340716785242,-6.5208736858095335,6.477625170708914,-23.063077292767403,27.52062974498106,-6.911198041483021,1.9944550044206013,-0.45825521694149607,0.3197469229571527,42.42731763364366,14.025999495705705,3.2907508972289774,-24.766313360474886,-26.557950194078185,4.2221468651112675,5.259305574665349,-1.3192507790173402,0.3212448910727137,4.156471428515815,-6.006434987216116,1.7275360250642535,-1.2072547201963986,-1.1510428379994244,0.29531989883121984,1.5665531111794735,0.6695047218013184,0.35756864193711746,-0.1940581594417016,-0.053671160803398066,0.13164127177871754,0.13945887760780545,-0.019399323624407702,0.03847546237054966
-11.926200726657054,-41.512721627351816,7.097269326185891,11.124647786251616,0.9735001560472284,-1.7520128678771578,-69.08439801205427,-29.982058323419825,5.308707393919417,48.066691410156345,-6.070055346064481,3.1286968028440225,-20.709232614883305,22.981324294820926,-6.1995999851407015,0.9579787607503869,-0.041487384885640646,0.48467488198312186,23.1661301945606,15.767216372076492,-2.7667107971862466,-9.917607290451503,-8.950735293696741,2.595105938338163,6.523013375388294,-1.9156489535008303,0.9357119084013696,3.9060361149796496,-5.960567205255553,1.2460977712345087,-1.0262110418856358,-2.10301699351624,-0.19437036380793854,1.4622501866825919,0.6979609869998866,0.3024634611541016,-0.06874696423830816,-0.13981789223808155,0.046620134375079274,0.18241303922849153,-0.04495423883582549,0.09240324685078824
-12.05890640912088,-36.58487588889558,5.966018293940576,7.845803387630754,2.039693760141468,-1.1996025641815813,-63.91112338754739,-20.222478241777893,3.52612224243289,38.904658719558014,-3.1419667318148266,3.5364055032242456,-18.060122054177494,19.010720870764807,-5.390189237562396,-2.2224830230872152,1.7451218446367462,0.7464433060557684,18.424515505357675,26.852414412117113,-5.1938373298349685,-13.474852011188663,-9.595285500315656,3.7936286011391873,5.938321031478549,-1.8911986036502486,0.35709296466086066,4.0174568416151155,-6.496358732208196,1.1557761867965675,-1.0291664818280237,-1.6947016611618586,0.10156431403961952,1.041256239155348,1.0643578357775945,-0.3641397659797045,0.016037073182269553,-0.14839169494196866,-0.00028641448004680393,0.11703333838880803,0.07043661684996103,-0.0402831953554336
-11.354480168376378,-32.3130156303631,5.39684702367832,5.57544303655887,3.0124698936331864,-1.0896272318744735,-58.66964723099237,-20.66331160764151,2.9166547898849466,34.844919195439054,-2.600708260392765,3.692773217294473,-15.098475988794196,15.289950972903455,-4.384085116686128,-8.776479905913593,5.656154106424129,0.9555403712927781,19.48063619029062,18.423235481604515,-3.895825669850568,-15.937318067446354,-27.292913771426328,7.832736986372985,5.354290825780635,-1.749223101384426,-0.5435019435088352,4.155000204182377,-6.766305491409221,2.0891548512525397,-0.7719084850415894,-1.168206664834331,0.3138062821532201,0.7663476144931876,0.5259522077483236,-0.24186774621911222,0.06244540999854079,-0.20549565809649986,-0.0067346796559397595,0.05610545961317839,-0.06986782978253146,-0.004350541055792395
-9.50746102560611,-28.87146403934552,5.0496912535060705,1.5426756490562923,2.0936414569725796,-0.9254425647401404,-52.88358886724068,-22.36200539881322,2.576993031746476,27.372884323895303,-0.9103780398310592,4.2174849531093495,-12.338228969081968,11.537478680776156,-3.2659425264485256,-19.396501472477627,11.685221703533287,1.138379823847932,10.228535524739033,6.890842231772693,-3.1024488330427245,-8.355595118601537,-28.87960242974552,5.49839704243436,4.720514293209055,-1.3782674635610779,-0.1169623112290478,3.914090079079794,-5.920206650447065,0.9001083802028061,-0.5900371104011148,-1.4156111941369418,-0.20408143578458976,1.2847508799879213,0.7877710342474389,-0.0040560057907441304,-0.03491126992985661,-0.24480050134634596,-0.051896547124755936,0.10545780217644758,0.005618556892797306,0.02729242783161292
-6.219469110241022,-26.407644673846654,4.71796967612077,-4.963834427774616,1.7426411979083878,-0.36167285669080806,-41.04244968208175,-17.627655628016278,2.6313153002987155,12.703784852962823,8.169545345340467,6.925027745222133,-9.842194846400195,7.9878661645203515,-2.202111410528735,-29.99231215242939,17.694080310806633,1.5474374252276273,-1.4005218827561379,15.146606061013056,0.9428136196946166,7.345227180046815,-16.37871458063196,4.453727232812627,4.222141187148299,-0.894431665371819,1.789621989953567,3.514053574382657,-5.550627703380861,-1.4896594381168708,-0.6832492837385766,-2.295712695465395,-0.6035881349398042,2.037264511368229,1.5464204098971737,-0.04371549168027837,-0.17617257017445465,-0.2979164981188452,-0.024229364285634786,0.22204119995330382,0.21983315656959632,-0.007596779040328839
-2.2912072594697745,-22.97219146223991,4.174974615243818,-6.74362659913778,2.337045020486875,-0.31932720930061226,-31.163231034185337,-13.57244724461074,3.3665440921668925,-0.5945465826894247,16.92232069329191,7.237001226672366,-7.497571221596287,5.110088740863455,-1.3133909074766075,-37.59839186039312,21.900555116123797,2.0911645383473885,-17.710409803460188,18.995217280035813,3.129036540700901,12.94777829703003,-5.588969834051887,4.444707639758003,4.901726770945361,-1.6623439750803006,1.3236619917929446,3.2441814176808705,-5.789689280231639,-0.9520602282242394,-0.9569043282663563,-2.3460381383800835,0.02534757421881636,1.6161657391704125,1.0491440908100194,0.010023207220090667,-0.1358825902034704,-0.3085619715516889,0.07359994340234316,0.1518098248376155,0.12172280756265605,0.006439112800027514
2.145574896084795,-20.51330387647748,3.365402347759634,-3.3999370208962163,4.272974186083231,-0.7027471503973022,-24.667862063639838,-13.264289800991492,1.8438734673088333,-7.238080794927614,25.121922090484365,6.277498292057204,-5.299954976085376,3.017738967467692,-0.6834319080420153,-43.776005154091926,25.315942731233495,2.8733758417837385,-34.87437184003798,15.298926945761385,-1.4621668018718943,20.541172163522575,-3.298481987628427,-2.0813087478516508,6.141724534325119,-2.6527754211088195,-1.1350449286055193,3.702265430035578,-5.86679232643425,0.500233396146933,-0.48168510886063276,-1.6278408905787187,0.027130198590384135,1.732428379291665,-0.024713040218748615,0.4608281963121582,0.08573643746317179,-0.2212911983218805,-0.0406485545812031,0.21591932404095904,-0.1472814104525805,0.08157334281997619
4.649141320281334,-19.58570448469454,2.9276120211406607,1.0968060565978208,5.779491312767765,-0.590939133538739,-20.606319077582132,-11.569505928026475,0.7600778511361971,-7.924336849360984,33.12536206964087,6.776711292654619,-3.451705116909477,1.6018085215908109,-0.4225009826624343,-49.46231948690441,28.919445125535365,4.126575605167058,-41.92810345008603,18.805491089423672,-4.165943544327945,31.654878083541828,-17.20713084606617,-2.613752158423445,6.001958659967226,-1.4775192609069934,-0.6704215572665678,4.303641324351921,-6.395825129553213,-0.3399152628970928,0.3454479779710292,-1.3759401196367886,-0.6045737585685975,2.427195102237751,0.4060627440453319,0.31803328929087404,0.19531614116550633,-0.1047420071548558,-0.15038450112330723,0.31337929531867376,-0.06798091144849135,0.0407322890016371
5.173242700852508,-18.084703462802718,2.5299791437094163,4.671260131468131,7.404244921767363,0.21766837501854946,-15.064498142508825,-9.658300878521509,0.6322037592949922,-10.904334106888031,40.001832665671145,8.39727312559589,-2.1690674859607104,0.6332251914255743,-0.41101187150166807,-54.05824140302214,32.0970692201642,5.679818950376199,-44.036274250429265,21.93469093420185,-0.6046300436333796,27.47806376838053,-23.097016740301868,1.0329688638617738,5.441914680060511,-0.28416319709350607,0.4287654846957637,4.327250970371718,-6.518997865931714,-0.7935276470279149,0.5637082370529057,-1.1845105052362093,-0.5324229013545904,2.560058056665852,0.7024143962195153,0.22383295838734454,0.08573586557534933,0.004179923665734072,-0.02640955769803496,0.26171230817414337,0.03686681237889487,0.001261664496009255
4.878838381167524,-15.09064352850674,1.9418112649742583,8.698210150318971,9.351296556802215,0.9823969591162041,-10.410901308616207,-8.15207202900648,0.5354751703571526,-14.162639328395906,45.983016935290614,8.957416619885251,-1.3712864766669592,0.03266052727280295,-0.4129823725515866,-57.737365804190176,34.11172204749367,7.14025646350868,-50.61824807282835,23.388917957318377,2.1476761459772056,29.352931269814956,-15.785001920882765,-3.115503591035915,6.002603946910908,-0.808516132901802,-0.35701901120915613,3.9103721788754298,-6.223425302614875,-1.2757880139105147,0.6967916569153968,-1.0800231209745783,-0.4139314598085703,2.683879765169665,0.6313142900187115,0.2780863987331519,0.08713204200245155,0.03335002239958687,0.021379060428151707,0.25683834329786237,-0.034195133325559256,0.053022894195078725
4.550134045337327,-11.710509463875686,1.3897805785049022,11.213067322807893,10.859791712643066,1.5348843182724514,-7.51978663421159,-4.564655663952009,0.5763123550024435,-15.597318208322536,50.75232784212546,8.927687166693994,-0.8221624416398808,-0.27732115223588844,-0.33025687387645397,-61.589050421116404,35.36593582186388,8.153057332866155,-56.35324114462393,29.40320920114543,1.6928600644909335,40.70627808721784,-16.19614784868161,-7.884759101187844,5.203900994804107,-2.3934014039371125,-1.2252182137489414,3.3199755877848878,-5.731455407070898,-2.165970976982968,0.9025443167045257,-1.9511517805794922,-0.603205286306466,2.5141242481843125,1.1146752847789414,-0.1571853108711119,0.24938772403695225,-0.23128314651693316,-0.06625363329568494,0.16458644187137483,0.09120558101754245,-0.0256351704573736
3.780684292311701,-10.63755001958198,1.2841594715500224,11.987021562533535,12.05083048328968,2.038324934292026,-5.886377431507891,-6.459363645499292,0.05325434545811652,-16.679455871171672,56.596401502505906,10.865157300011656,-0.4955048294773841,-0.5041240188551885,-0.27191532561007586,-65.70187641296553,36.19456347454279,8.717490040058498,-61.02082567331151,30.62661843678013,4.190459336529805,50.416722257264055,-30.642911687334095,-3.1576703213382595,3.0941090430975686,-2.4248422808675567,-0.6804086335106508,3.690786034862232,-5.759127831761562,-0.8708996920017126,0.47159242536085827,-2.0857949733011174,-0.3271077042267422,2.0958922330340855,0.7425601718789161,-0.02861114852300513,0.10060163997775187,-0.2862391724451019,0.012199901302552697,0.11481411149694418,0.12249142596637197,-0.06570507917277271
1.8868101557585013,-10.103221806350962,1.5858576032936715,12.03355012946072,11.408462017271754,2.2719626253882828,-10.329862336071042,-9.090312453530293,0.13327442620634813,-17.323529932454353,59.98895421559993,12.450404217092911,-0.34527992597461726,-0.6249082270467547,-0.23796774486803626,-69.15048097687581,36.47235464493176,8.760722070369805,-69.76400891979029,27.31124829357387,6.915870117099862,54.59563537032841,-29.70259743223848,2.536752863607457,2.653666503122103,-1.2052064804398084,-0.22725212880373824,4.35865924680444,-6.162835475245437,-0.4201133503210213,0.6699020813994045,-1.7135955259301474,-0.6146289975079311,2.653381864129158,0.3703023612495658,0.23280994142199352,0.032539332763465705,-0.18916946276143146,-0.017473362743606818,0.33789347917383533,0.049707206618992555,-0.03280681213387372
1.0309219986303448,-7.960701031428486,1.2954736283904917,12.031757332195063,9.44654184509747,2.3203772023150635,-10.85234164110258,-6.1528602878067,0.5246066610590441,-17.1459579764358,58.02527055346069,12.20916677745633,-0.2719925339642113,-0.7125876781588772,-0.2824524794902222,-71.1059483911923,36.522358544317036,8.584052909426894,-72.54402201575438,23.658390173102124,5.811448120766528,56.9970094840177,-24.324975794791513,-0.5357660133039853,4.782131739716691,-0.9987677276824399,-0.7903052540632655,3.588944899239387,-5.590910312183736,-1.7904873514751023,1.531238383626031,-1.8858473160216864,-1.3092157958661197,3.0687567057348666,0.8041075341352848,0.012906535618783861,0.27109801756600793,-0.17784675519526544,-0.22537246678080006,0.44562566468671294,0.07190771573891742,-0.013859305374308937
1.987435209708604,-6.824164651705912,0.8353090318283607,11.838689284773976,8.175701684977806,2.0419144738417923,-2.5751909544864686,-6.814220865088027,1.227665877427919,-18.72771434355418,58.052889894403684,10.992443354534643,-0.17980312493762135,-0.850026615645581,-0.32342739014668126,-71.8446510897392,36.55958974499094,8.323970212352886,-67.95506670926918,17.6676622588509,5.694064154004347,64.1650740129549,-23.08754173092237,-8.3865571628221,6.24167184669453,-2.442406017447302,-1.2084301897823826,3.2843881106972668,-5.811980751006473,-2.665761234672234,1.4831232776366785,-2.354569663653882,-0.8333656859049681,3.186669193893696,1.0861036175803396,-0.3032483109041935,0.35567754346849906,-0.30082979614834904,-0.14433666004497442,0.40610056874704636,0.06848440398372403,-0.04402680755112304
2.4757267717980156,-6.662052427400593,0.6134273494724753,11.688280285461,8.50190522466513,1.6402560405124653,2.449647776581261,-10.664345314066225,0.6669588798386078,-19.266189013565832,62.50470885308271,11.89210366209323,-0.026161034543232247,-0.8917600515250229,-0.306431788600245,-72.0472095978459,36.48762077438595,8.017218577122978,-65.62884083047935,13.149858857685235,7.350430259640786,67.45495080134546,-17.311723797181404,-11.221931765553073,5.669517991479532,-2.781883837570009,-0.7045594217780433,3.605891706652154,-6.363461596884918,-2.262145017232627,0.8839279078500868,-2.3045929613119838,-0.09548359654848045,3.4589778820812978,0.7553891924304931,0.01698799293704481,0.23522433165706297,-0.31448193808726455,0.016468661764757034,0.4009392352750391,-0.02327981773406822,0.018127639108595765
1.5209278915843627,-4.707799577916904,0.4654141316381252,11.56107827247662,7.631597795779142,1.429319857797399,-2.836721450516576,-5.390604253013123,0.5780155127179949,-17.764392091160644,63.60367103601372,12.677735463297381,0.0520550440956335,-0.7490456977592398,-0.2980784467060712,-72.08149825078206,36.224749332431514,7.780610955712934,-71.49736258971906,19.305480325117433,5.808959298119159,62.80626733871495,-15.53233224109065,-8.339880648453134,4.846107230556304,-1.948355189930697,-0.48034987984737587,3.0620146157257393,-6.114328301014195,-1.168646642397246,0.8687067408781051,-1.9073390832441928,-0.21672175882667183,2.896955026906249,0.05053198376485582,0.6561840125148537,0.1419330895934735,-0.18283629418053823,-0.006523329088397888,0.23604982014138687,-0.1704762848057246,0.163697570000386
0.7361578887133264,-3.020651258706571,0.16905376967573935,11.39258402198311,6.6750570917618095,1.409802171903154,-6.52465147008555,-1.1592907431789252,-0.4557517094277437,-21.736443027547676,64.85875254032347,12.39578518206003,0.03663086195509036,-0.5010261849929861,-0.34587481345543164,-71.72997482770299,35.87987412781218,7.690825710706132,-81.03497707352997,26.87901295255912,4.153787641881841,57.19030643096626,-17.75144727623062,-3.2902531331336515,3.9921584221436004,-0.3645723171560433,0.04714166025097547,3.0242143153196546,-5.790924398155813,-0.36528822035140507,1.4938032251076558,-1.9567304976264226,-0.7290922494450487,2.091063193306737,-0.16254425068848055,0.5647720006018513,0.15294318878520613,-0.1462268432252342,-0.05951146802892483,0.05435850026118154,-0.16575198922057982,0.12254054487160035
1.1709732508658297,-3.9243109257538875,0.17542331918362264,12.01095383624076,6.836434785127138,1.3087061436951108,-3.8089989641950357,-6.421195612183097,-1.1591933552755473,-25.13374089413525,67.68437043386581,12.338201799351426,0.07277063408428784,-0.4392393834613406,-0.34521333371665996,-70.82862703945166,35.43617388333595,7.606686475995856,-81.03694189395107,23.698300493260184,6.760899724706701,62.40632573182899,-17.71514696838372,-3.5366761754045055,4.388677317449019,-0.18388747206821285,0.6520400541786225,3.2816272040263317,-5.652362986731669,-1.2798200574885175,1.6962081929247788,-2.6421365604878675,-0.5104012699822343,2.6836468829206206,0.4387421726026939,0.018424295190871385,0.19507676650632735,-0.2837365892377826,0.0026061314987072294,0.22706081615375434,-0.023313701104830217,0.0033919043986779494
1.2594004595890549,-4.31207175437189,0.4308680321628761,12.740712662760215,6.94232953345692,1.1794355778380923,-4.952205275203009,-8.212652980896776,-0.08734498016939865,-25.79913676557587,66.53363144271471,11.47559323578441,0.11610988812226096,-0.45260543631833,-0.29476692110892483,-69.3282549272811,34.69747045662705,7.460151743974904,-83.65715017697914,19.005020129417996,7.2909249404460414,74.59171743488895,-15.163431429504188,-7.581315113324792,4.799106866460652,-1.6498372517045066,-0.6633388949324476,3.0572510075181345,-5.799720983701922,-2.6246214375310117,1.8110987283625104,-2.3138125028225844,-0.7527201143458694,3.46211110199606,0.9806889503061317,-0.42166897326885394,0.24248647335775644,-0.20935881966387998,-0.10139459619399144,0.3888660218674046,0.08538843877096025,-0.07864697274564475
1.4059630936981302,-3.282867373481414,0.13685464632595712,13.869108570616408,7.545828180942425,1.114003609515403,-4.341943146230419,-3.792445262625962,-0.31107486183046645,-23.72605040115815,66.38817796700745,11.90127840270642,0.1142257617482222,-0.27643209022012605,-0.35067692728410343,-66.94940711596365,33.59890098427922,7.3714650500218,-81.38605926983588,25.20065599888099,6.253088419073894,79.80600207609041,-18.534078019284465,-5.035211651298614,5.30735378791271,-2.058958253301733,-1.2711875195144204,3.2349256820024164,-5.920171916216985,-2.219251458574855,2.1161680558512224,-2.193607327946726,-1.0071188588365316,3.6226374486734043,0.846959414078308,-0.18024642274673125,0.3437686670355017,-0.19541810289158235,-0.18684135822189565,0.4130488367080989,0.08695893340792893,-0.04543255469763137
0.7275952157058526,-3.264624011648774,-0.011562633781717358,15.063225437498104,7.788559905355742,1.010381601977571,-5.834079998216454,-2.1395465837420042,-1.4291539174242178,-20.303074778537873,68.12556439765665,13.165436907526372,-0.047193518264995134,-0.029633006427152296,-0.5389110630762473,-64.02732100690126,32.10968672488762,7.235903965710379,-76.72985332734983,30.93888661904794,5.56121660930442,81.88436360395667,-26.724851101129637,-2.4703576480665377,4.125619196794186,-1.3346987781899746,-0.2901555275698676,3.624010858692601,-6.000587571454206,-1.5164469608849331,2.3105930630537443,-2.725572887797768,-0.7355804885079884,3.8498496408067626,0.4494418794660184,0.17627959574061028,0.3690554053457637,-0.3217231770878586,-0.06955789272171983,0.4785966602520431,0.026930249891475234,-0.013906330021223942
-0.12129033414772043,-5.268116724379873,0.4851965088657101,14.285983943647429,6.893738031908902,1.113865754975926,-7.580445903442897,-6.971112598570725,-0.7480975225415974,-24.938046171780496,64.99655863836793,11.762095538570547,-0.29132342341702416,0.06757278997949477,-0.695177605431173,-61.13957072692994,30.46125349972428,7.0653317414447585,-80.43680209286013,21.265469542971577,5.250068398591077,73.04444529600096,-27.177963171026867,-3.0855091852873393,3.2727186327557205,-1.3407618797701963,-0.3052036231490485,3.7147124000159355,-5.401609545107386,-1.1053557028902072,2.307048047644402,-2.63133129909,-0.7906427834393253,3.8223888047120624,0.2716533520984142,0.27589737247060747,0.3547513680750707,-0.2841169732311454,-0.09766683270675233,0.5275641382822444,-0.03958119519147663,0.0310984092415938
-0.08975210309385522,-5.9406087995875305,0.7348957522736446,13.258187322644757,5.761062315132598,1.0844882306600694,-7.368803024178001,-7.2004666349940205,0.7506678079227732,-24.507413328813204,61.546143437293175,10.881176988235827,-0.5289808971670731,0.24495738810334267,-0.7355884098340739,-58.378670167308016,28.848897969648863,6.77520854132927,-78.11121562149468,17.214227616867337,4.920490906132362,61.095932084814564,-20.028211476679168,-4.63850127373977,3.4893418961064713,-1.4661907320625405,-0.3487842886426904,3.6208030410012224,-4.831639699692346,-0.9233736087100034,2.001809902902142,-2.5114111509121377,-0.6248401909458621,3.2456044521058542,0.42365192267804813,0.015050221843088001,0.303991357716718,-0.2848773727456401,-0.09101910704835862,0.3837398980482311,-0.01198378460100463,-0.004027877816623408
0.09113547657644959,-5.4777102198779035,0.585742394909598,12.532281854241939,4.4847770039492465,0.9465450001405479,-6.869835941177181,-5.4206560331308316,0.6784989530502077,-22.07567610202999,57.96499694193878,10.974390871635915,-0.8726993589226357,0.7747708688290508,-0.7698743369207969,-55.55165227594017,27.484406643795687,6.3514183016545065,-73.96424874547661,17.18138699522329,5.533329136609699,68.74830255646057,-10.675919029990432,-6.079289414349692,3.501605467852942,-1.7003939589284416,-0.09336652676779608,3.6486481386655565,-5.449193638619949,-1.217673191675787,2.0113140788746793,-2.562073198348785,-0.24274137564266482,3.2542087190684374,0.679824371605857,-0.20174675195440653,0.3110516206870909,-0.3241269044173532,0.04390849324972523,0.32414600743140753,0.06423060004359622,-0.07060441903161042
-0.043286119598313605,-6.539322604930958,0.6031898207048481,11.84650797118891,3.332901784331362,0.8581932165831384,-8.049994441128856,-6.674652039477462,-0.693003253583247,-24.508332573234632,52.37806186098813,9.931780817334888,-1.3317561237784303,1.603222177841504,-0.8968178981118564,-52.70455729593377,26.359351475645212,5.9980301189674705,-76.7663233165474,12.453823989325823,4.392408323321614,76.85714554332736,-7.777027489395149,-6.1838615926995555,4.9303650844125695,-2.0522172713666644,-0.5500813025067919,3.5240642742128196,-5.619861802537392,-1.3632626562327537,2.2241609472814825,-2.4148399312222235,-0.34604814493114333,3.5691445198864673,0.7414298726124334,-0.08342128769239186,0.3795767839143884,-0.23561712539980165,-0.04136690991690185,0.3868638720536727,0.059514326882498636,-0.030568397250793765
-0.4297829049021137,-8.758510793940955,1.0896859126653398,10.851221202175868,2.14216614723036,0.6309947048756094,-9.910058330860437,-7.250466615823956,-0.037228671404102756,-22.152800302444327,48.19896786542199,9.465871357648382,-1.8766055975263565,2.7639521555625155,-1.093746131076757,-49.573756663298404,24.991459045008526,5.57698287700759,-71.00593688135183,12.83438158836247,3.9696279468332056,67.42290976216707,-11.276550851301014,-5.245196788266961,5.4322734543132025,-1.952503654419543,-0.7954122431697417,3.9170712921226203,-5.2698055590599004,-0.6432785136798063,2.1519269643131276,-2.180576783067291,-0.4530652009186913,3.4348588242860245,0.6003654661208575,0.1251102842293987,0.37226691025920194,-0.18176050342225347,-0.11130878608199779,0.4019497786284325,0.0008381758136207203,0.04508428531242142
-0.5500319231033278,-10.496542549573762,1.4882582159462105,9.329894784562411,1.9535634077502688,0.6446072980752912,-10.458688269407554,-6.260782802538225,0.9502369746281043,-19.2709460412834,45.968275902297584,9.934445794926683,-2.393474914384379,4.05119392773279,-1.246265467109244,-45.74661368201147,23.077342736635533,5.2689515216304725,-63.11945576022764,16.48576770712849,4.6395715444619405,59.408115127851374,-12.758393215774841,-2.5552353023206034,4.7610658644040456,-1.5687561707466606,-0.25655804194299436,3.991491989651208,-5.038378617067847,-0.4822543674426122,2.0566998417165134,-2.477309166431065,-0.18202842450821508,3.2802909556700097,0.6617815417252291,0.0478942668690845,0.3285848743285842,-0.2676465514124565,-0.023786234742912502,0.40480916916731063,0.01600316797508428,0.03201393746300727
-0.4692995342194589,-11.501816931046948,1.8891079113787572,6.800352873135856,2.712545783757065,0.8573949936856711,-13.360073701828545,-6.778259020235346,2.3371779551054543,-23.06451592903785,45.27014988099354,8.653187422271783,-2.9131836112342566,5.3297843290289135,-1.258440861860677,-41.63863293788854,20.81177359079265,5.146748885805356,-67.19225752091897,18.88481839118984,5.888529955482736,68.58595249432945,-8.469688345543112,-1.5339171309441288,4.785436859489507,-0.9975165861211449,0.18708355456235706,3.982093652646824,-4.865169286408635,-0.656266052748539,2.1511798805605804,-2.7773128889542607,0.03673520925815894,3.200550394760513,0.8138537608832948,-0.19270488754235723,0.34042902930240676,-0.3261679239963786,0.0340627901882488,0.41004058290666573,0.04738283552110182,-0.01432981094719088
0.35316883041114616,-13.235082575846942,2.1656242354671735,5.177959182300377,2.477152363698035,1.1982375218230665,-16.899765772399075,-11.739672825455752,0.7612509052043317,-23.815527219117644,39.86462030416259,8.123476207763407,-3.5163138598785846,7.093381150287778,-1.0678921212697814,-37.9108572584929,18.91534725301299,5.046139311536322,-66.62715147281175,12.683051907998992,4.053263779170486,60.35695241296507,-3.2943694704592965,-0.8105185332959796,3.905160443537527,-1.4020449531430694,-0.46714838251589885,4.185813877693436,-4.844256540923216,-0.4094016793883596,2.1314934829911953,-2.048018882311846,-0.4069105060375945,2.877577760961993,0.8777978133490497,-0.3141598307983879,0.3172451970181597,-0.19627998932768004,-0.05623049220307588,0.32280669583435573,0.07423241820328479,-0.04240286679559567
0.8570083422596922,-14.528783680122295,2.6032949762245257,3.7254515257211867,1.6137339837841573,1.347251869485963,-19.727582189459117,-13.976397406581368,0.775437992391632,-19.59678963713344,32.65945814553863,7.740078734966662,-4.309692879812735,9.145799332640019,-0.8578081269016468,-34.89712625578536,17.406427348993503,4.817196287967463,-58.5948699825555,9.340142662023617,1.7713581327966137,45.23206705649574,-1.1355576750038678,-2.6633088460796923,3.97595891768409,-1.4657109268156778,-0.9478558790046349,3.4418758176985667,-5.062550279789232,-0.7120636955434679,2.04193580791049,-1.4919959940760101,-0.682440672234746,2.7174888976864864,0.7225237787597665,-0.23449335456521095,0.28564095581599747,-0.07955978001206779,-0.13120103776871916,0.3101481751783458,0.04548401349844624,-0.03731356141570017
0.9753611170555835,-14.161251818284072,2.7441227453966635,1.487314441528893,1.4566817526175515,1.5379127041452312,-18.689799330596397,-10.860146048371389,1.9152288921279486,-18.634464215094802,29.13269469178565,7.7959163487947585,-5.268757848004113,11.166769110419779,-0.7825812980854672,-32.3418672988453,16.092795036604006,4.615327729696191,-51.016153766049214,15.567073253863862,2.049240165118125,47.79517457329158,-13.793645580688297,-4.574613670788848,5.080374467138965,-0.41243751934774114,0.050427744206621564,3.376876868153724,-4.543885717891683,-0.5058903975868644,1.923951166847703,-1.9542048472679499,0.10280371850192549,2.7058823105190513,0.5317516631127391,-0.08458936619933832,0.3187048400755898,-0.14451267614897365,0.014019889240142316,0.3150796148643076,0.015329798514513136,-0.03625636848008021
0.7627632923757768,-14.604079585171345,2.891890881193395,-0.740731449999027,1.675997610927362,1.8574479687915333,-16.556117208481716,-12.849808018021545,2.0740065044645717,-21.742552613890968,26.301079566162194,7.613668861045925,-6.130710121806534,13.14726728833659,-0.7297970615107372,-30.066471160334956,14.921462729639234,4.539573512972245,-47.29241148745439,13.038037079956736,3.7804153963739227,50.47040743673558,-21.609203838300218,-0.7169522718276126,4.5241543873085845,0.6967567582013748,1.1546665302754742,3.96905330639696,-3.98574689692029,0.13552455363512322,1.9203453466188631,-2.7738928716908364,0.6607730781673616,2.781792223879558,0.42241780005256746,0.1299531135641345,0.3435840652485709,-0.30123209576604015,0.1198229936053812,0.31296430041482487,-0.004735921776950535,-0.001632822275142221
-0.6672777323084658,-16.68665302995409,3.5610889880167647,-2.8587219818887797,2.0269870804465038,2.054126563258213,-21.672379051231353,-19.524844653406685,3.299638800951335,-20.94017178209388,22.319029737978774,5.8503037305364485,-6.687911067820251,15.015402679581477,-0.710734533180248,-27.876049052334068,13.754605600443835,4.542435254488505,-45.75415354991695,5.999016696861115,2.5105469078186444,50.375812781510504,-2.2842242706854896,-2.8084705021846004,4.003148193805844,-0.2907697049906557,0.23770968354709213,4.201091357665098,-4.5209212707658555,0.21716641245013305,2.082521994477458,-2.3846580867711196,0.0038032736338217093,2.7780970886990928,0.4966419936602172,0.15095688327846832,0.3519706739100936,-0.24541223154606104,-0.01734169346374696,0.32104718278019756,-0.01605120250078106,0.049248683332135564
-2.5662871082914243,-17.9918036651721,3.822780627650831,-4.680289589005272,2.198969680558808,2.2777827872237486,-26.286757412881002,-21.88351702877127,3.450495844253646,-15.48055325751084,18.35175088044016,5.580362118565183,-7.08932574342782,16.563739429128656,-0.8249425078554814,-25.682798983520474,12.607028571906456,4.478078314946144,-40.45601114508424,5.705741308890814,1.6333753164963594,48.110883091007906,6.978636032468187,-6.573919097855695,4.628410798350618,-2.6979427102399156,-1.0739582465440014,4.412911114186884,-4.846293052214963,-0.036571484677537944,1.6676246189320898,-1.5084948923575996,-0.4085123773495898,2.901808587076826,0.7640494334613647,-0.049781751679323805,0.26404720192932307,-0.11953569914228661,-0.11172301709912656,0.36678667213625193,0.044344951676734745,0.018649321664890094
-3.461292967342185,-18.384441837154505,3.726315854044295,-7.496857658853189,2.8594848859717032,2.451613335868087,-25.51452459596843,-21.45780230913882,3.741681637737497,-14.579116667316628,15.465906148846997,5.314047912806673,-7.452438599148005,17.71515021867168,-0.9464245553303696,-23.740970885387014,11.455290592923925,4.2092868868776305,-31.908587819994757,9.80881674792185,2.661325732729175,34.58564668968832,-4.05495691114235,-5.33141144988652,4.321595871770865,-4.032270592693017,-1.9006182002909762,3.9832789635195156,-4.238294464632867,-0.14157444394975863,1.5135227551848802,-1.0213051669530016,-0.8551351916404315,2.521362639089348,0.7749367622391042,-0.21561078080969287,0.25871583074824833,-0.08696974437891526,-0.21389368338734926,0.3030674843179434,0.09985883765896472,-0.06680746681419407
-4.5409946973612385,-19.111653929972665,3.6868578675617023,-10.033792700566583,3.708476857383065,2.5319855912653053,-30.24745416559921,-24.40583203433872,3.611341760264119,-16.77444822090277,12.808846088888721,4.860918928120527,-7.927372395056785,18.535083655920754,-0.9732158106913326,-22.293655325497898,10.477493264995662,3.8474263205497667,-33.33781400202572,8.752582114600141,1.1866520733076606,32.73941437257407,-6.514530106798876,-3.1819056681731834,3.7603912447100303,-2.191759724123617,-1.1343257435768554,2.8224569698633464,-3.8414875193654,-0.3156421291372926,1.8916423399744842,-1.2281488492927546,-0.632102971802177,2.03569714018072,0.47944438077621426,-0.028154685680236397,0.25217328356312085,-0.06323408274557976,-0.09639986710625795,0.16617930958515084,0.056629410688510004,-0.049303123116939976
-5.1135617533407105,-20.356986393432006,3.537895892722553,-10.257811352287154,3.1132227264053993,2.3578939304878768,-30.483580994169337,-27.953729609137653,3.1328852360637898,-15.184184470544048,9.913218662942606,4.303354904576379,-8.389853044687118,19.081639075991074,-0.9880348664256771,-20.83925157882271,9.596521702122356,3.5371413077611926,-25.95146562245263,8.157824873450208,0.916416100486993,40.086664342553604,-3.9825979279006343,-0.8261479234979199,3.8503898911665733,0.3919969995767687,0.5713929216345537,2.533646076226208,-4.054066365786725,-0.4237602609942362,1.9244944152879018,-2.0513432128257665,0.31790982567767767,2.054188538836737,0.24939606699700062,0.13357381905779564,0.2610782760707322,-0.16042542389322012,0.1008454306550595,0.16261470793831534,-0.04164713419276279,0.020943872200858162
-6.823597990921012,-21.91792054005149,3.6440737549516773,-10.216857068891795,1.7761212661642276,2.015458540133471,-30.608327502148455,-30.168398124935223,4.234173438264772,-11.572423385601118,7.109032127384038,3.669965189798303,-8.777232965219113,19.4875814777673,-1.1133811756418701,-19.082664969297625,8.54778128139656,3.114449863003851,-17.866543232076424,9.22104267733979,2.168307534842158,28.38876712132455,-9.747206760454743,0.9968959577176189,4.08017524557069,1.12177303771874,0.745577205662757,3.9679895117481623,-4.343428647278387,-0.02768335699525471,1.8234400653756269,-2.1076289519893483,0.3336261350802549,2.3296084431389588,0.4500666116099582,-0.12978732360287001,0.3333620181396718,-0.19025476790564005,0.03207974260533221,0.27965834097708997,-0.018968521205886848,-0.019022924890234914
-9.337110975182087,-23.9310215245222,3.753073202591072,-10.928918251064315,2.105041090074817,1.7562815495191846,-35.65471783731336,-33.83023699649786,4.863455948865184,-10.487354152468269,7.063545421885991,3.116913594960606,-9.225572505875999,19.844729680420723,-1.3493687934819172,-17.195314227193762,7.436790483012648,2.624131083419912,-17.921971404400885,11.334824157473987,2.3112174490309396,19.985039880080976,-3.759599134617336,-0.8217810200506939,5.289683593255282,0.07783680295147553,-0.33745030297776046,4.9189962360882316,-4.748526811503484,0.6705574755944828,1.53623648337759,-1.558706966761453,-0.194886044756615,2.1001532376727905,0.6765659349877591,-0.12637491083772362,0.3230419084614017,-0.11289019097632869,-0.16659052214203668,0.24502134513487894,0.053613299658554554,0.003254094716680218
-10.20619482618857,-26.382003975329695,3.6481827047758997,-12.261646198911409,2.014280979632457,1.5671687600344306,-39.09051868583911,-38.01079076482539,3.988428766423221,-13.533321472893102,4.1839609427083975,2.0431721302455026,-9.744831647201007,20.199048376180528,-1.4425139404697587,-15.449553286419325,6.519659370047335,2.0825817213439257,-21.327563334684736,7.954855679482479,0.33868117397178793,22.020038549051062,2.1427618467366325,-1.6144585578703365,5.097420549466294,-1.2625487943641804,-0.2207565649534166,4.68032954456347,-4.901076053085404,0.6874177119372387,1.527947775465879,-1.8881940139213027,0.10349584971440198,2.0850886298559352,0.5701274662185699,0.07909035430147739,0.23903550694229417,-0.18782157347474512,-0.010293434123069517,0.21373005869631945,0.037991671574773636,0.04064173114268664
-10.289903159801394,-27.940270558280023,3.6668396094529694,-11.478403272392079,0.9659869132268649,1.3452443065489923,-38.99976828990282,-36.46046406783029,4.837394227998181,-12.032215497514034,0.06672833613810908,1.391600436160897,-10.291389161266746,20.270242297311,-1.4095991833778916,-14.002777406869402,5.913725917658365,1.7503884218181704,-16.21182805027693,9.314864043490283,-0.02089396162906043,19.882623014604764,-6.629715086489433,1.4821597311028802,3.546295046633195,-1.0129286114005454,0.544845951977463,4.488060581974033,-3.757783434167475,0.680561913656406,1.6356607700706032,-2.260549794024222,0.46018479405599777,2.1239644063440077,0.43385859438212865,0.04945022290209234,0.140677769969448,-0.21220080816327613,0.15759266116085205,0.22088487179218433,-0.00583152813563405,0.02137253332422193
-11.56686272353935,-29.813985987966923,3.8025889463058786,-9.41419606956902,0.2435973425454266,0.999691307969516,-40.96603566479651,-39.6457219914984,5.51459276298835,-8.47115558260653,-0.9237697882085402,0.7865597551147576,-10.532681355756038,20.02306688584566,-1.4318230291874394,-12.882497979239679,5.436965568040316,1.5628790417233682,-12.846057870772674,7.260382251091092,0.9125961099179629,23.314384152692515,-6.433678514635486,-0.9208068228652228,5.5019501489609155,-0.22390108473626288,0.40926051189332086,4.16448549750315,-3.4713948491981035,0.41183419526549897,0.9104910996428504,-1.7526983274511492,0.7161734884985397,2.0125472994408344,0.44823511542437433,-0.1057006111574933,0.13809350804063533,-0.179231529473178,0.13556652500745286,0.24151965370950043,0.012924704641795015,-0.028745814849886527
-13.25377269567145,-31.899283547361804,3.8741453757448525,-8.607681053411302,-0.09610986157133544,0.6897428217006708,-46.64159234858967,-47.63427858797619,4.784964778679375,-3.2187132565328946,-1.4611190370493445,1.234182824659928,-10.259608821293792,19.95085976001221,-1.4780130995828524,-11.890288705950862,4.939609054826945,1.1952694116700118,-10.6549834261257,0.4585709249939042,0.5626633597583522,27.255204985119633,1.9977921494467852,-3.5570537107129727,6.470697263393987,0.5532082484130061,0.11829972080218079,3.9852223739103314,-4.91603198666289,-0.35654057466586364,0.9079515959901099,-1.4315207508807184,0.4886751084516053,2.1552082420504806,0.6684084539654485,-0.22908633087195185,0.19350643345886465,-0.11023848025667175,0.03340563709827309,0.23786674500855637,0.07563079417515858,-0.06339520338932039
-13.174800413140245,-33.335759525291664,3.8192692849982475,-8.874281872950036,0.8857596886716717,0.6894133699952905,-47.52411722600803,-49.892038812885986,4.3938117440856415,-2.4481661911159613,0.6126820243184579,2.1804975706317293,-10.01169067174166,20.052107301817117,-1.4123242939362073,-10.840962831107314,4.571654567491837,0.9570343024300191,-9.131621528117075,3.5279573850737034,0.7097166939877037,22.050608337327496,-3.573841549752957,0.41808759684886865,3.776420852189955,0.3103856658200414,0.07452862477874121,3.9838056095443455,-5.39525494923995,-0.6686100555099869,1.8070537103963136,-1.7834399565100927,-0.18319782580789687,2.4962271830444682,0.6759935005252193,-0.09181226672595814,0.2540424847604975,-0.13513888666951968,-0.03798101303937287,0.2753939009593375,0.060761467744752905,-0.02296518109731415
-11.933741242474746,-33.117480383470244,3.553535520900288,-8.454339061101852,1.7437733747937059,0.6189320371596532,-41.30969739937841,-43.695524160841096,4.532314807839809,-6.245481057415733,4.728351077822751,1.0869505542256195,-10.099961580005901,19.938821117762267,-1.3254986151529715,-9.679748804013578,4.208366580187853,0.9877816983460275,-7.712228552170975,17.408014957409055,0.5324829232064877,15.37340861044208,-14.192258822671862,2.885587490425352,2.518792769859652,-1.3160484072655032,-0.5296527740822767,4.040579333326667,-4.166480851304064,0.6181552098386168,1.915242207936635,-1.6844256589826447,-0.5572020577093414,1.9593284294093967,0.09919338591720268,0.3367908684051929,0.33587240958182374,-0.20563720042936962,-0.09589163638265953,0.1934387851374848,-0.061622865414412066,0.07111426683528699
-12.173649017357054,-32.734254567752764,3.499765244322089,-6.704960311574975,1.4547988406528851,0.5173867542859419,-42.4442361309069,-42.7195930906749,4.8223537569132295,-3.5521732362372065,5.226201614537012,0.715897459468419,-10.180009119516278,20.214402134556874,-1.338142099695057,-8.602351801950318,3.8818696539673443,1.05129224102061,-4.929876072188382,18.232093589606873,0.8399568849984163,11.221839531488467,-6.076079892278733,-2.8466230547284,6.011656043460003,-1.4398839210211092,-0.9227545237992607,4.426492602760285,-4.149330459765458,0.6621042141913196,1.2425404082129765,-1.617664840235819,-0.06776531734508916,1.781164181751229,0.2332781669003218,0.04813224225328983,0.2884065465804128,-0.19003676239152067,-0.07827759037086968,0.17207554034341957,-0.04019748316865835,0.011441053936252213
-12.7955,-32.46953,3.62022,-5.96908,0.48332,0.54926,-48.93753,-47.0752,5.21768,1.08462,-1.54247,0.38217,-10.13315,21.22045,-1.34513,-8.02387,3.65402,0.939,-7.59346,1.44911,0.03899,8.78645,4.03236,-6.11731,5.37281,-3.00234,-1.24684,5.28964,-5.00202,0.15826,1.3129,-1.52091,0.01224,2.11489,0.74456,-0.39169,0.21644,-0.15208,0.03226,0.23658,0.03839,-0.05802
,,,,,,,,,,,,,,,,,,,,,,,,,,,,,,,,,,,,,,,,,
,,,,,,,,,,,,,,,,,,,,,,,,,,,,,,,,,,,,,,,,,
,,,,,,,,,,,,,,,,,,,,,,,,,,,,,,,,,,,,,,,,,
,,,,,,,,,,,,,,,,,,,,,,,,,,,,,,,,,,,,,,,,,
,,,,,,,,,,,,,,,,,,,,,,,,,,,,,,,,,,,,,,,,,
,,,,,,,,,,,,,,,,,,,,,,,,,,,,,,,,,,,,,,,,,
,,,,,,,,,,,,,,,,,,,,,,,,,,,,,,,,,,,,,,,,,
,,,,,,,,,,,,,,,,,,,,,,,,,,,,,,,,,,,,,,,,,
,,,,,,,,,,,,,,,,,,,,,,,,,,,,,,,,,,,,,,,,,
,,,,,,,,,,,,,,,,,,,,,,,,,,,,,,,,,,,,,,,,,
,,,,,,,,,,,,,,,,,,,,,,,,,,,,,,,,,,,,,,,,,
,,,,,,,,,,,,,,,,,,,,,,,,,,,,,,,,,,,,,,,,,
,,,,,,,,,,,,,,,,,,,,,,,,,,,,,,,,,,,,,,,,,
,,,,,,,,,,,,,,,,,,,,,,,,,,,,,,,,,,,,,,,,,
,,,,,,,,,,,,,,,,,,,,,,,,,,,,,,,,,,,,,,,,,
,,,,,,,,,,,,,,,,,,,,,,,,,,,,,,,,,,,,,,,,,
,,,,,,,,,,,,,,,,,,,,,,,,,,,,,,,,,,,,,,,,,
,,,,,,,,,,,,,,,,,,,,,,,,,,,,,,,,,,,,,,,,,
,,,,,,,,,,,,,,,,,,,,,,,,,,,,,,,,,,,,,,,,,
,,,,,,,,,,,,,,,,,,,,,,,,,,,,,,,,,,,,,,,,,
,,,,,,,,,,,,,,,,,,,,,,,,,,,,,,,,,,,,,,,,,
,,,,,,,,,,,,,,,,,,,,,,,,,,,,,,,,,,,,,,,,,
,,,,,,,,,,,,,,,,,,,,,,,,,,,,,,,,,,,,,,,,,
,,,,,,,,,,,,,,,,,,,,,,,,,,,,,,,,,,,,,,,,,
,,,,,,,,,,,,,,,,,,,,,,,,,,,,,,,,,,,,,,,,,
,,,,,,,,,,,,,,,,,,,,,,,,,,,,,,,,,,,,,,,,,
,,,,,,,,,,,,,,,,,,,,,,,,,,,,,,,,,,,,,,,,,
,,,,,,,,,,,,,,,,,,,,,,,,,,,,,,,,,,,,,,,,,
,,,,,,,,,,,,,,,,,,,,,,,,,,,,,,,,,,,,,,,,,
,,,,,,,,,,,,,,,,,,,,,,,,,,,,,,,,,,,,,,,,,
,,,,,,,,,,,,,,,,,,,,,,,,,,,,,,,,,,,,,,,,,
,,,,,,,,,,,,,,,,,,,,,,,,,,,,,,,,,,,,,,,,,
,,,,,,,,,,,,,,,,,,,,,,,,,,,,,,,,,,,,,,,,,
,,,,,,,,,,,,,,,,,,,,,,,,,,,,,,,,,,,,,,,,,
,,,,,,,,,,,,,,,,,,,,,,,,,,,,,,,,,,,,,,,,,
,,,,,,,,,,,,,,,,,,,,,,,,,,,,,,,,,,,,,,,,,
,,,,,,,,,,,,,,,,,,,,,,,,,,,,,,,,,,,,,,,,,
,,,,,,,,,,,,,,,,,,,,,,,,,,,,,,,,,,,,,,,,,
,,,,,,,,,,,,,,,,,,,,,,,,,,,,,,,,,,,,,,,,,
,,,,,,,,,,,,,,,,,,,,,,,,,,,,,,,,,,,,,,,,,
,,,,,,,,,,,,,,,,,,,,,,,,,,,,,,,,,,,,,,,,,
,,,,,,,,,,,,,,,,,,,,,,,,,,,,,,,,,,,,,,,,,
,,,,,,,,,,,,,,,,,,,,,,,,,,,,,,,,,,,,,,,,,
,,,,,,,,,,,,,,,,,,,,,,,,,,,,,,,,,,,,,,,,,
,,,,,,,,,,,,,,,,,,,,,,,,,,,,,,,,,,,,,,,,,
,,,,,,,,,,,,,,,,,,,,,,,,,,,,,,,,,,,,,,,,,
,,,,,,,,,,,,,,,,,,,,,,,,,,,,,,,,,,,,,,,,,
,,,,,,,,,,,,,,,,,,,,,,,,,,,,,,,,,,,,,,,,,
,,,,,,,,,,,,,,,,,,,,,,,,,,,,,,,,,,,,,,,,,
,,,,,,,,,,,,,,,,,,,,,,,,,,,,,,,,,,,,,,,,,
,,,,,,,,,,,,,,,,,,,,,,,,,,,,,,,,,,,,,,,,,
,,,,,,,,,,,,,,,,,,,,,,,,,,,,,,,,,,,,,,,,,
,,,,,,,,,,,,,,,,,,,,,,,,,,,,,,,,,,,,,,,,,
,,,,,,,,,,,,,,,,,,,,,,,,,,,,,,,,,,,,,,,,,
,,,,,,,,,,,,,,,,,,,,,,,,,,,,,,,,,,,,,,,,,
,,,,,,,,,,,,,,,,,,,,,,,,,,,,,,,,,,,,,,,,,
,,,,,,,,,,,,,,,,,,,,,,,,,,,,,,,,,,,,,,,,,
,,,,,,,,,,,,,,,,,,,,,,,,,,,,,,,,,,,,,,,,,
,,,,,,,,,,,,,,,,,,,,,,,,,,,,,,,,,,,,,,,,,
,,,,,,,,,,,,,,,,,,,,,,,,,,,,,,,,,,,,,,,,,
,,,,,,,,,,,,,,,,,,,,,,,,,,,,,,,,,,,,,,,,,
,,,,,,,,,,,,,,,,,,,,,,,,,,,,,,,,,,,,,,,,,
,,,,,,,,,,,,,,,,,,,,,,,,,,,,,,,,,,,,,,,,,
,,,,,,,,,,,,,,,,,,,,,,,,,,,,,,,,,,,,,,,,,
,,,,,,,,,,,,,,,,,,,,,,,,,,,,,,,,,,,,,,,,,
,,,,,,,,,,,,,,,,,,,,,,,,,,,,,,,,,,,,,,,,,
