PaulMeinheit/Bachelor_Muay_Thai/Sub01_Teep/scaled/JointMoments.txt/scaled0.csv
R_KNEE_MOMENT,R_KNEE_MOMENT,R_KNEE_MOMENT,L_KNEE_MOMENT,L_KNEE_MOMENT,L_KNEE_MOMENT,R_HIP_MOMENT,R_HIP_MOMENT,R_HIP_MOMENT,L_HIP_MOMENT,L_HIP_MOMENT,L_HIP_MOMENT,R_ANKLE_MOMENT,R_ANKLE_MOMENT,R_ANKLE_MOMENT,L_ANKLE_MOMENT,L_ANKLE_MOMENT,L_ANKLE_MOMENT,WAIST_JOINT_MOMENT,WAIST_JOINT_MOMENT,WAIST_JOINT_MOMENT,NECK_MOMENT,NECK_MOMENT,NECK_MOMENT,L_SHOULDER_MOMENT,L_SHOULDER_MOMENT,L_SHOULDER_MOMENT,R_SHOULDER_MOMENT,R_SHOULDER_MOMENT,R_SHOULDER_MOMENT,L_ELBOW_MOMENT,L_ELBOW_MOMENT,L_ELBOW_MOMENT,R_ELBOW_MOMENT,R_ELBOW_MOMENT,R_ELBOW_MOMENT,L_WRIST_MOMENT,L_WRIST_MOMENT,L_WRIST_MOMENT,R_WRIST_MOMENT,R_WRIST_MOMENT,R_WRIST_MOMENT
X,Y,Z,X,Y,Z,X,Y,Z,X,Y,Z,X,Y,Z,X,Y,Z,X,Y,Z,X,Y,Z,X,Y,Z,X,Y,Z,X,Y,Z,X,Y,Z,X,Y,Z,X,Y,Z
-1.4058600000000003,-18.460670000000004,4.06786,-13.537870000000002,13.742050000000003,5.348210000000001,-22.91896,-22.881140000000006,2.9915700000000007,-25.53081,31.430240000000012,8.989130000000001,-5.487250000000001,12.282200000000003,-0.4642100000000001,-51.73263000000001,23.917450000000006,8.33079,-60.05788000000001,-0.17348000000000005,2.26815,48.36229,-2.1766100000000006,-0.5702899999999999,4.939320000000002,-0.7333200000000001,0.21956000000000003,5.505310000000001,-3.4190500000000004,-0.18658000000000008,0.9258300000000003,-1.5548700000000002,0.10349000000000001,3.0937300000000008,1.05643,0.21499000000000001,0.22486,-0.05933,-0.019920000000000004,0.39105000000000006,0.07617,-0.038180000000000006
-2.506146585586224,-22.450613726369014,4.386984556815091,-12.73861386411175,9.215538917728301,4.058476246754,-26.58342228797187,-23.424541279467576,4.432586277708914,-20.235420900326268,25.106622486263284,8.39099976666589,-6.486039582472003,14.58715042857131,-0.7129601292623496,-41.79599228104665,18.783410852724217,6.516622150278996,-46.10336483666478,12.792654028813164,4.257817320277069,54.45405910537297,-5.35588003808383,-2.986579878570035,5.138857612597798,-0.267270062814287,0.176090846660383,4.733630387437044,-3.710185473963238,-1.0706658467559944,1.2627053841332634,-1.6666037103768052,-0.01239970662555597,2.322511442560798,1.5954037708604627,-0.3564988644595735,0.1366816322070851,-0.15753060930348747,0.059323987069297514,0.2987606260984222,0.12455674416990309,-0.005721945860372657
-4.385305866376777,-26.50389148613695,4.237934898218393,-13.832452640106101,6.772437469388731,3.3441884582208647,-30.027108920106535,-33.840231844242,4.100630242963729,-20.67958026824026,17.3791985192552,6.850448963722319,-7.468208762869987,15.517730600012355,-1.1031713884310317,-32.72818802790615,14.357670563892901,5.024585032720095,-37.856889908108876,3.229371670349161,4.554405434636817,41.692320860072925,5.970032175001766,-7.08980275927555,5.941559535734832,-1.5395253774847153,-0.9128808599820956,5.481709367837979,-4.174455652218406,-0.3449828158152908,1.026299287782036,-1.024595705550813,-0.2073380194789538,2.199513533765216,1.2267902515869114,-0.3650681461295462,0.30571731296488047,-0.09923247792180734,-0.10146756377933976,0.2982065214576497,0.07741928762723338,-0.05319446595827091
-5.9881098454310315,-31.275077627482762,3.904708815846317,-12.883479643564437,4.07134236541679,2.398295918035494,-36.34159753217221,-38.125114850596646,4.369033467914817,-14.331966041077479,8.44202012438737,3.73720990671663,-7.4280809519121815,13.709982519915055,-1.5232989151556353,-23.844816415357297,10.290531017095176,3.5455199253042524,-31.21429031449764,1.2261013946621702,0.9673040279117933,45.376999456268,-3.2895591231779138,-3.032318462484465,5.876451848656744,-0.7860049902405337,-1.0720415224774944,4.86390918567043,-3.446676661436198,-0.14471078998395162,1.2260518659157735,-0.4768502464158175,-0.47709322054032466,2.7707417945969963,1.1230590026648815,0.2875119931768024,0.25831201379846536,0.1429846435778673,-0.2032909560432865,0.30043462178729174,0.07756446498464979,0.04604658724887489
-9.13115218395239,-35.958605640244606,3.6555482776395167,-10.432311866823094,1.9725181081561647,1.6423764943107735,-44.750972157657024,-42.924810386769735,4.318778030040332,-10.835591533945712,2.858316310062213,3.1694585101186643,-7.1089644149485345,11.175924552351207,-1.9001981019044367,-17.526290930997625,7.296808493265843,2.3041262779829825,-27.14006893263627,3.557668471876955,1.4533328320223684,38.06492699050011,5.680687490589679,6.41747708317567,4.237877793743017,-0.029479293026933025,1.1705914908836064,6.560465341050332,-3.8920989568966027,1.3257057069290525,2.282712048639227,-3.1168903408156967,0.08513601092255721,2.435555956794966,0.7662554429322298,0.24928417517462728,0.37374363733809784,-0.39580367609721157,0.07914275628313573,0.36520280061945837,0.060227558330093044,0.030471522441366566
-7.783139536605284,-37.08730902580594,2.956921351557217,-8.356251130094751,0.9966325058707497,1.073535000920025,-36.414059475270605,-43.70533699377704,4.068763232476695,-9.466064755858461,5.233072727068463,1.854991735341198,-7.459919631891925,10.688208286851946,-1.9601476867525893,-14.668202869287104,6.139938009984834,1.937484405475055,-13.304854459061463,9.101860996920625,1.4382222787473389,30.736686844027314,-8.463668786536916,-5.570382036597992,5.935099561251221,-1.6196867220804714,-1.1313526304067956,4.671472767916291,-3.6376388138439895,-0.35888603544794695,0.7478268405561079,-0.8499659524293975,-0.1357149696632712,1.9378173048778555,1.146394217026267,-0.2490786587615692,0.21162826291975684,-0.1738607778767978,-0.04051935395746529,0.22305266298481918,0.10377571156693621,-0.023046273109630172
-5.054653848789909,-40.702262134701854,3.124745626787757,-7.807486745662199,0.9306043336995864,1.3442722709622894,-41.40234878078884,-51.320829288605914,4.173137510166976,-7.261554668069737,-0.7548922911847133,0.751841052802605,-7.143862411507689,11.51670097564637,-1.6212538998029,-12.770483308234441,5.605414007417327,1.976175967264651,-17.623416804309297,-7.255275961246451,-0.8783437547458113,25.6152728999996,-8.396314666487358,0.9262848341335577,5.803682823249676,-0.9098348727285189,-0.26252115494737965,6.625120233478198,-3.6735283966141252,1.5361276041412233,1.2611733862402765,-1.3205404603089592,0.09783167741861139,2.2150275658664422,0.6536145422851224,0.2702393613168262,0.2526502704868274,-0.09388892592475599,0.023189901916142768,0.2726840126279591,0.05684751297566258,0.014810441160216193
-4.073949293440152,-41.77539213690869,3.2851984229586813,-8.557007935653054,1.092520114460134,1.2252710079655518,-41.99196352814029,-47.516067600617994,3.6022429681165935,-8.29639561672076,1.3724278620707324,1.3750596549469143,-6.265994973981983,11.375674816939458,-1.2198909456989064,-10.46614807106749,4.690402713736444,1.5831854379958963,-14.598064959927722,8.112196560937033,0.8409781828464304,20.858653178391247,-1.3342399623428913,1.2437033161887054,6.176623286774049,-0.6465019263343811,-0.3373746402902628,5.801577505721609,-3.2653964035278022,0.6912460605679462,0.4381937412803204,-0.9542061222861632,0.240637226480165,2.35475623177428,1.013040618595766,0.13960150916537856,0.06149050356064671,-0.0346610224201233,0.03553252193917676,0.3673943795106184,0.16637745253794123,-0.010166033494033345
-2.65980064932609,-46.690749022205146,3.8155336436491125,-7.270721178118158,1.6942295994623569,1.0334287464762628,-40.925051908495,-52.2456504723971,4.853908530546444,-1.6893054177767552,1.4796668927673924,0.8265769504675015,-5.935035573434368,9.187270561678657,-0.8638962930610099,-8.566737254297655,3.657049142968223,1.342895336718888,-9.630952229185244,1.6646787810301742,-0.2489117654060468,23.131295436017464,3.5621586856776317,-5.214211870461512,5.4358934553623515,-1.113329621705106,-0.21844170054258366,4.978090440070962,-4.337507600051982,-0.8241138450113502,0.9479180629413844,-1.7669379441914497,-0.13216102511759825,1.8832910632476112,1.2741439489376394,-0.28381663401692747,0.25267958045483185,-0.2126919382473794,-0.09636376902824179,0.14921812173842858,0.05654196664770127,0.0023216145717212928
-2.18227420144222,-52.66027580284824,4.864160301134479,-8.107128398450635,2.7129362304140585,1.5907013057739063,-47.87399418610995,-56.40626729494683,4.854634405983216,1.0368274801546722,-2.1677638258752885,0.858728212753139,-4.856740786145821,3.979412990719617,-0.015622048204290606,-9.657977706194364,4.750310519513602,1.8039142099291268,-7.92777437940041,-5.369333232082758,-1.5101280077238393,23.570368599633127,-7.467073508152672,-4.337403256231025,6.349526397622043,-0.9096933996865817,-0.8987940445749898,5.964453226751664,-4.602302928160379,-0.23810668469074767,1.7495852505742262,-1.3419350295614145,-0.5229360036721193,2.071149839912099,1.202882919953897,-0.16860789891696176,0.3315414404670056,-0.12923642912479288,-0.1003868567666928,0.23947446074386616,0.10301468642141463,-0.03414351068794205
-4.5527892519654145,-61.05000861932902,6.79368506923029,-10.20942598707871,3.2931117506490795,2.0786504903157383,-61.589352154685,-56.644208126762344,7.806556398428265,10.503356224290325,-1.5583521202126325,3.1248935543020826,-4.382659573506799,-1.1273100578383322,0.5397011181928537,-9.456841281886312,4.440965225529247,1.983548479222851,-9.276151927460926,2.1586537564257027,1.038409301325142,19.015493457954634,-4.204164438918568,5.625801113529394,6.799065931904465,-1.028783155278761,0.24138748183193415,7.0497698172457435,-3.9871221270479396,1.1599044506333671,1.2315038977946686,-2.247826561457099,0.11275877381641951,1.7893446805859485,1.0190676005179147,0.014788372073075606,0.28569531041256513,-0.2778707674386632,0.05160537497998936,0.2526684858634745,-0.004147577707645113,0.09167453545320282
-14.435097322896183,-74.83595990565976,10.283110950543003,-5.930539572184782,4.2075529372106475,1.474533636868794,-91.62046536903605,-67.77056175987252,10.458677458825363,38.20553388090089,-5.740193075712832,4.0507960794905635,-5.656748401432922,-3.3782228349289682,0.3299142954295626,-3.143718765987376,1.103988122014213,0.9378780377352292,-2.283029188978751,-0.6279209435120944,0.4968068145386526,22.615463614794326,-7.77792518769118,1.4243776024164891,5.075862082707825,-1.1245329555714798,-0.4222286162493507,6.093864711172615,-4.317526090029201,-0.7204549162131961,0.6955619904212884,-1.307654274650612,-0.11466365796180558,2.3945744009777115,1.2946348969119077,-0.19759489457654303,0.11877421181584306,-0.0929678921683214,-0.014029555638752763,0.37516991261070864,0.12601250499890976,-0.06999861016839641
-23.036386670163708,-82.15124122869634,13.326736851443782,-0.27768130846634453,2.9472022732537635,0.37559559665397463,-112.84467564701285,-65.81385872850512,12.196376069928109,57.10539822523378,-14.16894758148371,1.5147066571047358,-7.204991160539113,-2.771398243905664,0.1382724355235255,0.8657336798223716,-0.42621939159265365,0.2585274020475073,3.10913050010278,2.5186296177321528,-3.8715981396462413,-1.6321578615176426,-3.8239378976346643,-3.8849777944362844,6.46270319244904,-0.8086753928088833,-0.010689825291936883,5.332198824003492,-4.526181645674481,-0.7664287314095101,0.2577715145529237,-1.5240851729246674,0.1288464091486611,1.519198044955427,1.2550587533864876,-0.038857341333244415,0.18599485670423432,-0.20374523497531266,-0.0013750615500495726,0.07266164212379832,0.09938415944001913,-0.0010247813405443507
-27.945116476512005,-85.27981817252149,16.022483645156186,2.960406281252811,2.7887050666370716,-0.4232763699937927,-115.91015907101479,-68.8142460643347,14.595883351133539,62.83224638043989,-7.66068854031727,3.943699314116408,-9.256907521703008,1.2261788541078258,-0.27654786475899906,1.4399952007279653,-0.57768372349679,0.3586672316421589,2.5864509338209496,3.898926233062983,5.269111698671436,15.979087542904352,-13.182136401214448,3.3512378720858536,4.845118368298156,-0.8183350809640697,-0.5399476797429663,6.626419746315761,-4.719356950135056,-0.19109150487893362,0.4562928635151886,-1.3298201880284257,-0.5431864750815979,1.8142564033477748,1.4679883749278362,-0.011618434092511343,0.13237099975158845,-0.19685436688855923,-0.15051928390264244,0.2626409949082457,0.13916211398655293,0.03033093085822741
-22.76267739245952,-87.90671186625435,17.676628248611486,8.234989190957458,0.12970977950780366,-1.0532807566730324,-118.22033674342772,-60.58432268132864,13.888707458661369,70.04321236664357,-15.529698334663037,4.146121245393147,-10.915379194950647,10.850788012423408,-0.5029783969209309,2.0650973810606557,-0.8132282004777013,0.10270056368579569,-0.2285306493668322,3.3030554598098347,3.903801030767186,0.7648512256363742,9.233487169355811,-0.836193421768551,6.158760739568141,-1.3551496976246755,-1.0930852474790136,6.043052735647251,-3.3482127251436657,0.94284222000248,-0.6910093330981524,-0.432154222793686,0.4375220514942933,0.5940624500725928,1.376167189262436,-0.531461446701105,-0.06704420486754437,0.04875075327045906,0.054410043907695604,-0.030825565365699765,0.12944410316084148,-0.09670885528227406
-13.28342619887497,-89.49447588460782,18.478792148960085,12.003412421004679,-1.654844236060764,-0.9163196916650613,-108.86458861127582,-50.910195278287794,13.009459275079234,71.96132475382768,-18.623641827193527,1.5713471448868361,-11.721447948141005,18.743823310625416,-0.49160836224356175,2.459788789212061,-0.6122228372518127,0.42082006560814966,10.10348570825087,9.31174877602425,-3.332284498943893,6.8776629727101675,-16.10602152756592,-4.725060280710821,6.766343554345184,-1.2957170608891322,-0.308751685169262,5.703077997462438,-4.808461652023114,-1.6515970869543144,0.2594249426726479,-1.7799217343948852,-0.14772585025142043,2.147798024216977,1.5203135987477143,0.13514358886994118,0.30126132447301823,-0.2830624935992518,-0.06012270163841924,0.40411350559573134,0.1708117146928868,0.013035942277871857
-1.9294153042536204,-88.26863579991074,18.618868419015328,14.393222375967722,-1.7432042584900156,-1.4771825390774964,-87.5466092986436,-48.637204024423035,12.2294548669267,69.7787383288296,-18.626656837192,1.9737873078483248,-11.77331436949274,23.491944988083432,0.12939055960546925,2.76570208987861,-0.7629212741313572,0.06569661307649217,21.785678704770216,1.8409455658899472,0.9946611147954048,-5.651913781683282,-16.380394354922277,4.1034830882296935,5.8685187391120195,-0.5393310651190963,0.7268855145356227,6.270078246231502,-4.77669569467149,0.6702458082084725,-1.1279610733319168,-1.1389975869067885,0.5366581987524545,0.579115733270494,1.0738841672684254,-0.29088569427379196,-0.15088098360191043,-0.027022262741692168,0.12747742089811603,0.049170392131633635,0.006426501073245466,-0.019798322563920754
7.7839315198007695,-84.36168101942765,18.73688510839314,12.246329272406863,0.9090175411756353,-1.406693647338988,-67.79261601058924,-42.31956053347365,11.878167035029797,65.9083611202436,-12.255612349066016,3.5589125361680156,-11.972191414055027,26.67328873865539,0.9954877762410861,2.210556313918338,-0.4786254438892318,0.2372754881446276,35.688168431889295,13.461369035575352,4.211473994094487,-18.98001620195754,-10.674059904744793,-3.4479642875098624,5.770635504396293,-1.417734707820329,0.5030679401524513,4.493421263244769,-4.3901801300433805,-2.1203842291772514,-1.236087547869644,-1.7389586763773597,0.5001278130920419,1.0647887994816816,1.6174110414962466,-0.16313671971511803,-0.0750246469761971,-0.29208202720746695,0.1090810526487933,0.13703819604612355,0.13526527290178236,-0.026663080387053333
18.9707991965764,-78.37675507794027,16.79195615369396,11.25676196633661,-1.0512309431776623,-0.6062477961191011,-46.24082103361476,-33.84229090658451,8.71986555951572,51.27434637225565,-10.737510068586666,-0.3214419860491041,-12.290920459886644,32.01610835480624,0.6182699280710605,2.6219582264521355,-0.5847058324759843,0.026325524581335896,29.141932740530528,17.203857979462384,1.7827584651342092,-5.209925244311376,-28.14387173004114,0.3429810704096957,5.135631267770766,-0.32602221289475575,1.6805355279409544,5.092135306799159,-4.9227081036598275,-0.3867020585078374,-1.4289091237753637,-1.6698889052069,-0.11702979939572242,1.0902365705708756,1.0138469050923036,0.4158552415050233,-0.17901974730911915,-0.09169814816944437,-0.028845676342249868,0.08037513548511104,0.027397638845825786,0.09084525128608624
25.95530874176905,-66.92316079559711,13.318964888824167,5.156690444611252,-1.0925472552749893,0.1384802281060168,-21.781775237319366,-24.634565341950747,7.5314065217723405,25.67662934760603,-4.169366626771393,-1.6884501146153892,-13.507167115482837,40.99407880930623,-1.8017544808978148,1.871962538716302,-0.6568394188452857,0.35124948755155067,16.28109504332691,20.275073706084754,3.288772185080993,-18.41884389816248,-6.390359944182306,-2.9959770590674117,6.92496687400299,-1.9806032316480526,-1.2995806291299499,4.255378058415465,-4.266795345573058,-1.6621878944327058,-1.262420221082223,-1.047988407168866,0.7060323984083273,0.9003426221091219,1.6189114165279004,-0.40269438518307454,0.07327762238072283,-0.17094016146487134,0.044508688327475766,0.03234752966720855,0.15493223938606132,-0.13525395416013403
36.06461715549435,-65.2675520144321,10.95428078494308,0.2479644654751926,1.8864425854486557,2.2266995608411135,2.5142284125002456,-23.850621645285003,5.205804840444675,11.195825510963408,-1.769929002193253,2.519233186503012,-15.641903221231098,52.15262688408579,-4.47777629521984,1.376817746579736,-0.6736005885069646,1.387232716604268,25.73027918007782,17.0684688848575,0.13436921943396438,-0.8753598407057448,-29.00466445829783,-1.7664256210228435,4.270553863096487,-0.8136760970021113,1.3900580348008853,5.712956816820869,-5.2329743636192925,-2.0626591456088166,-1.5558244532907632,-1.2290065018452077,0.7082812099586607,2.0202121308658896,2.3331659046488133,0.02787064880138477,-0.09654931246086286,-0.1520188615260101,0.1364321269534228,0.3268924360136875,0.23323615241267773,-0.025721537623982056
53.212133710503224,-65.0227272571389,8.015219414744811,-6.307735222772709,2.8270119670174347,2.9096255007647,32.614745182254296,-19.86770788845267,3.980892394437775,1.4072693308870916,-0.49284002758127254,4.336650125272635,-18.57527107130377,64.02671988496229,-5.909504249078939,0.06757852712180754,-0.4158452552999669,1.0883917823386082,45.92011819592123,24.553580182264895,2.1367767096573127,-16.83089593033516,-18.959491007833723,-6.816973435634197,7.212493770851659,-1.6421731568057316,0.051440188780719716,3.766001616059261,-4.388043702681047,-4.155443467026239,-2.193200389823294,-1.4185429718931786,0.506490223098153,2.5234890627176223,1.6271815225986896,0.9421546101654106,-0.27662545480176665,-0.08128124043189633,0.09807514018380264,0.26165536942418516,0.1487955293246122,0.04434543362987356
69.32865579595286,-68.12350884540939,6.116667247471359,-15.110366700556735,6.337874584159732,6.276833831647983,55.754700714138544,-25.44049748967147,1.0956826357756335,-41.2260040352786,7.203803224366458,20.878641875346396,-21.046674986587192,74.233307819699,-8.136143009176946,-1.5825536333629344,-0.10119658831373032,0.9816285682884031,16.571403214252776,25.990398847937012,17.450791663546422,8.779243095047828,-46.90559436351302,-17.16615314583331,7.1649728002150805,-1.5321321242904247,0.18189362286036992,4.55384639093889,-9.09920168830424,-3.542030275898766,-0.2841845548618227,-2.122924124384077,-0.9019507173628443,2.683770822679902,0.8625722653301542,1.2959701673803805,0.06850782065778031,-0.34272599324033604,-0.10334483630776488,0.24876518228465702,-0.07670996079478577,0.1051831981907204
77.9268179489646,-69.36064637204558,5.871174736154284,-19.52492484705037,5.0926614408312165,6.724336807418272,75.97622340103074,-19.303688106728636,0.39316159140484414,-51.357342390515136,7.020578007914816,18.075754169663863,-21.406029281473508,79.83790989187014,-10.264300732712638,-1.833040965540271,-0.3194297304724824,1.0384106858319142,19.793028608413728,33.336032108946064,16.791514405460845,1.6231982748780012,-35.65802136041904,-7.579341062612824,8.200008549385377,-2.633841434538472,0.12904338197254236,3.962793887600051,-12.57986447458207,-4.41460560002189,-0.4778101039438628,-3.2099085852534373,-1.8464031719782583,2.663925429174127,1.7348552090124052,0.7498557498375327,0.17279375341727418,-0.47530338152347934,-0.27498621973343707,-0.003459004454574706,0.07864609742094861,-0.06989559010174319
81.98916724802669,-61.73111452339155,4.333628771137974,-25.69892760391045,1.619180180184528,3.8185599258646965,98.00975896131264,-16.264007099731337,2.1480782464456234,-47.98250326112868,4.268699685096903,5.198466294996924,-20.60261538294211,77.87820688806788,-10.554796393929905,-1.0917066936773288,-0.7307343193611207,1.0510950180455876,31.63581506518213,24.387858574903277,6.313938369161442,9.14855327325648,-29.214826447259583,-9.473682262409058,7.973277471909877,-1.7672724797087485,-0.3423540493942157,2.9648591825017427,-10.660988541564064,-5.256359597915875,-1.5594207172951007,-1.5550203486651712,0.03679408898879455,3.853670915962468,1.0257897931836142,2.3327716568978283,-0.045175100287861494,-0.04857142892977499,0.051603154462787904,0.4244481835918386,0.07718695918190202,0.21862809230302993
92.85271054311647,-53.300328181637155,-0.1508847440790776,2.542139000514872,-7.211434600089499,-20.92505678651969,110.95204518899273,-20.394060722748208,-2.7884607892510265,24.70596316730902,-2.160018839903484,-57.818635069958425,-18.66151502302065,74.64498040565496,-10.292274426643264,1.2134764244577785,0.09454132250230182,-1.6645204226435255,121.67448804295873,7.282637344356655,-73.33165733282601,19.475548700354405,4.3819733416855495,-3.206523618760409,7.801525985405415,-1.6409227272056108,-1.5807488136643433,-0.6372714285443177,-8.065803071920724,-2.6826738976805125,-1.4141276808747456,-1.2119203318104772,-0.3208019794476834,1.7019564025871696,1.1790506234480134,-0.035431340153929465,-0.060536459845866995,-0.04395916171620572,-0.07008973143245115,0.07375496886368244,0.2677776315319429,-0.19900446074840192
109.64625133108436,-50.06418855548499,-5.221366344132484,13.365642505609639,0.0009458564169017164,3.7661981236550637,133.41072532085306,-12.023306163909076,-8.550875423609654,47.95243102297371,-0.8693839224656893,13.766772823310566,-14.907918345103827,71.37673304502943,-9.273725393006611,2.268602004048316,-1.3101641932364747,0.882070021664588,190.01031617563393,31.606431464809106,10.400341082046959,-36.534965181527774,-80.22798372109943,-13.314019400574608,4.397477591954485,-3.313009403920232,3.6540897965010424,-1.6452195127130245,-2.930805458675699,7.360519704331558,-2.974969017967146,-3.8414541129061783,-1.0541030906594695,1.4852379470219714,1.0756608096599338,-0.6150503342682986,-0.43426387931035004,-0.6957995342838266,0.0578205681278494,0.33981580882106976,0.18506504395513274,0.020341117131276516
106.47323099611737,-52.78967320236837,-6.757899304734429,-14.10371747393839,0.49132420347238753,5.458869029828135,150.0657526118393,-30.791582406978858,-5.172210237347818,38.07327865235486,-7.83824459745649,17.63594175092279,-13.037371479976875,61.67786957787198,-10.584275789423502,-2.8387989014373307,0.03166881066026208,0.5792326544991784,214.23459503831828,5.0228497087635535,21.571552421530185,-76.52746673022124,-17.83267232978806,10.653329946842577,4.970111737591478,-1.0412442812931104,0.9972546183288475,-3.104598239883042,-1.9714422989421867,7.232412500495886,-2.697875025666957,-1.4181442697766018,0.6755559607579751,1.1873129128240398,1.457068056278866,-1.9296642017876455,-0.2982182587821043,-0.19650980568995322,0.08232853264317608,0.11096103627799578,0.3720050964359406,-0.31627226696885863
102.348350055543,-62.416137697737,-4.7047202127798196,-26.812615030036543,3.019333278698797,12.530102197526551,145.13001499363435,-46.82294272497118,-3.3452168415295773,5.328845265755486,-3.472541445543649,2.4445598459309754,-15.535813137032608,59.14080441845963,-12.629506811504925,-3.3865961443338457,0.8625618837717557,1.738490852353866,185.53037412364924,-0.6006121614839465,-1.726698868682619,-100.56620955937098,-7.824743450861773,25.693674232512333,5.256763470637101,-0.49871161310784656,0.5347613693846247,-3.2644906587624702,-0.07890020462092116,12.749677627214329,-2.9923970335328285,-0.9317780059698555,1.776241064598987,0.639651772718399,0.5781244410355529,-1.15762267671742,-0.3404203293866369,-0.1282822754645268,0.2567642627714042,0.04132032695095772,-0.055359726597342486,0.12114508469329656
102.13221210240492,-76.97864697422652,0.6297169725207509,-18.06344800477147,-0.7732467512416735,0.6313998166200956,119.00784150363832,-59.393669067892645,-0.9977266938516016,-9.72222207194774,-1.2363734243869278,1.9680237478055664,-18.412191031285904,63.43094062670767,-13.789947237553362,-1.206137311971935,-0.7840380760628036,0.4796991629372355,126.05235713609737,-10.437230762991572,3.21485975215409,-93.70750287366909,31.952005418692174,22.748920281961432,6.2636946683959795,-1.4727920127798575,-0.12698054532641115,-1.965546428194077,-0.6280594290473744,9.241148460495143,-2.5942913671511647,-1.6112425889736235,0.6279598735597057,0.8888735078253067,0.34446507177029223,-0.7453013015618202,-0.2834450465666728,-0.2431306302685729,0.14198474072284495,0.20287348910144656,-0.1494400117561322,0.22307153125540663
92.43921813539271,-81.83285427281326,-0.5373674653444998,-4.566412228379808,-3.642687344366372,-3.958887998650942,108.75162240551249,-51.388145853299406,-2.2730329324010334,17.118270575251366,-7.4865571056616185,-17.47730812529544,-21.57708029826442,60.83676811859855,-17.223805717533967,1.0029084129772234,-0.7042383308022087,-0.2836031293196585,150.77116422157917,-4.089494808226511,-22.386821449043026,-113.50226896420989,-4.781348321747883,19.203610449195843,5.46088820303606,-1.31753083297862,-0.6179420052091388,-3.6454361264404267,-4.2401320816950285,8.28571672338797,-3.3032662728240023,-1.109937169331405,1.4421739008709233,0.12147222831052618,0.2489500170781874,-0.3364727834844377,-0.2955556158879501,-0.11445201027399865,0.11909299507299856,0.02506512491699561,0.03579327833197009,-0.011665151662365607
81.94667476448693,-74.1440205525441,-2.822128902165927,-5.517545054024987,-6.876579914518457,-6.026438064453212,91.12962082888639,-49.03262020769532,-5.105059126979297,5.628941642198261,-12.508776651703199,-32.701100766115864,-21.183874192026384,57.261795338920045,-18.39646172886607,0.4753423878998512,-0.41678447023301984,-1.6145306181799512,119.70024692980901,-13.071401776997083,-47.633069597168486,-90.98658604063579,-9.708126218812215,4.692335048187176,6.351791672491865,-1.5868557588412278,-0.2887254614775336,-3.1551229802748972,-7.924233261081244,3.897087727028223,-1.536996962198588,-1.6431988054932867,-0.14048497822321138,0.7970237324138923,-0.3709638355688737,0.5322951585984107,-0.09967925347482885,-0.26508999577792236,0.009689592945283765,-0.1342578103986446,-0.09642435734666505,0.026370564443858824
75.0763243856583,-63.305929142718234,-1.650542841709297,3.5453435862497185,3.5523295449763572,0.7006643377131567,63.49244224324777,-42.99584265065724,-4.2461153629847725,30.818265279258316,0.3242838525558757,3.3017849876352425,-21.274953104796637,54.93911810411888,-16.021641069059456,1.1886475542276014,-0.21383161302942674,-0.08457018031850984,120.38146705527114,8.821171096209854,-4.175650393442127,-106.26795928516445,-4.653018831993387,16.26471839660524,6.531825995961985,-1.431838550116927,1.0660906087082103,-2.165850613763449,-10.2406208168403,5.2385220418528275,-2.5766140275077567,-1.6748698003731344,0.020565742504289317,1.371029652882163,0.15566056692078126,0.5528254173513514,-0.22679885850086845,-0.19649287661659218,-0.06889106913156937,0.009477401718277824,0.08575326848662285,0.056871692473438755
62.85500970004948,-55.858359423392606,1.842261040022446,3.836335283852526,11.424356152197548,1.022968154521013,36.42068654958367,-40.02195569441773,-1.5743084484748255,35.49672021444756,11.550276900782535,18.8493046329247,-23.92493078542577,52.40137803381432,-13.662565135073363,1.4933969098706592,0.1991547130129434,0.612551621712261,102.68847137593204,27.797167919543092,21.955755841164166,-101.42865355742629,-34.15135083193044,-2.2101278122874475,6.27840108676153,-1.3399674693633445,1.4649167271345969,-0.6953364914543012,-8.01638522464188,2.369424569285274,-1.9239342918364672,-1.6858690320475593,0.24066148450424774,1.3812438114004142,-0.794299937308793,0.9654216632272894,-0.06268372719343847,-0.22462407643209556,0.017150424598460303,-0.06087472941232769,-0.12845538618227995,0.04608127052220949
45.0995111788609,-48.29337875494242,3.660922705072747,19.426789617711076,7.641403500358207,-3.0295980734627825,5.058951083677623,-33.77552586920182,-0.5316715218533715,61.75162754490368,2.913343529435414,8.138961719408824,-26.037004518732097,49.153737707261755,-13.142221861072509,3.9573894175853366,-0.20351606544249717,1.0595283646052698,107.06457471644906,27.21497195206015,0.15080347119645637,-62.153302440035795,-27.778302624607115,-5.427205372226287,5.464921048252221,-2.2800307328737723,1.0191428956513071,1.3118510990568302,-7.082180308948001,1.1014741162647752,-2.058029533954385,-2.1965653947307713,0.8591958043009855,3.0007139215547696,-0.8111543455966308,1.0121619592067166,-0.08833290206397157,-0.3923358054369961,0.23837858047106872,0.35753129775773074,-0.17484679651182158,0.06400845169970126
18.371472183294692,-43.579152886684696,6.392432077532393,18.89882038329829,2.945229996531665,-3.7799668965853983,-36.71939908526871,-36.10820626845858,3.1635555718067168,69.20566823895223,-2.729493205879273,7.069709940474401,-27.15799728889813,42.861031279861585,-13.432414016053016,3.3483690548273315,-1.0455068935968157,0.8616700898318815,77.13659682086687,13.27545615704622,-0.6403257334330846,-72.91935258936286,-22.468401184450773,-6.744913326570711,8.564867372772198,-2.0017967769305076,-0.22309314289921,1.1375507922419585,-8.725304278630603,0.3112638447865578,-2.3864757017427305,-1.5776934718793507,0.8193792762972691,3.008666713660117,0.003700028397083342,0.1985572077956901,-0.21672430150623084,-0.1792461802419107,0.1421836431341717,0.3267354276921075,-0.036905488390487205,0.0022586003131895983
0.42823123446170897,-31.862467397263774,5.158796775548078,12.284756906849157,1.670987327508341,-3.472980521801451,-35.363011508736676,-13.804752044969609,1.9964706193660071,57.85223352438793,-2.2027261826131106,8.428262370631787,-23.051765797209757,31.160630122066472,-11.044321424803025,-8.526072620560523,5.727480727493118,0.030610182738653343,67.42600350874247,28.35039480320649,2.3526689473881626,-39.34432694391376,-23.645405435230547,2.6504700852295278,5.3312838482585185,-1.2186011567960549,-1.0345426877706234,2.1360356872538704,-9.269598268888071,0.551057682148659,-1.2416845441342357,-0.36885899815042167,0.5066177696910561,3.216117093953905,-0.6836668832626912,0.449901179868033,-0.017721533274121033,-0.06716839837897563,-0.03100779764985495,0.3021296961991826,-0.271374296412666,0.08447535321457016
-1.3729131813192335,-14.47364052436427,3.295946880264898,2.2669859202112495,-3.6685180508781334,-0.8932670175137895,-23.06065475108698,-8.474782391326064,1.9489884131302195,5.0305333245044865,12.2798788743338,7.94369867234748,-13.259544853317959,18.5058983460218,-5.294557171621989,-58.33593335917956,32.0587041672532,1.3096841103900672,-11.844930380554619,10.28577480257874,-3.202143480261869,-2.422466592758863,-28.362792373083234,7.864820287132169,5.346544207347883,-0.11558734101754005,2.51332139012298,0.19129194674534364,-9.038674604837437,-1.9961012703746022,-1.443614790574564,-1.542336271613676,0.09113761297773344,2.682021132716245,0.3421425236800828,-0.5060361983866842,-0.14219040019642526,-0.11349691261947116,0.045350036890334317,0.09904249457932067,-0.011857233457204313,-0.05237462982832464
6.480809975576401,-6.680642693672772,1.983660442070314,9.996702124073817,-7.432134855353961,-1.7007217800114267,-5.590305623086516,-5.472876357896314,-0.14156433842650767,-21.8628384425281,41.24831133449149,10.111809783901617,-4.101559898280949,8.454584493295432,-0.4285449245327033,-91.52645986249863,44.728322111710135,3.7980160285871314,-62.77103307978694,13.830778867382255,-1.6226748030353468,16.653382327896846,1.8093170704459238,-3.090865391303876,5.389308231448683,-1.2846082322113177,-0.6459543728310583,1.2225037203838565,-8.62331991366474,-0.9785996208903618,0.14395109129597305,-0.8327515538680296,-0.15069999251130017,2.3290366775937894,0.2598391161143189,-0.29889762357594535,0.11815667798598836,-0.005657261894978476,0.016249690462514545,0.21138170916710444,-0.12180508793016001,0.0338591477754664
4.282944343347493,-3.0677944774539796,1.9243064880920588,32.83204408986506,-5.21165860730223,-1.9945990680441381,-2.971776279649299,-3.3808658129935343,1.8442998443077854,-18.912211043808952,54.77103593200795,12.13156848564404,-0.326735824467015,2.905164798181637,1.006391622723502,-87.99254860012991,47.38490687676999,7.7885006453775265,-73.17872413899721,16.619035647533583,7.014406027414772,52.36070115606042,-17.860848630869455,-0.28978479239930954,3.8194448063124478,-2.301219853794267,-1.9622263430376685,1.298497505717872,-9.92972461336249,-1.68706109831166,0.47580011864534283,-1.3172449853681703,-0.7086294733785861,2.5450394904419618,0.37317083343229907,-0.4368305319183544,0.15407016406425678,-0.285838801760649,-0.12106248620594051,0.09114355393597194,-0.10523373232629997,0.0386382765071854
2.411344996327315,-1.5763309144654294,1.3375911478274407,45.54646010199963,3.4731023228901488,-0.9941123194166783,-3.1048854820508613,-6.75541365621921,0.9926091885562623,-11.100350452766449,57.347466410022825,9.621933010738026,-0.12404837997750977,2.3492680527737053,0.671151271022024,-75.21406069130035,45.43786642177605,10.489760988624552,-59.13776633237397,13.990152427145738,6.436959119439414,45.763703170169194,-21.308585231983596,0.3015628959195512,5.207161411551134,-1.4165767469412305,-0.1313909920001693,1.2754921837713176,-6.725126425007464,-2.35122120858999,0.7417148385004781,-2.1026066703658506,-1.0597189287350988,3.1608856583710785,0.08782988541660025,-0.28925698973044894,0.23157336829351494,-0.21209244054550938,-0.155744009160377,0.18336125112710014,-0.09890051067669248,-0.026917545336499874
0.4758623924879075,-1.0879774014964632,0.8987816923132016,41.48788038867966,9.074115060058146,1.664121959958706,3.5486199670735172,-4.937346186082579,0.589460288254975,-24.306174104022794,62.6100290690613,8.974557701241498,-1.343296617147096,3.7342441308379057,-0.16895738060529497,-79.30840793837461,47.21313887443658,11.780995948205497,-73.01368319388774,18.978056064355,3.2565939214461457,53.725580658333236,-19.34466670524184,-15.369294753893746,4.223241499630334,-2.2824312755813856,-2.211349458222253,2.5782030269096436,-5.373802016819588,-0.6773635483103561,0.7112836717424132,-0.8157158307249133,-0.7338448114434134,2.7950881598772375,-0.22165269154165806,0.1850645477313043,0.18934438522055883,-0.047667040484121834,-0.14370441613654614,0.45446872794451443,-0.08687659646182906,-0.03204007122630932
-1.1967335129331391,-0.7931843490853079,1.1358062468179417,32.14770789472343,8.147335173724844,2.337134958486839,-4.800424464870228,-4.3356077208839325,0.9171751030085125,-19.666991522627896,65.4254864108025,12.09003852104119,-1.7942832523738472,4.162037722222613,-0.41675324627595844,-88.48950099349696,49.851204421375925,10.965447561196271,-77.05134081728207,18.806496721779627,5.495791944873389,47.37938099749656,-25.733357097324117,-1.0003153013314585,4.060436785355129,-1.5137586978921393,0.13677239292001597,4.569863655944008,-5.5266068259994645,1.4230404859031025,0.06853459128047466,-1.3566039522512927,0.10292739447742925,1.9746335798379233,-0.9439034905198584,0.7905079777439966,0.023349375505613047,-0.14005370218483346,0.11730588907084599,0.032669980609010524,-0.31589624076032236,0.14806955334550403
0.26996638794691596,-1.3550005189840868,0.8793777394446455,25.24538395107713,7.3174971744479915,2.00495126553909,-2.9084470076281956,-7.19847398561918,1.436841450413409,-21.32174059339348,66.90496567827444,14.24683946382361,-1.2061311006533593,3.065372635162196,-0.2918330912907492,-90.92197564938365,49.97250646618041,10.242220932460407,-76.75647844387012,16.26266276932193,12.524155104859197,72.50798913466942,-15.990647236444442,-7.244400693393037,4.322888510770967,-2.1043838060194964,-0.37110753332043783,0.12041574702760728,-2.916283561324521,-5.147587292859723,0.8223580167988773,-2.1337562066911295,-0.7197913062509141,4.011723966873783,1.4469021413831697,-0.7549262678247283,0.19953777467805994,-0.20484696921685758,-0.08806975976746445,0.5355843710964209,0.22767111778603705,-0.2479162980589148
0.834831879320151,0.9572426149044759,-0.27176268064794934,22.159192065939433,6.46752402012617,1.6787026476221694,-3.01417803218783,-3.4888368164113728,-1.166440461773862,-24.741197367044144,69.23492597984048,14.5413166097265,-0.6176426898377747,2.764422995599233,-0.3785772133391212,-87.31405450879033,47.0830399272279,9.993086776029385,-81.77308827159126,25.3957980789466,8.608905612369943,65.38740995788812,-27.299156633197335,-2.263423581750377,5.269564853252617,-2.017202703057809,1.1103921543962831,4.042843129638001,-3.3912257489533717,1.54624765586658,0.311679289069056,-3.0250211236354434,-0.12376987422039804,1.9140478006427177,-0.5920261557762423,1.0505498389088868,-0.026938726435344437,-0.39821973430874336,0.11812579561211012,0.17801806813033166,-0.1368791158222618,0.1325136143031232
0.7209246851720565,1.8020710034033176,-0.4204303610482403,24.383477307350734,7.3002337896441105,1.3765258096078894,-5.924601880803419,-1.6904462355557257,0.011859622584819244,-20.846911257947724,70.82661420611956,13.697394958728319,-0.288958851387944,2.8828593642208222,-0.6019489196572118,-84.52189489794901,45.91794068701651,10.439631054436108,-72.67674631104363,30.063035611418872,6.888654771495504,72.7727500338971,-16.772990562295398,-14.131023766606322,4.304833619534454,-2.057074804711243,-2.1778547993835375,1.8695386086210037,-3.3703826253253006,-3.0296264919748284,2.118337258495767,-0.9410216700785021,-1.3732602718394105,3.1843229212504256,0.8217141945738372,0.19996246901145653,0.4729654243757965,-0.008494376243226494,-0.2787247062621504,0.36349779154152323,-0.028777430076562988,0.015532948818817508
-0.43782407215608743,1.1219759012221404,-0.10200874668890751,21.822869503909985,9.67825152957826,2.154946282110186,-4.792378893547596,-6.44282896119007,-0.3840830909138286,-21.879622705998674,63.713689198510366,13.236521723042706,-0.7990178466922726,3.063597321479015,-0.5379013749857812,-82.91030847035083,45.641524101910434,10.943845225242093,-71.84563332426563,11.540061991466484,7.944170796244208,71.77842358478092,-17.567389258334988,-2.5972049647395528,3.7197530871960436,-0.26446639577501163,1.1804153163158602,2.7169324382601405,-3.194020049169769,-1.8929424030083133,1.269201918900558,-2.245655998742618,-0.46537340148068773,3.0215081135868,0.5105845854342482,0.4480704362497844,0.22623266028704686,-0.13510660314124556,-0.042295518420271,0.37973410115300843,0.03235748283352269,-0.034986114819385884
-3.322156552114852,-2.138620319297214,1.2138092504001836,16.402468250630907,9.517184160839657,2.6177781066395247,-12.301515283236387,0.27259280957135734,0.6086752107812347,-27.93256604998095,67.18273856403115,15.06041961331466,-1.853990571563834,3.366799679487834,-0.7556316786111607,-80.79042203565253,44.26104223206608,11.099578407323293,-84.38019218014837,33.61516707582623,6.413677750697206,69.34245294467058,-36.53367623140137,-6.206123533611712,4.5587681358415395,-1.963735126475147,0.6137771912967992,3.2136733676642883,-3.9264376093967477,-2.7881590267915537,0.37857224885723145,-2.3548910601244004,0.2090042083080208,2.749066228559712,1.049651345578205,-0.07785892502032188,0.030972836011446812,-0.39590042905237616,0.12483849303215412,0.2245101211644891,0.050396299675402774,-0.0746596412796587
-2.6685293451033814,-5.508489524213877,1.6252267977442634,9.843490599844051,6.967754890034675,2.8088226095733435,-9.261045334521897,-8.232678757009374,1.3926777605911809,-32.38275827661626,59.10655403104004,13.724076875983998,-3.017231210437868,5.109297838597014,-1.2063013927818935,-78.03319585860984,41.083658823753126,10.652246238070786,-77.87813866105338,15.316194099017737,8.706106927700041,80.3693929231655,-12.429555174621102,-6.080142075687968,6.070549236106936,-3.037059351693186,-0.970866943403645,3.6488895363376996,-3.455867032470369,-1.6616934449254441,1.0072915664506001,-1.708736270625221,-0.2504453025442725,2.763140903378858,0.9759383158066758,0.3774762926207834,0.1531175078818609,-0.19640679840350247,-0.022441490317824258,0.33560233657327015,0.045464293807186605,0.04555997135683164
-2.121580585379314,-9.155586727167325,1.9701541029376874,5.54596257495746,5.214136692938707,3.14386095504652,-15.325599123243693,-10.142623980106833,0.6867229521188639,-33.75826380375868,51.437201736128934,13.151446332935006,-3.445134757675719,6.163752426990543,-1.6000770850282875,-72.53116495782126,36.805658439499375,10.353423755716657,-82.87127323893345,12.889316688378942,6.086536718336854,75.49595962809362,-7.446518635455838,-10.334484353878807,5.117407651161319,-2.2513051222250606,-1.3551116247530128,2.92251012093805,-3.05608060729964,-2.2643667174157365,1.8647426060571433,-1.675905715154628,-1.0267094968146864,2.1744560341602766,1.2976689197717006,-0.19267374674410478,0.2320060316268215,-0.13859341422049334,-0.187244893005883,0.18894805546023977,0.1691041579709298,-0.09401432669209224
0.022420469774829022,-14.059656189937984,2.737219290239086,1.873384779120218,5.197174079943392,3.3074285678159714,-18.567645415417196,-15.986823080908835,2.3912502257566897,-35.30793887029692,43.76856347292775,11.25581812240949,-4.297203433707542,8.162884467731136,-1.7467916560902592,-63.628485991832804,31.56009091581626,9.726957199539024,-80.1315404553606,6.7315331084793355,4.294189377433029,85.21442677469565,-23.29923024492943,-3.948738114846245,4.103022853051803,-1.6026513017031563,0.3488385875174573,3.892536074470766,-3.463246379840051,-1.2953995273305257,2.03058488837819,-2.3544314522200533,-0.09786957458339152,2.571895689133415,0.9248892519984727,0.34349025669703026,0.4267230441994435,-0.2732375489893498,0.04593625001544885,0.31756597949268056,-0.011335563249298523,0.06533341241002358
-1.8777278004827074,-18.191570178713402,3.5448178948710733,-4.946270988579821,4.040261223636267,3.0650622272258947,-22.22243296527051,-15.858402755849955,1.4653431929742506,-32.45926883556691,34.202654641025084,10.875162050979954,-5.796568957036239,11.62598988562179,-2.130899803682407,-53.40552702083815,25.997763338255183,8.030502247918488,-66.5062340592332,9.646784579808338,4.002835110875539,50.97999406882863,-1.5366348401103938,-7.244514654396594,5.130142361462404,-2.2820404685760516,-0.5129194811562527,4.461049260545435,-4.341028817043737,-1.7925805190271338,1.2578253791894805,-1.4795986064103497,-0.11071326595096984,2.948165424698377,1.1531884524768101,0.23723945377096448,0.18210853157760595,-0.06643483047792204,-0.010366779517539452,0.273154882219064,0.0638105918291006,-0.01265735064781738
-1.4891049880511478,-23.528792369821172,4.5206975815376875,-7.082431117741219,3.6106958350286606,2.512412783512773,-24.41018677487243,-20.750349659958147,4.324332265250429,-28.2201619533238,31.673708639658734,8.845792539258762,-7.048881251654173,14.567399260560482,-2.2547245182189948,-44.19860632629398,20.99932572079426,6.858542296682158,-55.289504261683525,15.089742286958618,4.478467989487949,69.22028134982622,-9.526476364694702,-7.263726468643331,5.778276282739958,-1.5436482859371492,-0.7870235553164077,6.244130071969269,-5.368315904935775,-1.4656586991086202,1.060539289795268,-1.0086608116093674,-0.3378323046251297,2.694753924132699,1.4441274071344292,-0.3806598797646025,0.24291686183542435,-0.15298846803791635,-0.08177790714660962,0.3265113270171524,0.05587780361448569,-0.04899679345315013
-3.234511809323637,-25.511195034391775,4.465812976557838,-10.57168175950127,3.0980908167050267,2.562826085951755,-33.69423613485827,-23.069084634671675,3.328383528696146,-29.36414753518925,22.25575490204743,7.139974464226214,-7.416332591606982,16.51896227322206,-2.464829886236528,-36.3567418855173,17.02345090639563,5.667821992698831,-59.27882893387973,16.374000461159483,3.068191152850288,59.42599975270491,-25.45474391843012,5.700858601761543,4.958310624377198,-1.6784282862591227,0.09497416471767668,4.614221580385578,-2.2438749465909207,1.2603687494687221,1.6198123427440692,-1.863800266723806,0.06492997708456576,1.7983026189178273,0.5745276032372443,0.5969629076707809,0.3634568289545511,-0.20186491893961084,0.0367111816253587,0.13036401884910523,0.015140085151882327,0.09883239385538298
-4.575312800360839,-26.381842264393768,3.939501081453775,-11.854595412235614,2.5563356727312176,2.211599197109457,-31.571089993018905,-29.41771018661525,3.5048820225652135,-20.675891872414958,11.61422357732543,4.8021826597839175,-7.875335686522955,19.045770324921826,-2.960696559606755,-29.52461298400142,13.61941197695781,4.453703725946379,-35.37863128905113,0.10835550890684797,2.905361464545911,45.12436155309926,9.452016818725452,-4.971643860570458,4.804406537754802,-1.340064729714827,0.07944707963918454,5.793127981598189,-3.9411867984665583,-0.8710552548375237,1.954792021461741,-2.2045940854577646,-0.2763507251426869,2.6123477418176706,1.4531804476698382,-0.5661256749431062,0.2339425973201776,0.0075062455637880015,-0.11804813605997397,0.33410771913790455,0.1483672502060638,-0.1312273189005323
-5.57191183451534,-28.822528633514057,3.914612509492989,-14.18558608729136,2.4249710295864553,1.8985993991501902,-37.243953747111526,-31.50418929025286,3.67130539766908,-18.943410958107837,10.114636714921682,5.108548702591644,-9.068799500284795,22.16759304335615,-3.196612392880459,-24.855815807166593,11.38887989149037,3.3768119191378645,-32.155750170683184,8.825869232394618,1.258344427529837,44.16432786252313,-18.240322774009258,-5.847917809482375,5.693694188864226,-2.575583752312603,-1.6253179115553873,5.939650272562313,-4.721213883921919,-0.48375501327927034,1.0079636095206381,-0.686869691832137,-0.45605029723538554,2.7317249453842765,1.324932858328785,-0.0037944005595876512,0.20607513858934254,-0.15966853641540882,-0.049275340902031145,0.28049910504940256,0.1489898181550896,-0.02951056020855492
-5.179017403608839,-28.784837117336153,3.2293487436427215,-13.397636299984127,0.3473944012672414,1.2080772486097504,-38.04319984242006,-31.383916310706734,3.431245797978092,-19.09374089890725,1.886825692845102,1.2749653369966794,-9.45062930034991,24.68153705843045,-3.388656675979919,-21.908214666226844,9.933519561519505,2.679266771315533,-31.180863312838113,1.6103034683053183,-0.3373993403957747,40.460554259643814,-10.753596692217139,6.218722176488156,5.086603683500155,-0.06484829614098281,1.2365130947547984,5.94420003582967,-4.0663059994284705,0.009638462998587928,1.5528340316412597,-2.439906850114632,0.48495174707885913,2.5399711900717006,1.1210702314928709,-0.08205132775354028,0.3009644457408971,-0.1853592504096839,0.06315423085555974,0.3320480281231806,0.021875317513986883,0.04722001581782335
-5.88558484509435,-30.22692002058034,2.959531839204912,-12.961458209437922,2.007765000781327,1.0126487318002697,-37.4477736211466,-36.494148265321,2.1696049408635614,-12.442082040748064,10.708979455224778,3.93887365705943,-8.77659578563763,25.805258009789913,-3.2270372555177467,-20.00942932998232,9.108132920617665,2.3930671485294135,-17.395971826318508,12.437458494859566,3.575224186026152,28.182832342149347,-0.49002043165371717,-2.314394579197053,4.6627763713548935,-1.1127412990064447,-0.8030048793200559,4.861928007483349,-3.659345167077167,-0.23234489521862633,1.2903935522555507,-1.172021196855794,-0.5577298192535498,2.050144814123517,0.970316779649702,-0.31023142238593243,0.12745489637436022,-0.005312158788975823,-0.16330265745578687,0.22676752146953685,0.08229096011450132,-0.07917733314166965
-4.407958109651977,-29.632177395413716,2.1235650186121724,-13.89668930707676,0.08162153728900191,0.9405351673280661,-40.55734007722754,-35.64464059487901,2.1288988225181855,-13.877809525709006,-2.250874449643845,0.3380874503582953,-8.9197662198152,26.5901247056586,-3.326820328098133,-17.267796584051535,7.861272655932082,1.9334620187458613,-18.68751214035108,2.232782043296292,-6.165480567517777,25.104296958467852,-6.705987102453738,1.046142556686212,5.7079882309398,-1.4679771685322762,0.24385510439660452,6.970541783782847,-4.916272900887178,1.3887761273708847,1.4709379564773875,-1.8424196515789721,0.4119484822405835,1.8324522527548979,0.8228433083868798,-0.14525903279029223,0.21056763092351638,-0.13394877086055068,0.12877823695319268,0.14585456056371265,0.04697121998122715,-0.01910013631271528
-7.023226803208571,-29.108446175538678,1.9652324542323552,-13.198050729645674,1.5047560494740655,0.8812624610195585,-44.55418783619264,-34.65348949213651,2.674321447529661,-10.949992658636424,2.3814628774845445,1.5385397660018034,-8.894268679275005,28.019521091267723,-3.579594214421139,-13.831384046042627,6.0947900549667455,1.3684227212538342,-17.25646816873348,12.567511241927253,-0.5582873114416251,32.20947438261301,-11.816443663720761,-3.657354012662983,5.335389942879631,-1.5044849173316919,-0.43756173586453073,4.5394785690909,-4.030982509881892,-0.8454444902807344,1.3179869623849703,-1.5267543462142235,-0.07436864939069968,2.571676904744011,1.2113428025198192,-0.08812528646340027,0.31309738451785196,-0.18858043444629358,-0.03939964204479305,0.32881216113140144,0.07881447841856912,0.04144595656854372
-7.612521479099949,-30.82848840677226,1.3202111968273544,-12.077204701496424,0.7192594244911177,0.5735613643075149,-45.86833831227212,-40.11126975442208,1.849699903820612,-9.150345255336676,1.0362829286369228,0.5457098954961346,-8.805339429890788,28.76941136855373,-4.035583158009582,-10.617705155463824,4.353468901297903,0.8196233491778082,-14.79391158210925,9.20259877477279,-0.9380869581114135,21.588701291051816,-4.764567987731266,3.175296261018071,5.614119146935142,-0.22298203394051974,0.45368158257872243,4.954910674915834,-3.9701617467549934,0.20985810604122207,1.223970385193561,-1.934824458921225,0.26177701361177785,2.232060360607115,0.7964209014264874,0.025661479682123886,0.22318232459496182,-0.14403876139412836,0.015419960674224431,0.23182536216225796,0.08451084370501663,-0.03263047435867615
-8.732316946921399,-32.06838469027247,0.8797555616953846,-10.921181456477393,0.31553445009945,0.5343112950456543,-48.01564692493008,-40.21963524240042,0.04231053879244327,-3.956949341419245,-2.2097876503362026,0.8311803881705153,-8.945907560849298,29.257538424379263,-4.17174121051406,-8.272834730243119,3.1697900608030234,0.43472558711461495,-5.459515494385687,7.0773662343485855,-3.6427190889857712,13.564515508318015,-19.16625496794942,5.053065568349569,4.328166829844493,-1.6659929484988814,-0.3855670512498783,7.10824081306715,-4.611644009369764,2.381041451359824,1.5675644881078732,-1.67641889582954,-0.07652903195996767,1.503337496793176,0.37202639731159914,0.08043027465813844,0.2588344693269408,-0.2115965144360872,0.06613429591887922,0.09050510135477395,-0.08650637957456891,0.0724838800757697
-10.145057213817307,-33.72251250362135,1.4196517284333672,-8.373291805504667,-0.25951116666974067,0.10345225786664392,-54.172948612787586,-40.11485304255407,2.5698002890728127,1.3468532264820055,-2.7822165921603506,-0.23030411795976508,-8.559419860337625,27.996370191762168,-3.8784361511087067,-6.272259382674429,2.0951729100988814,0.139697067358022,-5.573572950624319,12.504956610962944,-2.4019451767597455,16.80997635954811,-9.953138871148932,1.1117049398014596,6.500846556430522,-0.3103991311275537,0.65103524928531,4.345404257068889,-3.6186986075835996,0.14712756811453476,0.6877458968705493,-2.0669397129096314,0.47243544395736115,1.9547136690132705,0.626612413426333,-0.04941656319664061,0.27252907307204505,-0.1324588098555795,-0.053623919796857045,0.18414710005897705,0.05802984124912342,-0.04827707433927285
-10.361816624569494,-36.89703369679867,1.5230948811608382,-7.23792537942539,0.5743198935191838,0.26138582205069044,-51.684658652587075,-47.287686543636546,1.3347236760629873,1.0440538202708196,-2.793694581618061,-0.07048749541263634,-8.671444366903694,25.855021521378273,-3.517124880379385,-5.352961630244093,1.7103741369931567,0.13288817315870782,-2.222519418811613,1.9833560021485597,-1.266766340002327,6.733501418435087,-8.73254009484989,0.42985895528663054,5.544936098618142,-1.1084307761050876,-0.45884747731548525,6.281224555767658,-5.352312163751852,0.7167933916014009,0.6362705625729096,-1.2638402756145761,0.0939319133032036,1.998010881473972,0.8370949367627156,-0.20165036538859812,0.11296999013912223,-0.13638991851541493,0.020176264525897915,0.2116964171409781,0.02101719493881277,0.01269329082402234
-9.651315491285459,-40.46804499385915,1.8128361268542301,-6.196694597191788,0.2770606793298975,0.1974889924994121,-53.52515466275776,-42.9628289541567,2.8101377131659198,4.471342560987298,-1.0134921699101997,-0.060790003977821,-8.623930012342498,22.773483500159195,-3.1635901081189726,-5.477639698923305,1.9190452408170422,0.3772382975123084,-3.933902395292807,10.332575905805479,-2.315015147407142,17.468051922624493,-1.388923079549996,1.9347919242588751,5.18025524834487,-0.9167740798789237,-0.4537133839920514,5.837539783419261,-4.638133932277752,1.0837599113090937,1.1361963105130914,-1.47715863021529,-0.28843166475304594,1.6405870916808043,0.5189723587246599,-0.1234399424179434,0.18843494812818593,-0.0552580685706544,-0.10603193773545327,0.222335032061405,-0.004790456807510702,0.0001235455618942336
-7.856876312101405,-43.58333264133658,1.8368698168699076,-5.83775128867017,0.5280520989010309,0.553142180259541,-54.39811962815207,-43.201901738991154,1.839869232893642,3.805698247722246,-1.5928765145647317,0.5163688401765033,-7.896612408375834,18.487648009105385,-2.7013751696696113,-5.628232999445633,2.4671944217287387,0.759734311878668,-2.7271289278111213,14.073792668832175,-3.382605035905109,11.066600569094263,-27.789678782996848,1.1237716576359316,6.02625117307504,-1.3785693199714162,0.5359529454651614,6.252586497153175,-4.289883611075556,0.7375094237226724,0.2688079045786114,-1.8879639730366333,0.8720256091885236,2.204548264401755,0.7739692766350362,-0.20609843464660874,0.16674935583051245,-0.26446919471425673,0.19348261356794852,0.22224319815427762,0.05150342636197637,-0.05686518500546466
-6.515003251444738,-44.48655260732562,2.3384885128143726,-4.076354012041929,1.1597299702306458,0.6860019848203159,-51.4505304071992,-47.70824476729286,3.0799861758859746,5.662480220992905,-1.4634817948400327,0.7259919353968344,-7.093646759232739,14.90293668694014,-2.074532068095598,-6.037087256948411,2.971942174079545,1.068651354279243,-1.6889734487729424,2.3258896909243267,-0.23671129874623692,15.012659993669505,-6.402037777580186,4.2938222008409275,3.5412285173129696,-0.4468612278730021,0.34592231414552016,5.865733267787714,-5.002955162940328,0.5593342275759916,0.590515979918388,-1.4406476921601459,0.09541517991879211,2.1264631777608005,0.5936113508280284,0.10019581006807866,0.08448464403762852,-0.07841081559070474,0.008540723283951838,0.2674628833371932,-0.009739892398900874,0.05475988568587015
-3.2516579836423185,-44.38165403819663,1.6863639370572436,-6.169920927044666,1.8650145968095209,1.027966289829868,-49.41778669736918,-40.72654493489227,1.9851269261200013,-1.7548562594634733,0.30514459425230944,1.5299082268195259,-7.8050250074545495,15.332456271163183,-1.973606470051372,-6.661454902968109,3.3271476066464025,1.1533941759134703,-9.738005085088252,13.653896331221427,-1.0672971464121253,7.90110886381627,-13.521195698556802,3.34655962272735,5.700423868664419,-1.1883589244741755,-0.5057932617784392,5.945481716797241,-4.6183951563150565,0.9854846016941513,1.0066800378114193,-1.5867465650203296,-0.2035470759266679,1.7545989185845527,0.49189938239479486,0.06774026249239508,0.21117115035993264,-0.16409151737388514,-0.04764356116868806,0.18109447608749132,-0.01193272908100607,0.03608360790665389
-1.1367010308240808,-42.88744331856661,1.2341556345391098,-5.259931194699993,-0.26674198974869207,0.2725570597625172,-45.484249773401174,-43.64787858840056,1.0732922963629925,2.472956912331344,-3.0737926983171895,-0.7785344341640963,-8.370322051246387,16.822772473664262,-2.002019657712104,-7.087177536561002,3.4476443647656003,0.948149788927894,0.045778333124132986,5.703566638068131,-3.0749577526051075,18.61515701120945,-8.214178167173012,-0.38370447328764573,3.4087256335740848,-0.3596774151007397,0.12808890584484878,4.602277447263648,-4.141898012743406,0.05494849077915531,0.9570979025688259,-1.447956644910007,-0.213137379812537,1.6482421558759872,0.529411811253983,-0.02257875076907877,0.13408820574080615,-0.1608967040144309,0.004912576299300813,0.14787841338243465,0.02484397888109044,-0.009638369589689208
-1.2716361266827756,-40.47649935599384,1.5522641895569567,-5.876049777524133,0.7718474991835406,0.32801699749311686,-45.63899506878997,-37.55839133162546,2.1320567618207655,0.38631885906028557,0.5019904527217381,0.9900106352676032,-8.431495059730157,18.11131589345811,-1.7665071707718987,-8.274611160806858,3.9257298677770245,0.9486904919496707,-3.593432853655715,15.877111288510191,-0.40550875995984464,16.297054050603013,-18.23630466308992,1.0533772805272885,5.487742453238805,-2.1927329692561264,-0.07540954725199676,6.375708118400093,-4.627298171303855,0.6170065662176505,0.280465301614656,-1.8551178105189465,0.5060304922506187,2.125064334197175,0.44871327541223927,-0.002621351651209785,0.11541293676134033,-0.18367792718737733,0.09944978749511206,0.2527739623461313,-0.0768398019907549,0.0173228043907748
-0.5420934134734092,-39.13352953941962,1.931727093853202,-7.193884064235151,0.792672291637975,0.6301285054752532,-45.15091652622834,-34.76669123396592,2.6738943008525555,-4.772159237308019,0.8566247736743168,0.7485620022587729,-9.144283683949945,19.29072587290733,-1.299692182613431,-9.895188574321619,5.079764543806697,1.4532879878376943,-14.207277532627003,15.388043964521687,-1.4157172425233675,17.078311664738482,-8.147487429878284,0.865227559260255,5.50324701712313,-0.13700214190458587,0.4889667946056473,5.314428801556126,-4.522554846408164,0.10515058821424314,0.6611434787003619,-1.6515638142216744,0.07256808662755258,1.620229080626805,0.7157982028516994,-0.0032117249722837583,0.16250656318564313,-0.1408906034943443,0.008437062118435465,0.11953163160854434,0.030661111666341393,0.033275016506756384
0.7317523241036912,-36.62518173956842,1.9186375888002358,-7.121921500514209,2.1915964574303537,0.907127837811478,-42.97230933068353,-34.95842053221751,2.531767405669065,-0.9933188346912715,3.1579116166356584,1.6698007153126253,-10.593174217041646,21.33712006997743,-0.9683489615615757,-12.177392162355012,6.594135371527626,2.0427614022593774,-8.830585968654727,14.916406113785417,-1.099530895996432,18.465122715930214,-22.97885635374015,-0.2102527281625006,5.691432896743264,-1.1892044151840926,-0.38021478975559064,4.717874087973443,-3.7402611335553932,-0.2742121482013712,0.9555049121055892,-1.60120785632262,-0.23465018825994588,2.020002689696939,0.5618600135932982,-0.010505651193657295,0.2561283600653137,-0.12087661301719707,-0.07852018868493289,0.19671314109331237,0.0430508449523802,-0.05051293256296548
0.597291664567185,-35.18736346857325,1.9961020444102877,-7.1175913983752235,1.9289490474160609,1.1077427922366738,-44.83486278243908,-34.2707344923698,2.3661957711515944,-2.011736574758378,2.4065677247904023,2.202889467954329,-11.705329362416805,23.97062240229787,-0.875515068370002,-13.098918836815358,7.3073851754693555,2.4018286374026334,-10.394964888931774,17.140926583974675,-0.017029005652426623,19.168590606219176,-19.546025555933014,0.4344833403182309,5.711986799424992,-0.5593319321466786,0.48991030451040696,6.240310026670028,-4.658895212145321,0.2742552111739758,0.37399392413711446,-1.729296294089589,0.17958601309334019,1.8552500807807497,0.700493628208985,-0.03165907059455709,0.1215439870446947,-0.11954435936289207,0.00913987809515514,0.21971336351962253,0.017858770426129496,0.010562184887708713
-0.8667936518127011,-34.349977551440844,2.2642916464378646,-7.88612637449765,1.461511679712278,0.969598629084387,-44.09203025818337,-33.637574566254116,2.749619962441355,0.241110833283937,0.009567073937551393,1.5903379011495613,-12.797519355660741,26.84021471697507,-0.8864108298639234,-13.57529267266386,6.935975550217096,2.2010709161484687,-9.666595240207732,11.726735357799212,-0.9260890579915746,14.595401544074413,-7.958201018212797,2.271940501738172,5.408473384078799,-1.3175046021124066,0.006771098482793333,4.361133906410552,-3.4256154675652244,-0.3208895915948381,0.6278892311626244,-1.730857450818583,0.1447219236404773,1.9321857946642864,0.594484649803915,0.14206620343856946,0.22847562626284054,-0.21669333907956898,0.04429635339380584,0.23704018184668324,0.017812600293892842,0.0269157151750079
-4.1468796153305485,-33.60373593538366,2.544055018503694,-7.758142941806705,1.7669409603729387,0.8843214327731985,-53.29424734416336,-36.24443006399906,1.8742576992060933,2.1804430137161384,2.985917629884657,3.287573412459079,-14.57356065698001,30.588766656911496,-1.149588364316428,-12.887893243862608,6.104789889107286,1.8652784921445773,-15.412510682717766,18.410539754103045,-0.7472574824391979,26.095633883208848,-16.602902118608963,0.7222814648705995,4.676960398555387,-0.5677138573549323,0.3457266767630364,6.109367436951367,-5.005614796805533,-0.5282012491112115,0.7488989325469699,-1.5937925208559185,-0.05600773551447045,1.9718285554508865,0.959438053684303,-0.16236029704433685,0.1637489948376097,-0.10977916240660986,0.002565306844272536,0.21607011121426606,0.02726371641928227,0.0007066957054429378
-4.407021722524201,-33.198965194177475,2.555153476513591,-5.562481447684721,0.8726405768294105,0.5604360876772088,-50.286087755675744,-36.093845271439314,2.9791355088319897,5.559470495463911,-3.425467236205189,-1.277780918493013,-17.5353939763098,34.982670833115264,-1.1797637815438324,-9.436793971228393,4.237952059117805,1.4244257598570953,-6.23731796958914,10.735566237791161,-4.253596127877675,5.86444087338629,-16.208020586244817,1.7888353546746238,5.020344433213174,-0.9779216156761095,0.40942951146221856,5.569796318243452,-3.390198995177914,0.6620839814664549,0.2714412603302726,-1.728758965133291,0.20158649224538733,1.4329869739006649,0.5419285109449977,-0.08714576065432951,0.0523552189744181,-0.13582082701023096,0.0545250166583324,0.07167399433408066,0.029292092132781188,-0.056210475754628814
-4.872435453500722,-33.97037389402703,2.794627597331421,-3.3663188928419645,1.282889881492651,0.4876914584556185,-55.315845973365285,-36.703239124856744,2.799219971377051,6.428912806085809,0.7848098048761967,0.53530715407384,-19.797514690771898,37.65449572911254,-0.916768851873863,-3.849844880758761,1.4865514475678234,0.6456809229066713,-10.386672646945987,24.15990496099652,0.4479887502856728,17.098721744018913,-12.097653609960417,-0.3290504477683926,5.306822597943734,-1.1620437713938105,-0.32488685129665373,5.218251258067129,-3.2760330289078485,0.36801919170533226,0.27401534574732445,-1.2219783691563577,0.09234670071288963,1.9829085411131757,0.61513598868483,0.24009324542942842,0.16963489529996809,-0.1629929678576763,-0.003943070201997826,0.29712527945609285,0.004192968378572545,0.06537001529855663
-6.808081624706756,-38.02413845605086,4.064506001529165,1.3117365206690523,0.06437894764932715,0.23199761835195457,-57.08223653693462,-45.06581420029495,4.362706252633923,19.075148770373097,-2.4520166475710687,0.6878284369547947,-21.24709240187702,38.78682817929493,-0.42451457961612266,0.18542685477154314,-0.3504645090828643,0.2973552337051945,7.818734133942439,15.034870351632437,2.0777296849543303,14.88194412136734,-23.204590348534083,-0.6530813445745642,5.057837450133829,-0.4296736992218171,-0.07938583782705105,5.730001956444292,-4.331808863242834,0.21181919334611019,0.4934534993604861,-0.9685529475553744,-0.09068173057169526,1.4664207581507085,0.6635401050230281,-0.06155840781359267,0.141766724309168,0.012073607572685276,-0.060246688230213265,0.08513455085710549,0.021555462074664297,-0.015370052622920375
-9.654663149620614,-40.56781683664333,5.2311221274878035,2.3912192781908566,-1.2245948270278373,0.19313849348855694,-63.4803936117139,-48.54681982199366,5.323311872075837,15.315225497248585,-6.879793307155555,-1.4389088909184353,-21.931702648803007,38.72307894227358,-0.19890600858649207,0.7849480720699671,-0.42080442608472896,0.40663894976989634,-8.330993924911239,5.85729469293265,1.3051961770790388,15.689589293527007,-8.789922828002304,3.4584966949576668,4.955411712607955,-0.7271409800132786,0.5728950365290986,5.471486542419277,-3.7604143897371727,-0.10614473685417991,-0.027777801976688027,-1.74236086951668,0.30837043773452,1.9778112761474835,0.8802526382482528,-0.004003873586771074,0.0740429470459666,-0.261575562950236,0.06589734984853901,0.26467806161945767,0.060390037142252016,0.009071755340125835
-6.273793158491565,-41.450096337445515,4.527023326224363,1.2566399007426798,0.005540004938098503,0.22400653938773812,-59.61431122221185,-51.25105803576789,4.568606809379113,16.746073468262935,-4.051728314463681,-0.8545923460547025,-22.81770206930118,39.10954681347245,-0.5049645073073767,0.28637011304071214,-0.2164314177581947,0.32492240923938503,-0.3074440604215116,6.827328755887583,0.7932867471185602,8.42943325223756,-5.061965430861025,-4.1789862545027034,5.442176079119971,-1.073622335785853,0.0018485230812547056,5.446099728873146,-4.235504556343042,-0.5264834635548173,0.3782329610866595,-1.41170072111894,0.20405910730824,1.842262119257517,1.0582715450564621,-0.18199004463571136,0.11339175732802811,-0.0967783545134971,0.04442558121320452,0.15298302191572372,0.0770973357648901,-0.025916340144017003
-4.364059731040942,-40.758898411543015,3.9478894165610634,-1.3962958775793766,1.2446753603649054,0.41608602742727524,-56.68866525876751,-39.35216990632909,5.125075913692876,10.642809408870585,1.7531632627933724,0.9480427367068308,-23.438226742943588,42.61776350672213,-1.0322432866942015,0.16326351421673882,-0.060646313998327296,0.19902297974796201,-5.466888218444457,31.130960340481856,1.689025072221059,18.409908409684764,-23.433488684045024,1.590817173798781,4.7326493464387145,-0.492242958538996,1.1697466533013812,6.10122981767583,-3.6719483128152013,0.36351717235159764,0.04334714460757352,-2.0972480139295353,0.5288184794559572,1.690518723727276,0.9840138609819169,-0.2513548084698847,0.01589898468606437,-0.3205407914838712,0.1761571451233986,0.15494205406901518,0.09351069381248103,-0.06345786484313244
-1.4410319549448345,-37.165009323944325,3.390394901871192,-5.350262699305262,1.5037249414084675,0.9258576129923524,-51.25008294938879,-55.34694208268272,1.973345581172245,1.7690496890391696,0.5453713659851105,0.8949531367102159,-23.6903054149222,46.24028760112732,-1.4589783627300386,-1.6967580633876271,0.3746567212183781,0.37661172687053884,-10.618710079431136,1.9938792155769696,3.8522661883831373,15.847686993180702,-1.3320456353057017,-2.134778721646695,6.501054262421571,-1.3079689018453267,-1.2599342065794377,5.409605893023073,-3.686708307922537,-0.31020759135202347,0.7196810223357143,-0.5465756129355177,-0.22038865689127088,2.2102374608514013,1.0217246790564865,-0.07057225698157554,0.23362143453098358,0.04595116796116352,-0.11568616676783576,0.28284415933122525,0.049349257682965164,-0.0020743259559052605
0.7324458556516027,-30.26772675304693,1.7551318102086209,-12.649562247689024,4.137033980495518,2.1466679414418017,-41.49091050108983,-46.32280045255527,-0.3306082432932513,-4.665771966938508,0.6241426321224963,1.692042663812575,-24.078434408418683,47.90078230543006,-2.6694154411776596,-9.704641150665344,4.177130097119926,1.7264045569327382,-9.60001730023314,0.9973391860079435,0.7791010699513452,31.50877198976523,-5.939116407577243,-3.7511721467236376,6.9935335419350215,-1.5810664654765285,-0.7537540603269687,5.603334260343462,-4.126149620196403,-0.08626176970559642,0.5919812216046764,-1.46899730137555,-0.06481873499448598,1.8909281693499873,0.9608581944707139,-0.11244284608621997,0.26693590364917474,-0.1770695841532761,-0.07746060021317026,0.17980734614983396,0.048966718017650596,-0.012759173635676769
3.6282309631056666,-28.970054669664968,0.5247345920850726,-18.309237115808568,7.467150129631662,3.0069415706350138,-38.0555575160963,-38.749881530596525,0.41004905700237765,-17.714122580000748,12.404902975425976,5.659601126333153,-22.675898844918308,45.97946936505087,-4.268340660091119,-23.18543561483081,11.152198538777803,4.016375218459171,-31.608476381207073,11.58661162234606,1.754280574343805,26.48573606063595,-4.106048889485484,-4.403403574999666,5.797234670431039,-0.31667096529306055,0.2099479902919756,5.68962202293999,-4.808149615136809,-0.7782453043299509,1.1079997291921413,-1.5711011597954565,-0.10258859496815136,2.649115735664903,0.9795395728312741,0.04930314629917519,0.17768362191949869,-0.03128252288783465,-0.015135652254897982,0.32227777706962973,1.5227053184643357e-05,0.012864914919062815
7.280520071918226,-23.52265837981998,-1.4397898755936487,-19.665358489524372,8.953442035369676,3.1238720199512042,-28.741319313463734,-28.92792070299478,-2.7428534634845803,-27.775329225728075,22.40893912121574,8.47811066969222,-20.79339124132476,44.543801736078336,-5.286357007620719,-37.723212706565924,18.69892869689682,6.407266738395434,-44.2667883652038,16.527156546748664,1.489665410501007,39.623340950233406,-10.302268636228161,1.2045784976867753,5.293166493556805,-0.2077624175650659,0.07929539642854802,6.049704183975579,-4.641643017313946,0.2160633715716179,1.9989407692148018,-1.9042738404439887,-0.6211776985770292,2.4373662214971112,0.749158161555953,0.3713883915241493,0.37809471567883124,-0.14953833555085197,-0.09085602876468127,0.24841725629687242,-0.03717941967867186,0.09030098650115984
12.81801186296372,-22.659865037011784,-2.3424714059088614,-19.906658041365326,13.373023311766785,5.745806099570381,-18.7387370066191,-27.886192283264332,-4.207573195637887,-31.18639911971207,27.879998998492038,11.58128128461265,-17.605257308766607,42.201424828402665,-5.386786284119593,-49.93018993043331,26.97700756237053,10.746459618149402,-51.77012119823302,5.7653515242836155,-0.1785924805270205,46.15103591387121,-6.809791951696118,0.27081273068017336,7.506232027100863,-2.1478645718985963,-1.6325458721505717,6.505682706263194,-4.2078590821892154,0.4943869923484197,1.7269385100246313,-1.5614712403965139,-0.6184533712522974,2.1439507453991347,1.0476170156147133,-0.10044808501620985,0.4404485592645182,-0.19624821458087513,-0.13004810312362242,0.2978062955934502,0.12253563135938615,-0.05398213326593805
15.187136097669633,-25.675097083551368,-2.421240647918182,-20.556708164414058,17.644503421855926,7.249901669295352,-16.550179755348356,-23.22915790040663,-3.839881535721763,-28.562588862444144,26.571079025507682,11.786491992678245,-17.05737838800068,42.00287550269939,-5.6981543326068795,-58.41636059886209,33.01354536395888,13.157145567262491,-50.33329012314376,4.032996958957224,-6.324459093893679,49.42449571918717,5.577485656131747,-0.34714670888417987,5.817439284779077,-1.4735084276566663,-0.15256505059913952,5.034709363856143,-4.798437196900687,-1.171454784994001,1.6703943784107862,-2.1390337195161937,-0.25203998824725427,3.3220883888539485,0.8813586087908668,0.8683906217634407,0.3329161243926637,-0.19895713690128747,0.04001003431914876,0.47683698785758205,0.05288947753074261,0.14731740375587213
16.22282116564566,-29.621224839185103,-1.154284750345523,-22.802312451706054,17.406241875864698,6.7053884067801235,-20.741927643339196,-32.95462451853572,-3.004506375339289,-28.870301550528968,33.32120587196986,15.021219786406107,-19.489557028194127,47.86631626074518,-5.660100761876764,-53.239659574872235,30.315406416304683,11.606525950690957,-46.504071801541684,12.491661666335554,3.9393844347851226,39.8325832750501,-9.557292467839604,-2.175336178234916,4.831626373765949,-0.34486990285398944,0.11949767763321122,4.799090710054702,-4.927524487590687,-1.0350544332608806,1.0855163015213158,-1.6684278083184925,-0.4685850394670537,2.105055137078421,0.4895756113073287,0.11445450744722004,0.21032805892009146,-0.18165834712494627,-0.05732341272722433,0.17351224713098998,-0.0913635161037071,-0.025819076219612005
14.059380060294895,-36.54660597070701,1.5668670898172323,-17.229939014191622,12.201347370493497,4.032157437849927,-34.05601617572239,-39.81412535989349,-1.1055733648967563,-9.122802521809584,16.201584152919107,7.344066074600628,-24.564945661844696,55.282291228855236,-5.089576330514739,-29.80513981195848,16.601920331639835,5.999291693642921,-17.469634979238922,14.885920695256567,-1.654315133146535,30.7804516337431,-18.823155063630807,3.397299285539579,5.115761615477886,-0.2630583389618511,0.42001414031796735,5.904340165925104,-4.13777175945568,-0.18682209140012063,1.1303096847938716,-2.174981633995268,-0.7161307654659483,1.654708189063904,1.4133582614566043,-0.1919656713871593,0.2659042704866397,-0.26351422182460554,-0.12257008936390532,0.14510085245456347,0.1636048844886579,-0.042008790336034864
11.263912439442834,-44.01760140649298,3.445033387661719,-11.905250558383186,7.295395275471792,2.113438393473371,-43.15644227379513,-43.705072563201995,2.6171638894330997,0.508112486919796,2.4403814858106885,-0.37312717002848017,-30.133612402408012,60.73715458433218,-5.160443778766574,-8.461020641238807,4.634795728820805,1.680737478844246,-3.3222950619903027,16.609891705109618,0.3137131681029342,19.50854202404609,-1.800431603626406,-6.346107524899823,4.930224673643686,-0.9643520119292436,-0.8494713838101874,4.995828864980627,-3.519282213338531,-1.3133671715252064,-0.7841294204093734,-0.1626906665717263,0.4415009439297215,2.264830791886642,1.674182213469048,-0.028012653245360446,-0.04322846761864972,0.12986825690865625,-0.007654145254245933,0.3527344318446453,0.20858732687100215,0.006009952608073778
18.1975166597919,-49.42325999096217,1.4901230581617066,-8.28521684010424,4.022646598962818,1.6588209584967444,-41.169254507697296,-50.73676027050334,-0.30866833842474595,10.798152002931218,0.7782448443887018,2.368323295217829,-33.23580984462415,67.24345018808741,-6.4762168852970055,-0.22988197031510715,0.06873391111167836,0.4525638750452877,14.09306355203658,16.860413267982846,5.702517292110067,-0.9979778605711429,-27.96186052966065,-2.4841670605927884,5.953623818442853,-1.2899095147519117,-0.2920172961329589,4.701148353364707,-3.495223431650067,-0.18062521273307675,-0.1485891309042619,-1.739864459043457,0.0006382901161156202,1.351937686634074,0.912173350373938,-0.10173159726696979,0.1021062972598788,-0.24056578130608663,-0.007420050262542089,0.08829816590666323,0.039874446380335764,-0.04093850999930697
28.478645786873876,-46.17522951472312,-2.2003661713297666,-7.390195534961518,3.2299250953869563,1.5051295941084326,-31.42299591217134,-49.26487046645087,-5.446489501271459,-2.8947060647528513,2.7870791261584937,3.5709385348191343,-33.63436214025032,73.12193404033427,-7.564352943574834,-0.07373096489900464,-0.19043858845611786,0.30522364299785115,0.6080896254887058,8.95096550117119,4.925296922511926,6.300242467762615,-8.560556202021763,5.029082994328477,6.787659898344589,-0.9665050217208502,0.08409809550398807,7.109893616823113,-4.564626682772143,0.6835363361820853,-0.34541931730622016,-1.5423926655272726,0.3418291734515512,1.6712770028698758,1.4100281578743221,-0.250067085275665,0.0930559191600738,-0.1709617325959333,0.06969500429599366,0.24419796962382068,0.22841307846447434,-0.09199934640693948
35.57969116691746,-41.951362202543436,-5.643310620406403,-0.2066380825217982,1.3986057218097634,-0.20373756283625297,-19.13765496889634,-38.22322362128951,-8.769715255360687,5.326038036341366,5.032676837923892,4.366043620165006,-32.300825614564154,75.22841392797007,-8.58783031385574,0.002762058801106775,-0.3086438772652538,0.03607937600077539,18.868899101595105,24.60758945762359,-1.5994870809649528,-3.985158575680972,-17.84001913682017,-4.2153458027436805,6.204762251435863,-0.9273450894998655,0.9792289280431975,5.310596487813748,-4.15398182480035,0.6171908862275584,-0.9740237962684931,-1.7774498481296819,0.7839078431434857,1.0369162463532997,0.7866138949721228,0.2471285711005964,-0.09563182483389576,-0.18551090299818673,0.22497337930775071,-0.012907387009353585,-0.0007506466156135955,0.07198880491649973
31.968595792183272,-39.35484214428686,-5.5671415391100005,0.22995428565771622,0.6581163886782896,-0.053999475974639714,-21.986972793044497,-34.03490081506968,-6.763696169116209,8.080830779012038,0.8649525737951509,3.9953243187942067,-33.85856016409858,75.25599517236996,-9.428834397151457,0.10598431931648922,-0.26467884371136563,0.09185305428750051,18.484220610128087,23.828447146531527,0.08035768155114968,-14.734257475318689,-39.17083431128351,3.78925668980311,5.390110305475651,-0.9024226661250632,0.2568245899664213,7.327803844759936,-4.358140762062771,1.392338806548403,-0.771368123147666,-1.8530258175654668,-0.27979521745045594,1.9336412114993478,1.0964812955877723,0.16785346597562922,-0.011680402031139884,-0.24840915172452774,-0.12603128009484774,0.38814804228785665,0.11875214883795766,0.0420069180683718
28.40681198090545,-40.424796288633786,-3.686303051065991,1.075598922482017,2.349113813271556,-0.3506207878431146,-29.530954349187613,-32.991186335702416,-5.740590165259539,12.754624184145696,2.871503993439261,3.776448611085424,-35.09653711202057,76.9246257047242,-9.009524012027503,0.25317814793208154,0.07404859101423641,0.3074569063492656,15.627156341488973,28.74421852293766,-1.6088903358160664,-0.12466173495039912,-20.26760767118287,0.3466864505301322,4.864156817436627,-0.5955454173660074,1.0062985841531975,4.814303637903331,-4.542445440657993,-0.7877799661325617,-0.8396113725812956,-1.6803618289245912,0.19497034592018597,0.900334128766275,1.0372103731359978,-0.29923271118517014,-0.06088108536268065,-0.17035509067153964,0.054667484334586694,-0.0489475337100974,0.07988411683286303,-0.10380505913882856
26.810701448420446,-39.825430396468946,-1.579970539790326,2.5661438009901723,1.1466660653042435,-0.24444319276373896,-35.18584054843571,-38.5604232100727,-4.8995673648841365,17.716517660441887,-3.9819072464875145,0.2757233892611425,-34.9070202610427,75.48147469626744,-7.44869384645371,0.8421878679232073,-0.2013267229107326,0.35049935270763644,16.79508925256373,9.584369174177388,-4.8205599925921465,-4.842344033764791,-15.981164993290271,1.1180246661524698,5.457844863167248,-1.253982727357751,0.3008665807858229,5.7915429444390165,-4.318669621608157,1.2498092471492606,-0.9223568099148602,-1.5633454570057295,0.45784582373544286,0.6136784245477426,0.9128186415348505,-0.0975917691076873,-0.019559465834524867,-0.16809254568045315,0.09632377645147044,0.08184957860780899,0.05654341510294625,0.03513227345630652
24.436495229387667,-37.66058099866515,-0.046325586022864386,0.215332896809678,0.8643326658713855,0.10035484581300916,-38.2295377890424,-34.19908164201221,-0.42155239758650775,21.75638720295629,-3.6884229830011894,1.7059647860290716,-34.35961802256596,71.46757223088755,-6.121452568846967,0.613365021703714,-0.33517237405000855,0.2876132358250814,24.625332431890847,27.70176618998771,1.2064598961139072,-17.62257022078202,-31.733232136121533,6.236576828511916,5.950295612686247,-1.1472641308122402,1.1980818803952598,6.466643862285837,-5.12192256533487,0.7025234086472256,-1.5833893599380204,-2.1466386684234924,0.560034202745795,1.2416567520376292,0.8746173438616923,-0.1110442894866763,-0.16984194120605495,-0.25753818891928,0.12719286569513566,0.18939244180710094,-0.0005626151671009542,0.0016665225271441822
18.927852141328177,-38.456333328789384,1.3124389114148438,-3.403770946223086,1.4976838782858564,0.5832436880466623,-39.20306897015767,-46.9200243487436,-2.287699991198511,14.721365585330181,-6.525258951378359,-1.6776935765207555,-33.70384736814232,67.03793699872544,-5.5362168952826005,-0.10729170668228137,-0.16786961093069233,0.13483810550428713,11.891019840239888,-3.1393690682790174,-4.836470809256712,7.937393267371703,-7.995810320860499,0.8928873365242602,5.255147526875832,-0.6430509557664963,0.46730326820733664,6.239165364085087,-5.133827221397391,0.6154809612142009,-0.3873226610407093,-1.418076589961749,0.10866372357016706,1.2011579085260269,0.9966031985465225,0.02087278625711822,0.0493980675637241,-0.15064070259088613,0.03528595290765482,0.1082002981907705,0.05395021698390181,0.025161272260820107
16.25640801920515,-34.3176924113214,0.9192560161095634,-3.181559959193455,2.7779874528540156,0.5585889323332451,-38.229569066933635,-25.017939153938528,1.8172966854563475,22.613442236434828,0.3308311805096903,5.687270492933951,-32.29259242362296,62.573329491085,-5.201839979357393,0.0589309026930859,-0.020587110249754657,0.3198408033497762,29.851121749626373,54.83029388338756,5.989605321801358,-17.256312321353008,-54.44301839832706,0.8777562353662327,5.873923427879321,-1.0939269365510793,2.2661786991800006,6.268476851083283,-4.808510556228768,0.8128260781179166,-1.3504494611159767,-3.3361679442924763,0.28095228751566254,1.2684044753604309,0.9528249090116033,-0.12654858645738706,-0.08872010520635229,-0.541343313123249,0.10336555489850695,0.1378952621816326,0.08442811210127413,-0.03913011830090189
13.281274716382947,-31.954172194947933,1.3914559520389553,-3.300639173451158,2.1826099263973022,0.6651535295760908,-38.012945277693895,-48.11827553828428,-1.0361437550669668,18.01461690776111,-7.682863803188704,-4.709216295352115,-29.778657611878184,59.314912876374216,-4.965955985251817,0.18710692400354517,0.05543428850207121,0.3429602267270644,20.796512499778746,-11.900498387157164,-6.803833996512712,-13.814045004994709,17.902023471486743,2.1569899191835833,6.479788457438652,-0.7482621607044824,-0.7398859759313288,5.495930492451397,-4.426960416844445,-0.23633650943169152,-1.4273199681980782,-0.14696640581141315,0.8225260271089523,1.3554614513477217,1.5185754871631723,-0.3251242546606748,-0.11914025099361328,0.18157447321349457,0.047022548462628204,0.18241883753216467,0.19494091078355744,-0.052040772782849326
11.493801144889797,-29.34143430925778,1.3055373989864205,-2.4509866156119915,2.2980063934312245,0.48569017787826263,-37.217165158530634,-35.34966434661802,0.6776707077854638,19.336607903726602,-3.6467314568370752,0.2522044363962361,-28.44382927768096,54.908771926407255,-4.552917062672342,-0.04870040566987503,0.07505571956312716,0.27101185372765063,24.204187106810277,21.547208335253195,-1.5485649434217847,-12.500179561241868,-28.65277221440957,0.4111685351843758,5.978661256641216,-0.7179994000570958,1.5213388030533552,5.2926028502415985,-4.612892735087427,0.9829208689685835,-1.6166929462723463,-2.21212633511396,0.9363199858762256,1.09071663144926,0.5327734372543096,0.23063453423668429,-0.1355683727745249,-0.3398186174919153,0.18125998700012894,0.09328468850647363,-0.03475886209682036,0.08382704971948368
8.110890666947205,-27.293041546333512,1.3984909554957814,-2.15530938145431,2.2023446325163234,0.5944685556288485,-36.979429207397075,-30.917720736309754,1.1306374325193196,16.769814992981345,-3.038055460716223,0.24495851617788425,-25.94459621266808,47.62356228968646,-4.254383061703348,-1.2482902063011114,0.9249223474502355,0.5360758966908059,22.604596745909653,25.654698172289105,-2.4738854073521384,-7.023822097958415,-13.823948800369891,5.816285298382592,4.816384260349136,-0.746590115599443,1.0089234031635221,6.040181131583274,-4.658857741545506,-0.13616765272244546,-2.7183510477858546,-1.3564210734166948,1.4360501455482684,1.816592803996688,1.4714625889198556,-0.30973537588719785,-0.44239771261503374,-0.1274621209142293,0.20165344350392708,0.30701691406655596,0.19049395484157872,-0.06777545151709145
7.873101401792555,-27.983748707278078,1.326717279314335,-3.116555576844964,2.202001304429267,0.8904128339655828,-36.43081751273225,-36.337435365124065,1.7858186785195245,14.492623710604164,-3.367466292526225,0.2020908621874835,-21.601852269562222,38.39134014602618,-4.111928901943913,-6.421940860650504,3.8329384214883073,1.3098556760158495,16.866470899910773,7.712485342777908,-2.056744188917401,-17.94898826990199,-17.52595894929597,0.2294317397335249,4.697141619974937,1.4071556543502934,1.1329733058526426,4.697595303656294,-5.589382451527882,0.24112312635698477,-1.0345213390976202,-0.2685452815748667,0.5949162400620495,0.38850077080212275,0.7624527144213226,-0.1871808976853093,-0.2003946381986861,0.19126979414274958,0.020630496962748556,-0.21489909409323443,0.0029032979442177313,-0.010966020444805972
6.925029228898951,-29.136404741713637,1.2453101967775657,-5.464428695073244,5.823969930364322,1.3339824845248394,-27.662715719020678,-28.003816861876217,1.254856391716632,0.22062806988279687,8.564334669854729,4.245633574708174,-17.165885090436497,30.255266149700404,-3.9282141321047668,-14.689056861225417,8.60098335998381,2.545072844303148,4.94395387199802,24.645698147153176,1.5631112378790328,-8.517022853441183,-12.914867934170692,2.459601113708534,6.065890483886832,0.31157655992697036,-0.6022344917510359,5.427414752199363,-4.788935428973707,0.5976112272664043,0.31587940768377565,-0.2523382629403089,0.06399771859755043,1.6782278624536282,0.6452222834521504,-0.12044319757663113,0.10484189900759547,0.1383779862691701,-0.06430456842426474,0.3621384866508959,-0.03149883585307178,-0.012433601805659006
11.003779697550888,-32.24276610304018,1.4590672585925792,-2.5402432028777433,7.00152093058907,1.8952902644724654,-25.195269619253985,-33.44131509941972,0.9413331520762513,-2.478187123864047,11.012511492961321,5.192322366835769,-13.445319026704889,23.382628202401122,-3.3926641462252967,-23.84858461330565,14.433942966421421,4.558305728071377,-4.304985807714036,9.603803801472404,0.5978859551153808,9.167471663910444,-14.482554404106008,0.1855198041588896,8.360359645448492,-1.4138928788691485,-0.5174789553048531,5.295261932993755,-5.051850127572073,-0.02291303275003383,3.2949402926903977,-3.180518776259913,-0.9934039163505399,2.371684272263541,0.8122873981556307,0.2512811997915745,0.6287157696048601,-0.5597186138343078,-0.21575797254055476,0.3830450918959114,0.019900557141847533,0.04315083925466097
16.80616125481606,-33.17361638322894,1.4784006794111724,0.02089564716513391,6.453081527497108,1.9854496080430728,-18.63494320286276,-32.47888189702103,2.119814730221285,-12.910526429168575,18.863292041523103,5.65468774060012,-9.27331833633748,15.42412140315056,-2.360444341531253,-32.980122331380485,20.009173200693635,6.288564539141452,-19.119674231083557,8.899499591397548,-0.634661673960457,17.43985615327929,-6.262439370054101,0.5767405563826411,9.6231315881949,-2.357497620671533,-3.710844046512603,4.910039497644087,-5.576337159833879,0.5046636163095201,6.883317746961755,-2.625654534939427,-3.1666253455342233,1.326739325308625,0.6546028953981607,0.02659361381265507,1.087638859027508,-0.6744098516336365,-0.48782485355458005,0.121200357140449,0.04368401609644371,-0.0015590458712159846
20.823973972191276,-34.422930909366194,1.187059657341533,4.103584990827955,6.151372451976068,2.1820701823807105,-10.440381614931171,-24.30429735716471,0.911319124515311,-15.738178250311407,27.837991245718573,10.21023298333153,-5.509424022488942,8.721519652868976,-1.501363517493338,-40.969751128189394,25.178608955134393,7.915258446302152,-23.966115486092118,22.138655370332792,0.097782440552864,26.83656130790202,-40.86234510122507,-1.0313970154945664,5.644665235657397,-1.142187140502241,-0.42549008087966095,4.8770816410732865,-5.338254420895041,0.2370507066792314,4.283806134387571,-2.5304384181505437,-1.2279779757123728,1.5805631476824737,0.6855033383273665,-0.09932911648094744,0.5089465553585422,-0.34233013421055625,-0.10066728426337021,0.10308927572489122,0.03276673749073744,-0.05298189841105288
18.625293695138218,-36.54997912669186,1.8032865336364405,6.888364745806484,4.54019465664283,2.1162554779265985,-10.60572835662785,-31.792677800976033,0.46356934458469123,-20.009376225619068,25.621054280674024,8.52541160127195,-3.003078207700898,4.5217888601085585,-1.5151235442948439,-46.04425964915372,28.362269250793126,8.6954826267084,-34.260564458099374,1.2160461404187584,1.082991071945873,31.569778836084485,5.120646783096012,0.6345534304125315,6.165446521278267,-0.6337561836692852,-0.44390468864064336,4.897935385868601,-5.8103579870330995,0.695592423179454,2.112395583107572,-1.6207496673174717,-0.3954306550949312,1.476361979328697,0.5801662533027977,0.20081987195609102,0.34136243688938483,-0.1767238804595057,-0.08543392081951809,0.08793296999358116,-0.02467707724120357,0.06957898728507102
16.490246710540028,-31.632739574318805,1.2022210375871647,7.807125198200593,6.162410178013269,2.1420694459617726,-9.1018385307647,-22.524663929784317,1.819272774839352,-18.885559809418915,31.675603926698752,10.326653957317367,-1.8604597389414346,1.2365136863980097,-1.4020081822926513,-50.24738827125103,31.07052635880421,9.434748310929452,-36.994802252548155,10.414829475782284,1.5252626846472463,36.117446512610016,-9.911777250688854,-2.3272537121206294,7.451974676495175,-1.0995937143885302,-0.3365655697633106,4.709605376809935,-5.641228143612072,-0.30869013826792696,1.2290950067446065,-1.7027585559346115,0.34318136797349064,1.977830443571603,0.9436732442710505,-0.04067983411424806,0.20592276935503792,-0.2154782066561275,0.10560489599008457,0.2726875284574899,0.018040760596173218,0.026507540714677133
13.522839170179498,-28.01997002522762,1.2944861203599103,4.390698706954744,8.107605220070747,2.888762878559947,-5.838750023986211,-20.65061871453517,0.3002248429158325,-25.764818650574036,34.82550528385575,11.608509423328988,-1.0648876226939807,-0.2306584006794587,-0.8288016196940137,-53.41081491359221,33.410654798112404,10.237381998467555,-44.063176448440586,10.994568679598144,4.090875213846457,41.11353156050362,-9.28585782208057,-0.6498786242456976,6.45550111158064,0.7216034802139468,0.14300800441952566,4.328738733801757,-5.917460378162127,-0.1844067863703165,2.037680236792288,-1.6072659549455193,-0.6454935005650516,1.8121136183104527,0.5172470050732182,0.07541845127039308,0.27619053088220474,-0.11514508496592894,-0.1540235748407292,0.21046201253883826,0.0073828914545530895,-0.012135424093493698
10.36087639850211,-25.899152966720123,1.805301458728421,-0.3588711671985757,9.654778060772458,3.4844616479636064,-12.652957419068937,-21.524783513748005,2.27883172380691,-26.024118734863293,34.09446937921899,10.849386903642497,-0.6346407013820322,-0.77823302954338,-0.7260580568710372,-53.07944261831775,33.688607145278304,10.47585904841272,-54.95989154266747,6.2430446602109635,2.9609818188323893,43.699471320840665,-7.275689839150628,-3.288224731188458,4.916081989871542,-0.1340710658131136,-0.11257708547836226,3.9402057912503707,-5.651572110280635,-2.1240304045017036,0.9400674910571081,-0.7879156674435905,0.10482099651797694,2.8494463375958774,1.072201948404457,-0.054910492810901025,0.15390376553472151,-0.010745963236554298,0.04399775649101325,0.3453435326696139,0.04829993666271019,-0.04313603886190298
9.449375510983227,-25.1338282082333,1.6908464082853363,-5.36549869666127,10.793812627659912,3.787688917307635,-5.85704004707241,-16.715115841558188,1.4282680316395358,-28.373074037729868,33.80768907682702,11.346947949571797,-0.41461484541889077,-1.593112668755583,-0.38284633481672004,-52.09031891614903,32.71849924083825,10.066081531530417,-47.3261322494365,16.15608801891577,5.470355636502577,47.94650257909928,-14.066083564121564,-4.39754434412749,5.1673545528324745,-0.058417535046540243,-0.10655015218600251,4.720706091544018,-5.643230016125201,-0.19591776597873345,1.847766093335321,-1.5624613754106034,-0.6061608116482387,2.336032408096929,0.81591362708323,0.3788162481615341,0.2680047523398479,-0.11972148289157582,-0.11169782824188425,0.2838595895270699,0.00794855968498321,0.10640746528316655
7.932704749727172,-25.57769521484309,1.9750873478876763,-9.595407217864475,9.345616677059283,3.2609454318933793,-14.37617586692056,-17.853063154819957,1.423877719962245,-23.780194094064157,27.932999020289383,9.015680475589912,-0.6325256717118238,-1.1242827684695986,-0.31877518639796243,-49.42097888667235,29.97049609787704,8.853407926230341,-45.69070932239096,9.371415052160549,-0.08704230533138209,42.255300105286544,-9.13396505672719,-2.059041109305998,5.204294653962236,-0.4592352941605718,-0.3392939103361085,3.575924124237052,-5.502374624222588,-2.132534795856198,1.046343309510917,-1.2626195458358591,-0.2502405573018354,2.499599172999524,0.9499299161715875,-0.13277225314867197,0.16316504310893268,-0.062200701105699724,-0.06409430412717135,0.2540416970166534,0.025963329104064226,-0.05978414333065508
7.192123243369324,-26.3721001472663,2.354960687093461,-15.362048563344162,8.637620572426059,2.973439217132129,-18.346652355001734,-22.138703169436653,3.4778065214304505,-30.403453723722347,21.56910907446814,6.677484579902034,-2.4983179574702308,3.6987444674634027,-0.6258956121430953,-43.251279310378585,24.9546674085057,6.935214659206321,-47.28920072904783,8.569488068938396,1.3832503881215121,45.615305079318276,-10.17114752068686,-2.1211788464413446,5.481194346713898,-0.9250268050360805,-0.766434481492422,4.43369686672674,-4.806938824483346,-0.00843998682337957,0.3153755825946652,-1.029661314643065,0.03807071410251577,2.2779932874778934,0.5570943347635888,0.33271379798307976,0.06743579601922191,-0.09499984494735074,-0.011826503359125577,0.2607178604271046,0.031448876026819075,0.014703864209684128
5.960834258004873,-27.931217540315775,2.5511186991910715,-15.802537518937307,9.229385549542268,2.638916950398442,-22.055950269532655,-26.76264519202797,1.2987895740060276,-18.720574389124316,19.556031753267845,7.56909868329579,-5.427233827446964,9.924123375420397,-0.6666668644458662,-33.78395352249673,18.34153720677839,4.94537724142843,-25.820315118146965,13.109486727867955,2.8115542730353176,32.05770014776545,-11.558373670032857,1.3712343114041177,4.614880962985273,0.25781017839599885,1.1238563219947293,4.3185636700372925,-5.025196475938912,-0.852471801394072,0.6280693229420145,-1.9260014907586016,0.2675009684363757,2.3907516945472236,0.8687402862438006,0.10914054236881095,0.07343045050312086,-0.22815448127134091,0.11146208093439892,0.30147588565550865,0.054981162309211316,-0.008403513751284016
1.6209311926816161,-28.563275873322887,3.1766793223951444,-17.789680177495036,7.821001470001128,2.4591579400151886,-31.139080415758276,-29.600166064969905,3.1381089719174855,-22.20525353223145,11.153369754567164,2.9462609457362627,-7.637126037587111,14.686468930733124,-0.933863648634326,-24.467956851544397,12.415859146479761,3.4868707255233673,-30.823851015607328,13.337643945169349,-0.05432972542222571,35.14032099894946,-9.891957359461154,-2.503870986114144,5.471187048633542,-0.8880736998172646,-0.6534319626665145,4.49067650141983,-4.822906358302583,-0.5965838896379425,0.553680952855948,-1.1812693663074514,-0.03176202951398117,2.227694535133432,1.021662224852591,0.07895844711675762,0.17076935024924272,-0.12764080551496448,-0.026734072186202894,0.2914614685133202,0.0618739990476414,0.021957547068346128
-0.981623988377974,-30.74772566736894,3.4106490889762644,-16.156815074505612,6.076518711708426,2.0452339292311974,-31.26627492484341,-33.81819817832533,3.821698843538461,-17.980894570827452,6.689413433177366,2.6286469820882767,-9.089075042832915,19.06502625151059,-1.2583309893692538,-19.51862134518838,9.541175319742308,2.5854958776490506,-20.23064784687662,11.421380221907423,1.4885263711659567,22.31846377179597,-13.263061640408374,0.37780273131058584,4.725150597246636,-0.5168631161281096,0.2184037439630835,4.1775639657338255,-4.241361146865405,0.16100829834559138,0.2456118934898865,-1.3969442333580344,0.22747058296574468,1.6785757067996143,0.6091472316420766,0.08650967895045387,0.029048133980444694,-0.0947799009099971,0.054206396771278746,0.19848219609892595,-0.009578765133663958,0.01708709466127005
-1.52366415654275,-32.76518407144643,3.30262561093252,-14.182155127910969,5.5627076467266665,1.2668656259502986,-39.79082687155642,-39.38131961827914,2.6342734457844457,-11.134370993281454,10.547160660278038,2.946941377101346,-9.602912512319996,20.856188386495898,-1.3129909561255753,-15.891479382681075,7.448382644583368,1.7027170053855225,-15.56746888904535,18.466774706166408,1.0773159827174457,20.617215120276995,-12.95669955114115,-0.954759498644598,6.205692151463191,0.6284864344711073,0.802061031146378,5.061433672686489,-5.012087850524537,0.2259474946749626,0.3965975523857332,-1.61082122349908,0.09185762950863086,1.4191420976848148,1.194559151363859,-0.2366349326752725,0.09036258696776389,-0.19511957551320117,0.01808655301548833,0.07492777486838845,0.1263404657974179,-0.03625714551712076
-0.9045928584752171,-34.069599482372844,3.1157852642725654,-14.232234095755045,2.495572383981137,0.975860351540851,-37.86810143322001,-41.154615667077564,3.501767836604296,-12.778885406268046,0.009630276708397657,0.5116418665808642,-9.686146906660946,20.725671890651913,-1.3074787553775773,-14.251428875872355,6.522311133701901,1.3201244549073532,-13.510754740507203,7.2579246647772635,-1.6199678216082207,27.141281228843653,-11.301794887714472,-2.6514731435795613,5.56710661408466,-0.03790502451380994,0.62881173117319,4.286667915061462,-4.486748153135423,-0.7715629590465608,0.9900339342090418,-1.8505420463237743,-0.0529147535611884,2.3522507633384375,0.8693533394364633,0.23302412409655396,0.16362735704967565,-0.1564702233549777,0.01960498619315415,0.28825035326612924,0.04054302159207316,0.028852673858391922
-0.48407,-35.78399,3.1586,-10.62149,3.46076,0.70634,-40.47816,-39.81924,3.8598,-6.10076,4.66912,1.90563,-9.10518,19.78721,-1.1064,-13.1941,6.23835,1.18416,-11.14419,14.65999,0.38875,13.33535,-8.47184,2.67641,5.46507,-0.71534,-0.21407,6.20531,-5.42018,0.62599,-0.15236,-1.26971,0.29124,1.82196,1.07645,-0.301,0.00022,-0.12549,0.03475,0.24568,0.06018,-0.04237
,,,,,,,,,,,,,,,,,,,,,,,,,,,,,,,,,,,,,,,,,
,,,,,,,,,,,,,,,,,,,,,,,,,,,,,,,,,,,,,,,,,
,,,,,,,,,,,,,,,,,,,,,,,,,,,,,,,,,,,,,,,,,
,,,,,,,,,,,,,,,,,,,,,,,,,,,,,,,,,,,,,,,,,
,,,,,,,,,,,,,,,,,,,,,,,,,,,,,,,,,,,,,,,,,
,,,,,,,,,,,,,,,,,,,,,,,,,,,,,,,,,,,,,,,,,
,,,,,,,,,,,,,,,,,,,,,,,,,,,,,,,,,,,,,,,,,
,,,,,,,,,,,,,,,,,,,,,,,,,,,,,,,,,,,,,,,,,
,,,,,,,,,,,,,,,,,,,,,,,,,,,,,,,,,,,,,,,,,
,,,,,,,,,,,,,,,,,,,,,,,,,,,,,,,,,,,,,,,,,
,,,,,,,,,,,,,,,,,,,,,,,,,,,,,,,,,,,,,,,,,
,,,,,,,,,,,,,,,,,,,,,,,,,,,,,,,,,,,,,,,,,
,,,,,,,,,,,,,,,,,,,,,,,,,,,,,,,,,,,,,,,,,
,,,,,,,,,,,,,,,,,,,,,,,,,,,,,,,,,,,,,,,,,
,,,,,,,,,,,,,,,,,,,,,,,,,,,,,,,,,,,,,,,,,
,,,,,,,,,,,,,,,,,,,,,,,,,,,,,,,,,,,,,,,,,
,,,,,,,,,,,,,,,,,,,,,,,,,,,,,,,,,,,,,,,,,
,,,,,,,,,,,,,,,,,,,,,,,,,,,,,,,,,,,,,,,,,
,,,,,,,,,,,,,,,,,,,,,,,,,,,,,,,,,,,,,,,,,
,,,,,,,,,,,,,,,,,,,,,,,,,,,,,,,,,,,,,,,,,
,,,,,,,,,,,,,,,,,,,,,,,,,,,,,,,,,,,,,,,,,
,,,,,,,,,,,,,,,,,,,,,,,,,,,,,,,,,,,,,,,,,
,,,,,,,,,,,,,,,,,,,,,,,,,,,,,,,,,,,,,,,,,
,,,,,,,,,,,,,,,,,,,,,,,,,,,,,,,,,,,,,,,,,
,,,,,,,,,,,,,,,,,,,,,,,,,,,,,,,,,,,,,,,,,
,,,,,,,,,,,,,,,,,,,,,,,,,,,,,,,,,,,,,,,,,
,,,,,,,,,,,,,,,,,,,,,,,,,,,,,,,,,,,,,,,,,
,,,,,,,,,,,,,,,,,,,,,,,,,,,,,,,,,,,,,,,,,
,,,,,,,,,,,,,,,,,,,,,,,,,,,,,,,,,,,,,,,,,
,,,,,,,,,,,,,,,,,,,,,,,,,,,,,,,,,,,,,,,,,
,,,,,,,,,,,,,,,,,,,,,,,,,,,,,,,,,,,,,,,,,
,,,,,,,,,,,,,,,,,,,,,,,,,,,,,,,,,,,,,,,,,
,,,,,,,,,,,,,,,,,,,,,,,,,,,,,,,,,,,,,,,,,
,,,,,,,,,,,,,,,,,,,,,,,,,,,,,,,,,,,,,,,,,
,,,,,,,,,,,,,,,,,,,,,,,,,,,,,,,,,,,,,,,,,
,,,,,,,,,,,,,,,,,,,,,,,,,,,,,,,,,,,,,,,,,
,,,,,,,,,,,,,,,,,,,,,,,,,,,,,,,,,,,,,,,,,
,,,,,,,,,,,,,,,,,,,,,,,,,,,,,,,,,,,,,,,,,
,,,,,,,,,,,,,,,,,,,,,,,,,,,,,,,,,,,,,,,,,
,,,,,,,,,,,,,,,,,,,,,,,,,,,,,,,,,,,,,,,,,
,,,,,,,,,,,,,,,,,,,,,,,,,,,,,,,,,,,,,,,,,
,,,,,,,,,,,,,,,,,,,,,,,,,,,,,,,,,,,,,,,,,
,,,,,,,,,,,,,,,,,,,,,,,,,,,,,,,,,,,,,,,,,
,,,,,,,,,,,,,,,,,,,,,,,,,,,,,,,,,,,,,,,,,
,,,,,,,,,,,,,,,,,,,,,,,,,,,,,,,,,,,,,,,,,
,,,,,,,,,,,,,,,,,,,,,,,,,,,,,,,,,,,,,,,,,
,,,,,,,,,,,,,,,,,,,,,,,,,,,,,,,,,,,,,,,,,
,,,,,,,,,,,,,,,,,,,,,,,,,,,,,,,,,,,,,,,,,
,,,,,,,,,,,,,,,,,,,,,,,,,,,,,,,,,,,,,,,,,
,,,,,,,,,,,,,,,,,,,,,,,,,,,,,,,,,,,,,,,,,
,,,,,,,,,,,,,,,,,,,,,,,,,,,,,,,,,,,,,,,,,
,,,,,,,,,,,,,,,,,,,,,,,,,,,,,,,,,,,,,,,,,
,,,,,,,,,,,,,,,,,,,,,,,,,,,,,,,,,,,,,,,,,
,,,,,,,,,,,,,,,,,,,,,,,,,,,,,,,,,,,,,,,,,
,,,,,,,,,,,,,,,,,,,,,,,,,,,,,,,,,,,,,,,,,
,,,,,,,,,,,,,,,,,,,,,,,,,,,,,,,,,,,,,,,,,
,,,,,,,,,,,,,,,,,,,,,,,,,,,,,,,,,,,,,,,,,
,,,,,,,,,,,,,,,,,,,,,,,,,,,,,,,,,,,,,,,,,
,,,,,,,,,,,,,,,,,,,,,,,,,,,,,,,,,,,,,,,,,
,,,,,,,,,,,,,,,,,,,,,,,,,,,,,,,,,,,,,,,,,
,,,,,,,,,,,,,,,,,,,,,,,,,,,,,,,,,,,,,,,,,
,,,,,,,,,,,,,,,,,,,,,,,,,,,,,,,,,,,,,,,,,
,,,,,,,,,,,,,,,,,,,,,,,,,,,,,,,,,,,,,,,,,
,,,,,,,,,,,,,,,,,,,,,,,,,,,,,,,,,,,,,,,,,
