PaulMeinheit/Bachelor_Muay_Thai/results/Sub01_Teep_finishedJointAngles8.csv
Unnamed: 0_level_0,L_MTP_ANGLE,L_MTP_ANGLE,L_MTP_ANGLE,R_MTP_ANGLE,R_MTP_ANGLE,R_MTP_ANGLE,L_ANKLE_ANGLE,L_ANKLE_ANGLE,L_ANKLE_ANGLE,R_ANKLE_ANGLE,R_ANKLE_ANGLE,R_ANKLE_ANGLE,L_KNEE_ANGLE,L_KNEE_ANGLE,L_KNEE_ANGLE,R_KNEE_ANGLE,R_KNEE_ANGLE,R_KNEE_ANGLE,L_HIP_ANGLE,L_HIP_ANGLE,L_HIP_ANGLE,R_HIP_ANGLE,R_HIP_ANGLE,R_HIP_ANGLE,L_SHOULDER_ANGLE,L_SHOULDER_ANGLE,L_SHOULDER_ANGLE,R_SHOULDER_ANGLE,R_SHOULDER_ANGLE,R_SHOULDER_ANGLE,L_ELBOW_ANGLE,L_ELBOW_ANGLE,L_ELBOW_ANGLE,R_ELBOW_ANGLE,R_ELBOW_ANGLE,R_ELBOW_ANGLE,L_WRIST_ANGLE,L_WRIST_ANGLE,L_WRIST_ANGLE,R_WRIST_ANGLE,R_WRIST_ANGLE,R_WRIST_ANGLE,NECK_ANGLE,NECK_ANGLE,NECK_ANGLE,NECK_ANGLE_SHADOW,NECK_ANGLE_SHADOW,NECK_ANGLE_SHADOW,Trunk_Joint_Angle,Trunk_Joint_Angle,Trunk_Joint_Angle
ITEM,X,Y,Z,X,Y,Z,X,Y,Z,X,Y,Z,X,Y,Z,X,Y,Z,X,Y,Z,X,Y,Z,X,Y,Z,X,Y,Z,X,Y,Z,X,Y,Z,X,Y,Z,X,Y,Z,X,Y,Z,X,Y,Z,X,Y,Z
801,-8.19095,0.0,0.0,-5.2508,0.0,-0.0,-7.06655,-7.83126,10.81547,12.81314,2.42165,-13.38479,-22.47118,-1.69418,-2e-05,-13.49842,-2.69271,-0.00029,27.07774,18.35522,8.58149,7.64816,6.91583,-14.34483,21.83025,22.71579,2.02858,44.66758,-11.04554,36.31673,129.54242,-0.00253,-104.99374,117.00915,-0.00118,100.2504,-9.01409,-14.7106,-0.00636,-8.40199,4.01695,0.00369,-6.71373,-11.45948,12.54896,-29.87444,-15.41388,7.09346,-1.25794,0.07077,6.95365
802,-8.02214,-0.0,0.0,-5.07494,0.0,0.0,-7.33198,-8.01601,10.66612,12.86075,2.36779,-13.65619,-22.61569,-1.74228,0.00028,-13.66298,-2.66844,-0.00019,27.09202,18.42082,8.53142,7.59276,6.94194,-14.17792,22.03686,22.71197,1.83518,44.54005,-11.01121,36.22799,129.65106,-0.00377,-103.93933,117.10032,-0.00155,100.36291,-8.57661,-14.79594,-0.0072,-8.21021,4.19628,0.00308,-6.63499,-11.52576,12.43254,-29.80863,-15.42993,6.95761,-1.32414,0.17846,6.9125
803,-7.90088,0.0,-0.0,-4.95019,0.0,-0.0,-7.55946,-8.22973,10.58418,12.91838,2.26749,-13.92648,-22.7784,-1.83206,0.0005,-13.80292,-2.67366,-4e-05,27.14929,18.51209,8.41955,7.56591,7.00117,-13.99037,22.23363,22.71194,1.64343,44.45432,-10.98075,36.17408,129.76932,-0.00382,-102.7745,117.14665,-0.00145,100.56027,-8.12796,-14.90099,-0.00649,-8.13376,4.2983,0.00238,-6.52847,-11.56729,12.38221,-29.70908,-15.44871,6.89363,-1.35595,0.29862,6.87738
804,-7.79264,0.0,-0.0,-4.88784,0.0,0.0,-7.76004,-8.42767,10.53966,12.98718,2.11227,-14.14321,-22.95623,-1.94325,0.00056,-13.90909,-2.71202,6e-05,27.2502,18.60107,8.27107,7.57382,7.07017,-13.8331,22.41394,22.73618,1.45104,44.43116,-10.95583,36.14769,129.87703,-0.00248,-101.652,117.14207,-0.001,100.77491,-7.87473,-14.96046,-0.00518,-8.16129,4.30828,0.00177,-6.39295,-11.57389,12.38827,-29.57398,-15.45711,6.89658,-1.35685,0.41278,6.83886
805,-7.66588,0.0,0.0,-4.89349,0.0,-0.0,-7.95078,-8.57719,10.50609,13.06941,1.92204,-14.29219,-23.13833,-2.05708,0.00048,-13.98437,-2.76982,8e-05,27.36712,18.66287,8.11294,7.5985,7.12082,-13.7257,22.58702,22.80181,1.25914,44.46886,-10.93177,36.12687,129.95789,-0.00038,-100.77354,117.09804,-0.00037,101.01532,-7.89306,-14.94781,-0.00465,-8.24101,4.27235,0.00119,-6.23556,-11.54983,12.42038,-29.41242,-15.44737,6.93642,-1.34869,0.50303,6.79528
806,-7.5266,-0.0,-0.0,-4.98815,0.0,-0.0,-8.14547,-8.66243,10.4654,13.16865,1.73357,-14.38659,-23.3129,-2.1589,0.00028,-14.04017,-2.82841,5e-05,27.47548,18.68653,7.9717,7.62292,7.13498,-13.66428,22.76968,22.90951,1.07844,44.54993,-10.89687,36.08707,130.0036,0.00137,-100.31531,117.03296,0.00037,101.34421,-8.10746,-14.88657,-0.00519,-8.31284,4.2759,0.00065,-6.07418,-11.50864,12.43749,-29.24572,-15.41611,6.96922,-1.34752,0.56298,6.75213
807,-7.43474,0.0,-0.0,-5.21001,0.0,-0.0,-8.34561,-8.67947,10.40946,13.28898,1.58247,-14.45226,-23.47329,-2.24094,8e-05,-14.09105,-2.8763,1e-05,27.57253,18.67734,7.86326,7.64589,7.11305,-13.63537,22.97347,23.0409,0.9267,44.65302,-10.83636,36.01603,130.01004,0.00203,-100.30756,116.96037,0.00107,101.81164,-8.38589,-14.80835,-0.00666,-8.34569,4.39242,0.00028,-5.93446,-11.46757,12.40206,-29.10329,-15.36469,6.95288,-1.35231,0.60205,6.71588
808,-7.4849,0.0,-0.0,-5.59045,0.0,0.0,-8.53672,-8.63105,10.34203,13.43381,1.48726,-14.52368,-23.61855,-2.30414,-4e-05,-14.15026,-2.90964,-3e-05,27.66823,18.64926,7.78176,7.6739,7.06926,-13.61806,23.20173,23.16772,0.81524,44.76155,-10.74186,35.91928,129.9693,0.00162,-100.64297,116.88657,0.00154,102.42448,-8.64182,-14.7235,-0.00882,-8.34286,4.6444,0.00012,-5.84178,-11.44483,12.29681,-29.01325,-15.30319,6.86382,-1.35542,0.63917,6.68833
809,-7.71329,-0.0,0.0,-6.0885,0.0,0.0,-8.7079,-8.52189,10.2637,13.5956,1.44264,-14.63289,-23.75025,-2.35285,-8e-05,-14.2266,-2.92905,-7e-05,27.76376,18.61499,7.71272,7.70373,7.02029,-13.59017,23.45343,23.26717,0.74073,44.86448,-10.62249,35.81213,129.8717,0.00074,-101.17526,116.81776,0.00154,103.13243,-8.84156,-14.64062,-0.01104,-8.32301,4.99179,5e-05,-5.81254,-11.45585,12.13356,-28.99297,-15.25035,6.70685,-1.35988,0.69064,6.66586
810,-8.06308,-0.0,-0.0,-6.58646,-0.0,0.0,-8.86154,-8.36412,10.16976,13.75503,1.42883,-14.79403,-23.8701,-2.39168,-7e-05,-14.32552,-2.93915,-0.00011,27.84963,18.58294,7.65123,7.72681,6.97728,-13.5351,23.72386,23.33366,0.69243,44.95317,-10.50849,35.70658,129.71877,7e-05,-101.76537,116.76646,0.00103,103.82774,-8.95648,-14.58013,-0.01235,-8.30875,5.34619,8e-05,-5.84972,-11.50676,11.94517,-29.04433,-15.22445,6.51019,-1.37603,0.76139,6.64703
811,-8.45373,0.0,-0.0,-6.96932,0.0,0.0,-8.99908,-8.18923,10.0686,13.89431,1.42529,-15.00235,-23.97908,-2.4266,-2e-05,-14.45116,-2.94631,-0.00012,27.91448,18.55881,7.60392,7.7414,6.94382,-13.43692,24.00338,23.37714,0.66131,45.02216,-10.43913,35.60574,129.53139,-0.00011,-102.31245,116.74622,0.00042,104.37942,-8.94913,-14.55788,-0.01187,-8.33244,5.60338,0.00051,-5.94272,-11.58882,11.76426,-29.15426,-15.23005,6.30784,-1.40996,0.84458,6.64103
812,-8.81954,-0.0,-0.0,-7.17455,0.0,-0.0,-9.11946,-8.0456,9.97395,14.00102,1.41547,-15.23864,-24.07788,-2.45745,0.0,-14.60289,-2.95597,-9e-05,27.94904,18.54439,7.59027,7.75047,6.91789,-13.28466,24.28192,23.4103,0.64001,45.07407,-10.43972,35.50689,129.34244,0.00017,-102.76389,116.75977,0.00017,104.68642,-8.80379,-14.56047,-0.00936,-8.43328,5.68226,0.00176,-6.07017,-11.67895,11.60386,-29.29838,-15.25093,6.12136,-1.46323,0.92775,6.66385
813,-9.09469,0.0,-0.0,-7.18945,0.0,-0.0,-9.23477,-7.97656,9.87454,14.06389,1.38855,-15.46601,-24.16846,-2.46815,-5e-05,-14.76985,-2.97514,-2e-05,27.95886,18.53606,7.64515,7.76327,6.89695,-13.09517,24.5568,23.43848,0.61749,45.12109,-10.50434,35.40641,129.18073,0.00071,-103.07355,116.79427,0.0003,104.7225,-8.55433,-14.54344,-0.0057,-8.63062,5.55766,0.00362,-6.205,-11.74779,11.4544,-29.44695,-15.25646,5.95383,-1.52751,1.00106,6.72517
814,-9.21176,0.0,0.0,-7.04192,0.0,0.0,-9.37293,-7.9934,9.73423,14.07494,1.3426,-15.64227,-24.25264,-2.43554,-0.00014,-14.93168,-3.01233,6e-05,27.96379,18.52755,7.80016,7.79097,6.88217,-12.91196,24.83471,23.45848,0.57453,45.17973,-10.59659,35.30252,129.06213,0.00113,-103.21597,116.82763,0.00045,104.5521,-8.26875,-14.48454,-0.00249,-8.89856,5.2755,0.00495,-6.32107,-11.77283,11.29795,-29.57216,-15.21901,5.79773,-1.58654,1.06147,6.82144
815,-9.15003,0.0,-0.0,-6.81153,0.0,-0.0,-9.55431,-8.06945,9.53431,14.04251,1.28287,-15.7551,-24.32914,-2.35373,-0.00019,-15.06821,-3.0689,9e-05,27.97579,18.51371,8.04358,7.82944,6.87745,-12.76747,25.12566,23.46223,0.48472,45.26218,-10.66682,35.19672,128.99089,0.00119,-103.22656,116.83897,0.0004,104.2972,-8.01281,-14.42061,-0.00062,-9.1701,4.94257,0.00477,-6.40068,-11.74918,11.1262,-29.65613,-15.1309,5.64734,-1.63478,1.11159,6.93767
816,-8.98451,0.0,0.0,-6.63386,-0.0,0.0,-9.76684,-8.16385,9.30483,13.99951,1.21473,-15.83067,-24.39627,-2.24539,-0.00016,-15.17149,-3.13576,6e-05,27.99923,18.49264,8.3044,7.86557,6.8867,-12.66601,25.43231,23.44128,0.32229,45.37012,-10.67471,35.09446,128.96552,0.001,-103.183,116.8165,0.00018,104.05762,-7.8325,-14.41027,0.00021,-9.37063,4.6846,0.00338,-6.44002,-11.69051,10.94709,-29.69623,-15.00775,5.50447,-1.67759,1.15719,7.05164
817,-8.82996,-0.0,0.0,-6.62738,0.0,0.0,-9.97937,-8.2424,9.09991,13.98282,1.13836,-15.89598,-24.4558,-2.14651,-8e-05,-15.24831,-3.20241,1e-05,28.04485,18.46718,8.49501,7.89769,6.91264,-12.60725,25.74035,23.39252,0.07449,45.49429,-10.60475,35.00481,128.98549,0.00074,-103.15753,116.76083,-0.00011,103.84519,-7.75947,-14.48497,0.00077,-9.46082,4.58471,0.00197,-6.44865,-11.61911,10.77811,-29.70378,-14.87681,5.37627,-1.71633,1.20467,7.14142
818,-8.73945,0.0,-0.0,-6.79896,0.0,0.0,-10.17541,-8.27964,8.95371,14.00343,1.04975,-15.95247,-24.50944,-2.08238,-0.0,-15.31315,-3.26332,-2e-05,28.11999,18.44059,8.57009,7.933,6.95239,-12.59988,26.01931,23.32333,-0.2469,45.61885,-10.4689,34.93786,129.05147,0.00044,-103.16573,116.68498,-0.00037,103.60187,-7.82021,-14.63384,0.00137,-9.4617,4.64383,0.0011,-6.44237,-11.55201,10.63445,-29.69585,-14.7596,5.26992,-1.74918,1.25608,7.19374
819,-8.6913,-0.0,0.0,-7.04527,0.0,0.0,-10.36108,-8.26096,8.86677,14.04422,0.94866,-15.98991,-24.5543,-2.05434,3e-05,-15.38105,-3.31575,-3e-05,28.21631,18.40887,8.54646,7.97677,6.99335,-12.64762,26.23713,23.2506,-0.60428,45.7277,-10.29779,34.89921,129.15875,3e-05,-103.16107,116.61182,-0.00046,103.29381,-8.02976,-14.81455,0.00168,-9.44086,4.79643,0.00053,-6.4358,-11.49307,10.51779,-29.68744,-14.66031,5.1854,-1.77639,1.3063,7.20717
820,-8.61995,-0.0,-0.0,-7.21559,0.0,0.0,-10.55417,-8.19031,8.81168,14.07551,0.84781,-16.00081,-24.58467,-2.04035,1e-05,-15.46294,-3.35855,-4e-05,28.31702,18.36153,8.48598,8.03193,7.01789,-12.74288,26.37966,23.19046,-0.94683,45.80929,-10.12682,34.88438,129.29144,-0.00044,-103.08949,116.56695,-0.00042,102.99529,-8.36938,-14.97518,0.00118,-9.46929,4.96376,8e-05,-6.44102,-11.43699,10.41063,-29.69074,-14.56733,5.10855,-1.79657,1.34811,7.19088
821,-8.44895,0.0,-0.0,-7.18641,0.0,0.0,-10.7714,-8.09629,8.75077,14.07239,0.77005,-15.98316,-24.59613,-2.00907,-3e-05,-15.56207,-3.39305,-6e-05,28.40953,18.2889,8.45437,8.1,7.0129,-12.87368,26.46066,23.14597,-1.22868,45.8581,-9.98348,34.87876,129.42421,-0.00074,-102.93565,116.56807,-0.0007,102.8777,-8.77199,-15.08047,-2e-05,-9.58131,5.09541,-0.0001,-6.46943,-11.38144,10.28315,-29.718,-14.46697,5.01261,-1.8039,1.37946,7.15932
822,-8.1615,-0.0,-0.0,-6.94682,0.0,0.0,-11.01004,-8.03094,8.67059,14.03498,0.73176,-15.94995,-24.58714,-1.94187,-5e-05,-15.6758,-3.42089,-8e-05,28.49145,18.18601,8.47326,8.18111,6.97485,-13.02383,26.51471,23.10476,-1.42362,45.87533,-9.87964,34.86552,129.53065,-0.0007,-102.74699,116.61552,-0.00152,103.10186,-9.14565,-15.13773,-0.00111,-9.76177,5.17364,7e-05,-6.52942,-11.3361,10.11303,-29.77927,-14.35947,4.87286,-1.79065,1.4039,7.1235
823,-7.80973,0.0,0.0,-6.59309,0.0,0.0,-11.25018,-8.04517,8.58899,13.98756,0.73108,-15.92718,-24.55759,-1.84084,-1e-05,-15.80034,-3.44282,-0.00011,28.56576,18.05214,8.5163,8.27285,6.90818,-13.17488,26.57903,23.04987,-1.53023,45.87091,-9.81348,34.8361,129.5914,-0.00048,-102.62807,116.6918,-0.00232,103.69985,-9.42517,-15.19222,-0.0016,-9.95764,5.19622,0.00041,-6.61977,-11.32037,9.90292,-29.87504,-14.26369,4.68393,-1.75439,1.42602,7.08539
824,-7.40552,-0.0,0.0,-6.19932,0.0,-0.0,-11.4888,-8.14672,8.51448,13.94546,0.75391,-15.92677,-24.50629,-1.71479,0.0001,-15.93039,-3.46279,-0.00012,28.62789,17.89105,8.55847,8.36416,6.82221,-13.3202,26.67671,22.97391,-1.56618,45.86362,-9.7791,34.79353,129.59892,-0.00043,-102.6713,116.7724,-0.00238,104.5369,-9.60408,-15.2868,-0.00153,-10.09571,5.16547,0.00054,-6.72657,-11.35083,9.67918,-29.99204,-14.20504,4.46359,-1.70729,1.44833,7.04116
825,-6.88086,0.0,0.0,-5.75469,0.0,-0.0,-11.75196,-8.28682,8.4234,13.89684,0.78766,-15.93473,-24.43113,-1.5689,0.00022,-16.05614,-3.49033,-0.0001,28.66417,17.71235,8.6071,8.4368,6.7298,-13.46988,26.81031,22.88417,-1.55892,45.87502,-9.77211,34.74526,129.56067,-0.00061,-102.90586,116.8403,-0.00168,105.3752,-9.72242,-15.44084,-0.001,-10.09725,5.09243,0.00025,-6.82739,-11.42651,9.4729,-30.1067,-14.19466,4.24112,-1.6726,1.4714,6.98821
826,-6.22132,-0.0,0.0,-5.26733,0.0,0.0,-12.05642,-8.39943,8.29673,13.82976,0.82837,-15.93602,-24.33216,-1.41263,0.00031,-16.16724,-3.53428,-5e-05,28.67017,17.52974,8.67508,8.48279,6.64476,-13.63206,26.96767,22.79622,-1.54065,45.91996,-9.78514,34.69347,129.49834,-0.00073,-103.32955,116.89212,-0.00078,105.98678,-9.83438,-15.66636,-2e-05,-9.90066,4.99663,-0.00031,-6.89962,-11.52275,9.30302,-30.19348,-14.21725,4.04413,-1.66316,1.49395,6.92752
827,-5.5592,-0.0,-0.0,-4.84329,0.0,-0.0,-12.37624,-8.45269,8.15679,13.76011,0.87803,-15.9375,-24.21278,-1.26515,0.0003,-16.26048,-3.59582,-1e-05,28.65708,17.35524,8.75104,8.51197,6.5767,-13.79446,27.13376,22.7239,-1.54329,46.00163,-9.80115,34.63453,129.43953,-0.0004,-103.92873,116.93182,-0.00017,106.25209,-9.98011,-15.97269,0.00113,-9.49856,4.8953,-0.0006,-6.9301,-11.60015,9.17596,-30.23525,-14.2391,3.89459,-1.67135,1.51119,6.86251
828,-5.0674,-0.0,-0.0,-4.59691,0.0,-0.0,-12.66356,-8.45996,8.04398,13.71645,0.94008,-15.95446,-24.07815,-1.14313,0.00024,-16.33991,-3.67234,3e-05,28.6347,17.1952,8.81506,8.53709,6.52864,-13.93614,27.29967,22.67461,-1.58825,46.11407,-9.79473,34.56987,129.40486,0.00033,-104.64037,116.95974,2e-05,106.20686,-10.16337,-16.34697,0.00181,-8.97022,4.80526,-0.00021,-6.92378,-11.62344,9.09331,-30.23349,-14.22846,3.80838,-1.68331,1.51518,6.79826
829,-4.81595,-0.0,0.0,-4.53499,-0.0,0.0,-12.88847,-8.45239,7.97116,13.70858,1.01772,-15.98668,-23.93403,-1.04839,0.00016,-16.41089,-3.76454,7e-05,28.60208,17.05106,8.86563,8.56223,6.49909,-14.05211,27.46517,22.65094,-1.67945,46.24943,-9.74264,34.51511,129.39911,0.00101,-105.32209,116.96626,-6e-05,105.99908,-10.35348,-16.74292,0.0016,-8.47299,4.74765,0.00062,-6.90488,-11.57809,9.05162,-30.21116,-14.17065,3.78821,-1.69181,1.49917,6.74012
830,-4.76419,0.0,-0.0,-4.56942,-0.0,-0.0,-13.04824,-8.45315,7.91972,13.72052,1.10897,-16.02356,-23.788,-0.97325,0.00011,-16.47583,-3.87284,0.0001,28.55486,16.92282,8.91321,8.58434,6.48524,-14.1525,27.63626,22.65222,-1.80704,46.40199,-9.63672,34.49325,129.41266,0.00123,-105.78776,116.9362,-8e-05,105.79922,-10.51819,-17.0931,0.00075,-8.16748,4.74197,0.00122,-6.90528,-11.47577,9.03425,-30.20184,-14.06995,3.81382,-1.69658,1.4632,6.69153
831,-4.84614,-0.0,-0.0,-4.61794,0.0,-0.0,-13.15017,-8.47238,7.87074,13.72935,1.20061,-16.06394,-23.6515,-0.91409,6e-05,-16.53543,-3.98944,0.00012,28.49843,16.81203,8.95517,8.60281,6.48489,-14.24332,27.81971,22.67105,-1.95733,46.56442,-9.49067,34.51576,129.43272,0.00107,-105.91822,116.86333,0.00016,105.73972,-10.64283,-17.34264,-0.00013,-8.11871,4.80228,0.0014,-6.94669,-11.3475,9.01002,-30.23124,-13.94274,3.84361,-1.69662,1.41684,6.65384
832,-5.02517,0.0,-0.0,-4.66767,0.0,0.0,-13.19821,-8.51323,7.82559,13.72525,1.27091,-16.11904,-23.53786,-0.87608,1e-05,-16.59228,-4.09813,9e-05,28.45206,16.723,8.96997,8.62668,6.49698,-14.31768,28.01688,22.692,-2.11986,46.72351,-9.33626,34.56959,129.45528,0.00082,-105.75613,116.75996,0.00052,105.87624,-10.72296,-17.48241,-0.00064,-8.25586,4.93288,0.00155,-7.03075,-11.22913,8.94579,-30.30546,-13.80911,3.83219,-1.68357,1.37653,6.62858
833,-5.26822,0.0,-0.0,-4.74297,-0.0,-0.0,-13.19742,-8.576,7.79653,13.71374,1.30156,-16.20077,-23.45562,-0.86588,-3e-05,-16.65165,-4.18178,5e-05,28.43144,16.66121,8.93682,8.66419,6.5207,-14.35999,28.21955,22.701,-2.28748,46.86461,-9.20944,34.62171,129.48819,0.00068,-105.47234,116.65111,0.00067,106.17996,-10.76229,-17.55258,-0.00075,-8.41134,5.13023,0.00213,-7.14269,-11.14682,8.82424,-30.41266,-13.68638,3.75291,-1.65081,1.35813,6.61949
834,-5.49516,-0.0,-0.0,-4.83022,0.0,-0.0,-13.16841,-8.65424,7.78445,13.70442,1.28857,-16.31026,-23.40261,-0.87971,-3e-05,-16.71883,-4.23,-1e-05,28.42997,16.62585,8.85953,8.70834,6.55099,-14.3585,28.41135,22.6977,-2.4524,46.9817,-9.13429,34.63894,129.54472,0.00076,-105.23702,116.55804,0.00047,106.55997,-10.77014,-17.6169,-0.00068,-8.41731,5.37832,0.00312,-7.26145,-11.10959,8.65346,-30.53224,-13.58598,3.60964,-1.60632,1.36727,6.62867
835,-5.60285,-0.0,-0.0,-4.86239,-0.0,0.0,-13.14729,-8.73053,7.77297,13.70398,1.24193,-16.43721,-23.36674,-0.90065,-1e-05,-16.79551,-4.24106,-8e-05,28.42792,16.60151,8.76682,8.74318,6.57351,-14.31917,28.57546,22.69618,-2.60454,47.08283,-9.11365,34.61157,129.63322,0.00096,-105.12377,116.48568,0.00012,106.90807,-10.75035,-17.72849,-0.00065,-8.21359,5.63812,0.0038,-7.36834,-11.11109,8.4615,-30.64398,-13.51293,3.43104,-1.56651,1.39429,6.64737
836,-5.5662,0.0,0.0,-4.78957,-0.0,-0.0,-13.15974,-8.78314,7.7481,13.71907,1.17491,-16.57087,-23.33464,-0.91253,2e-05,-16.87838,-4.21915,-0.00015,28.41726,16.56243,8.68627,8.7628,6.56816,-14.26434,28.70548,22.71231,-2.73317,47.18578,-9.13023,34.56377,129.74994,0.00093,-105.09747,116.42444,-0.0001,107.17452,-10.69766,-17.9032,-0.00074,-7.88123,5.87402,0.00346,-7.45267,-11.13743,8.28009,-30.73503,-13.46678,3.25219,-1.53825,1.4197,6.65459
837,-5.47475,0.0,-0.0,-4.62951,0.0,-0.0,-13.20074,-8.79977,7.7148,13.75406,1.09312,-16.70689,-23.3005,-0.91391,3e-05,-16.96005,-4.17104,-0.00017,28.40412,16.48934,8.62684,8.77169,6.52076,-14.216,28.8122,22.74898,-2.82933,47.30654,-9.15835,34.53999,129.87885,0.00041,-105.0397,116.36141,-0.0001,107.38466,-10.60402,-18.111,-0.0008,-7.57703,6.08094,0.0021,-7.51562,-11.17608,8.12888,-30.80498,-13.44363,3.09636,-1.51783,1.42623,6.63135
838,-5.47022,0.0,-0.0,-4.45894,-0.0,0.0,-13.23882,-8.79441,7.69732,13.80552,0.98862,-16.85242,-23.26851,-0.91807,3e-05,-17.0308,-4.10048,-0.00014,28.39102,16.3833,8.57918,8.76738,6.43305,-14.17337,28.9196,22.79186,-2.88971,47.4478,-9.17936,34.57542,129.99915,-0.00035,-104.80619,116.28967,6e-05,107.58393,-10.47207,-18.29448,-0.00062,-7.42618,6.27377,0.00029,-7.57127,-11.22034,8.01008,-30.86733,-13.43821,2.96831,-1.50567,1.40919,6.5764
839,-5.69441,-0.0,0.0,-4.4065,0.0,-0.0,-13.23074,-8.81349,7.73327,13.87001,0.84255,-17.03493,-23.25083,-0.94397,4e-05,-17.08167,-4.00325,-6e-05,28.37832,16.264,8.5139,8.74111,6.32333,-14.10444,29.05257,22.8182,-2.92416,47.59559,-9.19077,34.67295,130.09319,-0.00072,-104.34413,116.21119,0.00026,107.80132,-10.32818,-18.40537,-0.00025,-7.44913,6.47029,-0.00118,-7.64184,-11.26769,7.91374,-30.94433,-13.44432,2.85983,-1.50511,1.37903,6.50482
840,-6.22033,-0.0,0.0,-4.5957,-0.0,0.0,-13.15329,-8.90306,7.84187,13.94845,0.64252,-17.28259,-23.2627,-1.00075,9e-05,-17.10765,-3.87595,4e-05,28.38211,16.15534,8.39862,8.69624,6.21783,-13.97957,29.2253,22.8095,-2.95939,47.72578,-9.20333,34.80349,130.15009,-0.00048,-103.76954,116.13462,0.00033,108.02726,-10.21693,-18.42833,2e-05,-7.57915,6.66947,-0.00179,-7.74645,-11.31584,7.82615,-31.0552,-13.45456,2.75913,-1.50826,1.35461,6.43205
841,-6.94936,0.0,0.0,-5.02273,0.0,0.0,-13.03974,-9.0598,7.97938,14.03307,0.40508,-17.58142,-23.31575,-1.07577,0.00012,-17.10974,-3.73359,0.00014,28.42936,16.07354,8.23941,8.64973,6.1397,-13.81777,29.43621,22.76063,-3.02803,47.81699,-9.22843,34.926,130.16577,-7e-05,-103.2802,116.07053,0.00025,108.2073,-10.17645,-18.36884,-1e-05,-7.74074,6.83221,-0.00141,-7.88852,-11.36253,7.73448,-31.20343,-13.46187,2.65526,-1.49999,1.35132,6.36391
842,-7.62227,0.0,0.0,-5.51861,0.0,0.0,-12.97256,-9.22453,8.0464,14.10169,0.17996,-17.86918,-23.41319,-1.14322,6e-05,-17.09654,-3.61228,0.00018,28.53013,16.02675,8.09416,8.61417,6.10174,-13.68236,29.67108,22.68213,-3.15001,47.86236,-9.26699,35.00996,130.14186,-4e-05,-103.00986,116.0272,0.00014,108.27865,-10.21219,-18.22848,-9e-05,-7.90284,6.89428,-0.00033,-8.05036,-11.40835,7.6269,-31.37156,-13.4622,2.53703,-1.47776,1.37161,6.30369
843,-7.98116,0.0,-0.0,-5.85774,-0.0,0.0,-13.03013,-9.32046,7.9512,14.13246,0.02798,-18.07407,-23.55038,-1.18534,-8e-05,-17.08314,-3.54987,0.00017,28.66472,16.01887,8.03813,8.58743,6.10284,-13.63458,29.91081,22.595,-3.3233,47.87299,-9.3097,35.04634,130.0858,-0.00049,-102.99648,116.00726,0.00012,108.20547,-10.28767,-18.00463,0.00023,-8.07275,6.80771,0.00101,-8.20116,-11.45714,7.49223,-31.52929,-13.45474,2.39253,-1.45742,1.4033,6.26162
844,-7.94124,0.0,0.0,-5.91323,0.0,-0.0,-13.23757,-9.29829,7.667,14.12461,-0.01062,-18.15727,-23.71996,-1.20364,-0.0002,-17.08562,-3.56006,0.00017,28.80531,16.04821,8.11364,8.56265,6.12703,-13.69935,30.13791,22.52101,-3.5294,47.87139,-9.34666,35.04501,130.01299,-0.00103,-103.22431,116.00563,0.00017,107.98592,-10.34365,-17.70959,0.0012,-8.2626,6.57767,0.0021,-8.31594,-11.51147,7.32255,-31.65194,-13.43877,2.21341,-1.45461,1.42649,6.24849
845,-7.63446,0.0,0.0,-5.73406,-0.0,-0.0,-13.5583,-9.16273,7.2393,14.1046,0.06627,-18.13203,-23.91654,-1.21387,-0.00025,-17.11289,-3.62216,0.00018,28.94593,16.10559,8.30289,8.54236,6.15015,-13.86185,30.34097,22.47343,-3.74492,47.87971,-9.37645,35.02495,129.94695,-0.00116,-103.63106,116.01021,0.00015,107.65499,-10.33692,-17.3866,0.00233,-8.46842,6.25996,0.00248,-8.39189,-11.56739,7.11917,-31.73617,-13.41116,2.00254,-1.46457,1.42483,6.26181
846,-7.29479,0.0,-0.0,-5.48376,-0.0,-0.0,-13.9258,-8.96759,6.74845,14.10798,0.22804,-18.05179,-24.1371,-1.23342,-0.00022,-17.1623,-3.6957,0.00014,29.10306,16.17974,8.54582,8.53581,6.15297,-14.07964,30.51697,22.45414,-3.94847,47.91019,-9.40681,35.00395,129.91431,-0.00077,-104.09312,116.00702,4e-05,107.28558,-10.25723,-17.10914,0.0027,-8.66782,5.93023,0.002,-8.4482,-11.61487,6.89741,-31.79988,-13.36866,1.77817,-1.46685,1.39309,6.28608
847,-7.09694,0.0,0.0,-5.30958,0.0,-0.0,-14.28603,-8.78342,6.2646,14.15432,0.42845,-17.97993,-24.37884,-1.27098,-0.00016,-17.22291,-3.74513,5e-05,29.29169,16.26334,8.78256,8.5452,6.13004,-14.29833,30.66881,22.45912,-4.11928,47.96158,-9.44651,34.99167,129.937,-0.00024,-104.46085,115.9888,-5e-05,106.97916,-10.09753,-16.95623,0.00153,-8.82627,5.66179,0.00101,-8.509,-11.64458,6.6854,-31.86594,-13.31362,1.57014,-1.44772,1.33596,6.30623
848,-7.0814,0.0,-0.0,-5.26415,-0.0,0.0,-14.61834,-8.66064,5.82603,14.23709,0.6217,-17.96355,-24.63845,-1.32495,-0.00017,-17.28158,-3.75534,-6e-05,29.5099,16.35342,8.97862,8.56033,6.0891,-14.46904,30.80105,22.48642,-4.23739,48.02143,-9.49799,34.98712,130.02667,3e-05,-104.65315,115.96119,-0.00012,106.8447,-9.83002,-16.98174,-0.00149,-8.91216,5.51379,0.00025,-8.58286,-11.65602,6.51611,-31.94262,-13.25838,1.40907,-1.4125,1.26124,6.31643
849,-7.16428,-0.0,-0.0,-5.30332,0.0,-0.0,-14.93197,-8.61013,5.43925,14.32743,0.77605,-18.01648,-24.91195,-1.3897,-0.00022,-17.32668,-3.73507,-0.00011,29.73767,16.45065,9.12718,8.56211,6.04549,-14.56672,30.91982,22.5391,-4.29229,48.07183,-9.55809,34.98086,130.18182,0.00012,-104.70861,115.94118,-0.00034,106.9615,-9.43597,-17.20208,-0.00563,-8.91087,5.52126,0.0003,-8.65413,-11.66039,6.41628,-32.01525,-13.22363,1.31509,-1.38306,1.17375,6.32152
850,-7.19675,0.0,-0.0,-5.33265,-0.0,0.0,-15.2504,-8.60493,5.09069,14.38987,0.88256,-18.11154,-25.19317,-1.46407,-0.00023,-17.35259,-3.71053,-9e-05,29.94492,16.5579,9.23875,8.5323,6.0132,-14.60128,31.03542,22.62124,-4.2908,48.09636,-9.62398,34.96009,130.38649,0.00013,-104.71269,115.94802,-0.0008,107.33266,-8.94528,-17.58991,-0.00882,-8.82544,5.68355,0.00105,-8.69107,-11.67521,6.39758,-32.05374,-13.22997,1.29178,-1.38587,1.07237,6.33422
851,-7.08643,0.0,-0.0,-5.29735,0.0,-0.0,-15.58502,-8.59845,4.7692,14.40941,0.95224,-18.19834,-25.47485,-1.55683,-9e-05,-17.3652,-3.70912,-3e-05,30.11498,16.67507,9.31447,8.47108,5.99662,-14.60946,31.16128,22.73083,-4.2567,48.08427,-9.69619,34.91331,130.61122,7e-05,-104.70583,115.99302,-0.00115,107.8462,-8.43657,-18.07264,-0.00909,-8.67117,5.94812,0.00175,-8.66452,-11.71433,6.45516,-32.03032,-13.28824,1.32902,-1.43154,0.95273,6.36472
852,-6.88444,-0.0,0.0,-5.23891,0.0,0.0,-15.91618,-8.54997,4.48054,14.40452,1.00256,-18.23858,-25.75364,-1.68302,0.00023,-17.37847,-3.74341,4e-05,30.2623,16.79603,9.32803,8.40248,5.99115,-14.6335,31.30816,22.85559,-4.22341,48.03058,-9.77617,34.83438,130.81883,-3e-05,-104.68951,116.07586,-0.00088,108.30531,-8.01224,-18.55581,-0.00631,-8.47345,6.21479,0.00169,-8.56618,-11.78113,6.57411,-31.93714,-13.39576,1.41166,-1.50405,0.81516,6.40917
853,-6.72503,-0.0,0.0,-5.24249,0.0,-0.0,-16.2042,-8.44292,4.23519,14.40759,1.04517,-18.22346,-26.03201,-1.85012,0.00059,-17.40165,-3.8076,0.0001,30.41691,16.91295,9.24974,8.35347,5.9903,-14.70355,31.47802,22.97559,-4.22019,47.93534,-9.86061,34.72688,130.97473,-0.00012,-104.66336,116.18722,-2e-05,108.55482,-7.75911,-18.95091,-0.00246,-8.26674,6.37813,0.00081,-8.41652,-11.8688,6.73824,-31.79412,-13.53997,1.52752,-1.57535,0.66878,6.45304
854,-6.70999,0.0,-0.0,-5.35216,-0.0,-0.0,-16.41365,-8.29354,4.03112,14.43935,1.08252,-18.17085,-26.31303,-2.04831,0.00079,-17.43232,-3.88286,0.00011,30.59153,17.02167,9.08389,8.32935,5.9891,-14.82339,31.6615,23.07035,-4.2574,47.80595,-9.93673,34.6047,131.05872,-0.00019,-104.63618,116.31204,0.00085,108.5792,-7.69528,-19.19529,8e-05,-8.08667,6.37839,-0.00018,-8.25742,-11.9654,6.93467,-31.64212,-13.7049,1.6696,-1.62899,0.52577,6.48654
855,-6.8689,-0.0,0.0,-5.55411,0.0,-0.0,-16.52393,-8.14405,3.85475,14.50473,1.10958,-18.1146,-26.59558,-2.25554,0.00073,-17.46218,-3.94523,8e-05,30.77265,17.12159,8.87065,8.31488,5.98279,-14.96633,31.8413,23.12606,-4.32337,47.65932,-9.98434,34.4868,131.07327,-0.00024,-104.62411,116.4315,0.00122,108.47921,-7.75013,-19.28001,0.00052,-7.95986,6.22483,-0.00054,-8.13266,-12.06032,7.15355,-31.52393,-13.87701,1.83314,-1.66494,0.39279,6.51232
856,-7.15458,0.0,-0.0,-5.79302,-0.0,-0.0,-16.53038,-8.03611,3.68812,14.59638,1.11766,-18.08022,-26.87574,-2.44982,0.00047,-17.48583,-3.97701,1e-05,30.93773,17.21433,8.66136,8.29309,5.9672,-15.09641,31.99833,23.14113,-4.39301,47.51796,-9.98631,34.39212,131.04282,-0.00023,-104.62201,116.5247,0.0011,108.39053,-7.80202,-19.2607,-0.00042,-7.90288,5.98071,-0.00017,-8.06716,-12.15027,7.38637,-31.46419,-14.04995,2.01162,-1.68843,0.26932,6.53995
857,-7.42245,-0.0,0.0,-5.97044,0.0,-0.0,-16.44697,-7.992,3.51341,14.69332,1.10076,-18.0636,-27.1496,-2.61679,0.00017,-17.50305,-3.97604,-5e-05,31.06425,17.30391,8.50117,8.25089,5.94084,-15.19543,32.11537,23.12819,-4.43946,47.39949,-9.94114,34.33708,131.00322,-0.00015,-104.60217,116.57263,0.0009,108.40472,-7.72229,-19.2232,-0.00189,-7.91836,5.72451,0.00044,-8.05746,-12.2416,7.62637,-31.46009,-14.22693,2.19624,-1.70741,0.1513,6.57694
858,-7.50188,-0.0,0.0,-5.99831,0.0,-0.0,-16.29032,-8.01964,3.33119,14.77523,1.0564,-18.04642,-27.41444,-2.75577,1e-05,-17.51816,-3.95153,-0.0001,31.13757,17.39467,8.40859,8.18127,5.90488,-15.26259,32.17939,23.11033,-4.44578,47.30794,-9.86802,34.3313,130.98526,-7e-05,-104.56901,116.56638,0.00086,108.52682,-7.41507,-19.22635,-0.00315,-7.98008,5.51582,0.00071,-8.07708,-12.34608,7.87036,-31.4864,-14.41752,2.3792,-1.72931,0.03488,6.62132
859,-7.35881,-0.0,-0.0,-5.90757,0.0,0.0,-16.04805,-8.11945,3.18302,14.84972,0.98165,-18.03224,-27.66817,-2.88462,0.00011,-17.54099,-3.91341,-0.00014,31.16983,17.48721,8.35139,8.09803,5.86293,-15.29294,32.18604,23.11286,-4.41435,47.23405,-9.79967,34.372,131.00003,1e-05,-104.56767,116.51435,0.00082,108.69002,-6.87915,-19.26296,-0.00325,-8.04082,5.3765,0.00058,-8.09122,-12.47226,8.1173,-31.50927,-14.62914,2.55602,-1.74517,-0.08101,6.66079
860,-7.10261,-0.0,0.0,-5.82934,0.0,-0.0,-15.68792,-8.27648,3.13045,14.94681,0.88097,-18.04932,-27.90369,-3.02785,0.00028,-17.58423,-3.8729,-0.00013,31.18986,17.57746,8.27042,8.02948,5.8213,-15.2729,32.14371,23.15249,-4.36682,47.16232,-9.76818,34.4426,131.03568,8e-05,-104.62119,116.4413,0.0006,108.79198,-6.23296,-19.27323,-0.00204,-8.07421,5.28161,0.00036,-8.07253,-12.61802,8.36266,-31.50129,-14.8581,2.72335,-1.73425,-0.19569,6.6853
861,-6.81529,0.0,-0.0,-5.84236,0.0,0.0,-15.20859,-8.45242,3.19839,15.08055,0.77643,-18.11568,-28.10451,-3.1907,0.00028,-17.65493,-3.84853,-4e-05,31.20747,17.65893,8.142,7.98829,5.78768,-15.20061,32.07114,23.22893,-4.33333,47.07856,-9.79374,34.51898,131.06699,0.00018,-104.696,116.37727,0.00035,108.7415,-5.65034,-19.20296,-0.00106,-8.10141,5.17379,0.00034,-8.01094,-12.76888,8.5962,-31.45116,-15.08712,2.87763,-1.69064,-0.3097,6.7007
862,-6.49064,-0.0,-0.0,-5.91534,0.0,0.0,-14.6562,-8.59639,3.35721,15.235,0.69414,-18.21942,-28.25155,-3.35087,1e-05,-17.75,-3.85829,0.00012,31.21441,17.72453,7.99357,7.96838,5.76837,-15.09897,31.9891,23.32598,-4.33728,46.97542,-9.87945,34.58091,131.07034,0.00051,-104.72359,116.34361,0.00031,108.5166,-5.26802,-19.04167,-0.00201,-8.17041,5.01096,0.00063,-7.91328,-12.90303,8.80898,-31.36358,-15.29274,3.01955,-1.62489,-0.42344,6.72339
863,-6.13087,-0.0,0.0,-5.98327,0.0,-0.0,-14.09157,-8.66974,3.559,15.38558,0.64001,-18.33585,-28.33227,-3.47734,-0.00033,-17.86073,-3.90357,0.00026,31.21119,17.76796,7.86398,7.96645,5.76532,-15.00225,31.91118,23.41988,-4.38388,46.8552,-10.00954,34.62,131.03566,0.00117,-104.61575,116.34449,0.00043,108.17673,-5.13896,-18.8062,-0.00498,-8.31154,4.80031,0.001,-7.79491,-13.00161,9.0016,-31.25182,-15.45789,3.15746,-1.54501,-0.53424,6.76258
864,-5.77722,0.0,0.0,-5.98522,0.0,0.0,-13.56854,-8.66539,3.76636,15.51149,0.59706,-18.45054,-28.3384,-3.54908,-0.00051,-17.97789,-3.96592,0.0003,31.19731,17.78535,7.77897,7.97707,5.77426,-14.93436,31.83909,23.4878,-4.45778,46.72863,-10.1532,34.63823,130.97214,0.0019,-104.30131,116.36805,0.00046,107.80386,-5.22702,-18.52105,-0.00845,-8.50898,4.57473,0.00111,-7.67176,-13.06008,9.18165,-31.13105,-15.58135,3.3003,-1.4622,-0.63827,6.81154
865,-5.44504,0.0,0.0,-5.8394,0.0,-0.0,-13.13855,-8.60642,3.94755,15.59047,0.54358,-18.55948,-28.2606,-3.55767,-0.00038,-18.09367,-4.0226,0.00021,31.14748,17.77691,7.7598,7.97713,5.78649,-14.90449,31.76264,23.51432,-4.52915,46.61004,-10.27707,34.64348,130.90538,0.0022,-103.80359,116.3954,0.00028,107.44581,-5.4203,-18.2266,-0.01054,-8.71043,4.35721,0.00083,-7.55778,-13.0926,9.35361,-31.0166,-15.67787,3.44642,-1.40465,-0.7346,6.85447
866,-5.1242,-0.0,0.0,-5.48068,-0.0,0.0,-12.84463,-8.52908,4.07485,15.60686,0.46527,-18.6584,-28.09257,-3.50519,-2e-05,-18.20615,-4.06286,7e-05,31.03416,17.74451,7.8225,7.94836,5.79182,-14.91484,31.66478,23.49541,-4.56487,46.51219,-10.36144,34.64855,130.86475,0.002,-103.25324,116.41166,-4e-05,107.11327,-5.57616,-17.97408,-0.01052,-8.86563,4.16656,0.00031,-7.46329,-13.12287,9.51642,-30.92148,-15.76876,3.58502,-1.39425,-0.82744,6.87777
867,-4.86431,0.0,0.0,-4.96162,0.0,-0.0,-12.70085,-8.47478,4.14562,15.57436,0.34999,-18.75594,-27.83958,-3.40638,0.00035,-18.32286,-4.08379,-0.00012,30.86597,17.6863,7.95188,7.90614,5.77975,-14.95033,31.53078,23.43687,-4.54196,46.44058,-10.40821,34.66976,130.86597,0.00178,-102.83561,116.41346,-0.00034,106.78377,-5.57695,-17.80005,-0.00887,-8.95875,4.02417,-0.00013,-7.38905,-13.16535,9.67468,-30.84797,-15.86908,3.71438,-1.41634,-0.92488,6.87384
868,-4.78619,0.0,0.0,-4.45706,0.0,0.0,-12.69099,-8.48633,4.18753,15.53501,0.18336,-18.88965,-27.51998,-3.28541,0.00052,-18.45477,-4.07912,-0.00032,30.67895,17.59822,8.09294,7.88175,5.74444,-14.96682,31.35676,23.35021,-4.45476,46.38612,-10.43179,34.71975,130.90054,0.00177,-102.6894,116.40984,-0.00049,106.40934,-5.37708,-17.70246,-0.00642,-9.0099,3.92858,-0.00031,-7.32147,-13.21282,9.85087,-30.78107,-15.98092,3.85838,-1.4338,-1.03332,6.83946
869,-4.9596,0.0,-0.0,-4.11945,0.0,-0.0,-12.79638,-8.58199,4.22234,15.52326,-0.04001,-19.09448,-27.15817,-3.1605,0.0005,-18.60361,-4.04681,-0.00047,30.50014,17.48211,8.18939,7.88775,5.69214,-14.92323,31.15113,23.24952,-4.31058,46.32536,-10.44256,34.80058,130.94008,0.00166,-102.77728,116.41681,-0.00042,105.98063,-5.04239,-17.6355,-0.00383,-9.05551,3.85694,-0.00031,-7.23872,-13.24359,10.08164,-30.69541,-16.09858,4.06006,-1.42147,-1.1509,6.77566
870,-5.32196,-0.0,0.0,-3.9723,-0.0,0.0,-13.01053,-8.73367,4.24077,15.54113,-0.30485,-19.36316,-26.7744,-3.0351,0.00043,-18.75794,-4.00213,-0.00048,30.33533,17.34871,8.22035,7.91639,5.64139,-14.81927,30.92705,23.14907,-4.12144,46.23448,-10.44259,34.90532,130.95686,0.00135,-102.92232,116.44778,-0.00018,105.56837,-4.73003,-17.55966,-0.0016,-9.12842,3.80629,-0.00031,-7.12699,-13.24376,10.39781,-30.57432,-16.22121,4.35395,-1.37408,-1.26627,6.69027
871,-5.74308,-0.0,-0.0,-3.9556,-0.0,0.0,-13.31841,-8.88749,4.22684,15.57082,-0.57967,-19.65944,-26.37767,-2.90802,0.00039,-18.90237,-3.97129,-0.00039,30.17371,17.21335,8.19524,7.95561,5.61332,-14.67754,30.69119,23.06181,-3.89929,46.10636,-10.43691,35.02486,130.94467,0.00102,-102.99748,116.50491,6e-05,105.2416,-4.60717,-17.50313,0.00049,-9.24401,3.79881,-0.00047,-6.9924,-13.22444,10.8059,-30.42439,-16.3615,4.74167,-1.29838,-1.36353,6.60166
872,-6.1054,-0.0,0.0,-3.99974,0.0,0.0,-13.67915,-8.99886,4.18466,15.59533,-0.83351,-19.95185,-25.965,-2.78211,0.00041,-19.02712,-3.97502,-0.00029,29.98657,17.08764,8.13805,7.99005,5.61957,-14.50872,30.43882,22.99843,-3.65409,45.95668,-10.44241,35.15292,130.91997,0.00083,-103.03067,116.57642,0.00024,104.9959,-4.7759,-17.53956,0.00339,-9.39738,3.85668,-0.00084,-6.85682,-13.21873,11.2862,-30.27129,-16.54214,5.19138,-1.21445,-1.43063,6.53659
873,-6.33252,0.0,-0.0,-4.05191,0.0,0.0,-14.02981,-9.04463,4.13437,15.60938,-1.04801,-20.2229,-25.53035,-2.66027,0.00045,-19.131,-4.02069,-0.00027,29.74045,16.97237,8.07755,8.00345,5.65718,-14.31361,30.16072,22.96398,-3.39478,45.8147,-10.48026,35.28638,130.90419,0.00085,-103.16711,116.64375,0.00027,104.81319,-5.23063,-17.71149,0.0069,-9.57224,3.99307,-0.00125,-6.74187,-13.2612,11.8029,-30.14159,-16.78092,5.65557,-1.15,-1.46455,6.51635
874,-6.41452,-0.0,-0.0,-4.09421,-0.0,0.0,-14.29148,-9.02129,4.10259,15.62691,-1.21285,-20.46166,-25.07842,-2.54328,0.00042,-19.22337,-4.10471,-0.00032,29.43012,16.85889,8.03242,7.9986,5.71273,-14.10298,29.85568,22.953,-3.1334,45.7045,-10.5595,35.42082,130.90756,0.00104,-103.54843,116.69286,0.0002,104.71137,-5.86152,-17.99871,0.00911,-9.75031,4.19454,-0.00138,-6.65624,-13.36613,12.31264,-30.04747,-17.07419,6.0879,-1.11594,-1.47104,6.54317
875,-6.4027,-0.0,-0.0,-4.14318,0.0,-0.0,-14.38644,-8.94503,4.12074,15.67749,-1.31903,-20.65932,-24.62854,-2.43431,0.00023,-19.3249,-4.21682,-0.00039,29.08776,16.73717,8.00135,8.0043,5.76947,-13.90048,29.53721,22.95009,-2.88835,45.63046,-10.66975,35.54536,130.92545,0.00116,-104.19796,116.72106,0.0001,104.70083,-6.50619,-18.34659,0.00849,-9.91842,4.41104,-0.00111,-6.59492,-13.51875,12.76915,-29.98466,-17.39053,6.45114,-1.09445,-1.46214,6.60142
876,-6.35801,0.0,-0.0,-4.21824,-0.0,0.0,-14.27198,-8.8488,4.22066,15.78716,-1.36765,-20.81421,-24.20282,-2.34022,-0.00011,-19.46126,-4.34188,-0.00041,28.75403,16.6022,7.96739,8.05262,5.81357,-13.72873,29.22758,22.93879,-2.68133,45.57929,-10.7894,35.6427,130.94516,0.00096,-105.02788,116.73409,-1e-05,104.75082,-7.01348,-18.69721,0.00538,-10.07095,4.58886,-0.0006,-6.54643,-13.68209,13.1315,-29.93974,-17.68027,6.72212,-1.05646,-1.45184,6.66963
877,-6.31303,-0.0,0.0,-4.31433,0.0,0.0,-13.96159,-8.76567,4.42062,15.96169,-1.37959,-20.93253,-23.81227,-2.26579,-0.0004,-19.65307,-4.4652,-0.0003,28.44959,16.45315,7.91215,8.15631,5.83774,-13.60225,28.9445,22.91153,-2.52811,45.53577,-10.9002,35.69455,130.95447,0.00045,-105.9397,116.73501,-0.0002,104.79708,-7.29601,-18.99606,0.00155,-10.20195,4.70042,-9e-05,-6.50039,-13.81373,13.37679,-29.89861,-17.8957,6.89688,-0.98359,-1.45152,6.73149
878,-6.26672,0.0,0.0,-4.39373,-0.0,-0.0,-13.51425,-8.70654,4.70675,16.18585,-1.38353,-21.01282,-23.4542,-2.20578,-0.00044,-19.91025,-4.5842,8e-05,28.17295,16.28823,7.83388,8.30802,5.84037,-13.53957,28.69399,22.87316,-2.43258,45.49557,-10.99631,35.69007,130.94592,-0.00011,-106.86466,116.7179,-0.00058,104.76315,-7.36729,-19.19886,-0.00146,-10.29918,4.74207,0.00024,-6.45159,-13.88444,13.50924,-29.85236,-18.01167,6.99143,-0.87412,-1.46814,6.77876
879,-6.18027,-0.0,-0.0,-4.38661,0.0,-0.0,-13.00665,-8.65307,5.02648,16.43085,-1.39498,-21.03178,-23.11966,-2.14349,-0.00018,-20.23236,-4.71442,0.00081,27.91049,16.10367,7.75692,8.48812,5.82372,-13.57375,28.47328,22.83699,-2.38708,45.46477,-11.08264,35.63481,130.91486,-0.00035,-107.70089,116.67448,-0.00114,104.59623,-7.34738,-19.27683,-0.0037,-10.35197,4.72843,0.00034,-6.40022,-13.89176,13.55951,-29.79943,-18.03776,7.03547,-0.74102,-1.50318,6.80617
880,-5.99067,-0.0,-0.0,-4.22069,-0.0,0.0,-12.50494,-8.57294,5.31461,16.66563,-1.41264,-20.95897,-22.80058,-2.06092,0.00023,-20.61226,-4.87627,0.00164,27.64545,15.89879,7.71781,8.67223,5.79202,-13.73368,28.27598,22.8161,-2.37412,45.45194,-11.16477,35.55377,130.85486,-3e-05,-108.29196,116.60518,-0.0016,104.30484,-7.40685,-19.20163,-0.0063,-10.36286,4.70045,0.00029,-6.34817,-13.86205,13.5742,-29.74281,-18.01616,7.06163,-0.60637,-1.55163,6.80725
881,-5.6891,0.0,-0.0,-3.89883,-0.0,-0.0,-12.0384,-8.44712,5.547,16.87718,-1.43178,-20.80317,-22.49285,-1.95551,0.0005,-21.04281,-5.06811,0.00193,27.37402,15.67903,7.73083,8.8483,5.74759,-13.99894,28.09448,22.81492,-2.36895,45.46321,-11.24103,35.48269,130.7598,0.00074,-108.53996,116.52166,-0.00156,103.98025,-7.65278,-18.95242,-0.00936,-10.35117,4.72598,0.00018,-6.29304,-13.83787,13.59849,-29.68333,-18.00333,7.09449,-0.48449,-1.60383,6.77546
882,-5.3867,-0.0,-0.0,-3.54135,-0.0,0.0,-11.58907,-8.29132,5.77467,17.08144,-1.46185,-20.64495,-22.19617,-1.84786,0.00039,-21.52331,-5.25018,0.00106,27.11197,15.45355,7.76695,9.02672,5.68763,-14.27042,27.92143,22.82776,-2.34575,45.50405,-11.30698,35.45152,130.63248,0.00145,-108.49611,116.43807,-0.00098,103.75024,-8.05432,-18.55672,-0.01096,-10.34591,4.86374,-1e-05,-6.22531,-13.85629,13.65848,-29.61495,-18.04337,7.14302,-0.37151,-1.65013,6.70936
883,-5.25106,0.0,0.0,-3.30812,0.0,0.0,-11.11316,-8.15172,6.09223,17.30484,-1.52832,-20.60428,-21.91437,-1.76955,-3e-05,-22.05846,-5.36277,-0.00092,26.87708,15.23168,7.77593,9.2256,5.60649,-14.40446,27.75357,22.84476,-2.28528,45.58319,-11.36628,35.47229,130.48914,0.00156,-108.306,116.36063,-0.00017,103.6786,-8.46965,-18.09968,-0.00916,-10.36727,5.11855,-0.00021,-6.13339,-13.93123,13.752,-29.52798,-18.14818,7.19938,-0.25831,-1.685,6.61746
884,-5.35154,0.0,-0.0,-3.26276,0.0,-0.0,-10.58572,-8.06537,6.55079,17.5559,-1.63575,-20.75331,-21.65852,-1.73604,-0.00044,-22.64854,-5.37485,-0.00289,26.67729,15.01862,7.73652,9.45614,5.50157,-14.31522,27.59572,22.85888,-2.18018,45.71086,-11.43155,35.53931,130.35448,0.00102,-108.12023,116.28557,0.00059,103.75209,-8.72784,-17.69631,-0.00474,-10.40956,5.44007,-0.00025,-6.01454,-14.04922,13.85325,-29.41935,-18.29549,7.24497,-0.14256,-1.70834,6.51379
885,-5.56204,0.0,0.0,-3.30632,0.0,-0.0,-10.03401,-8.02383,7.09378,17.81433,-1.73751,-21.05113,-21.44439,-1.72695,-0.00056,-23.2801,-5.31941,-0.00337,26.50911,14.8097,7.69161,9.71737,5.37381,-14.05494,27.4594,22.86973,-2.03813,45.89208,-11.51283,35.63845,130.25293,0.00037,-108.05391,116.20384,0.00115,103.94652,-8.72797,-17.45824,-0.00095,-10.44192,5.75317,-0.00018,-5.88149,-14.17865,13.9277,-29.29952,-18.44296,7.2606,-0.03034,-1.727,6.4093
886,-5.64542,-0.0,0.0,-3.25338,-0.0,-0.0,-9.5196,-7.99226,7.59106,18.04572,-1.77622,-21.37596,-21.28268,-1.69641,-0.00043,-23.92845,-5.27064,-0.00193,26.35056,14.58952,7.72796,9.98913,5.22198,-13.77122,27.3548,22.88253,-1.87964,46.12111,-11.60692,35.75556,130.2023,0.00029,-108.17326,116.10751,0.00127,104.21571,-8.49375,-17.45677,-0.00015,-10.41813,5.98126,-0.00054,-5.75764,-14.28554,13.9492,-29.18878,-18.54931,7.23595,0.06111,-1.75535,6.30993
887,-5.46543,-0.0,0.0,-2.99325,-0.0,-0.0,-9.0822,-7.94692,7.93591,18.23257,-1.73645,-21.6255,-21.17426,-1.60718,-0.00025,-24.57145,-5.28637,0.00047,26.17522,14.34086,7.90674,10.24508,5.0411,-13.5899,27.28185,22.90383,-1.72788,46.38067,-11.69951,35.87793,130.21301,0.00099,-108.48811,115.99563,0.00073,104.4434,-8.12291,-17.70183,-0.00176,-10.28306,6.06579,-0.00198,-5.66464,-14.34841,13.91218,-29.10609,-18.59274,7.17486,0.11669,-1.80827,6.21778
888,-5.11005,0.0,-0.0,-2.57829,0.0,-0.0,-8.70726,-7.88044,8.10944,18.39159,-1.64324,-21.78365,-21.11163,-1.45896,-0.00018,-25.20134,-5.37128,0.00228,25.98248,14.05741,8.20658,10.48136,4.82717,-13.54224,27.2281,22.93834,-1.5976,46.64801,-11.77788,35.99318,130.29027,0.00201,-108.9371,115.87748,-0.00018,104.49986,-7.6983,-18.14244,-0.00382,-9.98486,5.99397,-0.00436,-5.61277,-14.36512,13.83373,-29.06044,-18.57782,7.09428,0.14728,-1.89047,6.13104
889,-4.80819,0.0,-0.0,-2.16422,0.0,-0.0,-8.3457,-7.79912,8.17529,18.55631,-1.5453,-21.90803,-21.07971,-1.28932,-0.00018,-25.82354,-5.4783,0.00247,25.79251,13.74918,8.53035,10.71317,4.58017,-13.56896,27.17685,22.99047,-1.49099,46.90577,-11.84116,36.09095,130.43437,0.0024,-109.39307,115.77052,-0.00088,104.34801,-7.24783,-18.67931,-0.00495,-9.50107,5.81338,-0.00625,-5.59965,-14.34719,13.742,-29.04954,-18.52601,7.01581,0.18187,-1.99321,6.04556
890,-4.72778,0.0,-0.0,-1.88131,0.0,0.0,-7.96163,-7.71418,8.2175,18.74893,-1.48898,-22.06374,-21.05908,-1.1488,-0.00019,-26.44579,-5.54471,0.00118,25.61765,13.43763,8.7702,10.94813,4.30398,-13.58481,27.12117,23.06712,-1.40364,47.14993,-11.89758,36.16705,130.63924,0.00154,-109.71834,115.6919,-0.00096,104.07871,-6.75688,-19.19999,-0.0047,-8.86609,5.61935,-0.00574,-5.61541,-14.3073,13.65791,-29.06418,-18.457,6.95374,0.23792,-2.10018,5.95696
891,-4.83511,0.0,-0.0,-1.75361,0.0,0.0,-7.56582,-7.61827,8.27392,18.97119,-1.47894,-22.26203,-21.03446,-1.07056,-0.00019,-27.06894,-5.53828,-0.00057,25.45495,13.14565,8.87614,11.178,4.00646,-13.55468,27.0748,23.17555,-1.33717,47.38988,-11.95279,36.22659,130.88919,-0.00036,-109.82718,115.64775,-0.00065,103.86266,-6.20749,-19.62121,-0.00311,-8.17574,5.5213,-0.0026,-5.65019,-14.25098,13.58469,-29.09511,-18.37709,6.90875,0.31062,-2.19548,5.86208
892,-4.94255,-0.0,0.0,-1.71675,-0.0,-0.0,-7.20424,-7.48699,8.33146,19.21087,-1.48187,-22.45949,-21.00152,-1.05897,-0.00017,-27.68431,-5.47008,-0.00181,25.29624,12.88991,8.87004,11.38752,3.69913,-13.50549,27.06997,23.31685,-1.30754,47.64155,-12.00253,36.28239,131.15674,-0.00235,-109.70754,115.62874,-0.00034,103.84843,-5.61944,-19.90649,-0.0007,-7.55376,5.59093,0.001,-5.70063,-14.17701,13.51249,-29.13935,-18.28139,6.8721,0.38265,-2.2688,5.76159
893,-4.91178,-0.0,0.0,-1.70254,0.0,-0.0,-6.90898,-7.30844,8.37708,19.45564,-1.46616,-22.61222,-20.97005,-1.10022,-0.0001,-28.27652,-5.3701,-0.00222,25.14331,12.6782,8.80168,11.56896,3.39604,-13.47496,27.14099,23.48037,-1.3418,47.91755,-12.03548,36.34622,131.40813,-0.00349,-109.40811,115.6179,-0.0002,104.0643,-5.0691,-20.05779,0.0016,-7.08718,5.82473,0.00275,-5.77195,-14.08202,13.42996,-29.20227,-18.16241,6.83456,0.44249,-2.31628,5.66071
894,-4.79521,0.0,-0.0,-1.70185,0.0,-0.0,-6.66395,-7.10333,8.4332,19.70342,-1.42419,-22.71762,-20.96373,-1.17674,7e-05,-28.82965,-5.26246,-0.00196,25.01697,12.50919,8.70055,11.73079,3.11094,-13.46988,27.3064,23.64369,-1.4653,48.21986,-12.04154,36.41768,131.61722,-0.00353,-109.01046,115.60486,-0.00025,104.40584,-4.66022,-20.101,0.00287,-6.77418,6.15803,0.00229,-5.87315,-13.96439,13.33087,-29.29299,-18.01625,6.79096,0.49588,-2.3398,5.56643
895,-4.75165,-0.0,-0.0,-1.74439,-0.0,0.0,-6.42809,-6.92172,8.53726,19.95436,-1.37075,-22.79804,-21.01293,-1.27124,0.00028,-29.33035,-5.1628,-0.00131,24.94281,12.37539,8.57244,11.88545,2.85441,-13.47317,27.56289,23.78164,-1.68756,48.5389,-12.02004,36.4818,131.77695,-0.00276,-108.61243,115.59221,-0.0004,104.70454,-4.45374,-20.07545,0.00291,-6.54561,6.49851,0.00052,-6.00955,-13.82804,13.21246,-29.41755,-17.84545,6.73704,0.55576,-2.3458,5.48815
896,-4.85905,0.0,-0.0,-1.83595,0.0,-0.0,-6.18532,-6.82185,8.69521,20.19467,-1.32903,-22.85894,-21.14457,-1.3632,0.00034,-29.76495,-5.08741,-0.00049,24.93011,12.26984,8.4297,12.02969,2.63373,-13.475,27.89133,23.88062,-1.99507,48.85852,-11.98479,36.5207,131.89879,-0.00154,-108.35181,115.58982,-0.00039,104.79418,-4.41278,-20.0264,0.00227,-6.34727,6.74653,-0.00155,-6.18013,-13.68779,13.06989,-29.57709,-17.66174,6.66209,0.62494,-2.34063,5.44122
897,-5.03871,-0.0,-0.0,-1.93183,0.0,-0.0,-5.96441,-6.84184,8.86255,20.39442,-1.31591,-22.87879,-21.37667,-1.42994,4e-05,-30.11639,-5.05402,0.00025,24.9707,12.19166,8.30785,12.14206,2.4548,-13.48504,28.26783,23.94586,-2.35465,49.16309,-11.96205,36.53155,132.00156,-0.00015,-108.40981,115.60538,0.00011,104.54258,-4.41045,-19.99997,0.00137,-6.19745,6.82358,-0.00267,-6.38116,-13.57273,12.89203,-29.77197,-17.48751,6.54359,0.69351,-2.3239,5.44373
898,-5.13256,-0.0,0.0,-1.96753,0.0,-0.0,-5.8179,-6.98109,8.96897,20.5226,-1.33645,-22.83491,-21.72069,-1.4566,-0.0006,-30.36701,-5.0711,0.00063,25.05655,12.14679,8.24755,12.19812,2.32318,-13.51588,28.67246,23.99509,-2.72525,49.44241,-11.97864,36.53709,132.09955,0.00109,-108.90246,115.63928,0.00116,103.87849,-4.30043,-20.03307,8e-05,-6.17884,6.70506,-0.00147,-6.60995,-13.52049,12.66226,-30.00477,-17.35087,6.35046,0.74954,-2.28596,5.50488
899,-5.02027,0.0,0.0,-1.90341,0.0,-0.0,-5.79035,-7.19584,8.95606,20.56546,-1.3831,-22.72626,-22.18695,-1.4451,-0.0013,-30.50606,-5.13114,0.00058,25.19547,12.14398,8.26554,12.18573,2.2424,-13.56833,29.0912,24.04505,-3.07541,49.6918,-12.04647,36.57789,132.1982,0.0019,-109.78249,115.68621,0.00244,102.82878,-4.00265,-20.1409,-0.00169,-6.38236,6.4238,0.00229,-6.86352,-13.56024,12.36676,-30.27624,-17.27324,6.05777,0.78844,-2.21315,5.61328
900,-4.68202,0.0,-0.0,-1.74278,0.0,-0.0,-5.90099,-7.4096,8.79885,20.53344,-1.43616,-22.57501,-22.78632,-1.41378,-0.0016,-30.53597,-5.21488,0.00029,25.41114,12.18973,8.344,12.10909,2.21107,-13.63424,29.5126,24.10265,-3.39731,49.9091,-12.15533,36.68834,132.29799,0.00232,-110.89988,115.7411,0.00348,101.52908,-3.53832,-20.31676,-0.00334,-6.83962,6.03979,0.00692,-7.13256,-13.69392,12.00712,-30.57675,-17.25693,5.66628,0.81367,-2.09719,5.73614
