PaulMeinheit/Bachelor_Muay_Thai/results/Sub01_Teep_finishedJointAngles6.csv
Unnamed: 0_level_0,L_MTP_ANGLE,L_MTP_ANGLE,L_MTP_ANGLE,R_MTP_ANGLE,R_MTP_ANGLE,R_MTP_ANGLE,L_ANKLE_ANGLE,L_ANKLE_ANGLE,L_ANKLE_ANGLE,R_ANKLE_ANGLE,R_ANKLE_ANGLE,R_ANKLE_ANGLE,L_KNEE_ANGLE,L_KNEE_ANGLE,L_KNEE_ANGLE,R_KNEE_ANGLE,R_KNEE_ANGLE,R_KNEE_ANGLE,L_HIP_ANGLE,L_HIP_ANGLE,L_HIP_ANGLE,R_HIP_ANGLE,R_HIP_ANGLE,R_HIP_ANGLE,L_SHOULDER_ANGLE,L_SHOULDER_ANGLE,L_SHOULDER_ANGLE,R_SHOULDER_ANGLE,R_SHOULDER_ANGLE,R_SHOULDER_ANGLE,L_ELBOW_ANGLE,L_ELBOW_ANGLE,L_ELBOW_ANGLE,R_ELBOW_ANGLE,R_ELBOW_ANGLE,R_ELBOW_ANGLE,L_WRIST_ANGLE,L_WRIST_ANGLE,L_WRIST_ANGLE,R_WRIST_ANGLE,R_WRIST_ANGLE,R_WRIST_ANGLE,NECK_ANGLE,NECK_ANGLE,NECK_ANGLE,NECK_ANGLE_SHADOW,NECK_ANGLE_SHADOW,NECK_ANGLE_SHADOW,Trunk_Joint_Angle,Trunk_Joint_Angle,Trunk_Joint_Angle
ITEM,X,Y,Z,X,Y,Z,X,Y,Z,X,Y,Z,X,Y,Z,X,Y,Z,X,Y,Z,X,Y,Z,X,Y,Z,X,Y,Z,X,Y,Z,X,Y,Z,X,Y,Z,X,Y,Z,X,Y,Z,X,Y,Z,X,Y,Z
601,7.295,0.0,-0.0,0.1405,-0.0,0.0,14.85992,-1.66296,13.58738,25.37041,3.03486,-18.92197,-95.18354,2.63811,0.01428,-35.95942,0.55739,0.00084,71.79971,27.8905,15.29136,-0.86157,-17.30685,-11.52621,50.21082,27.04783,-18.33843,66.68326,-18.60471,39.38002,135.38411,-0.00726,-93.11946,120.39822,0.00336,104.29166,-8.52169,-18.07614,0.00077,-5.51429,9.9034,0.00657,-4.59925,-13.15977,7.76478,-28.09556,-15.12301,1.94659,-13.29095,-7.46238,7.92743
602,8.7215,-0.0,-0.0,0.40257,-0.0,-0.0,14.98307,-1.5495,12.88605,25.68319,3.23122,-18.83255,-94.63607,2.5839,0.01223,-36.49846,0.60667,0.00133,73.13078,28.74837,14.99625,-1.36529,-18.53323,-11.30791,50.67938,27.28173,-18.54809,67.42056,-19.20441,39.76367,135.58336,-0.01264,-91.45134,120.46424,0.00338,102.68143,-8.87248,-18.3818,0.00147,-6.09771,9.56754,0.00483,-4.66941,-13.31223,7.57362,-28.18465,-15.1886,1.7068,-13.83185,-8.16879,7.89969
603,10.2489,-0.0,-0.0,0.70461,0.0,-0.0,15.01261,-1.45775,12.09824,25.98064,3.49455,-18.69585,-93.82507,2.35826,0.0074,-37.04607,0.6432,0.00101,74.37741,29.54497,14.52289,-1.87182,-19.81598,-11.15235,51.1017,27.51839,-18.7317,68.16486,-19.75571,40.1996,135.80406,-0.01375,-89.47785,120.52955,0.00215,101.28324,-9.34894,-18.59444,0.00074,-6.57983,9.34357,0.00218,-4.73363,-13.47631,7.43576,-28.26826,-15.28552,1.51148,-14.36402,-8.91383,7.78869
604,11.93554,-0.0,-0.0,1.08527,-0.0,-0.0,14.9256,-1.45161,11.25804,26.24378,3.78446,-18.56068,-92.75556,1.95739,0.00017,-37.59896,0.70187,4e-05,75.53691,30.26436,13.86143,-2.38009,-21.13757,-11.00696,51.49388,27.75258,-18.91232,68.88773,-20.23771,40.67112,136.02519,-0.00997,-87.66532,120.58996,0.00057,100.38605,-9.84729,-18.69727,-0.00117,-6.90967,9.27911,0.00028,-4.78311,-13.62346,7.40531,-28.33418,-15.4086,1.42239,-14.87973,-9.67543,7.58933
605,13.76186,-0.0,0.0,1.58879,0.0,0.0,14.73458,-1.56676,10.37974,26.45737,4.0604,-18.45528,-91.43989,1.39821,-0.0084,-38.14588,0.79785,-0.001,76.61532,30.90096,13.02719,-2.89487,-22.46861,-10.85843,51.88611,27.97342,-19.10625,69.58582,-20.67447,41.15572,136.2189,-0.00377,-86.33955,120.64735,-0.00044,99.96114,-10.22558,-18.68716,-0.00312,-7.07718,9.37332,-5e-05,-4.78349,-13.74348,7.50001,-28.34689,-15.55538,1.46013,-15.38096,-10.4182,7.31279
606,15.61838,0.0,-0.0,2.22395,0.0,0.0,14.49015,-1.79256,9.49527,26.61768,4.29555,-18.37595,-89.90324,0.70913,-0.01636,-38.66967,0.92041,-0.00155,77.61947,31.46798,12.04364,-3.43442,-23.76854,-10.73446,52.2971,28.16506,-19.31445,70.28816,-21.12998,41.64357,136.36462,0.00137,-85.61005,120.70231,-0.00064,99.73214,-10.36687,-18.57726,-0.00408,-7.11832,9.58556,0.00064,-4.7011,-13.84033,7.67763,-28.27344,-15.71312,1.58411,-15.88186,-11.09781,6.98897
607,17.34247,-0.0,0.0,2.93229,-0.0,-0.0,14.2597,-2.08015,8.68286,26.73756,4.48063,-18.29989,-88.18448,-0.06388,-0.02138,-39.15255,1.04295,-0.00145,78.5508,31.99732,10.94164,-4.02586,-24.99525,-10.67053,52.71676,28.31322,-19.52322,71.03819,-21.67524,42.14398,136.45277,0.00336,-85.49633,120.75012,-0.00043,99.45189,-10.20132,-18.39971,-0.00386,-7.10833,9.85665,0.00114,-4.53347,-13.92223,7.8526,-28.11303,-15.85612,1.71185,-16.40111,-11.67461,6.66113
608,18.79421,-0.0,0.0,3.59619,0.0,0.0,14.09253,-2.3699,8.06185,26.84761,4.62011,-18.21148,-86.32502,-0.86105,-0.02216,-39.58619,1.14042,-0.00094,79.40523,32.5255,9.77085,-4.67936,-26.12655,-10.67111,53.11332,28.41763,-19.71594,71.86465,-22.34971,42.67134,136.47743,0.00177,-86.04584,120.78556,-0.00035,99.08344,-9.7205,-18.18296,-0.00282,-7.15679,10.12551,0.00077,-4.31856,-13.99373,7.94501,-27.90515,-15.95753,1.76757,-16.94138,-12.1374,6.36894
609,19.95238,0.0,0.0,4.09011,0.0,-0.0,13.98773,-2.61478,7.75355,26.98635,4.72136,-18.12095,-84.3521,-1.62752,-0.01869,-39.97699,1.2016,-0.00032,80.16948,33.07729,8.60742,-5.37212,-27.17541,-10.69672,53.45582,28.50304,-19.88128,72.7625,-23.14589,43.2201,136.43112,-0.002,-87.21255,120.8127,-0.00078,98.76131,-9.01135,-17.91049,-0.00133,-7.36157,10.33963,-0.0002,-4.1165,-14.05254,7.9257,-27.71006,-16.00393,1.72523,-17.47969,-12.51843,6.1298
610,20.96406,-0.0,0.0,4.3365,-0.0,-0.0,13.8873,-2.78857,7.83155,27.18206,4.79425,-18.05351,-82.27557,-2.31782,-0.01122,-40.33677,1.22254,0.0003,80.8144,33.65988,7.55235,-6.07143,-28.18092,-10.70125,53.72961,28.61331,-20.01073,73.69479,-24.0295,43.75292,136.3084,-0.00467,-88.6596,120.85162,-0.00187,98.61562,-8.25397,-17.50701,-0.0004,-7.7397,10.47439,-0.00148,-3.97862,-14.09174,7.82448,-27.57788,-16.00055,1.6153,-17.98463,-12.87848,5.93412
611,22.05834,0.0,0.0,4.32137,0.0,0.0,13.70887,-2.88171,8.29185,27.44238,4.86034,-18.02414,-80.10178,-2.89213,-0.00057,-40.6714,1.19679,0.00086,81.30647,34.2703,6.70624,-6.76165,-29.18237,-10.67328,53.93443,28.78694,-20.09496,74.6105,-24.9784,44.21677,136.11472,-0.0032,-89.83949,120.93562,-0.00342,98.65311,-7.63575,-16.90423,-0.00173,-8.21275,10.55475,-0.00325,-3.92609,-14.10785,7.70034,-27.52855,-15.96711,1.49383,-18.43394,-13.27102,5.76146
612,23.39777,0.0,0.0,4.08062,0.0,0.0,13.39071,-2.88769,9.05888,27.75713,4.94914,-18.03368,-77.8482,-3.32982,0.01071,-40.98113,1.12468,0.00122,81.6361,34.90841,6.11849,-7.43893,-30.19548,-10.61942,54.07423,29.03548,-20.12733,75.46289,-26.00539,44.5738,135.87317,0.00169,-90.33736,121.09682,-0.00463,98.78436,-7.23758,-16.14545,-0.00509,-8.66345,10.62804,-0.0051,-3.95118,-14.10996,7.59929,-27.55491,-15.9298,1.39955,-18.81169,-13.71351,5.60632
613,25.05971,0.0,0.0,3.69593,0.0,0.0,12.9017,-2.78839,10.02184,28.10438,5.08655,-18.08001,-75.54399,-3.64828,0.01884,-41.2661,1.02487,0.00124,81.83023,35.58184,5.75047,-8.09493,-31.20585,-10.52724,54.15123,29.34354,-20.1127,76.2192,-27.14454,44.82253,135.61998,0.00591,-90.13134,121.34774,-0.00427,98.87968,-6.99442,-15.4021,-0.00798,-9.02733,10.6988,-0.00551,-4.03705,-14.11941,7.53016,-27.64254,-15.91162,1.33173,-19.09996,-14.18371,5.48821
614,27.08192,-0.0,0.0,3.28631,0.0,0.0,12.22864,-2.54973,11.07681,28.45602,5.2856,-18.15826,-73.21807,-3.90155,0.0208,-41.52588,0.92717,0.00092,81.92358,36.2981,5.4959,-8.72353,-32.18656,-10.37201,54.16828,29.6854,-20.07533,76.86378,-28.41464,44.99883,135.38794,0.00644,-89.53535,121.67242,-0.00166,98.79774,-6.77172,-14.8627,-0.0091,-9.35127,10.70964,-0.00232,-4.17725,-14.15463,7.47175,-27.78729,-15.92121,1.26309,-19.2856,-14.64167,5.43446
615,29.38041,-0.0,0.0,2.9684,0.0,0.0,11.3793,-2.12925,12.14623,28.78589,5.52802,-18.25871,-70.88811,-4.15881,0.0159,-41.75524,0.86374,0.00035,81.91264,37.05893,5.24389,-9.33993,-33.12462,-10.13831,54.13405,30.04113,-20.05782,77.40193,-29.79516,45.16204,135.19205,0.00375,-88.91241,122.03383,0.00249,98.41774,-6.48879,-14.60682,-0.00901,-9.76391,10.56849,0.00651,-4.37706,-14.21256,7.40074,-27.99433,-15.94671,1.17336,-19.37695,-15.05872,5.45573
616,31.63677,-0.0,0.0,2.81338,0.0,0.0,10.38289,-1.5054,13.17039,29.07631,5.7596,-18.36845,-68.5572,-4.48044,0.00589,-41.94455,0.86319,-0.00021,81.74551,37.86427,4.93262,-9.97316,-34.03485,-9.82423,54.06216,30.4023,-20.10478,77.86889,-31.23687,45.37958,135.03279,7e-05,-88.45361,122.39206,0.00631,97.67641,-6.17776,-14.58857,-0.00786,-10.38683,10.18471,0.02052,-4.63812,-14.26654,7.31751,-28.26223,-15.96384,1.07399,-19.40222,-15.43172,5.53777
617,33.34809,0.0,-0.0,2.83823,0.0,0.0,9.2608,-0.72595,14.08665,29.31621,5.93342,-18.46012,-66.21522,-4.89785,-0.00568,-42.08527,0.92767,-0.0005,81.35316,38.71471,4.57184,-10.63546,-34.95745,-9.45849,53.96175,30.76851,-20.23833,78.33676,-32.69351,45.71973,134.912,-0.00264,-88.19642,122.72349,0.00763,96.63818,-5.94319,-14.71962,-0.00531,-11.24795,9.54034,0.03383,-4.9474,-14.28657,7.25372,-28.57429,-15.95742,1.00673,-19.38576,-15.77921,5.65027
618,34.00466,-0.0,0.0,3.02921,0.0,0.0,7.99232,0.0814,14.81059,29.49307,6.04933,-18.48972,-63.8447,-5.39939,-0.01493,-42.17299,1.02275,-0.00044,80.68114,39.60778,4.23587,-11.31105,-35.94144,-9.10388,53.82827,31.14237,-20.441,78.90617,-34.14398,46.2491,134.84352,-0.00287,-88.17906,123.02924,0.00534,95.54221,-5.88133,-14.94481,-0.00157,-12.23406,8.7612,0.03804,-5.28434,-14.26476,7.25854,-28.90869,-15.93931,1.02027,-19.33274,-16.12517,5.76482
619,33.2844,-0.0,0.0,3.37211,0.0,0.0,6.50929,0.77022,15.23885,29.58862,6.13396,-18.43011,-61.43095,-5.93829,-0.01968,-42.20548,1.11385,-0.00017,79.70957,40.53499,4.01729,-11.96618,-37.01785,-8.80082,53.64238,31.52665,-20.65614,79.68143,-35.59283,47.02676,134.85225,0.00074,-88.53271,123.32579,0.00018,94.70658,-6.02354,-15.25089,0.00237,-13.09965,8.08191,0.03108,-5.63379,-14.2244,7.37172,-29.25266,-15.94628,1.14162,-19.2302,-16.47557,5.87444
620,31.2017,-0.0,0.0,3.86043,0.0,-0.0,4.73557,1.24029,15.28662,29.58411,6.21239,-18.29281,-58.97051,-6.4625,-0.0201,-42.17958,1.19625,0.00016,78.46368,41.48055,3.9621,-12.56021,-38.18159,-8.52878,53.37693,31.92292,-20.80599,80.74348,-37.05793,48.09774,134.96452,0.00826,-89.40897,123.62619,-0.00551,94.32574,-6.32909,-15.62711,0.005,-13.55414,7.70443,0.02059,-5.98912,-14.20702,7.60078,-29.60397,-16.01931,1.36049,-19.05269,-16.80358,5.99923
621,28.11464,0.0,-0.0,4.46563,0.0,-0.0,2.66758,1.44805,14.93359,29.47321,6.32103,-18.09923,-56.47611,-6.93507,-0.01722,-42.08796,1.27232,0.00042,77.0022,42.41803,4.04333,-13.06469,-39.39523,-8.25982,53.00647,32.33041,-20.81989,82.13545,-38.55597,49.49538,135.19167,0.01637,-90.7939,123.92616,-0.00906,94.33846,-6.72455,-16.02116,0.00494,-13.4337,7.6684,0.01424,-6.3495,-14.25065,7.91683,-29.96605,-16.18202,1.63446,-18.77339,-17.0567,6.16853
622,24.56782,-0.0,0.0,5.10034,0.0,-0.0,0.44704,1.39628,14.24223,29.27261,6.51837,-17.84852,-53.98051,-7.32937,-0.01167,-41.9173,1.32539,0.00048,75.39317,43.30928,4.18999,-13.48247,-40.60906,-8.02144,52.51619,32.74398,-20.66111,83.86473,-40.09225,51.24768,135.51512,0.01933,-92.39823,124.20669,-0.0095,94.51156,-7.15917,-16.33113,0.00209,-12.83796,7.84864,0.01127,-6.71869,-14.37692,8.27146,-30.34561,-16.4354,1.90977,-18.37349,-17.18071,6.39721
623,21.13206,-0.0,0.0,5.63802,0.0,0.0,-1.64597,1.12935,13.34545,29.01849,6.85777,-17.52568,-51.53566,-7.61667,-0.00414,-41.65231,1.33242,0.00034,73.70168,44.11277,4.3345,-13.83865,-41.77965,-7.87805,51.91107,33.15221,-20.34036,85.91534,-41.66031,53.37197,135.88683,0.01435,-93.77751,124.45311,-0.00758,94.62553,-7.6211,-16.45116,-0.00214,-12.07684,8.06092,0.00768,-7.10024,-14.59124,8.62317,-30.74774,-16.76827,2.14563,-17.83809,-17.1429,6.68193
624,18.33665,0.0,0.0,5.99427,0.0,0.0,-3.2955,0.7166,12.41314,28.74793,7.34847,-17.13178,-49.20162,-7.76792,0.00343,-41.2833,1.28722,0.00024,71.98992,44.80115,4.43979,-14.1489,-42.87208,-7.86438,51.22087,33.54145,-19.90919,88.26302,-43.24851,55.86065,136.24973,0.00496,-94.60598,124.673,-0.00421,94.5369,-8.08883,-16.33883,-0.00532,-11.47462,8.16069,0.0036,-7.48872,-14.88418,8.95452,-31.16684,-17.1652,2.32957,-17.14889,-16.94076,7.01686
625,16.59075,-0.0,0.0,6.19316,0.0,-0.0,-4.28781,0.23099,11.60257,28.48038,7.93518,-16.70524,-47.02626,-7.77285,0.0079,-40.81183,1.20657,0.00047,70.31052,45.37552,4.49974,-14.40092,-43.85013,-7.942,50.49672,33.90728,-19.43952,90.88771,-44.84446,58.67838,136.56285,-0.00273,-94.87318,124.89397,0.00018,94.14914,-8.48203,-16.04561,-0.0054,-11.21244,8.08516,0.00176,-7.86948,-15.2261,9.26771,-31.58526,-17.59983,2.47578,-16.29056,-16.59602,7.40525
626,16.06468,-0.0,0.0,6.35696,-0.0,0.0,-4.60792,-0.26774,11.00958,28.21365,8.51531,-16.31862,-45.02329,-7.65589,0.0071,-40.25158,1.1175,0.00107,68.69576,45.86045,4.52752,-14.56317,-44.67017,-8.015,49.8028,34.26135,-19.00541,93.7784,-46.43486,61.77898,136.81024,-0.00559,-94.85696,125.14307,0.00493,93.42189,-8.68532,-15.69094,-0.00304,-11.29552,7.84527,0.00275,-8.22935,-15.56368,9.56799,-31.98336,-18.02539,2.61142,-15.2649,-16.14155,7.85196
627,16.62869,0.0,0.0,6.6292,0.0,-0.0,-4.44039,-0.75797,10.63975,27.93669,8.99542,-16.05055,-43.16014,-7.4627,0.00193,-39.62657,1.03114,0.00144,67.16316,46.28442,4.54668,-14.60092,-45.28118,-7.99086,49.20883,34.62182,-18.6757,96.92981,-48.00444,65.13284,136.99095,-0.00463,-94.92408,125.42754,0.0087,92.40959,-8.61614,-15.41187,-0.00144,-11.60851,7.48457,0.00461,-8.56454,-15.83109,9.85566,-32.34847,-18.38174,2.76477,-14.09294,-15.60498,8.34988
628,17.90364,0.0,0.0,7.09323,0.0,0.0,-4.07237,-1.27615,10.41087,27.6449,9.34116,-15.95288,-41.36157,-7.22534,-0.00407,-38.96642,0.927,0.00088,65.72575,46.66247,4.59239,-14.49031,-45.63166,-7.8308,48.77869,34.99496,-18.51071,100.33288,-49.53513,68.74308,137.10539,-0.00252,-95.32706,125.73469,0.01037,91.25932,-8.25891,-15.31435,-0.00317,-11.9915,7.03989,0.0053,-8.87812,-15.97378,10.13137,-32.67568,-18.61927,2.95991,-12.80768,-14.99769,8.87681
629,19.38888,0.0,-0.0,7.73401,0.0,0.0,-3.76528,-1.88946,10.18969,27.34534,9.57687,-16.03335,-39.52356,-6.94015,-0.00708,-38.29873,0.76571,-0.00071,64.37907,46.98647,4.72138,-14.23863,-45.68892,-7.56083,48.54974,35.3691,-18.55107,103.96098,-51.00616,72.63168,137.15469,-0.00102,-96.10282,126.05032,0.01002,90.14336,-7.65042,-15.42931,-0.00729,-12.30064,6.53599,0.00418,-9.17521,-15.9705,10.39917,-32.96642,-18.72014,3.20998,-11.45246,-14.32115,9.4003
630,20.58593,-0.0,0.0,8.43918,0.0,0.0,-3.67759,-2.60921,9.85472,27.05483,9.7396,-16.25706,-37.5296,-6.57904,-0.00549,-37.64412,0.51866,-0.00266,63.07254,47.22725,5.01315,-13.8976,-45.46138,-7.24632,48.51257,35.73051,-18.79537,107.7618,-52.396,76.8045,137.1528,-0.00037,-97.04705,126.37785,0.00823,89.19321,-6.85449,-15.69265,-0.01013,-12.45358,6.02234,0.002,-9.46089,-15.84116,10.65871,-33.2282,-18.70243,3.50619,-10.08498,-13.58542,9.8859
631,21.0772,-0.0,0.0,9.0346,0.0,0.0,-3.86739,-3.31745,9.37165,26.79465,9.83038,-16.56366,-35.26588,-6.12716,-0.00095,-37.01632,0.1945,-0.00395,61.70116,47.35128,5.53431,-13.54739,-45.00551,-6.94177,48.60919,36.08847,-19.1802,111.66615,-53.68368,81.22594,137.13628,-0.00095,-97.75122,126.73699,0.00482,88.50409,-5.95994,-15.9735,-0.00873,-12.46067,5.60208,-0.00025,-9.73644,-15.63757,10.8976,-33.4698,-18.60868,3.81487,-8.77606,-12.81938,10.30748
632,20.50698,-0.0,-0.0,9.34723,0.0,0.0,-4.32646,-3.80144,8.84677,26.58126,9.81858,-16.88157,-32.63944,-5.60786,0.0033,-36.42137,-0.16347,-0.00408,60.13893,47.33392,6.28055,-13.26765,-44.41214,-6.6764,48.75238,36.48856,-19.58235,115.60826,-54.84684,85.82324,137.15794,-0.00455,-97.76432,127.14217,-0.00085,88.1727,-5.0972,-16.14242,-0.00385,-12.43442,5.39708,-0.00304,-9.9929,-15.42187,11.09758,-33.6915,-18.48869,4.09245,-7.59835,-12.06206,10.64887
633,18.45117,0.0,0.0,9.2701,0.0,0.0,-4.99369,-3.88586,8.51999,26.41838,9.68962,-17.14144,-29.60098,-5.06869,0.00559,-35.8538,-0.50447,-0.00322,58.29668,47.16094,7.1387,-13.11918,-43.77612,-6.47805,48.85273,36.99999,-19.84898,119.53808,-55.85925,90.50838,137.26733,-0.01202,-96.86171,127.58396,-0.00795,88.28272,-4.42194,-16.14298,0.00072,-12.55039,5.47942,-0.00824,-10.20895,-15.24428,11.25007,-33.8792,-18.38514,4.30961,-6.60921,-11.34077,10.89783
634,14.42066,0.0,0.0,8.82888,0.0,0.0,-5.77715,-3.5569,8.68877,26.28952,9.47224,-17.30743,-26.16212,-4.54687,0.00807,-35.29591,-0.78637,-0.00172,56.16356,46.83543,7.90069,-13.13301,-43.15982,-6.36458,48.83938,37.67968,-19.84341,123.4114,-56.6936,95.18981,137.49138,-0.01961,-95.23835,128.03204,-0.01378,88.84508,-4.03931,-16.0262,0.00238,-12.94831,5.83017,-0.01564,-10.35738,-15.13244,11.36504,-34.00914,-18.32723,4.46397,-5.83467,-10.65082,11.04786
635,8.22389,0.0,0.0,8.22453,0.0,0.0,-6.62902,-2.9948,9.58553,26.15143,9.23057,-17.39813,-22.39831,-4.04023,0.01535,-34.72609,-0.97979,0.00013,53.8026,46.3892,8.34883,-13.30403,-42.57616,-6.31504,48.67227,38.53508,-19.48592,127.16643,-57.32908,99.76571,137.82321,-0.02071,-93.443,128.45113,-0.01525,89.73993,-3.92216,-15.92651,0.00145,-13.6363,6.33849,-0.02092,-10.41351,-15.09319,11.46055,-34.05698,-18.32827,4.56954,-5.262,-9.95664,11.10548
636,0.41164,-0.0,0.0,7.75054,0.0,0.0,-7.61322,-2.51169,11.27301,25.95146,9.02961,-17.47362,-18.44102,-3.50809,0.02872,-34.13476,-1.07102,0.00198,51.3208,45.88441,8.36187,-13.58722,-41.99993,-6.26256,48.34923,39.51471,-18.77293,130.71194,-57.76001,104.11655,138.22282,-0.01281,-92.07407,128.81178,-0.01127,90.66205,-3.90925,-15.98914,-0.00127,-14.47322,6.83903,-0.01987,-10.35658,-15.1151,11.53689,-34.00046,-18.37789,4.63141,-4.8414,-9.21528,11.09038
637,-7.68664,0.0,0.0,7.56966,0.0,-0.0,-8.8751,-2.44162,13.61243,25.67282,8.88847,-17.59735,-14.46434,-2.91248,0.04179,-33.53555,-1.06589,0.0033,48.84562,45.40291,7.96392,-13.90466,-41.38955,-6.12369,47.90451,40.53297,-17.77166,133.94405,-58.00316,108.1233,138.63248,-0.00082,-91.46037,129.09131,-0.00447,91.17994,-3.80377,-16.2855,-0.00573,-15.25307,7.19413,-0.01385,-10.1666,-15.16596,11.55858,-33.81654,-18.43288,4.63012,-4.49916,-8.40103,11.02562
638,-14.45536,0.0,-0.0,7.57627,0.0,-0.0,-10.52704,-3.03553,16.30569,25.35935,8.76723,-17.79717,-10.66453,-2.2687,0.04395,-32.95964,-0.99439,0.00357,46.50494,45.02414,7.30022,-14.17996,-40.7053,-5.85735,47.39299,41.50605,-16.5973,136.79007,-58.1012,111.71288,139.00214,0.00794,-91.54349,129.27199,0.00038,90.99551,-3.49356,-16.77132,-0.0103,-15.83288,7.38647,-0.00785,-9.8309,-15.19808,11.47063,-33.48802,-18.42825,4.53459,-4.16881,-7.51757,10.925
639,-18.7643,0.0,0.0,7.53248,-0.0,0.0,-12.53184,-4.3809,18.98844,25.08364,8.60758,-18.05945,-7.23923,-1.65982,0.0296,-32.43851,-0.90415,0.00273,44.40938,44.79891,6.56454,-14.37422,-39.92404,-5.49414,46.86909,42.37075,-15.38493,139.25372,-58.11721,114.89287,139.30769,0.0101,-91.98949,129.34637,0.00107,90.16532,-3.00611,-17.32231,-0.01172,-16.18386,7.53971,-0.00398,-9.36442,-15.17086,11.24504,-33.02505,-18.31594,4.33597,-3.82009,-6.59625,10.79037
640,-20.55316,-0.0,-0.0,7.31305,0.0,-0.0,-14.67173,-6.35409,21.3307,24.89525,8.38132,-18.35759,-4.37689,-1.19909,0.00395,-31.99197,-0.84028,0.00135,42.64685,44.73513,5.92298,-14.48671,-39.04894,-5.10192,46.37544,43.08052,-14.26633,141.42361,-58.12064,117.7388,139.54839,0.00722,-92.39977,129.32768,-0.0004,89.03122,-2.4804,-17.81751,-0.00868,-16.33401,7.83996,-0.00011,-8.82441,-15.07565,10.91527,-32.48236,-18.10099,4.06923,-3.46016,-5.68331,10.62388
641,-20.75934,0.0,-0.0,6.98514,0.0,-0.0,-16.65318,-8.64249,23.08844,24.80096,8.10061,-18.68162,-2.25032,-0.96843,-0.02065,-31.62997,-0.82823,0.0001,41.28174,44.8008,5.4753,-14.53071,-38.10955,-4.73107,45.94347,43.59393,-13.35304,143.42728,-58.17244,120.3415,139.73006,0.00286,-92.49843,129.25066,-0.00099,87.9873,-2.08368,-18.20248,-0.00319,-16.29119,8.42558,0.00666,-8.29941,-14.93886,10.55825,-31.94954,-17.83733,3.79486,-3.11405,-4.8232,10.44227
642,-20.61147,0.0,-0.0,6.6867,0.0,-0.0,-18.27874,-10.84175,24.08058,24.78276,7.79691,-19.03565,-1.00258,-0.97978,-0.03414,-31.36198,-0.87269,-0.00059,40.35141,44.93753,5.25498,-14.51179,-37.15288,-4.39934,45.59576,43.87405,-12.72104,145.35173,-58.31424,122.74889,139.85207,-0.00024,-92.25001,129.15251,5e-05,87.2999,-1.9133,-18.4942,0.0018,-16.03018,9.30964,0.01596,-7.87652,-14.79965,10.23457,-31.51729,-17.58433,3.55264,-2.80286,-4.04778,10.27804
643,-20.84894,0.0,0.0,6.46986,0.0,-0.0,-19.54248,-12.5743,24.14099,24.82474,7.48927,-19.41152,-0.72552,-1.18221,-0.03475,-31.20122,-0.96462,-0.00066,39.85702,45.07809,5.24993,-14.42225,-36.23146,-4.10863,45.33797,43.90259,-12.39377,147.17467,-58.56288,124.92561,139.91019,-0.00151,-91.87232,129.04343,0.00102,86.9857,-1.93548,-18.74157,0.00459,-15.54001,10.35338,0.02273,-7.60905,-14.68006,9.94448,-31.24182,-17.3623,3.33347,-2.53387,-3.37581,10.1651
644,-21.46407,0.0,-0.0,6.27401,0.0,-0.0,-20.56881,-13.58009,23.14589,24.92175,7.16132,-19.77871,-1.43873,-1.50174,-0.02698,-31.1585,-1.08112,-0.00037,39.75136,45.16287,5.42285,-14.2525,-35.39296,-3.85049,45.14519,43.6997,-12.33138,148.7438,-58.91336,126.74,139.90913,-0.00187,-91.71133,128.89378,-0.00044,86.81165,-2.01095,-18.97945,0.00507,-14.86931,11.31994,0.02133,-7.50011,-14.56921,9.64175,-31.12599,-17.14333,3.09898,-2.30736,-2.8187,10.11764
645,-22.04977,0.0,0.0,6.02196,0.0,-0.0,-21.45933,-13.75503,21.13239,25.06934,6.77537,-20.1006,-3.07684,-1.88591,-0.01554,-31.23191,-1.18488,-0.00017,39.94103,45.15292,5.72056,-14.00616,-34.67131,-3.60462,44.96554,43.33449,-12.44213,149.81589,-59.35184,127.98614,139.86925,-0.00193,-92.03008,128.65161,-0.00555,86.4977,-1.99903,-19.21009,0.00412,-14.12391,11.99546,0.01141,-7.50554,-14.43293,9.28747,-31.12215,-16.88104,2.82746,-2.12739,-2.38409,10.11503
646,-22.25197,0.0,0.0,5.69418,0.0,0.0,-22.20505,-13.15488,18.38644,25.25647,6.32234,-20.34896,-5.49435,-2.32727,-0.00199,-31.40069,-1.24079,-0.00026,40.31359,45.03805,6.08625,-13.70479,-34.07722,-3.35913,44.7509,42.91262,-12.61982,150.14012,-59.86966,128.44312,139.81963,-0.00131,-92.86124,128.27556,-0.01288,85.9196,-1.85504,-19.42737,0.00278,-13.41827,12.26672,-0.00196,-7.55301,-14.24129,8.89078,-31.1541,-16.55151,2.53989,-2.00248,-2.07304,10.10473
647,-21.94988,0.0,-0.0,5.32789,0.0,0.0,-22.71636,-11.99125,15.40298,25.4668,5.86148,-20.50295,-8.49646,-2.85173,0.0133,-31.62712,-1.2419,-0.00048,40.77607,44.83456,6.47456,-13.38107,-33.59182,-3.14008,44.494,42.54137,-12.78622,149.54329,-60.46677,127.94826,139.78406,0.00011,-94.0411,127.75924,-0.01812,85.1416,-1.63813,-19.6634,0.00136,-12.82143,12.11701,-0.01269,-7.56808,-13.99004,8.50371,-31.14625,-16.17104,2.28614,-1.93826,-1.87512,10.02398
648,-21.23322,-0.0,-0.0,4.98642,0.0,0.0,-22.89254,-10.58634,12.73897,25.68091,5.49646,-20.55214,-11.88649,-3.48261,0.0279,-31.8668,-1.21377,-0.00052,41.27384,44.57024,6.85438,-13.06795,-33.17247,-3.00271,44.23895,42.29075,-12.90992,147.96725,-61.14553,126.44552,139.76907,0.00155,-95.37503,127.13408,-0.01657,84.36317,-1.43154,-20.00148,-0.00045,-12.35558,11.61659,-0.01696,-7.49445,-13.69826,8.1824,-31.04421,-15.77887,2.11003,-1.93437,-1.76895,9.82887
649,-20.27955,0.0,0.0,4.71306,0.0,-0.0,-22.67078,-9.26056,10.83609,25.88021,5.29793,-20.51031,-15.50534,-4.20893,0.03752,-32.08242,-1.19084,-0.00032,41.78433,44.26302,7.20284,-12.79039,-32.76934,-2.98628,44.05162,42.17258,-12.99312,145.45044,-61.9024,123.98668,139.76096,0.0019,-96.76169,126.45477,-0.00727,83.84581,-1.25778,-20.51842,-0.00287,-12.048,10.91325,-0.014,-7.30442,-13.38943,7.95124,-30.82314,-15.40599,2.02414,-1.98626,-1.72864,9.51122
650,-19.20486,0.0,-0.0,4.49689,0.0,-0.0,-22.04353,-8.21256,9.89886,26.0525,5.25382,-20.42231,-19.24615,-4.98114,0.03933,-32.25176,-1.19242,-1e-05,42.30695,43.90683,7.5028,-12.55924,-32.34151,-3.08593,43.97031,42.14673,-13.04512,142.08734,-62.72321,120.69662,139.73135,0.00085,-98.1563,125.78043,0.00495,83.78775,-1.07651,-21.19485,-0.00517,-11.9571,10.16807,-0.00602,-7.00478,-13.07761,7.79488,-30.49184,-15.05934,2.00835,-2.08156,-1.73041,9.09305
651,-18.00663,0.0,0.0,4.28162,0.0,0.0,-21.05177,-7.4647,9.87646,26.19369,5.28208,-20.35157,-23.04452,-5.73682,0.03463,-32.36681,-1.21601,0.00028,42.84835,43.4776,7.75122,-12.3679,-31.86578,-3.25806,43.97688,42.14618,-13.06689,137.99898,-63.58224,116.72932,139.64865,-0.00067,-99.45664,125.16412,0.01286,84.17879,-0.85385,-21.8873,-0.00565,-12.1389,9.4759,0.00308,-6.63778,-12.76922,7.67456,-30.09388,-14.72976,2.02415,-2.19612,-1.75594,8.61188
652,-16.61548,0.0,0.0,4.00365,0.0,0.0,-19.76824,-6.89431,10.53247,26.30283,5.2738,-20.35257,-26.85952,-6.43314,0.02742,-32.42859,-1.24679,0.00051,43.40089,42.95423,7.96969,-12.19727,-31.33695,-3.44439,44.01231,42.10525,-13.05486,133.31744,-64.44359,112.23276,139.49109,-0.00114,-100.50551,124.64914,0.01321,84.80272,-0.60003,-22.41771,-0.00374,-12.59798,8.85825,0.00978,-6.26993,-12.47267,7.55014,-29.69713,-14.40938,2.03095,-2.30198,-1.79188,8.11039
653,-14.96755,0.0,0.0,3.63224,-0.0,0.0,-18.27683,-6.33627,11.55385,26.37488,5.14329,-20.44485,-30.66131,-7.05447,0.02029,-32.44111,-1.27787,0.00068,43.93869,42.33243,8.19984,-12.02361,-30.75803,-3.6056,44.01977,41.97998,-13.01133,128.16965,-65.26155,107.32404,139.25584,0.00018,-101.19643,124.26173,0.00872,85.44077,-0.34374,-22.69998,-0.001,-13.25286,8.3151,0.01187,-5.96855,-12.20309,7.39619,-29.3707,-14.10224,1.99908,-2.37827,-1.82521,7.62764
654,-13.03829,0.0,-0.0,3.18865,0.0,-0.0,-16.65147,-5.70337,12.64929,26.39827,4.86601,-20.60624,-34.42476,-7.59208,0.01233,-32.40841,-1.32737,0.00071,44.43636,41.62154,8.48658,-11.81661,-30.12866,-3.74255,43.9757,41.75669,-12.94773,122.66043,-65.9798,102.08086,138.95906,0.00223,-101.53563,124.0013,0.00368,86.03837,-0.1128,-22.7694,0.00074,-13.94464,7.85961,0.00935,-5.77906,-11.97748,7.21018,-29.16149,-13.82297,1.91936,-2.41014,-1.83919,7.19094
655,-10.84663,0.0,-0.0,2.73375,0.0,0.0,-14.94956,-5.04527,13.59982,26.36035,4.48329,-20.79053,-38.12344,-8.02308,0.00119,-32.3343,-1.43551,0.00049,44.88429,40.83095,8.86005,-11.53996,-29.442,-3.8887,43.89107,41.44871,-12.8805,116.87394,-66.53555,96.56064,138.62886,0.00305,-101.64774,123.84266,0.00032,86.67622,0.06122,-22.72748,0.00079,-14.50491,7.50992,0.00447,-5.71706,-11.80622,7.01168,-29.08549,-13.58869,1.80577,-2.38266,-1.81543,6.81011
656,-8.45774,0.0,-0.0,2.33033,0.0,-0.0,-13.2328,-4.50364,14.25467,26.25745,4.07436,-20.95723,-41.72362,-8.31354,-0.01295,-32.22106,-1.64036,-0.0,45.27992,39.9588,9.3231,-11.17237,-28.69167,-4.07998,43.79303,41.08478,-12.82345,110.89449,-66.87502,90.83752,138.29756,0.00168,-101.73341,123.75173,-0.00131,87.47197,0.16218,-22.6952,-0.0003,-14.82753,7.25334,-0.0001,-5.77496,-11.68878,6.83043,-29.13442,-13.4105,1.68614,-2.28743,-1.74138,6.47657
657,-6.005,0.0,0.0,2.00856,-0.0,-0.0,-11.59282,-4.20823,14.50902,26.10234,3.7204,-21.09406,-45.18178,-8.44666,-0.02564,-32.06933,-1.95081,-0.00056,45.61078,38.99619,9.84781,-10.72164,-27.88134,-4.31553,43.70308,40.69728,-12.78034,104.82352,-66.97164,85.02538,137.99484,-0.00087,-101.96722,123.703,-0.00211,88.5126,0.21566,-22.77255,-0.0013,-14.89617,7.03202,-0.00314,-5.92954,-11.61581,6.68716,-29.28376,-13.28789,1.58348,-2.13126,-1.61658,6.17536
658,-3.71396,0.0,0.0,1.76646,0.0,-0.0,-10.1484,-4.20441,14.30307,25.92143,3.48088,-21.22527,-48.44999,-8.44985,-0.03114,-31.88083,-2.33604,-0.00085,45.85933,37.94236,10.37992,-10.20758,-27.02602,-4.53696,43.62316,40.31462,-12.74492,98.77326,-66.83217,79.26435,137.7421,-0.00263,-102.37536,123.68754,-0.00295,89.78842,0.25264,-22.99164,-0.00093,-14.76843,6.77936,-0.00479,-6.14217,-11.5743,6.57809,-29.4937,-13.20743,1.49961,-1.92827,-1.45122,5.90159
659,-1.86096,0.0,0.0,1.59153,0.0,-0.0,-9.01805,-4.44636,13.63424,25.74103,3.37498,-21.39959,-51.48576,-8.39093,-0.02706,-31.65893,-2.73894,-0.00068,46.01493,36.81206,10.859,-9.64574,-26.14384,-4.65305,43.53959,39.95497,-12.7091,92.84522,-66.48741,73.68153,137.54883,-0.00255,-102.76952,123.71136,-0.00375,91.13317,0.23309,-23.31111,0.00169,-14.52558,6.45577,-0.00545,-6.35953,-11.5523,6.4749,-29.71006,-13.14715,1.41324,-1.69082,-1.25996,5.66437
660,-0.65829,0.0,-0.0,1.47261,0.0,0.0,-8.28747,-4.83258,12.55782,25.57197,3.37633,-21.65082,-54.25841,-8.34553,-0.01605,-31.40644,-3.10996,-0.00019,46.07042,35.63234,11.25187,-9.04802,-25.24763,-4.60067,43.44075,39.61965,-12.66952,87.11911,-65.97567,68.36425,137.41182,-0.00138,-102.82103,123.78826,-0.0033,92.24197,0.04138,-23.65515,0.00585,-14.24014,6.05241,-0.00505,-6.52448,-11.54131,6.34101,-29.87525,-13.08507,1.29405,-1.43159,-1.05557,5.48205
661,-0.15974,0.0,-0.0,1.39942,0.0,0.0,-7.98255,-5.25564,11.17286,25.40447,3.43577,-21.95802,-56.75276,-8.36357,-0.00356,-31.12445,-3.43704,0.0002,46.01913,34.43492,11.56806,-8.4249,-24.34179,-4.39772,43.32802,39.29192,-12.6249,81.65948,-65.32954,63.36606,137.32011,-0.00057,-102.21816,123.93037,-0.00045,92.81315,-0.43184,-23.9474,0.0089,-13.99238,5.58936,-0.00348,-6.59412,-11.53481,6.15338,-29.94587,-13.00623,1.12344,-1.16496,-0.84298,5.37344
662,-0.24549,-0.0,-0.0,1.35979,0.0,-0.0,-8.06601,-5.6379,9.59482,25.21536,3.50743,-22.24926,-58.9714,-8.455,0.00555,-30.81221,-3.7426,0.00016,45.85927,33.24431,11.84211,-7.79075,-23.42457,-4.14065,43.20929,38.9456,-12.57186,76.52096,-64.57147,58.72328,137.26407,-0.00101,-100.75912,124.14142,0.00422,92.73817,-1.22822,-24.12613,0.00796,-13.86465,5.12358,-0.00142,-6.55292,-11.52368,5.91661,-29.90533,-12.90407,0.90942,-0.90732,-0.61646,5.34241
663,-0.67097,0.0,0.0,1.33954,-0.0,-0.0,-8.46875,-5.9388,7.9175,24.98305,3.56184,-22.44839,-60.93092,-8.59414,0.00905,-30.46812,-4.0559,-0.00031,45.59821,32.06842,12.10791,-7.16621,-22.49211,-3.94761,43.08884,38.56012,-12.50942,71.74273,-63.71498,54.46059,137.23842,-0.00238,-98.38695,124.41673,0.00845,92.17551,-2.32618,-24.1552,0.00195,-13.88827,4.753,-0.00027,-6.41351,-11.49405,5.66319,-29.76465,-12.77843,0.68764,-0.67471,-0.36406,5.36573
664,-1.15646,0.0,0.0,1.32628,0.0,0.0,-9.13526,-6.14424,6.18552,24.70055,3.59173,-22.52376,-62.65029,-8.73726,0.00766,-30.09118,-4.38818,-0.00091,45.25362,30.89747,12.38515,-6.56839,-21.54304,-3.89562,42.96655,38.13209,-12.44626,67.3404,-62.7649,50.58765,137.23466,-0.00314,-95.25502,124.74667,0.01031,91.41783,-3.65188,-24.02589,-0.00797,-14.01227,4.57607,-0.0004,-6.20835,-11.43198,5.44091,-29.55487,-12.63511,0.50782,-0.47345,-0.077,5.39758
665,-1.48394,0.0,0.0,1.31183,-0.0,-0.0,-10.04975,-6.2512,4.402,24.37738,3.60373,-22.50407,-64.13626,-8.84978,0.00392,-29.68105,-4.72338,-0.00125,44.84267,29.7101,12.67219,-6.00476,-20.58357,-3.99085,42.84192,37.67756,-12.39424,63.30411,-61.7152,47.09544,137.23656,-0.00193,-91.72596,125.11607,0.00931,90.70248,-5.07835,-23.74153,-0.01943,-14.12382,4.62177,-0.00054,-5.97966,-11.3333,5.29288,-29.31794,-12.487,0.41137,-0.29698,0.24313,5.39033
666,-1.55379,0.0,-0.0,1.28227,-0.0,0.0,-11.22328,-6.25202,2.56279,24.0333,3.60975,-22.44673,-65.37621,-8.92039,0.00018,-29.23666,-5.03189,-0.00124,44.36543,28.48364,12.95168,-5.47973,-19.6285,-4.19301,42.71238,37.22565,-12.3461,59.60455,-60.55128,43.96024,137.22887,0.0006,-88.15026,125.50116,0.00588,90.1773,-6.46665,-23.28489,-0.02986,-14.1005,4.83415,0.00035,-5.7694,-11.21062,5.2388,-29.09713,-12.35335,0.41126,-0.13435,0.58563,5.31838
667,-1.38516,0.0,-0.0,1.20562,-0.0,-0.0,-12.64233,-6.12873,0.69265,23.69254,3.62861,-22.38675,-66.34502,-8.95366,-0.00235,-28.75675,-5.29467,-0.00105,43.8058,27.20481,13.20536,-4.99749,-18.69601,-4.46513,42.56672,36.80525,-12.25966,56.20364,-59.26233,41.15038,137.21028,0.00233,-84.68932,125.87228,0.00129,89.94465,-7.70943,-22.61561,-0.03467,-13.86197,5.11263,0.00152,-5.60729,-11.0891,5.2672,-28.92445,-12.25279,0.48669,0.02315,0.93929,5.18873
668,-1.08357,0.0,0.0,1.04443,0.0,-0.0,-14.21032,-5.8687,-1.13032,23.37812,3.67712,-22.31823,-67.02178,-8.96446,-0.0034,-28.24437,-5.50727,-0.00089,43.15287,25.87708,13.41374,-4.55245,-17.80053,-4.78721,42.38326,36.43212,-12.06996,53.06622,-57.85511,38.62869,137.19298,0.00197,-81.48918,126.20432,-0.0028,90.04644,-8.69631,-21.72853,-0.02827,-13.39742,5.35229,0.00145,-5.49997,-10.9893,5.34299,-28.80828,-12.19058,0.59701,0.18478,1.30037,5.03253
669,-0.79081,-0.0,0.0,0.78498,-0.0,0.0,-15.73622,-5.49276,-2.78237,23.106,3.76066,-22.20416,-67.40388,-8.96348,-0.00327,-27.71017,-5.67259,-0.00088,42.42035,24.51996,13.56352,-4.11777,-16.94912,-5.14682,42.13526,36.10715,-11.7216,50.17092,-56.35604,36.35616,137.18686,0.00026,-78.83753,126.48739,-0.00551,90.46232,-9.30388,-20.68239,-0.01132,-12.77841,5.48446,-6e-05,-5.43038,-10.90887,5.42441,-28.73146,-12.14833,0.70466,0.36752,1.67171,4.88461
670,-0.62188,0.0,-0.0,0.45511,0.0,-0.0,-16.99352,-5.06663,-4.13514,22.8802,3.88205,-21.99031,-67.50636,-8.93128,-0.00218,-27.17066,-5.80037,-0.00107,41.64546,23.16046,13.6733,-3.64636,-16.14294,-5.54131,41.79976,35.82495,-11.20015,47.51398,-54.79957,34.30018,137.18903,-0.00124,-77.03793,126.72865,-0.00671,91.13396,-9.48616,-19.57789,0.00733,-12.14017,5.50971,-0.00165,-5.37101,-10.82167,5.47796,-28.66441,-12.08904,0.78933,0.59762,2.0554,4.76468
671,-0.6156,0.0,0.0,0.12105,-0.0,0.0,-17.81357,-4.67763,-5.09173,22.68959,4.04292,-21.63636,-67.34559,-8.82972,-0.00016,-26.64285,-5.89679,-0.00114,40.86578,21.82323,13.7857,-3.09135,-15.38251,-5.9632,41.36934,35.5799,-10.54374,45.10345,-53.21076,32.44212,137.1924,-0.0017,-76.28274,126.94148,-0.00639,91.94147,-9.32743,-18.55378,0.0182,-11.61758,5.48629,-0.00227,-5.30175,-10.69893,5.48756,-28.58475,-11.98003,0.84781,0.89996,2.44812,4.67207
672,-0.7264,0.0,-0.0,-0.14137,0.0,0.0,-18.15456,-4.3939,-5.59791,22.51275,4.2316,-21.14849,-66.92104,-8.64668,0.00212,-26.13856,-5.94703,-0.00067,40.09102,20.52294,13.92632,-2.43354,-14.67562,-6.37559,40.864,35.36541,-9.82289,42.95134,-51.59346,30.78387,137.20041,-0.00068,-76.58789,127.1291,-0.00466,92.68302,-8.98408,-17.7703,0.0181,-11.29894,5.47448,-0.00227,-5.2191,-10.53591,5.46189,-28.48868,-11.82031,0.88996,1.28213,2.84073,4.59456
673,-0.85522,-0.0,-0.0,-0.29083,0.0,0.0,-18.10192,-4.24151,-5.64263,22.33118,4.41944,-20.57491,-66.21262,-8.41707,0.00306,-25.6623,-5.91743,0.00047,39.29468,19.26173,14.07991,-1.69371,-14.03926,-6.72155,40.33452,35.17152,-9.10298,41.06861,-49.93332,29.34911,137.22874,0.00186,-77.74968,127.27664,-0.00238,93.14512,-8.5949,-17.3593,0.0107,-11.22184,5.48474,-0.00227,-5.13277,-10.36177,5.43654,-28.38822,-11.65048,0.9368,1.72615,3.2222,4.52044
674,-0.89269,-0.0,0.0,-0.3468,0.0,0.0,-17.79187,-4.20881,-5.25894,22.13747,4.56551,-19.97405,-65.19717,-8.20534,0.00112,-25.21434,-5.77775,0.00191,38.42934,18.03638,14.1962,-0.92277,-13.48645,-6.95743,39.84874,34.9856,-8.42153,39.45889,-48.21381,28.16925,137.29085,0.00473,-79.41113,127.36092,-0.00072,93.24926,-8.23796,-17.36942,0.00209,-11.36895,5.4814,-0.00234,-5.05583,-10.22484,5.45796,-28.30005,-11.53299,1.01175,2.19175,3.58814,4.44383
675,-0.74367,0.0,0.0,-0.37258,0.0,0.0,-17.30293,-4.25894,-4.52296,21.93073,4.63563,-19.38297,-63.87005,-8.0609,-0.00335,-24.79484,-5.52829,0.00297,37.45399,16.84936,14.22598,-0.17479,-13.00934,-7.08423,39.46333,34.79531,-7.79125,38.10975,-46.43443,27.26024,137.3812,0.00596,-81.2,127.37105,0.00017,93.15675,-7.94274,-17.72606,-0.00351,-11.68854,5.43969,-0.00254,-4.99673,-10.16403,5.54903,-28.23538,-11.51248,1.12029,2.63314,3.94528,4.36299
676,-0.33275,-0.0,0.0,-0.43582,0.0,0.0,-16.59046,-4.34651,-3.53001,21.70872,4.62415,-18.81251,-62.25553,-7.98401,-0.00822,-24.40641,-5.20884,0.00312,36.35757,15.71198,14.15783,0.52105,-12.57707,-7.14599,39.19816,34.59152,-7.21544,36.98797,-44.61921,26.60482,137.47348,0.00462,-82.87701,127.3213,0.00101,93.19683,-7.70709,-18.25631,-0.0053,-12.14529,5.38811,-0.00303,-4.95729,-10.18517,5.6823,-28.19657,-11.58367,1.2348,3.02157,4.30479,4.27729
677,0.38773,-0.0,0.0,-0.58719,0.0,-0.0,-15.50842,-4.43734,-2.34504,21.46647,4.54462,-18.27929,-60.3999,-7.94267,-0.0112,-24.05613,-4.87607,0.00232,35.1629,14.64005,14.00859,1.16792,-12.14804,-7.17886,39.03108,34.37004,-6.6999,36.04478,-42.81003,26.14692,137.53435,0.00151,-84.40433,127.24481,0.00179,93.62861,-7.50465,-18.76926,-0.00457,-12.72395,5.37209,-0.00327,-4.93463,-10.25542,5.79169,-28.17866,-11.69069,1.3075,3.35438,4.67087,4.18765
678,1.41851,-0.0,-0.0,-0.8476,0.0,-0.0,-13.89804,-4.50203,-0.97877,21.19897,4.41937,-17.82046,-58.35727,-7.89827,-0.01032,-23.75435,-4.58149,0.00094,33.91647,13.64572,13.80806,1.79045,-11.68721,-7.18546,38.91648,34.13098,-6.25705,35.2281,-41.04866,25.80433,137.54167,-0.00179,-85.84145,127.17453,0.00187,94.45053,-7.31638,-19.12155,-0.00276,-13.39169,5.37842,-0.00202,-4.92238,-10.31809,5.82045,-28.17128,-11.75945,1.30878,3.65041,5.03245,4.09689
679,2.69382,0.0,0.0,-1.19289,0.0,0.0,-11.6874,-4.49563,0.58434,20.90434,4.28575,-17.47273,-56.18167,-7.80516,-0.00465,-23.51111,-4.36714,-0.00052,32.67724,12.72829,13.60534,2.41624,-11.17994,-7.16568,38.81345,33.87291,-5.90498,34.49495,-39.36023,25.4975,137.49678,-0.00374,-87.19473,127.12892,0.00116,95.43177,-7.16229,-19.2478,-0.00099,-14.08568,5.32673,0.00089,-4.9112,-10.31966,5.7659,-28.16071,-11.7397,1.25779,3.93837,5.36314,4.00457
680,4.06962,0.0,-0.0,-1.56149,0.0,0.0,-8.94718,-4.37438,2.34306,20.58637,4.17857,-17.26457,-53.92905,-7.6238,0.00425,-23.33711,-4.25627,-0.0015,31.50238,11.87556,13.4509,3.05665,-10.63334,-7.12732,38.70729,33.58586,-5.66295,33.82014,-37.7514,25.17245,137.41951,-0.00374,-88.40005,127.11009,0.00024,96.29892,-7.07682,-19.15897,-0.00013,-14.72484,5.14683,0.0037,-4.89203,-10.23149,5.68242,-28.13506,-11.62627,1.21625,4.23735,5.63108,3.90514
681,5.31246,0.0,0.0,-1.87131,0.0,0.0,-5.87376,-4.13068,4.24496,20.2528,4.10875,-17.21143,-51.664,-7.34086,0.01313,-23.2482,-4.24829,-0.0017,30.43348,11.07798,13.37433,3.70281,-10.06787,-7.07674,38.61264,33.25492,-5.54352,33.20021,-36.22322,24.80538,137.3278,-0.00228,-89.3853,127.10919,-0.00038,96.92135,-7.07126,-18.90488,-0.00061,-15.23675,4.85572,0.00437,-4.8598,-10.0539,5.64371,-28.08886,-11.44805,1.25202,4.54155,5.81066,3.7982
682,6.16541,-0.0,-0.0,-2.03794,0.0,0.0,-2.72901,-3.79763,6.17337,19.91292,4.06898,-17.29895,-49.46415,-6.96812,0.01867,-23.2663,-4.32951,-0.00106,29.49662,10.34196,13.38528,4.34147,-9.50617,-7.02373,38.55408,32.87784,-5.54287,32.65328,-34.78312,24.39746,137.22388,-1e-05,-90.08479,127.11329,-0.00058,97.36884,-7.14919,-18.53252,-0.00247,-15.59254,4.56699,0.00272,-4.81231,-9.80503,5.69855,-28.02118,-11.24064,1.40273,4.82245,5.89035,3.69646
683,6.54547,0.0,-0.0,-2.01942,0.0,0.0,0.20911,-3.42764,7.9773,19.5825,4.03984,-17.49453,-47.41373,-6.54353,0.01844,-23.41398,-4.47659,0.00011,28.71493,9.69302,13.4598,4.973,-8.96258,-6.96919,38.53831,32.48337,-5.63239,32.21205,-33.44443,23.96916,137.10184,0.00259,-90.44911,127.11221,-0.00045,97.80748,-7.32197,-18.08182,-0.00505,-15.81469,4.43091,0.00011,-4.74528,-9.50781,5.84904,-27.92951,-11.02588,1.66102,5.04527,5.87756,3.6169
684,6.62435,0.0,-0.0,-1.8366,-0.0,0.0,2.69828,-3.07453,9.52268,19.28317,3.99178,-17.7672,-45.58842,-6.13038,0.01257,-23.70339,-4.65606,0.00128,28.11376,9.16682,13.53079,5.61468,-8.44148,-6.89393,38.54492,32.13148,-5.76044,31.90886,-32.21721,23.55489,136.9642,0.00488,-90.50687,127.10114,-7e-05,98.35399,-7.57479,-17.60662,-0.007,-15.9584,4.53368,-0.00213,-4.65045,-9.1843,6.05554,-27.80754,-10.80864,1.98145,5.18459,5.79517,3.5676
685,6.6333,-0.0,0.0,-1.53248,-0.0,-0.0,4.6019,-2.78845,10.72343,19.02891,3.89782,-18.07908,-44.04257,-5.79099,0.00416,-24.12391,-4.83475,0.0019,27.71077,8.79128,13.52112,6.28657,-7.94679,-6.78525,38.54532,31.88865,-5.8721,31.75912,-31.09994,23.19384,136.82631,0.00594,-90.43755,127.07738,0.00045,99.00983,-7.83224,-17.18767,-0.00741,-16.09043,4.81933,-0.00331,-4.51895,-8.857,6.25755,-27.64876,-10.58609,2.29905,5.22826,5.66824,3.54466
686,6.65769,-0.0,0.0,-1.14624,0.0,-0.0,5.92345,-2.60709,11.54534,18.81918,3.75061,-18.38189,-42.80348,-5.55672,-0.003,-24.63718,-4.98763,0.00173,27.50403,8.56961,13.38225,6.99073,-7.49111,-6.66297,38.53028,31.79338,-5.93698,31.75521,-30.07614,22.91833,136.70526,0.00538,-90.57751,127.03593,0.00094,99.68062,-7.9749,-16.92663,-0.00691,-16.27383,5.11282,-0.00293,-4.34449,-8.55093,6.39955,-27.44971,-10.35971,2.55253,5.17232,5.51117,3.53395
687,6.61298,-0.0,-0.0,-0.72896,-0.0,0.0,6.77772,-2.54054,11.99116,18.64636,3.57479,-18.63031,-41.87109,-5.41911,-0.00676,-25.18498,-5.10023,0.00099,27.46718,8.47866,13.11116,7.70013,-7.09385,-6.57553,38.52198,31.83776,-5.96086,31.87535,-29.11529,22.74698,136.60428,0.00376,-91.23756,126.96847,0.00113,100.23763,-7.90705,-16.89568,-0.00686,-16.55345,5.24037,-0.00066,-4.12261,-8.29049,6.4539,-27.20837,-10.14124,2.70662,5.01443,5.32448,3.51587
688,6.35438,0.0,-0.0,-0.34836,-0.0,0.0,7.32391,-2.56479,12.08296,18.50283,3.42568,-18.79069,-41.22084,-5.34213,-0.00717,-25.70665,-5.17201,0.00014,27.5515,8.48505,12.75338,8.36721,-6.77025,-6.57513,38.56252,31.97571,-5.9723,32.09955,-28.17767,22.68732,136.50638,0.00203,-92.4286,126.86337,0.00091,100.6061,-7.62478,-17.06536,-0.0069,-16.93982,5.13509,0.00293,-3.84906,-8.09068,6.43157,-26.92137,-9.94875,2.76551,4.7518,5.10245,3.47719
689,5.8118,0.0,-0.0,-0.06511,0.0,-0.0,7.69708,-2.63851,11.86221,18.37702,3.35131,-18.84702,-40.80814,-5.2871,-0.00564,-26.15583,-5.2109,-0.00052,27.69683,8.56431,12.38391,8.94395,-6.52107,-6.68131,38.68978,32.14393,-6.00332,32.42011,-27.22405,22.74548,136.38486,0.00106,-93.82938,126.7043,0.00021,100.81319,-7.21641,-17.316,-0.00554,-17.421,4.83593,0.00652,-3.52368,-7.9478,6.37179,-26.58739,-9.7941,2.76706,4.38558,4.84483,3.42084
690,5.03773,-0.0,0.0,0.09889,0.0,-0.0,7.97554,-2.73695,11.40186,18.24437,3.34147,-18.80762,-40.57726,-5.23326,-0.00362,-26.50702,-5.21921,-0.00093,27.85108,8.70648,12.06972,9.40008,-6.3312,-6.86057,38.92099,32.28045,-6.08337,32.83987,-26.22979,22.93035,136.2195,0.00106,-95.0686,126.47403,-0.00116,100.90517,-6.80179,-17.53163,-0.00261,-17.99153,4.41667,0.00868,-3.15989,-7.83801,6.31431,-26.21731,-9.67078,2.75754,3.92852,4.56355,3.3636
691,4.2019,-0.0,0.0,0.17285,0.0,-0.0,8.17886,-2.86144,10.80218,18.07578,3.34322,-18.70789,-40.4732,-5.1811,-0.00192,-26.75429,-5.18691,-0.00115,27.99072,8.90744,11.84086,9.73412,-6.17922,-7.04666,39.25182,32.33813,-6.24157,33.35796,-25.19571,23.24076,136.00076,0.00099,-96.00606,126.16795,-0.00308,100.86826,-6.4856,-17.65544,0.00048,-18.62515,3.94127,0.00804,-2.79009,-7.72865,6.27355,-25.84103,-9.55434,2.76328,3.4106,4.27965,3.3252
692,3.53855,0.0,0.0,0.21288,0.0,-0.0,8.28772,-3.01379,10.16065,17.8609,3.32623,-18.59384,-40.45131,-5.13944,-0.00078,-26.9056,-5.10008,-0.00114,28.1264,9.15604,11.69343,9.97098,-6.05148,-7.18975,39.66376,32.29308,-6.50064,33.95417,-24.14899,23.64701,135.72441,-0.00056,-96.74104,125.80679,-0.00453,100.69603,-6.34927,-17.67796,0.00222,-19.21547,3.46576,0.00423,-2.4583,-7.59821,6.23363,-25.50147,-9.41882,2.77815,2.87538,4.01345,3.31733
693,3.19795,0.0,-0.0,0.25906,-0.0,0.0,8.28899,-3.17323,9.5399,17.61719,3.30147,-18.48905,-40.48169,-5.10911,-0.00021,-26.97328,-4.95374,-0.00089,28.28558,9.42917,11.61611,10.14264,-5.94889,-7.29486,40.13274,32.1447,-6.86398,34.58699,-23.13584,24.08872,135.38776,-0.00399,-97.4313,125.43535,-0.00437,100.4661,-6.44587,-17.6102,0.00186,-19.59508,3.05167,-0.00064,-2.20254,-7.45075,6.16279,-25.23756,-9.25564,2.77114,2.36557,3.7769,3.33834
694,3.15879,0.0,-0.0,0.31306,-0.0,-0.0,8.20518,-3.29404,8.96779,17.38102,3.29328,-18.38603,-40.54547,-5.0836,-6e-05,-26.96708,-4.75264,-0.00041,28.48831,9.69635,11.60195,10.26841,-5.88342,-7.41002,40.63542,31.90861,-7.31195,35.20664,-22.20841,24.49382,134.99118,-0.00817,-98.15506,125.10754,-0.00277,100.29848,-6.78194,-17.45939,-0.00029,-19.62199,2.77486,-0.00246,-2.03906,-7.31175,6.03277,-25.06776,-9.07728,2.70602,1.9106,3.57209,3.37624
695,3.29995,0.0,0.0,0.35261,0.0,-0.0,8.08123,-3.32129,8.46736,17.19608,3.32163,-18.26901,-40.62527,-5.06283,-0.0002,-26.89565,-4.50111,0.00024,28.73611,9.9239,11.63703,10.35236,-5.87404,-7.57859,41.15205,31.60795,-7.81302,35.77274,-21.40512,24.80554,134.54451,-0.01102,-98.88522,124.86401,-0.00095,100.27415,-7.30506,-17.22489,-0.00289,-19.23067,2.71093,0.00188,-1.95788,-7.20844,5.83393,-24.98378,-8.90504,2.56315,1.52669,3.38986,3.41741
696,3.50538,-0.0,0.0,0.36031,0.0,0.0,7.95804,-3.22035,8.07828,17.10143,3.39767,-18.13015,-40.69815,-5.05551,-0.00048,-26.77106,-4.19873,0.00094,29.0153,10.0767,11.69644,10.39487,-5.94374,-7.80781,41.66781,31.26781,-8.33942,36.26838,-20.73012,25.00482,134.07236,-0.01073,-99.51521,124.7122,0.00025,100.40685,-7.91559,-16.9216,-0.00425,-18.44062,2.89245,0.01084,-1.92994,-7.15137,5.58442,-24.95657,-8.75569,2.35518,1.2233,3.20778,3.4546
697,3.70254,0.0,-0.0,0.33741,0.0,-0.0,7.86158,-3.00423,7.84605,17.11446,3.51744,-17.96605,-40.73562,-5.0643,-0.00074,-26.60844,-3.8482,0.0015,29.30421,10.12614,11.75929,10.40317,-6.10831,-8.0736,42.17282,30.91209,-8.87322,36.7064,-20.14695,25.11926,133.60883,-0.00685,-99.8867,124.62222,0.00083,100.64149,-8.5046,-16.58132,-0.00386,-17.36624,3.26593,0.01804,-1.92115,-7.13169,5.32975,-24.95052,-8.63873,2.1277,1.00469,2.99674,3.48969
698,3.83399,0.0,0.0,0.29671,-0.0,-0.0,7.80923,-2.73763,7.79128,17.21688,3.66726,-17.76633,-40.70963,-5.06782,-0.00076,-26.42178,-3.46943,0.00171,29.57886,10.06185,11.828,10.39277,-6.3609,-8.3512,42.65983,30.56012,-9.40263,37.12358,-19.59363,25.21509,133.18132,-0.00073,-99.84167,124.54287,0.00105,100.86823,-9.00066,-16.21591,-0.00272,-16.22091,3.6952,0.01784,-1.90718,-7.13366,5.12682,-24.9395,-8.56176,1.93951,0.86545,2.73667,3.52907
699,3.82819,0.0,-0.0,0.25095,0.0,-0.0,7.817,-2.51007,7.8929,17.35725,3.84431,-17.50977,-40.59913,-5.02075,-0.00024,-26.22342,-3.10539,0.00144,29.81713,9.89498,11.93046,10.38379,-6.66956,-8.64234,43.12057,30.22461,-9.91642,37.56581,-19.01015,25.3759,132.79723,0.00548,-99.30803,124.42434,0.00094,100.99178,-9.38809,-15.79527,-0.0019,-15.28174,4.03341,0.01129,-1.88232,-7.14952,5.01563,-24.91701,-8.53319,1.83056,0.78709,2.42661,3.57757
700,3.64189,0.0,-0.0,0.21083,0.0,-0.0,7.89336,-2.39383,8.10904,17.46854,4.05088,-17.18196,-40.39325,-4.88402,0.00082,-26.02939,-2.80326,0.00076,30.00237,9.65324,12.09002,10.39798,-6.98959,-8.95932,43.54387,29.91372,-10.39814,38.07208,-18.3617,25.6733,132.44611,0.01036,-98.3309,124.23264,0.0004,100.9956,-9.68304,-15.27276,-0.00148,-14.78781,4.19963,0.00431,-1.85712,-7.18324,4.99687,-24.89403,-8.55693,1.79989,0.74104,2.08227,3.63957
