PaulMeinheit/Bachelor_Muay_Thai/results/Sub01_Teep_finishedJointAngles7.csv
Unnamed: 0_level_0,L_MTP_ANGLE,L_MTP_ANGLE,L_MTP_ANGLE,R_MTP_ANGLE,R_MTP_ANGLE,R_MTP_ANGLE,L_ANKLE_ANGLE,L_ANKLE_ANGLE,L_ANKLE_ANGLE,R_ANKLE_ANGLE,R_ANKLE_ANGLE,R_ANKLE_ANGLE,L_KNEE_ANGLE,L_KNEE_ANGLE,L_KNEE_ANGLE,R_KNEE_ANGLE,R_KNEE_ANGLE,R_KNEE_ANGLE,L_HIP_ANGLE,L_HIP_ANGLE,L_HIP_ANGLE,R_HIP_ANGLE,R_HIP_ANGLE,R_HIP_ANGLE,L_SHOULDER_ANGLE,L_SHOULDER_ANGLE,L_SHOULDER_ANGLE,R_SHOULDER_ANGLE,R_SHOULDER_ANGLE,R_SHOULDER_ANGLE,L_ELBOW_ANGLE,L_ELBOW_ANGLE,L_ELBOW_ANGLE,R_ELBOW_ANGLE,R_ELBOW_ANGLE,R_ELBOW_ANGLE,L_WRIST_ANGLE,L_WRIST_ANGLE,L_WRIST_ANGLE,R_WRIST_ANGLE,R_WRIST_ANGLE,R_WRIST_ANGLE,NECK_ANGLE,NECK_ANGLE,NECK_ANGLE,NECK_ANGLE_SHADOW,NECK_ANGLE_SHADOW,NECK_ANGLE_SHADOW,Trunk_Joint_Angle,Trunk_Joint_Angle,Trunk_Joint_Angle
ITEM,X,Y,Z,X,Y,Z,X,Y,Z,X,Y,Z,X,Y,Z,X,Y,Z,X,Y,Z,X,Y,Z,X,Y,Z,X,Y,Z,X,Y,Z,X,Y,Z,X,Y,Z,X,Y,Z,X,Y,Z,X,Y,Z,X,Y,Z
701,3.32556,0.0,-0.0,0.18584,-0.0,0.0,8.02837,-2.41063,8.41324,17.49024,4.25726,-16.79802,-40.09293,-4.66076,0.00192,-25.86183,-2.58207,0.0,30.12637,9.37449,12.28746,10.45603,-7.27891,-9.28117,43.91791,29.63215,-10.825,38.66344,-17.64716,26.13983,132.11287,0.01311,-97.03379,123.95383,-0.0007,100.92485,-9.90011,-14.64001,-0.00081,-14.8176,4.19351,0.00077,-1.84595,-7.24077,5.03335,-24.8858,-8.62404,1.81081,0.6971,1.72793,3.72558
702,2.99975,-0.0,-0.0,0.17813,0.0,-0.0,8.19762,-2.52305,8.80075,17.39046,4.4013,-16.39574,-39.71254,-4.39601,0.00242,-25.74184,-2.42445,-0.00053,30.191,9.09664,12.46514,10.57259,-7.51036,-9.55132,44.23495,29.37779,-11.17704,39.34062,-16.89218,26.75767,131.78764,0.01288,-95.59979,123.59308,-0.00266,100.8201,-10.03934,-13.96182,0.00042,-15.23634,4.05884,-0.00028,-1.85374,-7.31798,5.07279,-24.89771,-8.7104,1.81665,0.63362,1.38651,3.85351
703,2.75462,0.0,-0.0,0.17704,0.0,-0.0,8.37905,-2.6562,9.26148,17.1795,4.44624,-16.00636,-39.27835,-4.14051,0.00211,-25.67809,-2.30192,-0.00074,30.20692,8.84536,12.57247,10.75011,-7.67781,-9.72777,44.49479,29.13988,-11.45117,40.09259,-16.13431,27.47047,131.46432,0.00901,-94.28639,123.16966,-0.00559,100.68055,-10.10126,-13.35203,0.00156,-15.74817,3.84431,-0.00164,-1.87166,-7.39978,5.07483,-24.92053,-8.78646,1.78613,0.54351,1.07025,4.04093
704,2.59615,0.0,-0.0,0.16542,0.0,0.0,8.56241,-2.74029,9.76059,16.90169,4.42212,-15.64332,-38.82213,-3.92249,0.00124,-25.66142,-2.20115,-0.0007,30.1909,8.63104,12.595,10.97738,-7.78923,-9.81533,44.70228,28.90496,-11.66613,40.91187,-15.40637,28.21646,131.13383,0.00195,-93.39017,122.70781,-0.00872,100.48663,-10.11175,-12.90621,0.00172,-16.04314,3.59922,-0.00413,-1.88225,-7.47258,5.03,-24.93608,-8.83605,1.7159,0.43291,0.77933,4.29444
705,2.48227,0.0,0.0,0.13459,0.0,0.0,8.74286,-2.74782,10.24797,16.60946,4.39926,-15.31566,-38.37188,-3.74743,0.00029,-25.66774,-2.12627,-0.00053,30.16324,8.45542,12.54422,11.23483,-7.85314,-9.84875,44.85822,28.66712,-11.84907,41.8049,-14.72032,28.96304,130.78401,-0.00615,-93.11894,122.22573,-0.00999,100.25964,-10.11605,-12.64295,0.0008,-15.96509,3.39386,-0.00573,-1.86759,-7.53759,4.96564,-24.92612,-8.87088,1.63071,0.31554,0.50824,4.60184
706,2.37738,-0.0,0.0,0.09352,0.0,0.0,8.91134,-2.70095,10.67771,16.33948,4.43038,-15.03692,-37.94471,-3.6084,-0.00038,-25.665,-2.08568,-0.00035,30.14441,8.31714,12.44048,11.50199,-7.87273,-9.86287,44.95357,28.43272,-12.01523,42.78608,-14.06029,29.71224,130.4053,-0.01173,-93.45127,121.72878,-0.00692,100.12466,-10.1473,-12.48318,-0.0006,-15.57386,3.32292,-0.0044,-1.81572,-7.61156,4.93411,-24.87913,-8.92669,1.57228,0.20695,0.25144,4.93191
707,2.27163,0.0,0.0,0.06113,0.0,-0.0,9.05334,-2.64744,11.01952,16.10617,4.51997,-14.81888,-37.54642,-3.49297,-0.00062,-25.62234,-2.08039,-0.00026,30.15078,8.21354,12.3094,11.7627,-7.8494,-9.87761,44.97797,28.21254,-12.16154,43.85519,-13.3969,30.46982,129.99458,-0.0118,-94.11534,121.21422,0.00115,100.29872,-10.20548,-12.2774,-0.00163,-15.05848,3.46918,-0.00114,-1.72465,-7.71546,4.98376,-24.79397,-9.04156,1.5769,0.11968,0.00378,5.24801
708,2.16798,0.0,-0.0,0.04516,0.0,-0.0,9.15532,-2.6248,11.25911,15.91196,4.6413,-14.6638,-37.17801,-3.38535,-0.00047,-25.51903,-2.10294,-0.00024,30.19168,8.13954,12.18094,12.00446,-7.78778,-9.90489,44.93734,28.0053,-12.27772,44.97514,-12.71614,31.20798,129.55489,-0.00659,-94.7382,120.68504,0.01137,100.96492,-10.24782,-11.88842,-0.00127,-14.59324,3.85325,0.00125,-1.6052,-7.86128,5.12753,-24.68211,-9.23155,1.65175,0.05942,-0.24104,5.52599
709,2.07031,0.0,-0.0,0.02652,0.0,-0.0,9.20977,-2.63901,11.39698,15.7608,4.76589,-14.57012,-36.84425,-3.26933,-0.00014,-25.34958,-2.14028,-0.00019,30.27148,8.0855,12.07448,12.21339,-7.69631,-9.96155,44.86125,27.78775,-12.36187,46.07377,-12.03875,31.86169,129.09528,-0.00013,-95.09313,120.15887,0.0184,102.13062,-10.20158,-11.29132,0.00085,-14.25879,4.4116,0.00142,-1.48191,-8.04265,5.33104,-24.56815,-9.47741,1.76761,0.02344,-0.48906,5.75904
710,1.99123,0.0,-0.0,-0.03361,0.0,0.0,9.21408,-2.67023,11.45191,15.66186,4.87179,-14.54559,-36.55764,-3.13599,9e-05,-25.124,-2.17461,-1e-05,30.39376,8.03921,11.98015,12.37398,-7.58328,-10.06542,44.78926,27.52428,-12.42349,47.07516,-11.41041,32.36801,128.63145,0.00296,-95.25214,119.66202,0.01812,103.58259,-10.00721,-10.60581,0.00314,-14.05648,5.01675,0.00026,-1.38986,-8.23083,5.5292,-24.4861,-9.72746,1.87577,0.00252,-0.74235,5.95073
711,1.95265,-0.0,-0.0,-0.16635,0.0,-0.0,9.16892,-2.69536,11.45593,15.62018,4.94141,-14.60341,-36.33465,-2.98791,6e-05,-24.86318,-2.19004,0.00025,30.56153,7.9936,11.86637,12.47645,-7.45179,-10.22505,44.74737,27.19182,-12.47123,47.93876,-10.86763,32.71485,128.18611,0.00191,-95.4598,119.21373,0.01096,104.98956,-9.66542,-10.02289,0.00327,-13.96152,5.54547,-0.00074,-1.36537,-8.38176,5.65967,-24.47015,-9.91692,1.93618,-0.01485,-0.99689,6.10785
712,1.96012,0.0,0.0,-0.3681,0.0,-0.0,9.08089,-2.70757,11.43028,15.62275,4.96579,-14.73764,-36.18739,-2.83151,-0.00018,-24.58992,-2.18639,0.00038,30.77384,7.95414,11.71477,12.5239,-7.29649,-10.44556,44.73338,26.79946,-12.50237,48.67665,-10.40799,32.95522,127.78656,-0.00042,-95.86822,118.81326,0.0009,106.07146,-9.26023,-9.69546,0.0013,-13.96023,5.9427,-0.00095,-1.43239,-8.4576,5.69146,-24.54198,-9.99903,1.93532,-0.03786,-1.24248,6.23623
713,1.98014,0.0,-0.0,-0.59684,0.0,0.0,8.9655,-2.71863,11.36522,15.63662,4.95151,-14.90607,-36.1154,-2.66619,-0.00046,-24.32047,-2.18539,0.00023,31.02324,7.93789,11.54647,12.53288,-7.10631,-10.74142,44.72044,26.38676,-12.50636,49.3373,-9.98974,33.17444,127.45892,-0.0014,-96.45636,118.43808,-0.00753,106.68864,-8.93444,-9.69038,0.00027,-14.05172,6.20769,-0.00059,-1.59099,-8.45155,5.63341,-24.70092,-9.97092,1.88411,-0.06932,-1.46571,6.34008
714,1.96008,-0.0,-0.0,-0.79666,0.0,-0.0,8.84342,-2.74518,11.23601,15.6265,4.91576,-15.0473,-36.10046,-2.48836,-0.00061,-24.0635,-2.21551,-0.00014,31.29647,7.96276,11.40701,12.52971,-6.87486,-11.12444,44.67414,26.00227,-12.47635,49.97229,-9.55702,33.4402,127.21967,-0.00061,-97.14357,118.05564,-0.01076,106.89175,-8.82474,-9.99824,0.00274,-14.2306,6.37703,-0.00045,-1.81629,-8.39499,5.52292,-24.92374,-9.87601,1.8046,-0.10362,-1.65752,6.42571
715,1.86457,-0.0,-0.0,-0.92842,0.0,-0.0,8.73306,-2.79136,11.03766,15.57609,4.87781,-15.11324,-36.10938,-2.30458,-0.00055,-23.82409,-2.29103,-0.00054,31.57686,8.0356,11.32744,12.54208,-6.6096,-11.58436,44.57187,25.6782,-12.4163,50.61261,-9.0686,33.77365,127.06528,0.00105,-97.85184,117.64206,-0.00711,106.94724,-9.00245,-10.53183,0.00731,-14.47066,6.55338,-0.00121,-2.07004,-8.33861,5.40932,-25.17503,-9.78004,1.72214,-0.13081,-1.81933,6.50291
716,1.68963,0.0,0.0,-0.98475,-0.0,-0.0,8.646,-2.84433,10.79887,15.49419,4.85413,-15.09095,-36.10603,-2.13558,-0.00036,-23.60442,-2.4048,-0.00075,31.84629,8.1495,11.29955,12.58571,-6.32933,-12.08794,44.41359,25.41952,-12.33778,51.26704,-8.51482,34.15345,126.96963,0.0026,-98.45123,117.19343,0.00126,107.18041,-9.44569,-11.11917,0.00929,-14.71883,6.85923,-0.00236,-2.31703,-8.32043,5.34223,-25.42158,-9.73727,1.66743,-0.14716,-1.96012,6.57883
717,1.4655,0.0,0.0,-0.98716,-0.0,-0.0,8.58295,-2.88835,10.57268,15.40571,4.84631,-15.01188,-36.06362,-2.00956,-0.00023,-23.403,-2.52796,-0.00066,32.08692,8.2884,11.27884,12.65655,-6.05635,-12.5772,44.21996,25.21126,-12.25038,51.93376,-7.9187,34.5393,126.89677,0.00359,-98.78432,116.72363,0.00875,107.71223,-10.03768,-11.56404,0.00596,-14.90729,7.3081,-0.00278,-2.53628,-8.34461,5.36195,-25.64223,-9.76717,1.676,-0.16247,-2.09088,6.65321
718,1.23392,-0.0,0.0,-0.96453,0.0,-0.0,8.53309,-2.91764,10.40771,15.3368,4.84223,-14.92809,-35.96907,-1.94379,-0.00025,-23.21646,-2.62245,-0.00031,32.28419,8.43091,11.22033,12.73666,-5.81283,-12.98619,44.02031,25.03331,-12.15624,52.60819,-7.32258,34.89479,126.82227,0.004,-98.81789,116.25574,0.0105,108.36854,-10.5945,-11.75745,-0.00031,-14.97806,7.75906,-0.00253,-2.7228,-8.38373,5.4856,-25.82994,-9.85116,1.77461,-0.19549,-2.22494,6.72117
719,1.01387,-0.0,0.0,-0.93173,0.0,-0.0,8.47989,-2.93548,10.31676,15.30189,4.83149,-14.87113,-35.8231,-1.9289,-0.00036,-23.04131,-2.66317,0.00012,32.43123,8.55699,11.11666,12.806,-5.61524,-13.27831,43.83588,24.87107,-12.05251,53.27971,-6.76756,35.19918,126.74398,0.00387,-98.70469,115.81297,0.00609,108.83623,-10.92122,-11.72807,-0.00557,-14.90978,8.02193,-0.0028,-2.88323,-8.39938,5.69518,-25.98875,-9.94692,1.96197,-0.26116,-2.37767,6.77826
720,0.8081,0.0,0.0,-0.89095,0.0,-0.0,8.40625,-2.95036,10.27536,15.2993,4.80782,-14.84232,-35.63815,-1.93788,-0.00042,-22.87383,-2.64692,0.00045,32.5311,8.6578,10.99337,12.84984,-5.46585,-13.45816,43.66745,24.71711,-11.93762,53.9258,-6.27748,35.44887,126.67442,0.00336,-98.70103,115.41001,-0.00099,108.89305,-10.86607,-11.60066,-0.00883,-14.74165,7.99145,-0.00359,-3.03002,-8.36637,5.93852,-26.12977,-10.01102,2.19995,-0.36035,-2.5601,6.82229
721,0.62123,0.0,-0.0,-0.83955,0.0,-0.0,8.29921,-2.97528,10.24254,15.31608,4.77377,-14.81963,-35.43227,-1.94365,-0.00035,-22.71002,-2.5914,0.00057,32.59412,8.73601,10.87936,12.8598,-5.35235,-13.56872,43.49551,24.56609,-11.81339,54.51451,-5.8563,35.65314,126.62373,0.00271,-99.03299,115.04755,-0.00664,108.52789,-10.35451,-11.51193,-0.01097,-14.57277,7.68071,-0.00323,-3.17535,-8.28667,6.14591,-26.26629,-10.0182,2.42338,-0.47948,-2.77378,6.85244
722,0.45779,-0.0,-0.0,-0.77201,-0.0,-0.0,8.15602,-3.02801,10.18342,15.33691,4.74704,-14.76356,-35.22103,-1.92568,-0.00017,-22.5471,-2.5294,0.00045,32.6328,8.79712,10.78748,12.83301,-5.25614,-13.68324,43.29182,24.41001,-11.67957,55.01588,-5.49838,35.82781,126.58788,0.00202,-99.73531,114.71617,-0.00862,107.9169,-9.40986,-11.50942,-0.01067,-14.51471,7.17625,-0.0008,-3.32568,-8.18648,6.25606,-26.40779,-9.96879,2.5651,-0.59937,-3.01006,6.86824
723,0.32398,0.0,0.0,-0.68793,0.0,-0.0,7.98547,-3.12771,10.08848,15.35062,4.74458,-14.63829,-35.01187,-1.87351,3e-05,-22.38547,-2.49076,0.0002,32.65814,8.84504,10.70872,12.77291,-5.15962,-13.86616,43.03359,24.2407,-11.52913,55.41429,-5.20072,35.98943,126.55154,0.00126,-100.62646,114.40599,-0.00697,107.31068,-8.15874,-11.51146,-0.00563,-14.62654,6.58769,0.00241,-3.47968,-8.0989,6.24173,-26.55605,-9.88265,2.58671,-0.70575,-3.25242,6.87179
724,0.2321,0.0,-0.0,-0.60151,0.0,0.0,7.80433,-3.28415,9.97511,15.35015,4.76596,-14.43593,-34.8047,-1.78967,0.00017,-22.22823,-2.48732,-5e-05,32.67778,8.88736,10.62226,12.69033,-5.04676,-14.12981,42.71241,24.05821,-11.35133,55.71486,-4.9661,36.15154,126.50234,0.00058,-101.51919,114.11281,-0.00316,106.91805,-6.80273,-11.40327,0.0021,-14.88795,6.01252,0.00417,-3.63225,-8.04301,6.12464,-26.70687,-9.7858,2.50069,-0.79454,-3.48074,6.87069
725,0.19347,-0.0,0.0,-0.53924,0.0,-0.0,7.63168,-3.48594,9.868,15.33071,4.79649,-14.18527,-34.59771,-1.68624,0.00019,-22.07753,-2.51215,-0.0002,32.69609,8.94003,10.51373,12.6002,-4.90163,-14.42869,42.33385,23.87704,-11.13651,55.94133,-4.79648,36.32281,126.44158,0.00025,-102.36383,113.83776,0.00089,106.85114,-5.56,-11.15857,0.00701,-15.22086,5.51788,0.00355,-3.78135,-8.0134,5.96928,-26.85658,-9.69826,2.36887,-0.87062,-3.6765,6.87297
726,0.20149,-0.0,-0.0,-0.524,0.0,0.0,7.4814,-3.6966,9.77808,15.29243,4.82326,-13.93754,-34.38984,-1.57526,0.00015,-21.93226,-2.54827,-0.00023,32.71398,9.01896,10.38907,12.51506,-4.71545,-14.69571,41.91066,23.72044,-10.87941,56.12507,-4.68593,36.50513,126.37871,0.0003,-103.1556,113.58685,0.00354,107.1031,-4.61073,-10.84161,0.00653,-15.53031,5.12855,0.00151,-3.93147,-7.9875,5.85358,-27.00681,-9.62952,2.27224,-0.94249,-3.83153,6.87847
727,0.22343,0.0,-0.0,-0.55693,-0.0,0.0,7.35676,-3.86832,9.69796,15.24321,4.84876,-13.73449,-34.17824,-1.46023,0.00016,-21.78986,-2.58146,-0.00018,32.72686,9.12677,10.27525,12.44105,-4.49586,-14.89121,41.45766,23.60436,-10.5833,56.28968,-4.62061,36.69272,126.31683,0.00041,-103.88059,113.37345,0.00415,107.59089,-4.04758,-10.53267,0.00278,-15.74246,4.85426,-0.0004,-4.09025,-7.94482,5.83009,-27.16313,-9.58115,2.2675,-1.01686,-3.95551,6.88108
728,0.22261,0.0,0.0,-0.61849,0.0,0.0,7.25054,-3.97419,9.62047,15.19548,4.87832,-13.59367,-33.95746,-1.34032,0.00026,-21.64826,-2.60483,-0.00011,32.72701,9.25318,10.19751,12.37899,-4.26154,-15.01391,40.99166,23.52525,-10.26101,56.44177,-4.58444,36.87439,126.24524,0.00025,-104.57607,113.21788,0.00308,108.26408,-3.83375,-10.28067,-0.0009,-15.82866,4.74831,-0.00112,-4.26161,-7.88138,5.901,-27.32917,-9.55029,2.35824,-1.09495,-4.06972,6.87942
729,0.1819,0.0,0.0,-0.67727,-0.0,0.0,7.14985,-4.02556,9.55014,15.15725,4.90515,-13.50708,-33.72137,-1.21665,0.00044,-21.50465,-2.61823,-7e-05,32.70808,9.3852,10.16203,12.32618,-4.02815,-15.08627,40.53234,23.46407,-9.92958,56.57316,-4.56555,37.03687,126.1447,-7e-05,-105.26912,113.13849,0.00096,109.08164,-3.83059,-10.0906,-0.00302,-15.80272,4.86564,-0.00057,-4.44184,-7.80804,6.02172,-27.50256,-9.52967,2.49895,-1.17289,-4.19253,6.88198
730,0.0979,0.0,0.0,-0.69589,-0.0,0.0,7.04332,-4.05398,9.4883,15.12701,4.92333,-13.43989,-33.46487,-1.08915,0.00063,-21.35479,-2.63102,-6e-05,32.66584,9.5126,10.16574,12.27709,-3.80249,-15.1483,40.09875,23.40022,-9.60386,56.6689,-4.55886,37.1687,126.00108,-0.00016,-105.87395,113.14102,-0.00117,109.90455,-3.89878,-9.93575,-0.00389,-15.69776,5.15056,0.00026,-4.62228,-7.73828,6.12995,-27.67651,-9.50749,2.62669,-1.24622,-4.33187,6.90127
731,-0.01784,0.0,0.0,-0.66223,0.0,0.0,6.92517,-4.08939,9.4341,15.10137,4.92828,-13.36686,-33.18579,-0.96402,0.00065,-21.19581,-2.65059,-4e-05,32.60007,9.6312,10.19294,12.22778,-3.58326,-15.22284,39.70046,23.32114,-9.29568,56.71783,-4.56364,37.26683,125.81774,-0.00014,-106.30596,113.21387,-0.00235,110.55339,-3.98286,-9.79925,-0.00406,-15.5484,5.44848,0.00036,-4.79674,-7.67987,6.18228,-27.84619,-9.47404,2.69827,-1.31168,-4.48538,6.94491
732,-0.12955,0.0,-0.0,-0.61414,0.0,-0.0,6.79401,-4.14974,9.39672,15.08288,4.90529,-13.30984,-32.88657,-0.86313,0.00037,-21.02841,-2.66937,4e-05,32.5189,9.74534,10.20699,12.18107,-3.36359,-15.28463,39.33027,23.2237,-9.01492,56.72372,-4.57906,37.34167,125.61804,-0.00051,-106.64806,113.32953,-0.00254,110.94595,-4.1173,-9.70692,-0.00331,-15.38555,5.63434,-0.00034,-4.9666,-7.63694,6.17612,-28.01336,-9.43215,2.7096,-1.36543,-4.6441,7.01024
733,-0.19753,-0.0,0.0,-0.60183,0.0,0.0,6.64937,-4.22829,9.37479,15.07447,4.84906,-13.30114,-32.5736,-0.80556,-5e-05,-20.85423,-2.67962,0.0001,32.43716,9.86293,10.18106,12.1443,-3.13652,-15.3068,38.96628,23.11242,-8.76678,56.70713,-4.59943,37.41285,125.43796,-0.00091,-107.03632,113.45168,-0.00238,111.10013,-4.37057,-9.71903,-0.00071,-15.23189,5.68735,-0.00122,-5.13736,-7.61599,6.14164,-28.1834,-9.39949,2.68604,-1.40429,-4.79837,7.0838
734,-0.20574,0.0,-0.0,-0.64152,0.0,-0.0,6.48844,-4.29607,9.34302,15.07226,4.78292,-13.33239,-32.25495,-0.78794,-0.0004,-20.67297,-2.69111,5e-05,32.36984,9.9885,10.12232,12.12339,-2.89895,-15.31221,38.58504,22.99668,-8.54905,56.69311,-4.61211,37.4964,125.3144,-0.00086,-107.41663,113.54732,-0.00235,111.01179,-4.78197,-9.89971,0.00408,-15.09661,5.64101,-0.00179,-5.30965,-7.62603,6.11121,-28.3569,-9.39693,2.65393,-1.42905,-4.94177,7.14749
735,-0.16697,0.0,-0.0,-0.72191,0.0,-0.0,6.30739,-4.33566,9.28873,15.06975,4.73937,-13.37229,-31.93833,-0.79584,-0.00059,-20.48393,-2.71951,-0.00011,32.32783,10.12231,10.04295,12.12075,-2.6507,-15.34295,38.17889,22.88694,-8.35575,56.69434,-4.60187,37.59518,125.27066,-0.00112,-107.54855,113.59896,-0.00251,110.64269,-5.3329,-10.28123,0.00948,-14.97882,5.5308,-0.00186,-5.47462,-7.67162,6.09462,-28.52513,-9.43244,2.62051,-1.44421,-5.07065,7.18799
736,-0.11426,0.0,-0.0,-0.82004,-0.0,-0.0,6.10529,-4.36094,9.23275,15.06083,4.73761,-13.39879,-31.62927,-0.81843,-0.00063,-20.289,-2.77045,-0.00033,32.3144,10.2628,9.93812,12.1342,-2.39291,-15.41821,37.76637,22.7914,-8.1833,56.70272,-4.55987,37.70104,125.30307,-0.00237,-107.18518,113.61118,-0.00255,110.10285,-5.96057,-10.82269,0.01231,-14.88152,5.43919,-0.00141,-5.61985,-7.74611,6.08102,-28.67547,-9.4957,2.57836,-1.45635,-5.18271,7.2015
737,-0.08247,0.0,-0.0,-0.89538,0.0,0.0,5.88431,-4.39248,9.1944,15.03326,4.7859,-13.38991,-31.32866,-0.84223,-0.00049,-20.09249,-2.84358,-0.00053,32.3202,10.40938,9.81213,12.15494,-2.12705,-15.54455,37.38565,22.71413,-8.03113,56.69584,-4.49062,37.80247,125.37882,-0.00366,-106.20213,113.6025,-0.00215,109.68715,-6.59301,-11.39197,0.01042,-14.82136,5.49059,-0.0008,-5.74006,-7.83174,6.05999,-28.80168,-9.56633,2.52491,-1.47442,-5.27641,7.19406
738,-0.08192,0.0,-0.0,-0.90467,-0.0,0.0,5.64911,-4.43757,9.17328,14.96992,4.88038,-13.33026,-31.03218,-0.85024,-0.00025,-19.89959,-2.93413,-0.00063,32.32526,10.56531,9.68849,12.16999,-1.85301,-15.71571,37.07013,22.65503,-7.89545,56.65421,-4.41145,37.8897,125.45187,-0.00348,-104.68527,113.58568,-0.00146,109.6332,-7.17498,-11.81279,0.00477,-14.821,5.72567,-0.00036,-5.84211,-7.90635,6.03762,-28.90906,-9.6263,2.47459,-1.50732,-5.35009,7.1792
739,-0.08897,-0.0,0.0,-0.83448,0.0,-0.0,5.40809,-4.49881,9.17151,14.86386,4.99431,-13.24102,-30.73295,-0.83392,-6e-05,-19.7165,-3.02534,-0.00052,32.30875,10.73581,9.58535,12.16905,-1.57034,-15.89178,36.82053,22.61299,-7.76077,56.57439,-4.34295,37.95869,125.49089,-0.00204,-102.94453,113.55532,-0.00093,109.92564,-7.67569,-11.9626,-0.00108,-14.89148,6.03363,0.00016,-5.94199,-7.95326,6.03469,-29.01211,-9.66832,2.45323,-1.55842,-5.40416,7.1715
740,-0.06907,0.0,-0.0,-0.71097,-0.0,-0.0,5.17175,-4.58407,9.20682,14.73155,5.08125,-13.17616,-30.42447,-0.79818,-2e-05,-19.55068,-3.09144,-0.00025,32.25702,10.92188,9.5027,12.14968,-1.2841,-16.01071,36.59359,22.5909,-7.59705,56.46592,-4.29594,38.01347,125.50086,-0.00081,-101.40064,113.49454,-0.00111,110.31169,-8.08575,-11.85766,-0.00379,-15.01575,6.22795,0.00102,-6.05923,-7.96994,6.07342,-29.1298,-9.69869,2.48241,-1.62116,-5.44605,7.17902
741,-0.00691,0.0,0.0,-0.58478,0.0,0.0,4.94858,-4.7076,9.30129,14.60836,5.09286,-13.18476,-30.10214,-0.75685,-0.0001,-19.40815,-3.11099,6e-05,32.16701,11.11877,9.42774,12.11744,-1.00531,-16.02553,36.31796,22.59502,-7.36773,56.33551,-4.26548,38.06341,125.52161,0.0003,-100.42373,113.393,-0.00219,110.47305,-8.40799,-11.65854,-0.00266,-15.14208,6.17061,0.00149,-6.21187,-7.96938,6.16679,-29.28079,-9.73441,2.56894,-1.67829,-5.48807,7.20006
742,0.07837,0.0,-0.0,-0.49404,0.0,-0.0,4.74247,-4.87501,9.44513,14.5217,5.00568,-13.26215,-29.76487,-0.71778,-0.0001,-19.28744,-3.08461,0.00023,32.04522,11.32098,9.35814,12.08012,-0.74265,-15.94841,35.92991,22.62499,-7.04568,56.17524,-4.23823,38.11615,125.60282,0.00318,-100.21646,113.26147,-0.0033,110.25154,-8.64334,-11.58032,0.00016,-15.19763,5.84717,0.00041,-6.40844,-7.97114,6.31537,-29.47479,-9.79368,2.7056,-1.70791,-5.53701,7.2269
743,0.13488,-0.0,0.0,-0.43594,0.0,0.0,4.55273,-5.06249,9.57046,14.46578,4.84164,-13.33089,-29.41674,-0.66918,0.00017,-19.1766,-3.04329,0.0002,31.90265,11.52582,9.32434,12.04061,-0.49516,-15.86589,35.40825,22.66325,-6.62642,55.96811,-4.20798,38.17297,125.77362,0.00833,-100.78338,113.13236,-0.00311,109.71832,-8.7708,-11.77612,0.00145,-15.12082,5.35801,-0.002,-6.63801,-7.98814,6.50713,-29.70182,-9.88373,2.87617,-1.69563,-5.58687,7.25338
744,0.10833,-0.0,0.0,-0.3859,0.0,-0.0,4.37346,-5.22391,9.59203,14.40862,4.65456,-13.29989,-29.06787,-0.59162,0.00064,-19.05828,-3.02667,-0.0,31.75147,11.73209,9.36427,11.99555,-0.25412,-15.8772,34.78482,22.67747,-6.12875,55.70617,-4.1848,38.23258,126.0271,0.01311,-101.94011,113.04454,-0.00144,109.03055,-8.73963,-12.27,-0.0007,-14.89526,4.85074,-0.00393,-6.8681,-8.02084,6.7188,-29.92984,-9.99593,3.05896,-1.64322,-5.62251,7.27856
745,-0.01257,0.0,-0.0,-0.33551,-0.0,-0.0,4.19221,-5.32161,9.47947,14.32078,4.49268,-13.14971,-28.73132,-0.48383,0.00102,-18.91857,-3.04888,-0.00026,31.60307,11.93765,9.47524,11.93918,-0.01077,-16.00639,34.12341,22.63854,-5.58513,55.40359,-4.18826,38.30054,126.32647,0.01438,-103.36623,113.02205,0.00066,108.30626,-8.49751,-12.96263,-0.00497,-14.56288,4.45366,-0.00387,-7.05867,-8.06308,6.9226,-30.11893,-10.11383,3.23072,-1.56682,-5.63071,7.30375
746,-0.18713,0.0,-0.0,-0.29668,0.0,-0.0,3.99353,-5.3413,9.26884,14.19267,4.3799,-12.93741,-28.41631,-0.36564,0.00114,-18.752,-3.09396,-0.00045,31.46269,12.14056,9.61669,11.86636,0.23836,-16.19629,33.48287,22.53898,-5.03009,55.09191,-4.23213,38.39352,126.62519,0.01198,-104.76017,113.06352,0.00184,107.66154,-8.03549,-13.69912,-0.00773,-14.20638,4.24743,-0.00208,-7.18565,-8.11172,7.09911,-30.24532,-10.22704,3.37473,-1.48768,-5.60925,7.32862
747,-0.35708,0.0,-0.0,-0.27827,-0.0,-0.0,3.76737,-5.2837,9.01793,14.0325,4.32352,-12.7282,-28.12201,-0.26077,0.00101,-18.56032,-3.14104,-0.00054,31.32379,12.34313,9.75353,11.77399,0.49295,-16.37627,32.89016,22.39581,-4.49259,54.80157,-4.31594,38.53164,126.88755,0.00821,-105.97216,113.14966,0.00145,107.27114,-7.41669,-14.35252,-0.00631,-13.90654,4.26171,7e-05,-7.25571,-8.17072,7.24902,-30.31603,-10.33945,3.49001,-1.42206,-5.56688,7.3514
748,-0.48103,0.0,-0.0,-0.27833,0.0,-0.0,3.51691,-5.16261,8.7829,13.85756,4.31745,-12.55573,-27.83638,-0.1906,0.00063,-18.34865,-3.1794,-0.00053,31.17016,12.55507,9.86788,11.66246,0.75393,-16.50069,32.33982,22.23802,-3.99646,54.54596,-4.42947,38.72305,127.09328,0.00505,-106.98324,113.25708,0.00013,107.28298,-6.77989,-14.86382,-0.00141,-13.69485,4.46153,0.00163,-7.29993,-8.24791,7.39478,-30.36225,-10.46699,3.59423,-1.37496,-5.51469,7.37312
749,-0.55093,0.0,0.0,-0.29887,0.0,0.0,3.25981,-5.01322,8.62332,13.68598,4.33606,-12.43727,-27.54177,-0.17658,2e-05,-18.12044,-3.20146,-0.00038,30.9847,12.78949,9.93774,11.53446,1.02463,-16.53715,31.81429,22.09188,-3.56757,54.31839,-4.565,38.95508,127.22151,0.00289,-107.81132,113.36559,-0.0008,107.66133,-6.31959,-15.21617,0.00329,-13.54437,4.72978,0.00248,-7.353,-8.34955,7.57047,-30.4183,-10.6286,3.71642,-1.34183,-5.45669,7.40033
750,-0.59182,0.0,0.0,-0.35539,0.0,-0.0,3.01918,-4.88817,8.5944,13.53027,4.34016,-12.38713,-27.22311,-0.23175,-0.00071,-17.87355,-3.19506,-3e-05,30.75761,13.05161,9.93361,11.39124,1.30492,-16.45869,31.30312,21.97436,-3.23771,54.10035,-4.72638,39.20182,127.23553,0.00116,-108.4692,113.45866,-0.00063,108.18692,-6.24825,-15.38212,0.00257,-13.41422,4.90628,0.00271,-7.43545,-8.47725,7.80608,-30.50406,-10.83742,3.88376,-1.31666,-5.3884,7.44375
751,-0.64268,0.0,0.0,-0.46889,-0.0,0.0,2.80909,-4.83572,8.72274,13.3947,4.297,-12.3984,-26.87262,-0.34728,-0.00128,-17.60195,-3.14915,0.00045,30.48972,13.33046,9.84407,11.23307,1.58451,-16.26084,30.80767,21.89426,-3.03352,53.87458,-4.92559,39.44057,127.09264,-0.001,-108.99754,113.52345,0.0002,108.59894,-6.73235,-15.31112,-0.00721,-13.28469,4.87448,0.00224,-7.55016,-8.62848,8.11448,-30.62175,-11.09606,4.1092,-1.29772,-5.30388,7.51521
752,-0.73416,0.0,-0.0,-0.65656,0.0,-0.0,2.62806,-4.87527,8.99403,13.27716,4.19645,-12.42816,-26.49118,-0.49505,-0.0015,-17.30388,-3.06399,0.00089,30.1925,13.60379,9.69011,11.0649,1.84522,-15.97549,30.33552,21.85611,-2.95253,53.63627,-5.16832,39.66088,126.77736,-0.00426,-109.50114,113.55193,0.00066,108.6774,-7.79998,-14.9747,-0.02305,-13.13616,4.60809,0.00095,-7.68939,-8.79906,8.48412,-30.76343,-11.39618,4.38376,-1.28645,-5.20271,7.62267
753,-0.88062,-0.0,0.0,-0.93514,0.0,0.0,2.46505,-4.98715,9.36682,13.17588,4.05282,-12.42474,-26.08973,-0.64732,-0.00137,-16.98913,-2.95216,0.0011,29.88733,13.85257,9.50181,10.89888,2.07394,-15.656,29.8947,21.86277,-2.94743,53.39606,-5.43953,39.86208,126.32755,-0.00818,-110.11124,113.54035,-0.0,108.29062,-9.2837,-14.42136,-0.03477,-12.92136,4.16153,-0.00106,-7.84182,-8.98465,8.87865,-30.91838,-11.7197,4.67554,-1.28308,-5.08946,7.7635
754,-1.07794,0.0,0.0,-1.31677,0.0,0.0,2.30535,-5.12485,9.78547,13.09511,3.90009,-12.36169,-25.68783,-0.7867,-0.00095,-16.67612,-2.83445,0.00096,29.602,14.06884,9.2975,10.74893,2.27179,-15.36032,29.49134,21.91447,-2.93903,53.17244,-5.70212,40.04692,125.82547,-0.01092,-110.91021,113.4863,-0.00171,107.47936,-10.87799,-13.7712,-0.03413,-12.59956,3.63496,-0.00276,-7.99487,-9.17955,9.24672,-31.07526,-12.04147,4.93915,-1.2832,-4.97046,7.92051
755,-1.30375,0.0,0.0,-1.78958,-0.0,-0.0,2.13368,-5.24362,10.1821,13.04293,3.78056,-12.23951,-25.30684,-0.89875,-0.00036,-16.38106,-2.73608,0.00052,29.36119,14.25245,9.0914,10.62125,2.45131,-15.1484,29.1272,22.00561,-2.85144,52.97764,-5.91236,40.21682,125.35836,-0.01061,-111.89381,113.38664,-0.00352,106.44897,-12.28429,-13.14075,-0.02276,-12.20448,3.11534,-0.00299,-8.13548,-9.37547,9.54158,-31.22218,-12.3358,5.13445,-1.27878,-4.85111,8.06519
756,-1.53992,-0.0,0.0,-2.31854,0.0,0.0,1.94556,-5.32767,10.5014,13.02502,3.72375,-12.08231,-24.96263,-0.97281,0.00017,-16.10997,-2.67674,1e-05,29.17392,14.40871,8.89203,10.50788,2.62974,-15.05834,28.79603,22.12291,-2.64067,52.80555,-6.0415,40.36736,124.98466,-0.00701,-112.96082,113.24327,-0.00423,105.44409,-13.30693,-12.58701,-0.00829,-11.83258,2.63911,-0.00184,-8.25319,-9.56306,9.73965,-31.34902,-12.58499,5.24316,-1.26448,-4.73157,8.16959
757,-1.80772,0.0,-0.0,-2.87303,-0.0,0.0,1.75771,-5.3966,10.74202,13.04417,3.73431,-11.93838,-24.6601,-1.0139,0.00043,-15.86147,-2.6592,-0.00036,29.02765,14.54806,8.68855,10.39159,2.82069,-15.07183,28.48283,22.24577,-2.29982,52.63079,-6.08964,40.48584,124.73159,-0.00175,-113.9484,113.07375,-0.00328,104.66512,-13.83036,-12.13736,0.0024,-11.54279,2.22157,-0.00043,-8.34422,-9.73457,9.84316,-31.45142,-12.78278,5.27039,-1.24219,-4.60763,8.22292
758,-2.16202,0.0,0.0,-3.4283,0.0,0.0,1.59674,-5.48422,10.95463,13.09955,3.80019,-11.85522,-24.39207,-1.04057,0.00039,-15.63486,-2.67124,-0.00051,28.89572,14.68211,8.46457,10.26005,3.02637,-15.12533,28.16821,22.3492,-1.84947,52.42297,-6.08544,40.55906,124.6113,0.00279,-114.74335,112.91279,-0.00143,104.25386,-13.77458,-11.84665,0.0047,-11.30991,1.89717,0.00052,-8.41275,-9.88456,9.86601,-31.53256,-12.92956,5.23123,-1.21863,-4.47835,8.23965
759,-2.62735,0.0,-0.0,-3.92647,0.0,-0.0,1.47216,-5.60724,11.18564,13.17748,3.90375,-11.8403,-24.14508,-1.06641,0.00023,-15.43248,-2.69829,-0.00049,28.75444,14.81986,8.23285,10.11508,3.23835,-15.16353,27.83726,22.4122,-1.3289,52.16617,-6.07231,40.58764,124.62668,0.00523,-115.34041,112.79887,-0.0002,104.25066,-13.12761,-11.78718,-0.00241,-11.08135,1.70975,0.0011,-8.46813,-10.00975,9.81846,-31.60097,-13.0263,5.13658,-1.19934,-4.34926,8.24818
760,-3.14038,0.0,0.0,-4.268,-0.0,-0.0,1.36164,-5.7548,11.4321,13.24771,4.02061,-11.85496,-23.90755,-1.08906,0.00013,-15.25648,-2.73122,-0.0004,28.59523,14.96636,8.04371,9.9709,3.44456,-15.17093,27.4872,22.42887,-0.79269,51.86863,-6.08676,40.59113,124.75834,0.00544,-115.77991,112.75575,-0.00037,104.55223,-12.03299,-11.98423,-0.01347,-10.8385,1.68264,0.00155,-8.51956,-10.11029,9.70628,-31.66552,-13.07535,4.99177,-1.18403,-4.22968,8.27166
761,-3.56633,0.0,-0.0,-4.37114,-0.0,-0.0,1.224,-5.90357,11.65057,13.27732,4.11643,-11.85159,-23.67409,-1.09763,0.00014,-15.10695,-2.76407,-0.00029,28.42333,15.12231,7.95472,9.84568,3.63473,-15.15493,27.12582,22.41367,-0.30466,51.55769,-6.14111,40.59923,124.95391,0.00412,-116.08271,112.7816,-0.00122,104.96313,-10.82727,-12.37642,-0.01936,-10.61287,1.81568,0.00172,-8.57003,-10.19115,9.54444,-31.72888,-13.08706,4.80874,-1.16641,-4.12931,8.31791
762,-3.7844,-0.0,0.0,-4.24072,-0.0,-0.0,1.02832,-6.03333,11.79508,13.251,4.15814,-11.81597,-23.44612,-1.08504,0.00019,-14.98256,-2.79016,-0.00019,28.24902,15.28468,7.99394,9.75177,3.80393,-15.11499,26.76187,22.39487,0.08305,51.26657,-6.2218,40.63633,125.14097,0.00236,-116.22478,112.85179,-0.00169,105.27872,-9.92642,-12.8196,-0.01688,-10.46758,2.07951,0.00115,-8.61213,-10.26057,9.36985,-31.78306,-13.08329,4.61852,-1.13986,-4.05441,8.37917
763,-3.78239,0.0,0.0,-3.98751,0.0,-0.0,0.77818,-6.12918,11.85465,13.18253,4.1315,-11.78522,-23.23015,-1.056,0.00018,-14.8812,-2.80099,-0.0001,28.07971,15.44918,8.14084,9.68968,3.95468,-15.02547,26.39888,22.39938,0.35753,51.02061,-6.30431,40.70943,125.25865,0.00139,-116.13047,112.9338,-0.00155,105.34104,-9.60864,-13.12519,-0.0123,-10.45672,2.40169,-0.00015,-8.63072,-10.32614,9.23567,-31.81188,-13.09161,4.46743,-1.10401,-4.00435,8.43965
764,-3.67705,0.0,0.0,-3.77934,0.0,-0.0,0.51119,-6.18142,11.8665,13.10773,4.04165,-11.83156,-23.03378,-1.02659,8e-05,-14.79846,-2.78722,-1e-05,27.9176,15.6126,8.33511,9.64916,4.09558,-14.84183,26.03855,22.44034,0.55287,50.82912,-6.37302,40.80621,125.28492,0.00169,-115.71864,113.00536,-0.00122,105.11983,-9.87286,-13.1439,-0.01197,-10.5913,2.705,-0.00147,-8.61247,-10.39153,9.18505,-31.80119,-13.13212,4.394,-1.06518,-3.97173,8.48789
765,-3.61508,-0.0,-0.0,-3.73184,0.0,0.0,0.26564,-6.19196,11.88166,13.05688,3.89327,-12.0133,-22.86133,-1.00963,-2e-05,-14.72411,-2.74246,0.00012,27.76449,15.77127,8.5151,9.61453,4.23649,-14.53918,25.6876,22.51271,0.72629,50.68507,-6.43289,40.9004,125.24006,0.0025,-114.9983,113.06345,-0.00091,104.72957,-10.47198,-12.85348,-0.01369,-10.82548,2.95314,-0.00216,-8.55522,-10.4549,9.22391,-31.74859,-13.20541,4.40445,-1.03122,-3.94526,8.52132
766,-3.64798,0.0,-0.0,-3.82751,-0.0,-0.0,0.04558,-6.18107,11.91762,13.0284,3.67729,-12.32958,-22.71021,-0.99999,0.0,-14.64155,-2.66822,0.00027,27.62454,15.91921,8.65317,9.56921,4.38463,-14.14861,25.3602,22.59575,0.91871,50.569,-6.50637,40.95941,125.16473,0.00267,-114.12837,113.11873,-0.00044,104.29192,-11.08947,-12.36393,-0.01221,-11.06754,3.11816,-0.00211,-8.46948,-10.50884,9.31656,-31.66499,-13.29088,4.46865,-1.00748,-3.91353,8.54152
767,-3.71313,0.0,-0.0,-3.94901,0.0,-0.0,-0.17679,-6.18482,11.95359,12.99175,3.38555,-12.71827,-22.56962,-0.98011,0.00015,-14.53487,-2.57625,0.00041,27.49952,16.05088,8.7535,9.4998,4.54371,-13.74661,25.07254,22.66224,1.12887,50.45344,-6.61876,40.95507,125.09075,0.00206,-113.36559,113.18497,0.00029,103.83221,-11.53397,-11.83278,-0.00735,-11.22151,3.14511,-0.00193,-8.37282,-10.54288,9.40848,-31.56863,-13.35776,4.54024,-0.99563,-3.86856,8.55043
768,-3.72211,0.0,-0.0,-3.98878,0.0,-0.0,-0.43005,-6.23689,11.96278,12.9168,3.03739,-13.09458,-22.42586,-0.93903,0.00031,-14.39893,-2.48577,0.00044,27.38601,16.1657,8.82027,9.40015,4.71566,-13.41073,24.83245,22.69179,1.32255,50.30817,-6.78314,40.87607,125.02872,0.00137,-112.93288,113.27415,0.00108,103.35847,-11.7833,-11.38081,-0.00214,-11.23332,3.00472,-0.00233,-8.28305,-10.54837,9.45923,-31.47775,-13.38245,4.58516,-0.99476,-3.80617,8.54615
769,-3.65975,0.0,-0.0,-3.93676,0.0,-0.0,-0.71789,-6.34739,11.944,12.80222,2.6855,-13.39818,-22.27174,-0.88635,0.00036,-14.2424,-2.41626,0.00033,27.2785,16.2687,8.83008,9.27135,4.90196,-13.18156,24.63075,22.67897,1.46768,50.10854,-6.99444,40.73272,124.97793,0.00119,-112.87341,113.39417,0.00157,102.94219,-11.88157,-11.05996,0.00163,-11.1068,2.741,-0.00299,-8.21368,-10.52382,9.4639,-31.40594,-13.3617,4.59943,-1.00495,-3.72339,8.51777
770,-3.59368,0.0,0.0,-3.87036,0.0,-0.0,-1.02048,-6.50737,11.9235,12.67574,2.39407,-13.60515,-22.1105,-0.84688,0.00024,-14.08112,-2.38256,0.00012,27.17493,16.36763,8.74502,9.12121,5.10225,-13.06125,24.44273,22.63026,1.56185,49.84365,-7.23385,40.54901,124.94083,0.00134,-112.95332,113.54304,0.00155,102.65908,-11.85299,-10.84857,0.00408,-10.89229,2.42135,-0.0031,-8.1714,-10.47743,9.45207,-31.35971,-13.31448,4.60722,-1.02667,-3.61807,8.45015
771,-3.60015,-0.0,0.0,-3.87405,0.0,-0.0,-1.31423,-6.71182,11.93135,12.57075,2.20818,-13.70753,-21.95146,-0.84212,2e-05,-13.92833,-2.39367,-0.00013,27.08022,16.46926,8.55175,8.96478,5.31212,-13.03879,24.23946,22.55363,1.62917,49.51949,-7.47906,40.34882,124.92857,0.00069,-112.73834,113.70646,0.00085,102.55442,-11.70235,-10.67412,0.00599,-10.66856,2.09143,-0.00226,-8.15461,-10.42516,9.46845,-31.33752,-13.27278,4.64358,-1.05525,-3.49049,8.3385
772,-3.70105,-0.0,-0.0,-3.9775,0.0,-0.0,-1.58583,-6.96711,11.98066,12.5063,2.13769,-13.69905,-21.80317,-0.87725,-0.00017,-13.7898,-2.45084,-0.00033,27.00484,16.57703,8.28042,8.82248,5.52254,-13.10842,23.99919,22.45111,1.69374,49.15596,-7.71325,40.14687,124.95842,-0.00197,-111.87056,113.86596,-0.00055,102.71424,-11.4591,-10.47535,0.00753,-10.50997,1.81601,-0.00082,-8.15445,-10.38581,9.54883,-31.33109,-13.26772,4.73417,-1.07739,-3.34435,8.19865
773,-3.85592,-0.0,0.0,-4.14342,0.0,0.0,-1.83352,-7.27672,12.06108,12.48173,2.16006,-13.58083,-21.6687,-0.94023,-0.00025,-13.66562,-2.54613,-0.00042,26.95726,16.68933,7.99235,8.71337,5.72149,-13.26747,23.71202,22.3212,1.75838,48.78159,-7.92589,39.94984,125.04805,-0.0062,-110.3371,114.00925,-0.00214,103.25611,-11.20159,-10.26291,0.00813,-10.44308,1.70436,0.00033,-8.15966,-10.37588,9.70473,-31.33016,-13.31894,4.88304,-1.07564,-3.18739,8.06259
774,-4.00491,0.0,-0.0,-4.31135,0.0,0.0,-2.05887,-7.62395,12.15289,12.48619,2.23322,-13.38277,-21.54608,-1.01257,-0.00023,-13.55491,-2.66199,-0.00039,26.93469,16.80117,7.74764,8.6457,5.89779,-13.49466,23.37779,22.16978,1.81213,48.42887,-8.10641,39.76643,125.21108,-0.00928,-108.49843,114.13252,-0.00307,104.19369,-11.01441,-10.13015,0.00724,-10.43943,1.85051,0.00082,-8.16261,-10.40648,9.92252,-31.32842,-13.43136,5.0731,-1.0387,-3.03051,7.96218
775,-4.12077,0.0,0.0,-4.45959,0.0,0.0,-2.25883,-7.96774,12.24642,12.513,2.31626,-13.1736,-21.43318,-1.08214,-0.00014,-13.45846,-2.77375,-0.00026,26.92367,16.90939,7.57752,8.61387,6.0459,-13.73565,23.00046,22.01877,1.8582,48.12717,-8.24154,39.61417,125.45362,-0.00816,-106.85577,114.23562,-0.00286,105.37001,-10.90853,-10.19919,0.00429,-10.45259,2.2603,0.00089,-8.16101,-10.48082,10.17476,-31.32477,-13.59727,5.27757,-0.96622,-2.88398,7.91315
776,-4.19854,0.0,-0.0,-4.59119,0.0,0.0,-2.43285,-8.25404,12.33171,12.55714,2.38661,-13.0285,-21.33063,-1.14171,-1e-05,-13.37565,-2.85805,-9e-05,26.90514,17.01444,7.49201,8.59898,6.16699,-13.92547,22.58629,21.90214,1.92922,47.89138,-8.32432,39.51337,125.7692,-0.00225,-105.77856,114.31774,-0.00178,106.55115,-10.78706,-10.54397,-0.00186,-10.458,2.84053,0.00066,-8.15333,-10.59135,10.43593,-31.3179,-13.7999,5.4758,-0.86941,-2.75383,7.90878
777,-4.20784,0.0,-0.0,-4.66199,-0.0,0.0,-2.59723,-8.43726,12.37563,12.6002,2.43891,-12.9786,-21.23887,-1.17957,0.00012,-13.30043,-2.90293,6e-05,26.85419,17.11661,7.50743,8.56882,6.26475,-14.02883,22.14873,21.85022,2.07027,47.71458,-8.36661,39.4722,126.13492,0.00551,-105.38399,114.37807,-0.00054,107.55743,-10.50107,-11.14756,-0.01086,-10.46242,3.44661,9e-05,-8.13288,-10.71855,10.6937,-31.29983,-14.0165,5.66419,-0.774,-2.6423,7.92599
778,-4.12762,0.0,0.0,-4.60491,-0.0,0.0,-2.77435,-8.50501,12.34679,12.61637,2.47352,-13.00314,-21.15642,-1.18572,0.00021,-13.22476,-2.91106,0.00015,26.75126,17.2142,7.63592,8.4936,6.34312,-14.05017,21.71426,21.87464,2.30447,47.57431,-8.39856,39.47555,126.5125,0.01053,-105.52863,114.41904,0.00027,108.29986,-9.96552,-11.89787,-0.01851,-10.48117,3.94039,-0.00058,-8.08739,-10.83426,10.95017,-31.25548,-14.222,5.85608,-0.71125,-2.54851,7.93854
779,-4.02737,-0.0,-0.0,-4.43578,0.0,-0.0,-2.96471,-8.48684,12.26317,12.59621,2.49006,-13.06439,-21.0841,-1.1679,0.00022,-13.14608,-2.89481,0.00017,26.6035,17.30703,7.84535,8.37022,6.40874,-14.01125,21.32106,21.96467,2.60938,47.44913,-8.45246,39.48885,126.85604,0.01057,-105.89181,114.44736,0.0005,108.74095,-9.25376,-12.62908,-0.01967,-10.51674,4.22787,-0.00093,-8.00519,-10.91157,11.21472,-31.17002,-14.39528,6.0712,-0.69747,-2.46646,7.92781
780,-4.03349,-0.0,-0.0,-4.24966,0.0,0.0,-3.15032,-8.42966,12.17819,12.54868,2.48804,-13.12932,-21.02717,-1.14745,0.00016,-13.06749,-2.86992,0.00013,26.44405,17.39745,8.06488,8.22194,6.47143,-13.93876,21.00646,22.09422,2.92118,47.32933,-8.54614,39.47542,127.12534,0.00735,-106.16283,114.4716,0.0003,108.85615,-8.59241,-13.19885,-0.01427,-10.5659,4.26938,-0.00074,-7.88456,-10.938,11.49311,-31.04001,-14.52709,6.32,-0.72711,-2.38474,7.88604
781,-4.22945,0.0,-0.0,-4.13346,0.0,0.0,-3.3177,-8.36619,12.13375,12.48748,2.46962,-13.17684,-20.99102,-1.14176,8e-05,-12.99252,-2.84962,7e-05,26.30919,17.48667,8.22564,8.07675,6.54052,-13.86143,20.79013,22.23228,3.1668,47.21186,-8.67987,39.41385,127.29984,0.00386,-106.16852,114.49863,-6e-05,108.63583,-8.23463,-13.53879,-0.0077,-10.63798,4.07235,0.00011,-7.74126,-10.92355,11.77721,-30.88242,-14.62347,6.59089,-0.78214,-2.29041,7.8147
782,-4.63068,-0.0,0.0,-4.14297,0.0,0.0,-3.46005,-8.3117,12.15149,12.42934,2.44009,-13.21189,-20.97705,-1.15901,3e-05,-12.92385,-2.83844,1e-05,26.22176,17.57329,8.27947,7.95334,6.62159,-13.79348,20.66417,22.35162,3.3039,47.08818,-8.84529,39.30367,127.38743,0.00165,-105.86244,114.53316,-0.00039,108.1264,-8.28805,-13.65722,-0.00453,-10.75788,3.68996,0.00144,-7.609,-10.89739,12.04325,-30.73497,-14.70204,6.84983,-0.84136,-2.17349,7.72273
783,-5.20285,0.0,0.0,-4.3121,0.0,0.0,-3.57207,-8.27855,12.23918,12.39496,2.40521,-13.26119,-20.98259,-1.20005,2e-05,-12.8657,-2.83061,-3e-05,26.18844,17.65518,8.20879,7.86083,6.71389,-13.72726,20.59726,22.43516,3.33905,46.93968,-9.0333,39.15868,127.42175,0.0005,-105.31362,114.58131,-0.0005,107.44558,-8.63773,-13.62607,-0.00434,-10.9501,3.21875,0.00257,-7.52712,-10.89471,12.2637,-30.64209,-14.78458,7.05678,-0.88591,-2.03108,7.62488
784,-5.87992,-0.0,0.0,-4.6478,0.0,-0.0,-3.65296,-8.28082,12.38565,12.40462,2.36787,-13.34717,-21.00346,-1.25908,2e-05,-12.82521,-2.81524,-5e-05,26.20635,17.73167,8.03783,7.80558,6.80974,-13.64722,20.55304,22.47962,3.31158,46.74654,-9.23211,38.9952,127.44386,-0.00032,-104.70683,114.65351,-0.00027,106.72913,-9.03563,-13.55213,-0.00459,-11.21538,2.77074,0.00265,-7.51897,-10.94074,12.4256,-30.63066,-14.88931,7.18934,-0.90172,-1.86937,7.53693
785,-6.5874,-0.0,-0.0,-5.12962,-0.0,-0.0,-3.7107,-8.32277,12.55689,12.46954,2.32907,-13.46636,-21.03698,-1.32447,0.0,-12.8094,-2.78513,-8e-05,26.27291,17.80505,7.82746,7.79736,6.89916,-13.54944,20.51214,22.49399,3.25807,46.50574,-9.42292,38.82395,127.47756,-0.00102,-104.24062,114.76089,0.00043,106.04667,-9.28538,-13.51764,-0.00434,-11.51429,2.42688,0.00153,-7.57469,-11.03874,12.5382,-30.69097,-15.02284,7.25475,-0.87848,-1.70005,7.46932
786,-7.24047,0.0,-0.0,-5.69524,-0.0,-0.0,-3.76935,-8.38623,12.69734,12.57645,2.29201,-13.58158,-21.08187,-1.37897,-4e-05,-12.81862,-2.74483,-9e-05,26.38494,17.8792,7.65703,7.84365,6.97595,-13.45541,20.47908,22.49382,3.18761,46.24194,-9.58442,38.6494,127.52203,-0.00143,-104.01323,114.90762,0.0015,105.37549,-9.37024,-13.54196,-0.00374,-11.77121,2.20552,-1e-05,-7.65124,-11.16691,12.6236,-30.77674,-15.17363,7.28245,-0.81302,-1.53452,7.4246
787,-7.73686,0.0,-0.0,-6.22858,0.0,0.0,-3.86687,-8.43905,12.75095,12.68352,2.26088,-13.63859,-21.13383,-1.40642,-0.0001,-12.84271,-2.70966,-9e-05,26.52135,17.95546,7.59303,7.93018,7.03862,-13.40342,20.4685,22.4949,3.08614,45.99652,-9.70491,38.47314,127.57063,-0.00124,-104.03333,115.08701,0.00255,104.66699,-9.43038,-13.61729,-0.0025,-11.9041,2.07528,-0.00107,-7.68994,-11.2864,12.70207,-30.82422,-15.31374,7.30716,-0.72161,-1.3812,7.40019
788,-7.99116,0.0,-0.0,-6.59375,0.0,0.0,-4.03407,-8.45863,12.69448,12.74269,2.23476,-13.59979,-21.18358,-1.40492,-0.00015,-12.86426,-2.69527,-8e-05,26.63756,18.03108,7.65373,8.01371,7.08806,-13.42521,20.48678,22.50742,2.9423,45.80316,-9.79244,38.29773,127.63512,-4e-05,-104.26563,115.28561,0.00303,103.91891,-9.62524,-13.76489,-0.00026,-11.86493,2.00363,-0.00131,-7.6431,-11.3585,12.78493,-30.78091,-15.41196,7.35526,-0.64197,-1.24394,7.39036
789,-7.98509,-0.0,0.0,-6.69525,0.0,-0.0,-4.27432,-8.44354,12.54951,12.72827,2.20684,-13.46358,-21.22292,-1.39232,-0.00013,-12.86812,-2.70836,-8e-05,26.6891,18.10338,7.8018,8.04403,7.12705,-13.53278,20.5263,22.53251,2.76965,45.67107,-9.87329,38.1281,127.74908,0.00234,-104.65486,115.48813,0.00256,103.18997,-9.99059,-14.04367,0.00228,-11.66167,1.98263,-0.00092,-7.49757,-11.36345,12.87605,-30.63119,-15.45162,7.43847,-0.61345,-1.11923,7.38771
790,-7.79214,-0.0,-0.0,-6.52357,0.0,-0.0,-4.55954,-8.4097,12.37295,12.64943,2.17251,-13.26446,-21.25302,-1.3993,-3e-05,-12.85139,-2.74334,-8e-05,26.65762,18.17528,7.96813,7.99292,7.16015,-13.70984,20.57411,22.56421,2.60572,45.58658,-9.97807,37.9688,127.94492,0.00518,-105.16305,115.67873,0.00132,102.56229,-10.40001,-14.49607,0.00306,-11.34959,2.00524,-0.00045,-7.28233,-11.30943,12.97449,-30.40491,-15.43985,7.55257,-0.65594,-0.99714,7.38893
791,-7.55457,-0.0,0.0,-6.16034,0.0,0.0,-4.84415,-8.37767,12.23126,12.54252,2.13943,-13.05752,-21.28631,-1.45357,0.00016,-12.82601,-2.78654,-5e-05,26.56246,18.25528,8.08973,7.87091,7.1919,-13.91268,20.6231,22.59564,2.49168,45.52601,-10.12543,37.81939,128.22343,0.00677,-105.74227,115.8446,-6e-05,102.08253,-10.66513,-15.06169,0.001,-11.00251,2.0505,-0.00029,-7.05351,-11.22621,13.07349,-30.16179,-15.40143,7.67909,-0.75918,-0.86799,7.3986
792,-7.40272,0.0,-0.0,-5.72567,0.0,-0.0,-5.09341,-8.35402,12.16033,12.44726,2.13011,-12.8909,-21.33939,-1.56072,0.00039,-12.80981,-2.8252,-1e-05,26.45311,18.34839,8.14456,7.72219,7.22303,-14.0924,20.67473,22.62366,2.45015,45.46749,-10.3132,37.67227,128.54495,0.00587,-106.27972,115.98265,-0.00101,101.74539,-10.67026,-15.56815,-0.0015,-10.68063,2.10984,-0.00033,-6.86639,-11.14922,13.15944,-29.9617,-15.3637,7.79086,-0.88703,-0.73013,7.42309
793,-7.38081,0.0,-0.0,-5.31381,0.0,-0.0,-5.30386,-8.32243,12.14439,12.38515,2.16937,-12.79193,-21.42157,-1.69616,0.00054,-12.81315,-2.85103,3e-05,26.37829,18.44452,8.15552,7.59237,7.24674,-14.21626,20.7344,22.64778,2.47592,45.39698,-10.5203,37.51681,128.85083,0.00324,-106.6476,116.10087,-0.00137,101.51876,-10.42044,-15.84496,-0.00157,-10.4122,2.2037,-0.0003,-6.75297,-11.10481,13.21803,-29.84029,-15.34539,7.86376,-1.00315,-0.59227,7.45822
794,-7.47264,-0.0,-0.0,-4.99736,-0.0,-0.0,-5.49113,-8.2563,12.13819,12.36145,2.26269,-12.77011,-21.53108,-1.81978,0.00049,-12.83389,-2.85958,4e-05,26.36553,18.51956,8.15857,7.50609,7.25186,-14.27559,20.80664,22.66721,2.54197,45.31143,-10.71727,37.34845,129.09409,0.00077,-106.80097,116.2116,-0.00122,101.35896,-10.00889,-15.84011,0.00025,-10.19462,2.35932,-5e-05,-6.71557,-11.10247,13.24429,-29.80118,-15.35334,7.88929,-1.08883,-0.46703,7.48393
795,-7.66828,0.0,-0.0,-4.85462,0.0,0.0,-5.66654,-8.14143,12.10064,12.37924,2.38422,-12.81394,-21.66053,-1.89969,0.00025,-12.86488,-2.85177,5e-05,26.42782,18.55157,8.17407,7.47555,7.23129,-14.28938,20.89458,22.68107,2.61193,45.21914,-10.87949,37.17351,129.25562,-0.00033,-106.80272,116.32319,-0.00078,101.21597,-9.56764,-15.63163,0.00139,-10.00372,2.58193,0.00046,-6.73293,-11.13491,13.24336,-29.82208,-15.38283,7.87523,-1.13551,-0.36182,7.47418
796,-7.94297,0.0,0.0,-4.91832,0.0,0.0,-5.83984,-7.98949,12.00237,12.43815,2.48813,-12.88733,-21.80087,-1.92175,-8e-05,-12.90459,-2.83346,4e-05,26.56066,18.53395,8.21167,7.50252,7.18525,-14.29716,21.00131,22.6898,2.65056,45.13354,-10.9954,37.00388,129.34224,-0.00024,-106.74486,116.43667,-0.00029,101.05026,-9.22971,-15.34623,0.0007,-9.80731,2.84624,0.00121,-6.77284,-11.18466,13.2183,-29.86876,-15.41894,7.83153,-1.14378,-0.27645,7.41473
797,-8.21599,0.0,-0.0,-5.11911,0.0,0.0,-6.0289,-7.83475,11.82593,12.52495,2.53857,-12.94992,-21.94278,-1.88859,-0.00037,-12.96107,-2.81133,0.0,26.73121,18.47833,8.2815,7.56862,7.1199,-14.33243,21.12887,22.69504,2.63177,45.06133,-11.06574,36.84703,129.37709,0.00032,-106.66785,116.54915,4e-05,100.85365,-9.08578,-15.07926,-0.00092,-9.57993,3.11317,0.00207,-6.80642,-11.23517,13.15978,-29.911,-15.44289,7.7562,-1.13102,-0.20634,7.31412
798,-8.40353,0.0,-0.0,-5.3331,-0.0,0.0,-6.24694,-7.71924,11.58214,12.61918,2.53273,-12.99342,-22.07998,-1.82028,-0.00051,-13.04748,-2.78847,-7e-05,26.89361,18.4097,8.38031,7.64309,7.04651,-14.39404,21.27676,22.69948,2.54567,44.99407,-11.09726,36.70192,129.39073,0.00068,-106.55309,116.66045,0.00011,100.64245,-9.12975,-14.87755,-0.00233,-9.30911,3.35931,0.00291,-6.81782,-11.28087,13.05313,-29.93312,-15.44386,7.63778,-1.12149,-0.14495,7.19851
799,-8.4598,0.0,-0.0,-5.45015,0.0,0.0,-6.49704,-7.67429,11.30687,12.70305,2.49624,-13.05223,-22.21118,-1.74745,-0.00048,-13.1716,-2.76239,-0.00017,27.01113,18.35468,8.4836,7.69377,6.97875,-14.44523,21.44355,22.70583,2.40149,44.91232,-11.09815,36.56393,129.41199,0.00035,-106.31158,116.77467,-8e-05,100.43742,-9.24321,-14.75074,-0.00344,-8.9998,3.58582,0.00357,-6.80439,-11.32872,12.8973,-29.93313,-15.42786,7.47249,-1.13504,-0.08448,7.0936
800,-8.37043,-0.0,-0.0,-5.41042,-0.0,-0.0,-6.77703,-7.71208,11.03848,12.76602,2.45731,-13.17484,-22.33932,-1.69846,-0.0003,-13.32762,-2.72918,-0.00027,27.06677,18.33283,8.56025,7.69451,6.9306,-14.43849,21.62893,22.71307,2.22159,44.80141,-11.07756,36.43288,129.4604,-0.00086,-105.80981,116.89378,-0.00056,100.28318,-9.24759,-14.69361,-0.00477,-8.68132,3.80445,0.00388,-6.76924,-11.38856,12.71591,-29.91385,-15.41301,7.27847,-1.18378,-0.01573,7.01183
