PaulMeinheit/Bachelor_Muay_Thai/results/Sub01_Teep_finishedJointAngles0.csv
Unnamed: 0_level_0,L_MTP_ANGLE,L_MTP_ANGLE,L_MTP_ANGLE,R_MTP_ANGLE,R_MTP_ANGLE,R_MTP_ANGLE,L_ANKLE_ANGLE,L_ANKLE_ANGLE,L_ANKLE_ANGLE,R_ANKLE_ANGLE,R_ANKLE_ANGLE,R_ANKLE_ANGLE,L_KNEE_ANGLE,L_KNEE_ANGLE,L_KNEE_ANGLE,R_KNEE_ANGLE,R_KNEE_ANGLE,R_KNEE_ANGLE,L_HIP_ANGLE,L_HIP_ANGLE,L_HIP_ANGLE,R_HIP_ANGLE,R_HIP_ANGLE,R_HIP_ANGLE,L_SHOULDER_ANGLE,L_SHOULDER_ANGLE,L_SHOULDER_ANGLE,R_SHOULDER_ANGLE,R_SHOULDER_ANGLE,R_SHOULDER_ANGLE,L_ELBOW_ANGLE,L_ELBOW_ANGLE,L_ELBOW_ANGLE,R_ELBOW_ANGLE,R_ELBOW_ANGLE,R_ELBOW_ANGLE,L_WRIST_ANGLE,L_WRIST_ANGLE,L_WRIST_ANGLE,R_WRIST_ANGLE,R_WRIST_ANGLE,R_WRIST_ANGLE,NECK_ANGLE,NECK_ANGLE,NECK_ANGLE,NECK_ANGLE_SHADOW,NECK_ANGLE_SHADOW,NECK_ANGLE_SHADOW,Trunk_Joint_Angle,Trunk_Joint_Angle,Trunk_Joint_Angle
ITEM,X,Y,Z,X,Y,Z,X,Y,Z,X,Y,Z,X,Y,Z,X,Y,Z,X,Y,Z,X,Y,Z,X,Y,Z,X,Y,Z,X,Y,Z,X,Y,Z,X,Y,Z,X,Y,Z,X,Y,Z,X,Y,Z,X,Y,Z
1,-6.88284,0.0,0.0,-5.96311,-0.0,-0.0,-2.84558,-6.74411,10.04777,8.33932,3.77052,-14.53274,-6.93533,0.12092,-2e-05,-4.97954,-0.48888,0.00022,15.69928,9.1394,7.21515,3.47687,2.60271,-14.22348,20.03898,27.05211,5.66334,44.79942,-7.09391,39.77616,131.34866,0.00156,-103.52598,121.44057,0.00318,111.86179,-4.41168,-13.49342,0.00012,-13.02673,4.39921,-0.00119,2.57208,-7.1763,12.61636,-20.18499,-11.49562,8.874,8.09057,1.41473,6.83739
2,-7.10916,-0.0,-0.0,-5.98747,0.0,0.0,-2.74781,-6.5585,10.08505,8.44633,3.93125,-14.57247,-6.86407,0.09371,4e-05,-5.11921,-0.57509,0.00018,15.64361,9.06492,7.13413,3.51847,2.56127,-14.18621,19.99668,26.99851,5.67409,45.19758,-7.03507,39.65914,131.33263,0.00143,-104.12776,121.51554,0.00493,110.44509,-4.19373,-13.44493,0.00016,-12.9201,4.30578,-0.00262,2.61426,-7.25297,12.42948,-20.16014,-11.49457,8.66927,8.18155,1.39894,6.82342
3,-7.42262,0.0,-0.0,-6.11702,0.0,0.0,-2.60447,-6.37487,10.18805,8.58151,4.0548,-14.63434,-6.83383,0.06599,0.00011,-5.2706,-0.64321,6e-05,15.62458,8.99831,7.00987,3.58303,2.5173,-14.11518,19.9625,26.9798,5.70541,45.58543,-6.96055,39.47821,131.29201,0.00113,-104.78528,121.6236,0.00485,109.14127,-4.0309,-13.36921,-0.00013,-12.71125,4.09701,-0.00347,2.60131,-7.33487,12.24046,-20.1907,-11.49748,8.4605,8.28726,1.39015,6.81033
4,-7.81098,-0.0,0.0,-6.3266,0.0,0.0,-2.42313,-6.22315,10.32565,8.729,4.1286,-14.71941,-6.85258,0.03681,0.00015,-5.42224,-0.69085,-6e-05,15.64572,8.93896,6.8633,3.6654,2.47085,-14.03044,19.96877,26.98725,5.73038,45.96725,-6.87815,39.26376,131.21436,0.00101,-105.29034,121.75984,0.00211,108.32967,-3.96985,-13.23755,-0.00087,-12.44432,3.89063,-0.00286,2.56107,-7.41369,12.05728,-20.24771,-11.49974,8.25843,8.39909,1.38541,6.80695
5,-8.19485,0.0,0.0,-6.52958,0.0,-0.0,-2.23178,-6.12536,10.44739,8.86269,4.17477,-14.81557,-6.90766,0.01142,0.00014,-5.56343,-0.72511,-0.00012,15.68518,8.87941,6.72733,3.74528,2.41986,-13.96185,20.03469,27.00157,5.71876,46.35942,-6.79835,39.06337,131.1064,0.00108,-105.54903,121.90788,-0.002,108.32104,-4.03644,-13.03985,-0.00191,-12.18642,3.81023,-0.00124,2.54015,-7.4748,11.90412,-20.28208,-11.49718,8.0914,8.49459,1.38097,6.82126
6,-8.47091,0.0,-0.0,-6.64326,-0.0,-0.0,-2.06291,-6.09059,10.51303,8.96256,4.22941,-14.89939,-6.97559,-0.00061,8e-05,-5.68915,-0.75895,-0.0001,15.71182,8.80879,6.63119,3.80134,2.36062,-13.94022,20.1514,27.00578,5.6587,46.78358,-6.7321,38.92159,130.99948,0.00101,-105.58848,122.04492,-0.00482,109.13938,-4.2181,-12.80679,-0.00267,-11.99871,3.91333,-0.0001,2.57459,-7.50641,11.80429,-20.25567,-11.48792,7.98579,8.55234,1.37467,6.8559
7,-8.57292,0.0,-0.0,-6.63398,0.0,0.0,-1.93759,-6.11457,10.51034,9.023,4.32097,-14.95153,-7.03671,0.00812,-0.0,-5.80171,-0.80501,-1e-05,15.70342,8.72053,6.5891,3.82307,2.2913,-13.97962,20.28868,26.99387,5.56417,47.25406,-6.68647,38.86121,130.93152,0.00051,-105.45406,122.15224,-0.00486,110.47056,-4.46637,-12.59505,-0.00268,-11.93347,4.16838,-0.00019,2.66773,-7.50975,11.76314,-20.16505,-11.47516,7.9461,8.56413,1.36753,6.90615
8,-8.48421,-0.0,-0.0,-6.49776,0.0,0.0,-1.86497,-6.18149,10.44037,9.0425,4.45218,-14.95843,-7.08547,0.03898,-8e-05,-5.90672,-0.86856,0.0001,15.65992,8.61707,6.60477,3.81517,2.21409,-14.07835,20.41453,26.97011,5.46316,47.76871,-6.66016,38.87635,130.92114,-0.00034,-105.15689,122.22318,-0.00296,111.82138,-4.71905,-12.45894,-0.00219,-12.03697,4.48319,-0.00068,2.79064,-7.50342,11.76563,-20.0415,-11.47029,7.95092,8.5402,1.36306,6.95828
9,-8.211,0.0,0.0,-6.22588,0.0,0.0,-1.8468,-6.26478,10.29984,9.01274,4.59228,-14.90247,-7.13206,0.08738,-0.00015,-6.00798,-0.94472,0.00016,15.6062,8.50979,6.67977,3.79688,2.13507,-14.23217,20.51028,26.9421,5.37963,48.30963,-6.64245,38.93808,130.95758,-0.0011,-104.72375,122.26249,-0.00089,112.75501,-4.91271,-12.43535,-0.00196,-12.33357,4.74617,7e-05,2.90207,-7.51809,11.7874,-19.93003,-11.49219,7.96541,8.5076,1.36572,6.99494
10,-7.77885,0.0,0.0,-5.81442,0.0,0.0,-1.87159,-6.33207,10.10379,8.9297,4.6957,-14.78774,-7.19262,0.14139,-0.00017,-6.1059,-1.01964,0.00014,15.56739,8.41381,6.79924,3.78386,2.06061,-14.41651,20.57107,26.91323,5.32342,48.85191,-6.61565,39.00902,131.01584,-0.00129,-104.26071,122.27935,0.0003,113.06948,-4.98487,-12.54261,-0.00248,-12.80472,4.86659,0.00262,2.97023,-7.58287,11.80719,-19.86592,-11.55949,7.95821,8.49005,1.37818,7.00795
11,-7.28332,-0.0,-0.0,-5.33153,0.0,0.0,-1.9025,-6.36009,9.91614,8.81919,4.73272,-14.66793,-7.27582,0.18145,-0.0001,-6.19897,-1.07568,5e-05,15.54349,8.33978,6.91379,3.77164,1.99242,-14.56994,20.59527,26.87979,5.28961,49.37286,-6.56001,39.06,131.08102,-0.00089,-103.91397,122.28269,0.00057,112.86151,-4.9122,-12.76835,-0.00333,-13.38278,4.82455,0.00532,2.98202,-7.71033,11.81145,-19.86407,-11.67861,7.91167,8.49011,1.39855,7.00294
12,-6.87676,-0.0,0.0,-4.92437,0.0,0.0,-1.8918,-6.34428,9.82027,8.732,4.70021,-14.59848,-7.37659,0.18811,2e-05,-6.28587,-1.10301,-4e-05,15.51818,8.28867,6.96558,3.74792,1.92671,-14.63917,20.57704,26.83517,5.26527,49.85762,-6.45986,39.08002,131.15939,-0.00023,-103.75162,122.28093,0.00035,112.46721,-4.75278,-13.05605,-0.00345,-13.97353,4.69982,0.00591,2.93992,-7.88816,11.79182,-19.92161,-11.83492,7.82282,8.4993,1.42026,6.99205
13,-6.66529,-0.0,-0.0,-4.72001,0.0,0.0,-1.81528,-6.29417,9.86465,8.707,4.61578,-14.58477,-7.47786,0.15264,0.00014,-6.36576,-1.10619,-9e-05,15.47815,8.25222,6.93022,3.71084,1.85675,-14.61942,20.51027,26.77711,5.24022,50.30142,-6.30773,39.07501,131.2704,0.00032,-103.73353,122.28025,2e-05,112.27319,-4.61495,-13.3266,-0.00252,-14.50148,4.62448,0.00422,2.8557,-8.08275,11.74213,-20.02445,-11.99509,7.69919,8.51369,1.43365,6.98749
14,-6.66152,0.0,0.0,-4.75337,0.0,0.0,-1.6809,-6.22553,10.04661,8.75178,4.51008,-14.60331,-7.55938,0.0809,0.00016,-6.43823,-1.09751,-0.0001,15.41606,8.21676,6.8236,3.66758,1.77498,-14.53242,20.39864,26.71131,5.21487,50.70728,-6.10449,39.05832,131.4286,0.00048,-103.78596,122.28215,-0.00022,112.45677,-4.5775,-13.52076,-0.00136,-14.94898,4.67047,0.00224,2.74645,-8.2548,11.6594,-20.15236,-12.12173,7.55362,8.53209,1.42782,7.0005
15,-6.80289,-0.0,0.0,-4.96325,0.0,-0.0,-1.51574,-6.15224,10.31622,8.84729,4.41769,-14.62835,-7.61124,-0.01015,0.0001,-6.50287,-1.08952,-7e-05,15.32893,8.17028,6.68871,3.62388,1.67678,-14.4056,20.26172,26.64832,5.19833,51.07965,-5.85812,39.04113,131.62791,7e-05,-103.84292,122.28381,-0.00026,112.8801,-4.64193,-13.61936,-0.00077,-15.36169,4.78448,0.00173,2.63079,-8.37813,11.54746,-20.28415,-12.19223,7.40014,8.5492,1.39463,7.03882
16,-6.96165,-0.0,0.0,-5.20475,0.0,0.0,-1.35906,-6.07702,10.58407,8.95411,4.36999,-14.62506,-7.6402,-0.09982,4e-05,-6.55579,-1.0951,-4e-05,15.21849,8.10762,6.58371,3.57649,1.5641,-14.28228,20.13127,26.59722,5.19693,51.42091,-5.58206,39.02939,131.83749,-0.00069,-103.84123,122.28172,-0.00012,113.27196,-4.74733,-13.63405,-0.00078,-15.81023,4.8549,0.00273,2.5224,-8.44856,11.41893,-20.40498,-12.20758,7.25226,8.55522,1.332,7.1011
17,-6.98444,-0.0,0.0,-5.30497,0.0,-0.0,-1.25184,-5.99137,10.75023,9.02612,4.39012,-14.55047,-7.6641,-0.17059,-0.0,-6.58734,-1.12764,-6e-05,15.09272,8.03036,6.56309,3.51485,1.44563,-14.22401,20.03929,26.56209,5.20308,51.73345,-5.29312,39.02475,132.0126,-0.00109,-103.7356,122.27621,0.00015,113.46631,-4.8198,-13.59073,-0.00102,-16.32393,4.82796,0.00381,2.42444,-8.47821,11.29366,-20.51167,-12.18661,7.1237,8.54213,1.24501,7.1736
18,-6.77894,-0.0,0.0,-5.16541,-0.0,0.0,-1.21292,-5.88814,10.74695,9.03397,4.48138,-14.37053,-7.70325,-0.21193,-4e-05,-6.5896,-1.19646,-0.00013,14.97214,7.94612,6.65469,3.43795,1.33509,-14.28916,20.00501,26.54363,5.19454,52.02241,-5.00976,39.02386,132.1143,-0.00043,-103.50212,122.27476,0.00048,113.46466,-4.82126,-13.51827,-0.00124,-16.84722,4.75069,0.00347,2.33011,-8.48364,11.19297,-20.61138,-12.1528,7.02772,8.51492,1.14689,7.23589
19,-6.35642,0.0,-0.0,-4.81011,-0.0,-0.0,-1.22711,-5.77201,10.56736,8.97698,4.61546,-14.07584,-7.77198,-0.22122,-9e-05,-6.56778,-1.29968,-0.00019,14.88498,7.86613,6.85,3.36399,1.24564,-14.50315,20.02902,26.54326,5.14352,52.29287,-4.74916,39.01729,132.12578,0.00151,-103.08263,122.29134,0.00068,113.36369,-4.78801,-13.43856,-0.00138,-17.266,4.72374,0.00198,2.2298,-8.47909,11.13037,-20.71434,-12.12446,6.9712,8.49196,1.05658,7.27434
20,-5.79419,-0.0,0.0,-4.33519,0.0,-0.0,-1.26043,-5.65933,10.2663,8.8762,4.73594,-13.69604,-7.87031,-0.20212,-0.00016,-6.54083,-1.41836,-0.00021,14.84397,7.79705,7.10997,3.31279,1.18018,-14.83811,20.09612,26.564,5.03117,52.54311,-4.52284,38.992,132.05771,0.00403,-102.3772,122.34111,0.00042,113.28265,-4.81431,-13.36399,-0.00145,-17.48009,4.8198,0.00107,2.11892,-8.47678,11.10338,-20.82632,-12.11193,6.94698,8.48676,0.98949,7.29054
21,-5.19273,-0.0,0.0,-3.84127,0.0,0.0,-1.28093,-5.57207,9.93661,8.76309,4.77941,-13.30008,-7.98302,-0.16136,-0.00021,-6.5321,-1.51976,-0.00022,14.83397,7.7347,7.37964,3.28685,1.12692,-15.21747,20.18301,26.60492,4.86055,52.76204,-4.33294,38.93741,131.9424,0.00554,-101.38369,122.43314,-0.0006,113.33675,-4.95617,-13.31408,-0.00136,-17.44624,5.03933,0.00173,2.00025,-8.48847,11.09324,-20.94646,-12.11879,6.93287,8.4958,0.94903,7.29833
22,-4.67955,0.0,-0.0,-3.42411,0.0,0.0,-1.2625,-5.53013,9.67989,8.67457,4.70699,-12.97495,-8.08805,-0.1076,-0.0002,-6.5607,-1.57306,-0.00029,14.82744,7.66668,7.60368,3.2778,1.06569,-15.53895,20.26521,26.65612,4.65843,52.93688,-4.17186,38.85297,131.82088,0.00484,-100.32207,122.56396,-0.00215,113.60658,-5.15781,-13.33112,-0.00136,-17.16922,5.3295,0.00331,1.88021,-8.52246,11.0725,-21.07034,-12.14209,6.9,8.50809,0.92587,7.31698
23,-4.40618,0.0,-0.0,-3.1873,0.0,-0.0,-1.18234,-5.53997,9.57929,8.64636,4.53289,-12.79682,-8.16734,-0.05273,-0.00013,-6.63577,-1.56818,-0.00044,14.80635,7.58185,7.73867,3.28225,0.9804,-15.70421,20.32028,26.70181,4.46446,53.06473,-4.02673,38.75465,131.72867,0.0027,-99.54546,122.71521,-0.00347,114.11476,-5.29026,-13.46426,-0.00222,-16.69382,5.63135,0.00444,1.7649,-8.57759,11.01452,-21.19303,-12.1705,6.82399,8.51934,0.90428,7.36376
24,-4.45535,-0.0,-0.0,-3.18969,0.0,-0.0,-1.03921,-5.57935,9.65751,8.6928,4.32876,-12.78965,-8.21408,-0.00958,-5e-05,-6.75126,-1.52441,-0.00052,14.77019,7.47698,7.77335,3.30314,0.86796,-15.66874,20.32898,26.72767,4.31499,53.15664,-3.8854,38.67369,131.68741,0.00107,-99.321,122.85699,-0.00363,114.84947,-5.24964,-13.73212,-0.00426,-16.1179,5.90889,0.00422,1.66011,-8.64138,10.90236,-21.30844,-12.18596,6.69407,8.53299,0.87021,7.4423
25,-4.74329,0.0,-0.0,-3.37838,0.0,0.0,-0.87316,-5.59544,9.8508,8.79374,4.19545,-12.89957,-8.23307,0.01438,0.0,-6.88581,-1.48154,-0.00043,14.7312,7.35596,7.74295,3.34079,0.73766,-15.47968,20.2775,26.72596,4.22977,53.23211,-3.73937,38.64402,131.70384,0.00099,-99.68654,122.9556,-0.00212,115.77359,-5.02352,-14.1015,-0.00623,-15.57834,6.14705,0.00271,1.57227,-8.69646,10.738,-21.40845,-12.17326,6.51904,8.55355,0.81667,7.53479
26,-5.08845,0.0,-0.0,-3.64156,0.0,0.0,-0.73851,-5.53536,10.06048,8.91844,4.21832,-13.04693,-8.23678,0.01703,4e-05,-7.01364,-1.4763,-0.00019,14.70461,7.22726,7.70019,3.38951,0.60465,-15.22926,20.16205,26.69601,4.20859,53.30863,-3.58465,38.68637,131.77267,0.00176,-100.44773,122.98526,0.00059,116.80186,-4.69062,-14.5003,-0.00638,-15.19701,6.34135,0.00068,1.50548,-8.73136,10.54658,-21.48667,-12.1315,6.32692,8.58237,0.74602,7.61141
27,-5.36899,0.0,-0.0,-3.91747,0.0,-0.0,-0.65409,-5.38533,10.23312,9.05594,4.42641,-13.20299,-8.24152,-0.00399,8e-05,-7.11897,-1.52182,2e-05,14.70067,7.10435,7.6691,3.4424,0.48445,-14.97202,19.99464,26.64163,4.23642,53.3932,-3.42374,38.80135,131.87805,0.00216,-101.3043,122.93984,0.00312,117.82042,-4.35939,-14.85822,-0.00457,-15.03944,6.49748,-0.00105,1.45663,-8.74588,10.36613,-21.54454,-12.07518,6.1532,8.61648,0.66924,7.64881
28,-5.55927,-0.0,0.0,-4.2005,0.0,-0.0,-0.59735,-5.1787,10.36795,9.20724,4.77398,-13.37936,-8.26359,-0.05012,0.00014,-7.20182,-1.60649,0.00014,14.72285,7.00315,7.64539,3.49731,0.38897,-14.72064,19.8054,26.57049,4.28861,53.48167,-3.26805,38.97316,131.99445,0.00181,-102.02661,122.8355,0.00417,118.72687,-4.10161,-15.14626,-0.00211,-15.11905,6.62636,-0.00196,1.41473,-8.74716,10.22469,-21.59249,-12.02173,6.02112,8.64955,0.60057,7.64027
29,-5.68098,-0.0,-0.0,-4.49091,0.0,-0.0,-0.53363,-4.97566,10.47424,9.36473,5.15852,-13.56951,-8.31355,-0.11449,0.00021,-7.27371,-1.70519,0.00015,14.77195,6.93249,7.62822,3.56069,0.3202,-14.49132,19.63513,26.49818,4.33608,53.56312,-3.13684,39.17694,132.09222,0.0012,-102.49959,122.70178,0.00336,119.42276,-3.94347,-15.38009,-0.00012,-15.42312,6.72929,-0.00179,1.36739,-8.74127,10.12326,-21.64354,-11.97712,5.92914,8.67729,0.54805,7.59565
30,-5.76018,0.0,-0.0,-4.76224,0.0,0.0,-0.44216,-4.83164,10.55289,9.50744,5.46665,-13.73618,-8.38934,-0.18044,0.00021,-7.34724,-1.79005,9e-05,14.84237,6.88618,7.63091,3.6396,0.26613,-14.31047,19.51978,26.44874,4.35524,53.62286,-3.05093,39.38531,132.14833,0.00105,-102.64528,122.56895,0.00136,119.80582,-3.88646,-15.5934,0.00105,-15.92707,6.79555,-0.00049,1.3101,-8.72929,10.04198,-21.70315,-11.93469,5.85834,8.69754,0.50764,7.53886
31,-5.77586,-0.0,-0.0,-4.93347,0.0,0.0,-0.33003,-4.76762,10.60225,9.60106,5.61693,-13.83381,-8.47504,-0.22942,0.00015,-7.42532,-1.83931,-3e-05,14.90961,6.84834,7.66992,3.72394,0.20786,-14.19528,19.47609,26.44394,4.3371,53.64275,-3.0236,39.57412,132.15634,0.00159,-102.42082,122.45921,-0.00061,119.81633,-3.91196,-15.81225,0.00141,-16.58761,6.81552,0.00156,1.25077,-8.71107,9.96417,-21.76412,-11.88785,5.79327,8.7003,0.46857,7.50133
32,-5.68754,-0.0,0.0,-4.92465,0.0,0.0,-0.21588,-4.77088,10.62976,9.61589,5.5769,-13.83834,-8.55204,-0.25029,4e-05,-7.50075,-1.84342,-0.00015,14.94018,6.8067,7.74613,3.78841,0.13401,-14.14213,19.49744,26.48747,4.2878,53.60227,-3.05517,39.7272,132.12787,0.00223,-101.9116,122.38483,-0.00172,119.50353,-3.97632,-16.04035,0.00101,-17.32189,6.79386,0.00354,1.20449,-8.69126,9.89449,-21.81154,-11.84269,5.73641,8.67012,0.42492,7.50594
33,-5.51716,0.0,0.0,-4.75034,0.0,-0.0,-0.10396,-4.81536,10.65312,9.55423,5.365,-13.76251,-8.61246,-0.24329,-4e-05,-7.56479,-1.80768,-0.00021,14.91814,6.75769,7.83585,3.81357,0.04686,-14.13293,19.56201,26.55882,4.22158,53.48284,-3.13404,39.83846,132.08055,0.002,-101.38459,122.34951,-0.00196,119.05119,-4.01298,-16.25349,3e-05,-17.9963,6.75286,0.0046,1.18366,-8.68027,9.85495,-21.83304,-11.8173,5.70404,8.60078,0.37894,7.55156
34,-5.34145,0.0,-0.0,-4.50269,0.0,-0.0,0.00994,-4.86671,10.68391,9.4489,5.05396,-13.63904,-8.65963,-0.21899,-7e-05,-7.61288,-1.75274,-0.0002,14.85155,6.70085,7.90457,3.79515,-0.04414,-14.15588,19.64671,26.62391,4.15129,53.27426,-3.24117,39.91054,132.01976,0.00047,-101.18279,122.34639,-0.0018,118.70473,-3.9632,-16.39827,-0.00117,-18.44453,6.71254,0.00438,1.19327,-8.68907,9.86506,-21.82375,-11.8293,5.70992,8.49805,0.33369,7.61425
35,-5.25102,0.0,0.0,-4.28677,-0.0,0.0,0.12575,-4.88671,10.72582,9.3452,4.76029,-13.50777,-8.69953,-0.19472,-6e-05,-7.64694,-1.70757,-0.00012,14.76288,6.63421,7.92114,3.74328,-0.13098,-14.20807,19.73571,26.65441,4.08211,52.97985,-3.35578,39.9519,131.93066,-0.00189,-101.48516,122.35506,-0.00141,118.63507,-3.83683,-16.39574,-0.00259,-18.51403,6.66027,0.00243,1.23347,-8.72251,9.92463,-21.78394,-11.88309,5.75194,8.37471,0.28697,7.66186
36,-5.32041,0.0,-0.0,-4.17246,0.0,0.0,0.23914,-4.85227,10.78538,9.28189,4.60288,-13.40936,-8.73428,-0.18691,-3e-05,-7.6772,-1.6956,0.0,14.67875,6.55548,7.86701,3.68057,-0.21081,-14.2851,19.81854,26.64139,4.01363,52.61539,-3.46174,39.97478,131.79324,-0.0037,-102.15651,122.34599,-0.0005,118.87444,-3.73365,-16.17393,-0.00491,-18.12851,6.55146,-0.00196,1.30227,-8.77519,10.01149,-21.71601,-11.96515,5.81165,8.24704,0.23252,7.66873
37,-5.55538,0.0,0.0,-4.14902,0.0,-0.0,0.3398,-4.77216,10.86703,9.27162,4.6478,-13.36479,-8.76117,-0.20038,0.0,-7.72172,-1.72329,0.00014,14.6189,6.46453,7.74882,3.63458,-0.28657,-14.3819,19.88293,26.59626,3.9496,52.2018,-3.55109,39.99279,131.61011,-0.00349,-102.85675,122.29469,0.00103,119.36805,-3.76393,-15.72959,-0.00808,-17.31836,6.34619,-0.00824,1.39358,-8.83192,10.09195,-21.62617,-12.04846,5.86378,8.12912,0.16411,7.62433
38,-5.88079,0.0,0.0,-4.14174,0.0,-0.0,0.41475,-4.68959,10.96481,9.30089,4.8752,-13.36911,-8.77593,-0.22359,1e-05,-7.80183,-1.77642,0.00025,14.59066,6.36321,7.59882,3.62913,-0.3663,-14.48901,19.91297,26.54106,3.90442,51.75657,-3.62313,40.01634,131.41887,-0.00147,-103.30124,122.19694,0.00267,120.05228,-3.93923,-15.16152,-0.01002,-16.18634,6.04607,-0.01358,1.49431,-8.87398,10.13478,-21.52722,-12.10371,5.88679,8.02979,0.07769,7.53466
39,-6.18662,0.0,0.0,-4.08567,0.0,0.0,0.45669,-4.66293,11.06238,9.34793,5.19087,-13.40596,-8.77642,-0.23588,3e-05,-7.93293,-1.82825,0.00023,14.59262,6.25357,7.46186,3.67971,-0.46007,-14.58524,19.89569,26.49526,3.89529,51.28806,-3.68252,40.0513,131.27373,0.00061,-103.42606,122.07365,0.00356,120.86896,-4.16282,-14.63279,-0.00908,-14.8706,5.70646,-0.01456,1.58616,-8.88932,10.1214,-21.4372,-12.11267,5.86822,7.95507,-0.02809,7.41952
40,-6.37191,0.0,0.0,-3.96961,0.0,-0.0,0.46399,-4.72827,11.13748,9.3935,5.47268,-13.46132,-8.7637,-0.22157,5e-05,-8.1151,-1.85537,4e-05,14.61774,6.13737,7.38105,3.78886,-0.57458,-14.63902,19.82838,26.46688,3.92801,50.79392,-3.73803,40.10318,131.21391,0.00163,-103.35707,121.96101,0.00334,121.70888,-4.32036,-14.28856,-0.00628,-13.55245,5.41341,-0.01042,1.65253,-8.87995,10.04927,-21.37295,-12.07617,5.80489,7.90782,-0.15076,7.30715
41,-6.38236,-0.0,-0.0,-3.83095,0.0,-0.0,0.43943,-4.87481,11.17358,9.42414,5.62127,-13.53757,-8.74156,-0.17973,6e-05,-8.33078,-1.84779,-0.00024,14.65393,6.0176,7.37883,3.94154,-0.70778,-14.61242,19.71921,26.4532,3.99358,50.26351,-3.80019,40.18042,131.24324,0.00177,-103.25758,121.89217,0.00277,122.37645,-4.37228,-14.17829,-0.00368,-12.45958,5.23577,-0.00443,1.68511,-8.86015,9.92867,-21.34352,-12.01134,5.70067,7.88308,-0.2819,7.22256
42,-6.25148,-0.0,0.0,-3.73688,0.0,0.0,0.39807,-5.05859,11.17118,9.43955,5.59358,-13.65738,-8.71728,-0.12203,5e-05,-8.55366,-1.80835,-0.00047,14.69169,5.89893,7.44177,4.11255,-0.84877,-14.47489,19.58194,26.44778,4.07814,49.68369,-3.87873,40.29393,131.33063,0.00146,-103.18245,121.88155,0.00308,122.67149,-4.37481,-14.22767,-0.00231,-11.81258,5.19199,-0.00076,1.68452,-8.8471,9.77522,-21.34901,-11.94001,5.56325,7.8709,-0.40769,7.17353
43,-6.08868,0.0,-0.0,-3.74957,0.0,-0.0,0.36843,-5.23676,11.14368,9.4552,5.4154,-13.83644,-8.70008,-0.06245,2e-05,-8.76413,-1.74936,-0.00053,14.7319,5.78487,7.53224,4.28315,-0.98542,-14.23276,19.42894,26.44471,4.17393,49.04691,-3.98166,40.45688,131.42769,0.00107,-103.07483,121.91799,0.00457,122.54627,-4.41973,-14.28563,-0.00248,-11.72768,5.25227,-0.00054,1.65491,-8.85149,9.6024,-21.38554,-11.87722,5.4009,7.8655,-0.51498,7.14885
44,-5.98448,0.0,-0.0,-3.87097,0.0,-0.0,0.37332,-5.38284,11.09781,9.48805,5.17327,-14.04276,-8.69569,-0.00954,-2e-05,-8.9573,-1.69204,-0.00039,14.78082,5.67644,7.62136,4.44822,-1.11158,-13.95124,19.26639,26.4389,4.2808,48.3581,-4.1165,40.68421,131.49161,0.00092,-102.87825,121.9684,0.00638,122.15925,-4.56179,-14.20903,-0.00407,-12.14819,5.35682,-0.00156,1.59911,-8.87507,9.41823,-21.45004,-11.82769,5.22037,7.8679,-0.59755,7.13071
45,-5.93516,-0.0,-0.0,-4.03072,-0.0,0.0,0.41118,-5.47944,11.02722,9.54185,4.98378,-14.20296,-8.70239,0.03384,-5e-05,-9.13695,-1.6628,-9e-05,14.83926,5.5741,7.70549,4.60889,-1.22625,-13.72851,19.09424,26.42611,4.40148,47.63637,-4.29204,40.98934,131.50133,0.00099,-102.60509,121.98912,0.0075,121.74083,-4.78756,-13.92693,-0.00573,-12.87815,5.43977,-0.00128,1.52133,-8.91446,9.22887,-21.53776,-11.79068,5.02874,7.88029,-0.65688,7.10688
46,-5.86957,0.0,0.0,-4.14573,0.0,0.0,0.46032,-5.51731,10.93479,9.60939,4.94482,-14.26819,-8.71212,0.06775,-5e-05,-9.30507,-1.67958,0.00023,14.89585,5.47822,7.79029,4.75967,-1.33008,-13.62473,18.91047,26.40291,4.53779,46.90815,-4.51708,41.37738,131.46146,0.00089,-102.33757,121.94098,0.0069,121.38596,-5.01435,-13.46172,-0.00535,-13.70461,5.45481,0.00071,1.43519,-8.96445,9.04682,-21.6342,-11.76622,4.83972,7.89791,-0.69948,7.07295
47,-5.7215,-0.0,-0.0,-4.17824,-0.0,-0.0,0.49549,-5.50076,10.84502,9.68203,5.09114,-14.25446,-8.71478,0.09474,-4e-05,-9.45959,-1.74021,0.00043,14.93108,5.3865,7.87504,4.88619,-1.42515,-13.62527,18.7159,26.36595,4.68848,46.19401,-4.79446,41.83738,131.39362,0.00047,-102.16696,121.80192,0.00314,120.95229,-5.12994,-12.89976,-0.00253,-14.50029,5.38084,0.00334,1.36512,-9.01638,8.89454,-21.71352,-11.75503,4.67759,7.90768,-0.73514,7.02848
48,-5.4854,0.0,0.0,-4.14342,0.0,-0.0,0.50321,-5.4436,10.78327,9.75448,5.38045,-14.21013,-8.70279,0.12017,-1e-05,-9.5997,-1.82457,0.00046,14.93279,5.29356,7.95921,4.98058,-1.51651,-13.67332,18.51617,26.31204,4.84687,45.4968,-5.11412,42.33813,131.32251,-3e-05,-102.06999,121.57204,-0.00437,120.17278,-5.08321,-12.33129,0.00049,-15.21692,5.2077,0.00512,1.33345,-9.056,8.79383,-21.75163,-11.75249,4.56827,7.8997,-0.7756,6.97598
49,-5.21973,0.0,-0.0,-4.07156,0.0,0.0,0.48739,-5.3613,10.7503,9.82091,5.71345,-14.16763,-8.67312,0.14974,2e-05,-9.72942,-1.90506,0.00035,14.90558,5.19445,8.05441,5.05317,-1.61175,-13.71715,18.31899,26.23913,4.99928,44.80103,-5.45073,42.83259,131.26674,-0.0005,-101.86222,121.26885,-0.01363,118.8776,-4.94959,-11.81325,0.0013,-15.80596,4.92584,0.0044,1.34173,-9.06808,8.74614,-21.74584,-11.74514,4.51917,7.87593,-0.83093,6.92254
50,-4.98205,0.0,-0.0,-3.95338,0.0,-0.0,0.45734,-5.26523,10.71421,9.86532,5.97558,-14.12786,-8.62715,0.18668,6e-05,-9.85404,-1.95809,0.00016,14.86454,5.08891,8.18588,5.12432,-1.7167,-13.73149,18.13018,26.14878,5.12948,44.08431,-5.76858,43.27209,131.23747,-0.00108,-101.33657,120.91792,-0.02034,117.12493,-4.87512,-11.38238,-2e-05,-16.17029,4.5297,3e-05,1.36569,-9.04649,8.72369,-21.72083,-11.71658,4.50699,7.84479,-0.90415,6.87767
51,-4.77876,-0.0,0.0,-3.7396,-0.0,0.0,0.41518,-5.15798,10.62934,9.86496,6.08484,-14.08023,-8.57051,0.23104,0.0001,-9.97552,-1.97312,-1e-05,14.8262,4.9826,8.37784,5.21106,-1.82984,-13.70931,17.95327,26.04976,5.2289,43.33221,-6.03396,43.62612,131.23755,-0.00173,-100.4802,120.54642,-0.0205,115.21417,-4.94068,-11.08456,-0.00166,-16.19341,4.03814,-0.00692,1.37315,-9.00052,8.68548,-21.71082,-11.6595,4.48994,7.81337,-0.98835,6.84835
52,-4.60202,0.0,-0.0,-3.4168,0.0,0.0,0.36282,-5.04123,10.47931,9.81371,6.02317,-14.04117,-8.51323,0.28016,0.00011,-10.09236,-1.95299,-0.00014,14.80497,4.88377,8.62444,5.32168,-1.94201,-13.63548,17.79165,25.95995,5.30361,42.54554,-6.23039,43.89613,131.25919,-0.00192,-99.54585,120.18297,-0.01362,113.59122,-5.09697,-10.97307,-0.0026,-15.81374,3.52684,-0.01235,1.35164,-8.95023,8.60563,-21.73074,-11.58232,4.436,7.78573,-1.07025,6.83557
53,-4.49608,-0.0,-0.0,-3.06949,0.0,0.0,0.31918,-4.93223,10.30895,9.74102,5.83136,-14.06933,-8.46741,0.32768,9e-05,-10.20319,-1.9066,-0.00019,14.8103,4.79839,8.87125,5.45563,-2.04223,-13.47618,17.64938,25.90091,5.37131,41.73577,-6.36733,44.1111,131.28485,-0.00144,-98.87667,119.85686,-0.00377,112.62405,-5.22394,-11.07244,-0.00337,-15.07701,3.12756,-0.012,1.32062,-8.91371,8.48674,-21.76245,-11.50267,4.34033,7.76405,-1.13827,6.833
54,-4.55069,0.0,-0.0,-2.84207,0.0,0.0,0.31977,-4.85783,10.20133,9.69964,5.57409,-14.22352,-8.44206,0.36281,8e-05,-10.30983,-1.84292,-0.0002,14.84501,4.72812,9.03876,5.60676,-2.12444,-13.20997,17.53035,25.88378,5.44745,40.91364,-6.47412,44.30665,131.29269,-0.00064,-98.63328,119.58861,0.00374,112.39569,-5.23716,-11.34428,-0.00424,-14.13501,2.96426,-0.00621,1.31704,-8.89768,8.34615,-21.76891,-11.43346,4.21638,7.7508,-1.18836,6.82924
55,-4.8187,0.0,0.0,-2.83723,0.0,-0.0,0.39121,-4.82695,10.21526,9.73125,5.30661,-14.50552,-8.4371,0.37378,5e-05,-10.41625,-1.77027,-0.00019,14.90543,4.67169,9.07392,5.76703,-2.18962,-12.86511,17.43748,25.89592,5.52795,40.08127,-6.58278,44.50451,131.26521,0.00029,-98.67754,119.3788,0.00657,112.71435,-5.15277,-11.69216,-0.00417,-13.19639,3.09231,0.00028,1.36763,-8.89923,8.19074,-21.72289,-11.37469,4.07167,7.74971,-1.22378,6.81398
56,-5.26249,-0.0,0.0,-3.06217,0.0,-0.0,0.52863,-4.8254,10.35363,9.84418,5.06623,-14.86314,-8.43959,0.35391,1e-05,-10.52375,-1.6962,-0.00016,14.98036,4.6267,8.97738,5.9266,-2.24274,-12.50283,17.37268,25.90292,5.58381,39.23349,-6.71105,44.70312,131.19786,0.00139,-98.71654,119.20763,0.00587,113.29834,-5.07522,-12.01572,-0.00242,-12.43492,3.50187,0.00349,1.47147,-8.9149,8.00543,-21.62538,-11.31728,3.89364,7.76197,-1.25112,6.78521
57,-5.7693,-0.0,0.0,-3.44962,0.0,0.0,0.69393,-4.83717,10.57787,10.01585,4.87964,-15.2359,-8.42661,0.30558,-7e-05,-10.62786,-1.6271,-0.00011,15.05072,4.58967,8.79304,6.07339,-2.28939,-12.17037,17.3356,25.86855,5.57663,38.36439,-6.85765,44.88005,131.10201,0.00229,-98.56335,119.04561,0.0039,113.92773,-5.13055,-12.27226,0.00045,-11.90578,4.13802,0.00364,1.60343,-8.94594,7.76606,-21.5021,-11.25306,3.65943,7.78107,-1.27747,6.75176
58,-6.20338,-0.0,0.0,-3.9064,-0.0,0.0,0.83324,-4.85672,10.83011,10.20974,4.76526,-15.57666,-8.37579,0.24048,-0.00018,-10.71959,-1.56856,-3e-05,15.09645,4.55503,8.58443,6.19692,-2.33571,-11.88873,17.31797,25.77697,5.48901,37.47142,-7.01371,45.00437,130.99898,0.00228,-98.28001,118.86552,0.00241,114.48908,-5.38432,-12.48327,0.0032,-11.53905,4.91257,0.00376,1.73183,-8.99544,7.46481,-21.38486,-11.18179,3.36061,7.79462,-1.30927,6.72801
59,-6.48509,-0.0,-0.0,-4.36471,0.0,-0.0,0.9095,-4.88917,11.05707,10.39518,4.72674,-15.85311,-8.27643,0.17625,-0.00023,-10.78932,-1.52313,4e-05,15.10588,4.51529,8.40696,6.2928,-2.38889,-11.66514,17.30124,25.63925,5.34692,36.55439,-7.18045,45.0537,130.90865,0.00121,-98.09859,118.65006,0.00228,114.97491,-5.78314,-12.68452,0.00467,-11.2082,5.73556,0.00581,1.83664,-9.06195,7.12644,-21.29264,-11.11172,3.02074,7.79134,-1.35062,6.72493
60,-6.63075,-0.0,0.0,-4.79955,-0.0,0.0,0.92357,-4.94946,11.23208,10.55485,4.74831,-16.05352,-8.13229,0.12962,-0.00018,-10.83056,-1.48749,8e-05,15.07745,4.46446,8.28682,6.3618,-2.45446,-11.49562,17.26503,25.48297,5.21207,35.61426,-7.37481,45.02423,130.83946,-0.00028,-98.23847,118.39037,0.00334,115.43365,-6.16735,-12.88266,0.00423,-10.81659,6.53193,0.00855,1.91714,-9.13579,6.80348,-21.2242,-11.05433,2.69236,7.76411,-1.40113,6.74431
61,-6.69828,-0.0,0.0,-5.19242,-0.0,0.0,0.90028,-5.05157,11.3521,10.67768,4.80409,-16.18213,-7.95661,0.10941,-5e-05,-10.84311,-1.45508,0.0001,15.01696,4.40227,8.22561,6.4089,-2.53294,-11.36873,17.19761,25.33635,5.15068,34.65533,-7.61652,44.92804,130.78949,-0.00138,-98.80936,118.07717,0.00436,115.8682,-6.34758,-13.05943,0.00234,-10.35192,7.21257,0.00905,1.98587,-9.19983,6.55401,-21.1648,-11.01641,2.43598,7.71039,-1.45655,6.77839
62,-6.69787,0.0,0.0,-5.47895,-0.0,-0.0,0.8575,-5.19257,11.41696,10.75041,4.87832,-16.24133,-7.7658,0.11487,9e-05,-10.83457,-1.42215,9e-05,14.93296,4.33291,8.22197,6.44099,-2.62167,-11.28066,17.09717,25.21721,5.20482,33.68353,-7.90982,44.78342,130.75731,-0.00156,-99.79977,117.69784,0.00386,116.19425,-6.19925,-13.20084,0.00019,-9.88347,7.65854,0.00618,2.05474,-9.23462,6.41658,-21.10084,-10.99505,2.29498,7.62993,-1.51323,6.81183
63,-6.55033,0.0,-0.0,-5.53538,0.0,-0.0,0.78871,-5.357,11.42175,10.75443,4.97462,-16.2258,-7.57353,0.13972,0.00017,-10.81548,-1.3919,8e-05,14.82376,4.25962,8.28137,6.45409,-2.71819,-11.2394,16.96573,25.1304,5.38158,32.69728,-8.23805,44.60665,130.74997,-0.0007,-101.04766,117.24875,0.00129,116.30872,-5.7433,-13.31143,-0.00131,-9.50199,7.76789,0.00173,2.12443,-9.22692,6.39688,-21.03086,-10.98033,2.27985,7.5149,-1.57154,6.82545
64,-6.1656,0.0,0.0,-5.26639,0.0,-0.0,0.67809,-5.5296,11.37577,10.67884,5.10508,-16.13732,-7.38562,0.17499,0.00018,-10.79279,-1.37444,4e-05,14.67687,4.18297,8.40085,6.43372,-2.81891,-11.24674,16.80315,25.07118,5.6599,31.68317,-8.57606,44.40855,130.78148,0.00044,-102.25528,116.75116,-0.00268,116.15048,-5.1464,-13.40826,-0.00199,-9.23443,7.52584,-0.00219,2.1854,-9.17873,6.47027,-20.96505,-10.9645,2.36701,7.35334,-1.63315,6.80497
65,-5.58692,0.0,-0.0,-4.73822,0.0,-0.0,0.53268,-5.68893,11.32184,10.54399,5.26944,-16.00126,-7.19918,0.21,0.00014,-10.76968,-1.3805,-0.0,14.49227,4.10314,8.5504,6.37989,-2.91655,-11.28355,16.60871,25.02913,6.00495,30.62547,-8.90787,44.19609,130.86363,0.00077,-103.13709,116.25057,-0.00639,115.69151,-4.60511,-13.51352,-0.00208,-9.0015,7.03387,-0.00487,2.22827,-9.11026,6.59433,-20.91488,-10.94969,2.50914,7.15262,-1.69545,6.74965
66,-4.98663,0.0,-0.0,-4.15844,-0.0,0.0,0.38415,-5.80138,11.31276,10.39446,5.44024,-15.85867,-7.00538,0.23718,0.0001,-10.74623,-1.41318,-5e-05,14.29044,4.02225,8.6869,6.31289,-3.00011,-11.32489,16.39075,24.99214,6.37776,29.52093,-9.23325,43.9771,130.99548,-0.00017,-103.56388,115.79358,-0.00775,114.95434,-4.22199,-13.64914,-0.00182,-8.66516,6.4781,-0.0049,2.25228,-9.05282,6.72236,-20.88422,-10.94656,2.65054,6.94362,-1.74872,6.67052
67,-4.50565,0.0,-0.0,-3.7021,0.0,-0.0,0.2566,-5.8347,11.36015,10.26104,5.56701,-15.73816,-6.79365,0.25716,0.00013,-10.71819,-1.46667,-0.0001,14.09229,3.94435,8.78925,6.24963,-3.05804,-11.36583,16.17309,24.95123,6.73835,28.38574,-9.55894,43.76326,131.15744,-0.00172,-103.54799,115.39777,-0.0057,114.06742,-3.99407,-13.82367,-0.00132,-8.11707,6.06205,0.00039,2.26402,-9.03364,6.81495,-20.86929,-10.96484,2.74386,6.7564,-1.78014,6.58096
68,-4.17884,0.0,0.0,-3.41884,0.0,0.0,0.15236,-5.77282,11.42575,10.14795,5.59679,-15.64594,-6.55797,0.27553,0.00023,-10.68224,-1.52894,-0.00012,13.90822,3.87222,8.86532,6.19486,-3.08549,-11.41685,15.98851,24.90297,7.05067,27.24957,-9.88509,43.56706,131.31523,-0.00261,-103.17076,115.03958,-0.00091,113.2505,-3.87272,-14.02242,-0.00072,-7.32363,5.93547,0.01126,2.27093,-9.06185,6.85022,-20.86387,-11.00447,2.7652,6.60579,-1.78295,6.49029
69,-4.00195,0.0,-0.0,-3.29035,-0.0,-0.0,0.06876,-5.62106,11.46594,10.05667,5.49745,-15.58356,-6.30303,0.29422,0.00031,-10.64427,-1.58325,-0.00012,13.74562,3.80499,8.92663,6.15411,-3.09031,-11.47467,15.86224,24.84907,7.29266,26.14079,-10.20248,43.39618,131.43407,-0.00219,-102.56496,114.66702,0.00485,112.69946,-3.81047,-14.21554,-0.00012,-6.33519,6.13059,0.02254,2.27835,-9.12462,6.83073,-20.86162,-11.05463,2.72203,6.4969,-1.76229,6.40336
70,-3.99868,-0.0,0.0,-3.31155,0.0,0.0,0.01373,-5.40781,11.4768,10.00513,5.27764,-15.56656,-6.04226,0.307,0.0003,-10.61725,-1.61162,-9e-05,13.6116,3.74081,8.96735,6.13833,-3.08954,-11.50599,15.79653,24.79676,7.46474,25.07258,-10.50462,43.25003,131.49681,-0.00107,-101.90394,114.22521,0.00937,112.45399,-3.7865,-14.3764,0.00048,-5.29675,6.53218,0.02698,2.29074,-9.19616,6.78141,-20.85565,-11.10127,2.64776,6.43014,-1.73107,6.32221
71,-4.21948,0.0,-0.0,-3.51156,0.0,-0.0,0.00391,-5.17959,11.49949,10.02016,4.99617,-15.62061,-5.78814,0.30242,0.00017,-10.60987,-1.60292,-8e-05,13.5076,3.68162,8.96644,6.1554,-3.09843,-11.46456,15.76886,24.7599,7.58857,24.03795,-10.79897,43.11667,131.51233,-0.00022,-101.3694,113.67736,0.01065,112.38005,-3.80716,-14.49604,0.00103,-4.41972,6.93162,0.02274,2.31099,-9.25431,6.73627,-20.84071,-11.13722,2.58271,6.40138,-1.70033,6.24606
72,-4.68778,0.0,0.0,-3.91017,0.0,0.0,0.04843,-4.98198,11.58154,10.11362,4.74643,-15.75303,-5.54378,0.27242,-2e-05,-10.61937,-1.56101,-7e-05,13.42695,3.63311,8.90803,6.2034,-3.12231,-11.33235,15.74725,24.75648,7.69517,23.01624,-11.10071,42.97152,131.50587,5e-05,-101.11128,113.01167,0.00827,112.28205,-3.88135,-14.58471,0.00139,-3.87806,7.14987,0.0151,2.33674,-9.29391,6.72038,-20.81831,-11.16747,2.55215,6.40297,-1.67436,6.16921
73,-5.34851,0.0,0.0,-4.46255,-0.0,-0.0,0.13446,-4.84341,11.73682,10.26686,4.61335,-15.93626,-5.30002,0.21893,-0.00023,-10.63459,-1.50315,-6e-05,13.35265,3.59913,8.79648,6.26659,-3.15738,-11.1385,15.70971,24.80152,7.81131,21.98724,-11.41376,42.7837,131.50151,0.00012,-101.22131,112.23485,0.0042,112.02123,-3.98536,-14.66213,0.00128,-3.69301,7.13106,0.00934,2.35939,-9.32761,6.73895,-20.79796,-11.20567,2.55581,6.42122,-1.65448,6.08025
74,-6.06087,-0.0,-0.0,-5.04304,-0.0,0.0,0.22547,-4.76436,11.9326,10.43389,4.63002,-16.11935,-5.03944,0.15119,-0.00043,-10.64431,-1.44981,-3e-05,13.25945,3.57857,8.65782,6.31911,-3.19549,-10.9407,15.65214,24.90029,7.95277,20.9442,-11.71987,42.53038,131.51276,0.00049,-101.73405,111.36052,0.00195,111.56655,-4.04166,-14.74768,0.00033,-3.71223,6.93225,0.00568,2.36799,-9.37331,6.77975,-20.79221,-11.26351,2.57523,6.43586,-1.64434,5.96583
75,-6.65263,-0.0,0.0,-5.49001,-0.0,-0.0,0.27206,-4.70549,12.09634,10.55989,4.76673,-16.24484,-4.74697,0.07802,-0.00059,-10.64471,-1.41652,-0.0,13.13223,3.56813,8.53558,6.34579,-3.22766,-10.79909,15.58343,25.0458,8.1236,19.89671,-11.98884,42.21102,131.54303,0.00128,-102.63837,110.40136,0.00407,110.98667,-3.94419,-14.85686,-0.00166,-3.69931,6.64204,0.00193,2.35387,-9.43792,6.82426,-20.81061,-11.34019,2.59047,6.43428,-1.64953,5.81833
76,-7.01201,-0.0,0.0,-5.69165,0.0,0.0,0.23396,-4.61435,12.15483,10.60953,4.95398,-16.27557,-4.41789,0.00623,-0.00063,-10.64054,-1.40718,0.0,12.97649,3.56269,8.47243,6.35414,-3.24952,-10.74595,15.51476,25.21935,8.31881,18.86331,-12.20212,41.85011,131.59,0.00217,-103.87483,109.36703,0.00916,110.38526,-3.61884,-15.00082,-0.00425,-3.45311,6.31716,-0.00292,2.31287,-9.51069,6.85808,-20.85676,-11.42021,2.59256,6.42086,-1.67392,5.64302
77,-7.12749,0.0,0.0,-5.63581,0.0,-0.0,0.09903,-4.48584,12.08344,10.58462,5.11996,-16.22116,-4.05734,-0.05388,-0.00046,-10.63914,-1.4108,-0.0,12.80432,3.55202,8.4883,6.35967,-3.26671,-10.76471,15.44988,25.39381,8.52908,17.86218,-12.37081,41.4865,131.64926,0.00263,-105.29738,108.26237,0.01151,109.79729,-3.08474,-15.17965,-0.00617,-2.89294,5.97244,-0.00798,2.24691,-9.57028,6.87663,-20.92714,-11.48219,2.5858,6.40595,-1.71744,5.45873
78,-7.06512,0.0,0.0,-5.40255,0.0,-0.0,-0.11151,-4.37469,11.91435,10.5185,5.22282,-16.13015,-3.6768,-0.0882,-8e-05,-10.64423,-1.41119,-1e-05,12.62641,3.52428,8.57547,6.37507,-3.29018,-10.80811,15.38266,25.54101,8.74262,16.905,-12.53296,41.15751,131.71597,0.00224,-106.65057,107.08353,0.00501,109.14106,-2.48177,-15.37381,-0.00599,-2.08592,5.60988,-0.01116,2.16539,-9.59938,6.88613,-21.01083,-11.51263,2.5829,6.39954,-1.77453,5.28991
79,-6.93919,-0.0,0.0,-5.12732,0.0,-0.0,-0.35114,-4.34149,11.71242,10.45572,5.26225,-16.06048,-3.28913,-0.08888,0.00032,-10.65422,-1.40145,-2e-05,12.45496,3.47626,8.70347,6.41135,-3.32359,-10.83104,15.3056,25.64049,8.94414,15.99497,-12.73161,40.8877,131.78464,0.00113,-107.668,105.81504,-0.01185,108.29186,-2.01269,-15.55637,-0.00375,-1.19958,5.25795,-0.01095,2.08301,-9.59535,6.89966,-21.09264,-11.51417,2.59703,6.4145,-1.83389,5.15604
80,-6.86079,0.0,-0.0,-4.92938,0.0,-0.0,-0.57302,-4.399,11.54619,10.42777,5.2661,-16.05352,-2.90081,-0.06293,0.00052,-10.66384,-1.38691,-2e-05,12.29519,3.41732,8.83086,6.4704,-3.35873,-10.80777,15.22179,25.68544,9.11465,15.13164,-12.98853,40.68658,131.84975,-0.00011,-108.23009,104.42803,-0.03433,107.19125,-1.82808,-15.71716,-0.00078,-0.41441,4.97325,-0.00819,2.01277,-9.5695,6.92828,-21.16028,-11.50152,2.6339,6.45987,-1.88279,5.06593
81,-6.87061,0.0,-0.0,-4.84275,0.0,0.0,-0.75911,-4.50788,11.45748,10.43752,5.26442,-16.11557,-2.50776,-0.02773,0.00045,-10.66741,-1.37631,-2e-05,12.13609,3.36074,8.92701,6.53711,-3.38452,-10.73793,15.14839,25.68323,9.23662,14.32038,-13.29116,40.55486,131.90697,-0.00097,-108.38594,102.88315,-0.05228,105.90133,-1.96318,-15.86298,0.00159,0.11845,4.80519,-0.00538,1.9593,-9.53531,6.97346,-21.21019,-11.48762,2.68941,6.53103,-1.91446,5.0161
82,-6.93164,0.0,-0.0,-4.82224,0.0,0.0,-0.92377,-4.61838,11.44623,10.46706,5.27022,-16.22093,-2.10051,0.00216,0.00023,-10.66209,-1.37159,-1e-05,11.95533,3.31258,8.98538,6.58424,-3.39803,-10.63742,15.10943,25.6489,9.3028,13.57548,-13.60066,40.48778,131.95367,-0.00128,-108.24792,101.14533,-0.05353,104.6112,-2.34945,-15.99778,0.00261,0.28606,4.77104,-0.0042,1.92021,-9.49608,7.02741,-21.24513,-11.47248,2.75508,6.60878,-1.93099,4.99266
83,-6.97363,-0.0,0.0,-4.80186,0.0,-0.0,-1.09372,-4.71551,11.47725,10.49652,5.27795,-16.33327,-1.6748,0.02297,3e-05,-10.64939,-1.36582,-1e-05,11.73086,3.27,9.02141,6.58417,-3.40581,-10.52046,15.12463,25.59352,9.32146,12.91078,-13.87359,40.46629,131.98917,-0.00111,-107.95808,99.20205,-0.03152,103.58685,-2.84278,-16.11562,0.00218,0.07134,4.83839,-0.00398,1.89492,-9.44404,7.08033,-21.26525,-11.44516,2.82494,6.66411,-1.9387,4.97771
84,-6.94882,0.0,-0.0,-4.74787,0.0,-0.0,-1.28488,-4.81557,11.49658,10.51719,5.27583,-16.42082,-1.24097,0.03968,-5e-05,-10.63508,-1.35086,-1e-05,11.46072,3.22667,9.06046,6.52836,-3.41763,-10.3997,15.20025,25.51709,9.31538,12.32909,-14.08181,40.45398,132.01599,-0.00059,-107.74712,97.06607,0.0071,103.04878,-3.25175,-16.21158,0.00084,-0.39987,4.9179,-0.00291,1.89223,-9.37154,7.12665,-21.26126,-11.39648,2.89688,6.67475,-1.94148,4.95414
85,-6.89016,0.0,-0.0,-4.69019,-0.0,0.0,-1.48526,-4.92423,11.46089,10.53779,5.26044,-16.46588,-0.82618,0.05902,-2e-05,-10.6283,-1.32514,-2e-05,11.1825,3.17867,9.11523,6.44625,-3.43911,-10.29437,15.32527,25.41482,9.31593,11.82493,-14.21954,40.41618,132.04095,0.00012,-107.88315,94.76234,0.04377,103.04739,-3.40506,-16.2902,-0.00062,-0.9213,4.90489,-0.00088,1.92844,-9.2824,7.16586,-21.21722,-11.32973,2.96891,6.64737,-1.93825,4.90686
86,-6.88011,0.0,0.0,-4.68369,0.0,-0.0,-1.66318,-5.02276,11.36759,10.57239,5.241,-16.47073,-0.46277,0.08388,2e-05,-10.63739,-1.29527,-4e-05,10.95236,3.12946,9.17521,6.38756,-3.46633,-10.22128,15.47516,25.29161,9.35205,11.39437,-14.29633,40.34222,132.07367,0.00073,-108.44843,92.31322,0.05883,103.43945,-3.25735,-16.35977,-0.00157,-1.32179,4.74418,0.00042,2.01555,-9.19251,7.19997,-21.12234,-11.2603,3.03651,6.60867,-1.92465,4.82779
87,-6.94348,-0.0,0.0,-4.73113,0.0,-0.0,-1.7972,-5.09658,11.25607,10.61849,5.23432,-16.45247,-0.17042,0.11289,3e-05,-10.66395,-1.27237,-3e-05,10.79611,3.08976,9.22073,6.37812,-3.48661,-10.18052,15.62182,25.16832,9.43808,11.03489,-14.32454,40.24096,132.12175,0.00083,-109.1936,89.73446,0.0426,103.98056,-2.93881,-16.42521,-0.00169,-1.5266,4.4517,-0.00028,2.14881,-9.1208,7.23113,-20.98283,-11.20645,3.09408,6.57106,-1.89745,4.72267
88,-7.04396,-0.0,-0.0,-4.79639,-0.0,0.0,-1.88415,-5.15469,11.18361,10.6625,5.25867,-16.4326,0.04927,0.14405,2e-05,-10.70331,-1.26444,-1e-05,10.70051,3.06954,9.23489,6.40924,-3.48812,-10.15731,15.74489,25.07177,9.56765,10.73378,-14.31267,40.10852,132.18378,0.00021,-109.69965,87.04278,-0.00054,104.4346,-2.67224,-16.4897,-0.00111,-1.52453,4.07539,-0.003,2.30384,-9.0792,7.25945,-20.82395,-11.17917,3.13695,6.52712,-1.85876,4.60748
89,-7.1824,0.0,-0.0,-4.88872,0.0,-0.0,-1.91856,-5.21567,11.19814,10.70716,5.32632,-16.42782,0.20353,0.1763,-1e-05,-10.75153,-1.27106,2e-05,10.6487,3.07138,9.20004,6.46661,-3.46848,-10.13767,15.83644,25.01811,9.71883,10.4609,-14.26604,39.90414,132.24724,-0.00061,-109.71805,84.26615,-0.05163,104.66351,-2.60858,-16.55683,-0.00034,-1.30987,3.65,-0.00684,2.44618,-9.06845,7.27969,-20.68033,-11.17714,3.15999,6.47631,-1.81546,4.4959
90,-7.40182,0.0,-0.0,-5.06602,-0.0,0.0,-1.89038,-5.28905,11.31595,10.77205,5.43205,-16.44069,0.29993,0.20643,-5e-05,-10.80745,-1.28619,5e-05,10.63758,3.09349,9.10061,6.54449,-3.43219,-10.12303,15.89599,25.00362,9.8663,10.17633,-14.18853,39.56718,132.29671,-0.0009,-109.34444,81.44572,-0.08386,104.72498,-2.72293,-16.62325,0.00018,-0.89713,3.21057,-0.00999,2.54584,-9.07998,7.27841,-20.58161,-11.18725,3.15419,6.43329,-1.77365,4.39221
91,-7.67202,-0.0,0.0,-5.33807,0.0,0.0,-1.81333,-5.38044,11.51112,10.86254,5.54664,-16.45918,0.34779,0.22741,-7e-05,-10.86623,-1.30303,6e-05,10.65576,3.13497,8.94004,6.62565,-3.38411,-10.12908,15.92348,25.00847,9.98961,9.84897,-14.08077,39.06162,132.32399,-0.00058,-108.8847,78.62328,-0.08,104.86915,-2.86621,-16.6675,0.00042,-0.37442,2.83208,-0.01081,2.58699,-9.09958,7.23665,-20.54288,-11.18907,3.10768,6.4033,-1.73566,4.29456
92,-7.85624,0.0,0.0,-5.62266,0.0,-0.0,-1.73357,-5.50344,11.73046,10.95542,5.62717,-16.47495,0.35975,0.23227,-6e-05,-10.91586,-1.31395,7e-05,10.67283,3.19471,8.74703,6.67321,-3.32848,-10.16702,15.91858,25.00953,10.07423,9.47278,-13.93706,38.40324,132.33003,-6e-05,-108.59061,75.82083,-0.04223,105.37558,-2.90357,-16.65169,0.00069,0.10015,2.62527,-0.01003,2.56908,-9.11111,7.13994,-20.56373,-11.16216,3.01356,6.36969,-1.70261,4.20015
93,-7.83256,0.0,-0.0,-5.81589,0.0,-0.0,-1.69781,-5.66638,11.9232,11.01724,5.63703,-16.49845,0.34588,0.21881,-3e-05,-10.94288,-1.31203,7e-05,10.66888,3.26957,8.56132,6.66205,-3.26828,-10.22773,15.88529,24.99366,10.11257,9.0688,-13.74475,37.64349,132.31802,0.00041,-108.50143,73.03307,0.01536,106.39843,-2.80013,-16.54316,0.00116,0.37572,2.69262,-0.00998,2.50378,-9.10162,6.99108,-20.63132,-11.09569,2.8796,6.31888,-1.67607,4.10833
94,-7.58395,0.0,-0.0,-5.85123,0.0,-0.0,-1.72586,-5.85343,12.05357,11.02125,5.56116,-16.54642,0.31003,0.19099,1e-05,-10.93865,-1.29749,7e-05,10.65447,3.35618,8.42102,6.6011,-3.20137,-10.2898,15.83575,24.96404,10.10767,8.67215,-13.48961,36.82598,132.28622,0.0008,-108.47832,70.24406,0.07747,107.95541,-2.61212,-16.33936,0.00146,0.41131,3.07137,-0.01082,2.41291,-9.06696,6.81638,-20.72292,-10.99604,2.73185,6.25816,-1.65518,4.02017
95,-7.16343,0.0,-0.0,-5.69127,-0.0,-0.0,-1.81411,-6.03301,12.09485,10.95104,5.41157,-16.61878,0.25442,0.15791,4e-05,-10.89934,-1.27946,7e-05,10.64902,3.45225,8.35769,6.51232,-3.12034,-10.34209,15.7882,24.93568,10.07363,8.31374,-13.16777,35.95672,132.22847,0.00106,-108.39168,67.45389,0.12853,109.98132,-2.41659,-16.07573,0.00127,0.32058,3.69013,-0.00956,2.32457,-9.01396,6.65781,-20.81016,-10.88577,2.60637,6.19785,-1.63397,3.93406
96,-6.6639,0.0,-0.0,-5.34976,0.0,0.0,-1.94124,-6.16664,12.03341,10.81048,5.21969,-16.69054,0.18313,0.12851,6e-05,-10.82522,-1.26988,2e-05,10.66607,3.55599,8.38369,6.41558,-3.01814,-10.3959,15.7588,24.92384,10.02979,8.00993,-12.79687,35.0194,132.14285,0.001,-108.26408,64.69005,0.15084,112.3056,-2.24561,-15.81004,0.00076,0.2937,4.39951,-0.00467,2.26302,-8.95665,6.55353,-20.86925,-10.7926,2.53287,6.14289,-1.60331,3.8446
97,-6.22923,0.0,-0.0,-4.93568,0.0,-0.0,-2.06523,-6.21021,11.88608,10.63277,5.01934,-16.72446,0.1001,0.10528,8e-05,-10.72217,-1.27589,-6e-05,10.72216,3.66507,8.48035,6.33793,-2.89477,-10.47218,15.75271,24.93649,9.99179,7.76487,-12.41634,34.02296,132.03806,0.00052,-108.20803,61.99179,0.13337,114.60544,-2.08629,-15.59344,0.0002,0.44906,5.06917,0.00106,2.23683,-8.90817,6.52054,-20.89239,-10.73521,2.52174,6.10815,-1.5565,3.74996
98,-6.01462,-0.0,0.0,-4.61356,0.0,0.0,-2.13433,-6.13404,11.70196,10.46636,4.83697,-16.69609,0.00676,0.08491,0.00013,-10.60017,-1.2957,-0.00015,10.83332,3.77511,8.6074,6.30826,-2.75977,-10.5768,15.76206,24.97499,9.96418,7.57825,-12.07371,33.03234,131.93005,-0.00019,-108.31306,59.37962,0.08244,116.48957,-1.91759,-15.45169,-0.00032,0.75011,5.64307,0.00383,2.23641,-8.87328,6.55024,-20.88969,-10.71466,2.56316,6.11766,-1.49343,3.65752
99,-6.11491,0.0,-0.0,-4.51129,0.0,-0.0,-2.11161,-5.94111,11.53671,10.35028,4.69524,-16.61245,-0.10021,0.064,0.00017,-10.46896,-1.32192,-0.00022,11.00546,3.87922,8.72625,6.34155,-2.62841,-10.69144,15.77313,25.03709,9.9397,7.45027,-11.80539,32.14872,131.8331,-0.00081,-108.62608,56.83679,0.01779,117.67352,-1.73277,-15.3874,-0.00073,1.04471,6.12068,0.00252,2.24479,-8.84567,6.61565,-20.87809,-10.71465,2.63469,6.18807,-1.41989,3.57989
100,-6.52422,0.0,0.0,-4.66351,0.0,0.0,-1.99173,-5.6719,11.42424,10.3016,4.61511,-16.51228,-0.23019,0.04436,0.00016,-10.33512,-1.34787,-0.00028,11.23113,3.96897,8.81637,6.43006,-2.51541,-10.78493,15.77609,25.1174,9.90655,7.38346,-11.62382,31.45586,131.75438,-0.00106,-109.13263,54.31772,-0.04089,118.07745,-1.55105,-15.38873,-0.00096,1.17044,6.52901,-0.00117,2.25303,-8.81276,6.6829,-20.86616,-10.71048,2.71004,6.31355,-1.34375,3.52676
