PaulMeinheit/Bachelor_Muay_Thai/results/Sub01_Teep_finishedJointAngles5.csv
Unnamed: 0_level_0,L_MTP_ANGLE,L_MTP_ANGLE,L_MTP_ANGLE,R_MTP_ANGLE,R_MTP_ANGLE,R_MTP_ANGLE,L_ANKLE_ANGLE,L_ANKLE_ANGLE,L_ANKLE_ANGLE,R_ANKLE_ANGLE,R_ANKLE_ANGLE,R_ANKLE_ANGLE,L_KNEE_ANGLE,L_KNEE_ANGLE,L_KNEE_ANGLE,R_KNEE_ANGLE,R_KNEE_ANGLE,R_KNEE_ANGLE,L_HIP_ANGLE,L_HIP_ANGLE,L_HIP_ANGLE,R_HIP_ANGLE,R_HIP_ANGLE,R_HIP_ANGLE,L_SHOULDER_ANGLE,L_SHOULDER_ANGLE,L_SHOULDER_ANGLE,R_SHOULDER_ANGLE,R_SHOULDER_ANGLE,R_SHOULDER_ANGLE,L_ELBOW_ANGLE,L_ELBOW_ANGLE,L_ELBOW_ANGLE,R_ELBOW_ANGLE,R_ELBOW_ANGLE,R_ELBOW_ANGLE,L_WRIST_ANGLE,L_WRIST_ANGLE,L_WRIST_ANGLE,R_WRIST_ANGLE,R_WRIST_ANGLE,R_WRIST_ANGLE,NECK_ANGLE,NECK_ANGLE,NECK_ANGLE,NECK_ANGLE_SHADOW,NECK_ANGLE_SHADOW,NECK_ANGLE_SHADOW,Trunk_Joint_Angle,Trunk_Joint_Angle,Trunk_Joint_Angle
ITEM,X,Y,Z,X,Y,Z,X,Y,Z,X,Y,Z,X,Y,Z,X,Y,Z,X,Y,Z,X,Y,Z,X,Y,Z,X,Y,Z,X,Y,Z,X,Y,Z,X,Y,Z,X,Y,Z,X,Y,Z,X,Y,Z,X,Y,Z
501,-3.7995,0.0,0.0,-1.81615,0.0,-0.0,0.89594,-4.47683,7.55175,14.2079,3.28083,-17.90187,-20.44788,-2.28047,6e-05,-21.59023,-3.30366,-0.00016,25.90491,7.04492,9.81077,13.32047,-2.51679,-12.84841,37.94026,26.15176,-14.40574,49.5806,-6.53333,35.47094,130.39445,-0.00189,-105.11185,117.98081,-0.00099,107.07622,-8.16726,-14.93852,0.00175,-11.00673,7.37827,-0.00033,-5.32805,-7.56387,5.58018,-28.38016,-9.13364,2.18784,-1.37842,-5.12968,7.1556
502,-3.45807,0.0,-0.0,-1.67772,0.0,-0.0,0.86532,-4.44914,7.5832,14.28203,3.31633,-17.72343,-20.45332,-2.24475,0.00014,-21.52221,-3.31621,-0.00034,26.00133,7.08265,9.69712,13.30993,-2.46385,-13.22823,37.47638,26.05795,-14.0868,49.54935,-6.53859,35.56968,130.47621,-0.0021,-104.5136,117.90155,-0.0019,106.13477,-7.84921,-14.95724,0.00149,-10.70161,7.35918,-0.00031,-5.47702,-7.65003,5.53434,-28.53526,-9.19512,2.11131,-1.26923,-5.25572,7.21031
503,-3.03462,0.0,-0.0,-1.49774,0.0,-0.0,0.79845,-4.44233,7.59716,14.32817,3.40904,-17.49272,-20.41421,-2.17364,0.00028,-21.44207,-3.36032,-0.00052,26.08333,7.105,9.63359,13.3117,-2.41621,-13.62324,36.98583,25.9304,-13.65413,49.5166,-6.55928,35.72445,130.55118,-0.00149,-104.0308,117.77887,-0.00229,105.3403,-7.24739,-14.97085,0.00047,-10.597,7.29586,0.00033,-5.65228,-7.75532,5.5649,-28.71679,-9.30386,2.09775,-1.1299,-5.38954,7.2839
504,-2.63973,-0.0,0.0,-1.34905,-0.0,-0.0,0.73556,-4.48835,7.59293,14.36811,3.56024,-17.26377,-20.33692,-2.06623,0.0004,-21.35608,-3.41145,-0.00057,26.12912,7.1146,9.6182,13.3009,-2.37306,-13.96268,36.4682,25.7403,-13.13372,49.47956,-6.58778,35.93231,130.63217,0.00019,-103.85841,117.63347,-0.00198,104.70354,-6.43105,-15.00706,-0.00101,-10.68494,7.18372,0.00124,-5.81713,-7.87761,5.66665,-28.88807,-9.45587,2.14319,-0.9961,-5.52568,7.36867
505,-2.41789,0.0,0.0,-1.31483,0.0,-0.0,0.73003,-4.60257,7.61214,14.42811,3.70816,-17.14431,-20.23392,-1.94349,0.00041,-21.2688,-3.41782,-0.00042,26.11321,7.11976,9.60536,13.24182,-2.32898,-14.14225,35.92267,25.47321,-12.56927,49.43345,-6.62389,36.16299,130.72986,0.00291,-104.17084,117.49953,-0.00116,104.19279,-5.53425,-15.06339,-0.00212,-10.91651,7.049,0.00181,-5.95451,-8.00372,5.80401,-29.0317,-9.62521,2.21999,-0.90915,-5.65066,7.45869
506,-2.46149,0.0,0.0,-1.4389,-0.0,0.0,0.81275,-4.76622,7.69671,14.52309,3.77892,-17.21265,-20.12063,-1.83345,0.00029,-21.18107,-3.33688,-0.00012,26.02944,7.12946,9.54615,13.11606,-2.2801,-14.10171,35.3511,25.13602,-12.00638,49.37622,-6.6663,36.37595,130.84456,0.00571,-105.06942,117.4101,-0.00019,103.7901,-4.7127,-15.10785,-0.00258,-11.22293,6.93373,0.00167,-6.07034,-8.11157,5.93248,-29.15276,-9.77429,2.29582,-0.88799,-5.75216,7.55132
507,-2.75492,0.0,0.0,-1.69962,0.0,0.0,0.97212,-4.93396,7.85295,14.64494,3.74241,-17.45981,-20.01186,-1.75266,0.0001,-21.08955,-3.16693,0.00023,25.90137,7.1501,9.42777,12.93842,-2.22524,-13.87187,34.76016,24.75681,-11.48307,49.30883,-6.70946,36.53975,130.96346,0.00685,-106.49268,117.38374,0.00057,103.50072,-4.11924,-15.09991,-0.00304,-11.52063,6.87072,0.00102,-6.18225,-8.18081,6.02269,-29.26793,-9.873,2.35163,-0.91673,-5.82685,7.64749
508,-3.19455,-0.0,-0.0,-2.02263,0.0,-0.0,1.16517,-5.06784,8.04783,14.7642,3.62581,-17.80746,-19.92019,-1.69865,-6e-05,-20.98688,-2.94405,0.00052,25.77107,7.18593,9.27437,12.74532,-2.16143,-13.54925,34.16471,24.37673,-11.0294,49.22894,-6.7486,36.64075,131.06393,0.00529,-108.18726,117.42023,0.00095,103.31266,-3.89427,-15.02004,-0.00412,-11.70489,6.86663,0.00041,-6.30445,-8.20443,6.07412,-29.3909,-9.91469,2.38976,-0.95737,-5.88001,7.74841
509,-3.63948,0.0,-0.0,-2.31217,-0.0,0.0,1.33954,-5.15549,8.22176,14.84313,3.49497,-18.15086,-19.85531,-1.6549,-0.00014,-20.86187,-2.72235,0.00066,25.6789,7.23903,9.12381,12.56991,-2.08162,-13.25501,33.58942,24.03643,-10.66663,49.12591,-6.78668,36.68132,131.12401,0.002,-109.83458,117.50497,0.00096,103.19072,-4.1182,-14.89807,-0.00477,-11.66655,6.89476,7e-05,-6.43926,-8.19287,6.11426,-29.52425,-9.91963,2.43147,-0.97325,-5.92021,7.8494
510,-3.98,0.0,0.0,-2.49687,0.0,-0.0,1.45593,-5.20714,8.32209,14.85278,3.41159,-18.40772,-19.82155,-1.60615,-0.00017,-20.70117,-2.54714,0.00061,25.64505,7.30967,8.99567,12.42223,-1.97684,-13.08491,33.06154,23.76403,-10.39845,48.98321,-6.83535,36.67417,131.13785,-0.00085,-111.2293,117.61851,0.00064,103.13101,-4.74127,-14.81393,-0.00285,-11.33791,6.91349,-0.00032,-6.57989,-8.16877,6.18583,-29.66201,-9.92524,2.50723,-0.9486,-5.95309,7.93909
511,-4.1878,0.0,-0.0,-2.56371,0.0,-0.0,1.50217,-5.24601,8.33795,14.78387,3.39356,-18.54841,-19.81389,-1.55162,-0.00017,-20.49243,-2.43614,0.00037,25.66158,7.39936,8.87622,12.28588,-1.8387,-13.07041,32.59639,23.56973,-10.20231,48.78585,-6.90978,36.63747,131.12706,-0.00172,-112.35779,117.74628,0.00018,103.17046,-5.57153,-14.86548,0.00154,-10.73884,6.89629,-0.00098,-6.71995,-8.1573,6.32609,-29.7988,-9.96911,2.64146,-0.89324,-5.97686,8.00684
512,-4.3004,-0.0,0.0,-2.54988,0.0,-0.0,1.48727,-5.29402,8.29695,14.647,3.41553,-18.57666,-19.81581,-1.50303,-0.00015,-20.22894,-2.38619,-6e-05,25.70073,7.51191,8.74151,12.13492,-1.66265,-13.19361,32.18879,23.44612,-10.03093,48.52825,-7.02207,36.5906,131.13428,-0.00063,-113.32796,117.88124,-0.00011,103.30949,-6.34547,-15.10472,0.00477,-9.98493,6.83561,-0.00157,-6.86074,-8.17859,6.54536,-29.93694,-10.07378,2.83576,-0.82903,-5.98453,8.05225
513,-4.37616,0.0,0.0,-2.51377,0.0,0.0,1.42674,-5.35944,8.23285,14.46812,3.43643,-18.50028,-19.80357,-1.47351,-0.00012,-19.91454,-2.38925,-0.00061,25.7322,7.6504,8.59104,11.95543,-1.45149,-13.42226,31.8186,23.37158,-9.82863,48.2207,-7.17586,36.55107,131.19852,0.00125,-114.20757,118.01619,-0.00012,103.46974,-6.84237,-15.48186,0.00411,-9.2417,6.7388,-0.00138,-7.00971,-8.24464,6.81634,-30.08505,-10.23966,3.06013,-0.77153,-5.97184,8.08717
514,-4.46125,0.0,-0.0,-2.51077,-0.0,0.0,1.33335,-5.43197,8.15469,14.28026,3.42218,-18.33146,-19.75978,-1.46881,-0.00012,-19.5638,-2.43728,-0.00116,25.73783,7.81488,8.45598,11.75124,-1.21423,-13.72303,31.46438,23.31638,-9.55817,47.89124,-7.36327,36.53365,131.3309,0.00236,-114.95024,118.13335,-0.00023,103.55938,-6.97924,-15.86778,0.00139,-8.64683,6.64009,-0.00019,-7.17158,-8.3591,7.08432,-30.24927,-10.44891,3.2625,-0.72487,-5.94149,8.12468
515,-4.57418,-0.0,-0.0,-2.57884,0.0,-0.0,1.21504,-5.48561,8.04108,14.11188,3.35517,-18.10303,-19.68687,-1.48497,-0.00012,-19.19541,-2.5176,-0.00147,25.71698,8.00337,8.38032,11.5337,-0.96013,-14.05654,31.11462,23.25215,-9.21996,47.57803,-7.56833,36.54902,131.50766,0.00202,-115.47145,118.20215,-0.00108,103.53201,-6.84394,-16.13631,-0.0002,-8.25304,6.58525,0.00114,-7.34068,-8.51817,7.29706,-30.42511,-10.67774,3.396,-0.69004,-5.90095,8.1663
516,-4.71752,-0.0,-0.0,-2.73975,0.0,-0.0,1.07935,-5.49174,7.87057,13.97884,3.23597,-17.8768,-19.6053,-1.51186,-0.00011,-18.8242,-2.6068,-0.00135,25.6823,8.21157,8.39197,11.31208,-0.69644,-14.36756,30.76897,23.16237,-8.84602,47.313,-7.77585,36.60087,131.68369,0.00085,-115.7204,118.19085,-0.00293,103.35061,-6.65487,-16.22876,-0.00048,-8.03493,6.56919,0.00161,-7.50332,-8.71223,7.43735,-30.59895,-10.91064,3.44841,-0.67031,-5.86058,8.20393
517,-4.89294,0.0,-0.0,-3.00231,0.0,0.0,0.9357,-5.43695,7.65358,13.88427,3.08396,-17.72525,-19.53782,-1.53691,-7e-05,-18.45548,-2.6732,-0.0008,25.65152,8.42923,8.48337,11.09104,-0.43164,-14.59426,30.42929,23.0455,-8.47061,47.10661,-7.97734,36.68303,131.8188,-6e-05,-115.6652,118.08773,-0.00512,102.97471,-6.63867,-16.1653,-0.00118,-7.93251,6.52016,0.00129,-7.6487,-8.92887,7.53682,-30.75854,-11.14848,3.45393,-0.66681,-5.83329,8.2301
518,-5.08152,0.0,0.0,-3.34463,0.0,-0.0,0.78815,-5.33328,7.4259,13.82053,2.93451,-17.68973,-19.49695,-1.54604,-5e-05,-18.08378,-2.69239,-4e-05,25.63928,8.64048,8.61588,10.86935,-0.17547,-14.70494,30.09033,22.90755,-8.10081,46.9432,-8.16882,36.78076,131.89699,-7e-05,-115.25224,117.91743,-0.00608,102.46117,-6.88235,-16.00096,-0.00275,-7.88114,6.38537,0.00073,-7.77762,-9.15663,7.66187,-30.90229,-11.40644,3.47856,-0.67388,-5.82976,8.24131
519,-5.22616,0.0,-0.0,-3.69927,-0.0,0.0,0.63138,-5.21682,7.22324,13.7694,2.82279,-17.75392,-19.48348,-1.52667,-5e-05,-17.69876,-2.66114,0.00064,25.65053,8.83224,8.74222,10.64022,0.067,-14.72045,29.73841,22.75389,-7.71154,46.78962,-8.34499,36.8775,131.92703,0.00057,-114.42566,117.7347,-0.00495,102.01695,-7.28616,-15.7642,-0.00402,-7.82776,6.20623,0.00036,-7.89969,-9.38689,7.88153,-31.03748,-11.70335,3.58972,-0.68077,-5.85057,8.23775
520,-5.26582,-0.0,-0.0,-3.977,-0.0,-0.0,0.46033,-5.13486,7.07359,13.70575,2.75942,-17.85847,-19.49029,-1.47555,-7e-05,-17.29565,-2.59375,0.00102,25.68017,9.0035,8.8254,10.39927,0.29823,-14.69319,29.35801,22.58961,-7.26842,46.61229,-8.49913,36.96166,131.93092,0.00112,-113.23425,117.5965,-0.0029,101.87,-7.65184,-15.44799,-0.00361,-7.74115,6.0867,0.00029,-8.02102,-9.61166,8.23626,-31.16829,-12.04754,3.82819,-0.67424,-5.88416,8.22752
521,-5.17583,-0.0,0.0,-4.10641,0.0,0.0,0.2778,-5.12142,6.9976,13.6058,2.72261,-17.93522,-19.5085,-1.40404,-8e-05,-16.88053,-2.51026,0.00104,25.72031,9.1666,8.84707,10.15294,0.52539,-14.67498,28.94222,22.42472,-6.75663,46.39248,-8.63128,37.02851,131.93173,0.00107,-111.90149,117.53474,-0.00164,102.09851,-7.81081,-15.05751,-0.00124,-7.62182,6.11105,0.00035,-8.13373,-9.82074,8.72047,-31.28536,-12.42741,4.19313,-0.64132,-5.91338,8.22888
522,-4.97545,0.0,-0.0,-4.06661,-0.0,0.0,0.09239,-5.17656,7.00382,13.45935,2.67499,-17.94226,-19.53605,-1.33523,-6e-05,-16.46542,-2.42781,0.00082,25.767,9.34117,8.8063,9.91437,0.75712,-14.69643,28.49896,22.27582,-6.19293,46.13143,-8.75558,37.07877,131.94574,0.00064,-110.72897,117.54876,-0.00147,102.6058,-7.70149,-14.63915,0.00146,-7.50852,6.29648,0.00011,-8.21778,-10.00452,9.28241,-31.36836,-12.81402,4.64066,-0.57661,-5.92364,8.26375
523,-4.72681,-0.0,-0.0,-3.91233,-0.0,0.0,-0.08352,-5.2705,7.08691,13.28377,2.59302,-17.88615,-19.58124,-1.2945,3e-05,-16.05877,-2.35558,0.0005,25.82155,9.54418,8.71057,9.69194,1.00057,-14.756,28.04733,22.16094,-5.61681,45.84469,-8.89537,37.11314,131.9805,0.00031,-109.92962,117.61752,-0.00156,103.22004,-7.37186,-14.26993,0.00217,-7.44155,6.59693,-0.00037,-8.25429,-10.16033,9.83924,-31.40017,-13.17281,5.09514,-0.48675,-5.90779,8.34675
524,-4.51741,-0.0,0.0,-3.75857,-0.0,-0.0,-0.23832,-5.36912,7.22796,13.12308,2.49172,-17.80945,-19.6554,-1.29736,0.00018,-15.66068,-2.29674,0.00021,25.88843,9.78054,8.56886,9.48445,1.25796,-14.83182,27.60811,22.09112,-5.07196,45.55075,-9.06809,37.12525,132.03883,0.00027,-109.54045,117.71828,-0.0012,103.77586,-6.93593,-14.04284,0.0002,-7.40241,6.93528,-0.00048,-8.23851,-10.29344,10.30339,-31.37971,-13.47474,5.47301,-0.38558,-5.86641,8.47585
525,-4.43056,0.0,-0.0,-3.7262,-0.0,0.0,-0.36565,-5.45702,7.4027,13.02483,2.41997,-17.76043,-19.76084,-1.3439,0.00036,-15.26797,-2.25319,-4e-05,25.96968,10.04153,8.38804,9.28516,1.5261,-14.89914,27.19709,22.06432,-4.58806,45.26323,-9.27311,37.10303,132.12309,0.00035,-109.44573,117.83579,-0.00028,104.13922,-6.51706,-14.04743,-0.00264,-7.3237,7.23727,-6e-05,-8.18285,-10.41076,10.61282,-31.32314,-13.70224,5.71353,-0.28706,-5.80427,8.63244
526,-4.522,0.0,0.0,-3.88704,0.0,0.0,-0.4646,-5.53824,7.5916,13.01133,2.42634,-17.76689,-19.88597,-1.42114,0.00043,-14.88367,-2.22638,-0.00024,26.06215,10.31178,8.1763,9.09158,1.79801,-14.93855,26.82438,22.06654,-4.17215,44.99011,-9.49142,37.03878,132.23207,0.00039,-109.49097,117.95811,0.00076,104.2398,-6.20538,-14.33547,-0.00352,-7.16102,7.45213,0.00037,-8.11042,-10.51523,10.75261,-31.25518,-13.85233,5.80141,-0.19939,-5.7265,8.79294
527,-4.78658,-0.0,0.0,-4.22258,0.0,0.0,-0.54566,-5.61905,7.76902,13.06317,2.52622,-17.81038,-20.01277,-1.50408,0.00031,-14.51754,-2.21767,-0.00041,26.1633,10.57654,7.95841,8.91167,2.06482,-14.95561,26.49532,22.07933,-3.81493,44.73626,-9.69674,36.93575,132.35278,0.00038,-109.58509,118.06911,0.00132,104.10265,-6.0591,-14.8826,-0.001,-6.92131,7.56065,0.00047,-8.04587,-10.60616,10.75577,-31.19934,-13.93716,5.76752,-0.12099,-5.63664,8.93926
528,-5.15143,-0.0,0.0,-4.63481,0.0,-0.0,-0.63252,-5.69998,7.89685,13.12833,2.68694,-17.82963,-20.1286,-1.5617,1e-05,-14.17743,-2.22614,-0.00047,26.27408,10.82543,7.77688,8.75625,2.31847,-14.98673,26.21001,22.08848,-3.50269,44.50648,-9.87136,36.80736,132.45737,0.00038,-109.69826,118.14695,0.00118,103.83176,-6.1156,-15.57553,0.00331,-6.63883,7.56814,0.0004,-8.00849,-10.68174,10.68233,-31.17228,-13.97826,5.66852,-0.04524,-5.53638,9.06034
529,-5.52445,-0.0,0.0,-5.01688,0.0,-0.0,-0.74647,-5.78564,7.94964,13.15347,2.83809,-17.76723,-20.23079,-1.57453,-0.00032,-13.86336,-2.24325,-0.00039,26.39057,11.05435,7.66466,8.62439,2.55362,-15.06559,25.96298,22.08894,-3.22295,44.30814,-10.0164,36.67397,132.51173,0.00046,-109.79477,118.16975,0.00074,103.56296,-6.37529,-16.25136,0.00571,-6.36207,7.48463,0.00047,-8.00779,-10.73897,10.59294,-31.18068,-13.99633,5.5621,0.0285,-5.42773,9.15139
530,-5.84033,0.0,-0.0,-5.30993,0.0,-0.0,-0.88973,-5.89145,7.93804,13.11058,2.91208,-17.61091,-20.32331,-1.54989,-0.00055,-13.5694,-2.25553,-0.00019,26.49763,11.26723,7.62117,8.49995,2.76943,-15.19132,25.74285,22.08505,-2.96485,44.15057,-10.14856,36.55658,132.49161,0.00075,-109.81078,118.12654,0.00067,103.41841,-6.79534,-16.76199,0.00382,-6.13914,7.31962,0.00087,-8.04049,-10.77261,10.53434,-31.21895,-14.00459,5.49391,0.09064,-5.31541,9.2145
531,-6.07907,-0.0,0.0,-5.51292,0.0,-0.0,-1.04299,-6.03634,7.90281,13.00378,2.88466,-17.39919,-20.41319,-1.52071,-0.00059,-13.28996,-2.25449,2e-05,26.57853,11.47759,7.61345,8.36585,2.97277,-15.3269,25.53118,22.08652,-2.71802,44.03886,-10.28513,36.46646,132.39632,0.00119,-109.71213,118.02534,0.00114,103.46964,-7.29251,-17.01688,-0.00114,-5.98524,7.09065,0.00146,-8.09148,-10.77834,10.53961,-31.2703,-14.0119,5.4965,0.13138,-5.20525,9.25758
532,-6.26159,0.0,0.0,-5.65791,0.0,-0.0,-1.17906,-6.22975,7.89123,12.85796,2.77494,-17.19756,-20.50907,-1.52848,-0.00037,-13.02377,-2.24118,0.00014,26.63018,11.70487,7.59445,8.21947,3.17756,-15.42095,25.30537,22.10203,-2.47113,43.96594,-10.42966,36.39875,132.25127,0.00137,-109.52837,117.89052,0.00165,103.70401,-7.73137,-17.00551,-0.00525,-5.88143,6.81948,0.00187,-8.13921,-10.76084,10.63243,-31.31272,-14.03169,5.58999,0.15268,-5.10039,9.29018
533,-6.41205,0.0,0.0,-5.76081,0.0,-0.0,-1.28456,-6.46001,7.93128,12.69701,2.61264,-17.05592,-20.62133,-1.60113,7e-05,-12.77225,-2.22247,0.00015,26.66607,11.96503,7.52752,8.07125,3.39807,-15.44322,25.04859,22.13517,-2.21522,43.91203,-10.56941,36.33525,132.09447,0.00109,-109.30679,117.75174,0.00159,104.026,-7.94373,-16.79838,-0.00539,-5.79275,6.53143,0.00174,-8.16229,-10.73836,10.82645,-31.32589,-14.08603,5.77977,0.16675,-4.99884,9.31858
534,-6.53406,0.0,-0.0,-5.8031,0.0,0.0,-1.36775,-6.69048,8.01938,12.53098,2.4155,-16.97774,-20.763,-1.74069,0.00065,-12.5362,-2.2058,9e-05,26.70898,12.26286,7.40406,7.93371,3.6417,-15.40924,24.76034,22.18399,-1.95094,43.85548,-10.68517,36.25335,131.95503,0.00039,-109.08118,117.63314,0.00095,104.30387,-7.79854,-16.50084,-0.00202,-5.65935,6.2614,0.00088,-8.14519,-10.73625,11.1202,-31.29645,-14.19758,6.05427,0.1857,-4.89365,9.34266
535,-6.62417,0.0,-0.0,-5.75823,-0.0,0.0,-1.45028,-6.86923,8.12933,12.35938,2.19627,-16.92906,-20.94521,-1.9256,0.00114,-12.31484,-2.19471,2e-05,26.77714,12.58795,7.247,7.81146,3.90366,-15.36752,24.45906,22.24138,-1.69218,43.78567,-10.76533,36.13605,131.84154,-0.00059,-108.91435,117.54836,0.0002,104.4125,-7.26989,-16.19442,0.002,-5.40016,6.03622,-0.00048,-8.08352,-10.774,11.49183,-31.22242,-14.3758,6.38538,0.21181,-4.77843,9.35895
536,-6.67178,-0.0,0.0,-5.60496,0.0,-0.0,-1.56093,-6.94796,8.2228,12.17877,1.97845,-16.86692,-21.16906,-2.11888,0.00126,-12.10677,-2.18658,-0.0,26.87197,12.9151,7.10497,7.69697,4.16498,-15.36684,24.17404,22.29668,-1.45833,43.70597,-10.81208,35.97903,131.75154,-0.00153,-108.91102,117.50308,-0.00016,104.28979,-6.44826,-15.91924,0.00429,-4.962,5.85532,-0.00175,-7.98739,-10.85819,11.89874,-31.11619,-14.61025,6.73084,0.23425,-4.65487,9.36765
537,-6.66549,-0.0,0.0,-5.34321,0.0,-0.0,-1.72496,-6.90223,8.25326,11.99347,1.7958,-16.75977,-21.42728,-2.27922,0.00089,-11.91177,-2.17511,3e-05,26.98733,13.21323,7.03217,7.5812,4.40044,-15.43642,23.93202,22.34068,-1.25696,43.6267,-10.83605,35.79246,131.69106,-0.00206,-109.10417,117.49961,-0.00011,104.00079,-5.48335,-15.68883,0.00426,-4.37172,5.7061,-0.00225,-7.8785,-10.98459,12.28572,-31.00173,-14.87573,7.04084,0.24007,-4.53181,9.37354
538,-6.62695,0.0,0.0,-5.02893,0.0,-0.0,-1.94677,-6.74757,8.18205,11.82482,1.67447,-16.59957,-21.71215,-2.37709,0.00019,-11.73199,-2.15609,6e-05,27.12464,13.46021,7.05826,7.46536,4.5931,-15.57831,23.74863,22.37078,-1.07344,43.55726,-10.84721,35.59806,131.68094,-0.0023,-109.35262,117.53803,-4e-05,103.70529,-4.50855,-15.5112,0.00255,-3.73617,5.58994,-0.00174,-7.78112,-11.14285,12.60042,-30.90525,-15.14256,7.27056,0.22628,-4.41634,9.38169
539,-6.60897,-0.0,0.0,-4.76569,0.0,0.0,-2.20922,-6.5391,7.9982,11.70557,1.61852,-16.40084,-22.01777,-2.40595,-0.00054,-11.57206,-2.13349,4e-05,27.2905,13.65232,7.17556,7.35883,4.74296,-15.7719,23.62766,22.39059,-0.88265,43.50178,-10.85,35.42111,131.7413,-0.00286,-109.43676,117.61292,-0.00028,103.54579,-3.60691,-15.40234,0.00027,-3.1744,5.51846,-0.00075,-7.71247,-11.32073,12.80969,-30.84491,-15.38677,7.39381,0.19865,-4.30704,9.39481
540,-6.6518,-0.0,0.0,-4.65089,-0.0,0.0,-2.48929,-6.34732,7.72335,11.6648,1.61445,-16.18929,-22.33742,-2.37972,-0.00102,-11.43945,-2.12101,-3e-05,27.4886,13.80145,7.34806,7.27329,4.8646,-15.99149,23.56259,22.40309,-0.67374,43.45904,-10.84566,35.27951,131.87027,-0.00376,-109.24753,117.71036,-0.00072,103.57679,-2.83496,-15.37626,-0.00124,-2.73367,5.4836,-0.00022,-7.67787,-11.50955,12.90976,-30.82569,-15.59895,7.41041,0.1666,-4.19424,9.4111
541,-6.74869,0.0,-0.0,-4.72569,0.0,0.0,-2.77072,-6.22634,7.40826,11.715,1.64423,-15.99633,-22.6588,-2.32378,-0.0011,-11.34516,-2.13389,-0.0001,27.71157,13.92332,7.52557,7.21676,4.97538,-16.21388,23.5395,22.40573,-0.46551,43.42622,-10.84093,35.17584,132.03609,-0.0041,-108.83356,117.81067,-0.00097,103.76306,-2.26721,-15.41911,-0.0011,-2.36686,5.44288,-0.00067,-7.67191,-11.70753,12.92672,-30.84072,-15.78751,7.3454,0.13806,-4.06758,9.42469
542,-6.83698,-0.0,-0.0,-4.94544,0.0,-0.0,-3.04834,-6.19613,7.1196,11.84296,1.69171,-15.85632,-22.96234,-2.26619,-0.0008,-11.3013,-2.17779,-7e-05,27.93478,14.02827,7.66067,7.18679,5.08442,-16.41355,23.54167,22.3935,-0.29676,43.40276,-10.85257,35.09859,132.19034,-0.00322,-108.29143,117.89534,-0.00086,104.01013,-1.99444,-15.48094,7e-05,-1.99597,5.34512,-0.00184,-7.68321,-11.91666,12.90771,-30.87642,-15.97243,7.24203,0.11408,-3.92441,9.43005
543,-6.8084,0.0,-0.0,-5.17645,0.0,-0.0,-3.32859,-6.245,6.90689,12.0058,1.74197,-15.79248,-23.22873,-2.22722,-0.00034,-11.31399,-2.24678,4e-05,28.12381,14.12162,7.73035,7.17016,5.19277,-16.56822,23.55159,22.36604,-0.196,43.39138,-10.89694,35.03328,132.2928,-0.0013,-107.6534,117.95096,-0.00053,104.20722,-2.06039,-15.49244,0.0004,-1.59781,5.16938,-0.00284,-7.69924,-12.13509,12.90588,-30.91734,-16.17249,7.15074,0.08932,-3.76917,9.42347
544,-6.56862,-0.0,-0.0,-5.25647,0.0,0.0,-3.62077,-6.3487,6.7774,12.14496,1.77849,-15.80182,-23.4498,-2.2112,5e-05,-11.37862,-2.32914,0.00016,28.25701,14.20838,7.7453,7.15551,5.30003,-16.67094,23.5508,22.33161,-0.1561,43.39615,-10.97248,34.97465,132.32919,0.00105,-106.88033,117.96955,-0.0003,104.27789,-2.41161,-15.38682,-0.00142,-1.22101,4.93976,-0.0028,-7.70958,-12.35151,12.96249,-30.94977,-16.39318,7.11478,0.06287,-3.60675,9.40121
545,-6.15015,0.0,-0.0,-5.12186,0.0,0.0,-3.91498,-6.49607,6.71136,12.22147,1.7826,-15.86247,-23.63284,-2.21054,0.00028,-11.48333,-2.41301,0.00023,28.3455,14.29604,7.73017,7.15008,5.40899,-16.72584,23.52505,22.30508,-0.13889,43.41823,-11.05534,34.92881,132.31001,0.00312,-105.94561,117.95135,-0.00027,104.21824,-2.92782,-15.11827,-0.00478,-0.92756,4.70955,-0.00177,-7.70912,-12.54586,13.09161,-30.96553,-16.62152,7.1556,0.05049,-3.43776,9.36067
546,-5.74234,0.0,-0.0,-4.87109,0.0,0.0,-4.17373,-6.6997,6.6929,12.23783,1.7409,-15.9602,-23.79476,-2.21667,0.00035,-11.61502,-2.4889,0.00022,28.42315,14.39333,7.69718,7.1732,5.52593,-16.73316,23.47359,22.30101,-0.10619,43.45245,-11.11572,34.90512,132.25822,0.00425,-104.91878,117.90884,-0.00036,104.09143,-3.49313,-14.68097,-0.0077,-0.73581,4.52991,-0.0005,-7.70044,-12.6964,13.2736,-30.96546,-16.82995,7.26389,0.07493,-3.25926,9.30339
547,-5.55399,0.0,0.0,-4.67069,0.0,-0.0,-4.3579,-6.97709,6.71687,12.22155,1.6554,-16.09999,-23.9497,-2.22333,0.00032,-11.76166,-2.55017,0.00014,28.51105,14.50416,7.64706,7.22848,5.65515,-16.68721,23.41461,22.3255,-0.05065,43.48966,-11.13964,34.90588,132.19748,0.00422,-103.97552,117.86344,-0.00046,103.99544,-4.02684,-14.13056,-0.00838,-0.616,4.42367,0.00044,-7.69225,-12.78915,13.45976,-30.95876,-16.98688,7.39995,0.13816,-3.07021,9.23676
548,-5.64989,-0.0,-0.0,-4.61283,0.0,-0.0,-4.46164,-7.31702,6.77121,12.19571,1.54119,-16.28411,-24.10078,-2.22113,0.00018,-11.91156,-2.5934,2e-05,28.60208,14.62133,7.59057,7.29458,5.79197,-16.59437,23.38272,22.3721,-0.00323,43.52408,-11.13696,34.92218,132.14326,0.00332,-103.34093,117.83523,-0.00062,104.03555,-4.45892,-13.59434,-0.00674,-0.52498,4.38428,0.00092,-7.69353,-12.82454,13.58601,-30.95767,-17.06802,7.50361,0.21381,-2.87665,9.17235
549,-5.92066,-0.0,0.0,-4.66629,0.0,-0.0,-4.52269,-7.66303,6.8234,12.1688,1.41244,-16.48793,-24.24245,-2.19562,-2e-05,-12.05361,-2.61877,-9e-05,28.67854,14.72631,7.55662,7.34361,5.92155,-16.48797,23.4193,22.42369,-0.01546,43.55906,-11.13162,34.94035,132.09669,0.00182,-103.21725,117.83363,-0.00086,104.27292,-4.69908,-13.24369,-0.00539,-0.45088,4.39809,0.001,-7.70875,-12.81805,13.59355,-30.9717,-17.06496,7.51336,0.26715,-2.69067,9.11861
550,-6.17255,0.0,-0.0,-4.72551,0.0,0.0,-4.6036,-7.93178,6.83131,12.1426,1.27716,-16.66514,-24.36592,-2.1345,-0.00018,-12.18164,-2.62985,-0.00016,28.72742,14.79505,7.57664,7.35709,6.02392,-16.41451,23.55761,22.45805,-0.13384,43.60636,-11.14389,34.95398,132.04524,-0.00034,-103.7184,117.85387,-0.00099,104.66059,-4.65807,-13.22089,-0.00766,-0.43885,4.46092,0.00061,-7.73747,-12.79476,13.45292,-31.00502,-16.9894,7.39122,0.27308,-2.52503,9.07656
551,-6.2509,0.0,0.0,-4.69615,0.0,0.0,-4.75557,-8.05382,6.77147,12.12436,1.14526,-16.77201,-24.46115,-2.03804,-0.00022,-12.30048,-2.6342,-0.00017,28.74007,14.80803,7.66174,7.33069,6.08205,-16.40426,23.80735,22.45564,-0.38042,43.67866,-11.17894,34.96913,131.9716,-0.00309,-104.8081,117.88164,-0.00087,105.06738,-4.319,-13.55811,-0.01307,-0.57564,4.56919,-0.00029,-7.77681,-12.77875,13.18063,-31.05642,-16.86977,7.14285,0.22326,-2.38819,9.0453
552,-6.13471,0.0,-0.0,-4.56761,0.0,-0.0,-4.98455,-8.00851,6.66128,12.13337,1.03156,-16.79267,-24.5197,-1.92394,-0.00014,-12.42567,-2.64179,-0.00013,28.71528,14.7596,7.78616,7.27712,6.09041,-16.4575,24.14784,22.40957,-0.74152,43.7799,-11.22858,34.9976,131.86502,-0.0056,-106.28456,117.90408,-0.0006,105.39331,-3.7801,-14.15306,-0.01662,-0.94028,4.70413,-0.0013,-7.82398,-12.78216,12.83604,-31.12099,-16.74005,6.81899,0.13101,-2.28055,9.02568
553,-5.92124,0.0,-0.0,-4.40205,0.0,0.0,-5.25246,-7.8319,6.5495,12.18871,0.944,-16.74858,-24.53926,-1.81892,-2e-05,-12.57437,-2.65892,-7e-05,28.66107,14.65999,7.89807,7.21877,6.05776,-16.55276,24.53535,22.3324,-1.16717,43.90183,-11.28043,35.04562,131.72754,-0.00668,-107.86336,117.91819,-0.00039,105.64561,-3.21248,-14.8283,-0.01446,-1.54801,4.83777,-0.00181,-7.87743,-12.80176,12.49775,-31.19267,-16.62753,6.49462,0.02496,-2.1938,9.01535
554,-5.71415,0.0,0.0,-4.24655,0.0,-0.0,-5.5122,-7.59563,6.48058,12.28645,0.87428,-16.68205,-24.52497,-1.74203,8e-05,-12.75488,-2.68505,-0.0,28.58726,14.53049,7.95849,7.17379,6.00167,-16.66172,24.92001,22.25253,-1.58652,44.02879,-11.32591,35.10748,131.57173,-0.00576,-109.29458,117.9308,-0.00034,105.89948,-2.7673,-15.42215,-0.00809,-2.31908,4.95303,-0.0015,-7.9359,-12.82584,12.23227,-31.26591,-16.54715,6.23663,-0.06783,-2.11489,9.00821
555,-5.56526,0.0,-0.0,-4.09585,-0.0,0.0,-5.73086,-7.37323,6.47171,12.40138,0.80785,-16.63254,-24.4902,-1.69638,0.00012,-12.96584,-2.71861,8e-05,28.50938,14.39811,7.96327,7.15955,5.94342,-16.75929,25.26319,22.20126,-1.93323,44.14612,-11.36424,35.16791,131.41304,-0.00318,-110.40008,117.95184,-0.00033,106.1841,-2.50569,-15.83939,-0.00173,-3.10197,5.04575,-0.00052,-7.99524,-12.84506,12.07137,-31.33449,-16.50266,6.07844,-0.1259,-2.02944,9.00157
556,-5.50982,-0.0,0.0,-3.94331,0.0,-0.0,-5.88639,-7.22069,6.5213,12.51474,0.73932,-16.63248,-24.45633,-1.67487,0.00015,-13.20357,-2.76149,0.00016,28.45405,14.28974,7.92401,7.19823,5.90527,-16.82194,25.54884,22.19981,-2.16828,44.24706,-11.40172,35.21096,131.26205,0.00013,-111.04079,117.98817,-0.00024,106.42851,-2.39946,-16.05025,0.00195,-3.74194,5.11375,0.00059,-8.04615,-12.85708,12.00833,-31.3895,-16.48934,6.01462,-0.1329,-1.92254,8.99723
557,-5.59655,-0.0,0.0,-3.82813,0.0,-0.0,-5.96345,-7.1735,6.62857,12.63191,0.67138,-16.71517,-24.44433,-1.67024,0.0002,-13.4665,-2.81279,0.00021,28.43888,14.2226,7.84106,7.2979,5.90281,-16.81821,25.78431,22.25362,-2.29166,44.33442,-11.44553,35.23072,131.12346,0.00299,-111.11627,118.0433,-6e-05,106.5608,-2.38593,-16.07215,0.00291,-4.14989,5.16574,0.00111,-8.0761,-12.86269,12.01276,-31.41993,-16.4962,6.01643,-0.09148,-1.78373,8.99491
558,-5.84652,-0.0,-0.0,-3.81031,0.0,-0.0,-5.96511,-7.23185,6.78747,12.77125,0.60403,-16.89779,-24.46347,-1.677,0.00023,-13.754,-2.86437,0.00018,28.45351,14.19636,7.71063,7.43837,5.93516,-16.72264,25.99024,22.35302,-2.33803,44.41786,-11.4951,35.23891,131.00244,0.00427,-110.61449,118.11949,-2e-05,106.61365,-2.41128,-15.95731,0.00236,-4.3514,5.2372,0.00051,-8.07433,-12.85973,12.05381,-31.41606,-16.50934,6.05597,-0.02729,-1.61539,8.98832
559,-6.17834,0.0,0.0,-3.89664,0.0,0.0,-5.92845,-7.34157,6.95651,12.93923,0.53224,-17.14813,-24.51,-1.68238,0.00019,-14.0634,-2.90827,0.00011,28.46992,14.19427,7.55761,7.58497,5.98415,-16.55317,26.18721,22.47865,-2.35841,44.51079,-11.53841,35.26268,130.91133,0.00331,-109.62792,118.21487,-0.00021,106.68355,-2.43702,-15.78067,0.00141,-4.48058,5.37817,-0.00138,-8.03558,-12.84226,12.11712,-31.37253,-16.51776,6.12231,0.03022,-1.43414,8.96651
560,-6.42859,0.0,-0.0,-4.02179,0.0,0.0,-5.91074,-7.416,7.06645,13.12489,0.45247,-17.39744,-24.57703,-1.66603,0.0,-14.38985,-2.94282,7e-05,28.46381,14.19153,7.43374,7.70798,6.02352,-16.37107,26.38753,22.61059,-2.39934,44.62734,-11.55729,35.3297,130.86681,0.00062,-108.32817,118.32035,-0.00046,106.83517,-2.43844,-15.61788,0.00059,-4.67561,5.6242,-0.00405,-7.96125,-12.80656,12.2041,-31.29022,-16.51856,6.21828,0.06496,-1.26249,8.91686
561,-6.49343,-0.0,-0.0,-4.12457,0.0,0.0,-5.94362,-7.39265,7.08136,13.32186,0.37061,-17.59833,-24.66566,-1.61735,-0.00034,-14.73059,-2.96977,9e-05,28.4311,14.16629,7.36788,7.79618,6.03158,-16.23088,26.59516,22.73634,-2.49135,44.77844,-11.538,35.44997,130.87852,-0.00205,-106.97234,118.42218,-0.00047,107.05688,-2.40863,-15.51808,2e-05,-4.95928,5.97738,-0.00597,-7.85967,-12.75913,12.3143,-31.1782,-16.51756,6.34081,0.07929,-1.11755,8.83118
562,-6.42281,-0.0,0.0,-4.21444,0.0,0.0,-6.0091,-7.27297,7.03836,13.54399,0.3041,-17.75846,-24.78782,-1.54848,-0.00079,-15.0871,-2.99015,0.00018,28.39165,14.10781,7.33326,7.85948,5.99944,-16.14186,26.81152,22.85291,-2.64679,44.97005,-11.47841,35.6077,130.94063,-0.0029,-105.88433,118.50542,-0.00014,107.27763,-2.36274,-15.48782,-0.00024,-5.23038,6.39319,-0.0057,-7.74422,-12.71944,12.42795,-31.05294,-16.52498,6.46338,0.08812,-1.00449,8.71202
563,-6.36321,0.0,-0.0,-4.34822,-0.0,-0.0,-6.06756,-7.11753,7.01866,13.81058,0.27404,-17.92122,-24.96094,-1.48702,-0.00124,-15.46182,-3.00399,0.00031,28.375,14.01865,7.27361,7.91587,5.93104,-16.07604,27.04251,22.96412,-2.86281,45.20527,-11.38553,35.76812,131.03676,-0.0016,-105.31232,118.55426,0.0003,107.43362,-2.34529,-15.49971,-0.00012,-5.35136,6.7785,-0.0037,-7.62596,-12.71298,12.50815,-30.93025,-16.55,6.541,0.1027,-0.9172,8.57292
564,-6.42957,-0.0,0.0,-4.55973,0.0,0.0,-6.09988,-7.00101,7.08289,14.12086,0.29255,-18.11936,-25.20373,-1.45807,-0.00159,-15.85455,-3.01206,0.00045,28.40883,13.91411,7.15842,7.98112,5.8384,-16.00535,27.30115,23.07574,-3.12832,45.48689,-11.26709,35.89581,131.15369,0.00064,-105.28523,118.55614,0.00059,107.51148,-2.41566,-15.5216,0.00031,-5.24169,7.03243,-0.00201,-7.50516,-12.75791,12.52325,-30.81405,-16.5971,6.53656,0.1231,-0.84196,8.43238
565,-6.61653,-0.0,0.0,-4.81245,0.0,-0.0,-6.12314,-6.96378,7.23278,14.44603,0.34987,-18.34823,-25.53659,-1.47139,-0.00176,-16.26154,-3.01264,0.00047,28.51137,13.81837,7.01408,8.061,5.73413,-15.92437,27.60325,23.19079,-3.42908,45.81599,-11.12869,35.97147,131.29118,0.00238,-105.63481,118.51257,0.00062,107.51157,-2.58734,-15.54414,0.00075,-4.91897,7.11077,-0.00182,-7.37289,-12.85328,12.46661,-30.69565,-16.66281,6.44422,0.13832,-0.76278,8.30754
566,-6.80744,-0.0,-0.0,-5.01402,0.0,-0.0,-6.17707,-7.0001,7.42875,14.74346,0.40829,-18.58008,-25.98213,-1.52295,-0.00158,-16.67555,-2.99488,0.00027,28.6804,13.75639,6.9076,8.13965,5.62333,-15.83562,27.96066,23.30795,-3.74838,46.18775,-10.9805,35.99245,131.45894,0.00261,-106.12079,118.44298,0.00057,107.4029,-2.77919,-15.59002,0.00062,-4.46696,7.03774,-0.00248,-7.22439,-12.9764,12.35387,-30.56684,-16.73234,6.28797,0.12425,-0.6694,8.21256
567,-6.87674,-0.0,-0.0,-5.08887,0.0,0.0,-6.29393,-7.07745,7.6318,14.98065,0.41688,-18.78631,-26.56728,-1.60511,-0.00075,-17.08823,-2.94442,-8e-05,28.91059,13.74787,6.90367,8.19632,5.50383,-15.73624,28.37941,23.42369,-4.06804,46.59092,-10.84472,35.96181,131.66348,0.00091,-106.52399,118.37477,0.00074,107.15413,-2.84639,-15.70406,-0.00091,-3.97893,6.86519,-0.00281,-7.06897,-13.09147,12.2036,-30.43173,-16.77996,6.09997,0.06275,-0.56075,8.15741
568,-6.78345,0.0,-0.0,-5.03324,0.0,-0.0,-6.47283,-7.15928,7.82573,15.15195,0.34131,-18.94176,-27.32737,-1.71225,0.00111,-17.49388,-2.85939,-0.00036,29.2258,13.80327,7.03032,8.23645,5.37288,-15.63361,28.86154,23.53517,-4.37493,47.01309,-10.75284,35.88547,131.89693,-0.00217,-106.69527,118.32939,0.00126,106.81086,-2.67548,-15.92912,-0.0041,-3.54522,6.63784,-0.00212,-6.92389,-13.1643,12.02311,-30.30302,-16.77708,5.90127,-0.03255,-0.44079,8.1417
569,-6.57958,-0.0,0.0,-4.90519,0.0,-0.0,-6.67183,-7.22493,8.02294,15.28061,0.18059,-19.03596,-28.30552,-1.84254,0.00416,-17.89135,-2.75118,-0.00049,29.66718,13.91965,7.26282,8.2796,5.22878,-15.54913,29.40482,23.63983,-4.66935,47.4454,-10.73054,35.77997,132.13747,-0.00491,-106.6069,118.31478,0.0018,106.53953,-2.26876,-16.27909,-0.00756,-3.25328,6.38114,-0.00054,-6.79973,-13.17627,11.81186,-30.18895,-16.70644,5.69915,-0.13274,-0.31319,8.1494
570,-6.36878,-0.0,0.0,-4.78935,0.0,-0.0,-6.81661,-7.28169,8.26277,15.40936,-0.0362,-19.08797,-29.54576,-1.99953,0.00775,-18.28497,-2.62953,-0.00053,30.25821,14.08134,7.53088,8.32885,5.0664,-15.49541,29.99989,23.73224,-4.96599,47.88144,-10.78364,35.67601,132.35941,-0.00555,-106.41067,118.32744,0.0018,106.58929,-1.73768,-16.72743,-0.00906,-3.14807,6.11235,0.00117,-6.69359,-13.13233,11.57418,-30.08699,-16.57422,5.49566,-0.22679,-0.17938,8.15536
571,-6.20226,0.0,0.0,-4.72165,0.0,0.0,-6.83958,-7.34889,8.57114,15.57299,-0.25592,-19.11933,-31.08187,-2.17791,0.00971,-18.68322,-2.49899,-0.0005,30.99427,14.26568,7.77535,8.36833,4.87277,-15.47839,30.62936,23.80288,-5.28443,48.31408,-10.89966,35.60864,132.54576,-0.00367,-106.41782,118.36224,0.00099,107.16287,-1.21551,-17.21809,-0.00764,-3.19656,5.85935,0.0021,-6.59429,-13.05965,11.32531,-29.98863,-16.41127,5.29373,-0.32633,-0.04231,8.14101
572,-5.97111,-0.0,0.0,-4.60969,0.0,-0.0,-6.72798,-7.42703,8.90789,15.767,-0.41147,-19.1171,-32.92579,-2.34318,0.00718,-19.09225,-2.36682,-0.00036,31.84666,14.45002,8.01217,8.37187,4.62861,-15.51738,31.27115,23.84315,-5.63587,48.73739,-11.06113,35.59991,132.69653,-0.00034,-106.8973,118.42136,-0.00039,108.23502,-0.7909,-17.68749,-0.00415,-3.31234,5.65803,0.00208,-6.491,-12.99683,11.08469,-29.88684,-16.26054,5.09552,-0.4561,0.08787,8.10262
573,-5.49347,0.0,-0.0,-4.30785,0.0,-0.0,-6.51441,-7.48821,9.18848,15.95628,-0.44512,-19.05345,-35.06411,-2.44526,-0.00058,-19.51226,-2.24154,-0.00016,32.78273,14.61962,8.30953,8.32077,4.31831,-15.62899,31.90326,23.85426,-6.01374,49.15231,-11.25432,35.6485,132.82916,0.00312,-107.84991,118.51552,-0.00149,109.49367,-0.48895,-18.08718,-0.00044,-3.40731,5.54208,0.00173,-6.37684,-12.9784,10.86483,-29.7783,-16.15854,4.89839,-0.63399,0.19433,8.04476
574,-4.71871,0.0,-0.0,-3.78762,0.0,0.0,-6.22235,-7.48478,9.35645,16.1166,-0.3324,-18.92267,-37.46457,-2.45589,-0.01093,-19.94252,-2.12685,6e-05,33.79852,14.76998,8.70696,8.23129,3.93768,-15.8056,32.50837,23.85199,-6.39615,49.56876,-11.46753,35.73335,132.97018,0.00579,-109.03909,118.6557,-0.00157,110.5556,-0.26953,-18.39639,0.00205,-3.41413,5.54237,0.00181,-6.24641,-13.02238,10.66695,-29.65963,-16.12231,4.69599,-0.84411,0.25913,7.96841
575,-3.76711,0.0,-0.0,-3.16976,0.0,-0.0,-5.84253,-7.36607,9.41388,16.25375,-0.09221,-18.7353,-40.08446,-2.38569,-0.0191,-20.38895,-2.02522,0.00021,34.91431,14.90385,9.18543,8.14986,3.49081,-16.0277,33.07846,23.86304,-6.75938,50.00059,-11.68817,35.82654,133.14024,0.0066,-110.17223,118.84074,-0.00069,111.23885,-0.07279,-18.613,0.00307,-3.29308,5.67064,0.00249,-6.09218,-13.12588,10.4855,-29.52317,-16.14702,4.48433,-1.04396,0.26635,7.87026
576,-2.80853,0.0,-0.0,-2.61901,0.0,0.0,-5.35078,-7.11299,9.40781,16.391,0.2156,-18.50257,-42.87647,-2.27775,-0.02041,-20.8667,-1.94111,0.00021,36.13292,15.02897,9.69351,8.11299,2.98206,-16.27225,33.61727,23.915,-7.09314,50.45701,-11.90734,35.90516,133.34203,0.0047,-110.98611,119.05192,0.00038,111.58449,0.09758,-18.73595,0.00271,-3.04658,5.88962,0.00304,-5.90647,-13.26786,10.31437,-29.35913,-16.211,4.26636,-1.20478,0.20313,7.75471
577,-1.96661,0.0,0.0,-2.26175,0.0,-0.0,-4.7305,-6.77077,9.41404,16.55684,0.50494,-18.25464,-45.79455,-2.19612,-0.01246,-21.39482,-1.87009,-9e-05,37.42067,15.15504,10.16603,8.12047,2.4123,-16.49359,34.13717,24.02534,-7.40806,50.9379,-12.12778,35.95873,133.56053,0.00054,-111.25861,119.25889,0.00101,111.69415,0.1423,-18.7617,0.00056,-2.73139,6.11586,0.00252,-5.69065,-13.41649,10.14799,-29.16543,-16.28289,4.05004,-1.33445,0.06375,7.64007
578,-1.28837,-0.0,0.0,-2.15222,0.0,-0.0,-3.98724,-6.42384,9.50674,16.77802,0.69759,-18.04853,-48.80162,-2.20507,0.00259,-21.98697,-1.79502,-0.00055,38.73332,15.29108,10.53818,8.14818,1.78214,-16.62908,34.65469,24.19448,-7.73095,51.43668,-12.36448,35.99286,133.77228,-0.0039,-110.82938,119.43049,0.00093,111.61527,-0.07774,-18.69238,-0.00385,-2.4576,6.26316,0.00106,-5.46338,-13.53845,9.97941,-28.95707,-16.32941,3.84274,-1.4612,-0.14478,7.55218
579,-0.73636,-0.0,0.0,-2.2366,0.0,-0.0,-3.15442,-6.11168,9.70204,17.06429,0.76876,-17.92079,-51.87513,-2.33187,0.0179,-22.64503,-1.70917,-0.00062,40.05524,15.44655,10.78372,8.18118,1.09869,-16.65855,35.19019,24.40675,-8.09068,51.94733,-12.63364,36.02552,133.95335,-0.00615,-109.6394,119.54568,0.00012,111.34702,-0.6528,-18.54215,-0.00959,-2.34841,6.28852,-0.00022,-5.2575,-13.60846,9.8025,-28.76405,-16.32503,3.64931,-1.60146,-0.40182,7.51285
580,-0.22211,-0.0,0.0,-2.36649,0.0,-0.0,-2.27705,-5.79367,9.93379,17.40054,0.76132,-17.85063,-55.00474,-2.54382,0.026,-23.3577,-1.63178,0.00016,41.41099,15.631,10.93606,8.22697,0.37775,-16.63682,35.76751,24.63791,-8.50269,52.4702,-12.93748,36.07382,134.08533,-0.00492,-107.78868,119.60272,-0.00106,110.89835,-1.55775,-18.34545,-0.01388,-2.45133,6.21391,-0.0005,-5.10362,-13.61706,9.62006,-28.61576,-16.2622,3.47634,-1.74784,-0.67921,7.52633
581,0.32032,0.0,0.0,-2.404,0.0,0.0,-1.37948,-5.42164,10.10461,17.76325,0.74508,-17.79394,-58.18219,-2.76864,0.02342,-24.10418,-1.58553,0.00139,42.83972,15.84897,11.05388,8.29572,-0.36155,-16.64066,36.40844,24.86486,-8.9608,53.01338,-13.25566,36.13871,134.16151,-0.00121,-105.52701,119.62203,-0.00188,110.31939,-2.64628,-18.16471,-0.01402,-2.66563,6.12196,0.00065,-5.01063,-13.5734,9.4485,-28.52184,-16.15564,3.33524,-1.88781,-0.94978,7.57118
582,0.89701,0.0,0.0,-2.31342,0.0,-0.0,-0.45402,-5.01635,10.15256,18.13921,0.7675,-17.72981,-61.39169,-2.93254,0.01188,-24.86044,-1.5691,0.00222,44.36313,16.09651,11.1769,8.37718,-1.10328,-16.70462,37.12534,25.07268,-9.44431,53.59068,-13.54923,36.20146,134.18886,0.00263,-103.11612,119.63922,-0.00171,109.68449,-3.73783,-18.07659,-0.0103,-2.77308,6.13497,0.00483,-4.95797,-13.50103,9.30875,-28.46408,-16.03508,3.23561,-2.02689,-1.19336,7.60769
583,1.48897,0.0,-0.0,-2.15814,0.0,-0.0,0.5139,-4.65404,10.07479,18.52789,0.83886,-17.66741,-64.60738,-2.9868,-0.00276,-25.60491,-1.55628,0.00194,45.97478,16.3645,11.31488,8.43912,-1.83791,-16.8092,37.91731,25.25576,-9.93391,54.21669,-13.77571,36.2362,134.18359,0.00473,-100.76671,119.68974,-0.00049,109.04659,-4.695,-18.14257,-0.00565,-2.57561,6.37821,0.01365,-4.90569,-13.42735,9.20964,-28.40562,-15.92907,3.17423,-2.1918,-1.39961,7.59822
584,2.10784,-0.0,0.0,-2.04989,0.0,-0.0,1.512,-4.39796,9.92338,18.93683,0.93742,-17.63584,-67.79548,-2.9288,-0.01287,-26.32336,-1.50831,0.00047,47.64648,16.64675,11.45476,8.44339,-2.56498,-16.89358,38.77028,25.4133,-10.41971,54.89862,-13.90976,36.22953,134.16588,0.00454,-98.68976,119.79463,0.00133,108.4063,-5.41854,-18.37459,-0.00284,-2.03764,6.92475,0.02431,-4.81425,-13.37061,9.14175,-28.30925,-15.85071,3.13479,-2.41633,-1.57117,7.52812
585,2.79051,-0.0,0.0,-2.0834,0.0,-0.0,2.49793,-4.24413,9.78911,19.37395,1.02262,-17.6645,-70.91515,-2.80505,-0.01377,-27.01245,-1.39284,-0.00149,49.336,16.94472,11.57922,8.36408,-3.29703,-16.88106,39.65845,25.54483,-10.9008,55.62853,-13.95909,36.1923,134.15565,0.00277,-97.00647,119.95498,0.00296,107.74419,-5.88455,-18.69575,-0.00236,-1.32026,7.74438,0.02909,-4.66095,-13.33256,9.0882,-28.15283,-15.79504,3.10089,-2.72499,-1.728,7.41514
586,3.51743,0.0,0.0,-2.26037,0.0,-0.0,3.43553,-4.11672,9.7645,19.83501,1.06408,-17.7511,-73.92156,-2.67375,-0.00692,-27.67722,-1.20992,-0.00283,50.99564,17.26631,11.696,8.19419,-4.05599,-16.73062,40.54882,25.64862,-11.38248,56.38429,-13.96455,36.15658,134.16791,0.00067,-95.67112,120.15449,0.00352,107.08567,-6.18523,-18.94965,-0.00322,-0.68737,8.69937,0.02303,-4.44818,-13.30386,9.03914,-27.93789,-15.74968,3.06727,-3.1249,-1.90324,7.29755
587,4.173,0.0,0.0,-2.46928,0.0,0.0,4.32881,-3.92078,9.90556,20.29882,1.06136,-17.85547,-76.77541,-2.5636,0.00242,-28.32419,-0.99831,-0.00283,52.58975,17.62383,11.83862,7.94076,-4.85696,-16.47025,41.41044,25.72182,-11.86953,57.14185,-13.98342,36.16193,134.20775,-0.0007,-94.60987,120.36526,0.00272,106.50824,-6.43792,-18.98088,-0.00491,-0.36151,9.60365,0.01006,-4.20363,-13.27901,8.99507,-27.69149,-15.7098,3.0367,-3.60553,-2.1243,7.2084
588,4.61416,0.0,-0.0,-2.55644,0.0,-0.0,5.21731,-3.61094,10.22007,20.73805,1.03534,-17.93041,-79.45121,-2.46774,0.00917,-28.9576,-0.80882,-0.00163,54.10993,18.03125,12.03622,7.6171,-5.69674,-16.17086,42.22458,25.76363,-12.35972,57.88889,-14.06659,36.23877,134.26782,-0.00104,-93.79621,120.55626,0.00112,106.08038,-6.68702,-18.7159,-0.0066,-0.42201,10.30997,-0.00116,-3.97033,-13.26586,8.96052,-27.45747,-15.68434,3.0101,-4.14443,-2.39646,7.15945
589,4.7528,0.0,-0.0,-2.42017,-0.0,-0.0,6.14785,-3.20986,10.67371,21.1342,1.01597,-17.95176,-81.93648,-2.3502,0.01009,-29.57759,-0.67317,1e-05,55.56941,18.49809,12.30275,7.23098,-6.55775,-15.8981,42.98997,25.77895,-12.84493,58.62665,-14.24103,36.39488,134.33154,-0.00068,-93.17255,120.70455,-0.00036,105.8064,-6.90346,-18.19727,-0.0068,-0.79307,10.76651,-0.0058,-3.78649,-13.27871,8.93962,-27.2755,-15.68802,2.98541,-4.72117,-2.70366,7.14385
590,4.57917,0.0,0.0,-2.06061,0.0,-0.0,7.15055,-2.77625,11.2049,21.48558,1.03545,-17.92908,-84.22651,-2.15513,0.00495,-30.17846,-0.59159,0.00126,56.98615,19.02511,12.6441,6.77458,-7.417,-15.68135,43.71936,25.77789,-13.32006,59.35971,-14.50179,36.61036,134.38246,-0.0002,-92.64922,120.80212,-0.00124,105.6515,-7.02426,-17.57039,-0.00526,-1.30354,11.01039,-0.00517,-3.66569,-13.32114,8.93687,-27.15952,-15.72587,2.96529,-5.33148,-3.0196,7.14728
591,4.15232,0.0,0.0,-1.56969,0.0,0.0,8.22634,-2.37109,11.75207,21.80718,1.11396,-17.90096,-86.32012,-1.83437,-0.00344,-30.75199,-0.53783,0.00167,58.3737,19.60688,13.05306,6.23121,-8.2535,-15.50078,44.42783,25.77237,-13.79119,60.087,-14.81669,36.84658,134.41583,0.0,-92.20216,120.85185,-0.00147,105.61555,-7.00397,-17.02456,-0.00373,-1.77006,11.11856,-0.0028,-3.59352,-13.37699,8.95391,-27.09327,-15.78369,2.95795,-5.98644,-3.32066,7.16047
592,3.57723,0.0,-0.0,-1.07743,0.0,0.0,9.34501,-2.03855,12.27837,22.12517,1.25859,-17.91219,-88.21716,-1.37336,-0.01143,-31.29457,-0.47982,0.00141,59.7408,20.23878,13.50599,5.59314,-9.05621,-15.30335,45.12016,25.77521,-14.27279,60.80309,-15.14332,37.06866,134.44247,-0.00011,-91.89088,120.85755,-0.00112,105.71592,-6.86325,-16.69872,-0.00372,-2.08644,11.16323,-0.00102,-3.54569,-13.4196,8.98008,-27.04971,-15.83292,2.96456,-6.69804,-3.59702,7.18581
593,2.96246,0.0,-0.0,-0.68657,-0.0,-0.0,10.4553,-1.79383,12.77494,22.46565,1.48283,-17.98117,-89.91837,-0.788,-0.01652,-31.8105,-0.40538,0.00095,61.09043,20.92253,13.97633,4.8672,-9.82784,-15.04737,45.78841,25.80053,-14.77656,61.50392,-15.4487,37.26706,134.47937,-0.0002,-91.75433,120.81904,-0.00037,105.91583,-6.7062,-16.60315,-0.00472,-2.2726,11.18997,-0.00035,-3.5139,-13.42942,8.98879,-27.01884,-15.8453,2.96856,-7.46892,-3.85536,7.23202
594,2.42843,0.0,-0.0,-0.44234,-0.0,0.0,11.49385,-1.62924,13.24611,22.84031,1.78742,-18.09627,-91.42461,-0.11589,-0.01735,-32.30938,-0.31906,0.00046,62.41699,21.66689,14.43791,4.06569,-10.58159,-14.71644,46.42104,25.86021,-15.30369,62.18775,-15.72103,37.45915,134.53685,0.00016,-91.7589,120.73672,0.00051,106.16782,-6.67626,-16.63563,-0.00551,-2.42098,11.21146,-0.0004,-3.51687,-13.40217,8.94917,-27.01956,-15.80494,2.94312,-8.29393,-4.11271,7.3046
595,2.14345,0.0,0.0,-0.34396,0.0,-0.0,12.39439,-1.53805,13.69154,23.24101,2.12075,-18.24263,-92.72983,0.57811,-0.01353,-32.80378,-0.21763,-0.00013,63.71177,22.47838,14.85296,3.20743,-11.34155,-14.29873,47.01414,25.95744,-15.8442,62.85171,-15.97317,37.67029,134.61444,0.00143,-91.8904,120.62096,0.00112,106.47432,-6.85699,-16.68713,-0.00571,-2.60986,11.21277,-0.00053,-3.5856,-13.34306,8.84529,-27.08377,-15.71044,2.87132,-9.15869,-4.3928,7.40139
596,2.24527,0.0,-0.0,-0.35074,0.0,0.0,13.11693,-1.52244,14.09161,23.64705,2.41051,-18.41026,-93.8132,1.21282,-0.0064,-33.30653,-0.09303,-0.00074,64.982,23.34682,15.17941,2.33443,-12.14421,-13.80081,47.57466,26.086,-16.38073,63.49185,-16.23886,37.91318,134.70677,0.00367,-92.23849,120.49607,0.00108,106.81592,-7.20629,-16.73352,-0.0052,-2.88199,11.16758,-0.00026,-3.73461,-13.25904,8.68663,-27.22654,-15.57183,2.75905,-10.02748,-4.72544,7.51169
597,2.74314,0.0,0.0,-0.38597,0.0,-0.0,13.67062,-1.57562,14.39913,24.03671,2.6219,-18.58211,-94.64468,1.72676,0.0014,-33.8246,0.04963,-0.00111,66.26226,24.24754,15.39271,1.51119,-13.02351,-13.26728,48.11497,26.23791,-16.89241,64.10883,-16.55775,38.18188,134.81134,0.00608,-92.88966,120.39201,0.00049,107.08132,-7.59636,-16.83138,-0.00401,-3.25672,11.05714,0.00071,-3.94435,-13.161,8.50135,-27.42896,-15.41002,2.62792,-10.84417,-5.13531,7.62152
598,3.56493,0.0,-0.0,-0.37189,-0.0,-0.0,14.09417,-1.66402,14.54561,24.39806,2.75892,-18.73704,-95.20065,2.1052,0.00763,-34.35536,0.19746,-0.00114,67.59328,25.16036,15.49571,0.79099,-13.99074,-12.74823,48.64674,26.41073,-17.35701,64.7141,-16.95695,38.46217,134.92935,0.00691,-93.69195,120.33027,0.00012,107.09502,-7.91539,-17.03725,-0.00272,-3.73065,10.87308,0.00244,-4.16935,-13.07241,8.31664,-27.64761,-15.25709,2.49344,-11.5635,-5.62746,7.72341
599,4.64658,-0.0,0.0,-0.27076,-0.0,-0.0,14.42078,-1.73282,14.46679,24.7335,2.84351,-18.85925,-95.47261,2.37277,0.01169,-34.89087,0.34134,-0.00081,68.98464,26.07744,15.50965,0.181,-15.03499,-12.26845,49.17707,26.60566,-17.75549,65.33043,-17.44282,38.74752,135.06226,0.00472,-94.22929,120.31656,0.00071,106.67464,-8.13338,-17.34791,-0.00168,-4.28477,10.60993,0.00464,-4.36403,-13.02807,8.14018,-27.84049,-15.14794,2.34836,-12.18477,-6.18852,7.81574
600,5.92129,0.0,0.0,-0.09049,0.0,0.0,14.67115,-1.73554,14.13715,25.05419,2.91701,-18.92945,-95.46428,2.55412,0.01391,-35.42532,0.46799,-7e-05,70.40388,26.99265,15.44769,-0.35488,-16.14165,-11.84949,49.70346,26.82037,-18.08018,65.98282,-18.00237,39.04697,135.21204,-0.00052,-94.09257,120.34377,0.00212,105.71598,-8.30249,-17.71395,-0.00055,-4.89224,10.2742,0.0064,-4.50533,-13.05641,7.95962,-27.9877,-15.10384,2.16954,-12.74701,-6.80226,7.89068
