PaulMeinheit/Bachelor_Muay_Thai/processed_Data/E3/teep/sliced/JointAngles/sliced5.csv
Unnamed: 0_level_0,L_MTP_ANGLE,L_MTP_ANGLE,L_MTP_ANGLE,R_MTP_ANGLE,R_MTP_ANGLE,R_MTP_ANGLE,L_ANKLE_ANGLE,L_ANKLE_ANGLE,L_ANKLE_ANGLE,R_ANKLE_ANGLE,R_ANKLE_ANGLE,R_ANKLE_ANGLE,L_KNEE_ANGLE,L_KNEE_ANGLE,L_KNEE_ANGLE,R_KNEE_ANGLE,R_KNEE_ANGLE,R_KNEE_ANGLE,L_HIP_ANGLE,L_HIP_ANGLE,L_HIP_ANGLE,R_HIP_ANGLE,R_HIP_ANGLE,R_HIP_ANGLE,L_SHOULDER_ANGLE,L_SHOULDER_ANGLE,L_SHOULDER_ANGLE,R_SHOULDER_ANGLE,R_SHOULDER_ANGLE,R_SHOULDER_ANGLE,L_ELBOW_ANGLE,L_ELBOW_ANGLE,L_ELBOW_ANGLE,R_ELBOW_ANGLE,R_ELBOW_ANGLE,R_ELBOW_ANGLE,L_WRIST_ANGLE,L_WRIST_ANGLE,L_WRIST_ANGLE,R_WRIST_ANGLE,R_WRIST_ANGLE,R_WRIST_ANGLE,NECK_ANGLE,NECK_ANGLE,NECK_ANGLE,NECK_ANGLE_SHADOW,NECK_ANGLE_SHADOW,NECK_ANGLE_SHADOW,Trunk_Joint_Angle,Trunk_Joint_Angle,Trunk_Joint_Angle
ITEM,X,Y,Z,X,Y,Z,X,Y,Z,X,Y,Z,X,Y,Z,X,Y,Z,X,Y,Z,X,Y,Z,X,Y,Z,X,Y,Z,X,Y,Z,X,Y,Z,X,Y,Z,X,Y,Z,X,Y,Z,X,Y,Z,X,Y,Z
1849,-2.78643,0.0,-0.0,-4.11179,-0.0,0.0,-10.64186,-9.99964,12.5197,11.99934,6.46095,-15.48962,-31.58042,-1.05147,-0.00037,-14.55122,-1.96931,0.00028,34.28698,14.95453,10.04749,9.29047,-4.28043,-13.12056,18.03567,13.21305,3.75892,31.34622,-13.973,20.21177,129.66647,-0.00587,-76.8643,133.91876,-0.00224,80.88683,0.27224,3.86968,-0.00378,2.32374,3.67617,-0.00195,-13.60717,-5.58508,10.99817,-35.41327,-9.27614,8.14266,-1.2313,0.51599,2.82331
1850,-2.38794,0.0,-0.0,-3.88122,-0.0,-0.0,-10.11029,-9.4148,11.50982,11.91763,6.29553,-15.55575,-31.49651,-1.18892,-4e-05,-14.30109,-1.93165,5e-05,33.98378,14.87105,10.04565,9.01579,-4.18269,-13.30876,17.90859,13.21922,4.15165,31.26419,-14.23778,20.4477,130.34779,-0.00717,-75.78129,134.27557,-0.00336,82.8609,0.78383,3.42157,0.00151,1.64602,3.76915,0.00067,-13.91128,-5.49523,11.39463,-35.69015,-9.33921,8.54776,-1.15611,0.47083,2.8574
1851,-1.9295,-0.0,-0.0,-3.5543,-0.0,-0.0,-9.4559,-8.82794,10.6712,11.86133,6.12787,-15.66037,-31.48141,-1.2579,0.00024,-14.04993,-1.92481,-0.00026,33.83377,14.76129,10.03364,8.84734,-4.05341,-13.58524,17.64771,13.26398,4.48438,31.16797,-14.3865,20.91751,131.22745,-0.00033,-75.06274,134.5947,-0.00095,84.9575,0.39373,2.93313,0.00538,0.68165,3.43272,0.0029,-14.15218,-5.37863,11.69114,-35.90694,-9.34038,8.86938,-0.93025,0.42915,2.80437
1852,-1.74273,0.0,-0.0,-3.41329,-0.0,-0.0,-8.61146,-8.39907,10.31332,11.86692,5.96807,-15.81069,-31.5349,-1.37823,0.00052,-13.78634,-1.91911,-0.00025,33.81072,14.65345,9.86485,8.80561,-3.9081,-13.84747,17.29542,13.31689,4.84175,31.04544,-14.2922,21.25407,132.356,0.0095,-75.01411,134.93542,0.00236,86.40379,-0.42522,2.36694,0.00497,0.06047,3.02176,-0.00168,-14.2355,-5.27152,11.92161,-35.9701,-9.32591,9.12561,-0.5957,0.36174,2.76449
1853,-1.95897,-0.0,-0.0,-3.5356,-0.0,0.0,-7.71047,-8.18406,10.39991,11.9128,5.76061,-16.02295,-31.59928,-1.60993,0.00053,-13.47789,-1.85137,0.0001,33.79284,14.58879,9.53371,8.79014,-3.75183,-13.98635,16.95634,13.29455,5.24777,30.88107,-14.05575,21.2201,133.72101,0.00957,-75.37319,135.3439,0.00372,87.11903,-1.04068,1.7892,0.0022,0.31453,2.72051,-0.00485,-14.205,-5.19084,12.05807,-35.92643,-9.30128,9.2838,-0.27153,0.30105,2.83183
1854,-2.40025,0.0,-0.0,-3.89998,-0.0,0.0,-6.96255,-8.11406,10.64342,11.97068,5.49771,-16.26376,-31.56467,-1.93133,-0.0001,-13.11437,-1.71194,0.00041,33.61092,14.58749,9.12715,8.64692,-3.57004,-14.01058,16.76287,13.16428,5.67101,30.72491,-13.86715,20.83777,135.18912,-0.0001,-75.609,135.8465,0.0024,87.50718,-1.15288,1.56288,0.00343,1.55117,2.69696,0.00207,-14.0935,-5.129,12.0023,-35.8146,-9.22326,9.25471,-0.11439,0.29432,3.04466
1855,-2.87221,0.0,0.0,-4.36944,-0.0,-0.0,-6.4257,-8.03771,10.81304,12.02539,5.2704,-16.47291,-31.33051,-2.25897,-0.00081,-12.73141,-1.53589,0.00045,33.15734,14.56896,8.75699,8.31021,-3.41495,-14.01276,16.74787,13.00106,6.12625,30.73453,-13.77754,20.39587,136.58864,-0.00584,-75.54543,136.42149,-0.00107,87.91556,-0.92316,2.19395,0.00669,3.28024,3.05926,0.0107,-13.83647,-5.08298,11.70835,-35.57246,-9.07212,8.99648,-0.18921,0.30801,3.32736
1856,-3.30316,0.0,0.0,-4.70893,-0.0,-0.0,-6.00514,-7.84474,10.91489,12.08128,5.16176,-16.62706,-30.88393,-2.49348,-0.00063,-12.40849,-1.34986,0.00022,32.50227,14.37914,8.49105,7.89778,-3.40576,-14.05139,16.80364,12.91405,6.63492,31.01096,-13.66275,20.2524,137.84911,-0.00136,-75.47223,136.9883,-0.00535,88.54858,-0.84104,3.68029,-0.0004,4.70166,3.65092,0.00726,-13.36308,-5.05098,11.27695,-35.12215,-8.88319,8.6044,-0.37019,0.22941,3.53021
1857,-3.58459,-0.0,0.0,-4.87067,0.0,-0.0,-5.62593,-7.62421,11.07802,12.17005,5.18457,-16.74657,-30.33859,-2.58588,0.00019,-12.21502,-1.18419,-8e-05,31.88437,13.97789,8.26405,7.63046,-3.5558,-14.1391,16.82408,12.9349,7.12627,31.42479,-13.38791,20.49876,139.01828,0.0025,-75.61618,137.48878,-0.00499,89.21004,-1.30942,5.25143,-0.00824,5.30732,4.15915,-0.00137,-12.76187,-4.99356,10.9061,-34.53823,-8.69286,8.27878,-0.42654,0.01805,3.57065
1858,-3.61038,0.0,0.0,-5.03346,0.0,0.0,-5.27927,-7.60127,11.2872,12.29901,5.35819,-16.86201,-29.88099,-2.55852,0.00042,-12.13406,-1.09462,-0.0002,31.5216,13.5423,7.95153,7.61874,-3.68507,-14.29378,16.84128,13.0056,7.51241,31.72374,-12.97633,20.88192,140.14925,-0.00149,-75.76553,137.93253,0.00274,89.06551,-2.22089,6.06496,-0.00158,5.20731,4.35807,-0.00351,-12.29634,-4.84861,10.74769,-34.07313,-8.4997,8.18494,-0.23547,-0.19152,3.50983
1859,-3.46291,0.0,0.0,-5.19188,0.0,-0.0,-4.93082,-7.84981,11.34102,12.38538,5.68258,-16.9444,-29.61982,-2.4708,-4e-05,-12.07565,-1.11624,-0.00021,31.40357,13.29416,7.59354,7.76635,-3.6196,-14.54068,16.96475,13.04922,7.81221,31.78605,-12.59314,21.1093,141.1964,-0.0035,-75.82089,138.33691,0.00941,87.58189,-3.07651,6.03917,0.00479,4.83931,4.20854,-0.00133,-12.18936,-4.62608,10.81149,-33.9505,-8.31662,8.32806,0.11827,-0.23921,3.5061
1860,-3.2188,0.0,0.0,-4.94296,0.0,-0.0,-4.53094,-8.15681,11.0563,12.2883,5.97982,-16.8594,-29.48336,-2.33922,2e-05,-11.96996,-1.2086,-0.0002,31.32802,13.24072,7.44822,7.90357,-3.4185,-14.91905,17.22016,13.0274,8.0832,31.70788,-12.34857,21.14131,142.02483,0.00016,-76.11799,138.67221,0.00654,85.55,-3.5587,5.80558,0.00186,4.3941,3.90649,-0.00127,-12.43231,-4.43641,11.00307,-34.17261,-8.21123,8.57832,0.47789,-0.15331,3.66094
1861,-2.76977,0.0,0.0,-4.02845,-0.0,0.0,-4.08491,-8.25526,10.46744,11.9669,6.00661,-16.53418,-29.28784,-2.12928,0.00119,-11.81966,-1.28674,-8e-05,31.1284,13.18873,7.69126,7.95484,-3.27467,-15.41586,17.5239,12.97589,8.31445,31.66819,-12.17804,21.14633,142.53978,0.00161,-76.7083,138.87791,4e-05,84.26761,-3.72563,5.89203,-0.00167,3.69681,3.75838,-0.00476,-12.85193,-4.3716,11.19892,-34.57761,-8.22333,8.78584,0.78738,-0.1005,3.89684
1862,-2.19081,-0.0,-0.0,-2.99804,0.0,-0.0,-3.59144,-8.14962,9.90453,11.60384,5.75664,-16.1885,-28.87067,-1.87885,0.0018,-11.67415,-1.29677,5e-05,30.76655,13.0039,8.11785,7.9478,-3.25758,-15.80715,17.8068,12.99329,8.48067,31.73786,-11.96856,21.25988,142.79092,0.00096,-77.10115,138.91325,-0.00148,84.10207,-3.6893,6.2376,-0.0022,2.70542,3.79513,-0.00645,-13.29977,-4.40083,11.28478,-35.02206,-8.28217,8.85528,1.07104,-0.16472,4.07471
1863,-1.96857,0.0,0.0,-2.88098,0.0,-0.0,-2.97161,-8.0779,9.84974,11.48875,5.40025,-16.21939,-28.1637,-1.75416,-0.00065,-11.58211,-1.2274,6e-05,30.23438,12.73038,8.29346,7.91827,-3.29595,-15.72909,18.08334,13.1353,8.58425,31.85003,-11.70904,21.48384,142.90227,0.00162,-77.07634,138.77058,8e-05,84.51492,-3.55272,6.62986,-0.00304,1.79561,3.60455,-0.00337,-13.71322,-4.43077,11.24338,-35.43952,-8.29471,8.80532,1.31197,-0.28901,4.19845
1864,-2.39122,0.0,-0.0,-3.92354,0.0,-0.0,-2.2065,-8.12408,10.49879,11.71982,5.04482,-16.7468,-27.22732,-1.86744,-0.0041,-11.5682,-1.10047,-4e-05,29.54631,12.4436,8.0226,7.87471,-3.34922,-15.13059,18.39,13.34339,8.58349,31.94116,-11.43207,21.75757,142.91673,0.00073,-77.1736,138.45325,-0.001,84.84361,-3.546,7.13354,-0.00607,1.33421,2.83091,-0.00281,-14.0599,-4.41983,11.19614,-35.78833,-8.26711,8.7652,1.47461,-0.40781,4.36034
1865,-3.00952,0.0,0.0,-5.0617,-0.0,-0.0,-1.48852,-8.07217,11.46995,12.07256,4.77398,-17.43328,-26.22148,-2.08714,-0.00361,-11.62264,-0.98321,-5e-05,28.83292,12.12015,7.5366,7.82892,-3.44451,-14.48662,18.71893,13.53052,8.39843,32.02522,-11.13514,21.99715,142.74603,-0.00652,-78.07237,138.00307,-0.00434,84.73431,-3.70352,7.77084,-0.00713,1.25246,1.77768,-0.00402,-14.30331,-4.38214,11.23532,-36.02745,-8.24656,8.81597,1.60802,-0.52321,4.53548
1866,-3.19178,-0.0,-0.0,-5.16265,-0.0,-0.0,-1.05683,-7.75252,12.17496,12.24376,4.69117,-17.89733,-25.27448,-2.17672,5e-05,-11.69444,-0.94502,3e-05,28.25112,11.73014,7.15573,7.78092,-3.55693,-14.28639,19.01599,13.68185,8.0282,32.12814,-10.85678,22.12966,142.28271,-0.01298,-79.59506,137.53204,-0.00395,84.42265,-3.62615,8.29352,-0.00381,1.24204,1.1262,-0.00317,-14.38818,-4.33936,11.29272,-36.1067,-8.22799,8.88569,1.78449,-0.63094,4.60499
1867,-2.86281,0.0,0.0,-4.27467,0.0,0.0,-0.91647,-7.29665,12.37657,12.13916,4.76292,-18.04352,-24.40116,-2.06443,0.00253,-11.71705,-1.0023,-1e-05,27.81208,11.3654,6.991,7.70279,-3.58356,-14.54869,19.21478,13.8429,7.59305,32.22969,-10.70837,22.18421,141.55511,-0.00576,-80.70019,137.13364,-0.00046,84.47418,-3.01655,8.55,-0.00048,1.16902,1.09819,-0.00188,-14.27874,-4.32803,11.27695,-35.99757,-8.21164,8.87517,1.98393,-0.67211,4.55053
1868,-2.40311,0.0,-0.0,-3.23814,0.0,-0.0,-0.8444,-6.95649,12.25955,11.87854,4.81045,-17.95044,-23.58217,-1.86099,0.00222,-11.65989,-1.12015,-0.00015,27.42598,11.14087,7.00211,7.58951,-3.47866,-14.98077,19.29498,14.06102,7.22121,32.28107,-10.7463,22.25423,140.72639,0.00694,-80.68109,136.77623,0.0004,84.97292,-2.11345,8.6533,0.00154,1.11309,1.31299,-0.00075,-14.08443,-4.40575,11.20526,-35.81158,-8.25739,8.779,2.1554,-0.62054,4.4742
1869,-2.24377,0.0,0.0,-2.71075,-0.0,-0.0,-0.6103,-6.85765,12.19806,11.64601,4.70419,-17.79475,-22.84701,-1.70562,0.00035,-11.55387,-1.23329,-0.00016,27.04906,11.02516,7.05904,7.47311,-3.32914,-15.28805,19.3043,14.33529,6.9282,32.2799,-10.87185,22.3469,139.93826,0.01082,-79.85148,136.34866,-0.00169,85.45464,-1.2754,8.69552,0.00139,1.11755,1.41874,-0.00025,-14.03269,-4.59718,11.13093,-35.77446,-8.40777,8.6378,2.31057,-0.5471,4.45017
1870,-2.62232,0.0,-0.0,-2.83933,-0.0,0.0,-0.15785,-6.94141,12.49073,11.57071,4.45932,-17.82918,-22.23077,-1.67238,-0.00123,-11.47368,-1.28742,-0.0001,26.69403,10.8889,6.99876,7.38182,-3.25491,-15.29403,19.2959,14.61166,6.66568,32.30828,-10.9141,22.39837,139.21677,0.00768,-78.94747,135.78438,-0.00065,85.73719,-0.5559,8.58174,-0.00232,1.09292,1.44187,-0.00014,-14.21599,-4.84877,11.09038,-35.97401,-8.62647,8.50557,2.48197,-0.54267,4.47091
1871,-3.29924,-0.0,-0.0,-3.33008,-0.0,0.0,0.34464,-7.02277,13.06978,11.66351,4.20855,-18.13751,-21.70156,-1.72856,-0.00122,-11.48594,-1.29406,-7e-05,26.36514,10.64993,6.85408,7.32459,-3.30818,-15.05981,19.28159,14.84936,6.44121,32.43051,-10.82,22.40951,138.51964,0.00383,-78.47648,135.11374,0.00503,86.15523,0.08358,8.12962,-0.00693,0.94564,1.50114,0.00017,-14.5111,-5.06241,11.1378,-36.27865,-8.8424,8.46983,2.67351,-0.6384,4.49928
1872,-3.57394,0.0,-0.0,-3.61802,-0.0,0.0,0.64529,-6.93934,13.504,11.83136,4.17063,-18.49719,-21.16958,-1.74167,0.00039,-11.59582,-1.32149,2e-05,26.0473,10.30278,6.91237,7.29875,-3.47702,-14.89994,19.26313,15.06025,6.28397,32.57611,-10.70834,22.45298,137.80939,-0.00027,-78.63783,134.43481,0.00576,86.7227,0.45917,7.26821,-0.00418,0.70271,1.61239,0.0006,-14.80245,-5.19268,11.29251,-36.56892,-9.02053,8.56578,2.88809,-0.81282,4.49394
1873,-3.0572,0.0,-0.0,-3.40106,-0.0,-0.0,0.70923,-6.70645,13.57599,12.00179,4.47932,-18.73318,-20.55646,-1.63641,0.00156,-11.76271,-1.40495,8e-05,25.71295,9.89859,7.31578,7.29615,-3.70584,-14.98939,19.26935,15.24506,6.12104,32.59429,-10.70457,22.57989,137.0762,-0.00831,-79.55766,133.85355,-0.00139,86.78976,0.26792,6.15732,0.00693,0.47317,1.84525,0.00043,-15.11102,-5.29287,11.47086,-36.87332,-9.17943,8.69521,3.12926,-1.01168,4.45478
1874,-2.28886,0.0,-0.0,-3.04213,-0.0,0.0,0.78084,-6.47214,13.65856,12.20644,4.95719,-19.02007,-19.84212,-1.52204,0.00029,-11.9568,-1.50337,1e-05,25.32236,9.52056,7.7574,7.30665,-3.91128,-15.07186,19.35149,15.35337,5.81382,32.41008,-10.79609,22.76816,136.32787,-0.0157,-81.23799,133.42805,-0.0062,86.02617,-0.44155,5.04393,0.01206,0.30215,2.28081,-0.00035,-15.44503,-5.41417,11.55542,-37.20981,-9.3233,8.72886,3.35902,-1.1777,4.46313
1875,-2.09918,0.0,-0.0,-2.99784,0.0,0.0,1.01973,-6.32526,14.11186,12.46356,5.23408,-19.51299,-19.05972,-1.52036,-0.00168,-12.15705,-1.57623,-6e-05,24.8661,9.21524,7.87892,7.31239,-4.03253,-14.90486,19.53154,15.36419,5.35149,32.09673,-10.87445,22.95013,135.57539,-0.00883,-82.93187,133.14796,-0.00387,85.15867,-0.99757,4.09312,0.00291,0.17233,2.81901,-0.00073,-15.6854,-5.49245,11.50905,-37.45761,-9.37888,8.656,3.52072,-1.29965,4.58074
1876,-2.57052,0.0,-0.0,-3.11814,-0.0,-0.0,1.27546,-6.23765,14.67187,12.65832,5.1077,-19.98289,-18.27393,-1.55984,-0.00144,-12.32722,-1.6309,-6e-05,24.39956,8.95917,7.75936,7.28922,-4.07554,-14.68254,19.75687,15.34123,4.91848,31.79793,-10.86302,23.08261,134.84578,0.00874,-83.41618,132.94753,0.00122,85.23102,-0.6659,3.4402,-0.0066,0.13713,3.29061,6e-05,-15.73652,-5.42045,11.40353,-37.51034,-9.27305,8.5842,3.61424,-1.40424,4.74183
1877,-3.04669,0.0,-0.0,-2.95257,0.0,-0.0,1.34402,-6.15147,14.86726,12.66899,4.70936,-20.12524,-17.55239,-1.48905,0.00026,-12.44704,-1.67341,-7e-05,23.99999,8.69738,7.71644,7.24564,-4.11307,-14.71199,19.93688,15.35385,4.7155,31.59639,-10.77741,23.17862,134.2251,0.01468,-82.55737,132.75685,0.00463,86.51858,0.47659,3.2701,-0.00355,0.2705,3.65219,0.00103,-15.69637,-5.20458,11.35098,-37.46024,-9.05317,8.61607,3.70628,-1.51574,4.83542
1878,-3.00603,-0.0,-0.0,-2.40597,0.0,0.0,1.25234,-6.03271,14.64993,12.5386,4.37887,-19.92758,-16.94247,-1.26735,0.00121,-12.5409,-1.69915,-0.00014,23.7159,8.37061,7.86885,7.23973,-4.24369,-15.03905,19.99741,15.40386,4.76189,31.47042,-10.67591,23.26455,133.86127,0.0063,-81.64906,132.58311,0.00364,88.3121,1.57495,3.68435,0.00021,0.52844,3.93616,0.00112,-15.74448,-4.97447,11.41414,-37.4913,-8.86277,8.76157,3.86034,-1.6673,4.82841
1879,-2.63162,0.0,-0.0,-1.82666,0.0,-0.0,1.1899,-5.90793,14.35419,12.42833,4.37113,-19.64343,-16.48429,-0.9588,0.00086,-12.64796,-1.72644,-0.00023,23.55805,7.94021,8.05973,7.30384,-4.50322,-15.48108,19.8905,15.45852,4.90925,31.34565,-10.60503,23.31449,133.86368,0.00178,-81.76338,132.52863,0.00167,89.40099,1.93435,4.39815,-0.00323,0.81227,4.15311,0.0006,-15.91354,-4.84527,11.5736,-37.64364,-8.8016,8.95934,4.06191,-1.89427,4.75464
1880,-2.50724,-0.0,0.0,-1.62646,-0.0,-0.0,1.26564,-5.84318,14.34433,12.46068,4.65514,-19.62491,-16.20562,-0.66614,-0.0,-12.78841,-1.782,-0.00034,23.49637,7.44045,8.03706,7.39116,-4.80894,-15.74379,19.63314,15.49988,5.01729,31.16696,-10.60128,23.24322,134.19922,0.00347,-82.65872,132.68729,0.00431,89.05817,1.64799,4.81749,-0.00246,1.05059,4.30759,0.00021,-16.07203,-4.81205,11.72611,-37.79117,-8.82699,9.11464,4.22073,-2.17703,4.67909
1881,-2.84923,-0.0,0.0,-1.85597,-0.0,-0.0,1.39073,-5.8493,14.70729,12.6407,5.07099,-20.04342,-16.07467,-0.47539,-0.00042,-12.96291,-1.89358,-0.00032,23.47903,6.96228,7.71662,7.44827,-5.04093,-15.66041,19.35232,15.52339,5.07184,30.93889,-10.67129,22.98885,134.71721,0.00379,-83.47939,133.04289,0.00572,87.79691,1.23869,4.76675,0.00091,1.1688,4.38305,0.00025,-16.08564,-4.79309,11.71309,-37.80447,-8.80458,9.10955,4.26479,-2.44875,4.6749
1882,-3.26793,0.0,-0.0,-2.18242,0.0,0.0,1.40743,-5.88865,15.14977,12.87344,5.54218,-20.6706,-16.0151,-0.38982,-0.00031,-13.16837,-2.10072,-5e-05,23.47273,6.56874,7.30611,7.48277,-5.16269,-15.42481,19.20036,15.50962,5.13155,30.69014,-10.76718,22.60609,135.26527,0.00407,-83.74437,133.50883,0.00117,86.72698,0.9543,4.84006,-0.00068,1.15183,4.31386,0.00052,-15.93073,-4.74969,11.47226,-37.66133,-8.67543,8.90024,4.20872,-2.66885,4.74696
1883,-3.39658,-0.0,0.0,-2.33846,0.0,-0.0,1.30596,-5.94113,15.32897,13.04634,6.00374,-21.10072,-15.97624,-0.35609,-9e-05,-13.42435,-2.40573,0.00044,23.46178,6.26248,7.07735,7.53918,-5.23387,-15.35779,19.20793,15.42627,5.22433,30.40207,-10.85912,22.23886,135.77643,0.00502,-83.40167,134.04543,-0.00232,86.3027,0.6433,5.58532,-0.00614,1.13308,4.07579,-0.00011,-15.69048,-4.71817,11.17764,-37.43628,-8.5374,8.6362,4.11569,-2.85227,4.82135
1884,-3.37757,0.0,-0.0,-2.3774,0.0,-0.0,1.22276,-5.95479,15.21395,13.11456,6.36114,-21.17944,-15.94631,-0.35268,1e-05,-13.78118,-2.73327,0.00071,23.42663,6.02938,7.07226,7.65409,-5.32272,-15.50653,19.27141,15.28078,5.36344,30.02005,-11.01311,21.98487,136.3013,-0.00074,-82.35326,134.68193,5e-05,86.16051,0.19598,6.67879,-0.00758,1.26757,3.78118,-0.00175,-15.47144,-4.71522,11.09696,-37.22163,-8.50487,8.56179,4.02873,-3.02609,4.84797
1885,-3.5406,0.0,-0.0,-2.4187,-0.0,0.0,1.25018,-5.84049,14.98642,13.1007,6.60622,-21.13803,-15.92262,-0.39682,0.0,-14.27628,-2.97923,0.00029,23.35161,5.89039,7.10748,7.82415,-5.41482,-15.62502,19.28,15.14238,5.60482,29.55499,-11.30079,21.82151,136.96262,-0.01563,-80.43553,135.40919,0.0026,85.96392,-0.18743,7.35794,-0.00307,1.51168,3.55872,-0.003,-15.30316,-4.67182,11.2962,-37.03962,-8.53812,8.76455,3.94542,-3.17272,4.85154
1886,-3.90525,0.0,0.0,-2.44227,0.0,-0.0,1.34568,-5.65378,14.74874,13.03131,6.802,-21.26881,-15.89359,-0.46757,-2e-05,-14.89021,-3.09912,-0.0004,23.23976,5.86862,7.05253,8.01415,-5.4491,-15.50962,19.24463,15.07879,5.96915,29.12239,-11.64447,21.6747,137.79095,-0.02323,-77.9856,136.09319,0.00012,85.87966,-0.30357,7.38338,-0.00062,1.67087,3.2665,-0.00258,-15.1371,-4.52566,11.56455,-36.84974,-8.50134,9.07052,3.84536,-3.25296,4.88782
1887,-4.23042,-0.0,-0.0,-2.49466,0.0,-0.0,1.42067,-5.66266,14.4959,12.93238,6.95211,-21.53849,-15.83957,-0.47916,6e-05,-15.56675,-3.13435,-0.00059,23.11563,5.90048,7.002,8.20897,-5.44839,-15.24728,19.2988,15.07826,6.35984,28.8478,-11.84468,21.56341,138.62021,-0.01043,-76.05522,136.55167,-0.00264,85.98957,-0.32557,7.18154,-0.0011,1.61201,2.51842,0.00175,-14.94088,-4.34877,11.63105,-36.63984,-8.36152,9.19892,3.73501,-3.28273,4.97058
1888,-4.36691,0.0,-0.0,-2.73855,-0.0,0.0,1.43872,-6.03871,14.23076,12.82652,6.97368,-21.68501,-15.76152,-0.36288,0.00017,-16.24655,-3.14487,-0.00036,23.01997,5.86875,7.09219,8.41565,-5.50437,-15.07229,19.55505,15.04691,6.64689,28.75021,-11.78448,21.62195,139.2404,0.00578,-75.60563,136.73813,-0.00266,85.74092,-0.58919,7.19367,-0.00232,1.32685,1.22173,0.00697,-14.73964,-4.2971,11.41463,-36.44874,-8.2337,9.01561,3.63825,-3.30692,5.01074
1889,-4.2919,0.0,-0.0,-3.05438,-0.0,-0.0,1.39782,-6.5429,13.93946,12.66274,6.83646,-21.5725,-15.69005,-0.14935,0.00013,-16.87312,-3.16594,-4e-05,22.98746,5.74482,7.29657,8.62456,-5.62898,-15.10108,19.98216,14.91085,6.76805,28.71906,-11.56747,21.87022,139.61095,0.00844,-76.46041,136.81668,-0.00042,84.66251,-1.14129,7.38685,-0.00133,0.97816,-0.12178,0.00519,-14.57787,-4.41592,11.06457,-36.3136,-8.2149,8.64354,3.55888,-3.31248,4.89606
1890,-4.11832,0.0,-0.0,-3.12993,0.0,0.0,1.33808,-6.79107,13.67104,12.39903,6.65948,-21.33711,-15.64121,0.03363,-4e-05,-17.43395,-3.20947,2e-05,23.00701,5.61192,7.44338,8.83036,-5.7476,-15.18305,20.45154,14.72154,6.74855,28.64046,-11.40922,22.05284,139.85349,0.00304,-77.53782,137.00119,0.00183,83.23528,-1.72207,7.39099,0.00157,0.85411,-0.88686,0.00038,-14.49942,-4.57292,10.80663,-36.25795,-8.26545,8.34343,3.48973,-3.26637,4.67577
1891,-4.15236,-0.0,0.0,-3.00696,0.0,0.0,1.36011,-6.76802,13.62676,12.14684,6.57472,-21.2241,-15.59705,0.06432,-0.00021,-17.98883,-3.25057,-0.00038,23.01291,5.5391,7.36522,9.04707,-5.82596,-14.99353,20.8715,14.59858,6.68751,28.56266,-11.38448,21.88062,140.08206,-0.00195,-78.12075,137.32632,0.00016,82.31413,-1.98638,6.9212,-0.00078,1.08346,-0.91258,0.00058,-14.56565,-4.64193,10.76394,-36.33024,-8.31377,8.27764,3.4262,-3.20804,4.54051
1892,-4.43769,0.0,0.0,-2.88042,0.0,-0.0,1.45166,-6.72001,13.82417,12.01274,6.60185,-21.24662,-15.52737,-0.03611,-0.00027,-18.59491,-3.27139,-0.00067,22.93646,5.50068,7.11699,9.26395,-5.90569,-14.45521,21.24055,14.58189,6.65304,28.64318,-11.35586,21.37942,140.28116,-0.00443,-78.38142,137.63829,-0.00196,82.1375,-1.71514,6.06575,-0.00725,1.48033,-0.52244,0.00212,-14.83589,-4.67955,10.87877,-36.59625,-8.39114,8.37097,3.35629,-3.2199,4.58763
1893,-4.57491,-0.0,0.0,-2.65903,0.0,-0.0,1.42128,-6.71414,13.91227,11.90682,6.73321,-21.17999,-15.3877,-0.12513,-8e-05,-19.24756,-3.30495,-0.00038,22.75319,5.42978,6.96792,9.45066,-6.03631,-13.86141,21.59521,14.62702,6.57375,28.91295,-11.17609,20.88125,140.33246,-0.00449,-78.67835,137.80513,-0.00141,82.4885,-1.10656,5.32211,-0.0062,1.75346,-0.1647,0.00147,-15.27315,-4.81704,10.97958,-37.03555,-8.55608,8.41377,3.27148,-3.32467,4.73021
1894,-4.38943,0.0,-0.0,-2.24584,0.0,-0.0,1.17136,-6.6662,13.61665,11.6946,6.99103,-20.93217,-15.12835,-0.11311,0.00025,-19.9247,-3.38112,0.00022,22.4727,5.30473,7.08842,9.60957,-6.22585,-13.44901,21.94972,14.7143,6.34269,29.20794,-10.86669,20.69684,140.14447,0.00073,-78.69674,137.85545,0.0002,83.14202,-0.72049,5.2944,-0.00241,1.86993,-0.10366,2e-05,-15.68494,-5.03697,10.93316,-37.46229,-8.74317,8.28782,3.17642,-3.46015,4.84248
1895,-4.22121,-0.0,0.0,-1.80532,0.0,-0.0,0.87076,-6.57381,13.08196,11.39929,7.34684,-20.61184,-14.7558,-0.0348,0.00029,-20.63272,-3.48993,0.00097,22.13001,5.14257,7.37896,9.78569,-6.46155,-13.20425,22.29662,14.85733,5.97973,29.36542,-10.57003,20.85776,139.75055,0.00921,-77.8622,137.89374,0.00197,83.77682,-0.90622,6.16568,-0.00644,2.10747,-0.32964,-0.00209,-15.84581,-5.18242,10.73809,-37.64198,-8.80612,8.05064,3.08158,-3.56822,4.88358
1896,-4.40599,0.0,-0.0,-1.50501,0.0,-0.0,0.76193,-6.49159,12.6402,11.14153,7.68958,-20.29409,-14.35045,0.05217,0.00014,-21.39001,-3.59902,0.00166,21.80849,4.92918,7.61174,10.03847,-6.75267,-13.07107,22.64024,15.03092,5.585,29.39543,-10.40157,21.15787,139.27803,0.00993,-76.5752,137.94217,0.00373,84.01627,-1.51989,7.53934,-0.00941,2.60459,-0.67096,-0.00285,-15.709,-5.15465,10.48125,-37.51698,-8.68533,7.82078,3.00855,-3.675,4.86038
1897,-4.84421,-0.0,0.0,-1.28812,0.0,0.0,0.90529,-6.42094,12.41772,10.94661,7.87174,-19.99392,-14.00019,0.15554,0.00018,-22.18254,-3.64788,0.00149,21.60734,4.63971,7.65747,10.38752,-7.10117,-13.02304,22.99656,15.17205,5.21458,29.43653,-10.39446,21.39379,138.84334,0.00274,-76.01646,137.89465,0.00169,83.54765,-2.22358,8.84567,-0.00465,2.99361,-0.97419,-0.0001,-15.43893,-4.99605,10.23928,-37.25032,-8.44854,7.65408,2.97612,-3.82524,4.75737
1898,-5.19263,0.0,0.0,-1.02904,-0.0,-0.0,1.17298,-6.31349,12.27282,10.71478,7.77458,-19.81399,-13.75141,0.2901,0.00022,-22.96021,-3.53811,-0.00021,21.54768,4.33196,7.56309,10.76687,-7.44623,-12.92887,23.36482,15.23321,4.87564,29.5958,-10.53654,21.50874,138.4872,-0.00338,-76.85544,137.62831,-0.00736,82.13836,-2.7345,9.6726,0.00151,2.74318,-1.18079,0.00303,-15.24117,-4.78931,10.03682,-37.05145,-8.18165,7.54243,2.9624,-3.97219,4.56674
1899,-5.37394,0.0,-0.0,-0.79939,0.0,0.0,1.43837,-6.1195,12.06104,10.40226,7.44872,-19.89627,-13.60502,0.38738,5e-05,-23.6968,-3.20462,-0.00254,21.55081,4.12377,7.4374,11.08079,-7.71439,-12.58403,23.71688,15.20292,4.55778,29.84529,-10.77874,21.52092,138.17114,-0.00579,-78.78938,137.15268,-0.01543,79.95924,-2.83222,9.76606,0.00063,1.82638,-1.26464,0.00276,-15.20776,-4.5594,9.85027,-37.01516,-7.89912,7.45436,2.9278,-4.02225,4.35499
1900,-5.67716,0.0,-0.0,-0.82926,0.0,-0.0,1.67641,-5.84651,11.80773,10.1083,7.19784,-20.16101,-13.51591,0.35224,-0.00019,-24.43301,-2.74303,-0.00337,21.52691,4.06507,7.33706,11.3242,-7.90612,-11.99007,24.02113,15.10327,4.20242,30.05903,-11.0132,21.44832,137.79721,-0.0054,-80.89462,136.59892,-0.01111,77.91763,-2.5011,9.08888,-0.0049,0.7414,-1.17703,0.00031,-15.30147,-4.30672,9.59645,-37.10841,-7.57051,7.31198,2.88622,-3.96308,4.24509
1901,-6.34104,-0.0,0.0,-1.22176,-0.0,0.0,1.90146,-5.62961,11.62561,9.93304,7.34029,-20.2968,-13.42351,0.19213,-0.00037,-25.23392,-2.38882,-0.00156,21.45921,4.10268,7.26524,11.60147,-8.0645,-11.41453,24.27179,14.98628,3.72142,30.14369,-11.11387,21.32758,137.27425,-0.00112,-82.2661,136.06293,0.0014,77.18288,-2.05153,7.90895,-0.00394,-0.09939,-0.87209,-0.00129,-15.45955,-4.08005,9.17432,-37.27538,-7.20365,7.00277,2.90825,-3.87204,4.32438
1902,-7.1442,0.0,0.0,-1.78707,0.0,-0.0,2.06516,-5.66856,11.53626,9.83345,7.86823,-20.10207,-13.2963,0.02839,-0.00027,-26.10987,-2.31423,0.00148,21.37662,4.16232,7.23424,11.98952,-8.19233,-11.10128,24.46968,14.90985,3.15344,30.12551,-11.0459,21.19894,136.62181,0.00486,-82.59144,135.53105,0.00869,78.01217,-1.75483,6.62055,0.00091,-0.66844,-0.36244,-0.00172,-15.66793,-3.96041,8.62723,-37.50253,-6.88969,6.53711,3.02985,-3.81284,4.55448
1903,-7.48206,-0.0,0.0,-2.1694,0.0,0.0,2.03834,-6.02603,11.39086,9.65427,8.45942,-19.65055,-13.12851,-0.01844,8e-05,-27.00037,-2.50556,0.00314,21.26464,4.21525,7.28695,12.41452,-8.25448,-11.11591,24.59205,14.8984,2.73387,30.10017,-10.91413,21.08518,135.9761,0.00686,-82.15839,134.97102,0.00697,79.58605,-1.49269,5.4871,0.00114,-1.09165,0.23773,-0.00156,-15.87499,-3.9791,8.20998,-37.72776,-6.75215,6.14099,3.16695,-3.7658,4.75863
1904,-7.0523,0.0,-0.0,-2.15591,-0.0,-0.0,1.76563,-6.51968,11.02489,9.27234,8.80126,-19.11129,-12.92195,0.06867,0.00039,-27.84372,-2.82358,0.00255,21.07737,4.26477,7.41606,12.73687,-8.24434,-11.42361,24.61442,14.94092,2.67442,30.11747,-10.84447,21.02525,135.46115,0.00425,-81.53078,134.4236,0.00345,81.26736,-1.07617,4.59523,-0.00028,-1.39757,0.79706,-0.00071,-15.91876,-4.04979,8.16774,-37.77634,-6.80208,6.07511,3.1768,-3.67585,4.73763
1905,-6.31815,-0.0,0.0,-1.8286,-0.0,0.0,1.39337,-6.83269,10.45837,8.70247,8.84314,-18.59591,-12.69587,0.21477,0.00036,-28.63311,-3.10598,0.0006,20.83974,4.28766,7.52308,12.93349,-8.22728,-11.90413,24.54319,15.02656,2.9092,30.15058,-10.84372,21.04684,135.09698,0.00139,-81.22888,133.97002,0.00164,83.0259,-0.60184,3.87334,-0.00011,-1.5007,1.31695,0.0012,-15.6864,-3.9962,8.48232,-37.52874,-6.86913,6.38853,3.02825,-3.56081,4.42787
1906,-5.90491,-0.0,-0.0,-1.40372,0.0,-0.0,1.10701,-6.76799,9.86307,8.07167,8.78379,-18.156,-12.49487,0.33739,0.0001,-29.38356,-3.25026,-0.00114,20.65484,4.22742,7.51422,13.10173,-8.30153,-12.36525,24.44527,15.14034,3.12908,30.14807,-10.8388,21.08162,134.82091,-0.00022,-81.51077,133.66638,-0.00061,84.57372,-0.19661,3.11774,-0.00106,-1.36032,1.89563,0.00365,-15.30904,-3.71796,8.9121,-37.12031,-6.77027,6.89363,2.83868,-3.51675,3.94069
1907,-5.78976,0.0,0.0,-1.03123,-0.0,-0.0,0.92034,-6.41704,9.38529,7.50521,8.87435,-17.76771,-12.36489,0.39554,-9e-05,-30.09534,-3.27508,-0.00132,20.5973,4.07182,7.39206,13.31878,-8.50175,-12.68962,24.4562,15.22619,3.03549,30.05193,-10.79574,21.00744,134.53537,-0.00321,-82.45512,133.55284,-0.00174,85.33352,0.22059,2.21878,-0.00198,-1.1258,2.55397,0.00428,-15.06713,-3.31042,9.21811,-36.84655,-6.50527,7.33147,2.72938,-3.59092,3.46289
1908,-5.5385,0.0,0.0,-0.73615,0.0,-0.0,0.76496,-6.04727,9.05085,7.04459,9.19893,-17.34499,-12.32081,0.38844,-8e-05,-30.78197,-3.27566,-0.0002,20.65537,3.89194,7.22837,13.5873,-8.76582,-12.9042,24.666,15.22147,2.57976,29.80917,-10.74113,20.80592,134.16917,-0.00661,-83.96529,133.65845,-0.001,85.34573,0.67862,1.36565,0.00353,-1.10246,3.20058,0.0017,-15.1094,-2.95535,9.29151,-36.87058,-6.2027,7.53247,2.72162,-3.70844,3.11333
1909,-5.05464,0.0,0.0,-0.45134,0.0,-0.0,0.66148,-5.82777,8.77145,6.65074,9.5796,-16.84109,-12.34461,0.35117,-1e-05,-31.47038,-3.2979,0.00069,20.77712,3.7634,7.10337,13.88335,-9.00906,-13.05307,24.98191,15.14476,1.99663,29.46752,-10.71491,20.59591,133.73677,-0.00511,-85.55684,133.92986,-0.00125,85.21391,0.98431,0.94185,0.01225,-1.51303,3.79554,-0.00226,-15.33565,-2.75254,9.16631,-37.09497,-5.96799,7.49129,2.76798,-3.76575,2.86808
1910,-4.66771,0.0,0.0,-0.16464,-0.0,0.0,0.66938,-5.74162,8.42256,6.27308,9.71244,-16.31284,-12.40488,0.34125,-2e-05,-32.1449,-3.29858,0.00051,20.9128,3.697,7.09039,14.18233,-9.18533,-13.06715,25.21948,15.09602,1.53528,29.20228,-10.73319,20.48112,133.29016,0.00092,-86.58326,134.21626,-0.00155,85.06324,0.87456,1.33246,0.00616,-2.25521,4.4013,-0.00417,-15.52856,-2.69359,8.97826,-37.29472,-5.8436,7.33788,2.80773,-3.75322,2.6439
1911,-4.65108,-0.0,-0.0,-0.03617,0.0,0.0,0.76696,-5.77438,7.97532,5.91945,9.4539,-15.87633,-12.46459,0.39741,-4e-05,-32.74962,-3.22144,-0.0002,21.00537,3.67388,7.21721,14.44898,-9.27683,-12.81491,25.33595,15.14434,1.15573,29.12736,-10.78109,20.43192,132.81096,0.00489,-86.85564,134.39499,-0.00133,84.45657,0.10658,2.75796,-0.02484,-2.96838,4.92039,-0.00167,-15.54308,-2.7089,8.82295,-37.3172,-5.80028,7.18736,2.78755,-3.74041,2.44083
1912,-4.98584,0.0,-0.0,-0.23347,0.0,-0.0,0.87698,-6.00937,7.55396,5.66069,8.94586,-15.59263,-12.48053,0.50188,1e-05,-33.2686,-3.06333,-0.00075,21.00541,3.67575,7.4119,14.65784,-9.30523,-12.27234,25.45377,15.25407,0.63603,29.14107,-10.83876,20.34757,132.2626,0.0028,-86.86715,134.48859,-0.00134,83.47929,-1.32589,4.92405,-0.04786,-3.3002,5.03086,0.00016,-15.38357,-2.70127,8.66788,-37.16461,-5.73573,7.04563,2.69095,-3.78327,2.34205
1913,-5.54415,0.0,0.0,-0.69943,0.0,0.0,0.96842,-6.42055,7.30786,5.55979,8.45324,-15.39671,-12.42448,0.58768,2e-05,-33.75373,-2.87383,-0.00088,20.92463,3.66267,7.55216,14.82527,-9.34922,-11.59611,25.64479,15.34209,-0.0379,29.05747,-10.89712,20.17972,131.75851,-0.00058,-87.11668,134.62976,-0.00123,82.79891,-2.84322,6.84292,-0.02555,-3.06452,4.65103,-0.00258,-15.14529,-2.59119,8.47184,-36.93123,-5.56083,6.90394,2.56476,-3.89215,2.38337
1914,-6.11725,0.0,-0.0,-1.18489,0.0,0.0,1.04185,-6.73555,7.1972,5.57315,8.17812,-15.14467,-12.31658,0.60069,-7e-05,-34.24957,-2.73818,-0.00027,20.84277,3.60164,7.59167,14.98373,-9.46234,-11.04367,25.83287,15.36283,-0.61307,28.81733,-10.9424,19.94949,131.52087,-0.00182,-87.25811,134.92123,-0.00102,82.59834,-3.57596,7.50212,0.00325,-2.32673,4.16197,-0.00278,-14.91732,-2.36724,8.27684,-36.7041,-5.28057,6.80572,2.47912,-4.04099,2.48575
1915,-6.34063,-0.0,-0.0,-1.45444,-0.0,0.0,1.04628,-6.68792,7.01133,5.55184,8.2106,-14.72742,-12.21007,0.5559,-9e-05,-34.72996,-2.73571,0.00071,20.83657,3.51696,7.5713,15.13037,-9.59455,-10.80375,25.94581,15.29607,-0.91401,28.4885,-10.96123,19.68004,131.64977,-0.00604,-86.56256,135.35219,-0.00109,82.5677,-3.17199,6.75906,-0.00222,-1.41592,3.94065,0.00127,-14.75125,-2.09994,8.11243,-36.53642,-4.97139,6.75215,2.45799,-4.1697,2.53935
1916,-6.15776,0.0,-0.0,-1.47992,0.0,0.0,0.96129,-6.31975,6.69278,5.3923,8.49598,-14.16832,-12.12638,0.50454,-4e-05,-35.1279,-2.84041,0.0009,20.89578,3.45566,7.47194,15.22338,-9.66363,-10.8116,26.0174,15.1119,-1.00515,28.13767,-10.96856,19.39113,132.07339,-0.00872,-85.1674,135.8385,-0.00107,82.52328,-1.97096,5.25084,-0.01742,-0.70924,3.95633,0.00302,-14.65439,-1.88816,7.93494,-36.44067,-4.7089,6.66573,2.46843,-4.21831,2.50897
1917,-6.12342,0.0,0.0,-1.46596,0.0,0.0,0.8915,-5.91678,6.45646,5.15493,8.84767,-13.60379,-12.04547,0.46754,-2e-05,-35.39664,-2.90704,0.00029,20.92198,3.43675,7.18421,15.2092,-9.65032,-10.781,26.09934,14.82682,-0.99211,27.80202,-10.99534,19.146,132.69368,-0.00245,-84.03707,136.28983,0.00065,82.25768,-0.50082,3.71379,-0.01634,-0.3352,3.93811,0.00181,-14.54867,-1.76043,7.71822,-36.34044,-4.50989,6.51151,2.45195,-4.17647,2.42111
1918,-6.59219,0.0,-0.0,-1.6066,0.0,0.0,0.90376,-5.733,6.44561,5.00535,9.10006,-13.11522,-11.97273,0.45291,-3e-05,-35.54694,-2.84493,-0.00014,20.84808,3.45102,6.72454,15.06879,-9.58795,-10.5186,26.20128,14.53838,-0.92012,27.54119,-11.03847,18.98862,133.42809,0.00704,-83.77085,136.63525,0.00157,81.58378,0.81594,2.72369,-0.00204,-0.11879,3.71492,-4e-05,-14.30856,-1.65161,7.50675,-36.10608,-4.33038,6.35519,2.36383,-4.09356,2.31029
1919,-7.1209,0.0,0.0,-1.84588,0.0,0.0,0.91383,-5.81887,6.49635,5.06447,9.19839,-12.62325,-11.95793,0.491,-0.00012,-35.66708,-2.7216,-0.00024,20.74815,3.44925,6.32244,14.88085,-9.53956,-10.09871,26.33996,14.33381,-0.90954,27.41718,-11.06178,18.84306,134.14702,0.00972,-84.08281,136.84549,-4e-05,80.71323,1.64857,2.61293,0.00664,0.17386,3.3305,-0.00142,-13.92927,-1.50899,7.34085,-35.7297,-4.13637,6.25388,2.2288,-4.0547,2.2227
1920,-7.23844,0.0,0.0,-1.93225,0.0,0.0,0.86416,-6.03612,6.39999,5.31175,9.12486,-12.01146,-12.03619,0.57688,-0.00019,-35.86883,-2.63015,-0.00023,20.76007,3.3654,6.1592,14.77971,-9.57604,-9.6768,26.5473,14.19395,-1.14443,27.40649,-11.06507,18.59567,134.72261,0.0051,-84.27556,136.96954,-0.00139,79.95379,1.86607,3.16579,0.0027,0.57882,2.95106,-0.00142,-13.58877,-1.38065,7.21881,-35.39077,-3.97189,6.18811,2.13833,-4.11983,2.21592
1921,-7.05031,-0.0,0.0,-1.68999,0.0,0.0,0.80551,-6.20331,6.1862,5.61522,8.91537,-11.27433,-12.18879,0.63362,-2e-05,-36.14543,-2.59782,-0.00011,20.90697,3.22071,6.18333,14.79328,-9.6918,-9.32858,26.80948,14.02673,-1.63013,27.38725,-11.11247,18.25166,135.14757,-0.00226,-83.77914,137.11891,-0.00083,79.3335,1.72623,3.70966,-0.0016,0.99266,2.67085,-0.00137,-13.44496,-1.3515,7.16481,-35.24838,-3.92478,6.14872,2.15184,-4.25188,2.32402
1922,-6.76391,0.0,-0.0,-1.23468,-0.0,0.0,0.73609,-6.23548,5.97962,5.85929,8.76035,-10.50813,-12.35292,0.61143,0.0002,-36.34327,-2.64202,-0.00019,21.08176,3.11442,6.27547,14.80099,-9.79217,-9.09652,27.05779,13.78616,-2.12728,27.27981,-11.25176,17.92789,135.51559,-0.00944,-82.39912,137.33984,0.00028,78.76252,1.70442,3.85255,-0.00165,1.36441,2.40139,-0.00236,-13.44622,-1.41831,7.23738,-35.24845,-4.01376,6.19137,2.23809,-4.35277,2.51411
1923,-6.27561,0.0,0.0,-0.78792,0.0,-0.0,0.55536,-6.15035,5.74475,5.9978,8.85394,-9.80757,-12.45031,0.57505,0.00024,-36.3388,-2.76801,-0.00062,21.1996,3.06494,6.41952,14.69318,-9.82313,-9.01419,27.24297,13.50697,-2.44527,27.17741,-11.42345,17.7304,135.8912,-0.01018,-80.64311,137.50368,0.00118,78.31158,1.9372,3.8684,-0.00031,1.6165,2.01933,-0.00194,-13.4434,-1.47244,7.41486,-35.2398,-4.1299,6.33637,2.33411,-4.39601,2.67886
1924,-5.54544,0.0,0.0,-0.32245,-0.0,0.0,0.25258,-6.00554,5.38822,6.00422,9.11133,-9.23011,-12.43624,0.61338,0.00028,-36.16548,-2.88713,-0.00051,21.26068,2.98997,6.61625,14.47965,-9.825,-8.99102,27.3724,13.21178,-2.67226,27.23353,-11.50663,17.67694,136.27493,-0.00028,-79.81257,137.40961,0.00446,78.23955,2.03478,4.13832,-0.00104,1.58061,1.51097,0.00113,-13.40426,-1.41299,7.54022,-35.19384,-4.12123,6.47517,2.41224,-4.447,2.73677
1925,-5.11151,0.0,0.0,0.25798,0.0,0.0,0.03523,-5.89132,5.02249,5.90459,9.27423,-8.87235,-12.34136,0.70174,0.00024,-35.92188,-2.84183,0.00057,21.27051,2.87192,6.75557,14.21249,-9.82222,-8.76141,27.45415,12.8833,-2.96047,27.44538,-11.47512,17.71758,136.66484,0.01134,-80.84368,137.00581,0.00801,78.58292,1.64396,4.59923,-0.00319,1.28244,0.92032,0.00321,-13.39637,-1.25895,7.45721,-35.18541,-3.94739,6.45524,2.47381,-4.53267,2.72151
1926,-5.50458,0.0,-0.0,0.75025,0.0,-0.0,0.0884,-5.90622,4.8457,5.81845,9.30363,-8.77672,-12.24175,0.75462,5e-05,-35.64295,-2.62746,0.00132,21.2157,2.79833,6.72398,13.90399,-9.76468,-8.21231,27.46679,12.55552,-3.2283,27.66686,-11.44764,17.80794,137.04706,0.01141,-82.92071,136.44237,0.00322,78.76641,0.96303,5.02733,-0.00211,1.05443,0.3818,0.00231,-13.42714,-1.11986,7.18557,-35.22398,-3.71741,6.25425,2.52364,-4.58869,2.69311
1927,-6.24273,0.0,-0.0,0.91587,0.0,0.0,0.26712,-6.06897,4.83155,5.84061,9.39352,-8.76748,-12.18335,0.7658,-5e-05,-35.30728,-2.48488,0.00042,21.13184,2.82845,6.56675,13.55968,-9.59782,-7.65391,27.4241,12.30955,-3.29477,27.80201,-11.53562,17.9378,137.34012,0.00307,-84.20669,135.90292,-0.00796,78.04732,0.52654,5.46388,0.00217,1.14131,0.15053,0.00184,-13.42144,-1.07596,6.91046,-35.22824,-3.57449,6.01469,2.57056,-4.55287,2.63752
1928,-6.35,0.0,-0.0,0.89453,-0.0,-0.0,0.27163,-6.30349,4.80266,5.93754,9.64404,-8.63197,-12.15514,0.78557,-4e-05,-34.90253,-2.61977,-0.00135,21.11213,2.92637,6.40991,13.22875,-9.33102,-7.45527,27.41148,12.15335,-3.20279,27.8922,-11.69427,18.10801,137.44701,-9e-05,-83.95204,135.45859,-0.01351,76.58714,0.60977,6.03006,0.00667,1.35982,0.35666,0.00119,-13.32275,-1.1172,6.7903,-35.13517,-3.56815,5.88758,2.63526,-4.44305,2.54344
1929,-5.66709,0.0,-0.0,0.984,0.0,-0.0,0.04324,-6.51392,4.6935,6.02079,9.99304,-8.37892,-12.12413,0.82383,-1e-05,-34.43768,-2.95214,-0.00194,21.22697,2.99443,6.30388,12.9743,-9.06202,-7.6055,27.49671,12.00524,-3.21147,28.03659,-11.77437,18.32691,137.36176,0.00037,-83.12793,135.09126,-0.00707,75.85541,0.92016,6.60374,0.00631,1.29459,0.8396,-0.00256,-13.14044,-1.17183,6.79487,-34.95396,-3.62057,5.87149,2.75251,-4.35034,2.47521
1930,-4.8615,0.0,-0.0,1.19326,0.0,0.0,-0.24055,-6.61651,4.53309,6.05911,10.35186,-8.15487,-12.06911,0.85361,-0.0,-33.91393,-3.23533,-0.001,21.45108,2.94372,6.23383,12.79096,-8.92001,-7.82729,27.62691,11.80678,-3.50331,28.28526,-11.6917,18.62459,137.15697,-0.00242,-83.0697,134.73941,0.00601,77.29946,1.01801,6.86915,0.00173,0.74907,1.30268,-0.00462,-12.91466,-1.18521,6.76996,-34.72945,-3.62374,5.84334,2.94732,-4.3681,2.48301
1931,-4.27235,0.0,-0.0,1.27085,-0.0,0.0,-0.49421,-6.504,4.27963,6.05719,10.61002,-7.97034,-11.97752,0.86279,-1e-05,-33.29581,-3.33969,-0.00032,21.66745,2.78354,6.20947,12.57502,-8.93048,-7.97556,27.65852,11.60958,-3.97425,28.60551,-11.51483,19.03082,136.89738,-0.00477,-83.91236,134.29306,0.012,80.3589,1.03714,6.5076,-0.00751,-0.06854,1.47971,-0.00103,-12.66916,-1.1782,6.66125,-34.48788,-3.57684,5.74485,3.18451,-4.50048,2.52094
1932,-3.58035,0.0,-0.0,1.10159,0.0,-0.0,-0.80175,-6.13066,3.8975,6.00939,10.65312,-7.71219,-11.83983,0.86783,3e-05,-32.53093,-3.31885,-0.0003,21.75975,2.60916,6.2481,12.21194,-8.99601,-8.11897,27.4834,11.54835,-4.30118,28.91659,-11.39302,19.53009,136.64706,-0.00265,-84.5268,133.68266,0.00141,82.87266,1.4483,5.4949,-0.02,-0.75546,1.31029,0.00256,-12.39414,-1.19411,6.58405,-34.21611,-3.56292,5.66713,3.37145,-4.66854,2.5183
1933,-2.86033,0.0,-0.0,0.92705,-0.0,0.0,-1.13875,-5.68026,3.54262,5.96856,10.4914,-7.49794,-11.67629,0.88583,4e-05,-31.63381,-3.20152,0.00111,21.71325,2.4829,6.30256,11.69897,-9.03239,-8.19637,27.12876,11.71216,-4.24186,29.13596,-11.41323,20.04321,136.48077,-0.00046,-84.021,133.02077,-0.01066,83.77472,2.04687,4.48482,-0.02227,-1.07192,1.12753,0.00236,-12.05663,-1.2036,6.62128,-33.87744,-3.58556,5.69822,3.44977,-4.82305,2.49216
1934,-2.85043,-0.0,0.0,1.07329,-0.0,-0.0,-1.29412,-5.44603,3.41801,6.05952,10.26916,-7.65158,-11.55042,0.90711,-3e-05,-30.72678,-2.94192,0.00306,21.61532,2.38925,6.30679,11.15189,-9.04128,-7.99117,26.75345,12.04116,-3.87844,29.21121,-11.54452,20.44426,136.38554,-0.00062,-82.84354,132.54117,-0.00955,83.90174,1.99687,4.4403,-0.0264,-1.10592,1.33676,0.00129,-11.62603,-1.13558,6.65833,-33.44389,-3.53618,5.75801,3.46035,-4.99054,2.52757
1935,-3.74968,-0.0,0.0,1.49077,-0.0,-0.0,-1.16599,-5.52365,3.51434,6.3393,10.11503,-8.18069,-11.52023,0.90234,-9e-05,-29.94976,-2.64351,0.00211,21.56869,2.30168,6.25138,10.69382,-9.03806,-7.59813,26.50887,12.37527,-3.50277,29.14981,-11.70428,20.63387,136.24043,-0.00222,-82.05476,132.35503,-0.00396,84.21566,1.0185,5.493,-0.03224,-1.08303,1.82554,0.00041,-11.1072,-0.99235,6.53317,-32.92652,-3.35671,5.69495,3.49605,-5.18833,2.65143
1936,-4.89763,0.0,0.0,1.78534,0.0,0.0,-0.88959,-5.79174,3.71981,6.72157,10.06394,-8.72953,-11.5848,0.83773,-0.0,-29.33813,-2.53968,-0.00079,21.61422,2.23978,6.13639,10.36532,-8.99182,-7.39166,26.40289,12.58545,-3.30997,29.01494,-11.8307,20.62464,135.94341,-0.00402,-82.02502,132.35493,-0.00081,84.68414,-0.22423,6.71372,-0.01438,-1.05241,2.09191,-0.00024,-10.55055,-0.85927,6.2757,-32.37646,-3.13746,5.50513,3.61266,-5.36702,2.81473
1937,-5.75356,0.0,-0.0,1.68458,0.0,0.0,-0.6244,-6.07797,4.02334,7.09816,10.09683,-9.10169,-11.70176,0.69194,0.0002,-28.81485,-2.6896,-0.00243,21.7226,2.24465,5.93123,10.12107,-8.87359,-7.48162,26.37115,12.63775,-3.329,28.86089,-11.88772,20.52637,135.45851,-0.00129,-82.22532,132.36911,0.00033,84.86049,-0.90057,7.21448,0.00551,-0.87202,1.89798,-0.00141,-10.03322,-0.78487,6.03372,-31.86617,-2.97843,5.30791,3.79661,-5.47247,3.00546
1938,-6.27731,0.0,0.0,1.24522,0.0,-0.0,-0.42518,-6.23325,4.40462,7.47444,10.14656,-9.40977,-11.83801,0.49997,0.00029,-28.27279,-2.91335,-0.00181,21.84812,2.31321,5.64888,9.87401,-8.70899,-7.67366,26.41267,12.56988,-3.53751,28.69785,-11.85841,20.46671,134.77109,0.00528,-82.05575,132.31975,0.00082,84.77411,-0.59924,6.89421,0.00273,-0.50005,1.43665,-0.00181,-9.62803,-0.71764,5.82301,-31.46689,-2.83766,5.13712,4.00432,-5.50315,3.26602
1939,-6.57119,0.0,-0.0,0.67828,0.0,0.0,-0.30367,-6.24029,4.71827,7.90537,10.10656,-9.79473,-11.98213,0.35538,0.00018,-27.63243,-3.01279,0.00017,21.9733,2.39908,5.37886,9.54563,-8.54066,-7.83786,26.51535,12.46356,-3.85559,28.54474,-11.78829,20.54912,133.92961,0.00724,-81.57153,132.24146,0.00124,84.92052,0.58053,6.12894,-0.00856,-0.19141,1.01018,-0.00029,-9.33655,-0.60984,5.58854,-31.18121,-2.65037,4.95939,4.20872,-5.47415,3.5852
1940,-6.69753,0.0,-0.0,0.19318,0.0,-0.0,-0.26061,-6.2769,4.83936,8.34957,9.93419,-10.27819,-12.13649,0.32659,-4e-05,-26.8618,-2.94186,0.00172,22.10762,2.47573,5.20066,9.11017,-8.37166,-8.00743,26.52649,12.43002,-4.1177,28.45323,-11.77892,20.81709,133.09126,0.00228,-81.27957,132.23056,3e-05,85.59866,2.09196,5.3022,-0.00918,-0.29174,0.85623,-0.00039,-9.03703,-0.52069,5.45333,-30.88452,-2.51731,4.86699,4.40385,-5.38423,3.86369
1941,-6.68537,0.0,0.0,-0.0052,-0.0,0.0,-0.26841,-6.50068,4.79134,8.68779,9.71475,-10.7888,-12.31787,0.40191,-0.00025,-25.98837,-2.79438,0.00159,22.26864,2.53483,5.11991,8.60398,-8.19384,-8.25426,26.26381,12.54701,-4.17952,28.45074,-11.85951,21.21408,132.41205,-0.00278,-81.54218,132.36198,-0.00242,86.68758,3.33981,4.68888,-0.00131,-0.83225,1.08594,-0.00291,-8.57972,-0.53176,5.59825,-30.42273,-2.58151,4.9975,4.58473,-5.2595,4.0037
1942,-6.60207,0.0,0.0,0.17186,0.0,0.0,-0.26042,-6.81836,4.70182,8.89052,9.59308,-11.24957,-12.54689,0.52448,-0.00036,-25.08273,-2.67697,0.00054,22.45381,2.54427,5.08836,8.07552,-8.03548,-8.59164,25.73818,12.77179,-4.02496,28.52846,-11.93265,21.63557,131.91833,-0.00312,-82.28157,132.59947,-0.00278,87.90046,4.09597,4.43247,0.00342,-1.53043,1.52192,-0.0027,-7.95017,-0.61703,5.92233,-29.78383,-2.78121,5.26689,4.72341,-5.17151,3.99573
1943,-6.62723,-0.0,0.0,0.45877,0.0,0.0,-0.15116,-6.98803,4.73816,9.10642,9.67411,-11.65514,-12.81695,0.63278,-0.00025,-24.21618,-2.62502,-0.0001,22.62887,2.47868,5.03182,7.55128,-7.93633,-8.96283,25.16112,12.95632,-3.77445,28.68066,-11.91172,22.0317,131.54562,-0.00056,-83.12524,132.81758,-0.00068,89.01141,4.3776,4.48146,0.00184,-2.1074,1.74335,-1e-05,-7.27518,-0.70162,6.12034,-29.10352,-2.93335,5.41941,4.78547,-5.17201,3.94267
1944,-6.874,0.0,0.0,0.38606,-0.0,0.0,0.07745,-6.87856,5.04092,9.52578,9.93138,-12.01811,-13.07457,0.66922,3e-05,-23.42083,-2.62982,-0.00027,22.76189,2.36728,4.87428,7.06417,-7.90552,-9.31539,24.72367,12.98497,-3.59619,28.87436,-11.83137,22.411,131.25659,0.00113,-83.99979,132.94287,0.00072,89.89397,4.18818,4.63256,-0.00038,-2.38828,1.41873,-0.00085,-6.68668,-0.77314,6.08202,-28.51773,-2.9855,5.35716,4.79573,-5.24983,4.001
1945,-7.11686,0.0,-0.0,-0.13891,-0.0,-0.0,0.30463,-6.55586,5.57325,10.15021,10.17387,-12.27734,-13.25413,0.606,0.00018,-22.66534,-2.68373,-0.0006,22.86002,2.27422,4.61485,6.65082,-7.91085,-9.69035,24.42513,12.88716,-3.58067,29.01378,-11.76939,22.78566,131.06859,0.00195,-85.35176,133.03214,-7e-05,90.39937,3.56917,4.6348,0.00236,-2.35156,0.60708,-0.00481,-6.24758,-0.83187,5.96706,-28.08375,-2.99727,5.22845,4.84155,-5.36165,4.22859
1946,-6.91237,0.0,-0.0,-0.68071,-0.0,0.0,0.34551,-6.18791,6.0638,10.76769,10.18884,-12.32422,-13.34069,0.48621,0.0001,-21.88135,-2.78246,-0.00123,22.95568,2.24683,4.39539,6.30335,-7.89774,-10.21377,24.14005,12.7993,-3.70865,29.01727,-11.73952,23.1496,130.98425,0.00279,-87.39729,133.20512,-0.00125,90.42589,2.68432,4.40329,0.00577,-2.18606,-0.17114,-0.00519,-5.96382,-0.82245,5.9264,-27.80118,-2.9734,5.19416,4.98085,-5.47605,4.5192
1947,-6.10807,-0.0,-0.0,-0.86088,0.0,0.0,0.13447,-5.95122,6.25218,11.19212,9.93354,-12.16042,-13.38541,0.39989,-2e-05,-21.04403,-2.8877,-0.00111,23.05268,2.29798,4.38481,5.96143,-7.82825,-10.91635,23.81659,12.81311,-3.89122,28.89391,-11.71999,23.44901,130.92935,0.00177,-89.50435,133.56433,-0.00015,90.05858,1.7987,4.31999,0.00251,-2.02522,-0.22228,-6e-05,-5.77224,-0.71097,5.96936,-27.60601,-2.88589,5.27561,5.1686,-5.57654,4.74264
1948,-5.03423,-0.0,0.0,-0.78826,0.0,-0.0,-0.21181,-5.95565,6.15985,11.43523,9.54458,-11.95884,-13.45882,0.39831,-0.00013,-20.20309,-2.92051,0.00018,23.11557,2.41743,4.57406,5.56114,-7.7023,-11.62757,23.53838,12.88425,-4.00468,28.7077,-11.70812,23.6014,130.80663,0.00029,-90.77292,134.15128,0.00417,89.38698,1.23685,4.93724,0.00032,-1.74253,0.74174,0.00881,-5.55534,-0.55894,6.07679,-27.38257,-2.78471,5.43206,5.30171,-5.63739,4.87262
1949,-4.18494,0.0,0.0,-0.81831,-0.0,0.0,-0.50463,-6.15399,6.04438,11.61667,9.19586,-11.9023,-13.60049,0.45428,-0.00018,-19.41745,-2.84667,0.00127,23.13536,2.56932,4.77253,5.10109,-7.54621,-12.14229,23.37482,12.90999,-3.96546,28.51915,-11.68751,23.61068,130.63393,-0.00026,-90.86413,134.87228,0.0072,88.44527,1.23901,6.10328,0.00414,-1.25608,2.23815,0.01181,-5.26041,-0.44603,6.274,-27.07848,-2.7532,5.65736,5.3506,-5.63773,4.95632
1950,-3.98211,0.0,-0.0,-1.14675,0.0,-0.0,-0.58874,-6.38574,6.15542,11.81561,8.96639,-12.08637,-13.81849,0.49895,-3e-05,-18.69581,-2.73378,0.00098,23.16274,2.71437,4.79744,4.6508,-7.372,-12.36034,23.26815,12.84626,-3.80956,28.36877,-11.61433,23.5913,130.55359,-0.00225,-90.08688,135.51096,0.00402,87.49532,1.81409,6.9361,0.00079,-0.78947,3.34516,0.0048,-4.94917,-0.37779,6.55442,-26.75542,-2.79404,5.94339,5.38867,-5.59239,5.05503
1951,-4.48483,0.0,-0.0,-1.63794,0.0,-0.0,-0.44646,-6.53512,6.50866,12.01681,8.82191,-12.48302,-14.10499,0.48315,0.00029,-17.99767,-2.69303,-0.00043,23.24891,2.86524,4.64084,4.26918,-7.14472,-12.33109,23.12105,12.72131,-3.66194,28.26686,-11.48356,23.64347,130.66803,-0.00256,-89.2395,135.91322,-0.00045,86.88579,2.66812,6.94411,-0.00783,-0.63461,3.50135,0.00059,-4.67042,-0.32835,6.79862,-26.46612,-2.83883,6.18877,5.4635,-5.52647,5.21607
1952,-5.11805,0.0,-0.0,-1.96881,-0.0,0.0,-0.23053,-6.60397,6.89632,12.15477,8.70513,-12.87646,-14.42539,0.41554,0.00047,-17.27267,-2.76658,-0.00158,23.38884,3.08054,4.4373,3.94118,-6.82335,-12.26599,22.9145,12.60309,-3.64849,28.21459,-11.35142,23.78312,130.91589,0.00315,-89.25624,136.09219,-0.0012,86.47171,3.16319,6.60892,-0.01027,-0.83407,2.96447,0.00217,-4.39399,-0.31268,6.85218,-26.18723,-2.84416,6.24439,5.52374,-5.43168,5.43149
1953,-5.09575,-0.0,-0.0,-1.94094,-0.0,0.0,-0.11224,-6.65167,7.13478,12.20129,8.61425,-12.96593,-14.7224,0.35356,0.00031,-16.52032,-2.88311,-0.00151,23.54364,3.37751,4.30331,3.62513,-6.44573,-12.40394,22.69303,12.55937,-3.86889,28.24346,-11.26521,23.98242,131.12849,0.00999,-90.38454,136.10199,-0.00084,85.77446,2.61964,6.63897,-0.01397,-1.18487,2.40388,0.00235,-4.1121,-0.35934,6.70316,-25.91218,-2.83215,6.08851,5.5114,-5.29085,5.63514
1954,-4.17328,-0.0,-0.0,-1.63113,0.0,0.0,-0.14302,-6.72239,7.20332,12.19904,8.57005,-12.6111,-14.9625,0.36159,-3e-05,-15.79499,-2.94127,-0.00071,23.69143,3.66646,4.27092,3.3116,-6.1425,-12.83856,22.46739,12.58787,-4.3252,28.36973,-11.22008,24.19889,131.24557,0.01211,-91.70009,135.93707,-0.00096,84.80288,1.01626,7.03932,-0.01134,-1.45876,2.0621,0.00103,-3.8722,-0.46574,6.51694,-25.6815,-2.86177,5.87584,5.45149,-5.14218,5.76003
1955,-2.95747,0.0,-0.0,-1.3594,-0.0,0.0,-0.23394,-6.88348,7.21508,12.25074,8.51743,-12.03534,-15.1705,0.45805,-0.00032,-15.1285,-2.87847,0.00018,23.83763,3.81523,4.29087,2.99592,-6.0308,-13.40035,22.16076,12.61098,-4.76558,28.52693,-11.19011,24.37031,131.48236,-0.00144,-91.75269,135.62611,-7e-05,84.02217,-0.68866,7.1209,0.00304,-1.52469,1.606,-0.00154,-3.66701,-0.60994,6.46647,-25.48096,-2.9769,5.77528,5.40993,-5.06265,5.7755
1956,-2.32824,0.0,-0.0,-1.44953,-0.0,0.0,-0.25581,-7.19715,7.30688,12.44359,8.32007,-11.6542,-15.38603,0.59181,-0.00036,-14.48178,-2.67998,0.00096,24.00218,3.79621,4.28829,2.67452,-6.09956,-13.76919,21.69878,12.57678,-4.78356,28.61761,-11.15146,24.45487,132.12013,-0.03434,-89.77928,135.30791,-0.0003,83.56034,-1.19069,6.32824,-0.00719,-1.33576,0.84993,-0.00557,-3.40838,-0.73668,6.56916,-25.22095,-3.13271,5.82358,5.4375,-5.08335,5.70319
1957,-2.55953,0.0,-0.0,-1.91805,0.0,-0.0,-0.17221,-7.57266,7.50067,12.73818,7.92354,-11.64161,-15.60217,0.6799,-9e-05,-13.79746,-2.39372,0.00124,24.19334,3.73287,4.25546,2.37837,-6.22395,-13.79571,21.16193,12.50469,-4.25009,28.61142,-11.0813,24.50158,133.08766,-0.04626,-86.4904,135.09602,-0.00254,83.23269,0.06509,4.8673,-0.03507,-1.00335,0.10018,-0.00645,-3.05061,-0.73588,6.71168,-24.85771,-3.18492,5.95639,5.55874,-5.16098,5.62245
1958,-3.2639,0.0,-0.0,-2.52646,0.0,0.0,-0.01895,-7.81155,7.70051,13.00673,7.51202,-11.85324,-15.79462,0.67768,0.00018,-13.08523,-2.09718,0.00084,24.37453,3.79066,4.24734,2.12795,-6.27393,-13.58026,20.75373,12.41151,-3.52796,28.56442,-10.98679,24.62252,133.95592,-0.01755,-83.80212,134.9039,-0.00204,83.229,2.305,3.54573,-0.02983,-0.86541,-0.4499,-0.00098,-2.64722,-0.54033,6.81021,-24.44648,-3.03995,6.12074,5.72914,-5.20537,5.62
1959,-3.88297,0.0,-0.0,-3.07664,0.0,-0.0,0.15224,-7.84901,7.82593,13.17839,7.38013,-12.05727,-15.97666,0.62196,0.00018,-12.43384,-1.83565,0.00017,24.49659,4.02819,4.31493,1.90823,-6.21342,-13.29504,20.59514,12.27729,-3.15032,28.57496,-10.91284,24.88465,134.37459,0.00577,-83.24541,134.51421,0.00622,83.9845,3.86896,3.20278,-0.01692,-1.25865,-1.13757,0.01108,-2.28079,-0.24994,6.91057,-24.07049,-2.80758,6.322,5.84882,-5.13886,5.72288
1960,-4.02224,0.0,0.0,-3.47603,-0.0,0.0,0.24866,-7.80744,7.91238,13.26229,7.60859,-12.06274,-16.17238,0.58829,-5e-05,-11.91966,-1.61991,-0.00026,24.56763,4.35137,4.44412,1.724,-6.11349,-13.0923,20.63209,12.11425,-3.31523,28.71049,-10.86899,25.26456,134.36018,0.00375,-84.50036,133.85825,0.01486,85.47353,3.51361,4.03734,-0.03993,-2.15613,-2.19625,0.01868,-2.02021,-0.0674,7.1167,-23.79798,-2.71457,6.58145,5.87977,-4.97609,5.88339
1961,-3.60486,0.0,0.0,-3.60202,-0.0,0.0,0.16491,-7.76958,8.05186,13.25935,7.97002,-11.74895,-16.364,0.59519,-0.00018,-11.52186,-1.46768,-0.00046,24.63837,4.63268,4.55519,1.60183,-6.04792,-13.10765,20.71979,11.99579,-3.70357,28.93972,-10.80962,25.66457,134.25113,-0.004,-85.80907,133.15169,0.01117,87.04196,1.59712,5.18293,-0.04144,-3.14365,-3.11305,0.00939,-1.89832,-0.08872,7.4464,-23.66203,-2.85666,6.88008,5.88017,-4.80751,6.03006
1962,-2.88555,0.0,0.0,-3.34749,0.0,0.0,-0.10616,-7.7057,8.2818,13.16227,8.17054,-11.13429,-16.51523,0.58802,-0.00017,-11.16762,-1.39911,-0.00062,24.72818,4.85301,4.59266,1.53338,-6.00123,-13.3683,20.72662,11.97936,-3.82023,29.15609,-10.73269,25.95108,134.44495,-0.01449,-85.75259,132.67372,0.00149,87.90498,-0.23705,5.35237,-0.00997,-3.78051,-3.21302,-0.00196,-1.86267,-0.21892,7.78142,-23.61359,-3.10176,7.14333,5.90556,-4.68812,6.14118
1963,-2.21962,0.0,-0.0,-2.77012,0.0,0.0,-0.45152,-7.63844,8.54857,13.01585,8.13143,-10.36333,-16.64023,0.5355,-0.00026,-10.81512,-1.39071,-0.00067,24.83208,5.08158,4.58838,1.47451,-5.91123,-13.77028,20.60164,12.05224,-3.48077,29.27626,-10.70439,26.05119,135.0462,-0.01818,-84.6223,132.47214,-0.00242,87.84986,-0.64686,4.22613,-0.0085,-3.89743,-2.5895,-0.00266,-1.81714,-0.3107,7.9479,-23.56214,-3.24869,7.26413,5.96091,-4.59688,6.23551
1964,-1.7965,0.0,0.0,-2.11216,-0.0,-0.0,-0.73621,-7.61485,8.74747,12.89751,8.01379,-9.60517,-16.80844,0.47384,-0.00042,-10.4375,-1.3771,-0.00035,24.97128,5.36277,4.59022,1.37836,-5.7503,-14.20845,20.39576,12.15742,-2.86915,29.28846,-10.75814,26.01419,135.79164,-0.00419,-83.89767,132.38441,-0.00247,87.1972,0.503,2.73734,-0.01521,-3.54876,-1.94113,-0.0016,-1.73678,-0.32817,7.84727,-23.48687,-3.22763,7.16404,6.03441,-4.48998,6.30829
1965,-1.7093,0.0,-0.0,-1.746,-0.0,-0.0,-0.8587,-7.56757,8.87491,12.87663,7.9606,-9.08929,-17.08895,0.40848,-9e-05,-9.99736,-1.29305,0.00039,25.16227,5.68773,4.53062,1.20045,-5.53346,-14.53384,20.21877,12.21691,-2.26223,29.23417,-10.855,25.91903,136.36018,0.00637,-84.2093,132.28653,-0.00232,86.21645,2.51673,1.8472,0.00042,-2.86367,-1.68374,-0.00318,-1.67274,-0.34878,7.54361,-23.43714,-3.13422,6.87392,6.08814,-4.3382,6.35589
1966,-1.98915,0.0,-0.0,-1.83968,0.0,-0.0,-0.79482,-7.41651,9.04408,12.96012,7.91063,-8.99164,-17.51428,0.28107,0.00085,-9.50211,-1.12074,0.00094,25.40124,6.03887,4.30369,0.94517,-5.28881,-14.56678,20.16239,12.16277,-1.85285,29.18263,-10.93829,25.78318,136.65491,0.00378,-84.65015,132.20932,-0.00191,85.29313,4.43944,1.58565,0.01209,-2.0814,-1.55122,-0.00287,-1.65238,-0.44625,7.22895,-23.4325,-3.10803,6.54507,6.0689,-4.12702,6.4102
1967,-2.41169,0.0,0.0,-2.04846,0.0,0.0,-0.66183,-7.23623,9.2641,13.05075,7.7551,-9.12881,-18.05815,0.0973,0.00124,-9.03369,-0.91256,0.00063,25.70825,6.39432,3.97951,0.71103,-5.0459,-14.38418,20.22692,12.02547,-1.67313,29.19769,-10.97851,25.64908,136.78238,-0.00096,-84.47681,132.22,-0.00229,85.04872,5.4992,1.47163,0.009,-1.5773,-1.11463,-0.00285,-1.63656,-0.59813,7.06534,-23.42664,-3.18834,6.33648,5.98678,-3.86836,6.45634
1968,-2.71193,0.0,-0.0,-2.01649,0.0,-0.0,-0.60727,-7.1817,9.43694,13.07424,7.54906,-9.1549,-18.62831,-0.04287,0.00051,-8.68204,-0.72566,1e-05,26.0806,6.70779,3.73441,0.58765,-4.8422,-14.25382,20.30833,11.94742,-1.57861,29.29965,-10.9822,25.65227,136.87277,-0.00202,-84.28027,132.28006,-0.00274,85.46761,5.50062,1.34605,0.00196,-1.65875,-0.55279,-0.00181,-1.56583,-0.69546,7.06061,-23.35815,-3.27696,6.29588,5.89934,-3.62028,6.40581
1969,-2.92707,-0.0,0.0,-1.91669,-0.0,-0.0,-0.64711,-7.26889,9.53792,13.09706,7.43726,-8.9909,-19.13231,-0.0749,-0.00029,-8.47256,-0.55741,-0.00022,26.43728,6.94196,3.64767,0.54169,-4.71337,-14.27203,20.28563,12.02173,-1.42152,29.4556,-10.98428,25.85531,136.98184,-0.00059,-85.02714,132.29945,-0.00183,85.7215,4.81923,1.40088,-0.00314,-2.31297,-0.53647,0.00773,-1.40259,-0.64121,7.11474,-23.19153,-3.24668,6.3664,5.8117,-3.45521,6.23386
1970,-3.07537,-0.0,-0.0,-1.99726,0.0,0.0,-0.73826,-7.33826,9.55573,13.19558,7.46698,-8.66121,-19.57253,-0.01486,-0.00068,-8.37378,-0.40898,-0.00015,26.73106,7.12212,3.74181,0.50399,-4.6403,-14.44346,20.14236,12.16867,-1.25063,29.60011,-11.04479,26.07399,137.10609,-0.00013,-86.73787,132.32033,4e-05,85.35084,4.03689,1.67036,0.00084,-3.15433,-1.25017,0.01348,-1.13328,-0.45644,7.13183,-22.91771,-3.08145,6.45097,5.68513,-3.37964,6.0489
1971,-2.92365,0.0,0.0,-2.19364,0.0,0.0,-0.8751,-7.27054,9.44283,13.34529,7.56064,-8.08226,-20.04028,0.09562,-0.00084,-8.34483,-0.33138,-2e-05,27.04292,7.32535,4.01303,0.49085,-4.53234,-14.83014,20.00188,12.25799,-1.26062,29.67207,-11.21858,26.02596,137.16867,0.00121,-88.17932,132.50928,0.00042,84.85047,3.56185,1.97791,0.01265,-3.69498,-2.03136,0.00692,-0.77802,-0.28491,7.06384,-22.56198,-2.89694,6.4515,5.51878,-3.31143,5.96842
1972,-2.53249,-0.0,0.0,-2.58373,0.0,0.0,-1.00891,-7.15111,9.2991,13.51759,7.6378,-7.41811,-20.60369,0.19839,-0.00052,-8.34291,-0.32931,7e-05,27.45707,7.61685,4.29423,0.53226,-4.30256,-15.26336,20.02042,12.28116,-1.58365,29.65538,-11.46649,25.67887,137.00044,0.0133,-87.88731,132.91461,-0.00279,84.91051,3.27303,2.46201,0.01269,-3.79684,-2.21466,0.00102,-0.41466,-0.26284,6.92811,-22.20387,-2.82607,6.33351,5.33821,-3.15439,5.98661
1973,-2.40279,0.0,-0.0,-3.42476,0.0,-0.0,-1.0759,-7.14765,9.3237,13.7128,7.70759,-7.12182,-21.23517,0.23264,0.0002,-8.33044,-0.3137,7e-05,27.94133,7.99756,4.36339,0.58794,-3.95774,-15.36047,20.22972,12.30974,-2.18805,29.58765,-11.65008,25.32123,136.47069,0.02564,-85.98381,133.38048,-0.00358,85.51842,2.51433,3.71027,-0.02288,-3.71718,-1.88019,-0.00025,-0.14864,-0.3773,6.81335,-21.94465,-2.88974,6.18427,5.15121,-2.88604,6.00531
1974,-2.81764,0.0,-0.0,-4.49738,0.0,0.0,-1.14255,-7.29433,9.51496,13.86739,7.80972,-7.30699,-21.85496,0.19243,0.00058,-8.31708,-0.21497,-1e-05,28.42557,8.40475,4.24087,0.63097,-3.60358,-15.06558,20.51298,12.35616,-2.92723,29.52519,-11.69307,25.22169,135.65759,0.01186,-84.3704,133.74579,-0.0004,85.99323,0.83409,5.94907,-0.06858,-3.67991,-1.53167,-0.00039,-0.03937,-0.48588,6.79542,-21.83817,-2.9839,6.12723,4.96921,-2.56966,5.97733
1975,-3.59727,0.0,-0.0,-5.18137,0.0,-0.0,-1.33324,-7.50721,9.68699,13.89312,7.93566,-7.58553,-22.41315,0.12064,0.00048,-8.33779,-0.08014,-0.0001,28.8909,8.78361,4.11442,0.69496,-3.31981,-14.73247,20.74613,12.36337,-3.61244,29.50497,-11.66444,25.36966,134.81056,-0.01219,-84.61662,133.9747,0.00035,85.84126,-1.2865,8.35872,-0.05657,-3.6977,-1.45102,-0.00129,-0.07706,-0.48673,6.83925,-21.87412,-3.00097,6.16767,4.80636,-2.26426,5.94455
1976,-4.35952,0.0,0.0,-5.21114,-0.0,0.0,-1.68067,-7.73436,9.71406,13.79788,8.04523,-7.63776,-22.92393,0.05017,0.00026,-8.3753,-0.00984,-8e-05,29.35359,9.1582,4.05294,0.78539,-3.04778,-14.61803,20.89736,12.29243,-4.04585,29.52705,-11.63477,25.61022,134.17719,-0.01469,-86.72758,134.09532,-0.00261,85.09721,-2.78676,9.65303,-0.00886,-3.67934,-1.60245,-0.00376,-0.19047,-0.42161,6.8713,-21.98498,-2.9524,6.22168,4.6483,-1.94455,5.91423
1977,-4.64241,0.0,-0.0,-4.76285,0.0,0.0,-2.18714,-7.94465,9.51595,13.6382,8.0732,-7.50488,-23.43314,0.00859,-0.00023,-8.36924,-0.02524,-5e-05,29.83639,9.58742,4.04519,0.85617,-2.68233,-14.66961,20.98317,12.16073,-4.10279,29.55222,-11.57331,25.8035,133.88121,0.00095,-90.0031,134.19223,-0.00453,83.97137,-3.11298,9.29112,0.00383,-3.44815,-1.77862,-0.00495,-0.26153,-0.39352,6.91328,-22.05379,-2.9419,6.27115,4.47946,-1.56,5.81666
1978,-4.26858,0.0,-0.0,-4.12097,0.0,-0.0,-2.86884,-8.07613,9.04722,13.4303,7.95161,-7.35847,-23.94855,0.02596,-0.00081,-8.30108,-0.05042,-4e-05,30.32768,10.05095,4.11474,0.87249,-2.24106,-14.75549,21.01739,12.01209,-3.8734,29.52298,-11.45752,25.7714,133.85431,0.01157,-93.47967,134.45084,-0.00191,82.7552,-2.67076,7.96876,-0.00467,-2.84808,-1.62035,0.00139,-0.20733,-0.44186,7.00938,-21.99658,-3.02247,6.34253,4.30914,-1.14551,5.64171
1979,-3.8088,-0.0,-0.0,-3.74265,0.0,0.0,-3.6348,-8.15118,8.54478,13.22778,7.7154,-7.31698,-24.40949,0.06387,-0.00064,-8.22071,-0.02256,-2e-05,30.7426,10.43842,4.18726,0.83586,-1.86623,-14.80277,21.00949,11.8856,-3.62936,29.39898,-11.35463,25.36028,133.8838,0.00957,-95.79427,135.01787,0.00387,81.64168,-2.2158,6.93066,-0.00393,-1.9279,-0.8302,0.01208,-0.05553,-0.53486,7.09054,-21.84327,-3.13894,6.38343,4.14586,-0.82189,5.50492
1980,-3.95148,-0.0,-0.0,-3.96992,-0.0,-0.0,-4.34659,-8.30782,8.38247,13.11031,7.52239,-7.38717,-24.7598,0.03039,0.0001,-8.18243,0.0256,-2e-05,31.01158,10.67337,4.12047,0.78399,-1.66487,-14.80671,20.95489,11.80865,-3.54838,29.18094,-11.32515,24.70132,133.83899,0.00624,-96.28136,135.77486,0.00748,80.53202,-2.13368,6.74881,-0.00085,-0.96317,0.39744,0.01211,0.09274,-0.6367,7.07657,-21.69768,-3.22833,6.33258,3.99811,-0.67435,5.50024
1981,-4.50511,-0.0,0.0,-4.52201,0.0,0.0,-5.00615,-8.62372,8.56592,13.05294,7.51979,-7.47859,-25.04649,-0.0953,0.00059,-8.18918,0.01844,2e-05,31.19715,10.80759,3.93967,0.7712,-1.59733,-14.82208,20.83914,11.80818,-3.54177,28.9193,-11.34726,24.18273,133.82588,0.00662,-95.89159,136.39519,0.00389,79.4611,-2.27743,6.89848,0.00098,-0.31968,1.36754,0.00178,0.15908,-0.73407,7.03323,-21.63519,-3.30264,6.25607,3.88087,-0.64899,5.57008
1982,-4.79654,0.0,0.0,-4.9419,0.0,-0.0,-5.68328,-9.01943,8.73916,12.99175,7.69416,-7.54816,-25.39422,-0.22957,0.00029,-8.20691,-0.03951,7e-05,31.44984,10.95794,3.81286,0.82409,-1.54014,-14.85783,20.67483,11.91162,-3.41577,28.70165,-11.38109,24.03649,134.01161,0.00922,-95.8689,136.67326,-0.00142,78.79099,-2.24541,6.63975,0.00085,-0.24841,1.50526,-0.00123,0.17354,-0.81944,7.07423,-21.6209,-3.39714,6.26245,3.78552,-0.60094,5.58798
1983,-4.69667,-0.0,-0.0,-5.19657,-0.0,-0.0,-6.35928,-9.32391,8.60659,12.92522,7.86065,-7.58476,-25.87606,-0.27167,-0.00075,-8.20223,-0.06665,8e-05,31.8835,11.18385,3.84732,0.94819,-1.41348,-14.88143,20.49533,12.11095,-3.09333,28.60514,-11.42763,24.14927,134.37108,0.00694,-96.01289,136.66042,-0.00208,78.77932,-1.74347,5.92488,-0.00214,-0.73382,0.89321,0.00416,0.27419,-0.88241,7.18799,-21.51699,-3.49783,6.34484,3.70215,-0.43945,5.50215
1984,-4.73715,0.0,0.0,-5.46987,-0.0,0.0,-6.94573,-9.43833,8.19265,12.86032,7.8782,-7.49314,-26.44373,-0.22877,-0.00107,-8.1693,-0.04904,4e-05,32.48251,11.46519,3.98863,1.14739,-1.22812,-14.92807,20.30416,12.32933,-2.63079,28.63923,-11.49512,24.31521,134.74988,2e-05,-95.35434,136.4951,-0.00065,79.31403,-0.74427,5.11793,-0.00477,-1.49085,0.10303,0.00478,0.55686,-0.91847,7.28991,-21.23091,-3.56915,6.42623,3.65414,-0.20655,5.36612
1985,-5.43875,0.0,-0.0,-5.82174,0.0,0.0,-7.37584,-9.4763,7.75881,12.79261,7.80657,-7.2113,-26.98369,-0.22385,-0.00012,-8.13373,-0.07188,-6e-05,33.09219,11.75473,4.07805,1.38129,-1.0452,-15.05531,20.09254,12.4578,-2.16548,28.73071,-11.56768,24.43209,135.07475,-0.00339,-93.84351,136.30437,-0.00171,80.08722,0.51807,4.33102,-0.00528,-2.12019,-0.34588,0.00052,0.93383,-0.93693,7.37433,-20.85081,-3.61762,6.49791,3.64059,-0.01503,5.26398
1986,-6.70474,-0.0,-0.0,-6.18945,0.0,-0.0,-7.6924,-9.6183,7.45333,12.73482,7.74024,-6.83837,-27.41937,-0.32272,0.00058,-8.10944,-0.16414,-9e-05,33.55656,12.00641,4.04077,1.55895,-0.91826,-15.23946,19.91817,12.45129,-1.88657,28.80207,-11.62315,24.45645,135.34566,-0.0018,-92.22775,136.19228,-0.0043,80.96842,1.59276,3.56517,0.00042,-2.35929,-0.24375,-0.0003,1.20309,-0.94833,7.49984,-20.57646,-3.67477,6.61043,3.60758,0.07114,5.22713
1987,-7.8176,-0.0,0.0,-6.36615,0.0,0.0,-8.07718,-9.81601,7.11567,12.64928,7.64054,-6.5097,-27.75006,-0.44346,0.00025,-8.04603,-0.22139,0.00015,33.85618,12.19559,3.9835,1.61319,-0.86272,-15.39132,19.89899,12.36654,-1.92436,28.884,-11.64615,24.40969,135.54744,0.00112,-91.04553,136.08582,-0.0026,82.04893,1.96733,3.10563,0.00599,-2.23566,0.28955,0.00198,1.24643,-0.95292,7.6574,-20.52636,-3.73747,6.75533,3.52027,0.08221,5.23946
1988,-8.15339,-0.0,0.0,-6.09015,0.0,-0.0,-8.66526,-9.85251,6.56146,12.43762,7.45151,-6.28168,-28.01436,-0.49096,-0.00033,-7.87018,-0.14347,0.00067,34.07365,12.3389,4.02613,1.55123,-0.85019,-15.44358,20.08351,12.28476,-2.21229,29.06135,-11.63945,24.39396,135.70715,0.00151,-90.28959,135.75256,0.00405,83.2988,1.39252,3.33737,-0.00367,-1.96514,0.83161,0.00195,1.13299,-0.94057,7.74614,-20.63558,-3.75892,6.8425,3.40217,0.09546,5.27971
1989,-8.03891,0.0,0.0,-5.57462,-0.0,-0.0,-9.27824,-9.70685,5.97144,12.12523,7.26737,-6.2161,-28.25111,-0.49564,-0.00034,-7.60059,0.02833,0.00077,34.27007,12.46576,4.08047,1.42727,-0.83318,-15.3864,20.35817,12.2363,-2.50556,29.289,-11.65078,24.43645,135.91377,-0.0008,-89.54749,135.16298,0.00667,84.44181,0.14717,4.36665,-0.01945,-1.71637,0.9433,-0.00023,1.04921,-0.87374,7.70642,-20.71951,-3.68212,6.83037,3.28479,0.15863,5.31157
1990,-8.46422,0.0,-0.0,-5.52319,-0.0,-0.0,-9.56397,-9.58449,5.73155,11.89778,7.2523,-6.36969,-28.48347,-0.56433,0.00017,-7.35247,0.175,0.00023,34.42587,12.59434,3.94452,1.28153,-0.78143,-15.24775,20.54672,12.22528,-2.58032,29.4204,-11.73635,24.43899,136.20033,-0.00235,-88.537,134.57785,0.00205,85.07186,-1.10817,5.87424,-0.01731,-1.51933,0.53416,-0.00163,1.12556,-0.70648,7.62359,-20.64296,-3.49607,6.81546,3.15838,0.25845,5.29203
1991,-9.77283,-0.0,0.0,-6.24701,0.0,0.0,-9.42893,-9.57398,5.92142,11.85916,7.38386,-6.62401,-28.70716,-0.72659,0.00048,-7.20999,0.25276,-0.00017,34.4938,12.75061,3.62358,1.13061,-0.6958,-15.08745,20.59607,12.27808,-2.4217,29.42627,-11.85942,24.37239,136.52615,-0.00165,-87.45534,134.18372,-0.00211,84.96928,-1.83693,7.20801,-0.00156,-1.38182,-0.13521,-0.00099,1.31009,-0.4673,7.61683,-20.45348,-3.27144,6.89802,3.00151,0.36044,5.23386
1992,-11.23272,0.0,-0.0,-7.21573,-0.0,0.0,-9.11687,-9.59325,6.22614,11.91022,7.39814,-6.72745,-28.89453,-0.88263,0.00025,-7.15885,0.31531,-0.00018,34.47943,12.94289,3.38581,1.00435,-0.61369,-14.9829,20.60743,12.41035,-2.20698,29.41134,-11.90435,24.32258,136.89726,-0.00196,-86.60082,133.93549,-0.00144,84.44573,-2.02298,7.74493,0.00648,-1.35644,-0.70336,0.00054,1.44527,-0.26606,7.64793,-20.31275,-3.09607,7.00166,2.84034,0.44463,5.20585
1993,-12.08954,0.0,0.0,-7.69112,0.0,-0.0,-8.86452,-9.6651,6.35053,11.90747,7.08241,-6.58141,-29.02841,-0.92022,-0.0001,-7.14035,0.41019,-6e-05,34.44765,13.12388,3.42805,0.94624,-0.58364,-14.96153,20.7032,12.55968,-2.11762,29.43506,-11.83145,24.30389,137.37218,-0.00394,-86.0136,133.77342,0.00234,83.87656,-2.03732,7.29296,0.00636,-1.43182,-0.8735,0.00108,1.46118,-0.18475,7.5622,-20.29913,-2.98878,6.95212,2.74012,0.50685,5.24435
1994,-12.45212,0.0,-0.0,-7.55877,0.0,-0.0,-8.65328,-9.92778,6.34599,11.84429,6.56351,-6.37179,-29.126,-0.86445,-0.00013,-7.12182,0.52007,2e-05,34.44706,13.24217,3.59241,0.95949,-0.61139,-14.95035,20.9053,12.62108,-2.19862,29.46798,-11.72138,24.23658,137.92352,-0.00293,-85.7681,133.72928,0.00624,83.13143,-2.14503,6.21753,0.00499,-1.51479,-0.54805,0.00098,1.41635,-0.21158,7.3132,-20.35555,-2.92136,6.7106,2.72097,0.55456,5.31246
1995,-12.66631,0.0,-0.0,-7.26472,0.0,0.0,-8.37013,-10.32214,6.45244,11.82507,6.21022,-6.32851,-29.20746,-0.85054,8e-05,-7.1176,0.60454,1e-05,34.44253,13.28141,3.56115,0.98434,-0.68013,-14.87393,21.12316,12.56588,-2.39342,29.49673,-11.64246,24.10619,138.41866,0.0013,-86.20299,133.7905,0.0071,82.32444,-2.29,5.17392,0.00212,-1.5724,0.01395,0.00073,1.38768,-0.27645,7.02066,-20.39794,-2.87305,6.4145,2.71949,0.57445,5.36336
1996,-12.3606,-0.0,0.0,-7.06876,0.0,-0.0,-8.05794,-10.51197,6.7228,11.90678,6.26027,-6.4367,-29.26127,-0.92616,0.0002,-7.16155,0.648,-1e-05,34.38079,13.22572,3.28485,0.9749,-0.80137,-14.79379,21.23377,12.47944,-2.62584,29.5429,-11.5901,23.97669,138.77513,0.00289,-87.34641,133.85956,0.00481,82.20582,-2.31496,4.5823,-0.0004,-1.61738,0.358,0.00034,1.40739,-0.31646,6.81597,-20.38738,-2.83423,6.20933,2.69082,0.52963,5.38678
1997,-10.92114,0.0,0.0,-6.817,0.0,-0.0,-7.8554,-10.29116,6.97001,12.02223,6.60768,-6.50374,-29.28582,-0.98045,0.00012,-7.24924,0.65406,1e-05,34.30141,13.07952,2.99906,0.9565,-0.95963,-14.82864,21.18112,12.47484,-2.79707,29.58921,-11.5637,23.89055,139.02336,0.00098,-88.59355,133.91055,0.0022,82.87836,-2.20963,4.39017,-0.00097,-1.59663,0.29625,-0.00023,1.46019,-0.34583,6.74196,-20.33809,-2.83401,6.12961,2.68372,0.45019,5.372
1998,-8.58027,0.0,0.0,-6.36489,-0.0,0.0,-7.79292,-9.90491,7.03924,12.04594,6.93485,-6.42868,-29.33492,-0.90741,-0.00016,-7.31634,0.63184,2e-05,34.28654,12.91919,2.86012,0.95687,-1.06463,-14.96243,21.02634,12.58936,-2.81287,29.58957,-11.57647,23.86514,139.20537,-0.00145,-89.4426,134.04178,0.00056,83.52029,-2.1077,4.35299,-0.00067,-1.49435,0.05294,-0.00038,1.49027,-0.45629,6.7689,-20.30902,-2.94659,6.11358,2.73707,0.45229,5.29223
1999,-6.39436,-0.0,-0.0,-5.81203,0.0,-0.0,-7.78808,-9.73225,6.93438,11.91822,7.0315,-6.28263,-29.45421,-0.73483,-0.0004,-7.30875,0.5988,-0.0,34.33709,12.84851,2.81291,0.96339,-1.04219,-15.05322,20.88906,12.77004,-2.7151,29.56676,-11.59935,23.91201,139.32832,-0.00323,-89.89281,134.3174,0.00026,83.69352,-2.14163,4.29118,3e-05,-1.42773,-0.06757,4e-05,1.45147,-0.6851,6.80635,-20.35087,-3.17293,6.06331,2.80217,0.60448,5.15623
2000,-5.42404,0.0,-0.0,-5.44273,0.0,-0.0,-7.72617,-9.80698,6.73226,11.72514,6.98978,-6.19863,-29.60025,-0.56889,-0.0003,-7.25407,0.56912,0.0,34.38726,12.91416,2.77229,0.98687,-0.914,-14.98138,20.81084,12.95149,-2.70711,29.6306,-11.58403,24.01192,139.39586,-0.00414,-89.86794,134.65213,0.00037,83.60403,-2.33597,4.06893,0.00118,-1.48819,0.03869,0.00014,1.35116,-0.9206,6.7419,-20.45869,-3.36765,5.91575,2.84091,0.85796,5.02857
2001,-6.08315,-0.0,-0.0,-5.59479,-0.0,0.0,-7.46834,-9.91334,6.56113,11.6316,7.04717,-6.27729,-29.67703,-0.48453,-7e-05,-7.21563,0.54359,2e-05,34.39167,13.07946,2.72801,1.06941,-0.75669,-14.71969,20.71913,13.11135,-2.94567,29.85963,-11.50248,24.14266,139.37523,-0.00108,-89.08463,134.89735,0.00058,83.47928,-2.53237,3.67564,0.00205,-1.61625,0.32212,-5e-05,1.23499,-1.00378,6.56845,-20.58326,-3.38043,5.7235,2.89705,1.12232,4.96326
2002,-7.70223,0.0,0.0,-6.23996,0.0,-0.0,-6.97893,-9.96728,6.54793,11.66814,7.28388,-6.49512,-29.62585,-0.46139,0.00011,-7.20227,0.52203,2e-05,34.34071,13.25443,2.72683,1.21114,-0.63482,-14.36549,20.56901,13.24399,-3.36948,30.17397,-11.3371,24.31188,139.14409,0.0077,-87.6741,135.01363,0.00071,83.47254,-2.47847,3.41885,0.00412,-1.70421,0.70458,-0.00026,1.17188,-0.8858,6.44388,-20.64846,-3.22461,5.6516,3.02326,1.33084,4.93812
2003,-8.81126,0.0,-0.0,-6.76021,0.0,-0.0,-6.47783,-10.02877,6.66661,11.66129,7.58291,-6.67381,-29.45789,-0.42032,0.00032,-7.17809,0.50783,-1e-05,34.22613,13.37761,2.83091,1.35505,-0.56466,-14.09646,20.46642,13.33492,-3.8282,30.36606,-11.09702,24.50619,138.55275,0.01268,-86.32642,135.1243,-1e-05,83.67189,-2.18501,3.7639,0.00618,-1.71276,1.17385,-0.00021,1.22655,-0.65786,6.51827,-20.58638,-3.04064,5.8056,3.20428,1.45567,4.90068
2004,-8.42151,-0.0,0.0,-6.6264,-0.0,0.0,-6.25874,-10.06487,6.77926,11.48192,7.81924,-6.65839,-29.22833,-0.34462,0.00031,-7.14116,0.50205,-5e-05,34.05534,13.47498,3.02193,1.46979,-0.51362,-13.98597,20.56574,13.39046,-4.29068,30.30795,-10.83519,24.66399,137.58485,0.00208,-85.8065,135.37056,-0.00162,84.01817,-2.07512,4.82066,-0.00085,-1.64291,1.84765,0.0008,1.38094,-0.46365,6.72441,-20.42025,-2.9369,6.06948,3.40174,1.51921,4.86294
2005,-6.92807,-0.0,-0.0,-6.13026,0.0,0.0,-6.36261,-9.9595,6.82913,11.25955,7.95422,-6.48555,-28.99126,-0.30354,-5e-05,-7.14427,0.50374,-9e-05,33.89833,13.601,3.17051,1.62218,-0.44927,-13.93868,20.85169,13.4556,-4.7817,30.10119,-10.60121,24.73443,136.44893,-0.0152,-86.54094,135.73195,-0.00201,84.33782,-2.51329,6.10824,-0.00952,-1.48455,2.73665,0.00204,1.51009,-0.39262,6.85519,-20.28452,-2.91951,6.21748,3.63956,1.57043,4.88561
2006,-5.52753,0.0,-0.0,-5.92845,-0.0,-0.0,-6.59163,-9.75613,6.8427,11.20886,8.01066,-6.30358,-28.75765,-0.33816,-0.00034,-7.23539,0.49402,0.0,33.80362,13.75432,3.16517,1.87764,-0.37082,-13.84807,21.13025,13.56657,-5.20095,29.93962,-10.41952,24.70951,135.47855,-0.01726,-88.36029,136.06247,-0.00034,84.32509,-3.26785,6.90463,-0.00557,-1.24772,3.47287,0.00111,1.50158,-0.4276,6.81404,-20.29535,-2.9367,6.16621,3.93463,1.63524,4.9811
2007,-4.87743,-0.0,0.0,-5.94612,0.0,-0.0,-6.82301,-9.60501,6.75131,11.30138,8.03402,-6.16784,-28.47853,-0.39099,-0.00014,-7.39203,0.43127,0.00019,33.68459,13.87358,3.05529,2.15953,-0.29329,-13.7536,21.26325,13.70824,-5.37873,29.88618,-10.31734,24.61592,134.91251,-0.00399,-90.33644,136.28188,0.00073,83.85117,-3.68911,6.82409,-0.00139,-1.00149,3.66762,-0.00114,1.39573,-0.47087,6.67637,-20.40749,-2.92576,6.02214,4.1963,1.70067,5.07862
2008,-4.62577,0.0,-0.0,-5.44501,0.0,-0.0,-7.10521,-9.47446,6.42876,11.29717,8.0595,-6.01404,-28.08868,-0.38066,0.00045,-7.52642,0.30729,0.00019,33.42411,13.88356,2.98261,2.3305,-0.24441,-13.798,21.30174,13.8452,-5.27747,29.91341,-10.30379,24.52683,134.75557,0.00425,-91.2841,136.40744,-0.00025,83.24717,-3.39253,6.13846,-0.00449,-0.85107,3.45324,-0.00171,1.34797,-0.42893,6.54626,-20.45952,-2.83849,5.91679,4.33224,1.73959,5.07792
2009,-4.22287,-0.0,0.0,-4.2813,-0.0,0.0,-7.41009,-9.26921,5.97217,11.09838,8.10577,-5.8312,-27.58971,-0.31117,0.00059,-7.57731,0.17686,3e-05,33.03148,13.77923,2.98133,2.36633,-0.24136,-14.00617,21.35192,13.95231,-5.0586,30.05145,-10.33262,24.51426,134.8347,0.00312,-91.01929,136.42255,-0.00264,82.71946,-2.61483,5.47571,-0.00334,-0.84465,3.29317,-0.00103,1.44858,-0.30349,6.45749,-20.36008,-2.68905,5.88092,4.37427,1.75743,4.9568
2010,-3.73234,0.0,-0.0,-3.2666,0.0,-0.0,-7.51069,-9.1459,5.71688,10.8749,8.15711,-5.6824,-27.07032,-0.25288,-2e-05,-7.58351,0.09783,-3e-05,32.60688,13.67107,2.97192,2.36273,-0.24762,-14.20201,21.41632,13.99271,-4.96297,30.32199,-10.32127,24.5607,134.95242,0.00142,-90.61942,136.25749,-0.00441,82.13593,-1.87757,5.19553,0.00082,-0.86089,3.40421,-0.00011,1.63319,-0.18859,6.41421,-20.17517,-2.56629,5.88343,4.42146,1.80851,4.82181
2011,-3.61857,0.0,-0.0,-3.0984,-0.0,0.0,-7.2001,-9.34614,5.88589,10.82019,8.16922,-5.57194,-26.62394,-0.22956,-0.00062,-7.61905,0.0858,-5e-05,32.21512,13.66756,2.90803,2.39281,-0.20935,-14.21455,21.43632,13.94398,-5.11692,30.62353,-10.20501,24.60972,134.9776,0.00019,-90.96374,135.90892,-0.00159,81.75364,-1.42241,5.20112,0.00112,-0.72218,3.62147,0.00057,1.76489,-0.14341,6.44812,-20.04141,-2.53694,5.93175,4.52753,1.93558,4.78133
2012,-4.01749,0.0,-0.0,-3.6044,0.0,-0.0,-6.5238,-9.81025,6.37291,10.93695,8.13547,-5.4588,-26.26252,-0.18247,-0.00063,-7.68367,0.1259,-6e-05,31.84864,13.74566,2.83834,2.42915,-0.12563,-14.06045,21.41029,13.8514,-5.45145,30.80745,-9.99605,24.69385,134.86452,-0.00142,-91.85768,135.49333,0.00369,82.12099,-1.16386,5.18344,-0.0008,-0.53098,3.63054,0.00103,1.75511,-0.11455,6.58033,-20.04555,-2.55926,6.06535,4.68038,2.11146,4.81465
2013,-4.5404,-0.0,-0.0,-4.14487,0.0,0.0,-5.77059,-10.22414,6.89171,11.09148,8.07806,-5.34301,-25.91549,-0.05155,-7e-05,-7.72563,0.18575,-2e-05,31.4705,13.80469,2.87234,2.4245,-0.05037,-13.87316,21.37169,13.78076,-5.78573,30.80885,-9.78678,24.90056,134.67136,-0.00183,-92.77393,135.16393,0.00418,83.22133,-1.06942,4.87938,0.00016,-0.64988,3.2489,0.00375,1.61573,-0.02077,6.75906,-20.1762,-2.53854,6.26632,4.84998,2.26609,4.84825
2014,-4.65117,-0.0,0.0,-4.23678,0.0,-0.0,-5.26905,-10.36531,7.20683,11.16159,7.96822,-5.2247,-25.493,0.16366,0.00091,-7.73173,0.22507,1e-05,31.04761,13.77388,3.10072,2.38228,-0.04406,-13.77486,21.31563,13.75054,-5.9671,30.68135,-9.66707,25.21501,134.52531,-0.00087,-93.43407,134.995,0.00072,84.45394,-1.25141,4.2527,0.00544,-1.2414,2.6278,0.00541,1.44571,0.14793,6.88614,-20.33825,-2.42907,6.44712,5.01141,2.3452,4.85534
2015,-4.15468,0.0,-0.0,-3.85335,-0.0,0.0,-5.13134,-10.25869,7.25285,11.1432,7.74738,-5.09965,-24.95208,0.41478,0.00163,-7.73079,0.22281,1e-05,30.57053,13.62987,3.47952,2.31367,-0.12717,-13.80839,21.24606,13.75131,-6.00818,30.55866,-9.65532,25.49482,134.47116,0.00015,-93.64993,134.92482,-0.00145,85.29904,-1.74988,3.60311,0.00776,-2.05971,2.09993,0.00163,1.36865,0.32935,6.88663,-20.41253,-2.26077,6.51495,5.13971,2.335,4.81147
2016,-3.44885,0.0,-0.0,-3.43805,0.0,-0.0,-5.16137,-10.05519,7.19264,11.16871,7.44239,-5.08527,-24.31442,0.60955,0.00106,-7.73004,0.20879,5e-05,30.04701,13.38841,3.79616,2.1803,-0.27236,-13.87677,21.21839,13.77762,-6.09589,30.55936,-9.71803,25.61165,134.39087,0.00074,-93.45967,134.81216,-0.00139,85.6771,-2.48314,3.45088,0.00031,-2.68396,1.85355,-0.00257,1.44315,0.44441,6.73344,-20.34285,-2.09708,6.41533,5.20796,2.26001,4.67841
2017,-3.1306,0.0,0.0,-3.4001,0.0,0.0,-5.06779,-9.83791,7.31031,11.33526,7.18302,-5.31409,-23.62837,0.64846,-0.0006,-7.6954,0.24185,0.00017,29.47934,13.10968,3.86169,1.94205,-0.44394,-13.84712,21.25657,13.81726,-6.37963,30.68086,-9.82508,25.54823,134.1772,0.00069,-93.2422,134.60138,-0.00036,85.79775,-3.35696,4.02954,-0.00946,-2.81366,1.93818,-0.00109,1.62144,0.48048,6.46141,-20.17524,-1.96261,6.17599,5.21149,2.1623,4.48819
2018,-3.3511,0.0,-0.0,-3.62655,0.0,-0.0,-4.73873,-9.57786,7.73019,11.55807,7.06047,-5.63439,-22.93335,0.51596,-0.00176,-7.61544,0.32728,0.00023,28.90638,12.88033,3.7312,1.68183,-0.62277,-13.75168,21.29695,13.83724,-6.76254,30.80317,-9.97,25.3679,133.94759,-0.00015,-93.1164,134.39305,0.00039,85.82405,-4.1555,4.86908,-0.00883,-2.42164,2.37963,0.0045,1.7889,0.52143,6.19181,-20.0179,-1.82446,5.94075,5.22356,2.07433,4.35216
2019,-3.66573,0.0,-0.0,-3.67107,0.0,0.0,-4.30749,-9.23681,8.244,11.67022,7.03679,-5.69998,-22.26671,0.31187,-0.0013,-7.53403,0.3939,0.00013,28.42817,12.76153,3.64352,1.56872,-0.78273,-13.74543,21.25762,13.7986,-6.97378,30.81372,-10.14134,25.17442,133.96484,-0.00438,-92.65701,134.285,-2e-05,85.63973,-4.39683,5.19368,-0.0057,-1.74736,2.99149,0.00561,1.8416,0.63332,6.08365,-19.96809,-1.6804,5.88189,5.36063,2.01697,4.33424
2020,-3.58403,-0.0,-0.0,-3.33392,0.0,0.0,-3.96602,-8.84755,8.5442,11.60853,7.05328,-5.44149,-21.6776,0.15716,-6e-05,-7.47551,0.39566,3e-05,28.09542,12.73349,3.72328,1.62369,-0.8957,-13.85505,21.13828,13.69926,-6.85949,30.70518,-10.29747,25.08928,134.33311,-0.00999,-91.61718,134.23383,-0.00146,84.98949,-3.73815,4.77255,-0.01039,-1.16618,3.34433,0.001,1.75575,0.75256,6.19668,-20.04829,-1.61169,6.03117,5.62847,2.00047,4.37249
2021,-3.28223,0.0,0.0,-2.98228,0.0,0.0,-3.70246,-8.50165,8.63327,11.48452,7.14024,-5.18892,-21.21479,0.07758,0.00048,-7.40372,0.38054,5e-05,27.83323,12.71048,3.83157,1.66683,-0.97239,-13.90886,21.03105,13.60061,-6.53562,30.55832,-10.38432,25.18071,134.89549,-0.00635,-90.55135,134.13756,-0.00181,84.08498,-2.47689,4.0251,-0.01072,-1.00613,3.22902,-0.00079,1.60128,0.76375,6.41603,-20.19388,-1.68274,6.23907,5.89291,2.00533,4.37918
2022,-3.30852,0.0,-0.0,-3.01835,-0.0,0.0,-3.36608,-8.24475,8.71552,11.44185,7.30179,-5.18312,-20.89493,0.03948,0.00036,-7.28795,0.401,0.0001,27.56137,12.62349,3.83138,1.56762,-1.0485,-13.82409,21.01609,13.58566,-6.22065,30.47158,-10.36254,25.40201,135.4588,0.00316,-90.23869,133.95338,0.00128,83.75621,-1.25595,3.28633,-0.00548,-1.37138,2.87751,0.0009,1.49197,0.66862,6.58197,-20.29747,-1.83267,6.35787,6.05954,1.98732,4.33887
2023,-3.82995,-0.0,-0.0,-3.33664,0.0,-0.0,-2.92746,-8.04111,8.84031,11.51081,7.41653,-5.30561,-20.6795,0.04058,0.00019,-7.1483,0.4386,6e-05,27.30996,12.44956,3.78612,1.39349,-1.15343,-13.76469,21.0799,13.66565,-6.04025,30.47924,-10.23992,25.62091,135.91969,0.00596,-90.53827,133.71323,0.00399,84.35568,-0.49073,2.62918,-0.00187,-2.03004,2.60724,0.00116,1.51616,0.60676,6.67109,-20.27033,-1.92319,6.41769,6.17912,1.90831,4.25877
2024,-4.81386,0.0,-0.0,-3.81313,-0.0,0.0,-2.45073,-7.90595,8.98081,11.68536,7.3975,-5.42058,-20.50798,0.07594,9e-05,-7.03191,0.46543,-1e-05,27.16263,12.18573,3.74878,1.28267,-1.31275,-13.85346,21.17828,13.73353,-6.05338,30.49146,-10.11042,25.72343,136.14821,0.00387,-90.57249,133.50826,0.00251,85.11314,-0.34287,2.36382,-0.00347,-2.57557,2.53544,0.00041,1.6672,0.68799,6.74153,-20.11533,-1.8739,6.51329,6.35015,1.76127,4.1402
2025,-6.22655,0.0,-0.0,-4.61057,-0.0,0.0,-1.98114,-7.92169,9.1493,11.95689,7.31334,-5.57643,-20.35918,0.10467,0.0,-6.97904,0.48635,-4e-05,27.15027,11.87195,3.68485,1.30098,-1.52467,-13.97222,21.32308,13.66756,-6.27376,30.37924,-10.10831,25.70807,136.03253,0.00306,-90.10419,133.42709,0.00054,85.28935,-0.79444,2.79546,-0.00895,-2.84839,2.58224,0.00044,1.83703,0.86849,6.7649,-19.9424,-1.71496,6.60201,6.60262,1.58095,4.02771
2026,-7.52449,0.0,0.0,-5.52217,-0.0,0.0,-1.62644,-8.06009,9.29227,12.1906,7.27969,-5.83983,-20.24542,0.0827,-6e-05,-6.99016,0.50241,-3e-05,27.19277,11.60548,3.62555,1.39931,-1.73692,-13.92778,21.54393,13.49232,-6.58212,30.15591,-10.26467,25.64195,135.68274,0.00025,-89.83415,133.46286,-0.0001,85.09729,-1.52191,3.56261,-0.00665,-2.99727,2.56542,0.00062,1.92713,1.02808,6.66819,-19.85477,-1.53089,6.57143,6.86328,1.41218,3.97917
2027,-7.79044,0.0,0.0,-5.81886,0.0,-0.0,-1.54451,-8.14711,9.33555,12.20073,7.29924,-6.17962,-20.16707,-0.02125,-7e-05,-7.02196,0.50502,-2e-05,27.15397,11.45683,3.6323,1.46123,-1.90597,-13.67432,21.82094,13.35407,-6.78483,29.97917,-10.44552,25.52531,135.37775,-0.00145,-90.35408,133.53043,-0.00063,85.04227,-2.03213,3.92295,0.0006,-3.05697,2.39991,-5e-05,1.93307,1.09018,6.47953,-19.85621,-1.40321,6.41926,7.01913,1.26072,3.99047
2028,-6.76884,0.0,-0.0,-5.18498,-0.0,0.0,-1.74023,-8.08508,9.28483,12.01327,7.24922,-6.45258,-20.10923,-0.18206,-1e-05,-7.04266,0.50896,-7e-05,26.99443,11.38243,3.72107,1.43,-2.06446,-13.37993,22.11902,13.34525,-6.79002,29.94456,-10.48754,25.29961,135.28955,0.00104,-91.50833,133.58008,-0.00099,85.20985,-1.9636,3.61745,0.00031,-2.84701,2.21817,-0.00066,1.89521,1.0435,6.31121,-19.90143,-1.38408,6.24562,7.0464,1.09281,4.0114
2029,-5.27466,-0.0,-0.0,-4.26942,0.0,-0.0,-1.98483,-7.99458,9.2132,11.87884,7.10024,-6.51832,-20.05194,-0.30775,6e-05,-7.07249,0.53813,-0.00014,26.78763,11.26776,3.88762,1.34877,-2.2853,-13.24248,22.45204,13.44163,-6.66697,29.97588,-10.37806,24.98704,135.36075,0.00246,-92.81676,133.64583,-0.00042,85.31213,-1.29143,3.06131,-0.00189,-2.33927,2.22965,0.0005,1.84136,0.94405,6.22834,-19.95953,-1.44565,6.13172,7.02424,0.87355,4.0301
2030,-4.43588,0.0,-0.0,-3.99617,0.0,0.0,-1.98841,-8.02725,9.24611,12.00803,7.05762,-6.453,-19.98729,-0.36202,6e-05,-7.15695,0.56516,-0.00011,26.60506,11.0534,4.04083,1.28258,-2.58145,-13.23852,22.86744,13.57274,-6.59246,29.95397,-10.24799,24.70117,135.43118,0.00038,-94.02853,133.76945,0.00162,84.81535,-0.40469,2.70824,0.00038,-1.7816,2.53895,0.00151,1.79558,0.91396,6.17531,-20.0077,-1.45389,6.0713,7.02757,0.60064,4.10512
2031,-4.53694,-0.0,-0.0,-4.42831,0.0,0.0,-1.69164,-8.12374,9.40417,12.34921,7.28608,-6.45384,-19.95908,-0.40375,7e-05,-7.31167,0.51125,0.00017,26.50083,10.77901,4.04416,1.26341,-2.86771,-13.25675,23.38262,13.66393,-6.72586,29.86963,-10.20745,24.50708,135.38911,-0.00278,-95.06826,133.90517,0.00252,83.43267,0.20003,2.5942,0.002,-1.4331,3.05559,0.00027,1.77735,1.05909,6.04243,-20.02987,-1.2698,6.00183,7.07344,0.31944,4.26603
2032,-4.69639,0.0,-0.0,-4.61891,0.0,0.0,-1.35158,-8.08644,9.44987,12.62937,7.61235,-6.49508,-20.02948,-0.45,5e-05,-7.49543,0.34081,0.00037,26.51679,10.51311,3.96185,1.27414,-3.04555,-13.38302,23.95082,13.65304,-7.05923,29.79118,-10.26158,24.36603,135.20401,-0.00322,-95.70595,133.96523,0.00123,81.99648,0.36398,2.57892,0.00127,-1.37457,3.49114,-0.00092,1.79022,1.34646,5.804,-20.02418,-0.91443,5.88727,7.13021,0.10056,4.43658
2033,-4.11406,0.0,0.0,-3.95265,0.0,0.0,-1.20546,-7.84521,9.21299,12.6783,7.74133,-6.3966,-20.16794,-0.45411,-0.00011,-7.6503,0.12317,0.00017,26.61058,10.2874,4.0054,1.27691,-3.11697,-13.71246,24.4789,13.54348,-7.41009,29.73239,-10.37163,24.2426,134.91368,0.00083,-95.47964,133.96439,0.00035,81.8776,0.27541,2.65777,-2e-05,-1.57659,3.57718,0.00025,1.83578,1.58452,5.53168,-19.98775,-0.59224,5.72301,7.15455,-0.0213,4.54237
2034,-3.19377,0.0,-0.0,-3.05149,0.0,-0.0,-1.19157,-7.51714,8.92377,12.62981,7.70286,-6.22998,-20.24877,-0.43256,-0.00024,-7.75937,-0.0468,-0.00015,26.66468,10.09122,4.18872,1.26386,-3.17283,-14.04429,24.89565,13.41522,-7.60718,29.63224,-10.50838,24.16888,134.60429,0.00506,-94.06937,134.02492,-0.00076,83.08228,0.17939,2.92997,-0.0006,-1.95148,3.32446,0.00165,1.89788,1.58227,5.28808,-19.93455,-0.50378,5.49611,7.14122,-0.09178,4.60448
2035,-2.79638,0.0,0.0,-2.76465,0.0,-0.0,-1.14814,-7.26102,8.87315,12.67834,7.84629,-6.29022,-20.19661,-0.44809,-0.00026,-7.84927,-0.16383,-0.00025,26.61822,9.88672,4.33764,1.25656,-3.28011,-14.11094,25.21438,13.35271,-7.65766,29.46378,-10.63153,24.13507,134.36163,0.00405,-91.90881,134.21066,0.00018,84.19847,0.20812,3.43738,-0.00013,-2.25581,2.93102,0.00041,1.92548,1.34149,5.09779,-19.9145,-0.65653,5.22996,7.12273,-0.21098,4.65427
2036,-3.13092,-0.0,-0.0,-3.08737,0.0,-0.0,-1.03344,-7.19195,9.02631,12.84116,8.35623,-6.71825,-20.07417,-0.48892,-0.00014,-7.95937,-0.28906,-0.00016,26.53534,9.6356,4.37425,1.28278,-3.42916,-13.90825,25.50284,13.38439,-7.67499,29.3061,-10.69353,24.02647,134.24539,0.00028,-90.11638,134.44162,0.00221,84.34542,0.42391,4.05187,0.00042,-2.19433,2.54316,-0.002,1.91089,1.02924,4.98047,-19.93458,-0.90273,5.00489,7.1252,-0.44304,4.66148
2037,-3.86732,0.0,0.0,-3.51925,-0.0,0.0,-0.84196,-7.36975,9.21758,13.04889,8.99085,-7.3702,-20.0072,-0.50029,-1e-05,-8.11927,-0.45195,2e-05,26.50483,9.34894,4.34157,1.35156,-3.56667,-13.59477,25.80402,13.47802,-7.70625,29.28404,-10.71114,23.76378,134.28696,-0.0005,-89.44424,134.60429,0.00187,83.82636,0.87778,4.54038,-0.0004,-1.76435,2.24559,-0.00225,1.94271,0.77539,4.92323,-19.90627,-1.11705,4.85728,7.13206,-0.74048,4.60491
2038,-4.57567,0.0,0.0,-3.68447,0.0,-0.0,-0.55816,-7.75672,9.3649,13.23315,9.37359,-7.93056,-20.06622,-0.47365,-2e-05,-8.3313,-0.64793,0.0002,26.53151,9.0948,4.30611,1.43184,-3.63856,-13.33808,26.1377,13.56894,-7.75682,29.45561,-10.76623,23.43217,134.43083,0.00035,-89.6616,134.66705,0.00061,83.27481,1.46945,4.84505,-0.00221,-1.29512,2.07207,-0.00072,2.08786,0.59057,4.86485,-19.76436,-1.26687,4.73428,7.10093,-0.99011,4.52179
2039,-4.85265,-0.0,-0.0,-3.44126,-0.0,-0.0,-0.25038,-8.16266,9.38997,13.31859,9.38995,-8.1442,-20.22067,-0.42988,-7e-05,-8.5637,-0.87463,0.00026,26.56612,8.91234,4.35789,1.4818,-3.6425,-13.29428,26.55199,13.60626,-7.89414,29.76457,-10.86837,23.2201,134.50732,-0.00095,-90.14845,134.66641,0.00011,83.22533,1.87725,5.17167,-0.0039,-1.09533,1.9303,0.00057,2.27715,0.45673,4.77974,-19.57881,-1.3594,4.60543,7.02664,-1.14927,4.44962
2040,-4.47245,0.0,-0.0,-2.85202,-0.0,-0.0,-0.04839,-8.29821,9.23056,13.27419,9.20285,-8.00511,-20.37788,-0.38122,-6e-05,-8.77949,-1.11262,0.00014,26.58665,8.75836,4.56171,1.51127,-3.64766,-13.52137,27.08408,13.57205,-8.15993,30.08412,-10.89702,23.25218,134.39577,-0.00274,-90.52738,134.65973,-0.00023,83.84679,1.89112,5.63041,-0.00481,-1.20455,1.71348,0.00126,2.3845,0.38656,4.73306,-19.47348,-1.40716,4.53597,6.96273,-1.27572,4.39217
2041,-3.60954,0.0,0.0,-2.14063,-0.0,-0.0,0.01759,-8.06244,9.00273,13.16504,8.99815,-7.73012,-20.45958,-0.33722,-3e-05,-8.9859,-1.31715,-7e-05,26.6042,8.5727,4.84054,1.57332,-3.71701,-13.8952,27.67609,13.46669,-8.47854,30.31162,-10.75564,23.46614,134.16289,-0.00196,-90.58237,134.70454,-0.00041,84.62639,1.68206,6.09534,-0.00282,-1.43726,1.481,0.00109,2.37071,0.3841,4.78861,-19.48564,-1.43011,4.58663,6.95204,-1.41986,4.34846
2042,-2.88669,0.0,-0.0,-1.64157,-0.0,-0.0,0.08396,-7.73851,8.99403,13.13191,8.84956,-7.63853,-20.44392,-0.30884,-2e-05,-9.24603,-1.45052,-0.00029,26.6094,8.33183,4.98328,1.69207,-3.84856,-14.14722,28.2152,13.31218,-8.79372,30.43806,-10.51226,23.64702,133.91664,0.00131,-90.16367,134.82706,0.00064,84.86131,1.53224,6.50108,0.00151,-1.54317,1.39397,0.00083,2.31239,0.41969,4.90366,-19.54015,-1.43991,4.70669,6.96247,-1.58424,4.33309
2043,-2.80918,0.0,-0.0,-1.55435,-0.0,-0.0,0.28217,-7.65066,9.325,13.27273,8.7357,-7.89598,-20.35782,-0.27796,1e-05,-9.62627,-1.51628,-0.00042,26.57119,8.03433,4.90081,1.85453,-4.01635,-14.10402,28.65155,13.15882,-9.18658,30.51969,-10.33424,23.61266,133.65521,0.0043,-89.44386,134.99837,0.00172,84.42326,1.44258,6.81891,0.0061,-1.35002,1.4812,0.00084,2.32322,0.45437,4.96337,-19.52715,-1.42994,4.77504,6.93842,-1.7766,4.36963
2044,-3.17742,0.0,-0.0,-1.70802,0.0,-0.0,0.58577,-7.73912,9.74031,13.52789,8.60347,-8.31994,-20.24723,-0.20699,3e-05,-10.12889,-1.56285,-0.00021,26.47459,7.71464,4.77447,2.0444,-4.19646,-13.88197,29.00711,13.06977,-9.76927,30.59588,-10.33255,23.35752,133.34711,0.00351,-88.99477,135.1526,0.00114,83.69492,1.06113,6.99732,0.00615,-0.81927,1.5654,-0.00067,2.44238,0.45909,4.89795,-19.40997,-1.40122,4.71606,6.8757,-2.00005,4.46869
2045,-3.46374,0.0,0.0,-1.80684,-0.0,-0.0,0.90244,-7.69289,9.90835,13.74188,8.47021,-8.61339,-20.1337,-0.10679,-3e-05,-10.69287,-1.64248,0.00027,26.32379,7.45225,4.80583,2.24957,-4.35056,-13.71938,29.29316,13.08466,-10.55542,30.67648,-10.4972,23.00747,132.99167,-0.00057,-89.35091,135.22792,-0.00045,83.00072,-0.02082,7.30813,-0.00661,-0.06217,1.50957,-0.00284,2.588,0.43557,4.73576,-19.26945,-1.36267,4.55673,6.81176,-2.21063,4.61228
2046,-3.43234,0.0,0.0,-1.73922,0.0,-0.0,1.18239,-7.34087,9.745,13.82172,8.42721,-8.6776,-20.00162,-0.01981,-0.00011,-11.26567,-1.76558,0.00058,26.15367,7.29374,4.99042,2.48388,-4.44915,-13.73219,29.48295,13.16726,-11.43786,30.78899,-10.74627,22.70629,132.58858,-0.00379,-90.51708,135.20279,-0.00172,82.46474,-1.73735,8.14522,-0.02302,0.635,1.45229,-0.00309,2.64246,0.42015,4.54561,-19.22066,-1.30619,4.37446,6.79058,-2.35188,4.75164
2047,-3.11759,0.0,0.0,-1.53274,0.0,-0.0,1.37329,-6.80339,9.36245,13.7923,8.50607,-8.61936,-19.84905,0.07214,-0.00011,-11.83851,-1.89459,0.00029,26.03788,7.18835,5.21497,2.78056,-4.50585,-13.88642,29.5692,13.20768,-12.26495,30.95234,-10.9973,22.5683,132.14998,-0.00355,-92.05177,135.10988,-0.00189,82.30519,-3.51706,9.40915,-0.02185,0.94931,1.59912,-0.00316,2.56529,0.43084,4.3842,-19.30227,-1.23615,4.22862,6.83928,-2.41451,4.81388
2048,-2.66688,-0.0,0.0,-1.27654,0.0,0.0,1.42771,-6.40204,8.91876,13.73996,8.6124,-8.64588,-19.71737,0.24074,-8e-05,-12.40193,-1.97958,-0.00051,26.01549,7.04679,5.3912,3.11503,-4.55389,-14.0353,29.62631,13.10467,-13.00167,31.1118,-11.21122,22.62535,131.68808,-0.00046,-93.399,134.9953,-0.00104,82.7897,-4.99231,10.72433,-0.01308,0.79602,1.80199,-0.00215,2.40914,0.43933,4.30004,-19.46065,-1.19693,4.15365,6.93393,-2.43573,4.75883
2049,-2.39004,0.0,0.0,-1.1323,0.0,0.0,1.40814,-6.43056,8.57257,13.74058,8.64292,-8.95169,-19.6336,0.50476,-5e-05,-12.92363,-2.02209,-0.00093,26.01715,6.83316,5.47182,3.39531,-4.60858,-13.97071,29.74975,12.84242,-13.71293,31.19316,-11.39962,22.77535,131.2123,0.00273,-94.15472,134.85312,0.00044,83.78975,-6.1742,11.89557,-0.00813,0.3516,1.64167,0.0022,2.25688,0.40646,4.28763,-19.6135,-1.22281,4.12989,6.99799,-2.46349,4.66453
2050,-2.5091,0.0,0.0,-1.18614,-0.0,-0.0,1.42631,-6.84441,8.38924,13.79403,8.63655,-9.49487,-19.55848,0.7959,0.00015,-13.3985,-2.10455,-0.00024,25.9409,6.56305,5.50272,3.58368,-4.68441,-13.63394,29.90682,12.51309,-14.33907,31.19791,-11.56955,22.85912,130.79099,0.0028,-94.33989,134.65698,0.00153,84.83765,-6.82309,12.70373,-0.00264,-0.19077,1.0607,0.0044,2.14554,0.31628,4.26043,-19.72631,-1.29637,4.07104,6.97813,-2.54627,4.67592
2051,-2.95925,0.0,0.0,-1.38005,0.0,-0.0,1.51366,-7.24574,8.29061,13.84654,8.71267,-10.00988,-19.43977,1.01901,0.00026,-13.88174,-2.30002,0.00104,25.78015,6.26378,5.58289,3.74759,-4.80251,-13.2096,29.95019,12.26367,-14.73017,31.17583,-11.67626,22.7895,130.5038,0.00085,-94.16278,134.44148,0.0011,85.60954,-6.56301,12.86963,-0.0025,-0.73576,0.57124,0.00066,2.05454,0.19703,4.17451,-19.82059,-1.37502,3.94684,6.8956,-2.72479,4.81768
2052,-3.70347,0.0,-0.0,-1.67817,0.0,-0.0,1.67011,-7.36737,8.21865,13.90064,8.86481,-10.40129,-19.28032,1.11166,0.00011,-14.43974,-2.55822,0.00149,25.59392,5.97393,5.68109,3.94764,-4.95285,-12.83414,29.81293,12.17453,-14.92883,31.15648,-11.67598,22.58101,130.32426,0.00029,-93.60326,134.25064,-0.00062,85.95369,-5.66227,12.42353,-0.00456,-1.18657,0.5821,-0.00337,1.9845,0.11374,4.11944,-19.89279,-1.43179,3.86468,6.78944,-2.9975,4.95929
2053,-4.62807,0.0,-0.0,-1.95221,0.0,0.0,1.86867,-7.3826,8.19063,13.98376,8.9396,-10.83985,-19.09893,1.09846,0.0,-15.08091,-2.74718,0.00036,25.40368,5.72738,5.70087,4.17693,-5.10547,-12.41032,29.60172,12.20621,-15.15111,31.14683,-11.59687,22.29719,130.16127,0.00187,-92.59134,134.05751,-0.00246,85.7844,-4.76453,11.65336,-0.00203,-1.39321,0.88307,-0.00303,2.00218,0.10854,4.19955,-19.87313,-1.46647,3.93711,6.67032,-3.31346,4.99923
2054,-5.29812,-0.0,0.0,-1.87891,-0.0,-0.0,2.01424,-7.56456,8.20008,14.03996,8.81385,-11.43881,-18.88645,1.06627,6e-05,-15.76137,-2.78483,-0.00136,25.20418,5.53273,5.65513,4.42543,-5.24503,-11.80894,29.47265,12.26694,-15.46155,31.14731,-11.51752,21.9957,129.96758,0.00298,-91.35164,133.83589,-0.00248,85.36229,-3.94901,10.80557,-0.00135,-1.27765,1.06563,-0.00142,2.1639,0.16432,4.37129,-19.70636,-1.47868,4.11733,6.54862,-3.6012,4.97526
2055,-5.441,0.0,0.0,-1.35772,-0.0,0.0,2.05405,-7.86337,8.22792,13.98984,8.53218,-12.07531,-18.66237,1.05151,7e-05,-16.45034,-2.71131,-0.00178,25.02798,5.39428,5.5777,4.70533,-5.34822,-11.10997,29.46442,12.27813,-15.68488,31.1484,-11.4853,21.7262,129.73035,1e-05,-90.56039,133.63365,-0.00079,85.27789,-2.85059,10.06645,-0.00218,-0.94414,1.08699,-0.0006,2.43616,0.24203,4.45356,-19.43113,-1.43721,4.22266,6.44,-3.80125,4.95973
2056,-5.16284,0.0,-0.0,-0.72442,-0.0,0.0,1.99807,-7.98127,8.22171,13.83759,8.28291,-12.48746,-18.4965,1.03574,-1e-05,-17.16584,-2.66604,-0.00011,24.92377,5.3134,5.45465,5.00887,-5.37432,-10.62308,29.47979,12.20057,-15.68161,31.13771,-11.47702,21.56423,129.44717,-0.00613,-90.99962,133.50133,-0.00021,85.78273,-1.42342,9.53169,-0.0015,-0.61568,1.15492,-0.00044,2.73427,0.32431,4.30338,-19.13636,-1.30491,4.1139,6.33004,-3.89626,4.93245
2057,-4.75949,0.0,-0.0,-0.41979,-0.0,0.0,1.87218,-7.77182,8.12206,13.67147,8.20293,-12.5564,-18.40965,1.02099,-0.00012,-17.96737,-2.74673,0.00182,24.87555,5.25681,5.29541,5.32119,-5.33308,-10.5607,29.41736,12.05521,-15.55591,31.12604,-11.46027,21.57036,129.17593,-0.00755,-92.59716,133.40591,-0.00077,86.52242,-0.00589,9.0831,-0.00253,-0.50732,1.28147,-0.00073,2.99597,0.41224,3.95948,-18.88287,-1.09519,3.82747,6.1835,-3.92101,4.84626
2058,-4.72713,0.0,0.0,-0.64201,-0.0,-0.0,1.77788,-7.41233,8.04366,13.58935,8.22923,-12.49852,-18.31625,1.0194,-0.00027,-18.91818,-2.87979,0.00114,24.80084,5.15197,5.10639,5.67627,-5.33563,-10.70182,29.26739,11.90926,-15.53353,31.1521,-11.46823,21.68753,129.03377,-0.00231,-94.32491,133.25165,-0.00053,87.13544,1.01568,8.52542,-0.00253,-0.70216,1.16387,0.00077,3.18044,0.51164,3.58669,-18.70669,-0.86401,3.51856,6.00348,-3.94976,4.77312
2059,-5.26778,-0.0,0.0,-1.17809,-0.0,0.0,1.79555,-7.15406,8.16433,13.58504,8.24148,-12.58742,-18.1105,1.03133,-0.00029,-19.99784,-2.92356,-0.00154,24.643,4.93349,4.87844,6.11526,-5.50592,-10.67902,29.05166,11.81025,-15.70434,31.24506,-11.54632,21.78347,129.09468,0.00227,-95.41914,132.95926,0.00146,87.6624,1.36541,7.81064,0.00292,-1.07821,0.56492,0.00294,3.25232,0.63956,3.322,-18.64008,-0.64663,3.32063,5.84182,-4.05875,4.82376
2060,-5.70575,0.0,0.0,-1.51714,0.0,-0.0,1.78223,-7.04656,8.37326,13.51719,8.28732,-12.76511,-17.76126,1.08163,0.00018,-21.07526,-2.88615,-0.00235,24.42694,4.60037,4.6997,6.60896,-5.83639,-10.52057,28.75015,11.73891,-15.93978,31.38213,-11.65981,21.80287,129.30882,0.00316,-95.94237,132.55463,0.00354,88.23858,1.02122,7.05084,0.00916,-1.38625,-0.2182,0.00246,3.20485,0.80175,3.21147,-18.68934,-0.45493,3.27855,5.74209,-4.26519,4.94551
2061,-5.32887,0.0,0.0,-1.34136,0.0,0.0,1.52984,-6.99763,8.37523,13.27371,8.50057,-12.82265,-17.31877,1.20478,0.00083,-22.05312,-2.89818,-0.00092,24.22904,4.21303,4.7077,7.11223,-6.20091,-10.49522,28.34889,11.64546,-16.06466,31.49722,-11.74806,21.72574,129.55777,0.0009,-95.97405,132.2282,0.00383,88.68732,0.29113,6.50722,0.00878,-1.38683,-0.51308,0.00367,3.07296,0.94715,3.20245,-18.82106,-0.31665,3.32441,5.70326,-4.50887,4.99339
2062,-4.47476,0.0,-0.0,-0.84839,0.0,-0.0,1.10008,-6.96397,8.11878,12.92204,8.82367,-12.81218,-16.88162,1.36997,0.00081,-22.98278,-2.99703,0.00032,24.1132,3.84851,4.87246,7.6437,-6.48802,-10.58635,27.91699,11.51252,-16.06362,31.54602,-11.82901,21.45511,129.77805,-0.00321,-95.15656,132.19678,0.0046,88.68806,-0.41429,6.52411,0.00371,-1.03243,-0.09131,0.00751,2.92578,0.99948,3.15559,-18.96916,-0.25063,3.30044,5.68737,-4.7105,4.95999
2063,-3.74806,0.0,-0.0,-0.40789,0.0,-0.0,0.70107,-6.94911,7.74519,12.5853,9.03564,-12.86643,-16.53595,1.49273,0.00024,-23.95731,-3.13348,0.00158,24.07589,3.58565,5.05941,8.22666,-6.65504,-10.64065,27.59064,11.35809,-16.07522,31.54757,-11.97107,20.9725,129.96754,-0.00542,-93.47623,132.43065,0.0047,88.35372,-0.97491,7.16506,-0.00012,-0.65666,0.43677,0.00722,2.84077,0.94544,2.97772,-19.05797,-0.23444,3.11527,5.64181,-4.8296,4.95382
2064,-3.12065,0.0,-0.0,-0.09754,0.0,-0.0,0.41422,-6.96481,7.33143,12.23925,9.03203,-12.89004,-16.30002,1.51073,-0.00017,-24.98228,-3.28877,0.00277,24.0435,3.50546,5.22546,8.81279,-6.69354,-10.71056,27.46055,11.20223,-16.21669,31.5309,-12.21267,20.4886,130.10733,-0.00343,-91.87024,132.68074,0.00211,88.12567,-1.65302,8.05319,-0.00211,-0.72986,0.34209,0.00783,2.84629,0.83792,2.75139,-19.05702,-0.24979,2.8652,5.52706,-4.84998,5.0182
2065,-2.689,-0.0,0.0,0.27283,0.0,-0.0,0.30431,-7.09037,7.0065,11.76311,8.86619,-12.83784,-16.14807,1.40194,-0.00024,-26.01179,-3.38102,0.00103,23.9495,3.63858,5.31424,9.336,-6.62595,-10.78337,27.47776,11.05024,-16.47214,31.48787,-12.54535,20.23489,130.19452,0.00046,-91.49236,132.79912,-0.00049,88.02806,-2.65501,8.77886,-0.00108,-1.28397,-0.37629,0.00858,2.90398,0.71308,2.61314,-19.00207,-0.31404,2.69037,5.33817,-4.75199,5.11028
2066,-2.93055,-0.0,-0.0,0.87568,-0.0,0.0,0.44689,-7.34994,6.91679,11.11517,8.61219,-12.85726,-16.04979,1.19432,-0.00015,-27.0255,-3.26054,-0.00328,23.82712,3.89275,5.20675,9.8112,-6.53792,-10.67245,27.51396,10.89041,-16.73286,31.45131,-12.9098,20.196,130.31361,0.00462,-92.50563,132.84406,-0.00106,87.64508,-3.57637,9.09982,-0.00127,-1.84665,-1.1257,0.00349,2.97332,0.56415,2.54402,-18.93427,-0.42644,2.57068,5.11596,-4.56015,5.19145
2067,-3.82765,0.0,0.0,1.65085,0.0,-0.0,0.72949,-7.58421,6.94262,10.36153,8.34797,-12.97384,-15.96048,0.97738,-4e-05,-28.0314,-2.94099,-0.00523,23.7745,4.11234,4.92431,10.32085,-6.51819,-10.38487,27.5097,10.71726,-16.91358,31.5446,-13.20215,20.13241,130.54205,0.00517,-93.83427,132.93025,0.00271,86.5724,-3.57609,8.73295,-0.01696,-1.9351,-1.37677,0.00171,3.04469,0.40674,2.43011,-18.86524,-0.52997,2.40626,4.92508,-4.36507,5.24345
2068,-4.73436,0.0,0.0,2.30062,-0.0,0.0,0.91314,-7.61628,6.76868,9.60096,8.18722,-13.0155,-15.82507,0.84809,0.00017,-29.04327,-2.66371,-0.00168,23.82147,4.22155,4.66402,10.90673,-6.55249,-10.20743,27.50975,10.5649,-17.03535,31.83995,-13.34966,19.83096,130.81566,0.00056,-94.07434,133.12486,0.00896,84.66929,-2.39119,7.6338,-0.03501,-1.49313,-1.04493,0.00599,3.07703,0.31687,2.2646,-18.83571,-0.5516,2.21916,4.80311,-4.23799,5.22896
2069,-5.05662,0.0,-0.0,2.58629,0.0,-0.0,0.87377,-7.38434,6.2279,8.92345,8.22298,-12.83464,-15.61699,0.83039,0.00038,-30.08025,-2.65565,0.00428,23.91033,4.229,4.58176,11.54417,-6.59046,-10.41436,27.56636,10.48639,-17.16469,32.21625,-13.36901,19.35524,131.00272,-0.00252,-92.61243,133.40276,0.00824,82.67387,-0.85437,6.52172,-0.02199,-1.02085,-0.49077,0.0061,2.97084,0.3602,2.12754,-18.94369,-0.46023,2.10817,4.75113,-4.1919,5.1049
2070,-4.8153,0.0,0.0,2.64229,0.0,-0.0,0.69402,-6.98577,5.53377,8.36943,8.42269,-12.5041,-15.36767,0.84522,0.00024,-31.16072,-2.85586,0.00582,23.99139,4.15539,4.59479,12.20975,-6.66761,-10.93003,27.65128,10.50668,-17.25853,32.45781,-13.3103,18.99165,131.0899,-0.00309,-90.17304,133.6526,0.00079,82.01879,-0.12567,6.42397,-0.0059,-1.09999,-0.16079,0.00333,2.66599,0.498,2.03227,-19.2495,-0.29684,2.07122,4.75559,-4.22244,4.8867
2071,-4.55892,0.0,-0.0,2.78724,0.0,0.0,0.54344,-6.69255,5.09833,7.87489,8.63046,-12.26215,-15.13916,0.80408,-3e-05,-32.27232,-2.9608,0.00116,24.05215,4.04241,4.50045,12.88676,-6.83963,-11.33765,27.65808,10.62227,-17.14653,32.48122,-13.20013,18.8733,131.23038,-0.00036,-88.41968,133.77046,-0.00251,82.92292,-0.62976,7.51248,-0.01193,-1.58346,-0.1939,0.00152,2.24794,0.6185,1.91049,-19.66899,-0.1396,2.00322,4.78997,-4.298,4.6552
2072,-4.63742,0.0,-0.0,3.02763,-0.0,0.0,0.47314,-6.66884,5.02686,7.33447,8.71221,-12.19648,-14.93865,0.73546,5e-05,-33.36184,-2.78334,-0.00358,24.06472,3.94308,4.31059,13.52718,-7.08395,-11.36021,27.49266,10.81773,-16.68295,32.4044,-13.06629,18.82659,131.63663,0.01114,-88.54118,133.72604,-0.00255,83.8589,-1.69397,8.67861,-0.01354,-1.77963,-0.43525,-0.00168,1.90595,0.66742,1.7065,-20.0135,-0.01807,1.83225,4.822,-4.35488,4.4787
2073,-4.85794,0.0,-0.0,3.09927,-0.0,0.0,0.40251,-6.72796,5.05906,6.73705,8.69105,-12.17058,-14.69785,0.72144,0.0003,-34.36269,-2.43091,-0.00364,23.98744,3.85599,4.22767,14.07964,-7.35167,-11.11944,27.17448,11.05091,-15.83794,32.40829,-12.95189,18.68976,132.44154,0.01638,-90.03345,133.55603,-0.00286,83.78804,-2.03397,8.45589,-0.03751,-1.52521,-0.67042,-0.00338,1.77044,0.68006,1.44957,-20.15189,0.08956,1.59862,4.83451,-4.3689,4.35941
2074,-4.91293,0.0,-0.0,2.93667,-0.0,0.0,0.27647,-6.61936,5.00867,6.17071,8.68696,-12.07532,-14.37165,0.75096,0.00022,-35.22144,-2.10532,-0.00107,23.84058,3.7403,4.30562,14.54781,-7.62978,-10.8604,26.82893,11.2495,-14.7626,32.57441,-12.89458,18.54652,133.53735,-0.00126,-91.32307,133.34013,-0.00116,83.34369,-0.97946,6.60775,-0.08645,-1.30799,-0.73966,-0.00225,1.81674,0.68677,1.23489,-20.1077,0.17594,1.402,4.8326,-4.3759,4.26582
2075,-4.75286,-0.0,0.0,2.70097,0.0,0.0,0.1102,-6.39407,4.8892,5.71387,8.69973,-11.9198,-14.00673,0.75749,-0.0001,-35.92081,-1.88741,0.00039,23.72101,3.59905,4.42244,14.98529,-7.91061,-10.70579,26.6068,11.35365,-13.93155,32.84684,-12.90674,18.52204,134.48056,-0.01796,-91.69016,133.1684,0.00056,83.31696,0.50375,4.68998,-0.08235,-1.30018,-0.5212,0.00118,1.92797,0.67305,1.11544,-19.99751,0.20781,1.28607,4.83671,-4.40194,4.1824
2076,-4.49834,0.0,0.0,2.47408,0.0,0.0,-0.0762,-6.2459,4.69933,5.38685,8.58519,-11.73386,-13.68865,0.73054,-0.00019,-36.51866,-1.73608,8e-05,23.7091,3.47413,4.53241,15.44922,-8.18776,-10.66919,26.62362,11.36043,-13.88538,33.11259,-12.94425,18.56509,134.79323,-0.01586,-91.70625,133.0865,0.00028,83.59839,0.74249,4.38733,-0.06457,-1.05741,0.02053,0.00725,2.00359,0.63402,1.06821,-19.92221,0.18924,1.22768,4.87348,-4.44958,4.11208
2077,-4.0625,-0.0,0.0,2.17042,0.0,0.0,-0.30721,-6.12599,4.35085,5.1988,8.28302,-11.46658,-13.45035,0.70838,4e-05,-37.13429,-1.64453,0.00036,23.79018,3.35818,4.74936,15.96788,-8.49747,-10.78549,26.86184,11.32337,-14.49065,33.30146,-12.9089,18.58098,134.55031,-0.00722,-91.68295,133.04276,0.00023,83.91764,-0.33686,5.32741,-0.06232,-0.39769,0.61971,0.00868,1.99428,0.60076,1.08645,-19.93134,0.15157,1.23219,4.96247,-4.5476,4.04057
