PaulMeinheit/Bachelor_Muay_Thai/processed_Data/E3/teep/sliced/JointAngles/sliced2.csv
Unnamed: 0_level_0,L_MTP_ANGLE,L_MTP_ANGLE,L_MTP_ANGLE,R_MTP_ANGLE,R_MTP_ANGLE,R_MTP_ANGLE,L_ANKLE_ANGLE,L_ANKLE_ANGLE,L_ANKLE_ANGLE,R_ANKLE_ANGLE,R_ANKLE_ANGLE,R_ANKLE_ANGLE,L_KNEE_ANGLE,L_KNEE_ANGLE,L_KNEE_ANGLE,R_KNEE_ANGLE,R_KNEE_ANGLE,R_KNEE_ANGLE,L_HIP_ANGLE,L_HIP_ANGLE,L_HIP_ANGLE,R_HIP_ANGLE,R_HIP_ANGLE,R_HIP_ANGLE,L_SHOULDER_ANGLE,L_SHOULDER_ANGLE,L_SHOULDER_ANGLE,R_SHOULDER_ANGLE,R_SHOULDER_ANGLE,R_SHOULDER_ANGLE,L_ELBOW_ANGLE,L_ELBOW_ANGLE,L_ELBOW_ANGLE,R_ELBOW_ANGLE,R_ELBOW_ANGLE,R_ELBOW_ANGLE,L_WRIST_ANGLE,L_WRIST_ANGLE,L_WRIST_ANGLE,R_WRIST_ANGLE,R_WRIST_ANGLE,R_WRIST_ANGLE,NECK_ANGLE,NECK_ANGLE,NECK_ANGLE,NECK_ANGLE_SHADOW,NECK_ANGLE_SHADOW,NECK_ANGLE_SHADOW,Trunk_Joint_Angle,Trunk_Joint_Angle,Trunk_Joint_Angle
ITEM,X,Y,Z,X,Y,Z,X,Y,Z,X,Y,Z,X,Y,Z,X,Y,Z,X,Y,Z,X,Y,Z,X,Y,Z,X,Y,Z,X,Y,Z,X,Y,Z,X,Y,Z,X,Y,Z,X,Y,Z,X,Y,Z,X,Y,Z
817,-5.27321,0.0,-0.0,-4.67781,0.0,-0.0,-5.83911,-9.93398,6.58402,12.72533,7.4552,-5.43424,-19.61495,-0.62024,7e-05,-8.10864,0.1459,-1e-05,27.72532,13.72036,3.61365,0.82015,-0.17271,-12.54155,23.32563,11.80681,-3.9199,32.46547,-9.55345,25.04816,130.91599,-0.00129,-97.21897,130.1716,0.00062,83.79726,1.97359,3.02888,-0.00065,-3.96528,-2.47349,-0.00393,0.87623,0.10217,7.38842,-20.88667,-2.65788,6.89703,6.19085,2.56237,4.31269
818,-4.57392,-0.0,0.0,-4.62223,0.0,0.0,-5.25901,-9.7903,7.02542,12.8035,7.50158,-5.7086,-19.43624,-0.66006,0.00048,-8.04401,0.24719,5e-05,27.44754,13.64414,3.40265,0.63849,-0.14202,-12.39991,23.17651,11.76592,-4.06431,32.3412,-9.55908,24.84097,130.63405,-0.00028,-96.91851,129.99741,0.00076,84.4039,1.72826,2.95392,-0.00181,-3.47476,-2.10966,0.00406,0.75317,0.19496,7.39864,-21.0077,-2.57548,6.94097,6.39205,2.61687,4.20039
819,-4.32272,-0.0,0.0,-4.66738,0.0,-0.0,-4.67466,-9.59858,7.32941,12.93284,7.51287,-6.00964,-19.21938,-0.68599,0.00059,-7.94633,0.36593,0.00011,27.22659,13.54116,3.25184,0.49034,-0.12498,-12.26122,23.03501,11.77478,-4.11697,32.30151,-9.55556,24.62467,130.48271,-0.00128,-96.27555,129.89462,1e-05,84.94438,1.89629,2.65242,-0.00257,-2.94378,-1.02824,0.00832,0.71185,0.28291,7.26457,-21.0536,-2.44409,6.84898,6.60656,2.64417,4.09612
820,-4.80054,0.0,-0.0,-5.08906,0.0,-0.0,-4.11142,-9.35231,7.62121,13.09852,7.45155,-6.22252,-18.85917,-0.76512,-0.00026,-7.82185,0.45929,6e-05,27.01399,13.41327,3.15725,0.40988,-0.14506,-12.17545,23.01549,11.76951,-4.16347,32.28242,-9.57768,24.38631,130.29634,-0.00347,-95.99834,129.78349,-0.00029,85.14054,2.25738,2.49381,-0.00035,-2.54583,0.13501,0.00488,0.69414,0.32976,6.99404,-21.08245,-2.30025,6.61492,6.85685,2.60837,4.09706
821,-5.55245,0.0,-0.0,-5.68033,-0.0,0.0,-3.68313,-8.97394,7.96492,13.21534,7.34592,-6.31866,-18.31931,-0.94809,-0.00153,-7.72378,0.50956,-3e-05,26.73588,13.23938,3.10509,0.3622,-0.23472,-12.18646,23.09874,11.66842,-4.31399,32.16209,-9.6787,24.18078,130.00624,-0.00417,-96.47723,129.65923,0.00017,85.05965,2.42337,2.6845,0.00136,-2.41068,0.70086,0.00121,0.64468,0.3095,6.71634,-21.14392,-2.21601,6.34933,7.1008,2.50183,4.16932
822,-5.73605,0.0,0.0,-5.7473,0.0,-0.0,-3.50268,-8.38054,8.24296,13.16142,7.27299,-6.31493,-17.69061,-1.17892,-0.00154,-7.6999,0.52065,-2e-05,26.36329,12.99383,3.16217,0.27223,-0.40199,-12.32941,23.1529,11.49319,-4.59477,31.89859,-9.83878,24.06199,129.72836,-0.00166,-97.35909,129.60474,0.00078,84.85613,2.15613,3.04384,0.00086,-2.46342,0.60826,0.00125,0.58335,0.2333,6.55546,-21.2129,-2.22704,6.17153,7.24233,2.33575,4.20054
823,-5.03366,0.0,0.0,-5.00505,0.0,-0.0,-3.5123,-7.70065,8.32268,12.94436,7.29488,-6.20364,-17.13989,-1.3416,-0.00032,-7.7343,0.47466,6e-05,25.97684,12.72204,3.40511,0.12759,-0.57259,-12.62073,23.16314,11.35913,-4.92916,31.58289,-9.97665,23.98753,129.56224,1e-05,-98.22057,129.69235,0.00046,84.67686,1.51183,3.2553,0.00121,-2.45863,0.33569,0.00157,0.57741,0.115,6.55017,-21.22081,-2.33492,6.12264,7.24687,2.15347,4.1513
824,-3.9426,0.0,-0.0,-3.97483,0.0,0.0,-3.53139,-7.21535,8.2426,12.73724,7.37487,-6.01988,-16.75885,-1.38,0.0006,-7.74592,0.36944,3e-05,25.65106,12.51606,3.79512,-0.05455,-0.64851,-12.99043,23.27436,11.32311,-5.19663,31.34723,-10.0583,23.89202,129.44421,-0.00031,-98.83926,129.87451,-0.00058,84.67889,0.93764,3.26631,0.00181,-2.27408,0.13616,0.00019,0.65887,-0.0426,6.65884,-21.13748,-2.5216,6.16507,7.15684,2.02311,4.08247
825,-3.13332,0.0,0.0,-3.23378,-0.0,-0.0,-3.47524,-7.05358,8.15762,12.68193,7.37122,-5.88975,-16.48505,-1.32573,0.00071,-7.66659,0.27328,-1e-05,25.3644,12.39004,4.19746,-0.27782,-0.6314,-13.28466,23.53994,11.30723,-5.34539,31.24055,-10.14179,23.76911,129.30574,2e-05,-98.89294,130.0441,-0.00088,84.79123,0.90341,3.23951,0.00207,-2.04509,-0.19724,-0.00273,0.79317,-0.20716,6.77551,-21.00128,-2.71771,6.21234,7.04129,1.97607,4.04932
826,-3.01119,0.0,-0.0,-2.97044,0.0,0.0,-3.35724,-7.10022,8.23268,12.79508,7.22092,-5.95943,-16.20716,-1.25583,0.00032,-7.53309,0.24382,3e-05,25.09943,12.2731,4.44307,-0.4982,-0.59906,-13.375,23.81453,11.21329,-5.44755,31.20589,-10.28545,23.61407,129.21895,-0.00061,-98.0789,130.20218,-0.00014,84.71268,1.36158,3.24299,0.00265,-1.87801,-0.66325,-0.00273,0.91887,-0.31501,6.7872,-20.87703,-2.8222,6.18312,6.97825,1.98026,4.04141
827,-3.73836,-0.0,-0.0,-3.30221,0.0,-0.0,-3.14207,-7.14016,8.56631,13.06288,7.06501,-6.28493,-15.90608,-1.24358,-0.00023,-7.46766,0.23761,7e-05,24.8964,12.1046,4.38251,-0.62946,-0.60067,-13.26338,23.94984,11.0529,-5.60046,31.16835,-10.445,23.38789,129.26598,-0.00328,-96.57636,130.47638,0.00088,84.36818,1.81885,3.28385,0.00267,-1.573,-0.66178,0.00821,1.0007,-0.31963,6.69084,-20.79914,-2.79071,6.09182,7.00916,1.97247,4.00152
828,-4.96126,-0.0,0.0,-4.14139,0.0,0.0,-2.83445,-7.03733,9.03756,13.42777,7.03949,-6.72291,-15.64869,-1.28272,-0.00037,-7.55834,0.17688,0.00026,24.79171,11.86191,4.05899,-0.63144,-0.64789,-13.11723,23.94581,10.92134,-5.81588,31.11876,-10.51735,23.09873,129.3887,-0.00402,-95.11593,130.91707,0.00093,84.04549,1.84597,3.50469,-0.00151,-0.85609,0.21133,0.02631,1.04738,-0.2334,6.5968,-20.75465,-2.67572,6.03648,7.11606,1.89663,3.8781
829,-5.74592,0.0,-0.0,-4.82929,0.0,-0.0,-2.60475,-6.86211,9.348,13.70915,7.07422,-7.02208,-15.47953,-1.28111,-0.00012,-7.78061,0.05577,0.00037,24.75884,11.54582,3.73562,-0.54826,-0.74875,-13.13167,23.89802,10.87935,-6.06861,31.09739,-10.4815,22.84411,129.4507,-0.00311,-94.39995,131.35649,0.00103,84.06637,1.26367,4.0739,-0.01171,0.08108,1.28946,0.02765,1.08854,-0.14279,6.55783,-20.71348,-2.57711,6.03394,7.24223,1.73589,3.69034
830,-5.42346,0.0,-0.0,-4.68559,0.0,0.0,-2.59203,-6.8035,9.34539,13.74049,7.03697,-7.11011,-15.37537,-1.18382,0.00015,-8.03271,-0.07445,0.00014,24.70535,11.19531,3.61429,-0.4853,-0.89254,-13.30347,23.87883,10.9028,-6.35082,31.12604,-10.41932,22.69199,129.43213,-0.00275,-94.34816,131.5999,0.00298,84.49465,0.1561,4.86435,-0.01626,0.65142,1.54688,0.01741,1.14408,-0.13623,6.49127,-20.66043,-2.5463,5.97452,7.30481,1.52399,3.53064
831,-4.31105,-0.0,-0.0,-3.84289,0.0,-0.0,-2.69907,-6.91686,9.16563,13.58543,6.94573,-7.14394,-15.29438,-1.04058,0.00032,-8.23695,-0.19143,-0.00018,24.56036,10.86316,3.65838,-0.51231,-1.05199,-13.44878,23.86963,10.93467,-6.59552,31.19911,-10.39684,22.55432,129.52304,-0.00109,-94.42097,131.70558,0.00485,84.91359,-0.97003,5.40324,-0.00695,0.68279,1.0575,0.0123,1.23147,-0.18425,6.33349,-20.57989,-2.53227,5.81004,7.25271,1.30462,3.48345
832,-3.31978,0.0,-0.0,-3.05406,-0.0,-0.0,-2.72104,-7.06671,9.02407,13.48905,6.94032,-7.29313,-15.23683,-0.90589,0.00037,-8.40638,-0.31156,-0.00035,24.36409,10.54218,3.72656,-0.58519,-1.23509,-13.43049,23.81581,10.94298,-6.69499,31.3183,-10.41264,22.29637,129.91246,0.00456,-94.6744,131.91454,0.00501,84.80808,-1.47053,5.33849,0.0004,0.5498,0.87159,0.0076,1.3782,-0.1803,6.16489,-20.43939,-2.46595,5.65483,7.12723,1.08372,3.5525
833,-3.10101,0.0,-0.0,-2.80015,0.0,0.0,-2.55814,-7.15044,8.99053,13.61556,7.11165,-7.62912,-15.26256,-0.74723,2e-05,-8.61939,-0.43832,-0.00033,24.23606,10.17387,3.7659,-0.59367,-1.4805,-13.24985,23.74446,10.91611,-6.65572,31.46778,-10.44999,21.95416,130.5204,0.00889,-95.41552,132.34908,0.00153,84.369,-1.15232,4.80798,-0.00114,0.37479,1.50823,0.00158,1.56263,-0.10987,6.10811,-20.25593,-2.37947,5.62827,7.0262,0.84166,3.66918
834,-3.59578,0.0,-0.0,-2.86071,0.0,-0.0,-2.27105,-7.25768,8.98718,13.88675,7.38983,-8.08144,-15.43666,-0.50488,-0.0008,-8.95148,-0.57969,9e-05,24.27612,9.74793,3.85748,-0.43512,-1.7798,-13.01457,23.76362,10.84688,-6.62684,31.58054,-10.49934,21.71197,131.07889,0.00489,-96.2576,132.92313,-0.00323,84.09615,-0.4135,4.22548,-0.0019,-0.11526,2.39462,-0.00132,1.67936,-0.06338,6.16644,-20.13634,-2.35799,5.69976,7.03447,0.57149,3.76147
835,-4.18283,-0.0,-0.0,-2.67434,-0.0,-0.0,-2.03266,-7.50625,8.93629,14.08522,7.53945,-8.43425,-15.73819,-0.20103,-0.00117,-9.42386,-0.76851,0.00062,24.48335,9.33798,4.07472,-0.07991,-2.05361,-12.87743,23.94912,10.75429,-6.79405,31.62351,-10.53469,21.67557,131.37923,-0.00045,-96.62615,133.48154,-0.00241,83.82652,-0.00504,3.98649,-0.00444,-0.90688,2.8107,0.00247,1.65806,-0.08659,6.22778,-20.15571,-2.40233,5.74812,7.15923,0.29078,3.79848
836,-4.34568,0.0,-0.0,-2.00868,-0.0,0.0,-1.97918,-7.83533,8.89037,14.11317,7.31828,-8.58658,-16.04535,0.04483,-0.00052,-9.98754,-0.9913,0.00036,24.72775,9.02782,4.3121,0.36065,-2.2297,-12.84839,24.28603,10.67468,-7.26461,31.66993,-10.53457,21.74815,131.35321,-0.00214,-96.64069,133.93361,0.00199,83.03728,-0.47922,4.31547,-0.017,-1.54483,2.67689,0.00369,1.56907,-0.12183,6.20149,-20.24624,-2.42527,5.71059,7.28562,0.03221,3.79958
837,-4.13295,-0.0,0.0,-1.19729,-0.0,0.0,-2.07875,-8.06611,8.97266,14.08838,6.79224,-8.69282,-16.22894,0.12158,0.00017,-10.5727,-1.19264,-0.00034,24.85075,8.8278,4.38983,0.72825,-2.32287,-12.76126,24.69541,10.61743,-7.9154,31.79342,-10.54091,21.74122,131.09273,-0.00277,-96.826,134.3015,0.0036,81.78155,-1.46005,5.02637,-0.02435,-1.70977,2.27728,3e-05,1.52205,-0.10088,6.09796,-20.29675,-2.36735,5.62218,7.28131,-0.18443,3.8358
838,-3.87148,0.0,0.0,-0.74387,0.0,-0.0,-2.1817,-8.0521,9.15772,14.17108,6.3968,-8.85748,-16.26994,0.04749,0.00014,-11.16457,-1.38788,1e-05,24.82831,8.67394,4.32148,1.00693,-2.41529,-12.57327,25.07745,10.57959,-8.37818,31.96879,-10.63878,21.59405,130.84633,-0.00218,-97.14934,134.65541,0.00048,80.76934,-1.8008,5.60983,-0.01683,-1.58079,1.78367,-0.00199,1.51678,-0.02799,5.97374,-20.30544,-2.25351,5.53388,7.16197,-0.37399,3.9724
839,-3.78147,0.0,-0.0,-0.8636,0.0,-0.0,-2.11863,-7.76648,9.23385,14.4137,6.46253,-8.96262,-16.29262,-0.04275,-0.00021,-11.79242,-1.64388,0.00119,24.78256,8.4951,4.29181,1.29912,-2.56906,-12.48793,25.36025,10.57452,-8.38188,32.14493,-10.86551,21.42517,130.82809,-0.00319,-96.84776,134.98979,-0.0031,80.51049,-0.90121,5.86269,-0.00486,-1.58159,1.27849,-0.00046,1.47881,0.03651,5.8374,-20.34736,-2.14295,5.43122,7.05091,-0.56504,4.18623
840,-3.99653,0.0,0.0,-1.40704,-0.0,0.0,-1.78564,-7.34147,9.08173,14.76827,6.81887,-8.93923,-16.43571,-0.04211,-0.00061,-12.44527,-1.93887,0.00116,24.826,8.24767,4.36687,1.64147,-2.79577,-12.63834,25.53757,10.6186,-8.05115,32.32005,-11.1704,21.35812,131.02876,-0.00589,-95.51087,135.21655,-0.00274,80.72155,0.56668,6.09036,0.00774,-1.90773,0.87979,0.00085,1.38099,0.03493,5.65279,-20.45162,-2.07577,5.25914,7.01297,-0.77366,4.37817
841,-4.59687,0.0,-0.0,-2.06792,0.0,0.0,-1.26454,-6.97402,8.88752,15.13283,7.06503,-8.9798,-16.68196,0.02169,-0.00061,-13.05999,-2.1582,-0.00048,24.93568,7.911,4.38645,1.96202,-3.08487,-12.81,25.65882,10.73732,-7.72946,32.50322,-11.43683,21.39281,131.29601,-0.00419,-93.87228,135.28799,-0.0008,80.85328,1.46996,6.54888,0.00966,-2.35786,0.65443,0.0003,1.26245,-0.0416,5.43628,-20.57845,-2.06627,5.02955,7.00788,-1.00988,4.46433
842,-5.31147,0.0,0.0,-2.51446,0.0,-0.0,-0.81135,-6.77208,8.88628,15.38326,7.08142,-9.26761,-16.89421,0.05927,-0.00023,-13.61487,-2.26254,-0.0015,25.0105,7.51678,4.22042,2.21303,-3.39277,-12.72404,25.79624,10.95444,-7.67196,32.67526,-11.55862,21.45058,131.48236,-0.00029,-93.05338,135.26736,9e-05,80.74241,1.16409,7.21453,-0.00498,-2.66325,0.56232,-0.00026,1.18906,-0.14938,5.28096,-20.6583,-2.10852,4.84515,6.96495,-1.27298,4.44148
843,-5.53542,0.0,-0.0,-2.4665,0.0,-0.0,-0.61717,-6.73652,9.01174,15.44483,7.09061,-9.63342,-16.99491,0.05635,0.0,-14.18442,-2.37213,-0.00028,25.02294,7.15893,3.98026,2.4651,-3.63985,-12.4982,26.00141,11.241,-7.96005,32.80571,-11.53381,21.46814,131.48892,0.00065,-93.16891,135.25397,-0.0001,80.54261,-0.3087,8.04,-0.02509,-2.83944,0.54278,-0.0002,1.2183,-0.23838,5.25009,-20.63126,-2.17964,4.78333,6.87369,-1.53127,4.37978
844,-5.10089,0.0,-0.0,-1.92863,0.0,0.0,-0.60466,-6.81102,9.07679,15.36946,7.27172,-9.77614,-17.00292,0.05628,6e-05,-14.84361,-2.61112,0.00185,25.02787,6.91249,3.83905,2.81719,-3.77869,-12.46665,26.2501,11.52438,-8.44912,32.88811,-11.43734,21.46131,131.34637,0.00053,-93.13342,135.26292,-0.00093,80.47991,-2.17855,8.8697,-0.02952,-3.0167,0.55379,-0.00016,1.34766,-0.28685,5.30894,-20.50076,-2.24653,4.81994,6.79865,-1.73703,4.35529
845,-4.59931,0.0,-0.0,-1.25085,0.0,0.0,-0.54115,-6.90599,9.10095,15.27715,7.5212,-9.68036,-16.94822,0.07594,0.0001,-15.55158,-2.94185,0.00215,25.05111,6.76113,3.81985,3.26079,-3.84407,-12.67202,26.45873,11.74143,-8.79199,32.96925,-11.32123,21.5199,131.23192,-0.00116,-92.22601,135.19582,-0.0011,80.66162,-3.24328,9.3468,-0.01963,-3.1262,0.45975,-0.00078,1.49974,-0.29485,5.40284,-20.34582,-2.2889,4.90419,6.79182,-1.86426,4.38307
846,-4.60178,0.0,0.0,-0.85929,-0.0,-0.0,-0.30764,-6.9721,9.18678,15.25968,7.63712,-9.59654,-16.87088,0.12065,9e-05,-16.2154,-3.22051,0.00041,25.07304,6.62733,3.85179,3.69455,-3.90369,-12.85561,26.58724,11.85984,-8.79751,33.12473,-11.21303,21.70663,131.24344,-0.00334,-91.27795,134.92723,0.00066,81.02263,-3.05359,9.41668,-0.01236,-3.04486,-0.0003,-0.00221,1.59316,-0.26976,5.538,-20.24766,-2.3159,5.03909,6.81811,-1.93046,4.40534
847,-4.9161,0.0,-0.0,-0.94985,0.0,0.0,0.00071,-7.03432,9.25655,15.35849,7.5586,-9.7461,-16.85873,0.2133,-0.00012,-16.83174,-3.35703,-0.00136,25.08621,6.45804,3.88913,4.03272,-3.97822,-12.82187,26.68871,11.89114,-8.68388,33.37699,-11.14162,21.95924,131.26547,-0.0046,-91.42352,134.44348,0.00342,81.52624,-2.40854,9.53376,-0.00673,-2.862,-0.90654,-0.00191,1.62001,-0.21538,5.71657,-20.21401,-2.33184,5.22522,6.79374,-1.9872,4.33739
848,-4.91035,0.0,-0.0,-1.32551,0.0,-0.0,0.20558,-7.11891,9.16312,15.51751,7.38732,-10.12242,-16.97586,0.35551,-0.00042,-17.46729,-3.38988,-0.00163,25.09274,6.27091,3.94038,4.26614,-4.03574,-12.61425,26.84585,11.88442,-8.72456,33.66129,-11.09519,22.11335,131.20958,-0.00541,-92.36711,133.9119,0.00371,82.13694,-1.96972,9.90286,-0.0054,-2.70885,-1.84073,0.00089,1.64415,-0.14011,5.85991,-20.18378,-2.31527,5.38641,6.67285,-2.07682,4.16662
849,-4.47206,-0.0,0.0,-1.57212,0.0,-0.0,0.26811,-7.24848,8.98179,15.57366,7.31784,-10.51104,-17.15788,0.50688,-0.00037,-18.1464,-3.43967,-0.00023,25.07021,6.11121,4.02356,4.46396,-4.06346,-12.38405,27.08879,11.86978,-8.87093,33.88779,-11.02562,22.04618,131.22418,-0.00373,-93.05351,133.55363,0.00121,82.66978,-1.38993,9.98345,-0.01344,-2.51529,-2.15059,0.00465,1.7421,-0.07916,5.9068,-20.08327,-2.27613,5.45265,6.47939,-2.2001,4.01999
850,-4.17107,0.0,-0.0,-1.47685,0.0,-0.0,0.33097,-7.49818,8.9394,15.42137,7.51102,-10.70493,-17.24601,0.6294,-1e-05,-18.85338,-3.5833,0.00139,24.99197,5.97681,4.12402,4.73473,-4.11857,-12.20636,27.3851,11.8282,-8.96878,33.99457,-10.93587,21.81045,131.48875,0.00079,-93.39168,133.42409,-0.00074,83.00202,-0.41103,9.19809,-0.02181,-2.20157,-1.65961,0.00702,1.93417,-0.06959,5.92439,-19.89043,-2.27379,5.47256,6.28606,-2.3406,4.05413
851,-4.41341,-0.0,-0.0,-1.16781,-0.0,0.0,0.50127,-7.9172,9.07324,15.15578,7.8609,-10.71887,-17.14474,0.71684,0.00023,-19.61518,-3.76196,0.00145,24.88341,5.82638,4.21296,5.15805,-4.26826,-12.03177,27.71291,11.74025,-9.08288,33.94447,-10.90242,21.57821,131.91205,0.0056,-94.0766,133.39461,-0.00174,83.18972,0.41737,7.76388,-0.00825,-1.93765,-0.89198,0.00444,2.15937,-0.09691,6.01171,-19.6625,-2.3316,5.54352,6.17114,-2.49314,4.27217
852,-4.96687,0.0,0.0,-0.87455,-0.0,0.0,0.70199,-8.3968,9.16814,14.9603,7.99707,-10.75526,-16.91106,0.7754,0.00019,-20.50124,-3.8525,-0.00015,24.81666,5.65265,4.28486,5.73537,-4.49399,-11.77763,28.1118,11.64006,-9.37928,33.75243,-10.98245,21.4557,132.18472,0.00449,-95.14285,133.32892,-0.00277,83.26992,0.58934,6.51554,0.01178,-1.9883,-0.42821,0.00086,2.34482,-0.10781,6.1683,-19.4715,-2.39993,5.68496,6.16153,-2.64655,4.52598
853,-5.40314,0.0,0.0,-0.71209,0.0,-0.0,0.79202,-8.70597,9.0282,14.89135,7.70706,-10.94861,-16.66248,0.8109,8e-05,-21.53365,-3.81203,-0.00171,24.81676,5.47521,4.35815,6.38449,-4.728,-11.4468,28.60175,11.59291,-9.85564,33.51904,-11.13632,21.42992,132.10088,0.00276,-95.8343,133.17258,-0.00186,83.42329,0.19742,6.14264,0.01254,-2.34477,-0.2696,-0.00049,2.48218,-0.07537,6.32444,-19.32777,-2.42783,5.84211,6.20814,-2.783,4.66536
854,-5.58636,-0.0,0.0,-0.6423,0.0,-0.0,0.72209,-8.64822,8.6682,14.83884,7.21408,-11.21188,-16.43033,0.82817,1e-05,-22.6457,-3.70346,-0.00161,24.80738,5.28386,4.46876,6.99426,-4.95931,-11.13204,29.09025,11.62438,-10.38603,33.3652,-11.26146,21.45775,131.73941,0.00242,-95.91628,132.9202,0.00351,84.24033,-0.67162,6.70795,-0.00456,-2.64195,-0.02092,0.00026,2.59541,-0.02944,6.41074,-19.2105,-2.41724,5.93938,6.2316,-2.91044,4.63689
855,-5.58567,0.0,0.0,-0.49691,-0.0,0.0,0.51031,-8.20133,8.21869,14.65611,6.91813,-11.3602,-16.15057,0.82332,-8e-05,-23.73444,-3.61607,-0.00014,24.69183,5.07604,4.67732,7.51217,-5.21116,-10.91642,29.46236,11.69297,-10.95548,33.32222,-11.28629,21.51057,131.30519,-0.00241,-96.21216,132.60938,0.00841,86.07127,-2.26651,7.7396,-0.02177,-2.51603,0.49453,0.00333,2.67421,-0.01849,6.38375,-19.13257,-2.39706,5.91838,6.18842,-3.05387,4.49659
856,-5.44574,-0.0,0.0,-0.10233,0.0,0.0,0.18388,-7.57267,7.7845,14.27513,7.02264,-11.33003,-15.78315,0.79186,-0.00019,-24.72038,-3.58636,0.00101,24.46234,4.89663,4.99584,7.95745,-5.46333,-10.77985,29.73762,11.73108,-11.61245,33.31529,-11.21626,21.56299,130.91342,-0.00674,-97.28834,132.32764,0.00602,88.20473,-4.40233,8.66745,-0.01684,-1.97257,1.06109,0.00409,2.69639,-0.03739,6.25953,-19.11543,-2.36845,5.79592,6.08443,-3.21729,4.35131
857,-5.28158,0.0,-0.0,0.50293,-0.0,0.0,-0.16363,-7.04577,7.44832,13.7322,7.47672,-11.23561,-15.39461,0.74257,-0.00018,-25.5841,-3.5743,0.00083,24.20898,4.77833,5.28993,8.36923,-5.67269,-10.59615,30.02459,11.69524,-12.22446,33.25324,-11.11389,21.59176,130.62909,-0.00567,-98.33138,132.14929,0.00084,89.43706,-5.98738,9.18976,0.00221,-1.33359,1.42363,0.0015,2.69141,-0.01686,6.10647,-19.12581,-2.29251,5.66134,5.94843,-3.37486,4.27165
858,-5.26997,0.0,0.0,1.04234,0.0,0.0,-0.38373,-6.72041,7.26974,13.12803,8.10499,-11.21701,-15.10013,0.69099,-9e-05,-26.38307,-3.52097,5e-05,24.03923,4.69889,5.38222,8.78622,-5.83163,-10.26607,30.35323,11.58206,-12.61339,33.12016,-11.07097,21.55988,130.52838,-0.00508,-98.3126,132.05994,-0.00122,89.25159,-6.16781,9.31662,0.0112,-0.90926,1.5197,-0.00049,2.72335,0.09036,5.97534,-19.09712,-2.14424,5.5794,5.81248,-3.49544,4.27144
859,-5.34274,0.0,0.0,1.28728,-0.0,-0.0,-0.44643,-6.51065,7.22485,12.57015,8.70847,-11.28102,-14.92701,0.65439,-2e-05,-27.20993,-3.42476,-0.00018,23.9817,4.59681,5.2523,9.23591,-5.98955,-9.8765,30.67042,11.41736,-12.91892,32.98819,-11.16011,21.4247,130.5703,-0.00604,-97.84484,131.97652,-0.00192,87.99079,-5.60625,9.1213,0.01114,-0.7597,1.41976,-0.00077,2.81291,0.23682,5.8749,-19.00924,-1.97094,5.54057,5.69451,-3.58606,4.32959
860,-5.30255,-0.0,-0.0,1.32912,-0.0,0.0,-0.4715,-6.4147,7.24759,12.11334,9.14751,-11.35685,-14.77998,0.65299,3e-05,-28.10923,-3.31934,2e-05,23.95104,4.41168,5.00171,9.68656,-6.21337,-9.6289,30.9619,11.23867,-13.46545,32.94255,-11.35818,21.21527,130.57338,-0.00659,-98.5146,131.82652,-0.003,86.33589,-5.57098,8.68312,0.01246,-0.75644,1.21524,-0.00069,2.91988,0.32355,5.80469,-18.90372,-1.86432,5.50761,5.57509,-3.6844,4.3883
861,-5.20601,0.0,0.0,1.4662,0.0,0.0,-0.54886,-6.58336,7.29617,11.70454,9.37859,-11.43235,-14.56605,0.69768,0.00011,-29.04308,-3.20138,-5e-05,23.83794,4.15949,4.70148,10.06118,-6.49304,-9.58691,31.26949,11.08806,-14.27379,32.99682,-11.5552,21.03627,130.4303,-0.00337,-100.10101,131.58939,-0.00329,84.86922,-6.04196,8.37547,0.01458,-0.82185,0.87369,-0.00045,3.00352,0.30642,5.74689,-18.82235,-1.85874,5.44755,5.41456,-3.78676,4.3803
862,-5.14453,0.0,-0.0,1.82534,-0.0,0.0,-0.68834,-6.97819,7.27385,11.22329,9.39852,-11.47949,-14.29294,0.77954,0.00013,-29.95868,-3.05773,-5e-05,23.6556,3.93083,4.43039,10.36899,-6.74114,-9.64085,31.60406,10.99528,-14.98996,33.09579,-11.65847,20.95121,130.24597,0.00287,-100.12911,131.30949,-0.00161,83.98376,-5.93088,8.71537,0.02395,-0.99787,0.27812,0.00058,3.05572,0.21753,5.64712,-18.77474,-1.90416,5.32182,5.22124,-3.85212,4.27876
863,-5.01847,0.0,-0.0,2.24139,0.0,0.0,-0.87908,-7.22194,7.04615,10.62628,9.20521,-11.37651,-14.00992,0.87484,3e-05,-30.86586,-2.90631,0.00012,23.52997,3.76277,4.31983,10.74441,-6.93099,-9.67048,31.90512,10.94711,-15.27411,33.1771,-11.64519,20.9332,130.22603,-0.00612,-96.9931,131.09389,-0.00016,83.99469,-4.73554,9.59359,0.02595,-1.34353,-0.50671,0.0017,3.05299,0.09316,5.47755,-18.78479,-1.95654,5.11804,5.07209,-3.88957,4.10109
864,-4.88329,0.0,-0.0,2.54538,-0.0,-0.0,-1.05422,-7.05416,6.63624,9.98386,8.85211,-11.08118,-13.72397,0.95926,-6e-05,-31.78807,-2.7447,-0.0002,23.52539,3.60546,4.42452,11.28027,-7.13262,-9.59251,32.09893,10.88811,-15.09372,33.21361,-11.54468,20.89555,130.47707,-0.02105,-92.06975,131.07111,-0.00092,84.7545,-2.88477,10.14141,-0.00344,-1.78082,-1.15937,0.00185,2.93746,-0.04031,5.31459,-18.90737,-2.01979,4.91701,5.03226,-3.94753,3.90441
865,-4.94671,0.0,0.0,2.78998,0.0,-0.0,-1.13273,-6.69519,6.17913,9.34272,8.50081,-10.73038,-13.42927,1.03224,-2e-05,-32.6702,-2.54734,-0.0006,23.57442,3.44598,4.68343,11.90193,-7.37348,-9.37325,32.17724,10.76871,-14.71201,33.22266,-11.44052,20.68662,130.88692,-0.0146,-88.26595,131.34091,0.00204,85.39297,-1.13123,9.80918,-0.03069,-1.93436,-1.25854,0.00666,2.71804,-0.11787,5.28501,-19.12877,-2.08078,4.86065,5.07419,-4.00915,3.773
866,-5.14473,0.0,0.0,3.13008,0.0,0.0,-1.14869,-6.52346,5.70254,8.6537,8.32503,-10.46195,-13.16086,1.11867,0.0001,-33.43102,-2.32969,-0.00038,23.59146,3.33659,5.01664,12.46381,-7.59031,-9.09692,32.19157,10.59506,-14.46123,33.2388,-11.45045,20.1776,131.20538,-0.0011,-87.37267,131.90718,0.00919,85.2201,-0.24726,9.11771,-0.02602,-1.4397,-0.59476,0.01827,2.53715,-0.07179,5.40669,-19.30512,-2.08329,4.99083,5.1085,-3.99887,3.74153
867,-5.28438,0.0,-0.0,3.67883,0.0,0.0,-1.17995,-6.58702,5.2209,7.84301,8.35223,-10.26418,-12.96567,1.21114,8e-05,-34.08176,-2.13432,5e-05,23.57217,3.28984,5.31333,12.91761,-7.74245,-8.88536,32.19381,10.41568,-14.41168,33.27166,-11.61415,19.48234,131.30675,-0.00101,-88.68829,132.60011,0.0084,84.627,-0.40336,8.79068,-0.01508,-0.63034,0.46677,0.01815,2.53779,0.06879,5.54825,-19.29793,-2.00545,5.17464,5.09195,-3.90091,3.75519
868,-5.46431,0.0,0.0,4.50729,0.0,-0.0,-1.18382,-6.62687,4.90581,6.88094,8.51314,-10.05381,-12.85524,1.23684,-3e-05,-34.70713,-1.98435,0.00033,23.56047,3.26679,5.40855,13.33198,-7.85305,-8.74004,32.22526,10.25465,-14.32162,33.30499,-11.80956,18.96137,131.32275,-0.0061,-89.87141,133.13332,0.00131,84.51909,-0.63758,8.65057,-0.01615,-0.36055,1.16584,0.00824,2.69423,0.19116,5.59427,-19.13838,-1.90898,5.26293,5.06584,-3.78104,3.75573
869,-5.91094,0.0,-0.0,5.55946,-0.0,0.0,-1.07285,-6.51327,4.881,5.81233,8.80394,-9.82205,-12.80525,1.14543,-7e-05,-35.35092,-1.88381,0.00051,23.5659,3.25808,5.23766,13.76479,-7.94101,-8.58364,32.32528,10.10251,-14.06489,33.33203,-11.85529,18.88105,131.42024,-0.00947,-89.51121,133.32138,-0.00069,85.08014,0.15427,8.11502,-0.02815,-0.92062,1.08726,0.00686,2.8613,0.23649,5.57926,-18.97127,-1.86132,5.26584,5.07108,-3.69487,3.74091
870,-6.60098,0.0,-0.0,6.52779,0.0,-0.0,-0.90053,-6.43182,4.9957,4.75667,9.21147,-9.62473,-12.77331,0.99627,-7e-05,-35.99265,-1.81363,0.00032,23.55327,3.28906,4.95202,14.19461,-8.00327,-8.39153,32.48233,9.97697,-13.87248,33.36886,-11.71202,19.14478,131.57201,-0.00723,-88.41567,133.2272,-6e-05,85.64024,1.80856,7.29639,-0.02679,-1.71741,0.51826,0.00544,2.94721,0.25965,5.61854,-18.88372,-1.85442,5.31095,5.07628,-3.64523,3.71767
871,-7.23984,-0.0,-0.0,6.94796,0.0,-0.0,-0.8105,-6.54727,5.00008,3.8588,9.54991,-9.45069,-12.72261,0.8976,-6e-05,-36.62764,-1.73523,-0.00032,23.50772,3.36245,4.77974,14.59722,-8.05105,-8.20877,32.6056,9.9192,-13.94322,33.4278,-11.53409,19.41206,131.69858,-0.00199,-87.9694,133.06789,-0.00037,85.58663,3.11879,6.79487,-0.00942,-2.05602,0.00315,0.00036,2.93382,0.32852,5.77048,-18.89095,-1.84699,5.47768,5.03592,-3.60788,3.67576
872,-7.43388,0.0,0.0,6.50725,0.0,-0.0,-0.8586,-6.72506,4.79499,3.21527,9.6006,-9.19895,-12.6458,0.9018,1e-05,-37.30692,-1.63573,-0.00071,23.47938,3.43678,4.82293,15.01857,-8.11604,-8.10909,32.62613,9.92579,-14.12818,33.49005,-11.49947,19.42454,131.8598,0.00094,-88.30421,132.99429,-0.00022,84.94057,3.21172,6.72974,0.00084,-1.76085,-0.2334,-0.00142,2.80127,0.41632,5.97627,-19.01495,-1.84197,5.70147,4.98742,-3.5569,3.61132
873,-6.91656,0.0,-0.0,5.27865,-0.0,0.0,-1.0134,-6.71406,4.39371,2.81169,9.38289,-8.7858,-12.54481,0.99218,0.00014,-38.08004,-1.56289,5e-05,23.53111,3.45221,5.05568,15.53059,-8.23632,-8.15613,32.58812,9.95703,-14.18308,33.51624,-11.64365,19.17901,132.13855,6e-05,-88.69689,133.01694,0.0003,84.1347,2.34256,6.62954,0.0068,-1.16646,-0.31996,-0.00066,2.58102,0.44672,6.11605,-19.22959,-1.86569,5.84262,5.01995,-3.49786,3.53717
874,-5.9251,0.0,0.0,3.74836,0.0,-0.0,-1.2335,-6.4525,3.84222,2.50161,9.13869,-8.24819,-12.39464,1.11511,0.00029,-38.91984,-1.5667,0.00113,23.63419,3.37674,5.40589,16.12457,-8.43898,-8.32615,32.56473,10.02221,-14.04875,33.48571,-11.88815,18.80825,132.47681,-0.0022,-88.69321,133.10896,0.00137,83.32298,1.50398,6.18221,0.00964,-0.71317,-0.41219,0.00018,2.418,0.42266,6.13407,-19.39222,-1.89472,5.85041,5.13809,-3.4815,3.46835
875,-5.28236,0.0,0.0,2.62526,0.0,0.0,-1.42306,-6.12713,3.32614,2.09386,9.07411,-7.74019,-12.17109,1.19817,0.00023,-39.73159,-1.59785,0.0008,23.66958,3.2366,5.72321,16.69046,-8.71347,-8.47108,32.56041,10.17637,-13.79191,33.44297,-12.13669,18.42327,132.74037,-0.00168,-88.22393,133.23921,0.00233,82.20329,1.4598,5.64816,0.00931,-0.52406,-0.52575,0.00045,2.43926,0.41395,6.05979,-19.37387,-1.87521,5.77818,5.23111,-3.54193,3.40443
876,-5.51299,-0.0,-0.0,2.3018,0.0,-0.0,-1.48228,-5.92667,3.12576,1.53519,9.18174,-7.35749,-11.89847,1.1826,-2e-05,-40.44707,-1.5682,-0.0002,23.55625,3.09408,5.82238,17.1292,-9.01066,-8.48595,32.57064,10.40735,-13.56095,33.49706,-12.28229,18.15063,132.80257,0.00293,-87.36855,133.31883,0.00187,80.99592,1.9976,5.56606,0.00468,-0.4817,-0.57689,2e-05,2.60622,0.44319,5.91106,-19.2121,-1.79279,5.6509,5.19984,-3.64341,3.33421
877,-6.09648,0.0,0.0,2.4873,-0.0,-0.0,-1.47352,-5.80358,3.29775,0.9548,9.26382,-7.0229,-11.61567,1.06746,-0.00016,-41.07377,-1.49313,-0.00024,23.31296,2.99673,5.68406,17.43558,-9.27757,-8.46059,32.64339,10.61311,-13.68786,33.71544,-12.21941,18.14285,132.51003,0.00502,-86.52368,133.26566,0.00319,80.77127,1.94762,6.3404,-0.02857,-0.52183,-0.42395,-0.00071,2.79381,0.48799,5.69691,-19.03175,-1.6716,5.46868,5.04885,-3.72823,3.25465
878,-6.32335,0.0,-0.0,2.64607,-0.0,0.0,-1.54939,-5.61554,3.57187,0.48522,9.10481,-6.65213,-11.31084,0.90815,-0.00013,-41.63515,-1.43085,0.00017,22.99488,2.95114,5.46994,17.65261,-9.48777,-8.5181,32.80113,10.71128,-14.48416,34.02838,-11.94702,18.40616,131.79628,-0.00411,-86.38445,133.11226,0.00502,81.85921,0.42686,7.82886,-0.07015,-0.60281,0.02438,-0.00076,2.95363,0.53499,5.48791,-18.87877,-1.55025,5.29207,4.85646,-3.78352,3.16638
879,-6.3461,-0.0,-0.0,2.58587,0.0,-0.0,-1.71706,-5.37354,3.66559,0.13808,8.71995,-6.30453,-10.95433,0.75293,-0.00013,-42.11997,-1.37048,0.00022,22.65615,2.93623,5.29913,17.81392,-9.64857,-8.64058,32.96881,10.70037,-15.76034,34.29114,-11.61432,18.7515,130.89877,-0.01277,-87.38052,132.9567,0.00305,83.08753,-1.7757,9.14139,-0.0559,-0.65893,0.62207,6e-05,3.09973,0.57294,5.35031,-18.73698,-1.46385,5.17842,4.71191,-3.83499,3.07186
880,-6.74883,-0.0,-0.0,2.39679,0.0,-0.0,-1.81322,-5.19152,3.5684,-0.11924,8.41225,-6.09668,-10.58867,0.59577,-0.00019,-42.51729,-1.28579,0.0001,22.36806,2.92915,5.15952,17.94479,-9.78941,-8.74865,33.04816,10.61761,-16.84313,34.40733,-11.40421,18.99642,130.25163,-0.00521,-89.23087,132.84572,0.00027,83.49934,-2.93148,9.40188,-0.02214,-0.73,1.00767,0.001,3.18876,0.60923,5.2555,-18.65079,-1.3949,5.1039,4.66268,-3.90338,2.99853
881,-7.68012,-0.0,0.0,2.13415,-0.0,0.0,-1.69397,-5.13564,3.44828,-0.27728,8.47015,-6.0883,-10.3165,0.4212,-0.0001,-42.84875,-1.16765,-0.00013,22.19817,2.91158,5.04904,18.06994,-9.94317,-8.77608,33.01337,10.48472,-17.17071,34.37563,-11.39894,19.09279,130.1326,0.00233,-90.85437,132.78229,-0.00131,83.53147,-2.4753,8.7757,-0.01231,-0.91186,0.92236,0.00226,3.12593,0.6813,5.14367,-18.71668,-1.2864,5.02689,4.68537,-3.98509,2.99318
882,-8.70288,0.0,-0.0,1.81583,0.0,0.0,-1.414,-5.19363,3.38287,-0.31389,8.85522,-6.22372,-10.18446,0.2665,8e-05,-43.13724,-1.00451,-0.00037,22.16047,2.86614,5.06197,18.21231,-10.12924,-8.68584,32.8869,10.311,-16.68758,34.27487,-11.55467,19.05662,130.51198,-0.00871,-90.97101,132.78676,-0.0029,84.02654,-1.34765,8.16984,-0.00302,-1.16977,0.45813,0.00224,2.88228,0.79133,5.01461,-18.96366,-1.13625,4.94803,4.72606,-4.06894,3.07792
883,-9.15245,-0.0,0.0,1.52638,-0.0,0.0,-1.23031,-5.28742,3.26994,-0.23322,9.26605,-6.33569,-10.12017,0.19219,0.00012,-43.36959,-0.83903,-0.00026,22.19585,2.79078,5.27095,18.37494,-10.33288,-8.55803,32.69031,10.14537,-15.77336,34.20041,-11.75203,18.92594,131.12787,-0.0164,-89.73466,132.84148,-0.00372,85.02714,-0.59114,8.13221,0.00302,-1.31635,-0.13849,-0.0006,2.53597,0.88191,4.90807,-19.31274,-1.01254,4.88286,4.76308,-4.15066,3.21512
884,-8.67147,-0.0,0.0,1.30323,-0.0,0.0,-1.37409,-5.32944,2.97968,-0.04746,9.42395,-6.31322,-10.00875,0.21683,0.00019,-43.50891,-0.75826,-3e-05,22.2053,2.7163,5.60857,18.51018,-10.49397,-8.55486,32.48191,10.07224,-15.00836,34.18497,-11.88245,18.80362,131.61038,-0.00941,-89.04441,132.82251,-0.00303,85.78515,-0.60154,8.5601,-0.00202,-1.20613,-0.76596,-0.00383,2.2126,0.91183,4.84458,-19.63794,-0.96114,4.83505,4.80048,-4.21521,3.33305
885,-7.54499,-0.0,-0.0,1.03705,0.0,0.0,-1.80089,-5.32151,2.5395,0.25018,9.22718,-6.24223,-9.81737,0.30942,0.0003,-43.54093,-0.76492,-0.0,22.13755,2.67784,5.93056,18.5546,-10.55576,-8.71786,32.37457,10.11589,-14.85214,34.20272,-11.91232,18.85287,131.69644,-0.01024,-90.20234,132.61497,-0.00174,85.90668,-1.27978,9.08768,-0.00599,-1.01945,-1.32018,-0.00419,2.02335,0.90919,4.80426,-19.82847,-0.94859,4.79666,4.83483,-4.242,3.39395
886,-6.51171,0.0,0.0,0.66294,0.0,-0.0,-2.20796,-5.37284,2.17473,0.67034,8.83376,-6.31049,-9.61411,0.40844,0.00021,-43.49485,-0.75179,3e-05,22.03421,2.66348,6.10269,18.50706,-10.54532,-8.90178,32.431,10.20373,-15.2694,34.23307,-11.86742,19.1723,131.4431,-0.01219,-92.0484,132.30597,0.00083,85.99351,-1.96607,9.32793,-0.00182,-1.17126,-1.49941,-0.005,2.00953,0.92597,4.75292,-19.84378,-0.9139,4.75525,4.85926,-4.25193,3.41338
887,-6.143,0.0,0.0,0.31993,-0.0,0.0,-2.31316,-5.57383,2.14794,1.18554,8.6459,-6.61734,-9.4734,0.44243,2e-05,-43.40411,-0.66123,6e-05,21.96013,2.63193,6.01765,18.4246,-10.55189,-8.98017,32.56549,10.26628,-15.71795,34.27231,-11.78685,19.62457,131.16284,-0.00712,-92.06126,132.1575,0.00083,86.58371,-1.64937,9.10232,-0.00183,-1.71895,-1.11673,-0.00691,2.10412,0.96448,4.67995,-19.75122,-0.851,4.70186,4.88017,-4.29655,3.43253
888,-6.30659,0.0,0.0,0.16091,-0.0,0.0,-2.11717,-5.81626,2.47408,1.7333,8.92052,-7.10801,-9.39879,0.38025,-8e-05,-43.26754,-0.59671,-0.00026,21.93264,2.57299,5.70714,18.3597,-10.61576,-9.03561,32.6066,10.30917,-15.69007,34.31608,-11.70017,19.91816,131.105,-0.00844,-89.44246,132.30064,-0.00059,87.30087,-0.02194,8.54056,-0.00797,-2.21664,-0.46169,-0.0035,2.17362,0.97501,4.58689,-19.68448,-0.80659,4.61941,4.92894,-4.39238,3.51001
889,-6.40334,0.0,0.0,0.18359,-0.0,0.0,-1.8686,-5.82365,2.84736,2.25334,9.42508,-7.7168,-9.3414,0.25938,-0.0001,-43.06635,-0.67065,-0.0006,21.93033,2.50711,5.42011,18.32257,-10.69931,-9.20955,32.46602,10.35683,-15.19172,34.36841,-11.61967,19.9593,131.25107,-0.00629,-86.44051,132.5545,-0.00022,87.58889,2.11734,7.79606,-0.00987,-2.38442,-0.0607,0.00052,2.11613,0.92849,4.47406,-19.74557,-0.80776,4.49737,5.04375,-4.51546,3.69022
890,-6.15228,0.0,-0.0,0.38005,0.0,0.0,-1.75867,-5.47556,2.97392,2.71784,9.70401,-8.5119,-9.27557,0.14283,-7e-05,-42.77877,-0.80289,0.00011,21.92057,2.44582,5.38378,18.25468,-10.75756,-9.46535,32.23634,10.40148,-14.6141,34.42979,-11.55719,19.92044,131.39867,0.00113,-85.4845,132.69373,-0.00039,87.43943,3.83873,7.00932,-0.00355,-2.43898,-0.07238,0.00073,1.94384,0.87051,4.37309,-19.92109,-0.82398,4.38208,5.20778,-4.64095,3.92079
891,-5.78116,0.0,-0.0,0.8158,-0.0,-0.0,-1.74301,-4.98146,2.87082,3.15976,9.58345,-9.55527,-9.23426,0.06633,2e-05,-42.36499,-0.8459,0.00148,21.86962,2.39594,5.54215,18.0396,-10.76911,-9.7178,32.09572,10.43525,-14.29386,34.47069,-11.55552,19.90314,131.3801,0.00201,-86.40069,132.76364,-0.00045,87.13451,4.83371,6.53077,0.00399,-2.57317,-0.1058,0.00012,1.78927,0.87098,4.32893,-20.07691,-0.80709,4.34127,5.32945,-4.74293,4.07433
892,-5.50498,-0.0,-0.0,1.41923,-0.0,-0.0,-1.69803,-4.61607,2.72601,3.65473,9.26742,-10.70023,-9.2552,0.03531,7e-05,-41.79546,-0.85074,0.00134,21.7644,2.37331,5.68877,17.61704,-10.71906,-10.06613,32.09703,10.48231,-14.27285,34.4647,-11.66219,19.80926,131.20752,-0.00013,-87.82089,132.94229,0.00088,86.81124,5.15413,6.64071,0.00371,-2.56054,0.28745,0.00336,1.78659,0.92446,4.33603,-20.07911,-0.7601,4.36778,5.33569,-4.79101,4.11451
893,-5.24056,0.0,-0.0,1.89976,0.0,0.0,-1.61369,-4.43287,2.62595,4.24344,9.0157,-11.71521,-9.32163,0.04866,8e-05,-41.11578,-1.00756,-0.00075,21.65015,2.36652,5.753,17.09713,-10.6199,-10.66155,32.1126,10.57645,-14.36093,34.44641,-11.83086,19.60344,131.03525,-7e-05,-89.24236,133.22092,0.00234,86.36642,4.93843,7.11798,-0.00025,-2.13014,1.03596,0.00769,1.92019,0.94938,4.36212,-19.94465,-0.74669,4.40128,5.27986,-4.7989,4.14626
894,-4.81394,-0.0,-0.0,2.01547,0.0,0.0,-1.57078,-4.34232,2.55205,4.86327,8.87369,-12.54662,-9.40118,0.10369,5e-05,-40.43546,-1.37619,-0.00232,21.61646,2.33287,5.81287,16.68455,-10.51389,-11.43212,32.00733,10.72554,-14.3232,34.51245,-11.90798,19.46847,130.99318,0.00139,-90.56523,133.39545,0.00108,85.61481,4.50103,7.48029,-4e-05,-1.50321,1.51513,0.00576,2.02699,0.89475,4.43388,-19.83606,-0.82411,4.44752,5.29898,-4.83713,4.25977
895,-4.32906,0.0,-0.0,1.83847,0.0,0.0,-1.58135,-4.34662,2.5701,5.36633,8.73883,-13.3351,-9.51786,0.18415,-5e-05,-39.81311,-1.81548,-0.00228,21.7049,2.25968,5.88708,16.45936,-10.4113,-12.08743,31.76326,10.89669,-14.03878,34.74761,-11.79954,19.6101,131.09259,0.00132,-91.43567,133.28865,-0.0027,84.56882,4.2017,7.57765,0.00104,-1.2226,1.1274,0.00672,1.97283,0.79735,4.62998,-19.88502,-0.98752,4.59325,5.44861,-4.95207,4.43583
896,-4.18916,0.0,0.0,1.66344,-0.0,0.0,-1.54135,-4.54918,2.84264,5.64058,8.5232,-14.18382,-9.72551,0.26318,-0.00013,-39.16785,-2.14875,-0.00154,21.8518,2.17818,5.85648,16.28207,-10.27487,-12.41916,31.42808,11.0323,-13.60431,35.11478,-11.59913,20.00758,131.26382,-0.00013,-91.72308,132.91412,-0.00399,83.52098,4.05643,7.66506,-0.0013,-1.47504,-0.01428,0.01105,1.7984,0.71725,4.95124,-20.05012,-1.18143,4.86163,5.63553,-5.10507,4.62532
897,-4.69384,0.0,0.0,1.69696,0.0,0.0,-1.34552,-4.96846,3.42675,5.7503,8.20186,-15.06061,-10.02556,0.31661,-6e-05,-38.34828,-2.27854,0.00051,21.9553,2.11499,5.5861,15.93823,-10.08775,-12.48485,31.07356,11.09756,-13.34015,35.43827,-11.47376,20.42697,131.39778,-0.00124,-91.66013,132.4883,-0.00166,82.78308,3.65211,7.90754,-0.00546,-1.89523,-1.10068,0.00646,1.65555,0.67105,5.24051,-20.18395,-1.33194,5.11299,5.74079,-5.21874,4.81843
898,-5.68702,0.0,0.0,1.86047,0.0,-0.0,-0.99843,-5.45851,4.17179,5.93874,7.82671,-15.93396,-10.3594,0.3354,8e-05,-37.29718,-2.16937,0.00368,21.9793,2.05599,5.05571,15.33907,-9.90311,-12.48457,30.80668,11.10359,-13.59252,35.56178,-11.45727,20.66328,131.37477,-0.00152,-91.47523,132.24379,-4e-05,82.45425,2.53559,8.10569,-0.00322,-2.03352,-1.46079,0.00038,1.62347,0.64459,5.33634,-20.21305,-1.39214,5.19211,5.76391,-5.27111,5.0026
899,-6.45865,0.0,-0.0,1.83355,-0.0,0.0,-0.65092,-5.77714,4.80637,6.44003,7.47516,-16.75309,-10.668,0.33865,0.00011,-36.12582,-1.90767,0.00393,21.96341,1.95814,4.43505,14.57393,-9.79995,-12.65032,30.70254,11.08557,-14.38878,35.52802,-11.41397,20.72835,131.16869,-0.00137,-91.2725,132.18764,-0.0005,82.38016,0.68242,7.98837,0.00838,-1.73253,-1.16096,0.00064,1.64724,0.60869,5.31276,-20.1904,-1.4167,5.15687,5.79891,-5.31968,5.13001
900,-6.45259,-0.0,0.0,1.40329,0.0,-0.0,-0.44301,-5.75035,5.19595,7.28151,7.18131,-17.43726,-10.93266,0.35035,0.00013,-35.02639,-1.68582,0.0008,21.95214,1.80644,3.98343,13.82059,-9.79066,-13.07732,30.71627,11.08669,-15.30466,35.54886,-11.21056,20.78712,130.91226,-0.00041,-91.27399,132.13715,-0.00102,82.3385,-1.33166,7.5517,0.01773,-1.11889,-0.65695,0.0022,1.66362,0.52078,5.42041,-20.17122,-1.53834,5.22411,5.8966,-5.42744,5.20841
901,-6.16171,0.0,-0.0,0.76518,0.0,0.0,-0.29152,-5.46032,5.53,8.28943,6.96624,-18.09826,-11.17477,0.36643,0.0002,-34.11147,-1.57676,-0.00103,21.95982,1.63403,3.75798,13.21187,-9.81174,-13.52955,30.71309,11.14329,-15.7859,35.77671,-10.89049,20.95665,130.79439,0.00471,-91.95686,131.98187,-0.00021,82.42681,-2.66321,6.98297,0.01974,-0.53828,-0.23408,0.00146,1.70827,0.37204,5.76647,-20.11611,-1.80509,5.49015,6.0193,-5.59854,5.35969
902,-6.34866,0.0,-0.0,0.25655,0.0,-0.0,-0.03874,-5.19017,6.01673,9.25244,6.8649,-18.9417,-11.43809,0.39207,-3e-05,-33.33353,-1.51044,-0.00066,22.00384,1.46979,3.57824,12.74835,-9.79712,-13.75519,30.56877,11.26016,-15.57978,36.14901,-10.64426,21.21789,130.95355,0.0115,-93.30981,131.77399,0.00091,82.90109,-2.79022,6.32068,0.01599,-0.38646,0.03991,0.00019,1.82883,0.22202,6.2136,-19.98096,-2.11054,5.84971,6.12993,-5.78816,5.67248
903,-6.79204,0.0,0.0,-0.04418,-0.0,0.0,0.28453,-5.17111,6.52336,10.05653,6.89101,-19.92526,-11.76313,0.4704,-0.00064,-32.56315,-1.47056,-0.0004,22.11878,1.31437,3.33495,12.33092,-9.71836,-13.8795,30.24296,11.41339,-14.79874,36.48065,-10.62021,21.46842,131.46931,0.00325,-94.20839,131.59801,0.00025,83.48331,-1.65563,5.31934,-0.00527,-0.69084,0.19389,0.00043,1.9563,0.1466,6.58532,-19.84003,-2.31863,6.16706,6.25092,-5.94536,6.07289
904,-6.88323,0.0,-0.0,-0.22939,-0.0,0.0,0.55393,-5.46383,6.86111,10.72453,6.99571,-20.87625,-12.14275,0.59673,-0.00084,-31.71657,-1.48655,-0.00052,22.28919,1.16695,3.08468,11.86396,-9.59326,-14.1192,29.79806,11.5728,-13.67559,36.65758,-10.79186,21.60962,132.31364,-0.02134,-93.47839,131.49367,-0.00084,83.59633,0.57569,3.73958,-0.04365,-1.02725,0.35547,0.00161,1.96815,0.1745,6.80953,-19.8186,-2.37596,6.38579,6.40313,-6.0655,6.44683
905,-6.57084,-0.0,0.0,-0.33665,-0.0,0.0,0.716,-5.93638,7.13968,11.35668,7.06226,-21.74274,-12.50642,0.67289,-0.00018,-30.78224,-1.53341,-0.00038,22.41613,1.03,2.88237,11.30525,-9.4808,-14.46,29.34468,11.7401,-12.40617,36.69727,-11.01358,21.63346,133.26971,-0.03054,-91.37083,131.48149,-0.00061,83.28429,3.42783,1.75197,-0.0589,-1.08008,0.60393,0.00247,1.83947,0.28269,6.89059,-19.94223,-2.30558,6.50131,6.5519,-6.20003,6.77457
906,-5.96602,0.0,-0.0,-0.40149,0.0,0.0,0.73276,-6.2902,7.49327,12.01444,6.96182,-22.49633,-12.80714,0.64004,0.00041,-29.77968,-1.58198,-0.00025,22.43189,0.88871,2.76033,10.65569,-9.43154,-14.86534,28.94875,11.98491,-11.21728,36.67446,-11.19281,21.63271,133.99295,-0.01352,-89.51975,131.55928,5e-05,83.02449,5.89555,0.03323,-0.0285,-0.98414,0.83829,0.00199,1.65486,0.41797,6.86246,-20.12607,-2.16952,6.52539,6.66,-6.3823,7.05778
907,-5.12961,0.0,0.0,-0.51811,0.0,0.0,0.61103,-6.27563,7.81929,12.67981,6.66146,-23.09959,-13.10861,0.57526,0.00023,-28.75596,-1.62294,1e-05,22.39796,0.71078,2.76402,9.95782,-9.44419,-15.34923,28.58811,12.39071,-10.35436,36.68186,-11.33187,21.70671,134.25804,-0.00048,-89.38885,131.67099,0.00035,83.0974,6.92617,-0.64766,-0.00329,-0.97486,1.01188,0.00109,1.51136,0.53241,6.77137,-20.27188,-2.02945,6.48325,6.73904,-6.58376,7.25569
908,-4.41382,0.0,0.0,-0.73051,-0.0,0.0,0.5094,-5.89564,8.0046,13.30197,6.28043,-23.56786,-13.51947,0.57884,-0.00047,-27.78679,-1.64892,2e-05,22.43027,0.48883,2.90077,9.30551,-9.48424,-15.80701,28.19408,12.95417,-9.79258,36.83678,-11.38269,21.88686,134.19977,-0.00027,-90.63625,131.73528,0.0008,83.6794,6.38304,-0.23625,-0.01,-1.07546,1.2917,0.00047,1.44903,0.62817,6.69407,-20.33623,-1.91185,6.44699,6.82139,-6.76261,7.36516
909,-4.12467,-0.0,0.0,-0.97634,-0.0,-0.0,0.59438,-5.38249,8.08814,13.83702,5.96976,-23.87242,-14.07246,0.64622,-0.0008,-26.92618,-1.68188,-0.00069,22.58459,0.2791,3.15463,8.80223,-9.52584,-16.12296,27.72189,13.58555,-9.10359,37.20067,-11.23712,22.14657,134.26186,-0.00651,-91.41978,131.7252,0.00119,84.71754,5.29828,0.3952,-0.01044,-1.25305,1.76812,0.0,1.43599,0.75349,6.74957,-20.34542,-1.81606,6.54508,6.92411,-6.90716,7.45925
910,-4.09393,0.0,-0.0,-1.15831,-0.0,0.0,0.84542,-5.05041,8.13466,14.28082,5.74123,-23.98438,-14.72502,0.70362,-0.00039,-26.15773,-1.72491,-0.00088,22.84688,0.16693,3.51932,8.46985,-9.56576,-16.32245,27.19444,14.18664,-7.8958,37.68455,-10.9246,22.44409,134.77934,-0.02104,-90.56254,131.68555,0.00067,85.66662,4.86598,0.54846,-0.00326,-1.58008,2.24162,0.0001,1.40879,0.93033,6.99526,-20.35988,-1.74297,6.83896,7.04842,-7.02257,7.62185
911,-3.97288,-0.0,-0.0,-1.24141,0.0,-0.0,1.11814,-5.08906,8.15891,14.68211,5.49359,-24.01724,-15.44164,0.70572,0.00026,-25.39614,-1.70847,0.00061,23.1838,0.19853,3.92585,8.21203,-9.59235,-16.46924,26.70431,14.71219,-6.37127,38.11486,-10.62931,22.73029,135.61124,-0.02251,-88.6358,131.66612,0.00013,85.98035,5.15229,0.66603,-0.00422,-2.05448,2.53536,0.00085,1.35047,1.09861,7.31436,-20.40175,-1.70496,7.19782,7.18777,-7.09406,7.89122
912,-3.67777,0.0,0.0,-1.28425,0.0,0.0,1.33568,-5.43196,8.20259,15.08764,5.18242,-24.10414,-16.2268,0.65934,0.00066,-24.54963,-1.5811,0.00251,23.55657,0.36331,4.20579,7.87745,-9.55165,-16.56448,26.34197,15.19915,-5.17566,38.37312,-10.47627,22.92943,136.31186,-0.00603,-86.76067,131.69209,0.00027,85.69566,5.1808,1.61176,-0.0221,-2.4191,2.81866,0.0019,1.30706,1.16864,7.50052,-20.43556,-1.70888,7.39673,7.31061,-7.0715,8.24975
913,-3.36421,0.0,0.0,-1.32768,0.0,-0.0,1.54159,-5.86813,8.33323,15.4858,4.89606,-24.15835,-17.0954,0.59728,0.00054,-23.61974,-1.42362,0.0021,23.91937,0.61139,4.26131,7.37528,-9.39652,-16.65551,26.12016,15.72398,-4.66763,38.44587,-10.45872,22.98281,136.65079,0.00663,-85.51865,131.79152,9e-05,85.31457,4.31697,3.32814,-0.03858,-2.38326,3.32333,0.00424,1.31863,1.1152,7.44393,-20.42729,-1.73756,7.32436,7.35318,-6.91313,8.64826
914,-3.1339,0.0,-0.0,-1.30858,0.0,0.0,1.801,-6.22913,8.54274,15.84118,4.76547,-23.91083,-18.04928,0.55487,4e-05,-22.7217,-1.39306,-0.0005,24.2621,0.87277,4.22833,6.76419,-9.1716,-16.88885,26.00727,16.31459,-4.62806,38.39965,-10.53461,22.92202,136.78098,0.00897,-85.30568,131.97833,-0.00112,85.29849,2.88222,4.85552,-0.0198,-1.96259,3.94199,0.00495,1.37424,0.97264,7.21579,-20.38398,-1.78543,7.05953,7.28985,-6.6477,9.05357
915,-3.01726,-0.0,0.0,-1.1743,0.0,-0.0,2.14484,-6.44013,8.78353,16.15891,4.84022,-23.21918,-19.08804,0.54451,-0.00033,-21.97082,-1.53616,-0.00206,24.64329,1.09182,4.31336,6.21844,-8.99958,-17.29245,25.96461,16.94504,-4.65556,38.32352,-10.656,22.85155,136.91396,0.00741,-86.31723,132.2003,-0.00143,85.63908,1.49658,5.63438,0.01635,-1.43871,4.34717,0.00223,1.4287,0.77598,7.02097,-20.34065,-1.89585,6.80557,7.20917,-6.36226,9.46198
916,-3.05617,0.0,-0.0,-0.97849,-0.0,0.0,2.57555,-6.48983,9.05877,16.48033,5.0895,-22.21163,-20.2247,0.55146,-0.0003,-21.37341,-1.72169,-0.00134,25.15113,1.24721,4.51876,5.86597,-8.98962,-17.69781,25.9188,17.61225,-4.47377,38.26192,-10.7624,22.86639,137.08505,0.00359,-87.80372,132.3593,-0.00011,85.7481,0.67164,6.00446,0.04331,-1.05441,4.29434,-0.00038,1.44402,0.57232,7.03854,-20.32718,-2.0915,6.74632,7.24932,-6.12497,9.83528
917,-3.15939,0.0,0.0,-0.81464,0.0,-0.0,3.04199,-6.40339,9.37154,16.82873,5.48918,-21.10374,-21.48447,0.5601,-0.0001,-20.84191,-1.78869,0.00019,25.82182,1.34932,4.67295,5.65512,-9.15667,-17.98349,25.79667,18.35662,-3.92444,38.20481,-10.82847,23.00531,137.25983,-0.00047,-88.64521,132.39262,-0.00017,85.02255,0.90181,6.09861,0.03956,-0.8354,3.75529,-0.00134,1.42594,0.43281,7.26662,-20.33711,-2.30563,6.90651,7.43815,-5.9252,10.07346
918,-3.10579,-0.0,-0.0,-0.73639,0.0,-0.0,3.44447,-6.22693,9.69227,17.16979,6.03463,-20.00694,-22.88806,0.56378,0.0001,-20.27641,-1.703,0.001,26.58548,1.44697,4.68505,5.40087,-9.41256,-18.17319,25.58056,19.2265,-3.03784,38.13763,-10.90149,23.2487,137.44092,-0.00173,-88.64979,132.30243,-0.00179,83.56516,2.44133,5.08564,-0.031,-0.67399,2.94622,-0.00162,1.40419,0.38376,7.5664,-20.34589,-2.46231,7.16697,7.6572,-5.68696,10.14907
919,-2.75958,0.0,0.0,-0.7102,-0.0,-0.0,3.69301,-6.02995,9.99227,17.41094,6.65211,-18.88482,-24.43521,0.56437,1e-05,-19.623,-1.54139,0.00062,27.31825,1.60875,4.67559,4.96942,-9.65861,-18.31386,25.26212,20.27698,-2.09358,38.0691,-11.07178,23.52104,137.62498,-0.00091,-88.31962,132.14513,-0.00183,81.99634,4.91912,2.22857,-0.11888,-0.5671,2.24637,-0.00102,1.38859,0.35903,7.83384,-20.34921,-2.58435,7.40645,7.78759,-5.35174,10.21558
920,-2.12039,-0.0,0.0,-0.6448,0.0,-0.0,3.74737,-5.92521,10.22064,17.47335,7.13972,-17.63873,-26.13273,0.57958,-0.00018,-18.90231,-1.38257,-0.00043,27.99464,1.88168,4.83411,4.41434,-9.85366,-18.43153,24.83108,21.52943,-1.42598,38.00541,-11.36687,23.72995,137.78238,-0.00018,-87.9261,132.02644,-0.00013,80.84839,7.29006,-1.7164,-0.10346,-0.6713,1.98828,-0.00098,1.37818,0.25592,8.05999,-20.35039,-2.76387,7.57853,7.82983,-4.92281,10.46245
921,-1.39812,0.0,-0.0,-0.56426,-0.0,0.0,3.65101,-6.07466,10.37166,17.42553,7.23767,-16.387,-28.04785,0.60636,0.00129,-18.20291,-1.21848,-0.00071,28.76657,2.2898,5.12174,3.92697,-9.96363,-18.44724,24.37704,22.88281,-1.17887,37.91852,-11.67821,23.85016,137.91046,-0.00021,-87.48177,132.02809,-3e-05,80.49107,8.33787,-4.87899,-0.02085,-1.01919,2.1722,-0.00171,1.37543,0.02555,8.26827,-20.34712,-3.05498,7.68688,7.8551,-4.40266,10.90896
922,-0.97687,0.0,-0.0,-0.59224,-0.0,0.0,3.47505,-6.55648,10.51017,17.44789,6.86423,-15.4866,-30.25817,0.61321,0.0034,-17.60215,-0.96929,0.00018,29.80844,2.84232,5.28605,3.6299,-9.93942,-18.18231,24.07357,24.18226,-1.22474,37.76973,-11.8538,23.94005,138.05144,-0.00022,-87.0472,132.10315,-0.00146,80.96326,7.73377,-6.13843,0.00309,-1.2749,2.39244,-0.00242,1.35314,-0.30141,8.47643,-20.36581,-3.43576,7.75938,7.88414,-3.75078,11.40173
923,-0.93953,-0.0,-0.0,-0.67877,0.0,-0.0,3.13715,-7.19036,10.53913,17.58363,6.33109,-15.03909,-32.70907,0.63035,0.00114,-17.08172,-0.6253,0.00111,31.08356,3.49813,5.27698,3.43017,-9.79721,-17.6858,23.9867,25.41706,-1.27112,37.5772,-11.83142,24.07541,138.23401,0.00106,-86.83852,132.10136,-0.00231,81.59447,6.58428,-6.15396,-0.01319,-0.96249,2.23492,-0.00694,1.24955,-0.65932,8.694,-20.46679,-3.84877,7.8292,7.84695,-2.96416,11.75284
924,-0.98602,0.0,0.0,-0.67236,0.0,-0.0,2.41676,-7.69176,10.20501,17.70045,6.13185,-14.74527,-35.2017,0.73707,-0.00511,-16.57074,-0.30662,0.001,32.37318,4.16001,5.31607,3.15259,-9.64459,-17.27679,24.01426,26.7358,-1.18966,37.41039,-11.63797,24.31568,138.39227,0.00247,-87.14552,131.91791,-0.00326,81.66015,6.1872,-6.22261,-0.0241,-0.05432,1.70552,-0.0099,1.04567,-0.9968,8.8783,-20.67006,-4.23049,7.87564,7.67495,-2.14427,11.88313
925,-0.9233,0.0,0.0,-0.59601,0.0,-0.0,1.23176,-7.96034,9.43719,17.69413,6.48637,-14.2811,-37.55266,0.9158,-0.00852,-16.06154,-0.16044,-0.00018,33.53427,4.76038,5.51444,2.79592,-9.57759,-17.17301,24.06251,28.25816,-1.25396,37.2795,-11.33537,24.70192,138.35553,0.00209,-87.96275,131.60419,-0.00237,81.32999,6.4177,-6.48896,-0.03022,0.83787,1.08698,-0.00412,0.83617,-1.29153,8.94462,-20.88452,-4.52882,7.82804,7.41235,-1.42067,11.89758
926,-0.74878,0.0,-0.0,-0.54607,-0.0,0.0,-0.23435,-8.06622,8.45533,17.5452,7.2195,-13.49341,-39.69078,1.00232,-0.00452,-15.62057,-0.23818,-0.0011,34.58504,5.35082,5.72803,2.54372,-9.6075,-17.30382,24.13347,29.98993,-1.751,37.0985,-11.01058,25.23077,138.03969,0.00359,-88.74702,131.3382,0.00026,81.10798,6.22842,-6.10724,-0.0382,1.10929,0.58719,0.00222,0.77582,-1.53804,8.92791,-20.95312,-4.75164,7.72093,7.17954,-0.83363,11.99979
927,-0.4301,0.0,-0.0,-0.56811,0.0,0.0,-1.70878,-8.13868,7.61277,17.24776,7.96242,-12.42762,-41.5965,0.78136,0.00442,-15.2928,-0.43605,-0.00088,35.54911,6.06015,5.71318,2.53979,-9.70241,-17.36569,24.12834,31.9135,-2.37241,36.8078,-10.75039,25.83768,137.70882,-2e-05,-88.47328,131.30936,0.00231,80.91261,5.36966,-4.97202,-0.035,0.85405,0.45246,0.00276,0.92781,-1.7408,9.05203,-20.80126,-4.98593,7.76127,7.03269,-0.31718,12.29088
928,-0.00141,0.0,0.0,-0.70781,-0.0,-0.0,-3.08649,-8.28675,7.13444,16.81249,8.44961,-11.27276,-43.22073,0.17745,0.00953,-15.05329,-0.58552,-0.00026,36.37871,6.91373,5.35347,2.75669,-9.86325,-17.0977,23.74031,34.03415,-2.4462,36.45654,-10.59149,26.40426,137.84688,-0.02882,-86.25529,131.60724,0.0026,80.54756,4.53779,-4.08971,-0.01134,0.69756,1.05684,0.0069,1.17772,-1.92513,9.5023,-20.53419,-5.32373,8.11256,6.94018,0.20457,12.67433
929,0.32728,0.0,-0.0,-0.92758,0.0,0.0,-4.46456,-8.44632,6.88374,16.28598,8.72363,-10.15831,-44.48633,-0.61821,0.00597,-14.84485,-0.61004,8e-05,37.02161,7.7444,4.83626,3.06304,-10.16039,-16.58564,22.75878,36.30938,-1.7878,36.1227,-10.49738,26.8093,138.65623,-0.05257,-82.65287,132.14148,-0.00018,80.28975,4.23997,-4.08978,0.00351,1.04905,2.40037,0.0158,1.32072,-2.13095,10.20588,-20.36001,-5.77491,8.69251,6.88079,0.71659,12.96963
930,0.44154,-0.0,-0.0,-1.13965,-0.0,0.0,-5.89431,-8.45286,6.54597,15.70931,8.96185,-9.12469,-45.35381,-1.32838,-0.00032,-14.60375,-0.52407,0.00046,37.4503,8.37238,4.46174,3.32856,-10.65252,-16.06308,21.38787,38.63617,-0.91642,35.82873,-10.37993,27.04438,139.84322,-0.02657,-79.63566,132.66652,-0.00213,80.38997,4.37779,-4.46684,0.00333,1.62541,3.83105,0.01205,1.24819,-2.37314,10.9407,-20.39884,-6.27104,9.28878,6.85665,1.15169,13.08984
931,0.51547,-0.0,0.0,-1.3955,-0.0,0.0,-7.19542,-8.30086,6.03816,15.0871,9.21047,-8.24009,-45.87644,-1.85074,-0.00289,-14.26545,-0.35794,0.00104,37.67687,8.80163,4.30246,3.49954,-11.2699,-15.54849,20.1552,40.95186,-0.52378,35.558,-10.19014,27.25148,140.93039,0.01262,-78.48856,132.96829,-0.00084,80.72375,4.52046,-4.51877,-0.00049,1.71811,4.63012,0.0023,1.05179,-2.62615,11.58144,-20.56596,-6.74222,9.79381,6.83896,1.49921,13.08969
932,0.69323,0.0,0.0,-1.71374,0.0,0.0,-8.0843,-8.08817,5.50548,14.39853,9.46055,-7.50953,-46.17839,-2.18989,-0.00229,-13.79562,-0.18345,0.00099,37.78848,9.13945,4.29473,3.62182,-11.86134,-14.99438,19.59262,43.29539,-1.04015,35.29183,-9.99239,27.57084,141.61551,0.02206,-78.69521,133.04376,0.00066,81.10352,4.18179,-4.23807,0.00025,0.96511,4.65786,0.00255,0.92881,-2.85167,12.17662,-20.66007,-7.17078,10.267,6.79273,1.80194,13.03717
933,0.82585,-0.0,-0.0,-1.85538,0.0,-0.0,-8.43563,-7.86655,5.07363,13.62529,9.75885,-6.79559,-46.36526,-2.30703,-0.00116,-13.20526,-0.10957,-7e-05,37.8915,9.42275,4.44922,3.74945,-12.33667,-14.52285,19.94326,45.7779,-2.52551,35.04086,-9.87632,27.98499,141.90457,0.01279,-79.06469,133.04248,0.00051,81.50627,3.0314,-4.05391,0.01325,-0.28724,4.24453,0.00522,0.97464,-3.0175,12.82836,-20.57722,-7.5643,10.81587,6.70946,2.0822,12.89152
934,0.73355,-0.0,0.0,-1.63104,0.0,-0.0,-8.37343,-7.75791,4.83533,12.78538,10.09605,-6.01516,-46.46151,-2.22167,-0.00043,-12.54478,-0.1759,-0.00101,38.0209,9.63999,4.73025,3.889,-12.70191,-14.22655,21.02245,48.49284,-4.73095,34.87834,-9.81396,28.3556,142.06735,0.00118,-78.83807,133.05022,-0.00048,82.02097,0.9265,-4.10266,0.0258,-1.47503,3.71003,0.00346,1.10298,-3.11949,13.50201,-20.40503,-7.90604,11.40958,6.593,2.34272,12.59857
935,0.4842,-0.0,-0.0,-1.23442,-0.0,-0.0,-8.11538,-7.9133,4.90648,11.95487,10.37643,-5.27923,-46.44529,-2.0755,-0.00014,-11.89425,-0.32191,-0.00092,38.15952,9.84146,5.00005,4.06596,-12.98865,-13.97875,22.48524,51.39116,-7.44629,34.88653,-9.69083,28.56441,142.38039,-0.01098,-77.67151,133.03648,-0.00111,82.67812,-2.05796,-4.0209,0.0103,-2.33421,3.20937,-0.00039,1.19104,-3.2046,14.01087,-20.28267,-8.17136,11.85555,6.45896,2.61768,12.2419
936,0.26203,-0.0,-0.0,-1.05738,0.0,-0.0,-7.80681,-8.25429,5.33434,11.25289,10.56174,-4.7535,-46.32446,-1.96293,-0.00011,-11.30752,-0.46622,-0.00028,38.29724,10.09746,5.1995,4.30683,-13.20796,-13.59343,24.3596,54.21991,-10.91675,35.03854,-9.47096,28.6042,142.81754,-0.01678,-75.78649,133.00378,-0.00155,83.46738,-5.52616,-3.41644,-0.0329,-2.86234,2.8274,-0.00338,1.24518,-3.33957,14.30021,-20.21309,-8.40269,12.07731,6.30694,2.96738,11.93285
937,0.12737,0.0,-0.0,-1.3137,-0.0,-0.0,-7.56907,-8.5305,5.9988,10.76174,10.71851,-4.45193,-46.1413,-1.83162,0.0002,-10.77113,-0.57481,3e-05,38.41637,10.39914,5.38905,4.55087,-13.36137,-13.03706,27.15602,56.65258,-15.68285,35.21106,-9.27841,28.58492,143.03845,-0.01801,-74.17107,133.01756,-0.0021,84.13438,-8.81498,-2.28472,-0.07428,-3.20252,2.51171,-0.00262,1.37677,-3.58199,14.62547,-20.06893,-8.74705,12.29324,6.06848,3.43036,11.61396
938,0.03852,-0.0,0.0,-1.92307,0.0,-0.0,-7.59634,-8.65576,6.67003,10.45286,10.8766,-4.23334,-45.90458,-1.63417,0.00072,-10.27266,-0.6546,0.0,38.46198,10.7066,5.6038,4.7198,-13.46355,-12.40467,31.37008,58.52512,-21.92451,35.34618,-9.30942,28.62945,142.68747,-0.02913,-73.58146,133.0569,-0.00381,83.75053,-11.05481,-0.78083,-0.07879,-3.63344,2.00779,0.00279,1.65263,-3.97003,15.25777,-19.76381,-9.33879,12.74436,5.65335,3.99632,11.15777
939,-0.00151,0.0,0.0,-2.61311,0.0,0.0,-8.05592,-8.74253,7.13249,10.21571,10.95439,-3.98531,-45.56555,-1.45737,0.00069,-9.85611,-0.69984,8e-05,38.39495,11.0175,5.79632,4.84909,-13.55835,-11.78883,37.15124,59.90312,-29.31361,35.51503,-9.65821,28.7129,141.63382,-0.02596,-73.46553,133.01239,-0.00807,81.60239,-11.29375,1.3035,0.00723,-4.3116,1.2125,0.00638,2.02932,-4.44904,16.13854,-19.34158,-10.10521,13.39687,5.07528,4.60257,10.56905
940,0.024,0.0,0.0,-3.0769,-0.0,-0.0,-8.92531,-8.77322,7.21671,9.94475,10.9186,-3.69344,-45.07574,-1.41847,-0.00038,-9.5548,-0.70029,0.00016,38.25098,11.33159,5.94716,5.06264,-13.70249,-11.25346,44.52063,60.8491,-37.60742,35.78048,-10.22021,28.62917,139.9886,0.02805,-72.26591,132.88306,-0.00672,78.41149,-9.05304,4.5033,0.19202,-4.91304,0.58578,0.00413,2.4381,-4.8341,16.9953,-18.88141,-10.77469,14.06312,4.47558,5.15918,9.96194
941,0.0335,-0.0,0.0,-3.21735,0.0,0.0,-10.03269,-8.54683,6.86729,9.59813,10.90564,-3.34414,-44.43433,-1.54181,-0.00173,-9.35139,-0.69899,9e-05,38.07643,11.658,6.15627,5.46629,-13.91206,-10.79769,53.39736,61.18245,-46.92495,36.09806,-10.76844,28.15829,138.08957,0.08357,-68.95029,132.82701,0.00259,75.46616,-5.25853,8.64044,0.2957,-4.79695,0.8083,0.01297,2.86775,-4.91718,17.68435,-18.39252,-11.10137,14.68393,3.98682,5.59406,9.44733
942,-0.12204,-0.0,0.0,-3.13068,0.0,-0.0,-11.25443,-8.03806,6.21255,9.1611,11.0691,-2.8568,-43.67756,-1.73723,-0.00142,-9.23857,-0.76333,9e-05,37.84767,12.0409,6.58712,6.08434,-14.14572,-10.35525,63.12461,60.65407,-57.25438,36.41288,-11.09254,27.30832,136.46428,0.06291,-64.34306,132.93248,0.00722,73.41646,-2.579,12.18686,0.20307,-3.71759,1.92997,0.0285,3.32643,-4.60844,18.32058,-17.84914,-11.04304,15.40006,3.61355,5.87422,9.01503
943,-0.56238,0.0,0.0,-2.9068,-0.0,0.0,-12.55579,-7.5988,5.48115,8.63069,11.37608,-2.19706,-42.86372,-1.85531,0.00075,-9.24333,-0.88757,0.00026,37.51153,12.48441,7.28407,6.82973,-14.35428,-9.87028,72.48118,59.33225,-68.12396,36.74275,-11.10788,26.35347,135.51266,0.00696,-60.09187,133.03699,0.00349,72.45408,-3.56765,13.98182,0.09854,-2.15222,3.16452,0.01927,3.77749,-4.00217,19.11997,-17.27276,-10.7646,16.37975,3.25343,6.01572,8.46607
944,-1.29106,0.0,-0.0,-2.85731,-0.0,0.0,-13.80584,-7.68867,4.92216,8.15012,11.63576,-1.56927,-42.07887,-1.86373,0.00178,-9.38297,-0.97336,7e-05,37.0631,12.92948,8.03341,7.5558,-14.51863,-9.23683,80.57435,57.5716,-78.95412,37.12058,-10.90633,25.55496,135.19551,-0.01536,-56.57241,132.89751,0.00026,72.40084,-7.85091,15.15072,0.00655,-0.83061,3.64593,-0.00294,4.16293,-3.32381,20.12634,-16.73009,-10.49063,17.58092,2.77655,6.09224,7.62879
945,-2.03946,0.0,0.0,-3.40809,-0.0,-0.0,-14.72976,-8.33325,4.6992,7.9376,11.71883,-1.21096,-41.41933,-1.90393,0.00056,-9.64289,-0.94553,-0.00051,36.57404,13.3433,8.54997,8.19838,-14.63445,-8.3878,87.35147,55.58646,-89.27207,37.57921,-10.63393,24.96107,135.25853,-0.01437,-53.19822,132.4595,0.00059,72.73721,-12.58522,17.85359,-0.07552,-0.22023,3.21201,-0.00684,4.45675,-2.7293,21.15351,-16.27586,-10.29938,18.77049,2.11272,6.19723,6.57838
946,-2.33248,-0.0,0.0,-4.43607,-0.0,0.0,-15.15719,-9.0307,4.79421,7.98401,11.68602,-1.05241,-40.94454,-2.09855,-0.00074,-9.99481,-0.8503,-0.00079,36.15195,13.73223,8.76002,8.81213,-14.70068,-7.48975,93.10925,53.30539,-98.47823,38.19094,-10.34163,24.53933,135.57736,-0.0197,-49.79825,131.82883,0.00146,73.03922,-15.63879,22.58645,-0.0304,-0.39818,2.40566,0.00115,4.65819,-2.16471,22.05388,-15.92568,-10.08847,19.82808,1.31108,6.38515,5.43962
947,-1.92832,-0.0,-0.0,-5.35212,-0.0,0.0,-15.23275,-9.40043,5.10738,8.08412,11.68624,-0.91479,-40.65434,-2.39076,-0.00077,-10.43015,-0.79516,-0.00032,35.85347,14.07182,8.79585,9.45757,-14.72562,-6.71823,97.93053,50.67199,-105.84296,38.98262,-10.09005,24.27314,136.02806,-0.027,-46.47153,131.13326,0.00011,73.00331,-16.9443,27.91928,0.05039,-1.12909,1.90716,0.00103,4.79174,-1.51819,22.87941,-15.6437,-9.77202,20.8426,0.4829,6.66309,4.17047
948,-1.00406,-0.0,0.0,-5.65639,-0.0,0.0,-15.29357,-9.58548,5.51271,8.09365,11.78262,-0.74593,-40.50775,-2.54271,-0.00017,-10.97877,-0.84498,0.00067,35.65935,14.30795,8.90834,10.1485,-14.71974,-6.05672,101.80309,47.78758,-111.0241,39.83071,-10.06563,24.02586,136.25896,-0.01726,-43.35809,130.55298,-0.00097,72.40757,-17.42987,32.21272,0.04423,-2.05775,1.97955,-0.00443,4.96658,-0.78094,23.62413,-15.3231,-9.33992,21.81061,-0.30745,7.00022,2.73191
949,0.08304,0.0,-0.0,-5.2027,0.0,-0.0,-15.50833,-9.83917,5.81463,8.00118,11.93077,-0.53397,-40.44608,-2.31858,0.00023,-11.65204,-0.98287,0.00123,35.5385,14.3959,9.31816,10.86539,-14.70467,-5.50206,104.82843,44.65526,-114.28638,40.54057,-10.37033,23.53287,135.94586,0.00667,-40.6438,130.2953,0.00028,71.48049,-17.66883,34.60275,-0.0143,-2.87539,2.33847,-0.00434,5.35665,0.04272,23.99102,-14.83555,-8.69405,22.44767,-1.05498,7.32124,1.23713
950,0.95896,-0.0,0.0,-4.40876,-0.0,-0.0,-15.66835,-10.06621,5.88952,7.88249,12.12909,-0.30999,-40.4113,-1.75637,0.00038,-12.35571,-1.13809,0.00078,35.49262,14.29529,9.94292,11.54009,-14.73826,-5.16572,107.04155,41.09006,-116.0181,40.97943,-10.81289,22.69212,135.16628,0.03031,-37.97281,130.42505,-0.00242,70.91252,-17.79921,34.91351,-0.03971,-3.38068,2.58451,-0.00065,6.01297,0.91834,23.68844,-14.17912,-7.7678,22.46611,-1.74093,7.55157,-0.19463
951,1.31217,-0.0,-0.0,-4.15551,-0.0,-0.0,-15.43375,-10.02001,5.8478,7.86726,12.46151,-0.19467,-40.38737,-1.16298,0.0002,-12.92305,-1.25524,-1e-05,35.54914,14.00873,10.42836,12.09633,-14.86485,-5.09894,108.34686,37.04378,-116.36722,41.10161,-11.12046,21.7187,134.21616,0.03148,-35.12359,130.81755,-0.00762,71.09716,-18.85255,33.5979,0.03691,-3.4941,2.67141,0.00079,6.72125,1.57476,22.89323,-13.55483,-6.87694,21.94291,-2.30074,7.70553,-1.55314
952,1.08077,-0.0,-0.0,-4.99201,-0.0,0.0,-14.74331,-9.78636,5.87695,8.05975,12.87794,-0.28429,-40.43993,-0.80147,-0.00018,-13.25446,-1.32008,-0.00038,35.73875,13.67813,10.55256,12.53564,-15.02057,-5.16936,108.77096,32.84888,-115.47454,40.92318,-11.26229,20.84442,133.13948,-0.01594,-33.37765,131.28259,-0.00276,71.45106,-22.79771,31.74979,0.13582,-3.18256,2.7877,-0.00119,7.18444,1.64331,22.16051,-13.19031,-6.55823,21.27532,-2.68541,7.88559,-2.86926
953,0.54022,0.0,-0.0,-6.39648,0.0,0.0,-13.87002,-9.70631,5.97437,8.38222,13.11784,-0.46648,-40.67747,-0.68931,-0.00016,-13.3971,-1.35018,-0.00027,36.05465,13.5567,10.48466,12.9439,-15.06573,-5.16867,108.54097,29.00414,-113.7066,40.48906,-11.39579,20.01223,131.73605,-0.08867,-34.23976,131.72461,0.01129,71.02903,-30.13952,30.7417,0.05494,-2.47299,2.95828,-0.00727,7.37666,1.10644,21.8806,-13.05809,-6.96386,20.82271,-2.93603,8.1546,-4.11316
954,0.09017,-0.0,-0.0,-7.3869,0.0,0.0,-13.14426,-9.86852,6.00845,8.61357,13.03249,-0.4649,-41.13571,-0.71322,0.0002,-13.48183,-1.38331,-5e-05,36.43673,13.7941,10.55494,13.41911,-14.9501,-4.9807,107.84844,25.73381,-111.46259,39.82603,-11.5782,19.08954,130.00233,-0.08548,-36.51786,132.21562,0.01515,70.08768,-38.28337,31.86426,-0.08367,-1.73573,2.93029,-0.01085,7.53401,0.37128,22.04655,-12.91164,-7.71068,20.72063,-3.15905,8.43895,-5.16096
955,-0.02986,0.0,0.0,-7.67873,-0.0,0.0,-12.70051,-10.04419,5.96602,8.64409,12.79788,-0.14933,-41.72072,-0.78312,0.00017,-13.57211,-1.43341,3e-05,36.82914,14.2741,10.86662,13.99011,-14.78525,-4.63905,106.72165,22.86884,-108.89404,38.93227,-11.68125,18.25417,128.31789,0.00516,-36.74883,132.8802,-0.00713,70.24432,-43.50512,35.58719,0.13087,-1.69596,2.26415,0.00914,7.77568,-0.18025,22.49484,-12.63703,-8.384,20.95048,-3.41296,8.61465,-5.89086
956,0.22722,0.0,0.0,-7.70121,0.0,-0.0,-12.43236,-10.06476,5.97237,8.55253,12.6963,0.33994,-42.29358,-0.85221,-0.00029,-13.59554,-1.46839,3e-05,37.23248,14.74938,11.24416,14.59244,-14.70719,-4.26511,105.19009,20.29295,-105.87664,37.84272,-11.58404,17.86501,127.12077,0.04859,-33.77717,133.72862,-0.03536,72.4632,-44.45456,40.19477,0.54807,-2.7033,0.55831,0.0476,7.96632,-0.56245,23.10061,-12.38405,-8.95323,21.39023,-3.65776,8.6751,-6.31115
957,0.80861,-0.0,0.0,-7.96209,0.0,0.0,-12.16581,-9.98428,6.1399,8.47782,12.8337,0.77773,-42.78124,-0.94547,-0.00022,-13.45825,-1.45024,0.00019,37.65115,15.11772,11.46566,15.13471,-14.72116,-3.88958,103.40224,18.37366,-102.16479,36.69041,-11.34477,17.9833,126.53852,0.01967,-31.13221,134.62778,-0.0303,75.51104,-42.38051,42.07249,0.52737,-4.09106,-2.10412,0.04588,7.9521,-1.022,23.74706,-12.33423,-9.60864,21.84275,-3.84029,8.74253,-6.52179
958,1.51621,0.0,-0.0,-8.4556,-0.0,-0.0,-11.86349,-9.9839,6.44398,8.42448,13.0857,1.09231,-43.19637,-1.12556,0.00035,-13.17663,-1.38586,0.00032,38.02333,15.49484,11.5081,15.57759,-14.71125,-3.39901,101.48238,17.61893,-97.62496,35.67814,-11.13093,18.3062,126.36025,-0.00506,-33.14183,135.39198,-0.00035,77.16254,-38.07891,38.90436,-0.05077,-4.76059,-4.95914,-0.00405,7.76644,-1.64808,24.33476,-12.4746,-10.39946,22.18226,-3.9951,8.92683,-6.58763
959,2.02628,0.0,-0.0,-8.57865,0.0,0.0,-11.63302,-10.20107,6.69717,8.21451,13.27005,1.42006,-43.59866,-1.36582,0.0005,-12.86914,-1.33208,0.0001,38.27453,16.03186,11.58619,15.95676,-14.57924,-2.73165,99.46589,17.96474,-92.57382,34.96257,-11.03877,18.54047,126.28358,-0.00882,-39.72575,135.90375,0.01509,76.63761,-30.43607,32.13012,-0.57247,-4.38813,-6.97407,-0.02953,7.5987,-2.28956,24.87494,-12.60658,-11.18801,22.47222,-4.22359,9.2133,-6.53966
960,2.15781,-0.0,-0.0,-7.95688,0.0,-0.0,-11.56352,-10.47569,6.69983,7.76163,13.37069,1.90508,-44.05991,-1.55678,-4e-05,-12.67158,-1.34102,-0.00014,38.43322,16.69641,11.90704,16.35786,-14.37296,-2.01232,97.49335,18.81089,-87.90484,34.56995,-11.02969,18.60382,126.07454,0.00885,-45.9322,136.17371,0.01005,75.07512,-18.2068,25.63777,-0.32795,-3.58489,-7.45329,-0.01275,7.61992,-2.79287,25.41416,-12.54163,-11.84628,22.811,-4.57604,9.46503,-6.48138
961,2.01143,-0.0,0.0,-6.92183,-0.0,0.0,-11.60797,-10.42867,6.45671,7.24067,13.53,2.50899,-44.63504,-1.63669,-0.00051,-12.65904,-1.4139,-0.00014,38.63728,17.28423,12.41938,16.84197,-14.23598,-1.45803,95.84284,19.69338,-84.56373,34.41737,-11.01309,18.54586,125.67197,0.04768,-46.51628,136.31599,0.00142,73.98357,-2.12963,22.04962,0.3202,-2.98297,-6.428,0.00325,7.83531,-3.17014,25.85684,-12.28815,-12.35271,23.1026,-5.00227,9.55713,-6.58613
962,1.79105,0.0,0.0,-6.04658,-0.0,0.0,-11.66084,-9.9505,6.20221,6.87424,13.84952,3.06322,-45.31753,-1.65666,6e-05,-12.82187,-1.51848,-7e-05,38.98966,17.65563,12.86822,17.38471,-14.22631,-1.18786,94.66512,20.5157,-82.75419,34.3597,-10.94761,18.47427,125.2963,0.04184,-40.31178,136.48355,-0.00375,73.96439,14.14637,19.9681,0.38944,-2.74556,-4.5662,0.00151,8.08281,-3.48772,26.01321,-12.04144,-12.7046,23.14083,-5.44275,9.50791,-6.924
963,1.61947,0.0,0.0,-5.63301,-0.0,0.0,-11.71853,-9.33382,6.14656,6.70173,14.26932,3.47049,-46.02217,-1.68466,0.0008,-13.12095,-1.62775,-1e-05,39.43927,17.85683,13.11614,17.92309,-14.27299,-1.12682,93.86934,21.26659,-81.89809,34.24487,-10.87848,18.50664,125.26336,-0.02621,-29.83797,136.76929,-0.00511,74.63708,26.07327,16.11504,0.23653,-2.85555,-2.71159,-0.00628,8.16461,-3.68728,25.82305,-12.00368,-12.82659,22.88766,-5.90511,9.42756,-7.36444
964,1.4914,0.0,0.0,-5.47105,-0.0,0.0,-11.87255,-8.87917,6.2263,6.58282,14.59954,3.81254,-46.64605,-1.65642,-5e-05,-13.53635,-1.73875,0.0002,39.87044,17.99194,13.34252,18.45328,-14.3024,-1.10442,93.30319,21.87972,-81.536,34.0226,-10.93566,18.71764,125.59911,-0.06008,-18.75492,137.10851,-0.00246,75.2193,31.55861,10.42845,0.57195,-3.32506,-1.60464,-0.00409,8.00181,-3.6464,25.4312,-12.22121,-12.65322,22.52586,-6.39945,9.38335,-7.72146
965,1.34512,0.0,0.0,-5.08225,0.0,-0.0,-12.16684,-8.62743,6.2152,6.37789,14.66562,4.2174,-47.13602,-1.45567,-0.00157,-14.03964,-1.86269,0.00048,40.25828,18.08952,13.80162,19.04376,-14.32162,-1.01467,92.96008,22.28417,-82.03674,33.80791,-11.25802,19.16832,126.10645,-0.01429,-10.967,137.34334,-1e-05,75.10259,30.81321,7.26129,0.59339,-4.10192,-1.69236,0.00999,7.68565,-3.40281,25.03811,-12.57597,-12.28892,22.23516,-6.85371,9.35612,-7.93841
966,1.19882,0.0,0.0,-4.44984,0.0,0.0,-12.54091,-8.50855,6.08007,6.13641,14.45488,4.63824,-47.49286,-1.17667,-0.0016,-14.57036,-1.98566,0.00035,40.64699,18.13139,14.40587,19.74163,-14.37463,-0.81629,92.93778,22.34281,-84.22031,33.77095,-11.81066,19.94246,126.7726,0.0532,-9.03266,137.40858,-0.00034,74.30356,24.37468,11.68833,-0.72014,-4.93133,-2.74977,0.0173,7.36331,-3.18831,24.76553,-12.92157,-11.99342,22.05009,-7.16479,9.29551,-8.09673
967,1.14786,0.0,-0.0,-4.15476,-0.0,-0.0,-12.88768,-8.53662,6.09238,6.0637,14.11346,4.84343,-47.76022,-1.1243,-8e-05,-15.07925,-2.06278,-0.00019,41.04258,18.12934,14.71851,20.49338,-14.46166,-0.43193,93.15462,21.82258,-88.34868,33.96318,-12.315,21.04378,127.73223,0.0534,-10.79659,137.37256,-0.0003,73.67156,13.63416,24.85346,-2.46815,-5.27169,-3.90532,0.01075,7.06758,-3.19439,24.71605,-13.22483,-11.982,22.00056,-7.31562,9.20785,-8.30805
968,1.23156,0.0,0.0,-4.56025,-0.0,-0.0,-13.10941,-8.7183,6.51484,6.28335,13.82804,4.64724,-48.00768,-1.48449,0.00165,-15.55433,-2.08215,-0.00049,41.40594,18.13107,14.41255,21.17819,-14.51417,0.2118,93.25311,20.74594,-93.42535,34.28791,-12.4892,22.27601,128.91273,-0.02164,-11.05191,137.32149,0.00101,74.06216,1.13331,41.83122,-2.41527,-4.64441,-4.39417,0.00977,6.7062,-3.3829,24.99479,-13.56018,-12.25527,22.20071,-7.38957,9.17128,-8.61577
969,1.37884,0.0,0.0,-5.32087,-0.0,-0.0,-13.14329,-8.9116,7.22189,6.70734,13.70873,4.0877,-48.26896,-2.10858,0.00202,-15.98175,-2.09244,-0.00033,41.70002,18.19356,13.64587,21.69933,-14.44708,1.04677,93.03288,19.65296,-97.64484,34.60214,-12.34058,23.32934,130.03593,-0.06211,-8.0911,137.29213,0.00189,75.06583,-10.04431,55.11145,0.10128,-3.38804,-4.13709,0.01198,6.23812,-3.58838,25.48395,-13.97265,-12.61697,22.59704,-7.48236,9.23053,-8.92924
970,1.44879,0.0,0.0,-5.80721,-0.0,0.0,-12.99608,-8.9227,7.7269,7.14171,13.71675,3.3967,-48.50827,-2.63605,0.00069,-16.32906,-2.14324,-0.00013,41.91319,18.33918,12.9518,22.0383,-14.24703,1.84025,92.7747,19.19128,-99.71978,34.81859,-12.13463,23.98581,130.82404,-0.03723,-4.71594,137.27618,0.00125,75.36731,-14.77785,60.44875,1.90835,-2.56971,-3.42618,-0.00043,5.77295,-3.74361,25.75427,-14.40999,-12.85579,22.80166,-7.63198,9.32266,-9.05606
971,1.3344,-0.0,0.0,-5.68876,0.0,0.0,-12.72902,-8.69894,7.67045,7.45577,13.72681,2.85568,-48.672,-2.79264,-0.00054,-16.58987,-2.25069,-3e-05,42.06078,18.50325,12.7681,22.24771,-14.0038,2.33345,92.84828,19.69244,-99.4894,34.9592,-12.11327,24.23035,131.07985,-0.01167,-3.28289,137.21371,-0.00168,74.43203,-9.41528,57.09134,-0.00074,-2.76616,-2.43586,-0.01731,5.42984,-3.92834,25.45109,-14.81239,-12.92463,22.44497,-7.8087,9.36022,-8.89581
972,1.12249,0.0,0.0,-5.19557,0.0,-0.0,-12.39623,-8.3902,7.2077,7.65737,13.71359,2.6033,-48.73451,-2.61398,-0.00046,-16.81558,-2.42096,0.00023,42.1531,18.58523,13.06356,22.4074,-13.82035,2.45241,93.21265,21.10511,-97.55857,35.11403,-12.30293,24.20976,130.76932,0.00206,-2.77338,137.03857,-0.00351,73.11816,1.06438,46.14877,-1.96545,-3.41336,-1.28527,-0.01632,5.17916,-4.22753,24.67441,-15.19849,-12.93631,21.59297,-7.95283,9.33726,-8.57522
973,1.1247,-0.0,0.0,-4.92058,-0.0,0.0,-12.04709,-8.22357,6.80045,7.83281,13.77096,2.53516,-48.696,-2.38828,-0.0,-17.07402,-2.63843,0.00053,42.16273,18.58667,13.44638,22.56417,-13.70159,2.38,93.48463,22.91341,-94.97754,35.32104,-12.55055,24.09245,130.0876,0.02089,-0.77427,136.78662,-0.00088,72.6899,10.66806,31.84923,-1.46444,-3.61327,-0.15211,0.00078,4.90486,-4.59457,23.81124,-15.62146,-12.97949,20.63392,-8.04814,9.30594,-8.29951
974,1.62351,0.0,0.0,-5.19968,-0.0,0.0,-11.75602,-8.29071,6.74171,8.02332,13.90391,2.4603,-48.57942,-2.36727,-0.00011,-17.37315,-2.83745,0.00039,42.05529,18.61484,13.6083,22.70186,-13.58343,2.36247,93.43671,24.34297,-92.88704,35.53223,-12.68871,23.9833,129.30949,0.01685,2.59832,136.57582,0.00126,73.64127,17.16656,20.02999,-0.05154,-3.18059,0.85501,0.01508,4.53716,-4.89365,23.13924,-16.10262,-13.02403,19.88258,-8.13638,9.29235,-8.14394
975,2.50849,0.0,-0.0,-5.73191,-0.0,-0.0,-11.57681,-8.45912,6.97815,8.18233,13.96229,2.34542,-48.41733,-2.55009,-0.00037,-17.65291,-2.95496,-6e-05,41.84792,18.72326,13.5986,22.78824,-13.45173,2.46889,93.18819,24.9096,-92.00885,35.6879,-12.67653,23.95451,128.68005,-0.01005,4.58741,136.45389,0.00067,75.40557,20.18064,14.37727,0.69896,-2.54158,1.59237,0.01823,4.0702,-5.07005,22.74509,-16.63485,-13.05046,19.44156,-8.23044,9.26449,-8.06787
976,3.25203,0.0,-0.0,-5.97896,-0.0,0.0,-11.467,-8.52421,7.27232,8.27519,13.83739,2.28167,-48.23497,-2.75239,-0.00025,-17.86144,-2.99614,-0.00035,41.6019,18.84577,13.66665,22.82198,-13.35695,2.60207,92.93874,24.56615,-92.61055,35.74773,-12.5827,24.02763,128.45021,-0.01411,3.58057,136.37068,-0.0001,77.01826,19.77291,15.89263,0.42343,-1.85649,1.65023,0.00601,3.5287,-5.19792,22.64002,-17.20022,-13.13304,19.29462,-8.28164,9.16807,-8.03771
977,3.39578,0.0,-0.0,-5.83962,0.0,0.0,-11.31072,-8.41071,7.42724,8.38178,13.63979,2.2175,-48.06015,-2.8444,2e-05,-18.01388,-3.0047,-0.00052,41.36761,18.91693,13.91611,22.8037,-13.31454,2.70772,92.72621,23.47964,-94.60401,35.67959,-12.4447,24.08953,128.73772,0.00468,0.48756,136.29475,-0.0006,77.9189,15.89466,23.57821,-0.49725,-0.82551,0.53712,-0.02715,2.94816,-5.33101,22.7211,-17.78154,-13.28609,19.3238,-8.27272,8.99292,-8.05397
978,2.98862,0.0,-0.0,-5.6493,0.0,-0.0,-11.04964,-8.18715,7.37788,8.61274,13.61211,1.94573,-47.92326,-2.84203,0.00011,-18.18184,-3.01619,-0.00058,41.16045,18.95161,14.22362,22.72062,-13.26954,2.84111,92.42864,22.00903,-97.28294,35.48619,-12.21589,23.97493,129.34303,0.0118,-3.44384,136.24023,-0.00079,78.11289,8.75619,34.10395,-1.14432,0.5995,-1.76563,-0.05181,2.38377,-5.40942,22.73615,-18.35059,-13.36473,19.30967,-8.26607,8.79352,-8.10166
979,2.39699,0.0,-0.0,-5.51589,-0.0,0.0,-10.7328,-7.95349,7.15527,8.94321,13.80825,1.4464,-47.83869,-2.78463,0.00019,-18.44224,-3.08169,-0.00012,40.98318,18.97503,14.46118,22.59843,-13.17059,2.97762,91.97499,20.71514,-99.45821,35.21464,-11.85763,23.68401,129.9203,0.00418,-8.317,136.20584,-0.00041,77.91425,-0.6694,42.52225,-0.65016,1.85502,-4.4696,-0.03056,1.92502,-5.3809,22.51166,-18.8353,-13.25888,19.10528,-8.31137,8.63023,-8.13499
980,1.87558,-0.0,-0.0,-5.15002,-0.0,-0.0,-10.41603,-7.79118,6.86414,9.24642,13.96402,0.9843,-47.8013,-2.70229,0.0003,-18.82119,-3.26467,0.00082,40.84478,18.98758,14.58354,22.5073,-13.00663,2.96054,91.45548,20.03642,-100.27077,34.91105,-11.40715,23.36944,130.30141,-0.00094,-14.83171,136.19096,0.00065,77.59917,-9.88611,45.31029,0.44885,2.41312,-6.47775,0.00419,1.61776,-5.31485,22.12977,-19.1846,-13.06223,18.76427,-8.36552,8.51479,-8.10104
981,1.5446,0.0,-0.0,-4.58753,0.0,-0.0,-10.13023,-7.80937,6.69272,9.51082,13.83606,0.67386,-47.77721,-2.72883,0.00015,-19.27817,-3.54655,0.00112,40.73357,19.02316,14.47506,22.47563,-12.76655,2.80533,90.93403,19.98561,-99.71122,34.60614,-10.95541,23.0863,130.55276,0.00538,-22.53447,136.24008,0.00224,77.13788,-15.70407,42.78666,0.74848,2.43773,-7.33966,0.01321,1.37497,-5.31656,21.75423,-19.47341,-12.93088,18.40496,-8.35538,8.43308,-7.94882
982,1.51382,0.0,-0.0,-4.39371,-0.0,0.0,-9.94322,-8.08917,6.77518,9.8737,13.53163,0.26877,-47.70022,-3.01015,-0.00067,-19.74677,-3.81732,0.00039,40.61297,19.1264,14.00565,22.45613,-12.44615,2.76526,90.31481,20.29553,-98.25875,34.33298,-10.60655,22.75529,130.73677,0.00949,-29.33784,136.38643,0.00245,76.6218,-16.55774,38.08896,0.30547,2.43186,-7.46853,0.00768,1.08118,-5.41871,21.4486,-19.8122,-12.91792,18.07591,-8.26646,8.3804,-7.64578
983,1.77993,0.0,-0.0,-4.83482,-0.0,-0.0,-9.92057,-8.5514,7.01299,10.40804,13.32411,-0.41267,-47.51411,-3.46301,-0.0014,-20.18417,-4.01324,-0.00028,40.46856,19.23805,13.27571,22.38826,-12.11221,2.9066,89.48588,20.7577,-96.25757,34.10769,-10.41471,22.3848,130.72235,0.00708,-32.95797,136.56955,0.00067,76.70719,-11.92863,34.04403,-0.10214,2.49523,-7.49726,0.00366,0.75069,-5.60819,21.24057,-20.18283,-13.02101,17.80802,-8.13916,8.33785,-7.25062
984,2.14277,-0.0,-0.0,-5.44223,0.0,0.0,-10.04043,-9.01023,7.15536,11.00884,13.28513,-1.1785,-47.22501,-3.79534,-0.00064,-20.57586,-4.17068,-0.00033,40.3114,19.20197,12.59139,22.234,-11.88964,2.94816,88.48024,21.31687,-93.88671,33.94027,-10.30448,22.09627,130.39064,0.00562,-33.09031,136.68022,0.00065,77.68369,-2.62866,31.28786,-0.25029,2.30807,-7.63707,0.00257,0.46538,-5.86968,21.15034,-20.50047,-13.23311,17.62592,-8.02901,8.24917,-6.94214
985,2.36486,0.0,0.0,-5.61305,0.0,-0.0,-10.21262,-9.30421,7.0318,11.4837,13.28447,-1.70492,-46.90831,-3.78777,0.00083,-20.91835,-4.33054,-0.00018,40.14655,18.9595,12.22814,22.00041,-11.83642,2.67348,87.42953,21.94546,-91.56499,33.89194,-10.10018,21.91151,129.99461,-0.00251,-32.03162,136.68607,0.0017,78.49826,7.20487,29.22937,-0.20505,1.76388,-7.48193,-0.00136,0.22355,-6.18578,21.11772,-20.77299,-13.51664,17.47844,-7.96218,8.06514,-6.86096
986,2.40802,0.0,-0.0,-5.29357,-0.0,0.0,-10.37862,-9.35914,6.6746,11.7277,13.22871,-1.90388,-46.64849,-3.50305,0.0011,-21.23266,-4.48076,-5e-05,39.97737,18.66441,12.25154,21.77251,-11.86463,2.2412,86.41135,22.55712,-89.92525,34.03835,-9.7024,21.71351,130.05203,0.00945,-32.70575,136.647,0.00121,77.78172,11.66288,27.75761,-0.08637,1.26431,-6.44707,-0.00293,-0.04988,-6.54658,21.06073,-21.08445,-13.83313,17.29087,-7.89715,7.80745,-6.9351
987,2.36898,0.0,0.0,-4.79648,0.0,-0.0,-10.54449,-9.24565,6.25815,11.7941,13.14489,-1.94316,-46.45998,-3.19074,0.00039,-21.56985,-4.61014,0.00024,39.81771,18.51132,12.49227,21.65211,-11.83449,1.92894,85.38451,23.02025,-89.21814,34.34922,-9.21923,21.42617,130.76886,0.04847,-36.44083,136.59306,-0.00019,75.70534,7.34532,27.08881,-0.05248,1.24631,-4.69653,0.00144,-0.41395,-6.9203,20.94967,-21.49459,-14.14226,17.0464,-7.75784,7.55498,-6.96506
988,2.24519,-0.0,0.0,-4.32533,-0.0,-0.0,-10.7022,-9.18209,5.95906,11.82322,13.08389,-2.01983,-46.29737,-3.02754,-0.00025,-21.96339,-4.72873,0.00045,39.68885,18.5144,12.68184,21.64454,-11.70532,1.79959,84.26968,23.24943,-88.98362,34.6839,-8.86083,21.11176,131.77879,0.05132,-42.92105,136.46077,0.00071,73.99224,-4.9665,26.79945,0.03599,1.61781,-3.36961,-0.00033,-0.88116,-7.19676,20.73956,-22.01057,-14.32509,16.74301,-7.51897,7.35576,-6.83393
989,2.03361,-0.0,0.0,-4.06696,0.0,-0.0,-10.81844,-9.37164,5.86327,11.96626,13.02909,-2.25823,-46.14509,-3.01555,-0.00052,-22.39,-4.80261,-2e-05,39.61822,18.54485,12.6219,21.66467,-11.54236,1.79332,83.04995,23.30576,-88.45111,34.94411,-8.71079,20.90222,132.54146,-0.00076,-50.72581,136.18886,0.00553,73.96744,-20.54979,26.08297,0.23077,1.74188,-3.52188,0.00807,-1.39599,-7.24541,20.36411,-22.5711,-14.23606,16.36645,-7.2247,7.1882,-6.55663
990,1.85086,0.0,0.0,-4.12098,0.0,-0.0,-10.90875,-9.69485,5.88793,12.25942,12.93422,-2.65345,-46.03276,-3.04737,-0.00047,-22.79665,-4.78502,-0.00067,39.62574,18.51395,12.32264,21.65107,-11.40421,1.84851,81.74982,23.31508,-87.13628,35.15943,-8.67383,20.85497,132.75592,-0.02294,-56.43747,135.83986,0.00569,75.24161,-31.73544,25.25525,0.31925,1.03126,-5.07751,0.03452,-1.84621,-7.04398,19.85088,-23.05809,-13.86415,15.95208,-6.91797,7.01346,-6.19264
991,1.69049,-0.0,0.0,-4.09506,0.0,0.0,-11.01347,-9.7083,5.83347,12.53773,12.83198,-2.99001,-45.95446,-2.99362,-0.00019,-23.1535,-4.73352,-0.00054,39.68264,18.41507,12.01663,21.6121,-11.30862,1.78653,80.34747,23.28995,-85.00604,35.38113,-8.63759,20.83599,132.30794,0.06298,-55.96895,135.61246,-0.00024,76.45025,-31.87834,25.69578,0.52613,-0.31691,-6.83452,0.03438,-2.17875,-6.69889,19.34995,-23.41271,-13.36244,15.60361,-6.60395,6.80747,-5.80567
992,1.40052,0.0,-0.0,-3.54219,0.0,-0.0,-11.12584,-9.20545,5.67255,12.63667,12.82366,-3.04234,-45.84773,-2.81204,9e-05,-23.46599,-4.77014,0.00016,39.70617,18.24282,11.8854,21.55805,-11.27739,1.40814,78.76225,23.19651,-82.25473,35.57671,-8.5933,20.61611,131.22607,0.13695,-49.94098,135.69617,0.00062,76.54755,-20.56073,27.56858,0.64726,-1.38442,-7.37792,0.01271,-2.46982,-6.36829,19.03851,-23.70775,-12.94222,15.4304,-6.28816,6.54854,-5.49204
993,1.083,-0.0,0.0,-2.78432,0.0,-0.0,-11.23149,-8.58547,5.67146,12.64547,12.92248,-2.91011,-45.65018,-2.61665,-0.00013,-23.75036,-4.9095,0.00049,39.62022,17.96477,11.79373,21.46221,-11.33688,0.81311,76.94592,23.16394,-79.16164,35.67489,-8.58097,20.14231,129.98181,0.05406,-45.31215,136.0685,0.00822,75.26409,-6.07861,28.86512,0.20078,-1.51394,-6.30435,0.01266,-2.81805,-6.17866,18.98012,-24.04628,-12.74443,15.44536,-6.00179,6.21361,-5.34054
994,1.11299,0.0,-0.0,-2.55067,-0.0,0.0,-11.36023,-8.39864,6.03517,12.79002,13.00652,-2.92969,-45.33211,-2.54419,-0.00071,-24.00859,-5.03465,0.00016,39.40047,17.57525,11.51103,21.29805,-11.47985,0.3378,74.95232,23.43593,-76.10955,35.63701,-8.58798,19.62961,129.3098,-0.00016,-48.50549,136.50896,0.0079,73.18668,0.99544,27.89876,-0.02822,-1.02999,-4.57108,0.01283,-3.22058,-6.15077,19.03257,-24.44117,-12.73731,15.50554,-5.78282,5.79378,-5.33161
995,1.56811,0.0,-0.0,-2.95489,0.0,0.0,-11.50559,-8.70482,6.58212,13.11502,12.97553,-3.25914,-44.91596,-2.55559,-0.00058,-24.20955,-5.05395,-0.00022,39.06655,17.16118,11.10859,21.05234,-11.6333,0.14517,72.85976,24.09905,-73.42507,35.46172,-8.57404,19.35633,129.59911,0.08134,-58.93453,136.83672,-0.00013,71.43652,-1.51459,24.88994,0.21492,-0.79114,-3.50473,0.00247,-3.60454,-6.18332,18.9839,-24.83277,-12.75014,15.44721,-5.6493,5.34044,-5.34451
996,1.99235,-0.0,-0.0,-3.44885,0.0,-0.0,-11.55929,-9.11413,6.9891,13.44744,12.84993,-3.75212,-44.48535,-2.50457,0.00025,-24.30981,-4.99097,-0.00023,38.65716,16.88276,10.87557,20.71867,-11.67468,0.14603,70.64758,24.94999,-71.13123,35.19532,-8.56921,19.39927,130.70111,0.10378,-70.519,137.01476,-0.00505,70.62882,-8.15751,20.67885,0.30558,-1.17652,-3.73603,0.0027,-3.93312,-6.13951,18.80958,-25.17546,-12.64653,15.29788,-5.5846,4.96642,-5.25558
997,1.93323,0.0,-0.0,-3.56044,-0.0,0.0,-11.39192,-9.31487,7.19059,13.62628,12.70705,-4.19927,-44.12759,-2.35642,0.0005,-24.31753,-4.9246,-0.0001,38.22261,16.84908,10.91461,20.33227,-11.50996,0.24709,68.2025,25.67336,-69.01456,34.94895,-8.62697,19.5647,132.27882,0.01307,-78.08173,137.06044,-0.00453,70.5386,-13.26555,15.95055,0.10336,-1.85797,-5.00011,0.00583,-4.24224,-5.97701,18.68151,-25.48438,-12.44893,15.23659,-5.53722,4.75493,-5.01383
998,1.4586,0.0,0.0,-3.26937,0.0,-0.0,-10.97812,-9.32189,7.34629,13.63223,12.63129,-4.51871,-43.84847,-2.20867,-2e-05,-24.30505,-4.91585,0.0,37.82757,17.01942,11.01965,19.97718,-11.13931,0.39425,65.43993,26.12989,-66.89758,34.83358,-8.68723,19.60973,134.13564,-0.05555,-81.18313,137.01387,-0.00172,70.95604,-14.90808,11.05781,-0.11284,-2.54415,-6.40801,0.00141,-4.60139,-5.80084,18.71992,-25.82565,-12.29855,15.33838,-5.43919,4.69517,-4.68185
999,0.97234,-0.0,0.0,-2.83414,-0.0,0.0,-10.41282,-9.29358,7.58483,13.53437,12.68419,-4.69628,-43.56058,-2.13454,-0.00046,-24.33452,-4.9896,0.0001,37.51099,17.23591,10.94738,19.71449,-10.66119,0.43739,62.39708,26.40983,-64.68479,34.86925,-8.63517,19.52359,136.00406,-0.03769,-82.45959,136.93144,0.00103,71.91778,-13.7907,6.44209,-0.17364,-3.34146,-7.02074,-0.00845,-5.04759,-5.75628,18.83204,-26.25697,-12.29738,15.4613,-5.24686,4.71225,-4.40972
1000,0.7435,0.0,0.0,-2.5279,0.0,0.0,-9.82783,-9.38808,7.93138,13.42516,12.80139,-4.67896,-43.16829,-2.08964,-0.00026,-24.39099,-5.11984,0.00015,37.23372,17.33513,10.68457,19.51932,-10.22665,0.20433,59.21939,26.61122,-62.21652,35.00737,-8.49382,19.48135,137.44809,-0.00293,-83.85989,136.80304,0.00194,73.06165,-11.18554,2.88598,-0.09749,-4.24479,-6.54107,-0.01403,-5.52417,-5.87101,18.85122,-26.74069,-12.41124,15.43702,-4.97869,4.72397,-4.3341
1001,0.78046,0.0,0.0,-2.56557,-0.0,0.0,-9.30767,-9.77393,8.39895,13.4114,12.78969,-4.46738,-42.65741,-1.98964,0.00015,-24.40591,-5.22173,0.0002,36.9218,17.25362,10.3677,19.31111,-9.93579,-0.25558,56.08508,26.65725,-59.31703,35.21356,-8.42438,19.52495,138.1788,0.00114,-85.05592,136.53265,-0.0017,73.63397,-8.19446,0.8733,0.00216,-4.87052,-5.42574,-0.00584,-5.88557,-6.05906,18.78499,-27.12387,-12.56268,15.30439,-4.6952,4.67933,-4.46991
1002,0.9278,-0.0,-0.0,-2.98101,0.0,-0.0,-8.83385,-10.43351,8.98989,13.53979,12.54025,-4.20922,-42.07912,-1.82688,-0.00022,-24.32953,-5.23405,0.00038,36.55656,17.07391,10.09159,19.04878,-9.73991,-0.69391,53.12736,26.38954,-55.97359,35.45118,-8.5281,19.46839,138.29883,-0.00171,-84.95332,136.05525,-0.00758,73.29798,-5.65274,0.06278,0.03912,-4.91311,-4.4644,0.00254,-6.03374,-6.25727,18.75614,-27.29108,-12.73703,15.20338,-4.43208,4.57905,-4.65722
1003,0.93642,-0.0,0.0,-3.40321,0.0,0.0,-8.31789,-10.9606,9.59575,13.68457,12.16498,-4.03634,-41.46404,-1.64517,-0.00094,-24.15163,-5.21596,0.00028,36.16513,16.96356,9.95268,18.76364,-9.48494,-0.99283,50.35799,25.78519,-52.29988,35.60443,-8.74126,19.1607,138.12534,0.00157,-83.28245,135.4624,-0.0071,72.56708,-3.94458,-0.15021,0.02481,-4.53716,-4.2859,-0.0004,-6.07388,-6.47089,18.69339,-27.35513,-12.91348,15.0643,-4.18387,4.47604,-4.63798
1004,0.67973,0.0,0.0,-3.27836,0.0,0.0,-7.72823,-10.92068,10.01246,13.64122,11.8621,-3.91377,-40.80721,-1.42081,-0.00021,-23.87512,-5.28359,-0.00046,35.75363,17.03769,10.10567,18.47521,-9.06164,-1.30759,47.65503,24.99209,-48.41415,35.5447,-8.93544,18.68116,137.85934,0.00731,-80.58871,134.95445,-0.00165,72.21647,-2.94764,0.01542,0.00478,-4.17971,-4.86598,-0.00362,-6.24142,-6.69274,18.33789,-27.57614,-12.99183,14.64397,-3.95336,4.45229,-4.27649
1005,0.35962,-0.0,-0.0,-2.44619,0.0,-0.0,-7.14133,-10.36597,10.10748,13.35436,11.75383,-3.73669,-40.11731,-1.05381,0.00224,-23.5153,-5.46469,-0.0013,35.29059,17.25208,10.61357,18.12798,-8.51045,-1.82122,44.88203,24.1588,-44.46208,35.29906,-9.04947,18.2155,137.51111,0.00968,-77.83196,134.62392,0.00073,72.44913,-2.12905,0.56934,0.0018,-4.03441,-5.47317,-0.00195,-6.64006,-6.84985,17.63196,-28.05466,-12.88263,13.91543,-3.77606,4.54059,-3.71204
1006,0.25425,0.0,0.0,-1.40754,0.0,-0.0,-6.65098,-9.75421,10.04296,12.98867,11.85628,-3.54037,-39.41688,-0.56306,0.0033,-23.11325,-5.65518,-0.0013,34.73661,17.44115,11.25109,17.64446,-7.98415,-2.43199,42.04173,23.28594,-40.60143,35.03058,-9.10406,17.84776,137.06467,0.00199,-76.25731,134.37392,0.00027,72.908,-0.77542,1.35374,0.01093,-3.82966,-5.3963,0.0028,-7.13429,-6.87067,16.87697,-28.61836,-12.6279,13.19231,-3.69035,4.65515,-3.22297
1007,0.23719,0.0,-0.0,-0.97566,0.0,-0.0,-6.2916,-9.47396,10.25566,12.78656,12.11016,-3.55816,-38.71285,-0.1945,0.00075,-22.70501,-5.70863,-0.00054,34.11226,17.48559,11.56438,17.01453,-7.59507,-2.79717,39.32329,22.25062,-36.88013,34.81811,-9.13645,17.53717,136.58696,-0.00797,-76.60093,134.09866,0.00097,73.41447,1.51865,1.99055,0.00996,-3.23716,-4.62269,0.00881,-7.53513,-6.79028,16.42258,-29.05175,-12.38775,12.79251,-3.67891,4.66851,-2.97178
1008,-0.26757,-0.0,-0.0,-1.51137,0.0,-0.0,-6.0545,-9.59835,11.00613,12.85685,12.42484,-3.99133,-38.00556,-0.15647,-0.00268,-22.28081,-5.56613,0.00028,33.54337,17.399,11.29278,16.32941,-7.33602,-2.72369,36.99955,20.94138,-33.24569,34.55931,-9.1621,17.22206,136.1507,-0.00916,-78.30605,133.84027,0.00253,74.21434,4.60074,2.19784,-0.00258,-2.32234,-3.62955,0.00841,-7.81176,-6.7289,16.33284,-29.33103,-12.29796,12.73069,-3.6347,4.5422,-2.92963
1009,-1.66928,0.0,-0.0,-2.59559,0.0,-0.0,-5.93026,-10.0157,12.04511,13.12029,12.66908,-4.79762,-37.31697,-0.35542,-0.00313,-21.80849,-5.26673,0.00104,33.18906,17.25066,10.64032,15.71326,-7.15061,-2.3573,35.2557,19.34348,-29.71033,34.1048,-9.20148,16.87302,135.72693,-0.00482,-80.19758,133.74928,0.002,75.25589,8.08899,2.06199,-0.00804,-1.45961,-2.7418,0.00222,-8.07012,-6.74837,16.38346,-29.58667,-12.33452,12.77124,-3.43974,4.34248,-2.95558
1010,-3.56649,0.0,0.0,-3.54805,-0.0,-0.0,-5.93255,-10.56559,12.8597,13.42306,12.68337,-5.72341,-36.69365,-0.52933,-0.00084,-21.28302,-4.87325,0.00159,33.10889,17.10421,10.02297,15.20947,-6.99331,-2.00384,34.06102,17.52797,-26.42637,33.41865,-9.30567,16.48759,135.24416,0.00035,-81.48409,133.94595,0.00162,76.00139,11.55146,1.77739,-0.00765,-0.98089,-1.91955,-0.00317,-8.38389,-6.77462,16.30708,-29.90899,-12.33111,12.68916,-3.10827,4.17982,-2.88594
1011,-4.96325,0.0,-0.0,-4.02643,0.0,-0.0,-6.12,-10.99256,13.14311,13.62249,12.4374,-6.43211,-36.17603,-0.53663,0.0011,-20.73262,-4.4793,0.00115,33.20714,17.03393,9.69842,14.75907,-6.8156,-1.92752,33.15472,15.62308,-23.57619,32.64517,-9.5119,16.09366,134.73146,0.00352,-81.9872,134.36745,0.00211,76.31578,14.27477,1.33072,-0.00597,-0.91242,-1.069,-0.00437,-8.69432,-6.68732,16.04107,-30.2346,-12.15294,12.47049,-2.81031,4.13385,-2.61768
1012,-5.11567,0.0,-0.0,-4.02447,0.0,-0.0,-6.59836,-11.00729,12.96337,13.62055,12.08525,-6.6932,-35.76331,-0.42969,0.00131,-20.1922,-4.21305,-0.00022,33.32277,17.09726,9.68879,14.29014,-6.57766,-2.24833,32.19509,13.77892,-21.21151,32.03032,-9.79581,15.76937,134.30933,0.00206,-82.04001,134.74629,0.00176,76.57556,15.50837,0.73962,0.00195,-1.05681,-0.31338,-0.00238,-8.87898,-6.47261,15.76355,-30.42522,-11.852,12.28892,-2.70724,4.19255,-2.18967
1013,-4.07584,-0.0,-0.0,-3.66483,0.0,0.0,-7.38656,-10.56527,12.60717,13.42027,11.77008,-6.58649,-35.42017,-0.33661,0.0005,-19.68955,-4.12894,-0.00118,33.38636,17.28433,9.87028,13.81064,-6.2811,-2.87893,30.98748,12.09252,-19.19488,31.6836,-10.08834,15.6261,134.06262,-0.00103,-82.2122,134.83788,0.00046,76.73211,15.21396,0.22966,0.00655,-1.30415,0.20598,-0.00088,-8.92295,-6.25367,15.68602,-30.45879,-11.62006,12.29783,-2.76655,4.27957,-1.78081
1014,-2.54976,-0.0,-0.0,-3.2331,0.0,-0.0,-8.29153,-9.9678,12.33586,13.15172,11.48986,-6.43929,-35.12369,-0.3539,-0.0003,-19.26006,-4.14828,-0.00101,33.46621,17.5398,10.04389,13.40662,-5.95348,-3.57614,29.58708,10.57815,-17.29581,31.45736,-10.29162,15.70336,134.00888,-1e-05,-82.94942,134.6474,-0.00245,76.29594,14.22398,-0.11359,0.00339,-1.58111,0.64913,7e-05,-8.96307,-6.14108,15.83501,-30.47824,-11.56967,12.48067,-2.78952,4.33639,-1.56125
1015,-1.35079,0.0,-0.0,-3.13648,0.0,-0.0,-9.08383,-9.55857,12.21257,12.99822,11.15667,-6.50382,-34.88891,-0.49801,-0.00047,-18.94098,-4.15036,-0.00036,33.66433,17.80323,10.05235,13.1508,-5.62816,-4.1112,28.20333,9.23313,-15.33801,31.15919,-10.3085,15.87908,134.15572,0.00579,-84.35477,134.35149,-0.00298,75.28815,13.53067,-0.52587,-0.00171,-1.58714,1.23629,0.00315,-9.11738,-6.09778,16.0485,-30.61155,-11.6072,12.69847,-2.62915,4.33267,-1.5239
1016,-0.98765,0.0,0.0,-3.65734,-0.0,0.0,-9.7552,-9.44984,12.14464,13.07742,10.70229,-6.81523,-34.73979,-0.71064,-0.0001,-18.72361,-4.06322,7e-05,34.0051,18.01767,9.88424,13.02501,-5.3513,-4.36581,27.02756,8.07359,-13.23317,30.78263,-10.14931,15.95367,134.48134,0.0081,-85.95563,134.0918,-0.00046,74.29077,13.50357,-1.30518,-0.00576,-0.98663,1.79258,0.00326,-9.34092,-6.0158,16.13331,-30.82181,-11.5618,12.80924,-2.32804,4.23209,-1.5151
1017,-1.46555,0.0,0.0,-4.64308,-0.0,-0.0,-10.50634,-9.52177,11.99508,13.3216,10.17524,-7.25433,-34.65326,-0.90802,0.00023,-18.53692,-3.88605,0.00024,34.42949,18.15677,9.66756,12.95284,-5.16165,-4.38473,26.14968,7.07497,-10.92925,30.42446,-9.97367,15.84288,134.86276,0.00213,-86.64011,133.9489,0.00108,73.69955,13.78593,-2.67292,-0.00263,0.16375,1.95664,-0.00409,-9.50044,-5.87973,15.99182,-30.98313,-11.38365,12.72645,-2.03172,4.02049,-1.43161
1018,-2.30611,-0.0,-0.0,-5.39502,0.0,0.0,-11.5111,-9.51784,11.63598,13.47806,9.71023,-7.60138,-34.54847,-1.04736,0.00016,-18.31295,-3.68048,0.00018,34.84368,18.25781,9.5753,12.87505,-5.04954,-4.40912,25.59877,6.14606,-8.46338,30.11041,-9.93083,15.66248,135.1239,-0.00069,-85.64298,133.96925,-4e-05,73.68156,13.91413,-4.65137,0.00607,1.3636,1.65494,-0.0081,-9.54431,-5.75894,15.63491,-31.0478,-11.14117,12.43472,-1.85041,3.73838,-1.29586
1019,-3.03367,0.0,-0.0,-5.26044,0.0,0.0,-12.68884,-9.28762,11.10149,13.36244,9.3119,-7.72706,-34.37318,-1.17151,-0.00019,-18.06098,-3.49213,5e-05,35.15451,18.38005,9.64873,12.74712,-4.96771,-4.64917,25.37123,5.21027,-6.06862,29.85122,-9.98416,15.6227,135.19585,0.00405,-83.94035,134.07915,-0.00047,74.47604,13.8659,-6.78355,0.0087,1.9911,1.03415,-0.0008,-9.54856,-5.66683,15.14286,-31.08509,-10.87588,12.00513,-1.84391,3.43704,-1.14774
1020,-3.60269,0.0,-0.0,-4.4572,-0.0,-0.0,-13.74589,-9.00553,10.64973,13.08284,8.82692,-7.75243,-34.19162,-1.34953,-0.00029,-17.84759,-3.29214,6e-05,35.35135,18.52377,9.7356,12.5529,-4.8879,-5.03439,25.37914,4.27033,-4.05766,29.75448,-9.97494,15.83602,135.17433,0.00777,-83.7304,134.10257,0.00298,76.00726,13.78719,-8.34914,0.00815,1.7643,0.23173,0.00983,-9.61733,-5.53989,14.65679,-31.18281,-10.58011,11.59465,-2.00194,3.13797,-0.99534
1021,-4.08943,0.0,-0.0,-3.84007,-0.0,0.0,-14.50225,-8.98825,10.49716,12.87644,8.25761,-7.83989,-34.12774,-1.56599,0.00011,-17.70028,-3.0726,0.00011,35.5465,18.64097,9.69252,12.34066,-4.8071,-5.39174,25.46891,3.38009,-2.55751,29.91371,-9.83954,16.19814,135.1451,0.0064,-85.97448,133.96222,0.00456,77.46245,13.5044,-8.9565,0.0092,1.06405,-0.54425,0.01044,-9.7831,-5.36486,14.34723,-31.36012,-10.30405,11.36868,-2.19831,2.87297,-0.87415
1022,-4.24492,0.0,0.0,-3.79149,0.0,0.0,-15.09454,-9.30055,10.55835,12.79036,7.86493,-7.9284,-34.21713,-1.71306,0.00033,-17.56478,-2.93905,-0.00011,35.83185,18.71552,9.58829,12.14488,-4.69613,-5.76178,25.55519,2.61327,-1.48984,30.24753,-9.6808,16.46275,135.02727,0.00086,-89.17148,133.76224,0.00167,78.01074,12.75426,-8.67528,0.00572,0.6826,-1.01864,0.00357,-9.99685,-5.23241,14.28285,-31.56989,-10.15731,11.35759,-2.29802,2.71192,-0.8251
1023,-3.82387,-0.0,-0.0,-3.86013,-0.0,0.0,-15.79532,-9.67296,10.56964,12.67603,7.84159,-7.85144,-34.35327,-1.69712,0.00027,-17.36782,-2.99802,-0.00067,36.16756,18.75489,9.61593,11.93224,-4.52244,-6.33571,25.65567,2.05784,-0.81274,30.56104,-9.61326,16.46328,134.7285,0.00175,-91.08857,133.64653,-0.00064,77.9595,11.46307,-7.82357,-0.00375,1.11828,-1.127,0.00016,-10.1917,-5.22778,14.37274,-31.7577,-10.18591,11.4439,-2.28177,2.6747,-0.82939
1024,-3.33939,0.0,-0.0,-3.63913,-0.0,-0.0,-16.67206,-9.85024,10.4584,12.46168,8.06202,-7.66465,-34.38317,-1.56812,0.00027,-17.09007,-3.18189,-0.0008,36.47234,18.72079,9.78919,11.67848,-4.33169,-7.11148,25.77915,1.76841,-0.58658,30.72534,-9.63732,16.25431,134.34923,0.00621,-91.04993,133.6718,-0.00224,78.32155,9.54535,-6.77546,-0.0158,2.16139,-1.06073,-0.00032,-10.34231,-5.3252,14.50892,-31.90448,-10.32635,11.53567,-2.19528,2.65678,-0.8617
1025,-3.97912,0.0,0.0,-3.50599,0.0,-0.0,-17.47144,-9.83943,10.41213,12.28245,8.22463,-7.66262,-34.23646,-1.51761,-0.00023,-16.78846,-3.29478,-0.00015,36.73083,18.57328,9.85573,11.4327,-4.20722,-7.80326,25.88517,1.70162,-0.73029,30.75189,-9.71882,16.04658,134.07434,0.00417,-90.03853,133.80103,-0.00274,79.23454,7.15594,-5.76138,-0.02053,3.12167,-0.94697,-0.00088,-10.44981,-5.41227,14.65326,-32.00685,-10.46013,11.63903,-2.05515,2.53697,-0.92496
1026,-6.16791,0.0,-0.0,-4.02876,-0.0,-0.0,-17.90408,-9.73987,10.53524,12.26854,8.13079,-8.00598,-33.96206,-1.66795,-0.00102,-16.55725,-3.22995,0.00032,36.96338,18.36119,9.64949,11.27414,-4.15966,-8.16537,25.96927,1.75246,-0.90163,30.75315,-9.87048,16.04448,133.9628,-2e-05,-89.27034,133.93167,-0.00124,79.80669,5.15245,-4.85205,-0.00882,3.43984,-0.71529,-0.00259,-10.51445,-5.39999,14.74347,-32.06372,-10.4817,11.72856,-1.8638,2.31609,-0.97009
1027,-8.44443,0.0,-0.0,-4.93856,-0.0,-0.0,-18.01896,-9.60803,10.66614,12.32274,7.78849,-8.51346,-33.66245,-1.90777,-0.00081,-16.42899,-3.05816,0.00022,37.13583,18.17699,9.38647,11.20162,-4.13481,-8.23858,26.11944,1.86524,-0.73191,30.855,-10.06962,16.33471,133.95085,-0.00148,-89.21094,133.96039,-0.00065,79.49795,4.55931,-4.07512,0.00983,3.16172,-0.34147,-0.00385,-10.55174,-5.30744,14.67956,-32.09968,-10.37225,11.70295,-1.67812,2.0706,-0.89931
1028,-8.98771,-0.0,0.0,-5.42482,-0.0,0.0,-18.09991,-9.51417,10.58982,12.2699,7.36951,-8.91803,-33.41509,-2.03831,6e-05,-16.33687,-2.91538,5e-05,37.18717,18.0607,9.40348,11.12943,-4.08856,-8.19898,26.45062,2.05186,-0.09995,31.07629,-10.2232,16.85699,133.97862,-0.00127,-89.57468,133.89246,-0.00068,78.85736,5.56047,-3.46407,0.01686,2.76367,-0.03439,-0.00213,-10.58037,-5.22197,14.4587,-32.13948,-10.21196,11.52696,-1.57747,1.84199,-0.68311
1029,-8.19244,0.0,0.0,-5.34313,-0.0,-0.0,-18.18936,-9.47832,10.25351,12.1319,7.13769,-9.18973,-33.26268,-2.02889,0.00046,-16.20737,-2.87629,-8e-05,37.14415,18.01423,9.70687,11.00542,-3.9819,-8.1261,26.98533,2.30099,0.8035,31.28547,-10.3053,17.43507,134.00894,-0.00092,-89.883,133.87073,-0.00072,78.71416,7.27398,-3.06692,0.00934,2.54685,-0.00597,-0.00014,-10.5961,-5.19175,14.21709,-32.17137,-10.09541,11.31093,-1.5697,1.65273,-0.39344
1030,-8.0229,0.0,0.0,-5.26855,-0.0,-0.0,-18.04302,-9.37927,9.70771,12.05342,7.30613,-9.4662,-33.23166,-2.01316,0.00047,-16.04209,-2.94439,-0.00019,37.08882,18.05223,10.00665,10.83002,-3.76522,-8.04791,27.62859,2.54425,1.59822,31.35499,-10.4198,17.89129,133.9592,-0.00022,-89.98738,134.0332,-0.00122,79.11179,8.39011,-2.81211,-0.00033,2.41308,-0.11752,0.00022,-10.59889,-5.1928,14.09016,-32.18363,-10.0499,11.19114,-1.6177,1.54998,-0.11995
1031,-9.14618,0.0,0.0,-5.49663,0.0,-0.0,-17.55087,-9.09649,9.03212,12.0683,7.85364,-9.77349,-33.29082,-2.10562,0.00041,-15.89089,-3.09428,-0.00021,37.02718,18.14981,10.08626,10.60497,-3.46137,-8.07516,28.26108,2.7361,1.97742,31.33965,-10.63667,18.19745,133.76363,0.00148,-89.93817,134.33206,-0.00036,79.48368,8.053,-2.48965,-0.00734,2.18418,-0.03219,-0.00057,-10.63439,-5.16388,14.05021,-32.22019,-10.00836,11.16437,-1.70778,1.53642,0.09684
1032,-10.4746,0.0,0.0,-5.81554,0.0,0.0,-16.88159,-8.70423,8.4178,12.12857,8.54026,-10.01798,-33.33181,-2.34024,-4e-05,-15.78585,-3.2737,-0.00015,36.91924,18.19601,9.90892,10.37077,-3.20432,-8.30731,28.82334,2.9029,1.93974,31.42236,-10.85135,18.48223,133.53065,0.00172,-89.37328,134.55367,0.0002,79.54794,6.40068,-2.0102,-0.01029,1.84928,0.32795,-0.001,-10.78774,-5.04535,13.933,-32.37448,-9.8552,11.09843,-1.80816,1.51763,0.26005
1033,-10.86692,0.0,0.0,-5.99288,-0.0,-0.0,-16.24573,-8.396,8.07395,12.22188,9.12,-10.16549,-33.26219,-2.69289,-0.00085,-15.71384,-3.40114,-0.00012,36.78655,18.09354,9.51185,10.21113,-3.10959,-8.69081,29.31606,3.0883,1.7512,31.69235,-10.9077,18.84276,133.47864,-0.00599,-87.51254,134.55225,-0.00048,79.47411,4.34756,-1.38392,-0.0084,1.46994,0.77862,-0.00074,-11.11189,-4.84898,13.66317,-32.70578,-9.57369,10.91815,-1.84583,1.40316,0.38708
1034,-9.97596,0.0,0.0,-5.92257,0.0,0.0,-15.71099,-8.30941,7.95656,12.31916,9.42843,-10.26069,-33.08247,-3.05149,-0.00101,-15.63083,-3.40365,1e-05,36.67472,17.87582,9.02399,10.149,-3.14296,-9.06911,29.74948,3.30934,1.7034,32.01435,-10.79951,19.20418,133.67516,-0.01583,-84.14759,134.42825,0.00021,79.25933,2.78115,-0.55585,-0.00387,1.10612,1.22639,-0.00059,-11.557,-4.7093,13.38284,-33.16224,-9.34098,10.70695,-1.77954,1.22878,0.4945
1035,-8.15352,0.0,0.0,-5.5139,-0.0,0.0,-15.22287,-8.49995,7.76791,12.32274,9.3251,-10.31366,-32.84856,-3.22869,-2e-05,-15.4883,-3.26918,0.00034,36.56941,17.67516,8.71847,10.11385,-3.16112,-9.33231,30.0905,3.56783,1.92063,32.1509,-10.65224,19.43012,133.97139,-0.01286,-80.33722,134.42149,0.00554,78.41452,1.96679,0.35327,0.00156,0.88876,1.71904,0.00029,-12.00529,-4.75565,13.27292,-33.62103,-9.34373,10.58644,-1.62594,1.12176,0.59635
1036,-6.44533,0.0,0.0,-4.80166,0.0,-0.0,-14.67121,-8.95003,7.32326,12.18127,8.77146,-10.28945,-32.5964,-3.13748,0.00093,-15.27146,-3.06223,0.00055,36.41047,17.57455,8.8061,10.03287,-3.0729,-9.49107,30.27412,3.83973,2.30615,32.0168,-10.56476,19.50045,134.20287,-0.00218,-77.6319,134.63789,0.01096,76.77708,1.63038,1.00636,0.00331,0.98227,2.21187,0.00178,-12.37615,-4.92032,13.30302,-33.99986,-9.50786,10.5532,-1.41199,1.1424,0.70495
1037,-6.16258,0.0,0.0,-4.13452,0.0,0.0,-13.91388,-9.53286,6.84723,12.00534,7.9918,-10.22846,-32.31505,-2.94809,0.00039,-15.04316,-2.88096,0.00031,36.15334,17.5269,9.12991,9.90609,-2.91908,-9.60177,30.28758,4.05675,2.66007,31.74062,-10.56422,19.50973,134.37593,0.00395,-76.69015,134.95667,0.00637,75.4205,1.47564,1.26376,0.0015,1.41333,2.52632,0.00146,-12.67099,-5.01695,13.26385,-34.30339,-9.58331,10.48031,-1.15489,1.21158,0.83637
1038,-7.6158,0.0,-0.0,-3.92005,0.0,0.0,-12.90635,-9.98889,6.70512,11.96017,7.37719,-10.23218,-31.97833,-2.8989,-0.00115,-14.91879,-2.79478,-1e-05,35.82192,17.43419,9.33668,9.80626,-2.78859,-9.69129,30.18776,4.16775,2.89213,31.48619,-10.64367,19.55059,134.65724,0.00569,-76.93619,135.19727,-0.00106,75.67266,1.48355,1.27054,-0.00095,1.99057,2.52601,-0.00036,-12.91561,-4.97486,13.03334,-34.56114,-9.45951,10.2796,-0.86527,1.2175,1.0039
1039,-9.5765,0.0,-0.0,-4.17893,-0.0,0.0,-11.86293,-10.05846,6.87959,12.08058,7.14282,-10.31161,-31.5714,-2.97278,-0.00145,-14.94462,-2.80293,-5e-05,35.49466,17.25091,9.36162,9.81109,-2.71782,-9.78111,30.00166,4.22626,3.04282,31.33638,-10.74941,19.64802,135.16035,0.00511,-77.40882,135.28789,-0.00161,77.32232,1.62904,1.3007,-0.00262,2.48786,2.2051,-0.00148,-13.10034,-4.85044,12.69883,-34.76063,-9.22089,10.01221,-0.54637,1.13661,1.17714
1040,-10.5002,0.0,0.0,-4.58183,0.0,-0.0,-11.12119,-9.76824,7.00617,12.27077,7.16513,-10.40565,-31.07206,-2.95583,0.00032,-15.01904,-2.83982,1e-05,35.18796,16.9957,9.43351,9.8824,-2.68051,-9.89129,29.68508,4.34317,3.14558,31.31996,-10.7912,19.78194,135.774,0.0025,-77.50134,135.28043,0.00023,78.93538,1.68976,1.66964,-0.00416,2.86641,1.64034,-0.00192,-13.20786,-4.70166,12.40287,-34.8786,-8.97374,9.79024,-0.23253,1.03421,1.27052
1041,-9.88225,-0.0,-0.0,-4.82689,0.0,-0.0,-10.80407,-9.44419,6.89393,12.43321,7.20862,-10.49383,-30.44414,-2.76303,0.00209,-14.98286,-2.83532,0.00012,34.79487,16.71759,9.66129,9.85269,-2.63391,-10.03113,29.21222,4.54447,3.23546,31.38549,-10.7257,19.94568,136.33476,-0.00228,-76.91814,135.25906,0.00081,79.58778,1.62157,2.35817,-0.0047,3.17584,0.97812,-0.00149,-13.2607,-4.57803,12.19536,-34.93755,-8.78246,9.64192,-0.00747,0.98375,1.23214
1042,-8.27051,0.0,-0.0,-4.9223,0.0,-0.0,-10.70268,-9.36949,6.76135,12.55206,7.2075,-10.54913,-29.69498,-2.53188,0.00162,-14.77892,-2.77817,0.00021,34.23069,16.47138,9.87733,9.6242,-2.55723,-10.23553,28.64488,4.76081,3.38989,31.36007,-10.59268,20.15511,136.88521,-0.00852,-75.67337,135.22668,0.00071,79.46622,1.69425,2.76703,-0.00513,3.37501,0.39393,-6e-05,-13.2941,-4.53577,12.06028,-34.97704,-8.69344,9.53111,0.09354,0.99095,1.13797
1043,-6.50207,0.0,-0.0,-5.10638,0.0,0.0,-10.50054,-9.58809,6.94449,12.6714,7.21594,-10.4922,-28.92258,-2.41735,-0.00022,-14.48955,-2.70323,8e-05,33.57206,16.28532,9.85839,9.30016,-2.45715,-10.54192,28.09177,4.95063,3.61295,31.09848,-10.45582,20.39479,137.56061,-0.00935,-74.33858,135.10442,0.0008,79.22522,2.00767,2.32539,-0.00652,3.42858,-0.03526,0.0008,-13.30185,-4.58278,11.96256,-34.99353,-8.70113,9.42197,0.14526,0.99596,1.12705
1044,-5.18917,0.0,-0.0,-5.47509,0.0,-0.0,-10.07071,-9.92814,7.4927,12.81127,7.16381,-10.31093,-28.24856,-2.4291,-0.00122,-14.22987,-2.62005,-7e-05,32.96107,16.13907,9.56929,9.04089,-2.35244,-10.89957,27.61296,5.13863,3.79237,30.68499,-10.33927,20.61164,138.32445,-0.00118,-73.7216,134.87007,0.00112,79.2146,2.21842,1.26791,-0.00259,3.41683,-0.29637,0.00056,-13.24902,-4.66281,11.85737,-34.95169,-8.73673,9.29348,0.24113,0.95956,1.23745
