PaulMeinheit/Bachelor_Muay_Thai/processed_Data/E3/teep/sliced/JointAngles/sliced0.csv
Unnamed: 0_level_0,L_MTP_ANGLE,L_MTP_ANGLE,L_MTP_ANGLE,R_MTP_ANGLE,R_MTP_ANGLE,R_MTP_ANGLE,L_ANKLE_ANGLE,L_ANKLE_ANGLE,L_ANKLE_ANGLE,R_ANKLE_ANGLE,R_ANKLE_ANGLE,R_ANKLE_ANGLE,L_KNEE_ANGLE,L_KNEE_ANGLE,L_KNEE_ANGLE,R_KNEE_ANGLE,R_KNEE_ANGLE,R_KNEE_ANGLE,L_HIP_ANGLE,L_HIP_ANGLE,L_HIP_ANGLE,R_HIP_ANGLE,R_HIP_ANGLE,R_HIP_ANGLE,L_SHOULDER_ANGLE,L_SHOULDER_ANGLE,L_SHOULDER_ANGLE,R_SHOULDER_ANGLE,R_SHOULDER_ANGLE,R_SHOULDER_ANGLE,L_ELBOW_ANGLE,L_ELBOW_ANGLE,L_ELBOW_ANGLE,R_ELBOW_ANGLE,R_ELBOW_ANGLE,R_ELBOW_ANGLE,L_WRIST_ANGLE,L_WRIST_ANGLE,L_WRIST_ANGLE,R_WRIST_ANGLE,R_WRIST_ANGLE,R_WRIST_ANGLE,NECK_ANGLE,NECK_ANGLE,NECK_ANGLE,NECK_ANGLE_SHADOW,NECK_ANGLE_SHADOW,NECK_ANGLE_SHADOW,Trunk_Joint_Angle,Trunk_Joint_Angle,Trunk_Joint_Angle
ITEM,X,Y,Z,X,Y,Z,X,Y,Z,X,Y,Z,X,Y,Z,X,Y,Z,X,Y,Z,X,Y,Z,X,Y,Z,X,Y,Z,X,Y,Z,X,Y,Z,X,Y,Z,X,Y,Z,X,Y,Z,X,Y,Z,X,Y,Z
132,-5.09967,0.0,0.0,0.76604,0.0,-0.0,3.10645,-6.542,1.89008,14.74138,5.71243,-25.71291,-16.38431,0.23907,0.00077,-31.44892,-2.37814,0.0044,22.86858,-1.89445,3.93117,8.36967,-11.85204,-16.51091,24.17516,19.76504,-8.29069,32.47657,-11.6042,18.05099,135.87334,0.00404,-81.22002,133.07364,0.00243,91.57047,3.85647,12.02507,0.01236,3.66431,3.34309,0.00525,0.52426,-2.09091,-0.76623,-21.41297,-1.65345,-1.4918,10.14761,-6.41872,10.54656
133,-6.21087,0.0,0.0,0.35512,-0.0,0.0,3.74682,-6.17776,2.62903,15.08986,5.50491,-25.75167,-16.7023,0.02464,0.00088,-30.38627,-2.26312,0.0045,22.80995,-1.78018,3.99528,7.88333,-11.89379,-16.25213,23.9432,21.02221,-7.90014,32.39032,-11.34322,18.38439,135.94553,0.00289,-80.00859,133.15218,0.00205,90.60858,5.06282,10.65444,-0.04391,4.12716,3.62206,0.00393,0.57253,-2.54829,-0.41265,-21.37373,-2.20972,-1.33491,10.31004,-6.17406,10.76114
134,-6.28295,0.0,-0.0,0.17715,0.0,-0.0,3.96067,-5.62432,3.24504,15.35328,5.70036,-25.34764,-17.04208,-0.10553,0.00015,-29.16169,-2.31038,-0.00142,22.75178,-1.62805,4.31509,7.34282,-11.90373,-16.12082,23.68469,22.44414,-7.58121,32.26786,-11.07883,18.89751,136.1199,-0.00026,-78.69991,133.18416,0.00059,89.8771,6.99537,7.4481,-0.07963,4.27548,3.60683,0.00224,0.57317,-2.97419,0.20685,-21.38465,-2.83606,-0.91981,10.47095,-5.86844,10.86282
135,-4.74266,0.0,0.0,0.08919,0.0,-0.0,3.64303,-5.14266,3.42547,15.54441,6.41165,-24.23675,-17.34682,-0.06333,-0.00074,-27.82395,-2.64719,-0.00863,22.70136,-1.4474,4.97948,6.74952,-11.89123,-16.59171,23.39746,23.942,-7.38006,32.14089,-10.85831,19.5047,136.38695,-0.00412,-77.46676,133.17529,0.00017,89.29074,8.45117,3.8184,-0.03389,4.18857,3.52558,0.00098,0.60479,-3.16484,0.97771,-21.35986,-3.30075,-0.27629,10.60118,-5.50987,10.80123
136,-2.51969,0.0,-0.0,0.00826,0.0,-0.0,3.16004,-4.91596,3.35644,15.68328,7.35626,-22.63316,-17.57715,0.09917,-0.00095,-26.46883,-3.09915,-0.00851,22.65828,-1.29576,5.76196,6.15784,-11.92988,-17.42478,23.17955,25.46532,-7.43027,32.04989,-10.66465,20.07857,136.61859,-0.00574,-76.2892,133.20264,0.00075,88.54131,8.71444,1.32572,0.01315,4.06513,3.75687,-0.00085,0.66898,-3.11576,1.66217,-21.29436,-3.51085,0.37705,10.72003,-5.14289,10.66899
137,-1.31697,-0.0,0.0,-0.04797,-0.0,0.0,3.03016,-4.99281,3.63682,15.76661,7.99326,-21.15645,-17.73241,0.19381,-0.00045,-25.14783,-3.29297,-0.00019,22.59916,-1.18854,6.24886,5.61539,-12.08854,-17.8354,23.11046,27.03562,-7.85463,32.02025,-10.47359,20.56644,136.74812,-0.00378,-75.89409,133.2655,0.00066,87.71544,7.83437,0.46954,0.00857,3.95917,4.32264,-0.00292,0.70047,-2.96611,2.08507,-21.25776,-3.52999,0.82552,10.88221,-4.79648,10.65279
138,-1.88759,0.0,-0.0,-0.08053,0.0,-0.0,3.42671,-5.35929,4.63881,15.78334,8.02558,-20.2283,-17.88589,0.0785,0.00043,-23.85382,-3.02778,0.00793,22.52544,-1.07728,6.24134,5.12701,-12.3759,-17.35794,23.14767,28.71108,-8.55921,32.05907,-10.24625,21.05489,136.90994,0.00252,-76.91431,133.26161,-2e-05,87.28328,6.52194,0.36857,-0.00811,3.7565,4.8238,-0.00319,0.69299,-2.88969,2.31478,-21.26206,-3.54489,1.06733,11.09464,-4.46663,10.80321
139,-3.36997,-0.0,-0.0,-0.15662,0.0,-0.0,4.04741,-5.8885,6.06475,15.75895,7.75992,-19.62895,-18.17028,-0.17715,0.00112,-22.5884,-2.48198,0.00808,22.50986,-0.94244,5.9876,4.68684,-12.77481,-16.35572,23.1797,30.53232,-9.24504,32.16144,-9.94895,21.70262,137.29736,0.00728,-78.64433,133.08601,-0.00043,87.36411,5.73453,-0.24889,-0.02026,3.26346,4.79392,0.00243,0.69169,-3.03779,2.58891,-21.26482,-3.7846,1.26627,11.30406,-4.14014,10.954
140,-4.31418,0.0,0.0,-0.31013,-0.0,0.0,4.45673,-6.28537,7.25509,15.72858,7.80248,-18.78856,-18.67887,-0.37456,0.00048,-21.37602,-2.01372,0.00168,22.62608,-0.81759,5.96252,4.28721,-13.25926,-15.59125,23.19278,32.49255,-9.74081,32.335,-9.59688,22.57387,137.85596,0.00289,-79.75625,132.72621,-0.00129,87.53661,5.89939,-1.43864,-0.03013,2.41745,4.09138,0.01081,0.69974,-3.46041,3.07777,-21.2635,-4.35908,1.56163,11.44605,-3.79055,10.92354
141,-4.07655,0.0,0.0,-0.45416,0.0,0.0,4.49502,-6.25314,7.8179,15.64268,8.38254,-17.45648,-19.38781,-0.40455,-0.00102,-20.21049,-1.79869,-0.00332,22.85896,-0.70991,6.43689,3.89432,-13.76751,-15.43944,23.33802,34.5747,-10.22165,32.59968,-9.21705,23.55081,138.30579,-0.00079,-79.70413,132.30081,-0.00165,87.52284,6.56499,-1.91951,-0.01987,1.41831,3.02666,0.01089,0.68387,-4.05036,3.77164,-21.28971,-5.16521,1.98451,11.4819,-3.38656,10.67353
142,-3.08412,0.0,-0.0,-0.46673,0.0,-0.0,4.31296,-5.77962,7.84457,15.39958,9.16371,-15.87169,-20.20096,-0.3254,-0.00168,-19.05815,-1.72362,-0.0029,23.15466,-0.56223,7.31743,3.49712,-14.22757,-15.67438,23.79198,36.78994,-10.99144,32.95579,-8.78062,24.45376,138.5289,-0.00017,-78.72297,131.97818,-0.00152,87.14202,7.1735,-0.86351,-0.0035,0.50046,2.14939,0.00184,0.64699,-4.62343,4.5455,-21.3362,-5.98542,2.48799,11.43083,-2.94004,10.24405
143,-2.07487,-0.0,-0.0,-0.34389,0.0,-0.0,4.0945,-5.18607,7.67091,14.97676,9.76643,-14.31227,-21.05263,-0.2601,-0.00139,-17.93193,-1.6219,-0.00045,23.50616,-0.29834,8.34209,3.17576,-14.60729,-15.89351,24.61311,39.12068,-12.17868,33.365,-8.25805,25.20189,138.71638,-0.00382,-77.16051,131.84244,-1e-05,85.90723,7.80471,0.89827,0.00245,-0.29776,1.83678,-0.0066,0.65985,-5.06093,5.28733,-21.32812,-6.66784,3.01282,11.34782,-2.50401,9.68708
144,-1.37052,-0.0,0.0,-0.18913,0.0,0.0,3.86976,-4.7903,7.60449,14.43281,10.18014,-12.80818,-21.96051,-0.27726,-0.00117,-16.88758,-1.48002,7e-05,23.9457,0.11009,9.28332,3.02973,-14.90524,-15.91118,25.83944,41.46579,-13.80843,33.73233,-7.7476,25.80306,139.0434,-0.00909,-75.30785,131.88037,0.00285,83.80059,8.63658,1.91265,-0.00465,-1.01958,1.99169,-0.0077,0.80921,-5.36497,5.96863,-21.17797,-7.20379,3.53191,11.2455,-2.10865,9.10176
145,-0.88236,0.0,0.0,-0.13491,-0.0,0.0,3.57439,-4.65618,7.83927,13.85815,10.47878,-11.42369,-23.00591,-0.38936,-0.00053,-15.93815,-1.33892,-0.00015,24.53069,0.62547,9.97134,3.08444,-15.1241,-15.68181,27.71607,43.7081,-16.14433,33.9286,-7.44669,26.28276,139.38921,-0.00564,-73.40517,132.03429,0.00258,81.88375,9.14045,1.89688,-0.00842,-1.6963,2.20119,-0.00275,1.11444,-5.59328,6.60869,-20.86798,-7.65402,4.04152,11.11572,-1.74805,8.64144
146,-0.59149,0.0,-0.0,-0.34099,-0.0,0.0,3.17566,-4.74489,8.43803,13.36767,10.49695,-10.46331,-24.24323,-0.62253,0.00156,-15.05205,-1.15077,0.00091,25.32394,1.19818,10.30016,3.32607,-15.27872,-15.09648,30.67512,45.77567,-19.75852,33.92221,-7.44795,26.67505,139.50943,0.0051,-71.38792,132.19496,-9e-05,81.29685,8.41664,1.80405,-0.0123,-2.43659,2.17758,0.00255,1.51877,-5.77361,7.2253,-20.45554,-8.05088,4.54778,11.0035,-1.43359,8.43129
147,-0.6013,-0.0,-0.0,-0.87986,0.0,0.0,2.67015,-5.04612,9.22801,13.01161,10.13772,-10.08018,-25.59738,-0.9997,0.00314,-14.23019,-0.87999,0.00177,26.28933,1.8138,10.34421,3.7315,-15.39791,-14.1662,34.92966,47.57808,-24.98542,33.87119,-7.62483,26.9913,139.371,0.01035,-69.03113,132.25566,-0.00011,81.9647,6.09774,2.28178,-0.02277,-3.30046,1.97771,0.0035,1.93523,-5.90644,7.83507,-20.02699,-8.40099,5.06597,10.94683,-1.19854,8.45265
148,-0.81945,0.0,-0.0,-1.55353,-0.0,0.0,2.03015,-5.50516,9.80095,12.67886,9.69258,-9.95798,-26.91376,-1.45254,0.00142,-13.50024,-0.62125,0.00089,27.263,2.50621,10.37671,4.22031,-15.47315,-13.23189,40.09986,48.98985,-31.30576,33.96875,-7.7521,27.20133,139.13336,0.00069,-66.89972,132.26593,0.00159,82.63137,2.6899,3.04436,-0.01717,-4.06452,1.87511,0.00116,2.26267,-6.01796,8.45709,-19.68398,-8.73572,5.60408,10.8941,-1.00691,8.51033
149,-0.98472,0.0,-0.0,-2.0624,-0.0,0.0,1.23451,-6.0061,9.81913,12.2058,9.5112,-9.64798,-28.15334,-1.85843,-0.00136,-12.84869,-0.50297,-0.00071,28.11581,3.36663,10.61399,4.66798,-15.40813,-12.68195,45.4653,49.94257,-37.65659,34.20504,-7.70802,27.29383,138.81885,-0.01631,-66.1179,132.41916,0.00517,82.24834,-0.60696,3.83562,-0.00212,-4.35042,2.0579,0.00259,2.43944,-6.15481,9.13879,-19.48877,-9.1159,6.18881,10.75454,-0.7063,8.37816
150,-1.00104,0.0,-0.0,-2.39166,-0.0,0.0,0.30951,-6.43594,9.35384,11.57287,9.55701,-9.04867,-29.4495,-2.19323,-0.00065,-12.2459,-0.54365,-0.00141,28.88425,4.4713,10.95896,5.01512,-15.09879,-12.51561,50.68723,50.38363,-43.49874,34.40498,-7.57669,27.32801,138.23006,-0.01967,-66.39709,132.8131,0.00729,81.06313,-2.49603,4.97509,0.01514,-4.06989,2.44571,0.00734,2.56481,-6.30201,10.00146,-19.33511,-9.57254,6.93944,10.46415,-0.17315,8.00456
151,-1.05187,0.0,-0.0,-2.75774,0.0,0.0,-0.68442,-6.72162,8.79947,10.92068,9.53939,-8.42446,-30.93184,-2.53079,0.00286,-11.70799,-0.65074,-0.00084,29.68435,5.73504,11.11791,5.2914,-14.59373,-12.37374,56.0459,50.17952,-49.22976,34.49197,-7.59635,27.40608,137.23421,0.0062,-65.929,133.32523,0.00404,80.00465,-2.57207,6.70237,0.03238,-3.72888,2.84602,0.00706,2.85749,-6.31567,11.15769,-18.98628,-10.01336,8.01656,9.97829,0.509,7.51991
152,-1.29571,0.0,0.0,-3.18696,-0.0,0.0,-1.65483,-6.88837,8.42363,10.36478,9.36047,-8.03314,-32.57115,-2.86216,0.00334,-11.26976,-0.73199,2e-05,30.55675,6.92876,10.97546,5.52755,-14.07834,-11.99322,61.84982,49.23825,-55.39261,34.59315,-7.95717,27.54237,135.91443,0.03488,-63.77041,133.76602,0.00104,79.70602,-1.61052,8.83696,0.027,-4.04413,3.29806,-0.00158,3.38967,-6.03505,12.53102,-18.35655,-10.25975,9.41025,9.28955,1.1396,7.06592
153,-1.58548,-0.0,0.0,-3.41268,-0.0,-0.0,-2.49465,-7.09961,8.14392,9.86853,9.27078,-7.82658,-34.18971,-3.06309,-0.00059,-10.94848,-0.78624,0.00031,31.4319,7.91939,10.73226,5.75346,-13.67389,-11.46295,67.862,47.71767,-61.82756,34.9,-8.59959,27.55237,134.43463,0.02911,-60.9273,134.03769,0.00241,80.09437,-0.6777,11.28362,0.00846,-5.0548,4.09959,-0.01056,4.00231,-5.50483,13.8642,-17.6194,-10.25717,10.86193,8.47437,1.65065,6.68931
154,-1.67032,0.0,0.0,-3.26706,0.0,0.0,-3.17737,-7.50167,7.79453,9.35667,9.56328,-7.5604,-35.55047,-3.09527,-0.0031,-10.76414,-0.87397,0.00025,32.20113,8.7921,10.63887,6.0528,-13.358,-10.98649,73.50635,46.05883,-67.8764,35.51668,-9.25025,27.21765,132.97401,0.0051,-58.9478,134.07707,-0.00135,79.99208,-0.2223,14.21886,0.014,-5.99183,5.18335,-0.00471,4.54885,-4.94256,14.96076,-16.95286,-10.13558,12.10376,7.65583,2.12188,6.32621
155,-1.54687,-0.0,0.0,-3.05145,-0.0,0.0,-3.82695,-8.01497,7.42161,8.89485,10.13178,-7.1572,-36.46719,-3.09326,-0.00189,-10.73567,-0.99717,0.00023,32.80088,9.6805,10.72905,6.51377,-13.08315,-10.54876,78.44622,44.73399,-73.19475,36.41006,-9.66578,26.56173,131.82341,0.01121,-58.18728,133.78903,-0.02009,78.04707,-0.16608,17.62461,0.05067,-6.25108,5.60101,0.00436,5.03138,-4.45934,15.84417,-16.3658,-10.00779,13.11552,6.92071,2.57817,5.81378
156,-1.40867,-0.0,-0.0,-3.27126,0.0,-0.0,-4.63956,-8.38644,7.13384,8.63943,10.50955,-6.77141,-36.89264,-3.1834,-0.00038,-10.83928,-1.06563,4e-05,33.24836,10.60391,10.88273,7.13745,-12.8458,-9.98731,82.80407,43.83523,-78.14318,37.42002,-9.80757,25.76987,131.38701,0.04243,-57.76112,133.22668,-0.02964,74.5662,-0.97958,20.93074,0.07481,-6.01452,4.37606,0.00575,5.47434,-3.97274,16.64976,-15.82009,-9.84701,14.055,6.28496,2.94149,5.00606
157,-1.38696,-0.0,-0.0,-3.92809,0.0,-0.0,-5.70719,-8.49672,6.83451,8.60166,10.40562,-6.47645,-36.93693,-3.33655,1e-05,-11.0096,-1.01049,-0.00031,33.59934,11.52233,11.01101,7.82866,-12.6235,-9.28503,86.90507,42.93866,-83.43433,38.34005,-9.80574,24.87122,131.95818,0.0264,-56.36269,132.73778,-0.01119,71.25616,-3.975,23.43343,0.07718,-5.69766,2.05227,0.01239,5.82741,-3.41505,17.44056,-15.35719,-9.6131,15.00627,5.68858,3.19178,3.92983
158,-1.48212,0.0,-0.0,-4.3796,0.0,0.0,-6.91321,-8.51538,6.37398,8.60478,9.99659,-6.15343,-36.8317,-3.44063,0.00038,-11.1964,-0.87401,-0.0004,33.89238,12.41452,11.09249,8.47089,-12.36097,-8.58926,90.85504,41.47623,-89.3648,39.05754,-9.81951,23.74072,133.42029,-0.07542,-52.27621,132.65872,0.00426,69.56055,-9.17105,25.39441,0.06127,-5.38786,0.51607,0.02041,6.01901,-2.89986,18.19117,-15.05874,-9.40274,15.90339,5.02923,3.43705,2.77423
159,-1.62831,0.0,-0.0,-4.15928,0.0,-0.0,-8.01963,-8.61505,5.84171,8.53052,9.69263,-5.7186,-36.83004,-3.42849,0.00071,-11.41358,-0.7684,-0.0,34.15252,13.22992,11.11937,9.01803,-12.05479,-8.02599,94.41785,39.25434,-95.38605,39.63228,-9.94127,22.43306,135.19783,-0.14455,-44.53949,132.91423,0.00136,70.0564,-14.18592,28.1094,0.04161,-5.25684,0.8891,0.01133,6.08024,-2.58427,18.87386,-14.90634,-9.35291,16.66329,4.25331,3.76647,1.71586
160,-1.75497,-0.0,0.0,-3.63894,0.0,-0.0,-8.85654,-8.73785,5.46432,8.47891,9.75866,-5.25338,-37.0593,-3.296,0.00031,-11.7342,-0.76855,0.00062,34.37931,13.86525,11.12028,9.50969,-11.79227,-7.5987,97.31223,36.59896,-100.49059,40.21356,-10.17457,21.26902,136.55911,-0.06657,-35.68383,133.13541,0.00225,72.49008,-17.16713,31.94827,0.05381,-5.9106,2.37311,-0.0114,6.18714,-2.39317,19.47628,-14.72157,-9.38962,17.30221,3.39043,4.10425,0.76688
161,-1.82334,-0.0,0.0,-3.50731,-0.0,-0.0,-9.41254,-8.82254,5.27206,8.61293,10.10481,-4.8687,-37.47232,-3.02918,-0.00097,-12.21581,-0.83965,0.0006,34.51752,14.25464,11.23282,10.00405,-11.68284,-7.20643,99.45044,33.9838,-103.85078,40.85594,-10.47105,20.47164,137.01266,0.02361,-30.47884,133.10823,0.00871,75.80702,-18.81274,35.1455,0.04352,-7.65133,3.38781,-0.00254,6.49334,-2.05549,19.95906,-14.34041,-9.24596,17.88092,2.50465,4.28251,-0.20486
162,-1.82122,0.0,0.0,-3.91439,-0.0,0.0,-9.74933,-8.95547,5.08871,8.92568,10.42383,-4.52346,-37.95271,-2.61416,-0.00216,-12.81732,-0.88141,-0.00039,34.53879,14.43822,11.57731,10.53327,-11.75888,-6.77328,100.91974,31.55149,-105.15627,41.43354,-10.79253,19.89258,136.43198,0.0075,-30.57914,132.95457,0.00527,78.73874,-20.46907,35.69454,0.02007,-9.79021,3.09342,0.02597,6.92976,-1.47843,20.2483,-13.83741,-8.80918,18.36206,1.67492,4.23717,-1.31009
163,-1.6805,-0.0,-0.0,-4.49094,0.0,-0.0,-9.90637,-9.18014,4.89137,9.23695,10.58228,-4.04698,-38.42377,-2.173,-0.00162,-13.42633,-0.86936,-0.00091,34.53093,14.53271,11.98417,11.10519,-11.9282,-6.38595,101.90542,29.10387,-104.76467,41.74189,-11.11245,19.22072,135.01787,-0.02103,-33.29042,132.93626,-0.00214,80.51625,-22.59189,33.73359,-0.00254,-11.21972,1.67841,0.01975,7.26104,-0.91576,20.32456,-13.46699,-8.31001,18.63573,0.97953,4.06988,-2.50938
164,-1.24442,-0.0,0.0,-4.89505,-0.0,0.0,-9.94544,-9.43701,4.93574,9.39392,10.72392,-3.34704,-38.86628,-1.94144,0.00054,-13.97479,-0.9038,-9e-05,34.6227,14.65138,12.05854,11.7036,-12.03444,-6.22088,102.5347,26.55448,-103.54567,41.66139,-11.38586,18.32593,133.35347,-0.00438,-35.70401,133.21115,0.00053,80.89088,-25.75497,30.90814,0.01709,-11.40536,-0.22376,-0.01138,7.35153,-0.67084,20.30784,-13.36605,-8.07501,18.70749,0.43311,3.934,-3.65716
165,-0.51181,-0.0,0.0,-5.03574,-0.0,-0.0,-9.94983,-9.67407,5.38323,9.42151,10.93432,-2.53382,-39.30231,-2.00084,0.00212,-14.48224,-1.0601,0.00084,34.85848,14.82766,11.6415,12.29429,-12.00029,-6.3011,102.74133,24.16325,-102.27659,41.23697,-11.58154,17.30829,132.14923,0.00532,-37.6266,133.7444,0.00916,80.02139,-30.79291,28.038,0.10183,-10.65528,-2.06838,-0.02455,7.31161,-0.74202,20.39119,-13.39946,-8.17107,18.7608,-0.02786,3.90805,-4.63582
166,0.20368,0.0,-0.0,-4.97055,-0.0,0.0,-9.91625,-9.80946,6.02912,9.46456,11.10101,-1.81355,-39.77212,-2.16795,0.00157,-14.98469,-1.26811,0.00059,35.18902,15.02345,11.04434,12.85746,-11.89004,-6.41197,102.40365,22.20506,-101.16274,40.63869,-11.70851,16.31015,131.73227,-0.00915,-39.84587,134.33913,0.00928,78.57749,-37.10277,25.01683,0.1009,-9.63046,-3.51996,-0.01359,7.32304,-0.86457,20.69749,-13.35691,-8.39395,19.00657,-0.46515,3.96169,-5.39919
167,0.63641,-0.0,0.0,-4.73786,0.0,-0.0,-9.81935,-9.69617,6.53311,9.57082,11.21822,-1.27182,-40.2976,-2.21462,-0.00049,-15.46701,-1.42568,-0.00026,35.55954,15.23065,10.73276,13.41424,-11.79227,-6.32086,101.53139,20.61799,-99.9368,40.03445,-11.78465,15.3865,131.79459,-0.02218,-41.22031,134.76378,0.00135,77.47537,-42.06184,22.72002,-0.02985,-8.73496,-4.32399,0.00113,7.35506,-0.85297,21.22791,-13.25823,-8.5701,19.51249,-0.86766,4.02983,-5.94569
168,0.87164,0.0,0.0,-4.27305,0.0,0.0,-9.76456,-9.29076,6.72842,9.60055,11.48631,-0.80971,-40.87125,-2.08111,-0.00209,-15.88182,-1.54951,-0.00047,35.96645,15.52932,10.89311,13.99894,-11.67557,-5.99463,100.24202,19.13924,-98.26221,39.45968,-11.82941,14.58412,131.64087,0.04203,-38.76995,134.9545,-0.00455,77.37632,-42.41488,23.05308,0.12293,-8.1226,-4.26755,0.00593,7.19335,-0.79234,21.90399,-13.33,-8.75084,20.17426,-1.19009,4.12262,-6.32989
169,1.12114,0.0,-0.0,-3.73339,0.0,-0.0,-9.88969,-8.79076,6.69456,9.47621,11.96804,-0.37903,-41.47117,-1.89332,-0.00146,-16.21558,-1.71235,-0.00014,36.42531,16.00117,11.29053,14.61105,-11.42884,-5.51035,98.68784,17.61641,-96.07404,38.83077,-11.88497,14.05023,130.71783,0.17654,-31.2589,135.0874,-0.00622,78.19875,-36.27517,26.53901,0.59022,-7.95649,-3.51479,-0.00025,6.7741,-0.89301,22.57671,-13.66581,-9.08051,20.77643,-1.44137,4.31254,-6.63703
170,1.46668,0.0,0.0,-3.63312,0.0,-0.0,-10.17349,-8.48787,6.64955,9.35432,12.45635,-0.12747,-42.07292,-1.83342,0.00085,-16.50528,-1.90691,3e-05,36.92797,16.59451,11.49554,15.2131,-11.03685,-4.91044,97.04059,16.04836,-93.74346,38.11145,-11.98316,13.93937,129.15266,0.16407,-22.6486,135.38373,-0.00086,78.9258,-25.91199,30.87592,0.5298,-8.17062,-2.88175,-0.0063,6.31174,-1.23971,23.05231,-14.0837,-9.57132,21.10547,-1.68969,4.61023,-6.90541
171,1.83883,-0.0,0.0,-4.06141,-0.0,0.0,-10.46505,-8.46069,6.68744,9.34451,12.75918,-0.08516,-42.66888,-1.92754,0.00211,-16.78706,-2.0738,-2e-05,37.44437,17.12928,11.33216,15.76343,-10.64477,-4.30557,95.4575,14.51957,-91.94408,37.39767,-12.07887,14.25924,127.80146,0.02464,-19.75102,135.89081,0.01038,78.53651,-18.91997,32.91361,0.10176,-8.32,-3.19716,-0.01071,6.02518,-1.70663,23.25098,-14.37131,-10.07818,21.12926,-1.99368,4.92845,-7.152
172,2.07158,0.0,0.0,-4.33357,0.0,0.0,-10.66379,-8.52394,6.65255,9.31549,12.87995,0.03606,-43.28641,-2.00971,0.00099,-17.06428,-2.20229,6e-05,37.94629,17.47632,11.01702,16.2481,-10.40481,-3.91431,94.03741,13.25107,-91.16867,36.77952,-12.08211,14.88616,127.46571,0.03842,-25.29361,136.51006,0.01038,77.38696,-21.86386,31.79023,0.26301,-8.118,-4.30572,-0.01368,5.90989,-2.07958,23.29983,-14.50347,-10.44476,21.04361,-2.36086,5.18071,-7.4393
173,1.99131,-0.0,-0.0,-3.86589,0.0,0.0,-10.80003,-8.49824,6.35698,9.14251,12.87988,0.488,-43.96713,-1.94134,-0.00115,-17.32186,-2.32554,0.00037,38.42144,17.7066,10.82665,16.67414,-10.29586,-3.83889,92.83007,12.58463,-91.24817,36.19699,-11.99434,15.63626,128.21437,0.12453,-35.40698,137.15047,-0.00398,76.89322,-32.53001,28.71668,0.47402,-7.79377,-5.33058,-0.00872,5.8538,-2.22571,23.38127,-14.55792,-10.61009,21.06934,-2.77099,5.3606,-7.79888
174,1.56135,0.0,0.0,-2.84904,-0.0,0.0,-10.95181,-8.40735,5.81675,8.91512,12.71507,1.15081,-44.7167,-1.73918,-0.0025,-17.55184,-2.43831,0.00046,38.86872,18.00171,10.82761,17.04509,-10.16983,-3.91916,91.88343,12.78055,-91.40963,35.55119,-11.93214,16.27192,129.34012,0.08604,-44.32564,137.76544,-0.01145,77.52911,-42.04712,25.59646,0.15316,-7.59779,-5.88455,-0.004,5.81152,-2.16202,23.5266,-14.57611,-10.60102,21.23041,-3.21504,5.51159,-8.14738
175,1.03092,0.0,0.0,-2.07668,0.0,0.0,-11.17497,-8.45984,5.27426,8.87077,12.32385,1.62872,-45.46568,-1.5245,-0.00189,-17.79416,-2.46293,-0.00021,39.27882,18.43024,10.90399,17.38709,-9.96483,-3.81574,91.24008,13.78971,-90.97489,34.9211,-11.96199,16.60942,130.01521,-0.00044,-49.6737,138.29964,-0.00357,78.26156,-43.85045,23.9367,-0.09676,-7.38049,-6.21674,-0.00375,5.78092,-2.01692,23.60499,-14.5865,-10.49227,21.35651,-3.69638,5.63555,-8.37049
176,0.76703,-0.0,0.0,-2.23806,0.0,0.0,-11.50571,-8.85226,5.0028,9.16915,11.78754,1.62324,-46.09025,-1.44955,-4e-05,-18.13352,-2.33932,-0.00151,39.61249,18.88061,10.91647,17.76934,-9.78393,-3.24521,90.86823,15.224,-90.00781,34.52589,-12.02683,16.71507,129.84227,-0.04272,-52.51112,138.69609,0.00412,78.39472,-38.80191,24.54688,0.06368,-6.93564,-6.34747,-0.00177,5.71215,-1.95688,23.51196,-14.66426,-10.40362,21.28913,-4.20674,5.66207,-8.43885
177,0.82358,0.0,0.0,-3.15156,-0.0,-0.0,-11.93579,-9.47795,4.99968,9.68196,11.30118,1.23029,-46.51854,-1.57506,0.00098,-18.60289,-2.14453,-0.00205,39.8472,19.2116,10.83569,18.24117,-9.72662,-2.27212,90.65509,16.61543,-89.08102,34.46063,-12.11266,16.8495,129.00549,-0.04764,-54.7849,138.96088,0.00272,78.56249,-32.56173,27.12059,0.1682,-6.33473,-5.95447,0.00399,5.51404,-2.11576,23.30285,-14.90124,-10.47972,21.03365,-4.70599,5.57583,-8.40929
178,0.96461,0.0,0.0,-4.03049,0.0,-0.0,-12.41313,-9.97025,4.99531,10.11919,11.03926,0.82001,-46.80668,-1.80654,0.00085,-19.14708,-2.05161,-0.001,40.0518,19.4035,10.70621,18.78368,-9.73749,-1.31215,90.50255,17.71764,-88.50908,34.57008,-12.35535,17.13646,128.15833,-0.0248,-56.81239,139.18739,-0.00233,79.45103,-28.85969,29.98287,0.05717,-5.7695,-5.04163,0.00682,5.15273,-2.522,23.08811,-15.31825,-10.78543,20.68472,-5.13364,5.51304,-8.33418
179,1.07761,0.0,0.0,-4.46629,-0.0,-0.0,-12.88206,-10.16153,4.80404,10.35197,11.05592,0.69055,-47.06136,-1.99727,0.00028,-19.72299,-2.16781,0.00076,40.32584,19.53053,10.56746,19.36061,-9.70619,-0.76945,90.40089,18.54076,-88.19546,34.63303,-12.88097,17.39919,127.95547,-0.00991,-57.03743,139.46393,-0.00311,80.57471,-26.49448,31.32465,-0.04709,-5.34604,-4.19074,0.00428,4.73116,-3.06336,22.89769,-15.80206,-11.22588,20.31008,-5.46327,5.60033,-8.19979
180,1.22885,0.0,0.0,-4.56938,0.0,0.0,-13.28031,-10.27122,4.46818,10.43546,11.30341,0.90051,-47.32069,-2.04799,-0.00045,-20.34637,-2.468,0.00207,40.67232,19.6315,10.48262,19.96036,-9.63046,-0.74759,90.38213,19.21618,-88.10667,34.63508,-13.60277,17.3883,128.55162,-0.02169,-54.82131,139.73294,3e-05,80.71989,-23.11693,30.39742,-0.11726,-5.05467,-4.12513,6e-05,4.40326,-3.56874,22.71689,-16.18956,-11.63567,19.95656,-5.73465,5.77903,-7.99431
181,1.46593,0.0,0.0,-4.55816,-0.0,0.0,-13.5479,-10.54045,4.15216,10.45571,11.73073,1.26388,-47.56349,-1.97037,-0.00076,-21.0233,-2.83471,0.00196,41.01123,19.67086,10.48843,20.56949,-9.60094,-1.01546,90.44837,19.91411,-88.35879,34.78288,-14.25885,17.09651,129.57439,-0.02293,-51.36758,139.82632,-0.00204,79.3836,-18.51076,27.84054,-0.1338,-4.77926,-5.05808,-0.00411,4.18989,-3.92467,22.52983,-16.45322,-11.90307,19.65007,-6.00367,5.89335,-7.78503
182,1.78678,0.0,-0.0,-4.75429,-0.0,-0.0,-13.65012,-10.87679,4.04235,10.54236,12.30111,1.45884,-47.79346,-1.92122,-0.00023,-21.71607,-3.12033,0.0004,41.29764,19.63638,10.4962,21.16808,-9.66528,-1.16781,90.58264,20.78731,-88.85433,35.20969,-14.65084,16.76799,130.56465,-0.014,-47.56202,139.71301,-0.00469,77.37881,-13.43545,24.7676,-0.11451,-4.37825,-6.3643,-0.00516,3.97743,-4.07276,22.30884,-16.70491,-11.96384,19.38583,-6.26748,5.87987,-7.65313
183,2.16554,0.0,-0.0,-5.50592,-0.0,-0.0,-13.57872,-10.99474,4.21076,10.86641,12.93668,1.28709,-48.03681,-2.06969,0.0007,-22.36864,-3.24872,-0.00098,41.55085,19.61919,10.40063,21.73612,-9.75139,-0.96203,90.75181,21.86626,-89.32315,35.76591,-14.78892,16.6534,131.33676,-0.00915,-43.48699,139.59373,-0.00133,75.83475,-8.63772,21.76425,-0.08618,-3.9488,-7.10477,-0.00053,3.69582,-3.98934,22.07334,-17.01001,-11.80279,19.19139,-6.47328,5.82052,-7.59615
184,2.56299,-0.0,0.0,-6.7261,0.0,-0.0,-13.38875,-10.84169,4.55845,11.46786,13.46295,0.82969,-48.28146,-2.41556,0.00102,-22.92931,-3.27034,-0.00103,41.78215,19.73202,10.23894,22.2282,-9.74077,-0.49115,90.86195,23.00569,-89.70515,36.21236,-14.79234,16.8419,131.89326,-0.00124,-40.13796,139.60689,0.00148,75.16784,-5.40815,19.35039,-0.02686,-3.89911,-7.09606,0.00335,3.36254,-3.74848,21.90504,-17.34677,-11.51811,19.11797,-6.59335,5.83792,-7.54607
185,2.93999,-0.0,-0.0,-7.65533,-0.0,0.0,-13.20728,-10.66054,4.93722,12.13458,13.62055,0.33042,-48.49462,-2.78207,0.00043,-23.3795,-3.27103,-0.00045,41.96976,19.95707,10.15525,22.59288,-9.61097,0.00702,90.76971,24.02164,-90.06729,36.51005,-14.71502,17.24526,132.21829,0.00545,-40.02954,139.60707,0.00148,75.13162,-5.33216,18.11268,0.01664,-4.43046,-7.03445,0.00742,2.96729,-3.52015,21.83546,-17.73443,-11.27999,19.13406,-6.65246,5.96254,-7.46373
186,3.25495,-0.0,-0.0,-7.40056,0.0,-0.0,-13.12459,-10.60585,5.22851,12.56305,13.23967,-0.01037,-48.67245,-2.96946,-0.00041,-23.76317,-3.28055,-0.00013,42.10071,20.14639,10.25205,22.82907,-9.45673,0.35442,90.37029,24.89903,-90.23547,36.77859,-14.52681,17.65101,132.2912,-0.00052,-45.27082,139.42975,0.00051,75.25886,-9.20796,17.671,0.0484,-5.07147,-7.354,0.00914,2.46543,-3.44953,21.79116,-18.23685,-11.19829,19.11735,-6.69093,6.12258,-7.40272
187,3.52446,0.0,-0.0,-5.9319,0.0,0.0,-13.09092,-10.56359,5.35373,12.6856,12.4567,-0.16767,-48.81805,-2.94713,-0.00075,-24.16183,-3.30667,-1e-05,42.1799,20.20404,10.48724,22.98152,-9.35516,0.4872,89.67461,25.75306,-89.90926,37.06225,-14.22064,17.84385,132.19977,0.00207,-54.05377,139.16823,-0.00042,75.25732,-15.86878,17.12033,0.07315,-5.08876,-7.67355,0.00715,1.90246,-3.54694,21.677,-18.82084,-11.2491,18.97356,-6.73113,6.24366,-7.44077
188,3.80587,0.0,-0.0,-4.26476,0.0,-0.0,-12.94379,-10.40429,5.3428,12.7314,11.70765,-0.29395,-48.91357,-2.89089,-0.00049,-24.61677,-3.37264,6e-05,42.19297,20.19912,10.72199,23.07727,-9.27985,0.48945,88.79024,26.59551,-89.04047,37.27641,-13.85138,17.75397,132.15836,0.00679,-59.77229,138.99977,-0.00044,75.18474,-21.85027,16.75027,0.03875,-4.31858,-7.59436,0.00692,1.44266,-3.68626,21.48408,-19.31424,-11.31121,18.73964,-6.77695,6.30958,-7.54186
189,4.01107,0.0,-0.0,-3.42129,-0.0,0.0,-12.53006,-10.16052,5.3225,12.9403,11.42756,-0.58801,-48.96038,-2.98906,-5e-05,-25.09424,-3.4907,0.0,42.10286,20.26064,10.86175,23.08372,-9.16222,0.52375,87.80829,27.30227,-87.83531,37.342,-13.47591,17.52585,132.38181,-0.04952,-56.36294,138.94675,-0.00016,75.17125,-23.12482,17.65257,0.11436,-3.30469,-7.32745,0.00308,1.22331,-3.72038,21.31588,-19.55648,-11.2836,18.56726,-6.8346,6.3499,-7.59123
190,3.90858,0.0,0.0,-3.49224,0.0,-0.0,-11.84608,-9.86742,5.3476,13.33856,11.69907,-1.09802,-49.00177,-3.25644,0.00033,-25.53969,-3.66143,-1e-05,41.90048,20.43729,10.91349,22.95364,-8.96367,0.63534,86.73981,27.76967,-86.5375,37.26301,-13.11957,17.43851,132.95166,-0.12282,-44.50107,138.96375,-0.00021,75.16227,-18.32273,19.76153,0.2639,-2.70243,-7.34382,-0.00025,1.22104,-3.59297,21.27967,-19.55418,-11.15165,18.5789,-6.91851,6.41352,-7.55426
191,3.41742,0.0,0.0,-3.83502,0.0,0.0,-11.08708,-9.43757,5.32217,13.78032,12.22288,-1.62527,-49.06363,-3.5594,0.00039,-25.93708,-3.90086,0.00031,41.63577,20.68117,10.9414,22.71917,-8.69191,0.68822,85.57497,27.95957,-85.30251,37.09949,-12.80474,17.7016,133.72151,-0.08534,-32.07748,139.06677,-0.00093,75.09187,-11.02877,21.634,0.19051,-2.84688,-7.8178,0.0043,1.30019,-3.34044,21.33869,-19.45038,-10.93641,18.72623,-7.018,6.52969,-7.46426
192,2.80168,-0.0,0.0,-3.98844,0.0,-0.0,-10.5186,-8.83323,5.17482,14.14959,12.60936,-1.95214,-49.10508,-3.8101,-3e-05,-26.31466,-4.19788,0.0006,41.38403,20.90419,10.94852,22.50295,-8.40096,0.57847,84.30633,27.90544,-84.03944,36.94706,-12.53648,18.2908,134.43542,0.01222,-27.19696,139.22166,-0.00123,75.1676,-6.90467,22.07026,0.05307,-3.75417,-8.47924,0.00721,1.34877,-3.0508,21.33399,-19.3828,-10.66388,18.8262,-7.07789,6.67412,-7.30003
193,2.48745,0.0,-0.0,-4.07869,-0.0,-0.0,-10.29038,-8.23861,4.9842,14.4847,12.62116,-2.1496,-49.05964,-4.07444,-0.00072,-26.70161,-4.45341,0.0002,41.19103,21.0432,10.82247,22.40212,-8.16652,0.41672,82.8636,27.80532,-82.3665,36.91099,-12.21668,19.00854,134.93628,0.02861,-31.23302,139.24098,0.00352,75.79632,-7.03591,21.16123,0.01018,-5.23306,-8.87934,-0.00115,1.33504,-2.81502,21.16117,-19.40217,-10.38226,18.74691,-7.04742,6.7875,-7.0241
194,2.64799,0.0,0.0,-4.22491,0.0,-0.0,-10.35669,-7.89958,4.79604,14.82454,12.24318,-2.42899,-48.92037,-4.40073,-0.00101,-27.06487,-4.56495,-0.00051,41.0584,21.11415,10.5432,22.39048,-8.01704,0.35803,81.11609,27.96116,-79.94052,37.04255,-11.66894,19.68164,135.19534,-0.02434,-40.17065,138.9386,0.0119,77.04689,-7.70584,19.60444,-0.05289,-6.93005,-8.86644,-0.00939,1.28758,-2.66027,20.87005,-19.47502,-10.13453,18.52629,-6.93983,6.83452,-6.68433
195,3.02492,0.0,0.0,-4.17685,0.0,-0.0,-10.52548,-7.84514,4.52929,15.06917,11.67448,-2.80325,-48.76539,-4.68094,-0.00055,-27.3265,-4.56222,-0.00063,40.97298,21.20311,10.30987,22.37858,-7.89158,0.39646,78.95781,28.50062,-76.84666,37.30283,-10.84063,20.23513,135.42896,-0.02001,-50.45021,138.34514,0.00965,78.20255,-6.83384,17.50754,-0.0718,-8.35767,-8.72328,-0.0066,1.25148,-2.56257,20.62486,-19.53437,-9.95631,18.3289,-6.81198,6.83818,-6.35256
196,3.18714,0.0,-0.0,-3.82099,0.0,-0.0,-10.62967,-7.91627,4.1738,15.14154,11.2157,-3.13354,-48.68981,-4.78784,-0.0001,-27.46569,-4.57392,-0.00028,40.93881,21.35729,10.29668,22.33172,-7.7183,0.43369,76.38435,29.24065,-73.59076,37.58092,-9.89824,20.6544,136.01578,0.07842,-61.67312,137.70071,-0.00292,78.2361,-6.46876,14.08689,0.10199,-9.12016,-8.65893,-0.00101,1.22647,-2.53902,20.60625,-19.56014,-9.92769,18.31975,-6.68036,6.83736,-6.0468
197,3.00015,0.0,-0.0,-3.49224,0.0,-0.0,-10.69178,-8.06421,3.87035,15.15361,11.05124,-3.38299,-48.71323,-4.7282,-9e-05,-27.54578,-4.66904,6e-05,40.96189,21.50123,10.44099,22.27373,-7.53046,0.42897,73.51572,29.84408,-70.67332,37.73767,-9.04859,20.98681,137.06232,0.14221,-73.64049,137.24442,-0.00715,77.09408,-8.52996,8.93415,0.31796,-9.227,-8.47441,0.00187,1.15661,-2.65406,20.87761,-19.60468,-10.1314,18.5357,-6.49202,6.81479,-5.79291
198,2.81157,-0.0,0.0,-3.56531,0.0,0.0,-10.84303,-8.44199,3.76306,15.29073,11.13283,-3.65186,-48.75149,-4.62095,-0.0001,-27.61788,-4.77964,0.00027,40.99516,21.51468,10.57146,22.20796,-7.44727,0.45899,70.53058,30.04847,-68.16125,37.67489,-8.35658,21.31012,138.21602,0.07537,-83.77374,137.03967,-0.00203,76.09425,-11.61324,3.24618,0.24623,-9.04781,-7.99959,0.00235,1.01316,-2.93702,21.30521,-19.7144,-10.54729,18.83982,-6.20347,6.7017,-5.64907
199,3.06,0.0,0.0,-3.987,0.0,-0.0,-11.10049,-9.11338,3.86109,15.58025,11.32375,-4.00483,-48.69054,-4.55912,-7e-05,-27.64578,-4.80308,0.00051,40.93294,21.37758,10.65044,22.0821,-7.52606,0.62693,67.55879,29.78875,-65.7256,37.40231,-7.77397,21.62341,139.09781,-0.01882,-89.64014,136.99524,0.00215,76.41289,-13.05226,-1.1376,-5e-05,-8.93821,-7.46155,0.00089,0.84775,-3.34699,21.66512,-19.86308,-11.05789,19.03436,-5.86002,6.46694,-5.60428
200,3.81307,-0.0,-0.0,-4.42811,0.0,-0.0,-11.39167,-9.82175,4.03799,15.86171,11.61398,-4.38473,-48.49117,-4.53748,-6e-05,-27.55793,-4.75612,0.00062,40.71368,21.20106,10.76202,21.83804,-7.66901,0.88244,64.64684,29.17033,-63.05581,37.00862,-7.23975,21.82613,139.64851,-0.04743,-91.56598,137.01871,0.00409,77.56855,-11.82665,-3.52044,-0.11623,-8.94385,-7.16955,-9e-05,0.73456,-3.77194,21.83862,-19.98471,-11.51662,19.04624,-5.55114,6.17136,-5.53626
201,4.61905,0.0,0.0,-4.62177,0.0,0.0,-11.71917,-10.15013,4.11834,15.9317,12.07527,-4.67026,-48.21313,-4.51266,-4e-05,-27.3282,-4.78231,-0.00013,40.4159,21.11872,10.91264,21.4788,-7.69975,0.97921,61.77918,28.34176,-60.05057,36.58157,-6.71908,21.86564,139.98116,-0.03258,-90.9808,137.0784,0.00511,78.08617,-8.65743,-4.19755,-0.0663,-8.83678,-7.13367,-0.0005,0.68204,-4.04412,21.88786,-20.05098,-11.78857,18.9948,-5.304,5.92302,-5.35325
202,4.76019,0.0,-0.0,-4.3096,-0.0,0.0,-12.09207,-9.87927,3.96612,15.67023,12.57407,-4.72717,-47.95259,-4.45499,-8e-05,-26.98126,-4.98607,-0.00144,40.18737,21.18061,11.03662,21.07641,-7.52435,0.6996,58.88348,27.38237,-56.64195,36.21008,-6.20374,21.86664,140.14369,-0.00995,-88.79137,137.08421,0.003,77.37674,-4.64871,-3.38125,0.04688,-8.48071,-7.14094,-0.00094,0.64138,-4.05328,21.95905,-20.08346,-11.82226,19.05933,-5.0731,5.79423,-5.12659
203,4.02417,-0.0,0.0,-3.34613,-0.0,0.0,-12.41025,-9.19425,3.58031,15.15016,12.70982,-4.48006,-47.75983,-4.33952,-0.00014,-26.57102,-5.28291,-0.00171,40.07758,21.33481,11.16546,20.71368,-7.22196,0.12196,55.90162,26.26483,-52.79272,35.97783,-5.70599,21.99129,140.0753,0.00632,-86.12273,136.86087,-0.0002,76.24625,-0.78879,-1.18702,0.10852,-8.01009,-6.99856,-0.00139,0.62199,-3.86708,22.09835,-20.0717,-11.69724,19.25937,-4.82133,5.76304,-4.97404
204,3.10416,0.0,-0.0,-2.07302,0.0,0.0,-12.58414,-8.52469,3.12759,14.63451,12.2525,-4.03431,-47.60477,-4.15014,-2e-05,-26.14596,-5.46517,-0.0006,39.99023,21.46366,11.37635,20.38132,-6.97684,-0.45147,52.92786,24.91511,-48.76415,35.85847,-5.25769,22.18373,139.78221,0.00757,-84.39765,136.36981,0.00115,75.63481,1.82204,1.67899,0.06008,-7.5201,-6.62325,-0.0014,0.70285,-3.66801,22.18691,-19.96521,-11.54221,19.41555,-4.56694,5.73945,-4.87981
205,2.79011,-0.0,-0.0,-1.16558,0.0,0.0,-12.65734,-8.18165,2.81145,14.34594,11.54819,-3.64822,-47.41475,-3.89893,0.00034,-25.70098,-5.41933,0.00054,39.81552,21.448,11.61285,19.97575,-6.91964,-0.82745,50.17113,23.31895,-45.03165,35.71768,-4.90938,22.23219,139.4509,0.0013,-84.23022,135.82172,0.00226,75.53042,2.38692,4.0075,-0.01191,-6.85897,-6.07956,-0.00021,0.87297,-3.56519,22.1054,-19.79803,-11.41729,19.37491,-4.33124,5.66137,-4.7504
206,3.14247,-0.0,-0.0,-1.03396,-0.0,-0.0,-12.74847,-8.23104,2.74777,14.29823,11.20063,-3.55377,-47.1367,-3.63913,0.0003,-25.20874,-5.2057,0.00085,39.55463,21.22025,11.70349,19.44356,-7.06064,-1.034,47.73982,21.52261,-41.7921,35.49283,-4.71223,22.03365,139.27008,-0.00061,-85.01514,135.48218,0.00158,75.25588,1.36061,5.14418,-0.0179,-5.86475,-5.50526,0.00248,1.00344,-3.50695,21.87613,-19.69226,-11.28198,19.17755,-4.08895,5.5204,-4.56098
207,3.78632,-0.0,-0.0,-1.55196,-0.0,0.0,-12.9482,-8.60488,3.00898,14.39561,11.35809,-3.83389,-46.77002,-3.48453,-0.0008,-24.6906,-4.92155,0.00072,39.27252,20.80528,11.49043,18.83197,-7.32146,-1.14904,45.56145,19.55381,-38.81385,35.26802,-4.69376,21.5948,139.23332,7e-05,-85.73177,135.45442,0.00349,74.40285,0.34465,5.49598,0.00697,-4.62247,-4.93023,0.00583,1.0247,-3.37676,21.58039,-19.69868,-11.05581,18.94301,-3.83285,5.32428,-4.32694
208,4.23964,-0.0,-0.0,-2.17241,0.0,-0.0,-13.19391,-9.09911,3.56534,14.48688,11.63646,-4.30544,-46.36046,-3.49934,-0.00185,-24.17657,-4.63645,0.00035,39.00819,20.3402,11.0035,18.20501,-7.56825,-1.29662,43.51609,17.41811,-35.78976,35.14045,-4.83465,20.92956,139.22231,0.00083,-85.83545,135.6235,0.00495,73.38628,0.80979,5.62991,0.01307,-3.51858,-4.41691,0.00579,1.00162,-3.15998,21.2533,-19.74712,-10.73745,18.71017,-3.61046,5.1147,-4.02097
209,3.95396,0.0,0.0,-2.36733,0.0,-0.0,-13.2655,-9.42814,4.1791,14.36724,11.75022,-4.59175,-45.94165,-3.56329,-0.00149,-23.63042,-4.43981,-0.00042,38.77058,19.97149,10.51675,17.59634,-7.68687,-1.69267,41.59175,15.13249,-32.58589,35.09926,-5.06379,20.19677,139.17957,0.00221,-84.84623,135.75702,0.00504,73.2487,3.26599,5.4751,-0.01672,-3.12623,-4.21681,0.0052,1.0396,-2.97184,20.93021,-19.7358,-10.44716,18.4711,-3.44239,4.97403,-3.63105
210,2.89785,-0.0,0.0,-2.16852,-0.0,0.0,-13.01617,-9.49469,4.62443,13.98236,11.8021,-4.52576,-45.4707,-3.51336,-0.00018,-23.00284,-4.37155,-0.00107,38.54502,19.71285,10.26504,17.02701,-7.67573,-2.38086,39.87506,12.73931,-29.22653,35.03091,-5.29744,19.72342,139.13039,0.00244,-82.2881,135.72519,0.0066,74.55091,7.1384,4.85823,-0.04745,-3.72286,-4.40885,0.00747,1.17168,-2.88436,20.68909,-19.6269,-10.27991,18.2738,-3.27342,4.94198,-3.21508
211,1.69825,0.0,-0.0,-1.9789,-0.0,0.0,-12.46299,-9.41462,4.90924,13.51334,11.92926,-4.27552,-44.86889,-3.31589,0.00107,-22.32687,-4.36631,-0.00107,38.30099,19.47203,10.25254,16.53121,-7.61805,-3.1436,38.39606,10.36471,-25.90405,34.81243,-5.47404,19.66408,139.1214,0.0005,-79.05492,135.60526,0.00499,76.45357,10.97162,4.19729,-0.03116,-4.8557,-4.68742,0.00519,1.30382,-2.80076,20.54482,-19.50654,-10.15059,18.1671,-3.01646,4.96248,-2.83176
212,0.89292,0.0,-0.0,-2.01864,-0.0,-0.0,-11.65121,-9.29402,5.18688,13.17253,12.05966,-4.09367,-44.11235,-3.04007,0.00126,-21.6925,-4.33045,-0.00056,37.99948,19.18765,10.35651,16.11283,-7.56651,-3.76383,37.04575,8.24115,-22.92439,34.43203,-5.55228,19.83045,139.16692,-0.0002,-77.02741,135.53305,0.00112,77.65224,13.36998,4.19944,-0.0026,-5.81421,-4.76364,0.00038,1.30358,-2.57844,20.37371,-19.51301,-9.88204,18.08508,-2.6515,4.94727,-2.50097
213,0.56081,0.0,0.0,-2.25151,-0.0,0.0,-10.63641,-9.18756,5.58036,13.01581,12.04758,-4.14902,-43.24554,-2.78129,0.00031,-21.12609,-4.20318,0.00019,37.59224,18.89734,10.4346,15.68257,-7.48493,-4.17354,35.67543,6.53078,-20.45836,34.00992,-5.52683,19.97611,139.23907,0.00031,-76.68108,135.54832,-0.00044,77.84654,14.02907,5.05591,-0.00404,-6.42398,-4.6753,-0.0017,1.17742,-2.2121,20.0595,-19.65381,-9.42803,17.91954,-2.28023,4.87984,-2.25123
214,0.50968,0.0,-0.0,-2.48909,0.0,0.0,-9.56572,-9.11745,6.08936,12.91972,11.84574,-4.4259,-42.34894,-2.57733,-0.00052,-20.54784,-3.99157,0.0008,37.0851,18.68259,10.42148,15.13741,-7.29718,-4.4423,34.23611,5.13588,-18.44633,33.70284,-5.47843,20.05303,139.31166,-6e-05,-76.78547,135.59816,-0.00082,77.47375,13.65459,6.17817,-0.01151,-6.87148,-4.62343,-0.0025,1.07394,-1.83574,19.65713,-19.78216,-8.93322,17.67451,-2.02193,4.83619,-2.13086
215,0.50929,0.0,-0.0,-2.63699,0.0,0.0,-8.6166,-9.03218,6.68525,12.76482,11.58577,-4.79402,-41.49446,-2.4216,-0.00116,-19.88641,-3.77095,0.00071,36.55684,18.54201,10.3288,14.48241,-7.00195,-4.65191,32.80126,3.82317,-16.81502,33.61923,-5.55702,20.12369,139.38751,-0.00048,-76.48412,135.59714,-0.00222,76.71654,13.0843,6.87403,-0.00903,-7.02191,-4.7004,-0.00338,1.08482,-1.58406,19.324,-19.79546,-8.57943,17.45041,-1.89518,4.87489,-2.15566
216,0.44731,-0.0,0.0,-2.8631,0.0,0.0,-7.8484,-8.86586,7.37284,12.59618,11.50144,-5.19531,-40.68881,-2.31568,-0.00147,-19.18034,-3.61741,-0.00013,36.05562,18.36049,10.18323,13.80162,-6.71037,-4.81583,31.49304,2.50947,-15.54852,33.76525,-5.84307,20.20172,139.47989,-0.00015,-76.0227,135.49722,-0.00364,75.66134,12.86327,6.98979,-0.00906,-6.56309,-4.76701,-0.0017,1.12388,-1.48703,19.13759,-19.77225,-8.42235,17.30937,-1.83946,4.94236,-2.27561
217,0.35755,0.0,-0.0,-3.23581,0.0,0.0,-7.21305,-8.65154,8.03614,12.49617,11.62412,-5.60101,-39.87203,-2.20108,-0.00025,-18.52263,-3.54884,-0.00085,35.55287,18.04295,10.06401,13.16175,-6.52485,-4.98426,30.39813,1.2876,-14.47893,34.02238,-6.2492,20.24129,139.58099,0.00016,-75.80106,135.3298,-0.00238,74.88105,13.3264,6.73982,-0.0127,-5.64388,-4.5728,0.00295,1.01819,-1.48831,19.02085,-19.89109,-8.3819,17.1987,-1.77847,4.94337,-2.39283
218,0.40568,0.0,-0.0,-3.59535,-0.0,0.0,-6.71768,-8.53606,8.49981,12.4628,11.64222,-5.95029,-38.9828,-2.00257,0.00147,-17.96874,-3.50269,-0.00057,35.01056,17.62482,10.01937,12.58491,-6.43367,-5.19603,29.53339,0.23907,-13.31821,34.2322,-6.61485,20.19873,139.63835,-0.00139,-76.27787,135.15353,0.00066,75.07401,14.34355,6.47523,-0.00605,-4.85264,-4.09108,0.00356,0.68175,-1.51654,18.83875,-20.24923,-8.34327,17.01665,-1.66348,4.85259,-2.41588
219,0.74698,0.0,-0.0,-3.80372,0.0,-0.0,-6.44322,-8.62821,8.77581,12.46429,11.23552,-6.20307,-38.02296,-1.76229,0.00159,-17.52009,-3.39275,0.00017,34.45086,17.22151,9.97857,12.08527,-6.36128,-5.37567,28.89332,-0.61872,-11.98012,34.32958,-6.86101,20.09996,139.588,-0.00544,-77.90689,134.98079,0.00259,76.26754,15.33184,6.43361,0.00608,-4.66182,-3.69306,0.00206,0.19515,-1.5238,18.55234,-20.76759,-8.24769,16.74381,-1.49471,4.70715,-2.32501
220,1.19993,0.0,0.0,-3.7537,-0.0,-0.0,-6.36069,-8.84111,9.01942,12.47255,10.45581,-6.35059,-37.07323,-1.57391,0.00054,-17.1455,-3.21817,0.00042,33.96193,16.91661,9.91325,11.69874,-6.25596,-5.47344,28.49589,-1.28152,-10.64247,34.37764,-7.01234,20.05042,139.45105,-0.00636,-80.01619,134.77342,0.00209,77.68018,16.10084,6.18921,7e-05,-5.0501,-3.86159,0.00477,-0.28026,-1.50817,18.22686,-21.27727,-8.11661,16.44255,-1.28571,4.54541,-2.17208
221,1.25239,-0.0,0.0,-3.42193,-0.0,0.0,-6.27605,-8.97523,9.34659,12.47989,9.67098,-6.44559,-36.2348,-1.46868,-0.00015,-16.80936,-3.05646,6e-05,33.61266,16.72789,9.9146,11.44459,-6.10446,-5.53289,28.31182,-1.78297,-9.46817,34.48596,-7.10574,20.1331,139.35426,-0.00369,-80.98006,134.48593,0.00029,78.52731,17.0917,4.99131,-0.02934,-5.5415,-4.70034,0.00294,-0.65897,-1.5026,17.91604,-21.6886,-8.0,16.15162,-1.03409,4.39077,-1.99833
222,0.60647,0.0,-0.0,-3.02696,0.0,-0.0,-6.03753,-8.90449,9.79496,12.50844,9.21809,-6.59574,-35.53302,-1.44465,-0.00035,-16.48606,-2.95331,-0.0003,33.36842,16.6459,10.02523,11.27322,-5.90652,-5.58628,28.20193,-2.16644,-8.45524,34.69747,-7.13526,20.30778,139.38269,-0.00348,-80.26163,134.11528,-0.00057,78.73042,18.31985,3.05763,-0.04791,-5.58637,-5.77727,-0.0063,-0.9788,-1.50345,17.62413,-22.03884,-7.896,15.87632,-0.74926,4.25748,-1.80342
223,-0.48893,0.0,-0.0,-2.86221,0.0,-0.0,-5.67771,-8.61644,10.33078,12.53716,9.17926,-6.83649,-34.8905,-1.49898,-0.00058,-16.14783,-2.88398,-0.00027,33.13359,16.65639,10.16809,11.09882,-5.66159,-5.64816,28.03562,-2.37462,-7.61397,34.95397,-7.11855,20.44295,139.43649,-0.00484,-79.29199,133.74141,-0.00024,78.35646,18.64142,1.8055,-0.06176,-4.91872,-6.46365,-0.00662,-1.2868,-1.45012,17.34262,-22.37301,-7.74504,15.63062,-0.46274,4.14364,-1.60634
224,-1.61844,0.0,-0.0,-3.06301,0.0,-0.0,-5.27827,-8.20103,10.88695,12.49969,9.38459,-7.10075,-34.2081,-1.61087,-0.00115,-15.77776,-2.80054,7e-05,32.84833,16.73041,10.25115,10.88088,-5.37704,-5.7318,27.86414,-2.31044,-7.06799,35.16868,-7.15945,20.44974,139.32213,-0.00905,-79.65659,133.51701,0.00304,77.2056,16.93324,2.18496,-0.11002,-3.66202,-6.34585,0.00742,-1.53582,-1.32475,17.07971,-22.6425,-7.53347,15.42874,-0.20096,4.04333,-1.45118
225,-2.63214,0.0,0.0,-3.5944,0.0,-0.0,-4.85112,-7.86965,11.44055,12.40621,9.53044,-7.34662,-33.45692,-1.74336,-0.00151,-15.4105,-2.67837,0.00034,32.52604,16.81978,10.23202,10.65114,-5.07541,-5.80339,27.8943,-2.01299,-6.83381,35.29501,-7.34057,20.38599,138.98743,-0.00928,-81.03124,133.56177,0.00572,75.79048,14.02046,3.18847,-0.10994,-2.29998,-5.38701,0.01566,-1.66039,-1.22406,16.88282,-22.78197,-7.36863,15.28012,0.02867,3.97124,-1.33165
226,-3.47205,0.0,0.0,-4.19024,-0.0,-0.0,-4.46435,-7.84961,11.93903,12.32349,9.41683,-7.5785,-32.68156,-1.81449,-0.00034,-15.10862,-2.54485,0.00023,32.22618,16.87067,10.16888,10.46446,-4.78457,-5.84962,28.24778,-1.62036,-6.75467,35.31913,-7.59107,20.41336,138.57501,-0.00154,-81.90926,133.84438,-0.00103,75.52808,12.10866,2.92144,-0.07108,-1.38819,-3.95566,0.00552,-1.70723,-1.28785,16.78679,-22.84129,-7.39354,15.16664,0.23698,3.94278,-1.1944
227,-3.92015,0.0,0.0,-4.45883,0.0,0.0,-4.2886,-8.17311,12.2458,12.24892,9.15016,-7.76685,-31.92586,-1.72741,0.0017,-14.88865,-2.45655,1e-05,31.96985,16.8602,10.22184,10.33374,-4.53039,-5.93998,28.77668,-1.18269,-6.78253,35.24168,-7.77021,20.62655,138.23842,-0.00027,-82.2625,134.20517,-0.00888,77.17447,11.79709,1.14515,-0.06022,-1.03276,-2.67664,-0.00558,-1.78725,-1.57914,16.73474,-22.94028,-7.64644,15.01171,0.43944,3.93153,-1.02386
228,-3.8742,0.0,0.0,-4.33731,-0.0,0.0,-4.38623,-8.61489,12.34555,12.15887,9.00169,-7.87003,-31.18315,-1.52505,0.00198,-14.71004,-2.43623,-9e-05,31.69511,16.81897,10.4623,10.22581,-4.33634,-6.12419,29.17842,-0.66582,-7.00839,35.10607,-7.84319,20.95597,138.02136,-0.00577,-83.97742,134.48915,-0.00648,79.92479,11.2705,-0.33038,-0.06514,-0.83872,-2.01068,-0.00648,-1.92843,-2.02475,16.64979,-23.11184,-8.03132,14.76935,0.63681,3.87745,-0.85295
229,-3.65889,-0.0,0.0,-4.20237,-0.0,0.0,-4.61747,-8.90046,12.42279,12.09655,9.09431,-7.87941,-30.4453,-1.38772,-0.0,-14.52285,-2.47185,-0.00018,31.36489,16.79783,10.73324,10.11502,-4.194,-6.38767,29.30462,-0.12672,-7.33361,34.99798,-7.89913,21.25867,137.93742,-0.00377,-87.91335,134.64131,0.00035,82.2365,9.12885,0.00308,-0.10005,-0.5095,-1.99513,-0.00401,-2.07765,-2.45752,16.53149,-23.29493,-8.39206,14.49988,0.82132,3.7538,-0.694
230,-3.76564,0.0,-0.0,-4.38983,0.0,0.0,-4.83123,-8.97326,12.59302,12.09259,9.30814,-7.7831,-29.77235,-1.40515,-0.00154,-14.29824,-2.55067,-0.00033,31.07927,16.81765,10.81576,10.01609,-4.0514,-6.73249,29.28702,0.2557,-7.48642,34.96096,-8.03174,21.42808,138.01527,0.00207,-92.16415,134.70659,0.00373,83.00905,6.38199,1.68618,-0.08325,-0.16698,-2.42984,-0.00145,-2.21588,-2.7546,16.37636,-23.46378,-8.61285,14.24503,0.99844,3.59601,-0.50559
231,-4.31441,-0.0,-0.0,-4.75103,0.0,-0.0,-5.02053,-9.00248,12.74167,12.07985,9.40684,-7.56901,-29.2558,-1.47206,-0.00104,-14.02709,-2.63335,-0.00025,30.9661,16.84231,10.65559,9.92629,-3.88465,-7.17369,29.32323,0.36412,-7.40959,34.95094,-8.23641,21.42047,138.19997,0.00018,-94.45226,134.75421,0.00378,82.2767,4.80618,3.34592,-0.0122,-0.01158,-3.07668,0.00091,-2.38582,-2.94311,16.1267,-23.6671,-8.69809,13.94083,1.16501,3.44175,-0.25413
232,-4.92549,0.0,0.0,-4.79148,0.0,-0.0,-5.25893,-9.12988,12.69386,11.96308,9.24584,-7.32334,-28.93017,-1.43804,4e-05,-13.71569,-2.64824,0.00012,31.00897,16.7992,10.33743,9.76933,-3.73584,-7.65302,29.44137,0.26617,-7.29444,34.90076,-8.42106,21.28763,138.35701,-0.00276,-94.63381,134.79805,0.00211,81.20439,4.65955,4.37227,0.02688,-0.0481,-3.65899,0.00164,-2.62422,-3.13116,15.79383,-23.94587,-8.75254,13.5584,1.28094,3.29398,0.01818
233,-5.17036,0.0,-0.0,-4.29159,-0.0,0.0,-5.60505,-9.27455,12.39262,11.73953,8.92753,-7.21639,-28.77043,-1.26385,0.00032,-13.3977,-2.56921,0.00029,31.12747,16.63973,9.95456,9.51115,-3.65725,-8.06603,29.57371,0.12573,-7.25571,34.78998,-8.51867,21.16669,138.41299,-0.00166,-93.81996,134.80728,0.00063,81.03729,4.89827,5.04981,0.02633,-0.19388,-3.94698,0.00056,-2.91752,-3.34989,15.51403,-24.27598,-8.85462,13.21454,1.34018,3.13923,0.24151
234,-5.05865,-0.0,-0.0,-3.64216,0.0,0.0,-6.10568,-9.25263,11.92041,11.5131,8.7261,-7.33861,-28.7421,-1.0343,3e-05,-13.12834,-2.43638,4e-05,31.33069,16.37681,9.57408,9.26186,-3.68281,-8.36199,29.75474,0.07359,-7.23274,34.66459,-8.55406,21.16353,138.37521,0.00033,-92.72758,134.7776,0.00031,82.00928,4.71468,5.8768,0.01012,-0.4383,-3.88703,-0.00147,-3.23414,-3.52921,15.39992,-24.61264,-8.98011,13.04104,1.41241,2.93587,0.40414
235,-5.02271,0.0,0.0,-3.43959,0.0,0.0,-6.7814,-9.05508,11.47395,11.40626,8.79598,-7.65295,-28.79712,-0.90131,-0.00013,-12.93006,-2.26995,-6e-05,31.6329,16.08189,9.20478,9.12246,-3.82837,-8.52817,30.07931,0.16132,-7.1771,34.61316,-8.57741,21.27181,138.23631,-0.00041,-91.80304,134.73772,0.00019,83.48837,3.97159,7.21143,-0.01592,-0.80091,-3.61026,-0.00288,-3.56598,-3.60468,15.38171,-24.9504,-9.04375,12.99605,1.52762,2.62121,0.53069
236,-5.44068,-0.0,-0.0,-3.90462,0.0,0.0,-7.56289,-8.883,11.24229,11.46126,8.96899,-8.06852,-28.85434,-0.98864,-0.00022,-12.75692,-2.03961,0.00039,31.94257,15.86137,8.78322,9.03911,-4.04858,-8.54764,30.52235,0.36534,-7.12204,34.66647,-8.56868,21.43415,137.97324,-0.00405,-91.52069,134.69885,-0.0001,84.66821,2.71589,9.02179,-0.04019,-1.12148,-3.39498,-0.00251,-3.89009,-3.57144,15.27225,-25.28187,-8.97296,12.90533,1.62012,2.19536,0.61065
237,-6.15239,0.0,0.0,-4.77727,0.0,-0.0,-8.33485,-8.88664,11.16174,11.58843,8.94742,-8.42876,-28.85795,-1.26927,-0.00042,-12.53827,-1.76208,0.00081,32.17429,15.82415,8.30714,8.91163,-4.20296,-8.49518,30.95009,0.62044,-7.02636,34.72854,-8.44728,21.65678,137.62631,-0.00446,-91.62734,134.65009,-0.00068,85.0526,1.26766,10.62582,-0.03558,-1.12527,-3.47841,-0.00239,-4.13255,-3.46315,15.00178,-25.54081,-8.77364,12.69092,1.64036,1.77923,0.62289
238,-6.58374,0.0,0.0,-5.69816,0.0,-0.0,-9.03937,-9.01579,10.91853,11.63824,8.69608,-8.51573,-28.84708,-1.56165,-0.0004,-12.23577,-1.56398,0.00014,32.38174,16.02374,7.91691,8.733,-4.13104,-8.60757,31.25016,0.85113,-6.78635,34.68565,-8.20028,21.99506,137.30441,-0.00054,-91.12053,134.6037,-0.00126,84.83447,0.33682,11.18336,-0.01622,-0.85549,-3.74931,-0.00218,-4.24066,-3.31818,14.69742,-25.6659,-8.52774,12.45837,1.62944,1.53058,0.62312
239,-6.43926,-0.0,-0.0,-6.53905,-0.0,0.0,-9.65431,-9.16776,10.34943,11.54975,8.4731,-8.23789,-28.90753,-1.72061,-0.00024,-11.8477,-1.56184,-0.00137,32.65711,16.39096,7.72363,8.53182,-3.80996,-9.10395,31.3524,0.9856,-6.48065,34.55622,-7.96956,22.40061,137.0887,0.00067,-89.66135,134.6093,-0.00171,84.75291,0.11496,10.67377,-0.00826,-0.75498,-3.80279,-0.00245,-4.25868,-3.13749,14.50093,-25.69009,-8.28786,12.3405,1.6349,1.47942,0.73123
240,-5.97546,0.0,-0.0,-7.21993,0.0,0.0,-10.15272,-9.29615,9.65954,11.36372,8.45736,-7.77291,-29.06726,-1.7816,-9e-05,-11.39418,-1.69037,-0.00189,32.9638,16.75764,7.67274,8.26288,-3.41266,-9.92242,31.24434,0.98595,-6.30522,34.47055,-7.93467,22.72378,136.97063,-0.00146,-88.11652,134.68465,-0.00139,85.2118,-0.07699,9.85132,-0.00302,-1.18367,-3.44558,-0.00511,-4.28226,-2.90615,14.41659,-25.70834,-8.04174,12.34668,1.61424,1.49453,1.00563
241,-5.55756,0.0,0.0,-7.47747,0.0,0.0,-10.55273,-9.32754,9.10819,11.12859,8.5194,-7.41448,-29.29345,-1.84693,6e-05,-10.90995,-1.72965,-0.00045,33.22047,16.98166,7.67587,7.88042,-3.16362,-10.7276,31.03157,0.86864,-6.22898,34.51282,-8.10851,22.93498,136.88782,-0.00222,-87.19926,134.75204,0.00063,85.73945,-0.63202,9.33951,0.0006,-2.06961,-2.95688,-0.00468,-4.36023,-2.68585,14.37287,-25.77863,-7.82071,12.38688,1.52181,1.43541,1.36607
242,-5.29772,0.0,0.0,-7.16685,0.0,0.0,-10.89691,-9.19932,8.72367,10.87763,8.42603,-7.32086,-29.55114,-1.92734,2e-05,-10.42397,-1.52875,0.00146,33.45223,17.04884,7.72607,7.44826,-3.13783,-11.21087,30.84259,0.69398,-6.01024,34.61623,-8.31691,23.14985,136.75351,0.00163,-86.453,134.70953,0.00142,85.57108,-1.10154,9.39885,0.00399,-2.98549,-2.68773,-0.00169,-4.4738,-2.60575,14.31553,-25.89284,-7.72523,12.36257,1.42828,1.28385,1.66806
243,-5.13867,0.0,0.0,-6.61238,-0.0,-0.0,-11.16211,-9.02284,8.44544,10.64936,8.1613,-7.43637,-29.79277,-1.98573,-7e-05,-9.94164,-1.16072,0.00182,33.69812,17.05193,7.80563,7.05839,-3.21689,-11.36237,30.66442,0.56118,-5.54636,34.63351,-8.3939,23.36781,136.4901,0.00747,-85.18752,134.5356,-0.00145,84.37012,-1.10247,10.12322,0.00913,-3.37169,-2.61918,-0.0014,-4.58534,-2.69172,14.1889,-26.0188,-7.75905,12.21205,1.43137,1.11014,1.84897
244,-4.92257,-0.0,0.0,-6.21557,-0.0,0.0,-11.30398,-8.97152,8.23882,10.43579,7.92586,-7.53877,-29.94102,-2.01699,-1e-05,-9.45379,-0.83169,0.00035,33.88652,17.07472,7.87151,6.7097,-3.23832,-11.4729,30.38324,0.57527,-4.98072,34.49815,-8.32642,23.40519,136.1295,0.00673,-83.7704,134.27127,-0.00585,82.27637,-0.88358,11.13868,0.00714,-2.84412,-2.4776,0.00043,-4.67091,-2.77785,13.92817,-26.12922,-7.744,11.93563,1.5172,0.97084,1.96858
245,-4.47705,0.0,0.0,-5.98902,0.0,0.0,-11.32075,-9.08089,8.04846,10.18177,7.89048,-7.43465,-29.96415,-2.02205,8e-05,-8.95677,-0.66268,-0.00142,33.90302,17.11637,7.94879,6.31461,-3.15287,-11.83163,29.95546,0.76486,-4.45042,34.27177,-8.18837,23.16408,135.82899,0.00117,-83.17232,133.96626,-0.00697,79.8341,-0.74903,11.52648,-0.0027,-1.49233,-2.06135,0.00708,-4.72681,-2.70282,13.54261,-26.21108,-7.53321,11.60174,1.57575,0.87702,2.09854
246,-4.01355,0.0,0.0,-5.93607,0.0,-0.0,-11.14415,-9.35875,7.91362,9.92693,8.04713,-7.21269,-29.93677,-2.01,4e-05,-8.45895,-0.59226,-0.00193,33.73778,17.1411,8.06045,5.80962,-3.01561,-12.39112,29.45555,1.05053,-3.91415,34.0217,-8.04664,22.79183,135.70644,2e-05,-83.60297,133.68459,-0.00281,77.96869,-0.61389,10.56661,-0.01452,0.16132,-1.33527,0.01168,-4.76795,-2.5355,13.14996,-26.27361,-7.2338,11.29555,1.53473,0.82933,2.23624
247,-3.95991,0.0,0.0,-6.14,0.0,-0.0,-10.66281,-9.81673,7.95713,9.76632,8.20884,-7.1293,-29.94803,-1.99952,-4e-05,-7.95198,-0.46304,-0.00072,33.52293,17.14626,8.18742,5.24441,-2.89297,-12.8502,28.97638,1.32681,-3.3337,33.72694,-7.97562,22.51138,135.6843,0.00153,-84.45354,133.48801,0.00155,77.48074,-0.44488,8.51428,-0.01603,1.51042,-0.44326,0.00714,-4.81047,-2.4776,12.87442,-26.33357,-7.07899,11.05884,1.45566,0.83174,2.34728
248,-4.24684,0.0,0.0,-6.31227,-0.0,0.0,-9.96349,-10.23724,8.15011,9.66966,8.11808,-7.27907,-29.96233,-1.97489,9e-05,-7.40289,-0.15216,0.00154,33.38324,17.13235,8.36168,4.71249,-2.83111,-13.0302,28.55039,1.57916,-2.84256,33.34969,-8.0559,22.42793,135.54909,0.00084,-85.28804,133.37494,0.00238,78.35088,-0.60236,6.51963,-0.0032,2.16667,0.26663,-0.00088,-4.86595,-2.59345,12.75778,-26.40272,-7.14398,10.90677,1.4517,0.86502,2.40837
249,-4.52974,0.0,0.0,-6.21165,0.0,0.0,-9.30836,-10.26195,8.32035,9.58696,7.66587,-7.56066,-29.85778,-1.91221,0.00053,-6.82274,0.3378,0.00277,33.30656,17.06595,8.61994,4.24676,-2.84983,-13.02099,28.1572,1.89479,-2.54792,32.92517,-8.28635,22.53875,135.1721,-0.00207,-86.16555,133.27905,0.00148,79.77006,-1.31628,5.60282,0.00738,2.10952,0.4703,-0.002,-4.96068,-2.75395,12.78658,-26.50287,-7.30384,10.87434,1.5547,0.88533,2.38451
250,-4.88067,-0.0,-0.0,-6.25896,0.0,0.0,-8.81527,-9.83033,8.39177,9.61529,7.05684,-7.84115,-29.6028,-1.84959,0.00069,-6.29412,0.85608,0.00163,33.21618,16.93265,8.8771,3.84471,-2.91314,-13.0246,27.74169,2.3391,-2.32536,32.52638,-8.54218,22.79736,134.62729,-0.00443,-87.24429,133.15633,-0.00013,80.8953,-2.07759,5.64955,0.01647,1.68211,0.25373,0.00034,-5.1221,-2.83112,12.92011,-26.65842,-7.42458,10.97086,1.72315,0.86917,2.25322
251,-5.51845,0.0,-0.0,-7.02208,0.0,0.0,-8.38184,-9.27017,8.47273,9.83891,6.70301,-8.01993,-29.29661,-1.89408,7e-05,-5.88024,1.21269,-0.00034,33.08666,16.80155,8.95721,3.52347,-2.93138,-13.16155,27.23619,2.85866,-1.98911,32.19246,-8.6728,23.11847,134.08566,-0.00429,-88.55529,133.04341,-0.00172,81.50863,-1.89218,5.53643,0.00461,1.33115,0.13662,0.00057,-5.34529,-2.85074,13.07463,-26.87142,-7.49947,11.10838,1.92247,0.85003,2.08596
252,-6.15335,-0.0,-0.0,-8.26878,0.0,-0.0,-7.96942,-8.90644,8.66159,10.11134,6.849,-8.00534,-29.02497,-2.10696,-0.00069,-5.55828,1.34271,-0.00123,32.93423,16.77987,8.81354,3.29511,-2.8268,-13.42585,26.6271,3.34786,-1.51516,31.92436,-8.62818,23.41617,133.66539,-0.00155,-89.90461,132.97388,-0.00183,81.96889,-0.16594,4.2449,-0.05431,1.29169,0.55752,0.002,-5.61367,-2.92509,13.17596,-27.13603,-7.60578,11.17583,2.14398,0.89443,2.01659
253,-6.19063,0.0,0.0,-9.03867,0.0,0.0,-7.69883,-8.78409,8.88762,10.18135,7.32038,-7.75559,-28.76269,-2.38202,-0.00082,-5.27371,1.33699,-0.00095,32.75141,16.87395,8.64281,3.12613,-2.61161,-13.75884,25.99793,3.76553,-0.96224,31.70483,-8.47824,23.6681,133.40445,0.0013,-90.70249,132.87706,-0.00014,82.58917,2.69079,1.82578,-0.09313,1.52365,1.37418,0.00356,-5.92097,-3.10829,13.25396,-27.44673,-7.80478,11.18112,2.37533,1.02637,2.08479
254,-5.52517,-0.0,0.0,-8.82131,0.0,0.0,-7.58271,-8.78388,9.07322,10.02449,7.74332,-7.3758,-28.42537,-2.53207,1e-05,-5.01361,1.3308,-0.00027,32.51125,16.93347,8.64649,2.97253,-2.4041,-14.10688,25.48339,4.14444,-0.32001,31.49771,-8.34098,23.88443,133.30367,-0.00011,-90.27937,132.67192,0.0014,83.29195,5.55945,-0.71629,-0.05176,1.83501,2.0646,0.00182,-6.22657,-3.36892,13.41359,-27.75399,-8.1057,11.23426,2.60748,1.18063,2.19109
255,-4.69581,-0.0,0.0,-8.15477,0.0,0.0,-7.4201,-8.83981,9.30013,9.87851,7.92509,-7.07801,-27.96039,-2.47894,0.00125,-4.79761,1.40517,0.00021,32.22564,16.79466,8.77704,2.8339,-2.32975,-14.4391,25.17746,4.53868,0.4395,31.26666,-8.30662,24.03796,133.35498,-0.00431,-88.78535,132.43384,0.00068,83.83543,7.55063,-2.4814,0.00963,2.05524,2.3744,-0.00061,-6.44232,-3.65553,13.68787,-27.96477,-8.47277,11.38536,2.85741,1.26618,2.22688
256,-4.18503,-0.0,-0.0,-7.81633,0.0,0.0,-7.01941,-9.00092,9.69605,9.92719,7.94944,-7.03069,-27.3835,-2.30498,0.00151,-4.63007,1.55871,0.00032,31.91969,16.48185,8.82428,2.71073,-2.37073,-14.71953,25.07426,4.97645,1.22894,31.00462,-8.402,24.09023,133.53912,-0.00222,-87.61704,132.36096,-0.00062,84.07987,8.57872,-3.39105,0.03155,2.1514,2.53366,-0.00133,-6.52401,-3.9231,13.96488,-28.04058,-8.82308,11.54617,3.11516,1.28307,2.18539
257,-3.95769,0.0,0.0,-7.95436,0.0,0.0,-6.36779,-9.31748,10.2813,10.12898,8.00941,-7.30519,-26.73727,-2.1587,0.00039,-4.50029,1.71415,0.00014,31.54163,16.18853,8.65848,2.54805,-2.37117,-14.84447,25.0954,5.42459,1.86465,30.71658,-8.59513,24.0454,133.80176,0.00703,-88.36385,132.58554,0.00017,84.04356,9.01004,-3.78516,0.02566,2.1924,2.86641,-0.00079,-6.54742,-4.11544,14.09451,-28.06525,-9.04944,11.59654,3.29887,1.31728,2.14486
258,-3.80605,0.0,0.0,-8.23342,0.0,-0.0,-5.59511,-9.68056,10.92997,10.36171,8.13201,-7.83938,-26.03774,-2.11644,-0.00067,-4.42072,1.77408,-4e-05,31.03467,16.05377,8.33341,2.33067,-2.21371,-14.71503,25.15752,5.82588,2.24749,30.40036,-8.82922,23.94172,134.06923,0.01057,-90.91419,133.05246,0.00221,83.8008,8.96402,-3.71071,0.01028,2.26433,3.35392,0.00028,-6.64503,-4.19334,14.04198,-28.1714,-9.10269,11.51824,3.36515,1.42402,2.17522
259,-3.74942,0.0,0.0,-8.3658,0.0,-0.0,-4.85024,-9.82938,11.41381,10.54814,8.08941,-8.36898,-25.29671,-2.13177,-0.00068,-4.42796,1.71465,-2e-05,30.47809,16.05785,7.9965,2.17238,-1.92224,-14.43929,25.18629,6.17574,2.46684,30.09543,-9.05178,23.85332,134.33698,0.00291,-93.20374,133.55412,0.00178,83.4836,8.17687,-2.92769,-0.01701,2.36538,3.62535,0.00109,-6.86861,-4.17295,13.87888,-28.40604,-9.02403,11.37259,3.41007,1.58491,2.2729
260,-3.93103,-0.0,-0.0,-8.3059,-0.0,-0.0,-4.1792,-9.6136,11.62106,10.66604,7.72158,-8.6088,-24.55052,-2.14355,-0.00066,-4.54185,1.60968,3e-05,29.99217,16.11006,7.72304,2.18462,-1.61351,-14.2711,25.115,6.50673,2.68262,29.93198,-9.21542,23.88709,134.70341,-0.00947,-93.51266,133.89653,-0.00148,83.31916,6.58284,-1.47241,-0.03993,2.35132,3.40193,0.00223,-7.14339,-4.0887,13.64543,-28.6932,-8.86016,11.18466,3.54938,1.74046,2.39678
261,-4.34912,0.0,0.0,-8.14808,0.0,0.0,-3.53044,-9.20386,11.7414,10.76265,7.22004,-8.58954,-23.82654,-2.15735,-0.00128,-4.73159,1.53784,-7e-05,29.563,16.12311,7.46048,2.31098,-1.40283,-14.27584,24.95191,6.81671,2.98139,30.06431,-9.2924,24.07666,135.25243,-0.01407,-92.27142,134.09196,-0.00366,83.34832,4.78224,0.0932,-0.02891,2.10477,2.93695,0.00188,-7.36022,-3.96497,13.33194,-28.92577,-8.63018,10.93641,3.76023,1.82016,2.51757
262,-4.72031,-0.0,0.0,-7.83901,0.0,-0.0,-2.93203,-8.91029,12.00756,10.86566,6.93846,-8.59041,-23.11325,-2.14712,-0.00089,-4.92118,1.49392,-0.00013,29.09545,16.01622,7.17352,2.38133,-1.32305,-14.30349,24.84928,7.07027,3.36503,30.50986,-9.32809,24.27788,135.9028,-0.0046,-91.02745,134.39374,-0.00065,83.26825,3.56676,1.11673,-0.002,1.72537,2.87872,-0.00146,-7.49295,-3.85706,12.99496,-29.0764,-8.40621,10.6604,3.92142,1.79971,2.59659
263,-4.64967,0.0,-0.0,-7.10068,0.0,0.0,-2.53577,-8.84302,12.34716,10.89106,7.02302,-8.72816,-22.37167,-2.00549,0.00141,-5.05093,1.42123,-0.0001,28.56227,15.74382,6.97932,2.30921,-1.32957,-14.29167,25.01722,7.2576,3.75261,31.09509,-9.44179,24.2635,136.40378,0.00728,-90.51498,135.05629,0.0083,82.75685,3.05692,1.4669,0.00794,1.47712,3.61114,-0.00135,-7.61227,-3.83594,12.75066,-29.21146,-8.29687,10.43917,3.9668,1.73726,2.6144
264,-4.1495,0.0,0.0,-5.93401,-0.0,-0.0,-2.37588,-8.86232,12.55471,10.7889,7.30687,-8.87155,-21.57796,-1.70467,0.00326,-5.13317,1.29998,-7e-05,28.01401,15.33988,7.00022,2.16337,-1.38201,-14.32821,25.50173,7.42054,3.9981,31.62563,-9.69804,23.97698,136.58333,0.01183,-90.25925,136.01254,0.01287,81.8699,2.75809,1.50639,0.00326,1.50759,4.77236,0.00253,-7.79744,-3.89699,12.63628,-29.40768,-8.31161,10.30923,3.943,1.70406,2.63584
265,-3.88815,0.0,-0.0,-5.05336,0.0,-0.0,-2.22951,-8.80786,12.67491,10.71809,7.50395,-8.95368,-20.76696,-1.40149,0.00215,-5.22251,1.16293,-6e-05,27.51082,14.89948,7.1172,2.05495,-1.46688,-14.43575,26.11853,7.63669,4.05579,32.06464,-9.99315,23.62018,136.63437,0.00526,-89.41066,136.87663,0.00603,81.08753,2.41906,1.49574,-0.00291,1.5897,5.46865,0.00575,-8.0655,-3.95117,12.59456,-29.68147,-8.34665,10.24995,3.94338,1.69356,2.73776
266,-4.48138,0.0,-0.0,-5.24352,-0.0,0.0,-1.88147,-8.67029,12.91628,10.89015,7.44549,-9.08632,-20.00983,-1.28592,-0.00056,-5.35773,1.03875,-6e-05,27.09158,14.51875,7.08106,2.04085,-1.55512,-14.51614,26.66977,7.98346,4.1054,32.48592,-10.14515,23.41393,136.96591,-0.01372,-87.58285,137.33018,-0.00133,80.86052,2.3156,1.44293,-0.00514,1.32783,5.07772,0.01352,-8.38404,-3.92612,12.58121,-29.99956,-8.31846,10.24677,4.03353,1.63584,2.89723
267,-5.56485,0.0,0.0,-6.28865,0.0,-0.0,-1.42423,-8.53294,13.29309,11.27222,7.1785,-9.3573,-19.339,-1.38789,-0.00195,-5.54933,0.91852,-2e-05,26.74597,14.23714,6.85986,2.11145,-1.61752,-14.49977,27.13419,8.47725,4.36095,32.91497,-10.08275,23.37095,137.69945,-0.0242,-85.18105,137.41606,-0.00227,81.06023,2.66344,1.59438,-0.00185,0.67297,3.96999,0.01685,-8.69954,-3.82817,12.57562,-30.31019,-8.22534,10.27799,4.20749,1.47624,3.02866
268,-6.19496,0.0,-0.0,-7.2363,0.0,0.0,-1.11216,-8.42773,13.62418,11.64906,6.89332,-9.72643,-18.72725,-1.58654,-0.00147,-5.78862,0.7787,7e-05,26.42641,14.00125,6.66641,2.22075,-1.68476,-14.41749,27.60286,9.03968,4.78186,33.28769,-9.89953,23.38104,138.50449,-0.01107,-83.00538,137.39999,-0.00013,80.99559,3.21057,2.49888,0.00192,-0.02071,3.25924,0.00703,-8.94147,-3.7092,12.52084,-30.54953,-8.09461,10.27091,4.40466,1.21668,3.0914
269,-6.0127,0.0,0.0,-7.49418,-0.0,0.0,-1.04745,-8.26879,13.78215,11.89461,6.7338,-10.0947,-18.14077,-1.75063,-0.00029,-6.05252,0.60492,0.00014,26.12122,13.69964,6.68498,2.33993,-1.82632,-14.35182,28.12693,9.55147,5.14217,33.544,-9.75628,23.37012,139.02232,0.00473,-81.3838,137.44739,0.00242,80.01752,3.56979,4.21536,-0.00249,-0.4595,3.59688,-0.00098,-9.06871,-3.63046,12.37478,-30.68244,-7.96772,10.16334,4.58248,0.90434,3.12333
270,-5.37039,0.0,0.0,-7.10477,0.0,-0.0,-1.17398,-7.94287,13.81113,12.0212,6.7195,-10.42264,-17.57536,-1.835,0.0004,-6.3151,0.39367,0.0001,25.82663,13.26323,6.89492,2.43869,-2.07018,-14.33832,28.67411,9.94679,5.36451,33.70924,-9.75246,23.29646,139.29695,0.00484,-79.95387,137.50728,0.00229,78.22103,3.69232,5.77938,-0.00789,-0.67184,4.42253,-0.00103,-9.11336,-3.63411,12.1905,-30.73944,-7.90335,9.98936,4.70379,0.57956,3.20228
271,-4.71826,0.0,0.0,-6.47983,0.0,0.0,-1.41045,-7.45037,13.86694,12.10667,6.81898,-10.78651,-17.05581,-1.8688,0.00037,-6.57452,0.16247,-9e-05,25.49807,12.72423,7.12039,2.47345,-2.38233,-14.30419,29.18831,10.26445,5.58951,33.85646,-9.83851,23.12888,139.64743,-0.00297,-78.52625,137.45914,0.00132,76.60201,3.77376,6.02534,-0.0081,-0.76519,4.7326,0.0006,-9.10514,-3.68221,12.04738,-30.74297,-7.8954,9.83741,4.71163,0.2244,3.3765
272,-4.31018,-0.0,0.0,-6.04194,-0.0,0.0,-1.64836,-6.88456,14.04781,12.23074,6.959,-11.25739,-16.63121,-1.87608,0.00019,-6.8667,-0.04925,-0.00037,25.11949,12.16513,7.23366,2.45576,-2.71566,-14.15578,29.64642,10.60369,5.91471,34.00682,-9.86071,22.8849,140.20079,-0.00219,-77.65234,137.29588,0.00271,76.04265,3.83566,4.95346,-0.0038,-0.70106,4.3217,0.00037,-9.01012,-3.66939,11.95126,-30.65347,-7.84812,9.75218,4.60046,-0.20926,3.6016
273,-4.18074,0.0,-0.0,-5.76804,-0.0,-0.0,-1.73966,-6.37083,14.27221,12.3901,7.02128,-11.76972,-16.35555,-1.83284,0.00011,-7.24021,-0.22781,-0.00034,24.74863,11.6406,7.30445,2.45625,-3.04034,-13.91406,30.04636,11.00721,6.2263,34.11847,-9.74849,22.62288,140.73375,0.00283,-77.95354,137.11252,0.00257,76.20828,3.70544,3.78329,-0.00029,-0.49057,3.77728,0.00094,-8.84398,-3.54808,11.87411,-30.48614,-7.70696,9.7251,4.44289,-0.70598,3.7656
274,-4.27273,-0.0,0.0,-5.33147,-0.0,0.0,-1.59243,-6.0945,14.36343,12.5296,6.96171,-12.18792,-16.25521,-1.69895,-0.0001,-7.72644,-0.41806,0.00027,24.49337,11.16811,7.48261,2.55814,-3.32488,-13.71213,30.3713,11.40081,6.28636,34.16611,-9.61608,22.38013,140.95424,-0.00013,-79.22515,136.96214,-0.00038,76.15794,3.34061,3.61383,-0.00375,-0.36686,3.56188,0.00255,-8.74655,-3.37248,11.82909,-30.38292,-7.52717,9.74829,4.34341,-1.16146,3.81064
275,-4.55782,0.0,-0.0,-4.64544,0.0,-0.0,-1.25552,-6.19725,14.26765,12.6631,6.89588,-12.50914,-16.29598,-1.46922,-0.00032,-8.32361,-0.65746,0.00078,24.43176,10.74216,7.72531,2.80013,-3.54092,-13.62753,30.60541,11.67865,5.93744,34.15468,-9.63015,22.14153,140.78598,-0.0025,-80.45132,136.83385,-0.00389,75.63973,2.9398,4.42381,-0.00581,-0.52738,3.66515,0.00276,-8.81672,-3.19958,11.85283,-30.44323,-7.37518,9.83478,4.36034,-1.48268,3.8011
276,-4.87987,-0.0,-0.0,-3.88262,0.0,0.0,-0.87485,-6.57728,14.09319,12.84783,6.9814,-12.86882,-16.39466,-1.18045,-0.00031,-8.99514,-0.91081,0.00022,24.54538,10.3367,7.80443,3.14648,-3.69659,-13.60275,30.76501,11.84087,5.28796,34.06387,-9.81561,21.90329,140.38397,0.00186,-80.76096,136.71429,-0.00613,75.20128,2.76993,5.36151,-0.00233,-0.84017,3.8128,0.00138,-8.95549,-3.04881,11.96316,-30.5677,-7.2756,9.99405,4.45894,-1.67046,3.82912
277,-4.89628,0.0,-0.0,-3.16459,0.0,0.0,-0.57394,-6.93959,13.9437,13.06443,7.23783,-13.28197,-16.49089,-0.88119,-0.00019,-9.69531,-1.12887,-0.00092,24.77471,9.93652,7.61428,3.55583,-3.8236,-13.59566,30.86911,12.01558,4.67929,33.87464,-10.02064,21.75241,139.96237,0.00323,-80.32858,136.53949,-0.00392,75.4693,2.95063,5.72655,-0.00067,-0.90997,3.58589,-0.0051,-8.98202,-2.9767,12.14518,-30.57883,-7.27549,10.19119,4.58501,-1.77999,3.88644
278,-4.48587,0.0,0.0,-2.57067,0.0,-0.0,-0.37318,-7.03575,13.89074,13.25104,7.52855,-13.58971,-16.57612,-0.63299,-8e-05,-10.4048,-1.33538,-0.00116,25.05292,9.56069,7.24462,4.01075,-3.93689,-13.64416,30.88479,12.32586,4.39108,33.65204,-10.0662,21.79747,139.62338,-0.00016,-79.90425,136.16724,0.00641,76.66434,3.35802,5.59064,-0.00091,-0.49182,2.70846,-0.01527,-8.86415,-3.06355,12.32632,-30.45293,-7.4228,10.32855,4.73083,-1.86002,3.90556
279,-3.95453,-0.0,-0.0,-2.26402,0.0,0.0,-0.21418,-6.78334,13.99707,13.42511,7.68651,-13.69493,-16.65866,-0.50713,5e-05,-11.15029,-1.60975,0.0001,25.27841,9.2259,6.82658,4.47361,-4.0398,-13.75387,30.74392,12.75206,4.40916,33.51774,-9.93336,22.00111,139.35101,-0.00173,-79.61973,135.53491,0.01731,78.56268,3.67896,5.50045,-0.00052,0.04394,1.51945,-0.01465,-8.76817,-3.27753,12.38314,-30.36353,-7.64265,10.30233,4.89311,-1.95723,3.91206
280,-3.61526,0.0,-0.0,-2.34301,0.0,0.0,-0.04933,-6.29162,14.19429,13.65748,7.65039,-13.70103,-16.7526,-0.51529,0.00016,-11.98716,-1.98213,0.00161,25.37296,8.91598,6.50592,4.9019,-4.15512,-13.84332,30.44468,13.15164,4.49677,33.50747,-9.79297,22.15729,139.11806,0.00035,-79.04266,134.81569,0.01382,80.49167,3.60391,5.73553,-0.00143,-0.04697,0.83815,-0.01083,-8.882,-3.44774,12.22318,-30.4965,-7.7421,10.08928,5.02449,-2.11997,4.02561
281,-3.48948,-0.0,0.0,-2.6624,-0.0,-0.0,0.11157,-5.85249,14.27499,13.93903,7.52578,-13.79893,-16.86603,-0.57528,0.0001,-12.94018,-2.38203,0.00163,25.3512,8.6178,6.42693,5.2961,-4.3102,-13.80854,30.112,13.40387,4.42488,33.50162,-9.83134,22.09436,138.88206,0.00463,-78.0947,134.32498,0.00175,81.56981,3.13798,6.05519,-0.00133,-0.94879,1.11164,-0.01518,-9.20447,-3.4258,11.88249,-30.84003,-7.59638,9.77844,5.06562,-2.3534,4.29737
282,-3.43399,0.0,-0.0,-2.88099,0.0,0.0,0.19663,-5.71784,14.07057,14.15292,7.51892,-14.04597,-16.96089,-0.58897,-2e-05,-13.9532,-2.72177,0.00023,25.27706,8.33741,6.62976,5.67874,-4.50835,-13.66435,29.89914,13.50976,4.13159,33.35737,-10.05151,21.87413,138.52454,0.00774,-77.23898,134.22446,-0.00239,81.49213,2.68034,6.0524,-0.00104,-1.96097,1.97277,-0.01002,-9.53406,-3.24114,11.54075,-31.1823,-7.29892,9.52731,5.01403,-2.60957,4.60522
283,-3.30454,0.0,-0.0,-2.70637,-0.0,-0.0,0.1255,-5.81644,13.57801,14.20573,7.74765,-14.33812,-16.97639,-0.5295,1e-05,-14.91233,-2.98641,-0.00105,25.19382,8.04859,6.99851,6.03251,-4.73967,-13.57493,29.83938,13.54917,3.73243,33.08065,-10.28212,21.74667,137.9514,0.00342,-77.10782,134.34166,-0.0014,80.85706,2.60383,5.51615,-0.00496,-2.25295,2.72285,0.00102,-9.682,-3.06272,11.38903,-31.33136,-7.07719,9.45174,4.91531,-2.84327,4.71782
284,-3.10041,-0.0,0.0,-2.15122,-0.0,-0.0,-0.03799,-5.88968,12.94742,14.13043,8.09196,-14.59848,-16.91698,-0.43031,0.00013,-15.74553,-3.22352,-0.00095,25.11539,7.71258,7.33127,6.31173,-4.96764,-13.64886,29.84729,13.56903,3.39555,32.79122,-10.38169,21.89562,137.21381,-0.00632,-78.10466,134.34492,0.00023,80.53521,2.82586,4.58818,-0.00703,-1.66398,2.91389,0.00013,-9.66148,-3.01903,11.446,-31.3053,-7.05757,9.52126,4.78713,-3.02952,4.50958
285,-3.03432,0.0,0.0,-1.50435,-0.0,0.0,-0.07048,-5.88416,12.38335,14.02627,8.29961,-14.884,-16.86256,-0.3265,0.00013,-16.50914,-3.48068,0.00055,25.03992,7.3726,7.48947,6.52189,-5.11019,-13.78432,29.83671,13.54311,3.17111,32.56418,-10.37106,22.23058,136.44099,-0.01177,-80.08007,134.09091,0.00421,80.995,2.94066,3.66121,-0.00181,-0.71814,2.56745,-0.00484,-9.62865,-3.086,11.54728,-31.26922,-7.15712,9.5911,4.6058,-3.13408,4.11886
286,-3.26241,-0.0,0.0,-0.99152,0.0,-0.0,0.12478,-5.93925,11.97502,13.94307,8.22731,-15.26894,-16.85929,-0.2341,6e-05,-17.34887,-3.74846,0.00196,24.96334,7.10937,7.51781,6.74837,-5.14089,-13.82209,29.79272,13.43228,2.93703,32.38712,-10.34848,22.46875,135.72504,-0.01031,-82.48965,133.72418,0.00581,82.11703,2.71429,2.90019,0.00506,-0.00454,2.13802,-0.00274,-9.67026,-3.12818,11.55144,-31.31253,-7.19785,9.57931,4.38003,-3.15454,3.81067
287,-3.69404,0.0,-0.0,-0.61208,0.0,-0.0,0.38167,-6.07253,11.66181,13.87909,7.90942,-15.74589,-16.84128,-0.174,-4e-05,-18.35878,-3.94024,0.00097,24.88301,6.90072,7.55597,7.08037,-5.18647,-13.69599,29.74772,13.25765,2.54961,32.21978,-10.33908,22.42758,135.10309,-0.00429,-84.69625,133.4438,0.00243,83.32035,2.36545,2.04542,0.00605,0.34616,2.09076,0.00105,-9.74354,-3.03137,11.48948,-31.38522,-7.08505,9.55734,4.17929,-3.17863,3.71895
288,-4.23725,0.0,0.0,-0.39679,0.0,0.0,0.53679,-6.16185,11.433,13.85652,7.49465,-16.30865,-16.70294,-0.18579,-0.00032,-19.50161,-3.9625,-0.00192,24.77861,6.64533,7.59195,7.51992,-5.40012,-13.35552,29.69879,13.09601,2.04195,32.03666,-10.28639,22.18549,134.59602,0.00334,-86.01344,133.27225,-0.00226,83.84225,2.36941,0.93612,-0.00175,0.54515,2.4136,0.00208,-9.81447,-2.82831,11.4512,-31.44937,-6.88221,9.59698,4.05551,-3.30627,3.79108
289,-4.82422,-0.0,-0.0,-0.5183,0.0,0.0,0.58763,-6.15948,11.3633,13.89847,7.20497,-16.93962,-16.4349,-0.26908,-0.00051,-20.68257,-3.84998,-0.00296,24.63477,6.30278,7.47262,8.01078,-5.77225,-12.80771,29.58022,13.00263,1.5957,31.84372,-10.17373,21.94333,134.23187,0.00621,-86.21069,133.10455,-0.00605,83.18916,2.98739,-0.1547,-0.00759,0.75117,2.73155,0.0011,-9.92533,-2.6709,11.41302,-31.55571,-6.72182,9.61972,3.98832,-3.53627,3.90315
290,-5.24306,-0.0,-0.0,-0.99046,0.0,-0.0,0.57902,-6.14172,11.44598,13.9547,7.20532,-17.52317,-16.15838,-0.34978,-0.00028,-21.86516,-3.75114,-0.00129,24.49384,5.92288,7.14553,8.52657,-6.16429,-12.2252,29.36263,12.95976,1.32448,31.67329,-10.08308,21.79457,134.01619,0.00314,-86.04686,132.92523,-0.00531,81.66296,4.01004,-0.86621,-0.00271,0.97929,2.81935,0.00013,-10.12418,-2.63559,11.26357,-31.76236,-6.63396,9.4931,3.92696,-3.78541,3.95425
291,-5.30083,0.0,0.0,-1.45889,0.0,0.0,0.5535,-6.15995,11.55579,13.90928,7.44408,-17.90515,-16.01282,-0.35717,-4e-05,-23.07106,-3.75366,0.00051,24.42976,5.56462,6.75432,9.07884,-6.49004,-11.81092,29.12808,12.89886,1.16814,31.54666,-10.1115,21.68755,133.91321,0.00047,-86.5358,132.88847,-0.00057,80.23026,4.92285,-1.04708,0.00375,1.18269,2.75836,0.00013,-10.42116,-2.62824,10.93429,-32.07912,-6.50578,9.18808,3.84558,-3.97919,3.91363
292,-5.01698,0.0,-0.0,-1.4532,0.0,0.0,0.56751,-6.14321,11.52848,13.65857,7.74381,-17.97243,-16.01227,-0.28369,4e-05,-24.30144,-3.83776,0.00139,24.45465,5.23868,6.54049,9.67547,-6.7857,-11.64317,28.99246,12.75924,0.95946,31.44971,-10.27789,21.55159,133.88956,0.00125,-87.79458,133.1602,-0.00015,79.61649,5.22101,-0.67807,-0.00037,1.2747,2.68261,0.00027,-10.78886,-2.54493,10.45545,-32.47147,-6.25173,8.77172,3.74572,-4.1,3.84531
293,-4.53554,-0.0,0.0,-0.84654,0.0,-0.0,0.6127,-5.97318,11.25658,13.18818,8.04382,-17.70051,-16.02093,-0.16141,0.00027,-25.51029,-3.97564,0.00212,24.49002,4.91951,6.63613,10.29304,-7.11823,-11.69594,28.99355,12.54823,0.55156,31.35779,-10.52182,21.35163,133.9509,0.00196,-88.92852,133.73138,-0.00335,79.79368,4.75424,0.15641,-0.01052,1.26282,2.6734,0.00026,-11.15647,-2.40341,9.93988,-32.86232,-5.92982,8.34301,3.62934,-4.18153,3.84417
294,-4.06645,0.0,0.0,0.08133,0.0,-0.0,0.58382,-5.60112,10.80268,12.57368,8.41911,-17.2246,-15.8727,-0.04927,0.00029,-26.65792,-4.12931,0.00174,24.44808,4.58986,6.90501,10.88949,-7.49964,-11.83833,29.09985,12.34002,-0.05015,31.26108,-10.75349,21.04175,134.1297,-0.00166,-88.9081,134.42488,-0.00277,80.28391,3.95521,1.11222,-0.01032,1.38019,2.85642,0.00155,-11.44692,-2.24815,9.53041,-33.16881,-5.63421,8.0187,3.49632,-4.27715,3.93061
295,-3.98158,0.0,0.0,1.00624,-0.0,0.0,0.44147,-5.11188,10.40757,11.92772,8.83955,-16.82894,-15.52882,-0.0304,-0.00044,-27.7815,-4.17808,-0.00087,24.31597,4.27176,7.04905,11.45187,-7.89747,-11.80824,29.31411,12.18872,-0.68676,31.15813,-10.91069,20.57712,134.42999,-0.00647,-87.56801,135.05238,0.00069,80.6871,3.48381,1.60755,-0.0029,1.86844,3.27051,0.00314,-11.64714,-2.08639,9.30581,-33.3749,-5.40087,7.86939,3.3484,-4.41146,4.0466
296,-4.40606,0.0,0.0,1.75645,-0.0,-0.0,0.26963,-4.6939,10.171,11.3389,9.09466,-16.68314,-15.12,-0.11827,-0.00098,-28.96814,-4.04689,-0.00267,24.15055,4.01008,6.9623,11.9969,-8.26311,-11.50665,29.70955,12.08317,-1.22282,31.04011,-11.00362,19.98998,134.774,-0.00624,-85.57153,135.54257,0.00142,80.99057,3.56657,1.27569,-0.00138,2.62163,3.6516,0.00066,-11.82004,-1.95321,9.1874,-33.54927,-5.23333,7.8085,3.16635,-4.54575,4.115
297,-4.9062,0.0,0.0,2.23465,0.0,-0.0,0.15071,-4.53876,9.85307,10.81219,9.05117,-16.67039,-14.80844,-0.19384,-0.00056,-30.24666,-3.83858,-0.00124,24.00759,3.82039,6.85566,12.52122,-8.55332,-11.19276,30.32603,12.01214,-1.67164,30.89516,-11.09959,19.40609,135.04376,-0.00219,-83.49339,135.94762,-0.00153,81.46532,3.90747,0.46266,-0.00109,3.14607,3.61552,-0.00115,-12.04885,-1.89525,8.97494,-33.78683,-5.10087,7.63199,2.91328,-4.61984,4.07921
298,-5.23185,-0.0,0.0,2.40206,0.0,-0.0,0.14621,-4.74251,9.28034,10.28359,8.82327,-16.67738,-14.6228,-0.13853,4e-05,-31.5721,-3.64476,-4e-05,23.89091,3.66208,6.91416,13.01819,-8.77845,-11.03673,31.06618,12.0116,-2.11603,30.74441,-11.24591,18.96639,135.16936,0.00123,-81.57169,136.347,-0.00345,82.17381,4.11597,0.07849,-0.00087,3.00814,3.05361,0.00389,-12.36507,-1.8983,8.56778,-34.12293,-4.95292,7.25143,2.59069,-4.63306,3.92964
299,-5.59352,0.0,0.0,2.30269,-0.0,0.0,0.26528,-5.20305,8.61546,9.6873,8.65827,-16.75261,-14.46942,0.03171,0.00034,-32.89803,-3.42668,-0.00072,23.78444,3.48,7.08134,13.53096,-9.00034,-10.895,31.74839,12.10793,-2.55728,30.65711,-11.42407,18.72742,135.16435,0.00216,-80.20763,136.75203,-0.00046,82.66129,3.99128,0.74784,-0.00732,2.32543,2.20112,0.00719,-12.70257,-1.91104,8.09814,-34.48238,-4.79068,6.8092,2.26582,-4.63389,3.69472
300,-6.02288,0.0,0.0,2.06206,-0.0,-0.0,0.38693,-5.67675,8.06102,8.99347,8.75038,-16.87992,-14.27502,0.21668,0.00031,-34.19596,-3.18154,-0.00063,23.70686,3.26161,7.22418,14.11457,-9.26033,-10.69486,32.27313,12.25198,-2.89342,30.72467,-11.58277,18.65217,135.12622,0.00291,-80.03272,137.09686,0.00327,82.56275,3.58234,2.06323,-0.0116,1.53099,1.36812,0.00451,-12.93952,-1.91332,7.73427,-34.73516,-4.65781,6.46951,2.01867,-4.64464,3.41307
301,-6.37211,0.0,-0.0,1.8994,-0.0,0.0,0.36788,-6.0388,7.64424,8.21854,9.06394,-16.94314,-14.04421,0.34588,0.0001,-35.43267,-2.96982,0.0003,23.68739,3.02316,7.27736,14.7623,-9.56414,-10.53256,32.71589,12.36331,-3.07958,31.02071,-11.67585,18.68402,135.15897,0.00607,-81.34812,137.30147,0.00346,82.35022,3.13668,2.94263,-0.00616,0.80337,0.74915,0.00135,-13.01293,-1.93611,7.47669,-34.81992,-4.58336,6.22122,1.87725,-4.66816,3.14175
302,-6.6604,-0.0,0.0,2.02677,0.0,0.0,0.19738,-6.35265,7.29958,7.3987,9.31156,-16.87695,-13.79662,0.41627,-0.0,-36.57189,-2.79013,0.00023,23.70273,2.78041,7.27039,15.4178,-9.9128,-10.42459,33.21706,12.42899,-3.26154,31.51735,-11.66848,18.76701,135.23798,0.00696,-83.44824,137.35414,0.00245,82.69599,2.8159,3.02077,-0.00254,0.14959,0.46544,-0.00058,-12.96409,-2.01863,7.26718,-34.78188,-4.58217,5.99544,1.81454,-4.73213,2.96685
303,-6.96345,0.0,0.0,2.52091,-0.0,0.0,-0.0041,-6.62708,6.98071,6.54205,9.2607,-16.67888,-13.54594,0.44446,-3e-05,-37.59106,-2.59966,-0.0005,23.69721,2.56708,7.28074,16.03834,-10.28494,-10.29708,33.78915,12.48645,-3.63074,32.05627,-11.5667,18.8236,135.26445,0.0046,-84.75248,137.32814,0.0012,83.40874,2.50589,3.19475,-0.00713,-0.26463,0.53778,-0.00078,-12.8751,-2.133,7.11651,-34.70214,-4.63238,5.81255,1.78505,-4.8505,2.9425
304,-7.25845,0.0,0.0,3.31382,0.0,0.0,-0.09977,-6.67371,6.70068,5.63498,9.02442,-16.3586,-13.3397,0.42366,-6e-05,-38.49313,-2.41114,-0.00029,23.66021,2.42091,7.32782,16.61371,-10.63129,-10.13668,34.31119,12.53783,-4.15146,32.51965,-11.43955,18.81267,135.27351,0.0012,-84.25905,137.27031,-0.00051,83.86257,2.1859,4.161,-0.01315,-0.30481,0.719,-1e-05,-12.80646,-2.18089,7.00717,-34.63904,-4.63621,5.69292,1.74645,-4.98453,3.01297
305,-7.42693,0.0,-0.0,4.17327,-0.0,-0.0,-0.06961,-6.32587,6.48275,4.71085,8.91222,-15.94719,-13.22626,0.35248,-1e-05,-39.32058,-2.28914,0.00098,23.62072,2.33015,7.3769,17.14424,-10.92561,-9.99947,34.70265,12.57655,-4.56839,32.96927,-11.36346,18.78532,135.40865,-0.00294,-82.54099,137.12085,-0.00155,83.95271,2.25785,5.07362,-0.02277,-0.11827,0.6366,-0.00034,-12.76831,-2.09854,6.83964,-34.6046,-4.4975,5.56776,1.6618,-5.08867,3.05205
306,-7.4002,0.0,0.0,4.742,0.0,0.0,-0.01336,-5.73798,6.29932,3.87504,9.05606,-15.54099,-13.18231,0.27419,6e-05,-40.14565,-2.24604,0.00148,23.5835,2.24231,7.42027,17.62828,-11.18428,-9.90692,35.00887,12.64498,-4.7283,33.49853,-11.363,18.82029,135.66484,-0.00252,-80.8824,136.82291,-0.00024,84.03461,3.0,4.67341,-0.04453,0.02798,0.22073,-0.00027,-12.71566,-1.92935,6.57436,-34.55663,-4.24182,5.38407,1.51913,-5.14374,2.97153
307,-7.3618,0.0,-0.0,4.81928,-0.0,0.0,-0.01359,-5.31317,6.1125,3.20312,9.29238,-15.26884,-13.13097,0.24175,9e-05,-41.00272,-2.18442,5e-05,23.52886,2.13674,7.46389,18.06937,-11.4215,-9.79172,35.33072,12.77672,-4.79605,34.05249,-11.41975,18.94017,135.80545,-0.002,-80.18726,136.4306,0.00299,84.39883,3.83857,3.28472,-0.046,-0.01779,-0.23209,0.00026,-12.59836,-1.7637,6.32029,-34.44368,-3.99359,5.20955,1.35688,-5.13722,2.77373
308,-7.52135,0.0,-0.0,4.48759,0.0,-0.0,-0.08163,-5.29972,5.94755,2.64473,9.37152,-15.13667,-13.01339,0.25002,4e-05,-41.83824,-2.02426,-0.00131,23.44164,2.0492,7.47788,18.47751,-11.62406,-9.58849,35.73859,12.92788,-5.06754,34.49883,-11.51317,19.10009,135.6082,-0.01002,-80.81709,136.04391,0.00482,84.94289,3.83868,2.45184,-0.02998,-0.21871,-0.39391,0.0003,-12.3964,-1.65103,6.21125,-34.24253,-3.84845,5.15017,1.23497,-5.07562,2.54855
309,-7.71243,0.0,-0.0,3.85299,0.0,0.0,-0.21311,-5.57503,5.84668,2.10938,9.20716,-14.98047,-12.82357,0.25329,-7e-05,-42.56099,-1.83181,-0.00066,23.30891,2.00593,7.42153,18.8431,-11.7831,-9.35224,36.2182,13.02189,-5.61943,34.77474,-11.65848,19.2205,135.14993,-0.01452,-82.4304,135.72116,0.00312,85.10029,2.8961,2.76023,-0.01355,-0.36476,-0.15592,0.00173,-12.11104,-1.59762,6.24449,-33.95472,-3.81124,5.20099,1.17415,-4.99868,2.39457
310,-7.70544,0.0,-0.0,3.00841,0.0,-0.0,-0.37147,-5.84327,5.7821,1.59341,8.93497,-14.68813,-12.60814,0.24099,-9e-05,-43.13011,-1.69152,0.00032,23.13298,1.99267,7.30552,19.13255,-11.89927,-9.14606,36.6591,13.05309,-6.27188,34.89186,-11.88746,19.25339,134.71658,-0.00329,-83.87181,135.45921,-0.00157,84.20891,1.69625,3.41156,0.01399,-0.19833,0.27714,0.00347,-11.79885,-1.59544,6.3055,-33.64038,-3.83191,5.25854,1.14813,-4.92557,2.3008
311,-7.71077,-0.0,-0.0,2.22944,0.0,-0.0,-0.46592,-5.92669,5.6994,1.14886,8.76684,-14.3594,-12.43376,0.23791,-4e-05,-43.58479,-1.55429,3e-05,22.95579,2.00871,7.20428,19.34632,-11.95074,-8.86748,36.93937,13.12049,-6.88278,34.8764,-12.15497,19.2369,134.39288,0.01114,-84.16624,135.18327,-0.00678,82.24716,0.47921,4.02775,0.01491,0.37275,0.43413,-0.00084,-11.58407,-1.63137,6.31974,-33.42602,-3.87055,5.25838,1.12036,-4.83325,2.16967
312,-7.97748,0.0,0.0,1.75271,0.0,0.0,-0.46709,-5.86081,5.59939,0.80083,8.78271,-14.12009,-12.32871,0.25446,-1e-05,-43.99123,-1.36843,-0.00048,22.83707,2.06497,7.17921,19.5381,-11.92571,-8.43153,37.03833,13.31493,-7.49613,34.74977,-12.32107,19.25969,133.93797,0.01054,-83.86552,134.81192,-0.00553,80.26989,-1.29329,5.41328,-0.04631,1.14959,-0.03754,-0.00797,-11.56178,-1.69876,6.29599,-33.40625,-3.92427,5.21116,1.0731,-4.72355,1.96561
313,-8.22871,-0.0,0.0,1.43297,0.0,0.0,-0.47176,-5.81511,5.5243,0.54985,8.88136,-13.91936,-12.26784,0.28814,0.0,-44.35593,-1.21849,-0.00012,22.80067,2.11784,7.18956,19.72308,-11.88058,-8.02578,37.02745,13.57795,-8.14217,34.52444,-12.28029,19.38346,133.17911,-0.01291,-84.69955,134.41039,0.00186,79.67477,-3.87458,8.05182,-0.10575,1.76248,-0.8307,-0.00743,-11.71641,-1.78414,6.25755,-33.56438,-3.98922,5.14357,1.02378,-4.64217,1.75174
314,-8.06724,0.0,0.0,0.96217,-0.0,0.0,-0.56303,-5.92138,5.50024,0.38676,8.97105,-13.63833,-12.21724,0.34322,2e-05,-44.60514,-1.18609,0.00031,22.81329,2.09865,7.13509,19.82322,-11.89747,-7.90033,36.96434,13.75547,-8.69137,34.22115,-12.07034,19.613,132.31032,-0.02978,-87.63188,134.17448,0.00208,80.75133,-6.58226,10.93817,-0.06995,2.00069,-1.05273,-0.00338,-11.95217,-1.83674,6.24357,-33.80199,-4.03284,5.11094,1.01899,-4.60542,1.58357
315,-7.66151,0.0,-0.0,0.32752,-0.0,-0.0,-0.68526,-6.12336,5.51549,0.26961,9.12743,-13.26501,-12.16234,0.41089,3e-05,-44.67134,-1.21818,0.00024,22.82187,2.01893,6.9961,19.77631,-11.98345,-8.00907,36.8553,13.78816,-9.02555,33.90657,-11.82889,19.88888,131.66663,-0.01442,-91.54621,134.15311,-0.0016,82.45783,-8.39059,12.59992,0.00512,2.01798,-0.21307,-0.00054,-12.16847,-1.79404,6.33912,-34.01393,-4.02875,5.21574,1.09912,-4.57498,1.4775
316,-7.57923,0.0,0.0,-0.19993,-0.0,0.0,-0.71109,-6.26049,5.54121,0.15372,9.47841,-12.88024,-12.10549,0.45661,2e-05,-44.57972,-1.22425,0.00011,22.80622,1.97013,6.85873,19.63792,-12.06456,-8.08875,36.70348,13.74345,-9.20083,33.6663,-11.65278,20.11309,131.39159,0.00408,-93.85064,134.09651,0.001,83.78928,-8.75889,12.68979,0.0238,2.10565,1.04396,0.00232,-12.33152,-1.63193,6.57683,-34.16446,-3.96667,5.49728,1.25922,-4.5236,1.48023
317,-7.98905,0.0,0.0,-0.43796,0.0,-0.0,-0.60774,-6.27977,5.5304,0.06605,9.9845,-12.52414,-12.06562,0.45425,2e-05,-44.41189,-1.20317,3e-05,22.7825,2.00387,6.80525,19.493,-12.08819,-8.03259,36.52563,13.67727,-9.34341,33.52308,-11.51787,20.25649,131.41364,-4e-05,-92.60748,133.72444,0.0047,84.58128,-7.88347,12.00898,0.00559,2.30296,1.62842,0.00188,-12.50508,-1.37166,6.8405,-34.32169,-3.82305,5.83952,1.44306,-4.47939,1.63254
318,-8.44415,-0.0,-0.0,-0.50682,0.0,-0.0,-0.48768,-6.23335,5.4079,0.11342,10.40234,-12.12492,-12.05589,0.42342,3e-05,-44.21547,-1.22141,-9e-05,22.75712,2.06207,6.86153,19.33328,-12.08833,-7.97998,36.31295,13.58934,-9.48629,33.41197,-11.36894,20.39715,131.56665,-0.0076,-88.41476,133.07584,0.00252,84.91173,-6.38628,11.38845,-0.0038,2.43485,1.2273,0.00089,-12.75733,-1.07785,6.96899,-34.56187,-3.59799,6.06842,1.58868,-4.49689,1.86045
319,-8.64104,0.0,-0.0,-0.73735,0.0,0.0,-0.43396,-6.18917,5.12747,0.4011,10.52798,-11.64746,-12.07013,0.41759,1e-05,-43.99272,-1.29292,-2e-05,22.70481,2.06488,7.03696,19.08609,-12.10975,-8.01053,36.01643,13.49178,-9.60353,33.23524,-11.24869,20.59427,131.65575,-0.00269,-84.01039,132.47961,-0.00129,84.81927,-4.95824,11.13239,-0.00235,2.42493,0.4057,0.0009,-13.01126,-0.85782,6.90549,-34.81334,-3.37012,6.09124,1.6735,-4.58334,2.03219
320,-8.7997,-0.0,0.0,-1.3224,-0.0,0.0,-0.38392,-6.25596,4.73636,0.90209,10.44056,-11.2279,-12.10745,0.46536,-3e-05,-43.73525,-1.36505,0.00014,22.60928,2.04269,7.3269,18.71678,-12.09298,-7.99761,35.60691,13.41345,-9.74632,32.92831,-11.25304,20.82187,131.54895,-0.00152,-81.92914,132.23129,-0.00279,84.73943,-4.22175,11.3029,-0.00334,2.28916,-0.24602,0.00073,-13.0722,-0.7974,6.6833,-34.88167,-3.23149,5.90711,1.71618,-4.65537,2.11612
321,-9.01207,0.0,-0.0,-2.00742,0.0,0.0,-0.29893,-6.49883,4.37023,1.42091,10.37224,-10.9827,-12.15554,0.53158,-2e-05,-43.43027,-1.43716,-0.00017,22.49733,2.09562,7.65267,18.27557,-11.93191,-7.85127,35.1356,13.35611,-9.99031,32.49905,-11.38222,21.04651,131.27116,-0.00861,-82.70291,132.37042,-0.00487,85.19045,-4.40522,11.83423,-0.00826,2.01005,-0.56951,0.00017,-12.87067,-0.86203,6.37571,-34.69302,-3.1772,5.59707,1.76747,-4.62432,2.17478
322,-8.96017,0.0,0.0,-2.32649,0.0,-0.0,-0.27458,-6.77897,4.18529,1.76813,10.39022,-10.81287,-12.16286,0.54908,-2e-05,-43.05822,-1.5544,-0.00078,22.4089,2.24058,7.86105,17.84713,-11.63608,-7.65103,34.68917,13.29671,-10.25834,32.02648,-11.5187,21.25057,130.97935,-0.00806,-84.77332,132.71609,-0.00423,85.98111,-5.00068,12.40575,-0.00653,1.66211,-0.57459,-0.00026,-12.58344,-0.90413,6.09914,-34.41649,-3.11346,5.3243,1.88485,-4.50999,2.24415
323,-8.52638,0.0,-0.0,-2.13794,0.0,-0.0,-0.37574,-6.85108,4.25116,1.93844,10.36669,-10.54943,-12.09084,0.48214,-0.00014,-42.60572,-1.67318,-0.00064,22.34268,2.39838,7.8353,17.44743,-11.33026,-7.46981,34.2848,13.2125,-10.3812,31.60785,-11.5404,21.38742,130.83524,-0.00187,-85.9566,133.05092,-0.00052,86.49466,-5.24184,12.70032,-0.00097,1.46368,-0.18701,0.00166,-12.40481,-0.80483,5.93532,-34.24153,-2.96036,5.20902,2.06594,-4.40513,2.31297
324,-8.01666,0.0,0.0,-1.64538,0.0,-0.0,-0.51962,-6.62335,4.49702,2.05579,10.22888,-10.14624,-11.96039,0.35856,-0.0002,-42.07628,-1.68585,0.00034,22.24485,2.50025,7.59033,16.99696,-11.11336,-7.28478,33.85295,13.09916,-10.34724,31.29962,-11.40677,21.42242,130.8974,-0.00054,-85.55984,133.27472,0.00101,86.56388,-5.03653,12.72484,0.00092,1.52718,0.57599,0.00477,-12.30738,-0.59641,5.84446,-34.14332,-2.73311,5.2022,2.22346,-4.37255,2.37228
325,-7.66861,0.0,-0.0,-0.992,0.0,-0.0,-0.58806,-6.24012,4.78568,2.19499,10.05365,-9.65941,-11.81842,0.248,-7e-05,-41.48232,-1.57385,0.00091,22.07217,2.53477,7.25077,16.42594,-10.99054,-7.09298,33.32471,12.977,-10.33253,31.11045,-11.15793,21.40953,131.10172,-0.0006,-84.66931,133.40736,8e-05,86.44193,-4.97898,12.70049,-0.00078,1.71897,1.37215,0.00411,-12.15614,-0.41106,5.73597,-33.99258,-2.5207,5.17041,2.27664,-4.41565,2.41167
326,-7.4007,0.0,-0.0,-0.16381,-0.0,0.0,-0.56456,-5.90185,5.0221,2.3277,9.88491,-9.17918,-11.70662,0.20478,9e-05,-40.83141,-1.42928,0.00045,21.86793,2.5168,6.96056,15.77003,-10.91549,-6.95643,32.7049,12.85814,-10.47094,31.01409,-10.88851,21.43068,131.312,4e-05,-84.38928,133.50362,-0.00011,86.10116,-5.46634,12.81953,-0.00477,1.92335,1.7642,0.00042,-11.94122,-0.3242,5.57925,-33.78151,-2.38177,5.05714,2.25086,-4.49983,2.40584
327,-7.1515,0.0,-0.0,0.75727,0.0,0.0,-0.49841,-5.6625,5.19245,2.43005,9.63838,-8.82334,-11.6653,0.22942,0.00011,-40.13556,-1.32844,0.0,21.74041,2.45493,6.79312,15.13487,-10.84916,-6.88157,32.06642,12.70623,-10.69418,30.9434,-10.72229,21.47046,131.43623,-0.00106,-84.74726,133.61725,0.00196,85.17374,-6.22971,13.11498,-0.00554,2.19757,1.68202,-0.00236,-11.75522,-0.30209,5.40162,-33.60093,-2.29516,4.90036,2.2478,-4.58844,2.37134
328,-7.07638,0.0,-0.0,1.46758,0.0,0.0,-0.41231,-5.48981,5.32178,2.57925,9.24682,-8.69546,-11.72106,0.28786,0.0,-39.42949,-1.25695,0.00051,21.76407,2.36231,6.72436,14.60027,-10.77377,-6.77479,31.49972,12.46465,-10.83669,30.81172,-10.73396,21.45128,131.52194,-0.00217,-85.18043,133.79361,0.0033,83.81829,-6.75994,13.44649,0.00088,2.47693,1.36678,-0.00164,-11.60657,-0.28863,5.24115,-33.45713,-2.22296,4.75631,2.33955,-4.66333,2.3912
329,-7.16897,-0.0,0.0,1.67885,0.0,-0.0,-0.33238,-5.41377,5.39703,2.8904,8.77508,-8.77436,-11.87061,0.35174,-9e-05,-38.74953,-1.20339,0.00092,21.93225,2.28024,6.70588,14.17879,-10.6685,-6.61395,31.06227,12.1268,-10.85449,30.57561,-10.86096,21.37147,131.68623,-0.00024,-85.54103,134.02551,0.00058,82.94441,-6.95511,13.6101,0.01044,2.48815,0.95076,0.00191,-11.38376,-0.28718,5.13267,-33.23763,-2.18123,4.6561,2.52858,-4.70843,2.51372
330,-7.21643,0.0,-0.0,1.49395,0.0,0.0,-0.28042,-5.48667,5.39925,3.36999,8.36043,-8.92708,-12.08995,0.40634,-0.0001,-38.0749,-1.23169,0.0001,22.17955,2.25201,6.71889,13.82829,-10.51022,-6.50517,30.74999,11.77028,-10.83979,30.26365,-10.96139,21.30838,131.94344,0.00402,-86.29392,134.25362,-0.00269,83.12934,-6.99447,13.37968,0.01286,2.15192,0.48274,0.00401,-11.01341,-0.34524,5.10656,-32.8689,-2.2254,4.61022,2.78714,-4.71434,2.68683
331,-7.219,0.0,-0.0,1.35673,0.0,-0.0,-0.19979,-5.6694,5.39232,3.90499,8.10671,-9.0872,-12.33523,0.43976,-1e-05,-37.30626,-1.38903,-0.00144,22.40914,2.27257,6.71936,13.46062,-10.30411,-6.50264,30.52726,11.52011,-10.8418,29.94513,-10.97464,21.29711,132.16986,0.0052,-87.34789,134.45125,-0.00251,83.99713,-6.58922,12.54177,-0.00922,1.78535,0.19857,0.00283,-10.55772,-0.46693,5.17086,-32.4131,-2.36227,4.62461,3.0754,-4.70888,2.83962
332,-7.303,-0.0,0.0,1.55413,0.0,0.0,-0.0393,-5.82868,5.46918,4.40671,8.05318,-9.32408,-12.54034,0.44649,9e-05,-36.34446,-1.62194,-0.00198,22.54117,2.28958,6.61024,12.97879,-10.08472,-6.53027,30.38461,11.43236,-10.82016,29.70038,-10.95803,21.28181,132.27501,0.00356,-87.54312,134.65263,0.00067,84.67189,-5.1739,11.16455,-0.04525,1.76435,0.32853,0.00277,-10.09631,-0.57529,5.27241,-31.95032,-2.50065,4.67857,3.32936,-4.73939,2.96188
333,-7.40061,-0.0,-0.0,1.96696,0.0,0.0,0.12771,-5.84951,5.63984,4.89653,8.21116,-9.71147,-12.66303,0.43596,0.00011,-35.20302,-1.81859,-0.00064,22.58822,2.2573,6.34409,12.36941,-9.89225,-6.49529,30.31938,11.41023,-10.76658,29.59853,-10.97533,21.20846,132.33904,0.00128,-86.32181,134.86571,0.00345,84.59265,-3.17845,9.81632,-0.04662,2.11048,0.71206,0.00299,-9.58908,-0.60628,5.30589,-31.44257,-2.54187,4.69812,3.503,-4.82001,3.06987
334,-7.25138,0.0,-0.0,2.28446,-0.0,0.0,0.1596,-5.73115,5.80287,5.4435,8.54685,-10.17414,-12.74016,0.43397,-0.0,-34.01277,-1.93061,0.00052,22.65435,2.17694,6.02199,11.72375,-9.74831,-6.44291,30.288,11.30496,-10.74554,29.65545,-11.02062,21.12498,132.48146,0.00016,-84.75201,135.02655,0.00285,84.12402,-2.03124,9.20406,-0.02341,2.49331,0.91158,0.00102,-8.95172,-0.59911,5.2171,-30.80778,-2.50217,4.61831,3.62112,-4.9197,3.13812
335,-6.66103,-0.0,0.0,2.30846,0.0,0.0,-0.00185,-5.60464,5.85128,6.07759,8.90796,-10.53566,-12.85639,0.4732,-0.00025,-32.9152,-2.00953,0.00043,22.81629,2.06848,5.79971,11.12624,-9.6549,-6.52635,30.25268,11.08164,-10.81977,29.81734,-11.0577,21.13067,132.65359,0.00157,-83.90028,135.08067,0.00142,83.97039,-2.36887,9.39559,-0.0133,2.57175,0.74097,0.00018,-8.23344,-0.62646,5.04722,-30.09497,-2.4643,4.45031,3.73495,-5.01328,3.12419
336,-5.85398,0.0,-0.0,2.09702,0.0,0.0,-0.25707,-5.65049,5.85874,6.78154,9.0994,-10.76439,-13.04062,0.54958,-0.00038,-31.97175,-2.07814,0.00097,23.03449,1.9268,5.68266,10.58154,-9.62494,-6.73756,30.24737,10.81309,-11.01022,29.99431,-11.08482,21.23633,132.70271,0.00252,-83.59951,135.04872,0.00107,84.14693,-3.35272,9.76187,-0.00491,2.28141,0.4463,-3e-05,-7.612,-0.67473,4.81608,-29.48083,-2.42303,4.21763,3.858,-5.13172,3.07238
337,-5.32409,-0.0,0.0,1.85311,0.0,0.0,-0.45558,-5.88278,6.03823,7.52267,9.08901,-11.01211,-13.22634,0.59049,-0.0002,-31.14652,-2.10625,0.002,23.21387,1.76126,5.52513,10.07077,-9.65826,-6.88421,30.33382,10.55976,-11.31206,30.12333,-11.11739,21.35068,132.59448,0.00214,-83.43443,134.96571,0.00024,84.08644,-3.94372,9.88758,0.00461,1.83902,0.27699,-0.0008,-7.18181,-0.66689,4.47117,-29.05964,-2.28727,3.90022,3.98907,-5.32628,3.11832
338,-5.22566,0.0,-0.0,1.70183,0.0,-0.0,-0.55192,-6.07292,6.44181,8.24797,9.03083,-11.32848,-13.33776,0.52585,0.0,-30.33519,-2.16044,0.00084,23.29907,1.65072,5.26914,9.58278,-9.67641,-6.95066,30.50166,10.33818,-11.69313,30.22259,-11.11926,21.4315,132.43745,0.00091,-83.57504,134.80212,-0.00199,83.43436,-3.75343,9.93225,0.00947,1.47894,0.1845,-0.00076,-6.83947,-0.57559,4.04255,-28.72641,-2.0428,3.53627,4.13935,-5.58224,3.34137
339,-5.28685,0.0,-0.0,1.62905,0.0,-0.0,-0.59509,-6.05033,6.88055,8.88279,9.06629,-11.56802,-13.3757,0.38461,4e-05,-29.42962,-2.3722,-0.00243,23.28511,1.681,5.05771,9.07732,-9.5731,-7.16205,30.64835,10.1661,-12.04633,30.35511,-11.03681,21.57096,132.3311,0.0002,-84.21651,134.51135,-0.00331,82.467,-2.7559,9.92596,0.00278,1.22321,0.06518,-0.0003,-6.44438,-0.45198,3.73274,-28.33666,-1.8126,3.29476,4.31019,-5.80311,3.68024
340,-5.24556,0.0,-0.0,1.53702,0.0,0.0,-0.62342,-5.96642,7.18741,9.39344,9.20125,-11.64083,-13.39564,0.27556,2e-05,-28.3969,-2.72601,-0.00398,23.20202,1.84162,5.04865,8.50947,-9.33872,-7.61482,30.66514,10.06724,-12.20499,30.51794,-10.92189,21.86588,132.29149,6e-05,-85.00841,134.13846,-0.00178,81.76575,-1.14666,9.49989,-0.01609,0.94765,-0.03422,-0.00025,-5.99244,-0.34602,3.72349,-27.88371,-1.71084,3.3257,4.49087,-5.88773,4.02902
341,-5.06237,0.0,0.0,1.30896,-0.0,-0.0,-0.63784,-6.07525,7.38313,9.82532,9.3767,-11.65067,-13.44623,0.28094,-6e-05,-27.29801,-3.04281,-0.00165,23.1048,2.03781,5.21105,7.88289,-9.06381,-8.12931,30.52857,10.04048,-12.12547,30.62585,-10.91217,22.27803,132.27362,0.00041,-85.16919,133.80559,-0.00022,81.6488,0.52995,8.66048,-0.02169,0.53592,-0.0845,-1e-05,-5.54636,-0.23991,3.94368,-27.43151,-1.69446,3.56968,4.67114,-5.818,4.34389
342,-4.87231,0.0,-0.0,0.94532,0.0,-0.0,-0.61581,-6.36576,7.57352,10.2353,9.56661,-11.75458,-13.54995,0.37935,-0.00012,-26.2266,-3.18378,0.00162,23.04445,2.17989,5.37847,7.24786,-8.84136,-8.49206,30.30471,10.04469,-11.9928,30.63629,-11.05043,22.68293,132.2056,0.00235,-84.09552,133.56961,-0.00041,82.01699,1.70289,8.14573,-0.00882,-0.026,-0.2041,0.00095,-5.11298,-0.08278,4.16728,-26.99102,-1.63198,3.83584,4.84107,-5.68919,4.62838
343,-4.8054,0.0,-0.0,0.62141,0.0,-0.0,-0.54098,-6.61585,7.79439,10.62732,9.74622,-11.97783,-13.71223,0.48449,-8e-05,-25.24243,-3.18841,0.00223,23.05526,2.23108,5.46981,6.679,-8.70996,-8.71053,30.07986,10.01662,-12.01182,30.63688,-11.22009,22.99358,132.05794,0.00345,-82.16048,133.33377,0.00044,82.61835,2.2377,8.44745,-0.00141,-0.5595,-0.52146,0.00064,-4.67613,0.12164,4.31052,-26.54842,-1.49565,4.04501,5.00298,-5.64409,4.87608
344,-4.82867,0.0,-0.0,0.50005,0.0,-0.0,-0.44838,-6.75699,8.00979,10.99102,9.79667,-12.21805,-13.92192,0.55255,-3e-05,-24.34598,-3.1853,0.00076,23.15195,2.21556,5.55245,6.2284,-8.6473,-8.98689,29.89777,9.93845,-12.18167,30.76392,-11.28934,23.22631,131.90562,0.00196,-80.65707,132.95636,0.00402,83.38529,2.29968,9.0035,-0.00031,-0.82863,-0.98019,-0.00181,-4.25199,0.3057,4.47907,-26.11799,-1.38762,4.27006,5.17121,-5.7387,5.06457
345,-4.90657,0.0,0.0,0.52689,0.0,-0.0,-0.39048,-6.95547,8.24892,11.36329,9.59238,-12.42257,-14.14106,0.59591,-2e-05,-23.49108,-3.21927,-0.00031,23.31011,2.20615,5.65844,5.87331,-8.58752,-9.45355,29.75759,9.88646,-12.36459,31.0478,-11.23223,23.4768,131.87053,0.00435,-80.93016,132.47701,0.00597,84.33566,1.88778,8.96232,0.00741,-0.81538,-1.24533,-0.00256,-3.86626,0.43661,4.75082,-25.72326,-1.36731,4.5711,5.34668,-5.88728,5.17255
346,-5.10644,0.0,-0.0,0.48993,0.0,0.0,-0.38936,-7.29771,8.59689,11.80137,9.2246,-12.62732,-14.3147,0.61247,1e-05,-22.62841,-3.25706,-0.0007,23.48026,2.26769,5.69574,5.54864,-8.46927,-10.05693,29.66134,9.95554,-12.46098,31.38331,-11.09729,23.80449,131.9725,0.00917,-83.50423,132.14792,0.00324,85.20721,0.96678,8.29494,0.01594,-0.66422,-0.85646,0.00057,-3.54647,0.56069,5.05043,-25.39314,-1.36366,4.89544,5.51265,-5.97215,5.1906
347,-5.37983,0.0,-0.0,0.26722,0.0,0.0,-0.47003,-7.63812,9.02204,12.31184,8.94503,-12.86064,-14.40701,0.58408,2e-05,-21.73827,-3.28307,-0.00098,23.62879,2.39416,5.60029,5.21391,-8.2892,-10.66792,29.63579,10.15204,-12.46058,31.67315,-10.95051,24.15337,132.07268,0.00497,-87.32928,132.12982,0.00048,85.52602,-0.07986,7.67585,0.01189,-0.44961,0.28396,0.00445,-3.32992,0.70754,5.25867,-25.1685,-1.30483,5.14343,5.65148,-5.97926,5.13975
348,-5.50482,0.0,0.0,-0.08949,-0.0,0.0,-0.66877,-7.82055,9.36629,12.85498,8.86229,-13.16628,-14.43188,0.52989,-4e-05,-20.82911,-3.26987,-0.00051,23.7477,2.51812,5.44412,4.86066,-8.10975,-11.14594,29.66854,10.41164,-12.3982,31.9555,-10.8533,24.42946,132.02724,-0.00082,-90.17664,132.25407,-0.00274,84.97591,-0.80647,7.72099,0.00111,-0.1769,1.58441,0.00423,-3.23247,0.8128,5.37435,-25.06626,-1.25015,5.28998,5.76201,-5.98658,5.06715
349,-5.37131,0.0,-0.0,-0.53119,0.0,0.0,-0.9367,-7.85186,9.54435,13.39945,8.86154,-13.60716,-14.45422,0.49179,-0.0001,-19.93404,-3.15462,0.00071,23.85383,2.59665,5.33202,4.50916,-7.99076,-11.38097,29.66858,10.66573,-12.30689,32.32432,-10.82305,24.59268,131.85965,0.00122,-90.6426,132.26744,-0.00774,83.57594,-1.35686,8.60292,-0.01228,0.16709,2.31811,0.00103,-3.22065,0.77683,5.4971,-25.05046,-1.32918,5.39057,5.87759,-6.04091,5.0248
350,-5.1477,0.0,0.0,-1.06764,0.0,0.0,-1.10459,-7.8343,9.65807,13.90909,8.76011,-14.13158,-14.55707,0.47496,-9e-05,-19.08764,-2.92758,0.00125,23.98456,2.66791,5.2513,4.19498,-7.91096,-11.41632,29.57398,10.84206,-12.23733,32.74591,-10.81993,24.61657,131.6869,0.00254,-89.54489,132.21341,-0.00599,81.70786,-2.07949,9.92936,-0.02205,0.646,2.47692,0.00048,-3.19812,0.58436,5.65733,-25.02408,-1.56742,5.46776,6.03708,-6.10121,5.06122
351,-5.05511,0.0,-0.0,-1.59859,0.0,0.0,-1.03657,-7.8382,9.85727,14.2915,8.4422,-14.53386,-14.79364,0.45199,8e-05,-18.27936,-2.67242,0.00049,24.16448,2.8052,5.10961,3.9148,-7.78747,-11.46275,29.44653,10.89745,-12.2712,33.05503,-10.79251,24.46344,131.54688,-0.00012,-88.80581,132.32954,0.00193,79.94456,-2.71799,10.9027,-0.01956,1.2471,2.51367,0.00244,-3.00231,0.36861,5.7657,-24.82676,-1.80799,5.48816,6.21711,-6.10584,5.18987
352,-5.21464,0.0,-0.0,-1.93528,-0.0,0.0,-0.73813,-7.88342,10.20033,14.46937,7.9562,-14.67635,-15.15987,0.40869,0.00032,-17.46431,-2.4738,-0.00045,24.38288,3.04906,4.88431,3.62842,-7.56636,-11.6331,29.3799,10.89181,-12.42787,33.14297,-10.71688,24.18639,131.41331,-0.00282,-89.43139,132.67497,0.00453,78.73413,-2.88262,11.03147,-0.01695,1.75348,2.47925,0.00273,-2.50334,0.31921,5.76694,-24.32834,-1.85431,5.47093,6.34901,-6.0313,5.37281
353,-5.62544,0.0,0.0,-2.01929,-0.0,-0.0,-0.31172,-7.97765,10.6389,14.49632,7.52304,-14.67266,-15.60039,0.36242,0.00037,-16.61276,-2.33506,-0.00047,24.61275,3.39097,4.66031,3.31116,-7.25935,-11.77922,29.37415,10.92617,-12.61366,33.06494,-10.61584,23.96834,131.31012,-0.00228,-91.17136,133.10345,-8e-05,78.34063,-3.06796,10.64713,-0.01564,1.96802,2.11522,0.00226,-1.79684,0.48311,5.72791,-23.62135,-1.68765,5.49565,6.41186,-5.86589,5.56638
354,-6.00372,0.0,-0.0,-1.96554,0.0,0.0,0.0837,-8.07228,10.99793,14.4993,7.33701,-14.71178,-16.04326,0.35543,9e-05,-15.72967,-2.21674,0.00025,24.83396,3.7786,4.54424,2.95707,-6.91101,-11.75969,29.35574,11.00386,-12.72994,32.96725,-10.5574,23.95923,131.28995,0.00056,-93.42596,133.49721,-0.00453,78.7539,-3.95853,10.3134,-0.01256,1.98531,1.49816,0.00127,-1.21052,0.7088,5.72534,-23.03281,-1.47718,5.57719,6.44622,-5.5976,5.75146
355,-5.97003,0.0,0.0,-1.93054,0.0,-0.0,0.31102,-8.03674,11.10637,14.5415,7.36017,-14.81171,-16.44084,0.41947,-0.00021,-14.86929,-2.10546,0.00075,25.04089,4.13757,4.54108,2.57911,-6.56225,-11.67855,29.25263,11.04987,-12.76914,32.96678,-10.59376,24.11446,131.35252,0.0027,-95.93109,133.85881,-0.00392,79.47095,-5.16889,9.94499,-0.00753,2.0067,1.05735,-0.00051,-0.99152,0.80576,5.76585,-22.81142,-1.40222,5.65087,6.48801,-5.25328,5.89964
356,-5.39797,0.0,0.0,-1.94672,0.0,-0.0,0.33662,-7.74725,10.98194,14.58694,7.44303,-14.7776,-16.78699,0.54195,-0.00028,-14.12309,-2.03828,0.00038,25.25337,4.42244,4.55308,2.22948,-6.2277,-11.81885,29.02679,11.04046,-12.76204,33.08853,-10.69199,24.2791,131.45537,0.00252,-98.5735,134.22005,0.00111,79.7261,-5.82869,9.15105,-0.00674,1.9864,1.04249,-0.0018,-1.05163,0.70127,5.86005,-22.86905,-1.53424,5.69948,6.54538,-4.88745,5.93006
357,-4.40242,-0.0,-0.0,-1.88755,0.0,-0.0,0.20295,-7.23658,10.75407,14.56722,7.56413,-14.35012,-17.1074,0.68465,-0.00023,-13.5441,-2.07357,-0.00047,25.50462,4.65353,4.54136,1.9643,-5.89398,-12.42335,28.72644,11.02978,-12.68559,33.28637,-10.74862,24.38724,131.54459,0.00015,-100.59085,134.53673,0.00489,79.1759,-5.79011,8.20605,-0.00762,1.70934,1.18347,-0.00066,-1.09668,0.45084,6.05258,-22.90964,-1.83828,5.78519,6.61159,-4.52737,5.76558
358,-3.31685,0.0,0.0,-1.68612,-0.0,-0.0,-0.01987,-6.75533,10.50896,14.47001,7.77451,-13.49919,-17.41977,0.81691,-0.00016,-13.08465,-2.21183,-0.00103,25.79823,4.88784,4.58478,1.7809,-5.551,-13.4247,28.50699,11.07667,-12.48318,33.48906,-10.69157,24.49304,131.54715,0.00011,-100.93649,134.7242,0.00386,78.33077,-5.59289,7.84882,-0.00524,1.11619,1.03642,0.00337,-0.93375,0.16319,6.32001,-22.74028,-2.2047,5.92669,6.66439,-4.18292,5.45194
359,-2.62636,-0.0,0.0,-1.50392,0.0,0.0,-0.24925,-6.57952,10.29346,14.35657,8.02877,-12.56434,-17.69374,0.91216,-1e-05,-12.6262,-2.35759,-0.00087,26.09612,5.15455,4.71036,1.61277,-5.21357,-14.41933,28.49033,11.19338,-12.17037,33.61056,-10.56521,24.64705,131.40247,0.00381,-99.70557,134.79601,0.00126,77.94959,-5.74676,8.21082,-0.00497,0.35662,0.6105,0.00376,-0.61734,-0.07651,6.54622,-22.41872,-2.51127,6.04779,6.68087,-3.88531,5.1287
