PaulMeinheit/Bachelor_Muay_Thai/processed_Data/N4/teep/scaled/JointMoments/scaled5.csv
R_KNEE_MOMENT,R_KNEE_MOMENT,R_KNEE_MOMENT,L_KNEE_MOMENT,L_KNEE_MOMENT,L_KNEE_MOMENT,R_HIP_MOMENT,R_HIP_MOMENT,R_HIP_MOMENT,L_HIP_MOMENT,L_HIP_MOMENT,L_HIP_MOMENT,R_ANKLE_MOMENT,R_ANKLE_MOMENT,R_ANKLE_MOMENT,L_ANKLE_MOMENT,L_ANKLE_MOMENT,L_ANKLE_MOMENT,WAIST_JOINT_MOMENT,WAIST_JOINT_MOMENT,WAIST_JOINT_MOMENT,NECK_MOMENT,NECK_MOMENT,NECK_MOMENT,L_SHOULDER_MOMENT,L_SHOULDER_MOMENT,L_SHOULDER_MOMENT,R_SHOULDER_MOMENT,R_SHOULDER_MOMENT,R_SHOULDER_MOMENT,L_ELBOW_MOMENT,L_ELBOW_MOMENT,L_ELBOW_MOMENT,R_ELBOW_MOMENT,R_ELBOW_MOMENT,R_ELBOW_MOMENT,L_WRIST_MOMENT,L_WRIST_MOMENT,L_WRIST_MOMENT,R_WRIST_MOMENT,R_WRIST_MOMENT,R_WRIST_MOMENT
X,Y,Z,X,Y,Z,X,Y,Z,X,Y,Z,X,Y,Z,X,Y,Z,X,Y,Z,X,Y,Z,X,Y,Z,X,Y,Z,X,Y,Z,X,Y,Z,X,Y,Z,X,Y,Z
-1.2498700000000005,-14.226330000000004,3.9867100000000004,-13.29735,-0.75612,-1.38681,-22.968160000000005,-20.997880000000006,3.1242700000000005,-15.688880000000001,0.42461000000000004,-1.4890100000000004,-31.499290000000002,39.06438,-4.561780000000001,-16.13636,-0.8980100000000001,-1.42811,-24.62351,-4.314820000000001,3.51441,40.043880000000016,-18.988220000000002,-7.876930000000001,1.4413400000000005,0.5211200000000001,-0.5466600000000003,-5.394500000000002,-1.9738700000000002,-0.25926,0.3699800000000001,-0.98348,-0.19654000000000005,-0.6967200000000001,-0.9897200000000002,-0.35013,-0.01878,-0.05336000000000002,-0.04762000000000001,0.005540000000000001,-0.22475000000000003,0.017190000000000004
0.7119759727722113,-12.21041828650705,2.2484702567879795,-13.504957149057855,1.3980735138931446,-0.3093084883393398,-20.66890048331753,1.6225935977403307,-1.0911449163966536,-10.412326626891243,7.185443366276425,5.362786508585498,-30.41034222471585,38.98496479232504,-5.011729334150821,-17.612698411281862,-0.4678723252272644,-1.1823273917382409,-6.927812881210702,34.584390152696145,-1.7397960711545148,20.734111442439,-33.49232168194999,8.524851359944421,-0.8186951385912744,1.9522981030421849,0.8980910852938192,-6.041458408742898,-0.8632408245672271,-0.42830645077094154,0.8318481522012069,-1.826144770558257,-0.1203009404814077,-0.527360841981623,-0.3731127538756453,-0.3031839014115702,0.08254497136253669,-0.3087739549842994,-0.06042098590206209,-0.17125474186221473,-0.03377379716345212,-0.10463164011324602
5.672143029678816,-15.3099625337142,1.8701571566492547,-14.732863534969894,3.2833946835281718,-0.07726172954061798,-26.000681847830865,3.4400549989116747,-2.0730675633084807,-18.424920118048604,11.244377742592729,2.091439774713559,-29.489815713684532,36.26630859143041,-4.82013160080053,-18.618401510773268,-0.27436042523180343,-0.9112709174728936,-27.530180667660503,36.93539060988756,-8.024791176723939,34.66940970010618,-22.881461177350058,-4.932592163244906,0.9583240968118322,-2.084850472211768,-0.4937387112759847,-5.6418991379106584,-4.22158288321858,0.8879719208183053,0.8904281445161885,-1.9678611931258672,-0.307707234219022,0.10562391598145827,-1.7844514672927674,-0.07011903133561222,0.26578158871394053,-0.12636575007955708,0.10867148796643256,0.016541091739950102,-0.29124684233129383,0.048243660695022124
7.680613450590393,-18.19264553172338,1.564819095145492,-16.040090281906533,4.299463463086603,0.6449240609351135,-16.995116076130916,9.173678040164864,-0.8878662814677822,-11.365698443269908,9.385974955604551,3.9420880029300607,-28.570118175410954,33.604778289080585,-5.044858215758491,-20.390660378326537,0.4716573350056582,-0.49446448236778706,-0.0825620109790183,52.9657814466038,-8.063135981012625,22.01333904188531,-35.68882758360496,3.6134967889189444,1.9635095881978502,1.1737062680175023,-0.2666445735066638,-2.1561215969674508,-1.7522207113384032,0.543441901617377,1.1648050332556872,-1.786555610113792,-0.4510310185819984,0.5204122732078229,-0.6042891660808241,0.16503971808641119,0.0870238768375691,-0.25054193403841135,-0.20978577620700842,-0.2318774058413381,0.028512198519975333,-0.07527695278481836
6.979024214061913,-24.413450944163646,2.3217730146245064,-16.11224074211007,3.4260118580473606,0.2404640078009596,-16.09869877987163,-1.673483983412641,-2.140774034540916,-17.13249010600798,5.615490082793445,1.59496014685734,-27.09614171893458,31.21434740514617,-5.688301760369276,-21.59245205444591,1.3300017556500412,-0.513495276660172,-10.592478503979555,23.555913980774523,-9.931988572960153,21.26928351404027,-32.01174392098894,-4.555531654814998,2.7003371759787687,1.509027078579696,0.007751925480910086,-7.62987438985104,-0.04481576588543411,-1.5678961691852538,0.9757413981830785,-1.0727806138244633,0.28677923249660736,-0.21905088911443024,-1.1723249776613485,-0.11935846155519061,0.08417301163447466,0.012559646844777258,0.1370001775486397,-0.045335138514793316,-0.31229723124445613,0.016141960992303993
6.750414970309017,-28.755761355863843,3.797276114130129,-17.613243045956658,3.681048662173373,-0.01193973688624443,-31.846552296905774,-12.130828201361785,-0.21399060650772184,-16.849971238345233,11.817669446225958,4.238163625542928,-25.970925067800113,29.738411136736655,-5.8434192465187635,-21.6272019428868,1.688690311873319,-0.6442598988153709,-26.572985528773607,32.88555533983976,-3.9836954474884183,20.496270457677046,-31.94995870740038,14.970370777748208,-2.8635859774289467,0.7311007467897687,0.23149731492846837,0.9183626362370996,-2.837808540011347,1.4772013432505997,-0.14703947166764536,-1.7335949066557637,-0.7981907959150601,1.7394205648871832,-0.9619184469927856,0.4463768847878928,0.050156200166556336,-0.4220309664527687,-0.1960443785133805,0.25402646987319516,-0.09542510325471774,0.139713110099706
8.244016590118386,-26.760389629689445,2.040779665466106,-13.96584300600985,0.31989934196806136,-0.8343105580622273,-22.712181263727658,-7.723590557619958,-1.2219025306650098,-5.113689186426075,-3.7225564328554412,-0.8627985003682028,-25.983291495586638,29.56098094155322,-6.525429551426645,-21.637166905008613,1.6014898605046237,-0.9381904491417472,5.619487791568261,19.94819196718894,-13.696906133769735,22.523315507652285,-14.87582004229033,-3.6066036768007828,2.1791380583484,-0.45678058550194806,-0.8230109946259923,-2.9598154548274556,-4.623112372921222,1.2597116757459577,0.8052965783332514,-1.2941801101832389,-0.4075860226634468,0.5135073491743051,-1.3800731672717734,-0.29048407720088815,0.061262561816419314,0.016790528635910504,-0.041299712825940596,0.0040843504629330205,-0.2635226076692906,-0.08099297333262503
6.119137102472471,-32.15932276817735,3.4497899194299233,-14.11297809401894,2.8197126069716667,-0.6092077199559536,-33.022212686390205,-10.599472191330038,-1.661076957818786,-17.809679079605836,5.042564702294003,-1.131132489252319,-26.43352197033531,30.949261088694502,-7.373934993124737,-19.739979487255333,1.6139745199660542,-0.9440543989881908,-30.039732993965686,26.69106473568353,-14.821684827190378,6.257003513152225,-34.571646942926485,0.10051350147888716,0.8917016051866901,-0.0292220891189105,-0.22986147807522891,-1.4461911178486884,-1.6727656119466825,-0.4565555701588132,0.6660535190442232,-1.6075498942796536,-0.2904622631661369,2.0744032805247286,-1.8963575722668622,0.4480682900406509,0.1816372444752955,-0.23429191555663206,-0.0055220858193531265,0.14429730965164358,-0.3672187611253221,0.11691708170068543
6.6458442920171,-30.36367342515942,2.183230632413254,-13.617862020505516,4.106187140887564,-0.20551359965114907,-24.631096325669343,-2.404643640750661,-1.710623005958197,-16.647822718185626,11.865836614574887,2.899995798721538,-27.608527839623974,32.195086246094455,-8.130174870686558,-19.177095655503077,0.8826405803183288,-1.069325621097509,-8.579379664173807,47.437500157121995,-8.24666979430239,24.257459471783438,-23.845992894687445,11.072975786514025,-0.5761048115307428,3.3012851035806716,0.020862249894442516,-1.1594333575950717,-2.7422210185329954,1.0489854628552164,-0.325599117642376,-0.6456195697309737,-0.4365027817709748,1.4925827439205697,-0.9973495312901361,0.2652461327518074,-0.26020590321166504,-0.16414439461290678,-0.2569107322960702,0.22159991951614877,-0.09005340094558636,0.11003755952558408
5.976031473801471,-32.308559064318764,2.181484010362056,-9.554906119807317,6.904213934034587,1.2186396524256613,-30.523599307109336,-10.570503854342206,-2.8530049741717742,-1.3688062453696446,10.22357134574421,5.814263544078777,-28.667525625922025,33.0271042897235,-9.194800478961435,-17.70264603633511,0.46247381851329844,-0.8261027510439587,-0.7824096005818922,36.57180838823676,-9.87773299887811,1.9179608346646158,-42.51356964136961,17.418149516199893,1.3836865498405748,-0.17682848609727528,-0.3111561899255449,4.078032138098792,-6.061779654723631,3.2605663796685267,0.5894440284376985,-0.7497708952881573,-0.06162269634300713,2.36790428389665,-1.7756212541427407,0.354575015568841,0.11209208547566439,0.07255657766326953,0.0963785483753389,0.1793037669756502,-0.34723572119138485,0.08315473226392794
3.2034334247537517,-31.529250458208104,2.0690120238819394,-11.071221476746597,6.22999226939377,0.7962478333649045,-46.56021977694518,-1.2732459402630392,-4.489278099569015,-28.14616526914746,15.872777963030051,4.385266233936732,-29.131060699239335,33.75152343179907,-10.197818523362319,-16.271163550957734,-0.443995753670966,-0.7870792750719013,-50.4908016007501,50.195642804479654,-13.569189933550822,17.897584855483363,-2.1851736122580547,7.1997525515778635,5.555170132108711,1.6472033610821566,0.0684224460775802,2.472578770708691,0.41586143471570997,0.5718077202403653,2.745919306993914,-2.306311533768458,0.6249016519795977,2.1438294602008834,0.25631834907368317,0.7584708467810667,0.4411575321602023,-0.2872777172946204,0.12199384269574004,0.19544448488109137,0.04903815830015972,0.1537395995720252
3.322938744090267,-35.4919881880638,2.8377601148098712,-7.520653731696985,5.366907524491933,0.7702657018634266,-32.49772206689387,-14.704236871517656,-0.9233635271583589,-24.905247967868924,11.469567165761426,3.5822840571520103,-29.55488911621182,35.598998541690236,-11.363900308442794,-14.08847403623579,-1.500725890742976,-0.9673505774439621,-30.465174750458978,27.83434187063681,-7.799775523636406,15.158292895977638,-40.58416188349434,0.4752420916086282,-0.6070168415815985,1.1056320032754996,-0.04466059001870663,-3.4859161471876954,-1.8029687516344461,-0.4516758540953982,-0.02916718331873367,-0.7419624839376018,-0.4225833806873248,1.020212836889612,-0.9372712304871984,-0.14016670101769885,-0.08320323873613822,-0.07546156558533636,-0.13131732609386823,0.06640954613592868,-0.14465668410272425,-0.043690318697185336
0.8566664563320314,-31.356456361577166,2.0712909554420635,-2.399321285029184,8.02340813806226,1.1421391739392168,-48.461570410547886,0.21484108440869654,-4.082304053857626,-20.97640790935805,21.664394288423452,6.729772119236539,-31.42922147318542,37.26752103856111,-12.029584357350934,-12.576468632700577,-2.4423356240346994,-1.1548619822276254,-46.36119506188771,60.53864218420445,-15.938367401172947,6.642607083034642,-38.334935589464834,16.52349453980584,4.676664425766679,-4.521369389245508,-0.7377948864861628,11.813426280619119,-2.0538140529609628,3.15534758597692,1.6804100072700432,-2.5318052946647787,0.22978438220289293,5.425586461233702,-0.5710349814045684,1.223714359175802,0.3050146254963769,-0.29988723809933804,0.12421823860794265,0.5340818063921895,-0.1214457788918221,0.27235026131237033
0.35891708968042807,-31.987133762020775,1.868380793549923,1.6097186153429142,5.698880405242779,0.7253870731797879,-40.51662492325382,-4.60327690353053,-4.1607702925129715,-26.588639448972916,14.596852632910917,4.530175204753563,-34.26029358052554,39.621455757890786,-13.222573673791102,-11.512698309172126,-2.5841494574369777,-1.4014115330411796,-42.68884296741233,48.6749650079089,-14.931992014190229,8.381086366771557,-42.02443631497821,12.118707590616562,3.099727829545478,-0.4265679366199106,0.18097587640659632,3.280607665936838,-0.6435875706498975,0.4764032229086101,1.5950142351715626,-1.3631056576573972,0.2737462586723751,2.857145766221681,-0.6101114435586101,0.588495142826504,0.19706962062745184,0.009542723596083897,0.0675995964703565,0.42342335813967236,-0.14979872180565082,0.21544937942217354
-0.08110450687179117,-30.380284437378826,2.1381168187980766,6.848488490613693,4.969631643321884,0.6730609915532318,-46.81334856322068,0.2529355421786662,-3.5454793958841577,-21.177939413237706,8.945404551162783,0.5807089378459809,-37.25358429225005,42.98289007821159,-14.028963193955157,-10.009891266010296,-2.5545796849935467,-1.3798745663160854,-43.78621400677765,40.57491117830925,-22.016349631444292,16.64409064153743,-20.927176156326926,18.588493544314844,5.269767664626302,5.566918251073821,0.9573250993310437,6.576551509445633,1.1673061840198824,2.0121724498638236,2.3232395199235754,-0.8619247960581574,1.0636900449754982,4.092187516856798,1.2221098998243702,1.2846677930751025,0.25320499949270336,-0.1528348059565837,0.078578186295818,0.4239841278266827,0.12511623915082198,0.19899821858298677
-0.9601944686471562,-30.11238724898716,2.5298880322473156,9.808437010944303,10.330083769973859,1.3046815066822304,-46.65045931274491,-13.280069438447626,-3.6857676595693887,-20.831334810902057,23.347202023615182,8.153597571965902,-40.70945997526373,46.67522178909811,-15.163205386868272,-8.650299215576254,-3.0736936177736247,-1.577100849554591,-40.46213142693224,51.66008454558514,-9.682469962424486,13.400286561859813,-44.38271715959473,21.399353019039964,1.8820134828859814,4.707366345111925,0.9379473818876862,5.567628907373143,-6.469750071294617,2.1348430632510205,1.6347482380639489,-1.5522287495656097,0.6696919102243652,3.6992498666804847,-2.0318526170826248,0.00027907155244682406,0.3184496822837958,-0.22284806081200223,0.1722945003749114,0.24719027529891283,-0.3596422916089527,0.055704361036141826
-3.6604505640270344,-21.994613855094663,1.6335175901618653,13.769813375673133,9.980614408114421,1.0215783299483117,-55.24981068224999,2.386692452587314,-2.6241798254034765,-19.453606719305814,24.18408349633923,5.925022393025113,-44.700111635087836,50.748537986167264,-15.957256323591425,-7.125158076243223,-3.2072215751377935,-1.4955371077609398,-55.17732214435254,66.31777275089094,-19.204764257043024,22.651648933940915,-37.193842918080925,6.872191190147591,6.860811270211984,-0.44713215660398076,0.9749600514643891,-4.950754675033204,-0.4051865617590453,-0.9602715181423475,3.4173649489687747,-1.9849556066675982,1.3898356871358974,0.07633635453956647,-0.0007369986096284005,-0.03388283400666824,0.5727017340699976,-0.30815964485595676,0.2212756764771296,0.061112911413546585,-0.15549884361519622,-0.0582601299058293
-5.6255435879140565,-18.52529313325687,1.509466001554295,18.218018382755034,7.550720175349916,1.0416300383824495,-47.867744467181666,-4.904481946985245,-2.8678767297550283,-10.238668012051315,13.969263594506282,3.7038281084769036,-49.9110158136151,55.794503348110084,-16.97061535448662,-5.319789589545153,-3.0120977148628145,-1.455109686417547,-31.520183492300557,52.13123691197349,-16.971016047566675,2.380776965051577,-49.03767045832029,20.71773501357121,6.644142617818818,2.046278957514037,0.09815159695641872,7.349861510851613,-2.6004880532654724,1.6346410917537815,2.364178388847798,-1.5508025995873669,0.7240618146611908,6.453084182795097,-0.4599002190562514,0.8991757065889842,0.21643634277366272,-0.15657915327711008,0.009039894555948481,0.7126198306475097,-0.19722562687255468,0.22902489076015023
-8.369276816994223,-8.387647422135203,-0.19269813402498556,18.547415730427936,11.092835477526803,1.218983145547207,-36.11681145401559,0.03150270369989913,-2.2348951425448704,-17.43684651870572,19.22825569993063,2.8702205816834985,-55.91973417682682,62.70902847474036,-18.088572217684217,-4.320600250396383,-3.059215165862367,-1.0324449353570562,-36.68742598887181,60.20698861615732,-18.350595372960118,28.154293364482278,-36.24961054076102,4.969459740430709,4.493068183748442,5.05767827694042,1.7356574622705048,0.6232088827521487,0.4572002774623531,0.17261569585239617,3.4853098333839214,-2.1863200820515054,1.460938752444964,1.9850666474857994,0.40390655240756623,0.5009608468441179,0.6596430987094253,-0.3908892449682762,0.2636137340072405,0.23531280350495987,-0.04503970719429674,0.055644089732056715
-15.273429178358615,1.3950888638939412,-0.9564483179307857,26.074620414486166,9.7200230180713,1.7932506945958204,-41.22077859236288,-0.407328495971803,-2.32249486876004,6.812326836561261,17.895873795068525,6.91224337121386,-63.16625914604745,69.55256406237517,-19.307211298556833,-3.4563801996524655,-2.8489626791634373,-0.8710954047999915,-6.8489544294047375,61.38127945162108,-12.225572536532786,24.753737943848197,-27.38507606655833,-6.207098373369577,9.946517025250323,0.07658602325836772,0.14855183286592383,-8.355266698512494,-1.579445380215745,-2.0942021030573983,3.2198824905956656,-1.6419825692165597,1.1557008507618545,-0.44537044928601016,-0.08663299309487815,-0.19243739691456097,0.29825232389948003,-0.13643437344552872,0.06164383194430065,-0.3869186303094751,-0.10175529495717642,-0.21623342879611246
-14.52502164330788,11.703092624515346,-1.8430877898807236,26.31602316946903,5.836604234815404,1.8849902175670654,-28.23178891380585,-3.8987762521035507,2.8461143978139427,-6.008253797382082,3.8489960350212753,-2.294499916273256,-69.90946943564887,74.64301938377541,-19.23653318970819,-2.7833465012680425,-2.218659196476506,-0.31782479997924884,-20.015786222567005,37.20511696231417,-14.074459201302265,23.588083917518457,-51.18957357904688,16.224603629089177,6.562322864442609,3.7642557577863807,0.5006573240255058,8.382765090590206,-1.1301700178062473,1.0202892139792845,2.6137909596593287,-1.8307176886402297,1.0184569526913274,6.0185636915282235,-0.3612037339009609,0.31710325570977044,0.2502522895569554,-0.2696889865540508,0.07648331503799768,1.0423178857691922,-0.24083769024617677,0.16597513042407247
-15.836256110531851,17.695303283647142,-2.518977640117154,26.65742541703267,7.34502758210431,1.8163672378066367,-6.511432983166233,-10.507730307834223,3.8736403286567147,2.29006341623577,7.13911915578857,-0.9161246686747332,-73.68904374270707,73.92564898447527,-18.864855418202175,-1.233556237114861,-1.9071463164617741,0.004260126525184364,20.929396585369073,26.781628664020886,0.743012888243481,12.752273417236497,-37.250339866806556,5.757134088280933,11.57401948070259,2.9213037651778673,1.5393085471573733,-3.9784040416244304,-6.991558458575694,-1.2798915291437938,5.26161835617099,-2.445435795638488,2.2858931994328597,-0.6471409020835055,-1.3792183609895412,-1.4817560421558218,0.734052230208219,-0.2477922305591893,0.36355481269990575,-0.437530254184904,-0.22108829791677215,-0.3775939819577578
-1.8738142906447222,17.238853246526922,-3.0172681888426514,21.04475398752865,5.817115152870718,1.711782997667701,32.479057315259816,-4.823902786086728,1.3418492914691693,-12.209560752339826,12.026842566941328,4.076292678120501,-69.44614036968328,64.64205335031491,-15.713178606722149,-0.2999796507508184,-1.6407750349717085,0.4055716675335882,34.5395637618259,34.69126567529202,13.849193911189943,49.94628132266027,-6.614638670490324,-3.427222649910513,4.514165353123415,1.8351561426936676,1.7833483330511666,-3.629367460502751,0.584549578504462,-0.2440928475045203,4.68217736499908,-2.591160779897117,1.3460461613038974,2.542294758873852,0.9138740916427466,1.4761118469136825,1.067065912066207,-0.3228480635922888,0.3843158306677945,0.35379516159045477,0.01726760255778126,0.2515811034901225
14.883208786481827,13.682452386260968,-3.7145998044281385,21.0452382741015,2.0810672346491885,1.80289969345111,38.978746479117525,6.277621623725022,-0.5670962591993036,0.3218824032951434,-0.22023930115272733,0.18608160616486316,-54.40650195183429,46.51761317142258,-10.49614102472154,0.6042479094094976,-1.753328047830975,0.3385105832787605,48.70753254188655,30.6682365128612,6.5686634414543414,16.411519081972276,-25.143668736943763,1.529118892754138,3.7404035527979547,-2.443005539646657,-2.654401980777687,4.597459614224137,-3.7110616969410346,0.5284292118950501,-0.14835624092564306,-2.150632521445381,-1.6593116353387756,2.533729949464634,-0.3824717212512947,-0.59661802934888,-0.47557370765103435,-0.22655710421114508,-0.5319311963910024,0.2437104503537752,-0.0906210687280503,-0.1317779479121352
26.378302538780716,5.837653689804356,-2.452151217638195,17.578954564745025,0.40229718500353023,2.0388734934230026,75.72447560545547,0.9697228187204945,2.4470833686356257,-5.595211228682225,-2.3393899781272345,0.5566521132164524,-29.193667779178774,24.224974183648385,-3.8913973472734886,1.054058206978806,-1.736753460974342,0.6566873343775596,75.86937335356454,-9.49652254603225,22.077853635919674,38.597245161465764,-20.438327334556934,-9.550968079518919,6.816160595799988,-0.7815441885664295,1.4120886112222177,-1.854755083702635,-5.1385827519128515,-0.9065854562048773,4.476015883820072,-2.548750903535404,1.4225559239119028,2.593837519683018,-0.5549742941202822,0.02125299341531181,0.7433151301411869,-0.26018512447607794,0.24739205733386999,0.26875793198364345,-0.2160137874186873,0.009254116703943965
12.11019972761366,20.39567352090425,-16.079277663071863,12.44064411328032,0.0001998512175999667,1.629276557634143,37.91487717516935,51.0383146871064,-10.19515743018188,0.6473178884936385,0.3255730754775119,0.42580734466008574,-9.654951897199352,11.951368146227752,-1.09339001580059,0.861935511500648,-1.7842459001763777,0.8493773156327656,32.87011243434634,37.22051429289314,-6.014678060520405,42.30343746196339,21.75041327996295,-8.979113302806741,9.360271237763113,0.8288146705646843,-0.7562881256798589,-2.677061431174743,-3.860505705336138,-1.4911003626772907,3.5994768510578785,-2.7447744414415687,0.15442529718705733,1.5612528428594623,-0.2770251667825432,-0.31732552042843787,0.5719813371970358,-0.42171981023989236,-0.13305092203714242,0.053004084645911644,-0.17209244050732736,-0.23193485368643524
1.3296613129637387,14.850930598432758,-16.166126290228735,12.921458442220203,-2.0147554140557093,1.7603240018160582,61.508964399612964,21.262176167317637,-5.34879778732954,14.770809454592367,1.6602467726220524,4.066220393603588,-1.2478135030034303,4.116650694789103,-1.3907432095982692,0.9411725476262592,-1.893971777038411,0.5955076395449606,85.61122498399143,1.2622001025370562,4.080692784392083,20.205634879447043,13.56940685810022,-10.686952417841557,4.12052457899804,0.13164616920368172,-0.743093704022822,9.142436365254385,-5.42396458914154,1.9596388869899861,1.0751230653068806,-1.5386079905446812,-0.1735602455901139,4.695340179761122,-0.04370197076653399,0.29297055611657824,-0.11547336388516068,-0.05808151508864412,-0.009337885545834753,0.6644062498329237,0.04999940216182125,0.46103403347508415
-5.404464451761056,0.547670938889538,-1.5180170932819053,2.5053153069906253,-0.02896802747864556,1.1838173294349337,30.566786554719105,-17.242793777204632,-2.797363477908657,-5.498555259718728,3.194484088660964,1.8791342148833827,1.513857742748572,-1.624430927913613,-0.26248930330325937,-0.18659132372589077,-1.507566452183557,1.1378279510194158,16.09202218671656,-44.83796813282313,-1.0011067656748742,-6.986272066811602,-2.6157720342879762,7.907370604017549,9.497069566380906,8.396850336911601,5.171710188830263,8.21665355250002,-7.530912972674502,0.08293111770447607,4.898728473426218,-1.5405491915416258,3.7021448048812924,3.305370092026768,-1.047838555330519,-1.581309374057505,0.7320311734606786,-0.20837318817625655,0.5103428393121805,0.3641324768925805,-0.26888098420503986,-0.24312704821396308
-2.520325866153351,2.822444529757792,-2.0871701861077905,5.551593574593338,-6.5917594158575765,2.1293414148701584,52.11331697551775,-21.561552198132514,-1.7492761942916013,13.400333919558852,-17.398949898544764,-0.8564046263928445,2.02419271404161,0.29364144294006034,0.11231327464262933,0.44510895137029544,-1.6796995361016218,0.7030558192363273,72.83793344738187,-75.30330474387839,-1.3903032966731976,0.941806437254371,20.936496685816024,9.303806340233217,6.618943055335342,-4.437973994686058,-2.9936337210610353,11.210633505190357,-8.505114925119704,0.46089162742052975,1.4007085743061147,-1.6906201268178418,-0.24054846038387012,3.6302538275994483,-0.8526784486792834,-1.8735521863908444,0.011241021810068674,-0.0799492496165066,0.1976083125704902,0.423081494714426,-0.13030503508357225,-0.15017113502658075
-18.409777472894092,12.9695703693463,-10.075679496829963,-4.149732155564294,-8.99709058265924,1.2223064966525214,27.422728103311627,12.595257080109679,4.4892079105297,-25.088430216038734,-24.436355118155763,-10.553889946048562,0.22761611228947415,0.8991265755074448,-0.2502541178990688,-0.5217337410529743,-1.5491896706175823,0.686851523218657,-8.888073607197235,-42.97004004177712,-16.479054692118623,31.07784901925274,3.460217584726534,8.380899915180763,-2.639250268875636,13.167308841618715,6.791491736672879,7.4914129095250885,-8.1528200606296,-0.5360584283916722,1.261227792175067,-0.3257518089346208,0.2724778384344539,3.945680963316708,-0.5939319471993431,-1.0649061745539081,0.1835719305376143,-0.033827899163504344,-0.22883921658229397,0.4135296687889692,-0.2124958414518022,-0.15586552569137727
-9.63532259491714,4.066549968721402,-1.2549174181592981,-0.3598862653229305,-3.721200283470604,1.8729964432314226,31.244508869075503,-16.340640814382034,-9.399083563388402,19.53132550510749,-6.057765141287692,3.1346707636928337,1.3689155146907277,0.028437560639112763,-0.06962844983120227,-0.44268968374321827,-1.2054086017343462,1.2611211225127217,58.680717103625305,-47.926565055582074,-31.987394071836164,-10.676422926859345,4.22796039811263,1.3689018375976052,4.732052850980758,-4.011801847574193,-4.390625138578393,13.794376020336626,-4.048000259644114,3.6648534840617026,1.1919130629424284,-1.5281832940151856,-1.7051932061044532,3.4122091746114096,-0.27815990695137055,-0.8286792089518507,-0.012040084268974415,-0.07210307366120061,-0.12651522131443876,0.2698306769682578,-0.09634115112339112,-0.06333794743983312
-9.79845017796908,2.2049996861639016,-0.0644459583070558,-6.50801727791797,-9.613875109402546,1.7601484877973936,19.069387148791915,-5.384978962281485,11.790358252066182,-9.088621907642132,-19.41322097888173,-3.8394509407117123,0.6270046303662298,-0.7189897751212063,-0.39918212929487046,-0.23373257355504912,-1.6240421319199863,0.9968504883467462,2.4341819654999672,-31.805150961182026,-3.6331967168588983,42.742917714141946,-7.135785998468342,15.694848774480494,-4.8854668017264675,6.449222551978664,5.670130963090138,9.210962221597965,-6.811383346444961,-1.524258383816201,0.35948687704808263,-0.18409013775481095,-0.33402588672393413,4.366267437346215,-0.84081346735377,-1.7503422624079366,0.027113346631969272,0.037602832942150055,0.09121497319666984,0.49962645501847425,-0.2234244854538095,-0.19600207264367925
-4.113722546599497,5.5068880820509065,-1.7758247459778156,-3.9735259116629513,-3.4002724598208287,1.9901360864012225,14.291127595797052,-0.5766283098077392,-1.570508811935897,3.766505122676211,-15.521852733697516,-0.5068939002593483,1.6528355445563248,0.08269764611229678,0.2099290487517234,0.06083100331209,-1.112972765476165,1.7463858061981332,25.658426251986043,-31.562402399113303,-22.718374060467674,8.893964380074003,41.83191572947364,-9.509942659982556,5.420787324697006,0.5370714453833398,-3.342984199599291,9.672153735697938,-6.795447396674326,-0.3277027590985201,2.7168493835268714,-1.9849063202603154,-2.7803146808897257,4.214305848790376,0.34131400275013923,-0.2769399301208131,0.4921930269860975,-0.2708320398568401,-0.6376557050166253,0.41439585602467655,-0.038513862502043035,-0.35253214477993444
-20.738906277290656,2.8927653500844976,1.706029445491199,-3.597788335041608,-1.4899879511992105,1.590265964282697,29.24457620221363,-18.921891574252363,2.1747943231943463,-12.903737334847367,-2.0132335002222987,3.08566798250251,0.6895005216817118,-0.37025027621543305,-0.5777464571680943,1.233533330143149,-1.5928766920241368,1.8360844800990213,23.161915858979228,-40.43214324705369,-3.1099214043841705,14.962912143578423,7.038024373390999,-9.497990078444447,2.439634015282795,4.010753698224999,4.4846330192785135,-0.2804020770977064,-6.071571292573129,-7.406149127651946,-0.007104428087849623,-0.1969368263656425,3.5435050564492636,1.1317241039506252,-0.901707155353249,-2.6033343397788857,-0.5081293112233912,0.09783933606484299,0.7814892260388907,0.217195653902435,-0.14457244455779963,-0.5786824401514544
-5.564849331542998,3.2192951548653657,0.5196249020461399,12.55487671208151,0.4962101142192892,2.251859616175285,22.465640473677773,-8.201610073371665,7.123047234126356,18.49389683057601,9.669575016747025,3.946003525321806,2.120741258942284,-0.17637402325587542,0.18912977520256402,2.52847886297176,-2.266004069977531,2.066288759981171,35.71072417902955,9.750652019572124,-8.729934698356988,61.96923071218699,14.11666147881718,13.042521543493423,-5.639837699268332,5.7147921946753195,7.241172826117242,4.596827712901529,-5.732737943240309,-4.9870675988107855,1.7432633511100744,-0.9711040993930411,-3.286758640790792,4.1268610714555996,-0.5771611724201614,-0.6093789451731145,0.5033309594410056,-0.14536819107844554,-0.4972348522336417,0.7471888127682584,-0.23611309368721184,-0.11459383882265613
1.772968998297408,10.037102883361506,1.1320707829377927,29.90401591654005,12.339379313454993,0.710229724259674,-28.456324705328278,15.039770155615066,9.398473442403066,11.061250176260007,31.26461650452803,7.238507973511524,1.6513726494933842,0.28438361257579514,0.12045757741890352,6.031566821581745,-2.8065281010242447,2.680323466615962,-12.777664836918397,67.70559597192492,27.180544708467174,30.325354101413595,-55.543465309904015,18.901450096188587,-8.863872116135791,9.346268920943965,16.12388612628685,-8.222641386545236,-2.5011689380474964,-8.620090864719058,1.3342612797095526,-0.8916686982198405,-1.7552556103702897,-2.0858814871146847,-0.06786425673658944,-0.5043423532332478,0.06111580313913603,-0.019573435004603547,-0.24928816584837984,-0.3448720668908964,0.05261246373112364,0.13642261992341412
-9.014852818408094,-6.417210356162581,-1.1618281595789792,65.92596635114396,10.291309477577723,2.4744037732101996,-1.2460671032477584,17.670271056425896,-33.007553500567,31.162533037964515,-11.310836317909137,-4.68740466408486,1.5393191171036888,-0.42781293717691365,0.5645878705036808,10.84792718814234,-4.724309829324236,1.2491693745063515,12.166114060655357,-34.874951854741994,-59.560037369189324,32.0532162689905,63.06435255564508,-25.189047754000025,-0.6729991109242791,0.4031996016907865,3.520627370257514,-6.475678136490789,-7.153558793387736,-16.41564902864087,3.0806824967931,-2.1335243287975176,-2.981967042044944,1.0916429352301527,-0.9072802888673638,-3.324875945438346,0.5998854142289112,-0.4066698169660007,-0.1060953056423861,0.7584572960300675,-0.18207668086279463,-0.9263917833985565
-5.34172676774987,-2.2666575841397414,-2.858023548072817,109.12855737369787,22.298400068208096,3.036292568855124,-93.14816367704017,-5.557683097721532,19.43840009569205,91.29469725474866,4.867158131644076,3.917292588685152,-1.8647063251871938,0.5219231944054894,-0.8637697700557548,16.258704406065476,-4.621182484651128,1.1477491902679355,9.767697388598835,-17.15988498351961,71.38979875535914,77.81961429096457,-6.7858970837085515,-11.705533317581146,-7.131823994130228,1.7599623625387806,12.855039953945983,-28.523575106408984,0.5285864935534264,-26.96883332170105,0.7056136556888284,-0.3077161431986327,-0.9903075109438311,-7.619796830800724,1.2219169812011026,-3.560994104985318,-0.13992645482592594,0.11117789093227172,0.17584143831465818,-0.7582642505645815,0.4208622816831199,0.2019139490954059
30.66432670334905,5.265097489963079,12.809944373333277,156.8852078204401,34.25033762587128,0.8803096126059613,-141.8378695192891,40.18184420719952,13.618023302787677,141.87352710340863,17.625084135409605,-3.887747723424762,-0.1015170261666805,-0.9794088879801035,2.8733854461238226,25.144869980122845,-4.327650200635711,0.9814137219465182,-8.627512506072021,21.990816636538504,54.05131568410095,81.77449370680257,-16.838223962538848,-33.393734996640184,-14.589346980785104,6.587413975610186,26.07717839642792,-35.49647864020307,2.804722214650814,-35.68112051733627,-0.25006176033441574,-0.39873222063030545,-1.1455902179462547,-10.178540710941775,1.1613166684639307,-9.196563300571007,0.27923908620269994,-0.2351332050246964,-0.2986326518590897,-0.7760809315621019,0.614186125158985,-1.8459418419859879
-12.908030790604357,15.99910324276378,26.371716233129483,189.02016556226658,42.87568012778472,-2.3046535910325114,-170.84228009929015,-21.634069570670725,86.21872295614365,180.95796292923058,47.215290795823826,0.39543624443959857,-0.7062021998275466,0.6943153677045981,-0.8375750828410284,34.34657030769766,-2.4620627841993477,0.7458516955002206,9.763671459632425,20.93424738929383,157.0345835014861,65.54356422203699,4.542223120158951,-83.4480045485174,2.746691575883873,-4.05414862990282,-8.56143803400727,-29.26016465070622,6.373950739224614,-26.629124138292408,-0.050164471221310125,-0.4191261964309423,-3.181321415611521,-8.540513773159883,1.8343858972131837,-4.602207242017179,-0.1935056606292537,0.05330298397055643,0.13768963865127842,-0.6753298785462458,0.4172502260828411,-0.9079436078519922
-117.72364110278419,-9.1605590755636,-85.69750800120421,213.31567538784998,41.395487376079075,-2.1503345834812104,-34.23264231551039,66.5888978491503,-215.09719062473926,173.19079433061503,49.62090910547029,-0.060975680404764844,-3.4691059980935846,5.456966797777349,-7.20782993608252,44.820252798806735,2.394588142206237,0.7874638172789871,54.94339601184521,68.62617986516403,-312.2255983790088,31.448081001811435,-16.120301183923175,-53.411505178071444,5.563307076171987,0.4687640707920872,-12.963929444591658,-16.832173307928166,5.4161628596257145,-16.161026351567536,-1.2939721886573046,0.1909044998571875,2.467839651113814,-3.8447525753987115,0.929735413652574,-1.8448106806017943,-0.3988064063789282,-0.014876845962440665,0.36246312554551285,-0.14832571112937526,0.020887247875070947,-0.6826059941564742
8.485893167515952,2.2525957675802957,40.808511990745075,228.94269138695316,45.367838836205394,-4.330217284247201,156.29874138711318,-19.21623228369063,47.18954401259406,203.53580399571007,62.75554660302735,-1.7857652950135654,-3.9870297710270846,-3.938321916704988,6.319058681331791,52.21907458196469,4.241300397282901,-0.08185586039756834,294.7727044743884,-38.23787985554106,0.7892797558292367,118.28774046386955,29.56752282157766,-74.43832538349506,11.408037049080857,-12.583677806617983,-27.630477488310262,-14.212247420807241,-4.756902089585352,-18.906009923954443,-2.3722595722081294,-0.9812480445690538,-7.792012868766636,-2.558350806994386,-0.4119090951233083,-4.78060888768031,-0.2242320298051592,0.016418959926542315,-1.3168555981714236,0.09176121979989171,-0.1485141978092477,-1.3857412107171216
23.102121355648983,-5.445774162765114,-28.729352971680736,226.22241220401116,55.58949828450376,-8.644229146159732,97.82406352435237,-13.77175107999658,-38.11994595952754,193.33837654700284,70.7204501996917,-9.245664502090506,6.402907147987571,0.40408971517587616,-4.9108661330824255,58.30815334648537,6.3336048622079275,-0.2005184171653054,204.72398213295708,-1.4455624088734238,-72.31079190336663,7.316050942704619,25.31408704081329,-71.78395064221453,20.776643567429257,-1.1144544850763205,-43.953764203036236,0.8366896538410459,0.14918441346926242,2.653094663225101,3.5141546942263346,-1.0484322012296086,-7.20368774821192,2.656487915389782,1.5259772552533937,4.7074046787455535,0.37283874875020145,-0.15377144622209643,-1.1865040055125375,0.48892966467983584,-0.514245022468492,0.6656998667224474
19.822765174656585,-3.904022864437652,-27.597829240806625,214.17956474155463,51.35098111991778,-5.323391201804442,71.86404214056138,16.263360028216095,-94.01544446209527,154.0396619706413,43.96295069224931,-5.364442034041498,2.526198893020401,0.5015544199563212,-1.5165615730297772,57.28516936119904,8.61440185847088,-0.40803530092709805,140.209842797205,11.15631966074712,-128.91429241167992,32.67835030720811,-7.249672662950656,-6.860754792169542,9.830974286625986,7.648571274009506,-22.724381440126777,26.29966581829157,-5.798207086742665,26.894405162632747,4.5115476667891885,-0.7291125852732568,-4.910021209685866,11.342597145756175,-2.718769557698657,10.259987533761766,0.2789099420381523,-0.22428142290928382,-0.8467735844011477,0.8423859079427304,-0.865908347927655,1.9191853789650555
-12.613966726733768,2.6304881862254073,14.59193779847656,190.2550722301863,46.532946782357435,-2.0598576705554223,50.338803804653466,-3.1750116804627893,10.50063496111749,129.2052805718036,28.058233515644325,-0.6671521012134295,0.18775620372988006,-0.038460526255088334,1.0148992076985681,50.786220377244184,9.617395173120904,-0.43286320368851716,142.08158819402396,-45.12887933809387,-7.9847954883013035,-87.35969794779243,-44.36197205188103,12.07653964768251,7.324978400850501,9.629527558631425,-12.910267139141313,25.347943408885005,-9.84534041841649,25.48576422681043,7.899383407975664,-0.220318919178687,-8.435874459097061,10.611624665242486,-3.5736620108025776,8.36199160353328,0.7750919888295389,0.12548302144381124,-1.2455425911240812,0.8363221495852808,-1.0332404963938278,1.3002220366167665
-67.64302872772348,11.78547087416667,19.552478332932303,168.1632576532323,44.44817112943119,0.4269203053648704,-77.49400985637185,2.5721834692112213,55.935662550966924,179.69882288874095,9.209500350743262,1.0212868726651807,-7.654205005292394,1.048432258076447,1.9509258574076405,42.556510594183656,7.21607303180008,-0.021371469078765377,76.22740742032555,-62.585970530826266,46.831860949449215,-11.384911571090377,-7.241271632492767,20.19154444789328,14.492663206954482,11.962408714667774,-15.293084051797031,21.713322891584298,-9.095981424603096,24.78483116513117,9.50879154391137,0.1279687439590349,-3.2243045355612554,10.49451890916633,-2.225453397019877,10.192132376635282,1.22699838213991,0.0045665559173890015,-0.3837699997853346,0.7582272462348794,-0.5572932644133134,1.967586106593564
-26.096034165091496,4.305159070190599,-13.821018338176536,136.39766357817112,50.718768135673706,-3.9911828018592064,-20.98320982676627,6.014649850745124,-49.216736166342464,155.9536257628055,44.98191364254739,-4.952042953859235,-1.80072445035734,0.1531733659096333,-0.85552995342826,30.422083039755922,3.346839887921643,0.2385006173916569,108.38896420024429,-10.17121122898447,-85.52990336686335,-42.31098255578665,-46.23291977334498,55.467704322695134,-3.564636478507587,11.614732071371533,11.486613611760506,16.298756689268405,-18.351670836589417,22.450706883234123,4.060793705280054,0.1889114606037247,-0.046677683469079495,8.456189271670786,-4.859789798176879,8.911488506748807,0.7449759831032429,0.023028283758495333,0.06291341976766546,0.47210782704064636,-0.21116998998280423,1.7774461029040887
-28.26981203207785,12.950670431134602,28.07142512304959,108.96888429507392,40.36211296489466,-2.327356197754239,-3.5863853716002616,5.120607926720347,58.88013374116815,121.06443087788833,26.875428854208245,-3.7184543319220147,-2.7439886557461026,0.6504653954125196,2.4599223281878717,20.212916339261014,1.5240697602440587,0.5822463587690961,95.57779878075478,-17.533787177697842,27.952418891700546,-38.69556769892474,-17.741740474685553,36.13141733063299,-2.016551908622106,12.775110727953756,11.057434866383927,9.224013506012406,-17.749122246972323,16.612880355196015,2.6112281012979914,0.6093229915060131,2.651943166397505,5.4905574717935375,-5.577309437817801,6.108891641787787,0.4642818638644759,-0.030894391224788428,0.34803045458579845,0.2762609666894667,-0.8931984219003857,1.2479821681990384
-8.171432460515035,-0.793489475878143,-7.7179441946357,82.53567396147545,25.752486064316464,0.40143585735346193,34.89464514553211,-8.09928692835918,-23.92022899658884,43.77292021126846,11.427116499148573,0.13315462775047845,1.7869245315120617,0.392162635236908,-1.0698929262924066,8.670835682922593,1.6625084974863762,0.9108418908159306,59.7161454982468,-54.79551478853066,-36.71012656983613,4.350862247171354,1.4140819904113853,19.862769549351402,1.3560706700830891,6.537939156753585,4.1838420794049,3.4000646620034467,-18.324658074681395,11.091228293191149,3.194121331075804,-0.1156593086715483,-0.3822372415318148,4.23397650391254,-6.107193591619528,5.313193477153787,0.19552317401033154,0.035104018228944836,-0.0696125554674494,0.27821527855384204,-0.693108548633472,1.4004231816250357
2.2360923018517225,-8.710183341141041,-10.751331473991687,65.56427387440094,17.40075244397901,2.3370788686472026,28.806439628345714,-11.1618193146107,-30.584386714417832,41.12269573303199,4.367962328118828,1.9065646158926757,1.8672541581692703,-0.5670841338667795,-1.6801208534972825,-1.3183336197433124,0.9605049886400666,1.7202149399755973,65.15795003727432,-54.24590332839401,-32.0381073142973,-12.70189612971773,-21.97214144264657,44.080221880729944,-6.876560689243175,1.0477324238681833,7.503822636133626,0.2756311809364379,-19.67087690869211,6.709068175388797,-1.095943973612179,0.038654895130347394,-0.38561668026641627,1.1456977781705533,-6.542377782737158,1.1503569026887819,-0.046316275594187925,0.08501908262878465,0.35684916192870475,-0.13473255151182356,-0.9912020979052676,0.04969294743775387
-11.937833629946637,-0.7331985696977396,-0.01077019196899763,53.85826331206332,18.41292276975209,0.9441268102828129,5.872564606354097,-6.7104937264367415,9.677678750856371,41.94595183786673,36.90050382774877,2.3633175432904383,0.3057001685557251,-0.8165595989328667,0.4359236940887224,-11.346533645986565,0.18687907967347855,2.155739292081634,30.985728057612214,3.4892809708139287,11.472610278236102,-23.221352165349153,8.30860556251184,7.611063434674489,-5.4110026501521435,2.4206561713700308,5.8797131802718265,-4.926928499868198,-20.92594775082948,1.5687987422302585,-1.716671909340496,0.009760911441836342,0.7178168957020294,1.1271189806026356,-6.4919630552604835,0.06831695694691678,-0.2599975311325085,-0.10771536158162957,0.011829056350956144,0.01391424181634938,-0.7396062802570058,-0.16871384458177502
5.71715265361026,1.1290906265339002,1.1113453353929703,45.613538576228535,10.057541396251567,2.693690348356644,67.65255997341164,-23.394778614626638,-21.687697369899006,33.25284490297574,25.492082233567196,3.9849379739040485,2.7396108706555213,-0.2632142352841445,0.5451816512855023,-19.74081473364511,1.210591235436629,1.6691967996675992,101.18373144808348,-47.291974100516335,-15.364305006384425,-23.040889493889512,20.62609096598963,16.72514951502368,-3.9791447772848247,0.6017880261186501,0.5375632740240718,-1.8447179902244275,-17.890747832656672,4.15025479923855,-2.126199289624587,-0.030470238462848596,-1.3797690282284152,-0.21326814941338965,-5.142997074075427,-0.22772746900866442,-0.5053369315737887,0.08934082170591826,-0.12380548771333351,-0.14353287591642028,-0.836407705211997,0.21962088188293924
-1.1677538704978991,-2.8364885065277416,-0.9484656774927102,33.10858489914862,3.681609911639428,4.427388180822553,24.98052834231924,-15.446505403494548,-12.670702966993101,3.349917734426575,8.72197623554045,5.480723489334688,2.160481844637362,-0.775296172672495,-0.8460268759154498,-28.769078048809064,3.560876113019297,1.2759113198690477,14.923828981420787,-40.40146803661925,-14.133285236761838,51.41739494145353,14.871527635650684,7.543365972164027,-5.590983664500247,2.8196274795693186,3.4822686953070145,-4.881748601909125,-17.233621667858337,-2.488555072117724,-0.38145270295885814,-1.0388846733262858,-2.453964429600286,-0.35617161995028856,-5.6551144972606915,-2.554303161004977,-0.06340794158713545,-0.06884050685297616,-0.2861148950792635,-0.05415876281627078,-0.732205507078921,-0.646558505102675
-3.8939154799723035,-9.276080429231039,1.7481895166977415,45.92712998714524,8.995445691401203,4.988939220233029,44.669950320693474,-35.723320615801995,-40.97879476478506,55.57678166073204,23.435331293171128,7.783280203158247,2.443283377584113,-1.4091492254999376,-0.15791483337782114,-39.66364860783353,7.595619889661591,1.500204646156021,100.68056312355851,-63.499175113793946,-47.66430551835761,4.732805425732708,-11.93623707892467,8.077214679931782,-2.0783184518254547,4.981797239594913,3.3109051151166433,-5.362396417390553,-14.960909478598857,-2.630772510458303,-0.7578402378172567,1.0077017423044226,0.8077820276896958,-0.13880665162670544,-4.67050734713908,-0.9849445912156373,-0.03165766258665276,0.009718938755816243,-0.3660308906887938,-0.07891711252013703,-0.6423579912383843,-0.007173418645334119
-1.5968795795900403,7.891538298636188,-3.223106966770043,42.87206703738819,6.788951835792094,8.699278999815503,42.582690750355354,-2.6719691173843287,20.597354645272624,46.65597785224976,-10.665473222243095,4.929216406514362,1.3988488468396842,-0.48620902159964785,-0.3303159521758394,-49.24717273688668,13.067121765736315,2.734543985915386,96.45256363564764,-65.17180792950481,18.77850500033003,25.189318054158463,12.504853345202328,-19.923076070704393,-0.942910872695748,-1.5765335273091785,-0.06440245543778804,-8.184694530521707,-11.698487890690158,-9.828575705111554,0.025983517128221306,-0.7301935537646782,-0.6475752732136735,-1.0216415131723173,-3.571587802931684,-3.5901388344222753,-0.2491562372339492,0.2098208980763481,0.5625231458383493,0.006613649935525858,-0.3980572706125602,-0.6753831208048872
9.899131023679153,8.215362347341529,-6.951728899609998,44.862632414310546,22.611747509260606,11.300817663020615,46.30357799722157,-7.518637318562201,8.076322196249908,82.88166380821833,16.576326268413695,12.783465310831662,3.3340614452712662,0.16819205225472492,0.363504931651027,-61.623440504005515,20.326779193417725,6.568891375603288,144.28976108140566,-50.59918402501145,5.323332296359896,30.182849737610333,10.510183131774252,33.83130302150522,-3.8257186957098295,9.645598525393982,8.484373291966119,-1.8444407670659493,-17.45820005546422,0.9816574465652871,2.921163195258754,-0.0017399708789496982,0.5347237403104901,0.9549195389815154,-5.705253024520129,-0.021056767681423828,0.831098164295974,-0.08087028753926583,-0.03325249351749726,0.0051221754157147505,-0.93963273968648,-0.013616828545736067
8.31101226460199,7.044692909277004,-8.488063881599075,41.80965677138045,33.35296421035968,15.034362731883913,33.882533461899754,9.746814556293156,10.895362448296622,43.33184713780229,31.128425311808595,14.29639259765175,2.595061044192392,0.10879441061212813,0.1830018796984143,-73.61247231392402,28.685538178686873,11.187306029675455,71.10098413964228,-15.895760272550618,9.044737421651663,39.85396537761131,26.889712798263012,-1.8468599447106397,-10.507260361568989,4.52463668635707,7.54755059136484,-6.548444750950275,-12.57391658441805,-9.162817448303233,-2.282006880801958,0.514282078104509,0.8176162626092616,-0.08270093644251142,-3.901209531228792,-2.583872252636952,-0.3167874216409047,0.06203260455743578,0.31390818485569455,0.09422862710828983,-0.5876336028447929,-0.3711182822692795
7.853175236655671,4.97721389263569,-9.077564412180298,26.457081529086718,50.28405948266939,15.711666193366472,47.426469943561315,-4.636635582284134,10.322982033847742,-19.41342730718854,50.87602521306319,14.294971284972018,1.9941567787631267,-0.1683361384213755,0.008908941417297703,-86.67377926435441,35.72665490618448,14.247534698004692,9.197774069770048,-45.83887697777306,14.937239573667558,34.07262106000915,7.209139361609092,-5.37792925307658,7.462756509396363,3.6406147574360994,-2.3350886574319896,-1.6691095149115884,-9.657752305233936,-1.9388239700175491,3.249541455598608,-0.730945069624083,-0.3221509921888365,0.3280151773888827,-2.7014628397772142,-0.9898160866386535,0.5156941711665627,-0.10677717743140375,-0.1730168356857816,0.07024640504794864,-0.33508012987156943,-0.34284707886220955
13.417554446698407,1.3671406073296184,-8.5070236135121,18.590347526344125,57.69253891832967,16.3240621595344,50.12869651027702,-7.487199027401058,4.246050542885825,-56.64552743774272,62.53526571341132,14.542443963980846,3.1493639499727757,-0.623396147534997,0.25683425944554783,-94.98498984247324,40.28595607821383,16.246159662243542,-34.00643688958641,-45.39398800775115,10.602672189487294,32.928471938998634,55.97078805876809,-2.720917736542945,1.8411767239132912,7.629079279367394,1.9427536032089092,-2.4029180207901217,-7.144987637365842,-4.5435536735810755,2.206603660012753,0.3429564945914466,0.6393144470741537,-0.00940290462346834,-1.8659592040460933,-1.888755625524915,0.20840151329712225,0.03636092281100957,0.03223759249135292,0.08639416727584041,-0.2728105209031596,-0.25389873179115935
15.582242911509338,4.527263553878373,-13.32309686951294,2.7412324503744547,70.17202007288863,13.506447405675027,75.42163837103536,11.907425499603614,17.49303389007921,-105.51731629322519,104.46133529471622,16.53535012091807,2.941725308507272,0.4827546002024953,0.3540352019504494,-97.36838397798901,40.270386829713786,17.516767267686163,-54.82227107204922,34.211386366814345,50.88589865462109,24.928887054750277,52.35663427916192,-3.7627406088608017,-1.2644619476219603,3.8761807066273377,1.7954059645117018,-1.2109804592934559,-5.605650275940738,-1.3098261252877081,1.4757315169762872,-0.9683170784611641,-0.2344370716928923,0.16848597367886942,-1.6545491662410492,0.926404643261452,0.139998212620361,0.01993792399956371,0.09816328205469231,-0.10870494523933204,-0.291903539201188,0.23383490661243683
16.20203856249364,1.4872628922800266,-8.224215495414501,4.527777402674942,67.45791114294178,12.84032376941998,73.75654079631812,-13.83097754944149,14.867448670452012,-88.54954855673853,117.92773275871095,22.972156794040195,3.316334440187959,0.09811603281119274,0.9652292879847973,-89.64429368977964,38.11829265934542,17.528013329029523,-53.621877761305626,17.25153593482649,51.86599971052697,64.07346819530429,64.01368125771134,-5.320966493826138,10.19087555352338,0.5889631638699993,-2.0839153303393685,-2.0261037533626927,2.468965175128814,-9.183672081842817,6.815754500996709,-2.158229652407821,-0.7447303088251283,-0.1466593630491269,1.3225667750498142,-2.081527825636574,1.138681415898178,-0.18550371165383434,-0.14300520956805052,0.15729883345028384,-0.02014717572658961,-0.3145098133972429
7.661812778590799,5.619918055436449,-8.86117437231157,1.0009735761004546,62.7763906917355,11.097431474905218,59.710276485885714,-4.096730358876665,5.769550837622954,-107.13334092627959,107.3877147470136,18.30013812385017,2.3375246053642105,-0.30885734564477285,0.5466630769475891,-77.17981137881328,36.11064393703204,16.204345016259467,-82.35656196797079,27.53769734917761,42.24465129501684,43.264410846516505,57.542586028389564,-16.57335078380032,4.220783238959613,-0.3495308086908331,-1.7196110542072378,0.09725792193493914,5.488660573416407,1.7515412499174623,1.6367725681516139,-2.104749291632702,-0.5011906171673481,-0.36299051700042734,2.9233092244231456,1.9884519508360068,0.09428483741035168,-0.3264813049339192,-0.05234223453812473,-0.19740845051348693,0.5820854057359482,0.461770261941492
0.5443945844159905,-2.967719010591994,0.20081513177291038,0.6486873887765716,47.89534886558269,10.492652458559252,53.989151356294485,-38.35985579075473,17.279709874123924,-100.86025373458301,68.97725883046475,11.92569030205834,1.0793401773231097,-2.3452563217004485,-0.3161847817567051,-64.08333279917204,33.507239968278896,13.480027811833763,-78.5334107008708,-50.60222536025637,52.93412471827881,50.18526272120675,88.14428815364941,-26.747121207573326,12.34058676901242,-4.432331716722743,-3.101571482125552,-1.420049319165173,0.552227980961865,-6.74375415929924,7.616564185875035,-4.013403801451536,-1.3012585414912607,0.05438025307788911,0.5587349611951251,-1.4079181632943052,1.4274787869117016,-0.671612476091086,-0.33077174241814195,0.15352802008713812,-0.1770156542375545,-0.2885012853858516
-12.429660948405571,2.9461113592568884,0.16011035527028533,-0.2368098260776978,39.4235726481687,8.351672728200624,5.403667784850348,-11.18740742733085,6.8679810396562635,-66.15011194110224,63.25182177547938,13.736143699872713,-1.088672608601482,-1.114895747768163,-0.87491217518543,-55.38266880138742,31.047667722501824,10.322923142346886,-89.2816682231335,-1.4917187082407026,30.647674986352406,56.00347405586573,44.50828577868803,-1.3802197800648899,3.913186490205711,0.2660100825813287,-1.287855522674037,0.09289225275447242,3.872395866732097,-2.7690135120333164,2.9578046075482907,-1.8145000799560773,-0.6292296060264726,-0.2136180379375956,2.317214030613066,-0.41037809705897427,0.17973230349528924,-0.04279654306377671,-0.06059676486980737,0.008964302600259239,0.4083748707737317,0.032077447771806766
0.35346066263511794,6.914512225784827,-3.0820210263681314,-6.23762189339747,28.51310809218369,6.748627343829402,45.433340116298574,-5.422766697076225,6.039946031640115,-71.66358049194237,46.32290488947074,10.266345145638587,0.3056898175867163,0.6962205914495493,0.538966886659473,-47.5450849400633,28.531257078630578,7.47569057973432,-45.53088623605264,-6.8623894532462675,33.23449295026144,51.96815024183928,68.86501620889756,-19.9544606312234,7.445025685151998,-1.481759691304435,-2.4690458193458737,-0.7290994707179257,1.0898755375314206,-3.365126937088588,2.5111928522626763,-1.5729721692785787,-0.25938297797469617,-0.133886921328197,1.5993656214697298,-0.7056518271168167,0.3430095801425949,-0.21202276387559263,-0.05349155385168031,-0.031489853996851,0.21847244922302783,0.07086327107776763
-2.4143659570399887,5.1032571637757105,-0.5182203565122316,-14.228392707026442,18.945587026533016,5.074036846493816,-5.665267405092183,-15.191782212129457,8.668772493308655,-108.05575415618225,38.41679457488671,3.8604212609195807,0.8766718896727133,-0.07200234997420102,0.7390488363408545,-42.30687970566579,27.27394565986381,4.980505018213408,-155.75314749062295,-25.791279571640935,22.31841377213608,69.65561304269565,56.092148308327396,-1.9306205622099415,2.2200606411003796,-0.17857391960230717,0.28800829668743577,0.4197637988475235,2.8522609904307554,0.21735467646477563,2.6957777160744976,-1.4384090624447663,0.0032809606435232415,-0.17540510231397968,1.6807733978876298,0.7164150606102944,0.1689158839485011,-0.006649017141110925,0.06888888778364367,0.04631880550265135,0.3600014201894226,0.04009248031193334
1.995493098645137,0.3471284963964616,1.0596898826705266,-12.221520587389325,16.397377693202348,3.817846684575043,15.184128735695417,-17.3948327210394,2.8854146388759143,-81.72240503812053,25.38016804634077,3.9145325376280597,-1.7947589442878176,3.8044508814277127,0.7678488786919564,-37.42395620129986,27.242636739156026,3.150415472828273,-90.23046462583396,-42.20317892401078,13.270000215350752,66.50558186833445,54.00287679831719,-6.403268309670602,-0.6919510176611618,0.758648652577694,0.3608481229443653,-1.8834581772278645,-4.72846729382929,-1.5172590578112417,2.4487319149402453,-2.14958135812286,-0.6343429417777321,0.23336519519383714,-0.5306260517603046,-1.174269120091795,0.6067410758540592,-0.4534427518905901,-0.23820161937440834,0.034774553377082136,0.030698330285839917,-0.08044492505367776
-2.650516528483888,5.607700622319247,2.228987640484955,-14.699928783567017,19.272491028125117,1.831601765841346,-9.692300814234777,-13.257836566523942,5.6021054434698625,-113.54669917614638,49.335197771230035,6.734724936888118,-5.422684307024639,11.168884205890974,0.6264129230594303,-33.65440402079009,27.59858289081544,1.6052503333226587,-159.89248621338874,-3.238820878802478,20.20193152012543,69.17793905506053,32.01939934248483,-12.47332446100631,7.106967899454186,-0.8425701489873546,-1.4588922660129338,-3.565449105956541,-6.7435887264692935,-8.266043745358614,3.227673455766883,-1.5316395662288123,-0.02219332753331851,0.8985867651640848,-0.700188396317046,-2.9137624983731967,0.2741028950077093,0.02244646396649142,0.031139966219642486,0.3899668710301362,0.12384196799826223,-0.44277606585697254
0.5669469500961845,12.531669572486045,-0.10806307771466873,-14.542371363259754,24.720225141128775,0.2546760787747245,0.2420315994040608,5.142057996018405,2.6542718531471996,-124.56750544266214,63.477964367554264,7.540908838316878,-10.116548664440247,19.533918206366195,-0.7951013898510775,-28.70591663233769,28.407990150903103,0.4609598343123038,-160.91613413873586,28.801443307720895,17.684513923916946,46.65193549073909,47.31859347944931,-0.37928336297704923,3.0362428890264104,-1.8616573778920926,-0.932644444932216,-2.5594407852421917,-5.245992772081571,-1.6624035623314517,2.422203745445087,-2.4860566658308545,-0.47205506386641805,0.23179054743857283,-1.0335572789853162,-0.8304349014261494,0.3654165011249094,-0.4186921589803936,-0.16028469235015647,0.001936567336836113,-0.1272799339947695,-0.04916561671096359
2.650599500378131,11.574062314938661,-0.4346615001958002,-12.904799024349973,23.972692712832895,-0.8912707615477863,3.2281124756487727,11.96852082530257,0.38890601636873345,-139.50523003972066,47.70033637742351,0.18127831101384242,-15.953770096897184,28.238894344922606,-2.948909744198026,-23.336070761106946,29.44776701597809,-1.0429846329169612,-180.91623915907647,15.518808076434953,3.9809779534711978,42.970659540454115,2.3644478673042633,17.468962599815807,-9.093392496660798,6.734992995672376,1.2634522582659145,-4.5437318560025375,-9.41268478997721,-0.11938139938760398,-0.8399956553251173,0.5122350915379877,-0.06393748223862229,0.4717533279154495,-2.4406958215230996,1.112864488154769,-0.028376408295464388,0.1001246954379925,0.03848644472745312,-0.1755171427378231,-0.10671844273250222,0.24705325485510565
2.3068031403306053,10.42148110180429,-1.9979150622231965,-14.883612606764595,26.62995962217273,-1.9292265984271593,17.522897842800088,12.195368045263754,-0.4611969976506489,-169.9076763579686,58.38962341811806,-1.2570107217131472,-22.292212663718324,36.31816859485127,-6.355786739837569,-19.581697667478828,31.58478300961135,-1.889240474771576,-193.3000192310015,49.220862507723496,8.40930872635532,47.16360966905959,13.466517427588151,5.556520841707617,10.851515792567932,-1.8999611437756307,-0.9408255848415111,-3.052818571733375,-10.421914636016135,5.171527019741403,4.003631158575522,-1.611087539353282,0.5326911158117262,0.7744415427170772,-2.935351580353778,0.4223198177097807,0.460427437978368,-0.09099810757708426,0.0443631591913214,0.10366742299653334,-0.3194092706484975,-0.2728263441364967
-4.600104268756653,9.22841550480761,-2.8063127833854207,-14.051877301381626,21.814509574364912,-2.961567725072022,6.662574359585921,18.017530070843005,-4.334812713259299,-166.83004994493757,45.04491235494455,-4.990516459936368,-25.84676962949862,41.582010997718704,-9.139317192204263,-18.163906800374217,32.659262702164625,-3.3891840962874586,-188.78070001444442,34.34057894253223,-12.651133899127554,37.382278074465404,12.99660495451947,-17.284602571152018,3.104327206592542,0.9766243663981518,0.6118564164462356,-6.484453968814669,-12.1229395270212,-3.86587833264617,2.594958561087994,-1.1138000652676578,0.651833337871455,0.9700477840158378,-4.038371814049226,-1.2128053339947071,0.5328494720551363,-0.1056139571499689,0.17411530947422985,-0.06272149964570777,-0.49159927519391783,0.152175619913093
-11.06064340252372,5.623553630792211,-1.5748645171253393,-20.362994082553634,19.52558083204131,-3.507786869454903,-23.306407749904444,-3.7143830437979517,-0.0476108360856875,-173.60736520136675,48.78407004774438,-1.6778914839938233,-26.14645739937205,43.392097413745915,-10.197991144018935,-18.70781941921561,32.77695466497335,-4.262242660092529,-240.87296465373018,16.410251106001947,-0.26621594617379574,64.9120511259504,13.03246653661039,13.214108216033157,0.5784456041665366,6.1018404097323335,-0.12422625654191194,-4.9343137209186745,-10.403240677590166,1.9677845261642108,2.059917823124724,-0.7371180790588905,0.1399907193805041,0.6834521937312162,-3.0801501195720045,-0.05530689607093209,0.17718427867478892,-0.08015277119603625,-0.1219544806023595,0.026247962775862638,-0.3307072050622059,-0.1310813002428203
-8.283703280873034,4.545761716629895,-2.504806427895635,-19.621035063689824,15.060258631906162,-4.543894279500995,-18.02655198600082,-8.403724400041426,-1.768664040624333,-168.87320738933997,33.67726973942127,-6.041016630365031,-25.67812978720316,43.07458195999644,-10.284995155144017,-20.46465139158771,32.3722212780811,-5.0847788435381975,-209.35504041600942,3.5430180198698045,-9.667167880398736,11.151116197888124,-10.302034146774323,9.448470566790172,-2.1038572266486244,7.490440468244137,1.471947987334922,-5.691657600440887,-8.233933941086079,-1.708669110113109,0.2633888369826556,1.2176660666088455,1.2764884596164607,0.9705599234229164,-3.0774313086241643,0.646472481980753,0.0022862376205871372,0.20304476350564896,0.31706101462774605,0.10354447431159511,-0.45994658976844327,-0.2378942859856429
-5.201624125593121,5.105236071048805,-3.200749445266027,-28.957594463914106,13.317633184439837,-5.330158818640422,-16.17779904515664,16.90644511433782,-4.610442447187995,-169.61374292841234,30.51788714424387,-7.9276995249604,-25.994312377708198,41.13320597283597,-9.552645057230961,-22.5998906849165,30.519203482440997,-5.526423426039144,-202.97630273176125,42.862917088396834,-17.565171907927148,28.095485170586905,-13.942417938342818,8.185193694647328,1.744753382017501,1.1950129438078736,0.02871504392899756,-4.579571331326264,-8.278703780595274,1.521933522676824,1.29586289904961,-1.3708491934160176,-0.0025623637553662893,0.6142268816721217,-2.5353592375610834,0.20200015844317418,0.24453506862204843,-0.12690362903664815,0.03386459419003132,-0.03062301079068776,-0.18878814562694532,0.09515923335599179
-5.378543225756732,2.782861171157995,-2.5121025271295214,-30.358515666716364,15.684993344271263,-4.995131879204228,-16.22394730316857,21.694543419993295,-4.693786091608635,-142.1202042981245,35.86237777484968,-2.97334705840878,-26.181045580602436,40.333011959961716,-8.921938962319345,-24.268201742745756,28.061132555648122,-4.976483633607835,-167.59279517133808,62.33146304110472,-20.641456828093965,16.157762843158256,-17.36029711678245,14.778054630940636,3.2195794541139655,1.348480510991512,0.2381640309661345,-4.687584474678864,-10.038153153948159,2.8158596555509834,2.074767057843273,-1.3063696389889066,0.2830389417647811,0.882962173052815,-3.8193683296018164,0.488784143652175,0.27976956430489763,-0.19699110088468752,-0.08104169432883589,-0.04489364298289235,-0.45430854908720264,0.07704020152038402
-9.54225772922021,-1.323434513057365,-0.7756213153840286,-32.483208385102,16.575203543862795,-4.424326935583442,-30.677759107931372,4.9425251032267585,-1.7096786902327374,-124.59374934621815,29.18749371865122,-5.361769575523851,-26.807483361633157,40.97087286807714,-8.840685577766322,-25.817249794225642,26.059304168436636,-4.184388911922639,-168.40916336278562,30.718334136933795,-14.08371227830843,21.776548068315307,-3.548063404729858,12.601748307239445,5.609301970766405,3.8073623356891986,1.1158631798491179,-1.5747493231865193,-5.700749539201299,3.855229642428781,2.0741817296746468,-0.31177575099800686,1.157877550664246,1.1258562296105667,-2.375500294600438,1.9702151467378848,0.16247191749710876,0.12990054140954244,0.18608100088643076,-0.023163348797622035,-0.4603824610485358,0.031169102260096726
-8.449199373302639,-0.93218873625041,-1.2000872699137086,-30.97641795291171,19.7555462793428,-3.683905924445518,-23.282578007318676,2.3758763169142383,-3.7710973682018287,-108.16118002208675,47.06505985366999,4.409663002210592,-27.48227131212512,42.57504789198921,-8.578780188674012,-26.972318758097835,23.551052696846504,-3.7259884066329487,-134.77562379464663,58.186117901696505,-6.489329089758703,14.269400463565203,-16.248077645909024,5.886949229469648,-1.4620985732773526,0.6385661686644546,0.26043932282936433,-5.546729680228565,-7.1692422276916625,1.8655224633846024,1.6119193414706277,-2.1910891693037717,-0.21888805013148627,0.9270227843960622,-2.6601205424442815,1.9876347571253246,0.35443624519937283,-0.3652407330992371,-0.060253330700149474,-0.12915776515646912,-0.2343568072225298,0.4919399863565577
-12.468127031724853,-2.583522034184941,0.661710051807237,-31.10265367545696,16.936831508514697,-3.914051572911576,-33.97178868737643,-12.989586231872554,3.9452085103818106,-99.94358226480091,33.94724063535908,-1.9952023670786048,-28.288581150575183,45.384497253984065,-8.652146605111321,-26.810842347550057,21.18601449652565,-3.556529954243038,-134.78063546948303,25.621490158919396,-3.629722894593955,32.606183142560056,-7.676437183193612,2.7911008247362084,8.331293939109006,2.067948558540503,1.7025616029352064,-4.354012158900991,-7.212802197496789,1.252920397789502,2.746873605557391,-0.6472441015378408,2.060279270923141,0.916967060494511,-3.230135220020308,0.5694464597808768,0.4378096951199014,-0.009317917540312588,0.4570696367550955,-0.001549577253346523,-0.39964366203293616,0.1084190886059773
-11.721663602336767,1.198700064682909,-0.679955440499498,-30.044635746935743,11.963664185607708,-4.411134621282607,-26.910195755852612,7.563086612127375,-2.6891933814138285,-92.38546410595839,23.403087994961513,-4.003185716143443,-30.069515904833064,48.71902119381878,-8.489481040849178,-25.730202779377656,19.216050307274195,-3.7092986912424943,-112.72717505173001,46.19890500678886,-15.44162154297933,18.068460570169993,-33.47210548177279,21.1846421667996,6.320726041648413,2.5138446374134946,1.8187288049504966,-3.002535640495669,-5.893109937096959,2.2395309238973033,3.8076445359156974,-2.1040074650704006,1.3036382826209048,0.48261021256758185,-2.4584625157944036,0.5666321575577595,0.5905763067994453,-0.31510355976404714,0.07935483272594852,-0.11841913540927082,-0.33533834307850957,-0.13918634929311569
-13.43227063861347,2.4320486688201193,-0.3089344551483443,-28.347498096076453,10.775432140175214,-3.9873898075631975,-25.153474400219558,-0.20711298056090027,-1.4995705614734989,-73.75760453099001,12.083731167187791,-4.949825533141776,-32.96781478672605,52.75362745448906,-8.357789065159471,-24.377175311601817,16.883356675900536,-3.508840612539845,-82.13121566923061,29.688498609130114,-15.949296992013728,11.564042591369997,-10.166580046974538,-8.603632893292506,10.770904413321258,-6.285513847283236,-0.3623478728365227,-5.717991626324743,-5.240962825643184,0.32571501689305216,4.1121731701880595,-3.9095325408123824,0.2901490197089298,1.4068591616338584,-2.8998456246134268,2.1066999013933327,0.7163348533787074,-0.4348235648227773,0.014317387531889015,-0.005619997012707122,-0.5936475225489645,0.6300887310775553
-16.867444306851517,4.569827043847049,0.8141622440376748,-26.20147616343388,8.080784219178918,-3.896774067137712,-41.085751519074364,14.836679637416264,-0.311078232442531,-59.19052785621699,2.0435404189854873,-8.571522212482806,-35.64843481828911,57.49402897518027,-8.08357082593902,-23.260542346319845,14.23372937133243,-3.168900128592408,-84.05069814711202,42.80061080059856,-23.407722858441975,15.069961856881523,-28.067948153972942,23.365139853741347,9.905898653302248,3.2432075216402225,4.032126336064612,-2.5154050898409297,-9.238578597343704,4.655117756654928,4.9612828537389895,-1.701282068004876,3.490217509685315,0.6635936642775073,-3.4171015396237663,-0.001282452080546493,0.809848979236162,-0.07748533521745804,0.7705005274938677,-0.07828177379306145,-0.2706270695501364,-0.34109580679798723
-15.547482364972492,3.3957413741713247,1.725776559312665,-19.98047574183795,8.62411561643138,-3.3484886833262926,-39.781635041223645,7.136133601822559,1.4937117620942892,-40.926488940695634,21.022388657686705,-0.9902046396882351,-39.15829369705675,62.06556647040658,-7.68136623568376,-21.898579508776542,11.796001792972376,-2.627072544094778,-57.4121170399603,62.71874470262054,-8.578897530444923,19.199633763525085,-16.109687220195607,-9.61952778338036,12.295080110421837,-9.401946959329798,-1.168620325995859,-4.195266702655749,-2.540319235788733,-0.035577816428876946,4.700274821840987,-5.763148730974426,-0.2330105165058053,1.0584319635318382,-1.4185385260753187,1.2046681688212901,0.7524826440956144,-0.7393079598124259,-0.3678782856098326,0.07890786082491806,-0.24148177744939608,0.3832431494457514
-15.908665682289177,4.690600111384598,1.8643207106751278,-21.452050208622655,4.754102187751215,-2.5041044242343626,-38.43194939412036,7.7046540524829235,-1.7447750615643374,-45.869679100065134,-3.29625199037625,-4.717009028135341,-42.96698474145187,66.43435553883934,-7.153788193002552,-20.187305973138496,10.199962187162702,-2.1023312869319537,-64.94768470397177,30.392943747778517,-17.287734032972693,21.752790519791866,-39.92093787306103,12.623941456714416,2.980875372934339,2.238416538159347,0.061991465059924894,-4.1835991296432375,-6.490307233461866,0.885146032186373,1.6699004729730225,-1.6225831663358619,-0.5507843095258611,0.6712668782820985,-4.046883779668221,0.6579525419750184,0.32067458246597935,-0.09411898642497055,-0.1592263867497743,-0.2433265908030256,-0.7501920028602863,-0.1521942047383207
-18.920762447648556,4.924127073919967,2.9658448899168643,-19.618614145829685,5.231425747991776,-2.50580389939215,-48.67525860078553,12.268065184055988,1.9757072221638183,-35.367207789647416,10.390193439117624,-4.385345077110907,-45.60269041537753,68.10407697478993,-6.962389535707822,-17.722601230196258,8.33368973361176,-1.6865537310862226,-64.32011869194169,55.89645627256466,-11.756968862173013,14.049563865216358,-28.8837804553571,4.144042122233202,4.705046447509648,2.044224213321733,3.0478828908591287,-8.218068224565762,-5.47756500907667,-0.1309147483611124,1.6394288339088865,-1.374711015900215,2.2549293476273817,1.1559898749933197,-2.9664180530916777,0.9586606797954075,0.0857088675783105,-0.17197805670437194,0.6549372650980811,0.0802110435765769,-0.3161124197028595,0.3779379252486262
-14.347081135132138,4.516310419675477,2.335852979995281,-21.238835045466786,6.727098643460349,-0.9936807641144779,-28.32965860603575,6.354695896148709,2.3364866286163672,-40.3876376199429,11.008938510424018,1.784097932829373,-47.167387607081125,69.91111341278314,-6.685596788868046,-16.50529149550136,7.2509730100458665,-1.2437595665805232,-39.692012624425146,53.34815688171007,-0.5776472592071716,10.714990066118956,-24.20440650571667,16.705561591004205,9.031588095574595,-2.371435774961353,1.0540652276154139,2.320029023638305,-8.058438572096808,6.4752674326992965,2.829156299875417,-2.002889374771995,1.1328173986023198,0.7627283896313127,-2.5506787335759498,0.6831485445003892,0.28793605114702586,-0.07973664632163918,-0.0966852701773116,-0.1554066030818497,-0.46437611046221894,-0.022391212823337506
-21.249601481329886,3.405949362665914,3.1190998439456683,-17.215250088842048,3.7072008223560418,-1.404998499932416,-44.468058653000895,-0.9263719975464346,-0.25053962377521005,-31.469682155985296,8.934304372263924,2.3575828721772583,-46.285512975626645,68.51721489565917,-6.782245499023168,-13.652711292077845,6.528933242772578,-1.3207008107678353,-51.370264740276056,41.067973850570716,-1.9818337926183511,21.797963711799973,-32.83830909932179,-0.02432632532012119,5.281878975452069,-4.744074250010262,-4.474051595384938,-9.016929052128482,-7.156473910885593,-0.3127436657706689,1.7347802852396788,-1.711993791763797,-2.8604332605792484,1.1712447198434746,-4.379899174737479,0.7885008901610274,0.2685256936236682,0.11863402674031603,-0.35090489128192764,-0.0005684294252049846,-0.5423361416664727,0.3470748297765209
-17.142686950167466,6.3381002013976575,2.2972615979995177,-15.961482191173754,0.04454807074831279,-2.6771873837771984,-40.534484878920125,13.981860030283984,3.43679545776638,-20.798883966202837,3.1362335007724664,-5.016889955840648,-44.46189518546137,66.23019367453331,-6.524947064606196,-10.97189506200507,5.17406146724106,-1.4896800123434895,-35.71477751662774,55.61998369409397,-12.461769231441178,11.346415188315644,-36.95683677296924,-9.116993180245052,4.264254876011944,-2.117515545074246,-1.9047978144593474,-3.8874676776446857,-3.0167594909044806,-0.07015764688188827,0.9388920644792399,-1.3119328781930788,-1.3789105959138752,1.226432672235589,-1.6403068151555016,0.41112260519805033,0.21784527963192843,-0.08562951293837452,-0.25901491159235746,0.10819623211133254,-0.14189768159320273,0.04694000290121948
-16.231750242329678,5.867495543297238,2.036073134253757,-13.252404306221873,3.3499372251605646,-1.6265698324947628,-35.90401941062515,4.204808483722147,0.12764994132863555,-24.539114274066314,8.255441029388823,0.6524086454930249,-42.474376582547194,65.20865337564186,-6.268084423280572,-8.660686727198904,5.415336784991108,-1.486307897312521,-40.73326454933084,43.42039208145542,-1.6416122087637561,14.65383359720954,-26.507772851856004,15.349404021636085,5.1651095600752726,4.197919455175323,5.75405963948308,-6.031024464547609,-6.596243550556373,0.8950245260708954,1.160208606477521,-0.739757788080139,3.1088215479054377,-0.1823250180256029,-3.6012308106188016,0.006648836503700697,-0.16623098264074296,-0.046337004525350986,0.4497168476353694,-0.23732173823913108,-0.7324582178510272,0.032554231899631456
-15.473260656283161,8.922858802988902,1.622143543420947,-11.29158545161994,-0.39312503862284787,-2.00606881307279,-32.99397655895785,6.343079191465631,1.0642207878554246,-13.79496484486284,-1.5852427504119773,-1.2337206174609943,-40.973259042447616,63.502402020848606,-5.904246900439748,-6.088029195851477,5.016087431637369,-1.303242726818616,-20.317208285186233,38.75922983166351,-6.5521168618897025,14.314956081787523,-26.200945914371626,5.353016912625251,-1.1171631815416911,-1.4652086718242059,-2.87950013710835,-6.6732345051907,-6.024602940768184,0.7388865318771779,0.35064066772022173,-0.8098233023777535,-2.231146436469027,0.8359969274136724,-2.8758913042526286,-0.045075443670293855,0.08993780898827965,-0.06232460725054752,-0.17632937679999997,0.004811332873586983,-0.5126343984926321,-0.02743386260978378
-14.510844802638285,7.182957895535256,2.3506897796665123,-11.757416217121714,0.41034934544179874,-1.9081540987029944,-34.887505222645494,0.5061238351016734,1.4444222329648189,-25.452628111389217,4.021810826119622,-1.8652126956971002,-39.24402099633035,62.67439117378274,-5.370560694226341,-3.991962188846731,5.204837625370428,-1.1214877792337032,-41.32238272047375,34.43800987707169,-3.386763017601851,4.925913885909681,-19.24271985834027,1.1252945414654718,2.992967955064442,-0.01885009021777556,0.5719714208434931,-2.9611178633566664,-5.440687444154524,1.7510398829398328,1.0006720044736275,-0.7879913177538433,-0.10080966200781244,1.1611926369393695,-2.6311605198796677,0.781570296611319,0.053981065434248084,0.012064193316143192,0.004113834124971433,-0.013675387018930943,-0.3849190015702274,0.21239143598553953
-13.060026983746729,8.377356368314093,2.5037601720175937,-9.315572658774906,1.189542042061025,-1.449833397792385,-31.171276790915055,11.040086432150623,1.6506682984658079,-26.879775999140655,-1.9764678961001003,-3.1515197466766702,-37.02307493023246,60.13781323759711,-4.467547291942925,-1.6846469949245877,5.254301745163881,-0.8998131615172559,-37.28472333702097,35.66259711624462,-8.020026754365599,16.269633585849814,-34.0599183279581,7.224853649089226,-0.3367780343464183,2.5394278516009225,3.153980737718296,-7.222565351878659,-5.124176780190345,-0.6787270960861558,0.34632587617433797,-0.6388838719130269,0.9593911949088041,0.19952533083970367,-2.9894753326173054,-0.3946111931495996,0.06961548789160552,-0.20487514508873345,0.24092956451327827,-0.05310020258078915,-0.5651866708386497,-0.02669125725258962
-12.756337256486104,7.502610522208718,2.965000485032117,-9.361424350927008,-0.6832321856212343,-1.7743803386282164,-26.099733293051433,12.073423790536589,2.3001666363443385,-18.181565382123033,-7.899862871095205,-5.753544358898125,-35.15907274665736,55.4342581418779,-3.5622221220428942,0.1887302199682321,5.233463616261147,-0.7521485663369976,-22.38610909612418,30.49590372860401,-8.226310389112282,18.522503187198513,-23.00800087639753,5.65131031061547,-0.44778799964076144,0.13556455844769746,-1.9620977474005803,-3.345354216150716,-5.557752756579786,0.8751657215396678,0.9938331013914599,-0.5657291462251597,-2.1993592403331435,1.0087547884895938,-3.1495064960472137,0.5027852456854274,0.13750413821465493,0.12539445271652136,-0.28978956619856755,-0.03519006727807567,-0.426537129779264,0.18899742079832016
-12.269375786092379,0.9161127364221837,4.342972435960278,-7.7019823713493984,3.322864583276268,-0.6016201286142687,-33.85602688414326,5.743572971510719,2.227937611749576,-27.347204249585886,7.176986577845418,1.7174046056378136,-32.885241948478544,49.985706814359716,-3.014218118837544,1.6109131967223855,5.449656840056599,-0.5916764993260053,-50.502543547711845,34.7253252009252,-0.41749123206845346,12.45858224162932,-29.96511626296506,0.9370963679942681,1.8760455334216917,-0.24767460270425087,0.41711491636512377,-6.778419139033083,-3.550085497663959,-0.8080679249734833,0.36371206129836364,-0.6923474263280421,0.12898614368162858,0.07199558956006749,-1.6588723220912975,-0.8281146335407271,-0.01947312779751026,-0.132953696784475,0.12827851645560512,-0.0031176567986941094,-0.2880900163531957,-0.2282417137152252
-9.582362293209314,3.5007940661425736,3.249083100927237,-8.229382755442058,4.235784141808293,-0.5398563716986826,-26.02057746151953,12.96483412658863,2.247514688421504,-19.237715569475256,4.26883107852594,-1.6765270682484121,-30.6012264744323,43.627953685926464,-2.391748958121345,2.7232508629336074,5.230986498251235,-0.4763580656803785,-32.51070181168991,39.9940080095415,-5.561131009498507,25.636898387820025,-14.241448639855678,-4.141087360474405,1.3290134856558846,0.4936534621506498,-0.0912520417411106,-5.288175159468243,-5.895049151335227,0.48461337027712126,0.5669394658292786,-0.47079022623368133,-0.7861909357972764,0.3606689084475227,-2.533440757956389,-0.4113990998970323,0.01966346477292441,0.05487747721520849,-0.1350505026509532,-0.04972098183043684,-0.4537250507170775,-0.10911713215529403
-9.551693727190708,2.6144878029797787,2.903906772961651,-6.270894503907217,5.020364869562733,-0.21184646599747342,-17.766085147462693,14.896700275499704,1.1196922362578243,-15.022225809914325,7.899460147526554,-0.10421986776369868,-28.341331247344193,38.91710685692778,-2.310939721514977,2.9441824192791306,5.118563797166828,-0.2870665576520051,-16.295533867173503,44.1136711381133,-4.466882284912357,-3.773202020130922,-30.22601032738993,5.0346177224891475,3.4239787434688647,0.026015448006156836,1.72531395738623,-2.3972452956439683,-3.5663070908459824,0.5261812772317681,1.2798890450743126,-0.9949936025476037,0.823631912606945,1.0642770066076046,-2.252518871077546,0.46252518490611605,0.17988303098915315,-0.09067120306286246,0.1542461082513732,-0.06212595896622214,-0.4005698110131008,0.05964638715160174
-5.0569051107320835,0.02338784563920141,2.8949586824531934,-7.8139900921230145,5.159126018768357,-0.17628711878768555,-18.066652443026502,3.7473613157986,2.641884121322946,-22.45726368917024,10.30981237513679,0.26271001016396933,-26.641237531004656,36.09486140211225,-2.1194266522393614,2.6713956764637445,5.143817132574586,-0.27520778420105674,-38.876190552040185,28.57150091369948,0.6673453230435222,38.25044925966764,-20.70967178048333,-6.201099028524846,3.884760709163474,-3.3182999923434715,-3.801226954420671,-7.594386251774861,-2.6538920140917828,-1.5565576370801826,1.7690572405242908,-1.0815398295622274,-2.124363634474098,-0.43682853852867476,-1.3917198997233569,-1.0061941394025138,0.3781555232375917,0.027443310417587678,-0.23910601857688984,-0.025291136118269563,-0.23645937621243446,-0.20049917792114083
-9.8959956662072,2.0069749502966228,3.092536348009236,-6.894175869539318,5.183708693916718,-0.086504105561134,-22.007055252664763,4.058207879022676,0.7369387067452922,-20.86076250784847,11.005440516644036,1.0714323585044632,-25.13035796437557,35.94414727536027,-2.1140312160621817,1.9604813395325982,5.319314096196685,-0.18273298180973915,-36.011588722173826,25.97591189443676,-0.27073325477705534,26.035630027669075,-10.886398844117116,1.7102900965763341,-0.035233438582113974,0.8149075953205122,0.12271251844284131,-3.1507043160015846,-5.880157450673912,1.5177758419183291,0.17022042459827144,-0.41768334444426575,-0.5556032252892937,1.1357815548354786,-2.540848994863482,0.15838049109890553,-0.08488353952001984,0.0026634129889008488,-0.032923869866322626,-0.012533053887088528,-0.45489065126494777,0.05051125675164781
-8.281936481275745,4.685414446694396,2.5072261300791485,-6.6762369724162385,5.887147163302888,0.4989104734332744,-18.103873915075877,7.9053773829842,1.631559097116454,-9.49470160487548,5.709651058984712,2.9421670855611253,-24.29200825187286,36.674957421019634,-2.0802479476862348,0.6812573311497975,5.795730783353843,0.004951264040692064,-16.165830004926267,26.43853249189151,-1.4768459574259958,7.560187334355106,-28.594275161160006,3.706438737690008,-2.8656104946798076,-1.2403590004310148,-4.010326695956093,-4.123510849937263,-1.9537746854825124,-0.4854055434431385,-0.6670216648455839,0.19809445556432745,-2.942037290633142,0.27981867844771596,-1.280752043160636,0.048912418103575044,-0.2872368389130553,0.2127746261958209,-0.3158368676533563,-0.06568158232476948,-0.12924444482255465,0.03401304613448234
-8.343430786698054,6.460476169729641,1.7796627758198773,-6.1899393028879635,7.597689718085018,0.48633074034308404,-24.77744680089846,12.522096041870197,0.5270892469483821,-12.511366212516776,16.035621830464486,3.289124681119865,-23.55201201252899,36.86431053956002,-2.534405515139107,0.35037501753314704,6.132912555052995,0.0629558231235731,-26.510618577594652,46.593332747278296,-0.12789247820871166,26.853751035893556,-42.95121786319702,5.246862724681896,3.2397422118865298,3.028347289135609,3.521517489896426,-4.201657170101668,-2.930591516770144,-0.012653515390185026,1.283763815038944,-1.2299694089499147,0.811506367177581,0.7964086631781039,-1.1518875335917051,-0.25790050916892904,0.14869383946205716,-0.09136456783366727,-0.038043074599412585,0.17156636135090683,-0.13050886642997192,0.08672605943845103
-6.853062562080745,6.783726960007372,1.0654219829843214,-8.608461465848128,6.502174768939688,0.22701694474501516,-18.27367711012497,5.657747042309261,0.5296859178592791,-30.614607013556242,9.393892921106199,0.4569829955022615,-23.248683384451596,36.776960126336085,-2.8544202379863353,-0.42398229950462585,6.663619271458052,0.1358021880427627,-43.5405478282283,26.96595603252884,0.9734319197741281,6.2581369655816035,-2.271797985062415,6.593329695956326,2.332116073816936,1.9590153874066853,0.5037969995785967,-2.89777927183169,-3.6687337333272048,0.3525059403557923,0.9751737181856381,-0.8836622363343081,-0.8481252799031878,0.2756648312729605,-1.5470270802828356,-0.2812394614843307,0.19638491227374713,-0.04307201463612895,0.07096566938494074,-0.14374362665588442,-0.2619719124016287,-0.17123304193009262
-8.341745620743282,4.298619578148858,0.8950348672732379,-8.13353106832477,9.306020364783933,0.7647149152757121,-18.663524339599796,8.246629526675129,0.8508154331926713,-12.79634778707562,18.701540795128725,3.500870612117176,-22.992145838821703,36.26655623853561,-3.7636205357320907,-1.2117913936370062,7.085813691482457,0.22685288156775768,-16.245446629627498,43.03183161904635,0.12955221830112382,27.822556221500317,-37.42198834586618,2.175276341490952,1.858440516346375,-0.7661451244809114,0.2916703079441177,-4.529923375788619,-3.423910609208808,-0.37680293293139755,0.8736996030827735,-1.2283614824555813,-0.02560978599702425,1.119157816614302,-2.215240451090817,-0.11573539264713162,0.1126428594280716,-0.1389841070273314,-0.039580725573762306,-0.043545552551131156,-0.5003835647331849,-0.1199049705551212
-7.076459299782095,4.183682844739743,-0.059604621045915226,-7.642513656705864,6.254480901751056,-0.12493902276425216,-26.42330364243761,13.573139945115152,-1.9774920375394258,-21.11492134127787,2.9228390150364785,-2.5252668671827943,-22.613977846888222,34.910392226050895,-4.128597367709735,-1.6164630551242725,7.451692185280381,0.14940537680575794,-44.2636457347949,27.938172357030673,-12.719257703774057,30.882275870665907,-20.33706952840829,-9.039852752000934,-1.1157589039775295,-1.7676253767951124,-2.927574530980142,-4.101723969774918,-4.386102349275636,0.28334079743212237,0.17758541585001975,-0.8722208499281794,-2.2966610507627587,0.343444609515665,-1.907977880745737,-0.3411386460415049,0.19786818956380886,-0.07618983916520128,-0.11685101586104157,0.0446623693326331,-0.2375540089253146,0.09949227176768764
-6.749790487498221,0.09947844249986174,0.39845234406969854,-10.035424556453586,9.460002245397291,1.2366820091276323,-25.138118047487836,5.960462037481454,-0.024586989915208482,-20.455194930729864,13.995928976097865,3.204398654540556,-22.074826603479504,32.741925004033234,-4.271206326308248,-2.6088532066864416,7.898315518155778,0.6900456384652601,-30.00199437767776,40.11839669165809,-2.0014099854603615,15.92886064869524,-36.17060893005154,7.88908540581708,7.394319328280972,1.7543814652502268,2.073256853249189,-1.6214649888728139,-3.311054151088905,0.9226517136401915,2.3282443881361066,-2.2629430263871284,0.577269692381444,0.838007675625456,-1.508240295604112,0.229279775913933,0.2591414870500949,-0.13047182356358272,0.05667651884811736,-0.01996140402867755,-0.36483266644266915,0.042832032686293035
-6.005727988948191,-2.794877209658631,0.13180918332088365,-10.242855964234101,9.200449306068425,0.8937178205473452,-25.261922775426978,6.711945840249862,-2.841014356500582,-22.51839963936906,15.247873669361645,3.8246393189296004,-21.543449601862843,31.190936363141798,-4.432516352142769,-3.155098024531962,7.863175881325811,0.33299003927368215,-32.95187257262605,38.760666024423905,-5.352629681883725,16.095598815514357,-24.139199400487485,8.220146035447996,0.7883583064940446,0.1607897250557963,0.8300784160949541,-7.28594081388019,-2.4709000527053946,-0.9773920156670698,1.7169941267956066,-3.194496592798271,-0.8772303906097271,-0.5195725817514797,-0.8062879393561123,-0.8802514292074286,0.37935921730955896,-0.3301897684190073,0.06970288722324791,-0.1188175861097221,-0.07196302830885637,-0.23948936571196883
-3.4473806430079947,-4.674593034064772,0.6206968770433097,-4.245698658926217,8.025619046770032,0.4984260794387465,-28.207443812217896,-1.909695073706894,0.20894274270687724,-2.1228451226935428,11.000539642272628,1.3985612224314248,-20.730371183067053,28.810303550822272,-3.8882783046589338,-3.0652098225361946,7.965102185409887,0.5070463753789415,-15.80753923731855,27.653936210973356,-8.261648529805452,26.513465425465416,-23.981196324254505,-4.267813117542105,4.876619655717783,-1.0754360713927689,0.761905665950592,-3.537399536771985,-0.95930823421198,-0.7060573995324922,1.3093971564794384,-0.925733890369774,1.0921159450813216,1.449380960961349,-1.0097059190806914,0.3043580974474285,0.12337296946781473,0.04626519115202236,0.25112940438171055,0.028513723675791098,-0.05878334711318727,-0.03304543939662729
-5.058568162343018,-7.4624438897718255,1.1329456331441818,-11.747049897706994,8.513752319374406,0.35465737845101514,-22.330931257428393,-0.7563605324780508,-0.3124982966796716,-25.7036577072571,11.85513716203978,0.1240133033389914,-20.15141061208271,27.44840883258782,-3.7422283756605568,-4.400986322689355,8.476010694674123,0.38737755494828835,-30.71925341408316,33.35326301643474,-6.289411239127109,32.4579869908576,-38.412916269907825,-0.06659960986803193,2.8801509659059694,-0.5744498255147915,0.0831373292328584,-4.789565140902895,-4.3991337095752785,0.09613620443704606,2.106981450840352,-4.3898618718757385,-0.9710751371526088,0.4880765317485057,-2.2361306981094833,-0.22873527552312267,0.5114728268877516,-0.6944447808063617,-0.22906873585801113,0.04238404166246913,-0.5339668239719478,0.0771866030518721
-3.961601973841776,-8.047738241856841,1.0673431894331453,-5.860962450338549,9.954326225217372,1.3142633645435315,-19.66415300935396,0.8768105347686412,-0.05271221658539661,-8.570450844981924,17.32044245983952,5.448617736333346,-20.728401204771604,26.89439489731545,-3.5535942182654545,-4.692412398504076,8.668883848044281,0.8065314133466445,-8.574809306562663,40.802911236303906,0.8874898081717765,19.939015814040513,-24.97710528563607,11.856031016483403,3.3128423358538788,0.05728740690073309,0.830646528045869,-4.966370590527363,-2.492856231476079,-0.8729258124317272,1.983454621537324,-3.5289400231516415,-0.24583560819077058,0.3955490936883044,-1.3752737080994,-0.45468722819095553,0.20723170212804048,-0.38688899972326235,-0.18247745753913097,-0.2098461633175685,-0.24392899042154387,-0.3291061770698117
-4.380895565408977,-8.639753404722104,1.4788858808089027,-10.872109086100677,7.565332005083501,0.48159136237073297,-28.452983694113325,-1.636471866857679,-0.04475989795514328,-22.602637349400467,6.015368256288425,-2.155503185027849,-22.05689714245451,29.042497922202905,-3.5640278912741374,-5.551712647133039,8.722912073932099,0.8947736846755858,-35.75975808570245,24.609290666290395,-13.955620430050205,18.809221348166197,-31.146938902468627,-6.7428279100145,2.9858603803270114,-5.442456263745522,-0.08128420630131794,-3.8499922893305083,-3.712720408839846,0.16780256857430337,1.991598451118195,-3.4125521190238532,0.39667166975348195,1.3274591712183885,-2.2210364026300646,0.4044509535310537,0.5841123905928102,-0.36243007639558567,0.3698330788964883,0.1877561705077279,-0.45523802195149243,0.3001256163448003
-3.795455301029566,-8.957617722225985,1.4288296648132992,-9.606694364115198,9.815424675349387,1.3466631078045146,-21.634230760200687,-3.6440689829238377,0.1868371639597678,-19.919855829062783,14.761924446768447,2.9156492344820593,-23.78844715815701,31.915624057782466,-3.8014312774458903,-6.065856087698001,8.899433360100762,1.0787018501335246,-24.162428673045557,35.49565079621181,-2.698605927324205,20.55808498173251,-9.443540566307943,-0.18165818214160145,13.014720722957366,-0.08788511114413308,0.14245328828805204,-2.8491564528453135,-2.0798460831146666,-0.1541610882064755,3.4978261000686692,-2.2339813841806357,1.8979843753210133,0.2884296042271544,-0.8555256975302382,-0.22568681975956992,0.3890505314414567,-0.06596749536629183,0.21654857145267048,0.05211597669661489,-0.16738853770413323,-0.004374883096370104
-5.532363663324075,-9.865188154995115,2.0130490750529946,-7.762066818289024,7.92609105051452,1.095468717749254,-29.80746115670729,-5.708981561237066,0.8932908633795962,-11.524235977599517,6.638574925492642,2.1284138420074035,-25.54360203395111,35.39316927744468,-4.162655117868855,-6.269984447405356,9.009817891886211,1.1183544670703354,-16.867946188408435,20.530145673377397,-6.766986757561318,17.764991636228967,-35.944041787603005,3.807243023342318,7.4932785294056385,2.2481543598551115,1.5766096067968873,-2.0568562790377354,-5.579345980153335,1.3629480758455403,3.2877745461280514,-1.9941870130116095,1.8460811724651804,1.7276833701925909,-2.4521266947209512,0.22527699430461468,0.4790162749643806,-0.19273663696270382,0.23991433905166515,0.0006199632043387413,-0.3749999635621544,-0.025280216597084945
-4.094934323757449,-9.517401907878341,1.7059577596380426,-9.114263721376455,8.690327286387891,1.0364527270204804,-25.806460584579554,-3.2032148761376775,0.26050496419834895,-18.96565227798338,17.24779713510575,1.979149228571204,-27.216236741390933,37.20045914131099,-4.165359658809504,-5.63916980878981,8.69643286530524,1.2499749796982886,-27.335567214103282,41.31104736043304,-3.7634782540452862,17.124795080979982,-19.04420783620513,0.8824300558368764,6.182702754272035,-1.7744206405431744,0.09131904247944841,-6.346291972964361,0.22163443686205117,-1.6325643356399473,3.6176970232443053,-4.510668723793002,0.44669668617262254,0.00923454937495647,-0.39483212411620927,-0.04141675324388827,0.6839277685003874,-0.5093528530211969,-0.009157150157277113,-0.14916982429612524,-0.12048197441837097,-0.13305090330418667
-3.1902903726955945,-10.416152778601406,2.234704323058224,-10.127936464937509,10.003743157615412,1.961061099170122,-26.645541129920087,-6.728724885683243,1.8258290893983562,-21.88894668952902,16.703682826092766,5.587041196112115,-28.521849979082692,39.34329880399785,-4.080198440906446,-5.501150108819269,8.963542973584518,1.4257747849653544,-29.122279648970427,31.44473837209215,-2.2309835013409915,10.463196568005642,-33.89700598391893,-8.07975415991981,10.621286460018132,-5.6663134876779795,-1.354072567632296,-3.6053263102089232,-5.163302251354637,0.55385112914582,1.8717916265326733,-2.601160975668771,0.7851379483766122,0.9109052801715515,-2.7570535058549988,0.049616991169671304,0.0007237709319084609,-0.2870108779549831,-0.018949321894274423,0.09133321656036789,-0.6494808588401167,0.15541222638401875
-2.936275527712194,-9.369989160425527,1.9815787222067636,-5.933366056930758,9.424127250048842,1.5280392881483116,-25.700746262013723,0.2528818703155407,0.7256954220711014,-16.236626842960874,16.996022630097055,4.47016672852915,-29.31805833532248,40.29319588143024,-4.031399138858815,-4.186187152223527,8.798254973186136,1.3018899249523854,-23.482018656208375,43.89378208742432,-2.7197656651840143,21.812839888126007,-27.18321861906967,8.445707194368508,2.043033326232983,2.9052061580379216,0.4735984538577765,-1.7151488358279776,-5.185497916108222,1.446667425019761,2.1943562865766726,-2.376026895926342,0.483691761506139,1.2824766768648428,-1.8150392725303846,0.04977247724032901,0.39267770515035694,-0.2653843829403888,0.01649449088456311,0.09392621453195578,-0.13531245706842712,0.03720898626647272
-3.9560928697344617,-9.13891209622366,2.747925622048328,-6.901295894707637,9.322964863450018,1.2056352125956724,-28.031425712418546,-5.689273922677595,2.608556367486625,-22.803373607548238,21.986987165936203,4.15294609129209,-29.73614230673134,41.63217177652187,-3.821497924254261,-3.2230883638185324,8.13504913489481,1.0573765845377698,-33.9857804288734,44.724083622220405,1.6405533091205977,20.101642778144555,-32.93736539717378,1.6616266206247996,9.519813068650555,1.8963659468463987,-0.4453142047810004,-3.274396192252976,-2.1156191180077006,-0.23953648662331622,3.895818802662591,-2.8918037144943187,1.0901731776047805,0.4413194564933939,-1.187459632441099,-0.09927524372505037,0.6216626739572935,-0.38577381001861116,-0.011101576187819956,-0.08819890781462424,-0.23934518718085188,-0.10746625192976687
-2.20818974092992,-10.497102624561801,2.7193436912632527,-9.673135233992152,7.657482912393196,1.597261641241878,-27.996740401266603,-12.77836397412647,-0.823530936287686,-32.15256913529912,11.065531713585369,4.719736535148193,-30.29136892433812,43.02356298012046,-3.5403173018925918,-2.655010063318394,7.7575498505881875,1.1078977827909449,-48.15940676757035,17.754797896087084,-6.085658089014284,23.375116686087157,-17.216452642396668,-12.957998328272387,5.177260783816223,-5.625077292786242,-0.10287883722699653,-3.3987516071536477,-2.1808176223156694,-0.38819296926345787,1.92633306301312,-2.782516428251943,0.5579617837506103,1.3006826591346874,-1.4646565980167012,0.2603638117374184,0.21328589332111936,-0.16957351091754602,0.08125501147745073,0.14080796941404977,-0.34269893962362163,0.10220127566062041
-4.757275100333022,-7.172010228458496,2.975949631697398,-3.216650600321729,7.403078963855514,1.0513470160417524,-26.056775905355153,-2.054920329259778,3.6608795057550596,-3.9295942496902394,13.599266970804697,2.014597450133184,-30.099135725278412,43.44828447799904,-3.5924976910733037,-0.8530447878547143,6.797582257009986,1.0500961865826357,-6.992126520684892,43.34999252031962,-2.2514526540932636,10.30761785349186,-14.274669617173416,3.502722718603487,7.478050432108318,-0.06331454243463244,-0.14992768772417395,-3.837392042466878,-6.626839936859642,1.8399556757968887,3.2786976613229974,-2.6170175059204124,1.08975303811761,0.6598181541517968,-2.223068446371726,-0.011494489704946861,0.5719829623938177,-0.3590926672289258,0.06908416246662061,0.011308776379219678,-0.3200231774200405,0.06142690548144677
-4.228930944236117,-7.789464099363547,2.9308850953550447,-10.142719470207993,6.895616417971764,1.304017642498337,-26.28820807819698,-6.7662021596451725,2.704089440876019,-29.53805732669443,20.450496545885407,5.901831356325084,-30.26718947849016,43.88745122529885,-3.527003133549308,-0.6249833772545994,6.178078773535648,0.895172922845045,-42.111327692354045,42.53196204280763,3.25964981825384,20.420084286388644,-20.782779144900893,0.5926290548530608,4.460601154885606,-0.32698346917390886,-0.251639667166169,-0.21027145866003547,-2.8313174864287003,1.0851750485573746,2.0154217882932683,-1.5358471175572943,0.39693656834256663,1.5341703275399414,-1.355159935033914,0.6069269473784001,0.2890473289078447,-0.14000049767200212,-0.05184732926824591,0.06663834034774542,-0.2566674548569064,0.1250307917304517
-4.824653263160762,-7.210243369802665,2.531977571988724,-9.119963904230993,6.849133832168558,1.8690251815235999,-21.4485424431679,-5.568145593062008,0.8358277181002146,-21.2640707408371,8.338621141524927,3.522493563565141,-30.277026410055583,44.24158457359184,-3.6784524209989287,-0.31608112101030345,5.1954661990495685,1.0290088354894371,-21.5705178457183,28.31480061034625,-1.6948804848141739,11.99742388381765,-23.299989355051995,-1.0601011646851737,7.745138172789357,6.599492048619704,0.9289051946744784,-4.155033912996161,-2.75528947828617,-0.5088142213970601,3.4876200625010103,-0.22359806762198337,2.099734084904837,0.8212471506059564,-1.8287400265118077,0.08235300075799275,0.42547352568153596,0.06845610186931585,0.23605717102387674,-0.044875189543311274,-0.40985147696325763,-0.03560489708965308
-5.1325,-8.11886,2.74035,-7.07032,5.40469,1.44852,-23.55217,-15.54992,2.5569,-21.8341,17.32265,5.43958,-30.00973,43.85119,-3.93916,0.41121,4.43405,1.05809,-31.54419,31.76671,9.64771,24.02022,-19.99727,1.13938,3.01951,-0.02998,0.07883,-4.15934,-2.02256,-0.05482,1.97371,-1.97702,0.65945,0.9601,-0.8314,0.42627,0.49685,-0.14777,0.22657,0.19002,-0.15774,0.23548
,,,,,,,,,,,,,,,,,,,,,,,,,,,,,,,,,,,,,,,,,
,,,,,,,,,,,,,,,,,,,,,,,,,,,,,,,,,,,,,,,,,
,,,,,,,,,,,,,,,,,,,,,,,,,,,,,,,,,,,,,,,,,
,,,,,,,,,,,,,,,,,,,,,,,,,,,,,,,,,,,,,,,,,
,,,,,,,,,,,,,,,,,,,,,,,,,,,,,,,,,,,,,,,,,
,,,,,,,,,,,,,,,,,,,,,,,,,,,,,,,,,,,,,,,,,
,,,,,,,,,,,,,,,,,,,,,,,,,,,,,,,,,,,,,,,,,
,,,,,,,,,,,,,,,,,,,,,,,,,,,,,,,,,,,,,,,,,
,,,,,,,,,,,,,,,,,,,,,,,,,,,,,,,,,,,,,,,,,
,,,,,,,,,,,,,,,,,,,,,,,,,,,,,,,,,,,,,,,,,
,,,,,,,,,,,,,,,,,,,,,,,,,,,,,,,,,,,,,,,,,
,,,,,,,,,,,,,,,,,,,,,,,,,,,,,,,,,,,,,,,,,
,,,,,,,,,,,,,,,,,,,,,,,,,,,,,,,,,,,,,,,,,
,,,,,,,,,,,,,,,,,,,,,,,,,,,,,,,,,,,,,,,,,
,,,,,,,,,,,,,,,,,,,,,,,,,,,,,,,,,,,,,,,,,
,,,,,,,,,,,,,,,,,,,,,,,,,,,,,,,,,,,,,,,,,
,,,,,,,,,,,,,,,,,,,,,,,,,,,,,,,,,,,,,,,,,
,,,,,,,,,,,,,,,,,,,,,,,,,,,,,,,,,,,,,,,,,
,,,,,,,,,,,,,,,,,,,,,,,,,,,,,,,,,,,,,,,,,
,,,,,,,,,,,,,,,,,,,,,,,,,,,,,,,,,,,,,,,,,
,,,,,,,,,,,,,,,,,,,,,,,,,,,,,,,,,,,,,,,,,
,,,,,,,,,,,,,,,,,,,,,,,,,,,,,,,,,,,,,,,,,
,,,,,,,,,,,,,,,,,,,,,,,,,,,,,,,,,,,,,,,,,
,,,,,,,,,,,,,,,,,,,,,,,,,,,,,,,,,,,,,,,,,
,,,,,,,,,,,,,,,,,,,,,,,,,,,,,,,,,,,,,,,,,
,,,,,,,,,,,,,,,,,,,,,,,,,,,,,,,,,,,,,,,,,
,,,,,,,,,,,,,,,,,,,,,,,,,,,,,,,,,,,,,,,,,
,,,,,,,,,,,,,,,,,,,,,,,,,,,,,,,,,,,,,,,,,
,,,,,,,,,,,,,,,,,,,,,,,,,,,,,,,,,,,,,,,,,
,,,,,,,,,,,,,,,,,,,,,,,,,,,,,,,,,,,,,,,,,
,,,,,,,,,,,,,,,,,,,,,,,,,,,,,,,,,,,,,,,,,
,,,,,,,,,,,,,,,,,,,,,,,,,,,,,,,,,,,,,,,,,
,,,,,,,,,,,,,,,,,,,,,,,,,,,,,,,,,,,,,,,,,
,,,,,,,,,,,,,,,,,,,,,,,,,,,,,,,,,,,,,,,,,
,,,,,,,,,,,,,,,,,,,,,,,,,,,,,,,,,,,,,,,,,
,,,,,,,,,,,,,,,,,,,,,,,,,,,,,,,,,,,,,,,,,
,,,,,,,,,,,,,,,,,,,,,,,,,,,,,,,,,,,,,,,,,
,,,,,,,,,,,,,,,,,,,,,,,,,,,,,,,,,,,,,,,,,
,,,,,,,,,,,,,,,,,,,,,,,,,,,,,,,,,,,,,,,,,
,,,,,,,,,,,,,,,,,,,,,,,,,,,,,,,,,,,,,,,,,
,,,,,,,,,,,,,,,,,,,,,,,,,,,,,,,,,,,,,,,,,
,,,,,,,,,,,,,,,,,,,,,,,,,,,,,,,,,,,,,,,,,
,,,,,,,,,,,,,,,,,,,,,,,,,,,,,,,,,,,,,,,,,
,,,,,,,,,,,,,,,,,,,,,,,,,,,,,,,,,,,,,,,,,
,,,,,,,,,,,,,,,,,,,,,,,,,,,,,,,,,,,,,,,,,
,,,,,,,,,,,,,,,,,,,,,,,,,,,,,,,,,,,,,,,,,
,,,,,,,,,,,,,,,,,,,,,,,,,,,,,,,,,,,,,,,,,
,,,,,,,,,,,,,,,,,,,,,,,,,,,,,,,,,,,,,,,,,
,,,,,,,,,,,,,,,,,,,,,,,,,,,,,,,,,,,,,,,,,
,,,,,,,,,,,,,,,,,,,,,,,,,,,,,,,,,,,,,,,,,
,,,,,,,,,,,,,,,,,,,,,,,,,,,,,,,,,,,,,,,,,
,,,,,,,,,,,,,,,,,,,,,,,,,,,,,,,,,,,,,,,,,
,,,,,,,,,,,,,,,,,,,,,,,,,,,,,,,,,,,,,,,,,
,,,,,,,,,,,,,,,,,,,,,,,,,,,,,,,,,,,,,,,,,
,,,,,,,,,,,,,,,,,,,,,,,,,,,,,,,,,,,,,,,,,
,,,,,,,,,,,,,,,,,,,,,,,,,,,,,,,,,,,,,,,,,
,,,,,,,,,,,,,,,,,,,,,,,,,,,,,,,,,,,,,,,,,
,,,,,,,,,,,,,,,,,,,,,,,,,,,,,,,,,,,,,,,,,
,,,,,,,,,,,,,,,,,,,,,,,,,,,,,,,,,,,,,,,,,
,,,,,,,,,,,,,,,,,,,,,,,,,,,,,,,,,,,,,,,,,
,,,,,,,,,,,,,,,,,,,,,,,,,,,,,,,,,,,,,,,,,
,,,,,,,,,,,,,,,,,,,,,,,,,,,,,,,,,,,,,,,,,
,,,,,,,,,,,,,,,,,,,,,,,,,,,,,,,,,,,,,,,,,
,,,,,,,,,,,,,,,,,,,,,,,,,,,,,,,,,,,,,,,,,
,,,,,,,,,,,,,,,,,,,,,,,,,,,,,,,,,,,,,,,,,
,,,,,,,,,,,,,,,,,,,,,,,,,,,,,,,,,,,,,,,,,
,,,,,,,,,,,,,,,,,,,,,,,,,,,,,,,,,,,,,,,,,
