PaulMeinheit/Bachelor_Muay_Thai/processed_Data/N4/teep/scaled/JointMoments/scaled0.csv
R_KNEE_MOMENT,R_KNEE_MOMENT,R_KNEE_MOMENT,L_KNEE_MOMENT,L_KNEE_MOMENT,L_KNEE_MOMENT,R_HIP_MOMENT,R_HIP_MOMENT,R_HIP_MOMENT,L_HIP_MOMENT,L_HIP_MOMENT,L_HIP_MOMENT,R_ANKLE_MOMENT,R_ANKLE_MOMENT,R_ANKLE_MOMENT,L_ANKLE_MOMENT,L_ANKLE_MOMENT,L_ANKLE_MOMENT,WAIST_JOINT_MOMENT,WAIST_JOINT_MOMENT,WAIST_JOINT_MOMENT,NECK_MOMENT,NECK_MOMENT,NECK_MOMENT,L_SHOULDER_MOMENT,L_SHOULDER_MOMENT,L_SHOULDER_MOMENT,R_SHOULDER_MOMENT,R_SHOULDER_MOMENT,R_SHOULDER_MOMENT,L_ELBOW_MOMENT,L_ELBOW_MOMENT,L_ELBOW_MOMENT,R_ELBOW_MOMENT,R_ELBOW_MOMENT,R_ELBOW_MOMENT,L_WRIST_MOMENT,L_WRIST_MOMENT,L_WRIST_MOMENT,R_WRIST_MOMENT,R_WRIST_MOMENT,R_WRIST_MOMENT
X,Y,Z,X,Y,Z,X,Y,Z,X,Y,Z,X,Y,Z,X,Y,Z,X,Y,Z,X,Y,Z,X,Y,Z,X,Y,Z,X,Y,Z,X,Y,Z,X,Y,Z,X,Y,Z
2.2751000000000006,-6.112860000000002,0.22717000000000007,-3.853130000000001,5.908650000000001,2.5252300000000005,-19.479540000000004,7.781430000000002,-0.94887,-43.13871000000002,15.608840000000006,5.727290000000001,-31.641430000000014,23.456660000000003,-4.28262,1.3413300000000001,3.7742100000000005,2.12286,-68.02438,31.709610000000005,-6.78648,19.263960000000004,-10.912160000000004,1.18678,2.9108500000000004,-1.6408700000000005,-0.5715600000000001,0.7954800000000002,-0.9145700000000001,0.49351000000000006,1.72734,-1.2615200000000004,-0.24154000000000006,1.8383000000000003,0.54023,0.59118,0.29996,0.07027,-0.03322,0.15037000000000003,0.07350000000000001,0.10673000000000002
2.6964520842223436,-10.820851901293132,1.5614431251041119,-4.046013969474493,6.577990509531744,2.6928206966631483,-2.2698374910652253,-27.3187556362999,1.3242589316202227,-45.418742457301036,14.923003906750415,5.110032036406556,-31.684470248192316,23.579452854301678,-4.373658556567548,1.2072313786591964,3.165655917001068,2.160305448020839,-43.796575661558606,-5.994278921365719,3.4876184065922824,46.81512453194196,-13.914153671848398,-1.180730625995086,4.764400078177899,1.0092572265057465,-0.22431951211318565,1.6167203047491203,-3.2378675383317246,0.43503854711303425,1.8498028184451574,-1.5922479856244014,0.22197437089575034,1.6945070643208269,-0.7747396852666423,-0.0654824642643569,0.12564877367514338,-0.17352493458641557,-0.01744338444967156,0.2048406524744884,-0.1719990311369191,1.9294191037312267e-06
2.799682418253982,-7.726620589869829,0.8402090421967695,-2.9945000737556957,5.179075869682588,2.4429914813649494,-16.19852310813895,-9.206764017857287,1.1292960006490629,-45.41507752545629,13.362805693594764,4.0718174767749735,-31.993549312993586,23.53393594302236,-4.304809102842258,1.307839966310655,3.0508525221876517,2.2041729223620816,-65.16629460238325,11.917140783651979,-4.028486700089806,20.18104817836057,-4.763821020326773,4.394786404345517,-1.4486000077108359,1.476360376509671,0.8502010221540209,-4.068442599458174,-1.7037405502723701,-1.0357302237142694,1.2461229533565974,-0.9556928354860208,0.09872710591799176,0.011344276084354274,-0.4023180036792753,-0.1848468578391531,0.2105596236548891,-0.034406285711545526,0.016712560180987084,-0.040024436975459037,-0.1034087132509699,-0.05466960032241503
2.763962833503581,-8.689514280968964,1.0852231715967642,-4.582439692648262,5.924673638291582,3.144156966787992,-13.061533030270528,-15.534980393800385,1.1188188700637975,-44.490249609183216,12.696098949808782,6.667055858623892,-32.11693481799618,23.519005830903527,-4.32558198460049,0.9705150069147213,3.054153545955684,2.474844540574365,-57.83811086753301,2.4727645175157345,0.7762879960285513,41.01989341932809,-6.572862902914589,-7.510767393647057,6.031176548988777,-2.9677099535360276,-0.9450174451267181,2.9677928288196624,-1.9674364538230094,0.8707570192287969,1.9847007041419678,-2.2226116732097436,-0.09608156290087946,2.152289970072686,0.0806995120613813,0.33998954632424205,0.17988511479229338,-0.19273572387388088,-0.04208641937774957,0.2106896335855927,0.00992630293513968,0.06876439243089207
1.5638501087245975,-7.795187041302201,0.8501352091661502,-3.34920656092435,6.2579780828945095,3.1693880085890025,-17.27743224240063,-7.342039704401189,0.8568536239406818,-44.29558514589964,13.661269738563353,5.340337378297422,-31.95701247909395,23.473178099852742,-4.437549179167483,1.3246814137052627,3.064847806707636,2.6605474359409103,-64.56393633793614,15.953810557664305,-3.794041514385073,28.375665683300127,-22.93302523735526,5.225141415067699,0.6928480740094405,2.8323981488337355,0.6471029171404359,0.4422340389194998,-4.422300514536577,0.30158896326353174,0.8264742886087378,-0.3481199934892286,0.5277074251466864,1.6055879574371859,-0.9062700669543187,-0.12230082000541542,0.10288402015316139,0.07716630665327863,0.1498518161849498,0.1869933555859812,-0.16241912246443752,0.00432015429499579
3.0978664256041974,-9.418885765984037,1.0665471879927013,-4.774907164557007,5.774630738043394,3.3901088837262376,-12.620933130540669,-17.348136836891772,0.7017279343724506,-47.338731861376104,14.924623123191825,7.111061645100414,-32.106566030951434,23.98503783995223,-4.488362657436727,1.097863432544954,3.1516342237352126,2.8276925231493086,-59.86173872385758,5.36037443811646,2.0360329942237088,33.34178645157103,5.605165349871031,-0.6695397304830346,1.2174499124396179,-0.4976915462896322,-0.468137377144695,-0.6966056192860212,-1.5334802829678575,-0.3511304820967756,1.5530830673772078,-1.908549880068869,-0.6081210661694714,1.0610154175501572,-0.06531856145063052,0.03063836032271645,0.13973940339022323,-0.1262727662403643,-0.16563467607035093,0.1086217630668766,-0.04202999226679841,-0.0117357395474696
1.4835510411539712,-9.211546011051512,1.0806179875890614,-1.885339593061432,5.624548610683749,3.288920039527981,-16.82488057699337,-11.198472424259924,1.5443618869786027,-38.85768564465473,11.68732406840138,4.215836742362685,-32.46455840196557,24.245613318856577,-4.8003601894562005,1.0409525242665971,2.84896941906886,2.934657929924494,-52.096624544956114,6.485105909950681,-6.3674589251935485,32.48985037885741,-10.012944395685334,1.5489130157354583,4.044825891376571,0.44820016219195635,0.5880925777888792,0.031229282254334793,-4.454925519799245,0.3852528800826535,2.4353951027005523,-0.9886863696177433,0.7845627566055823,1.6052454484503331,-0.9883852030904093,-0.07919230742874,0.42051832159390107,0.08560368005567313,0.17058180656666266,0.113919453201276,-0.22015064067852155,-0.006497662361074998
3.496374383439024,-10.09079758503806,0.6728292203129178,-3.9579611964871755,5.5061247008543255,3.157921454253625,-21.421843562791054,-11.280356432717856,0.7973961742114676,-43.61874626722755,15.960761293803628,5.573845001658523,-33.11734444886269,24.739193789547798,-5.231981626243984,1.0975128881205762,2.900785609753288,2.8884213675552646,-69.87371364177311,25.172812619257478,-4.0300975659666305,33.21568227473579,-10.752579615184123,4.69176692658931,-0.345177869673682,4.311140683525517,0.389648707603376,3.1688606195703932,-0.005398755944932554,0.7521912550875166,1.1496827186026926,-1.0019025441525184,-0.2819822831017677,1.9398774160712946,0.3963715346612683,0.4162040950570784,0.19435683362533338,-0.22454759757613624,-0.18131533907344038,0.2909650164918962,0.0038132380051755545,0.07951514534734623
2.225623461136753,-12.884399940462732,0.8648129082370856,-3.1729581724618416,5.649444760762516,3.7552965649654837,-14.591484032382404,-23.04068764814574,0.34547473528048345,-38.53288732553476,6.796146064693161,6.4696955204571145,-34.60029664028168,25.97113649397177,-6.148087413652875,0.042809444790365137,2.966974064162826,2.9394801932523853,-43.890119566124596,-9.25758255353838,-1.2999037828414148,13.735424497783201,-15.656961908318182,-3.7280741947354676,9.572224845252885,-8.32931230148077,-1.7469689869373939,-0.8006541044872141,-5.718638165736906,-0.1571336334829346,2.1840198948379452,-2.845376042830466,0.07508578687658649,1.6110869894856346,-0.928727496433269,-0.3077096859620282,-0.03642795177835605,-0.10562919554096055,0.038878564075280245,0.1519362422062197,-0.1104724810548652,-0.023956489037967293
0.5331994794168654,-13.679085822852338,0.8502076759580082,-5.4679320725450555,4.762088916849589,3.05877081696278,-38.546071794791544,-9.80757573279529,0.4025261672087804,-47.75702860267207,14.564548181192501,4.995538714976561,-35.398578889558145,26.938910504840038,-6.960154576608746,-0.38234427610039706,2.7626422593945885,2.8708815362152387,-90.45113714284987,32.39428071315227,-10.435389754879614,24.038774449753877,-5.717601453371281,8.940598774473246,-2.9007903745808443,5.776503238646005,1.473053903711006,7.089860764566272,-2.663810062234449,1.9010469539254995,1.5996144804371424,-1.2296088942509003,0.14445654709183983,3.4939559304795798,-0.19286829955064655,0.4482641695013076,0.6148634766572708,-0.2842953393095398,0.036288734283603685,0.41239878442199907,-0.019738405308466458,0.15957788873108011
0.27898302135389547,-17.39196934608962,0.987821563063491,-1.3999984657089128,4.994969939880653,3.1266035886239174,-18.14509615038742,-25.83377314625926,1.5481369208888067,-33.64199040098872,17.128266361230313,7.811985826448086,-36.73838889319035,28.039309321028814,-8.112078675714796,-0.9895311940195862,2.290273736370371,2.726824099148273,-43.18043466518017,9.538877454892972,-0.33936634414983896,24.58699219453355,-16.178631165303006,7.635932740682894,2.6389054281151836,2.8654785743373594,0.07797919663428751,4.173637943232761,-0.8111336556812202,0.7273878926079514,0.8554255212821492,-0.21284426669988912,0.27319274860109494,2.65608345529116,-0.13249362899634518,0.34262988925831167,-0.11860180120840226,0.25863347152774374,0.06098217697956725,0.36672679069385716,-0.17348310676516732,0.061687498924028285
-2.267611474236248,-19.400453353861074,1.0194977459842105,-0.2667153673028723,3.092664955167033,3.174208781190922,-35.25855478197599,-20.256997006689538,0.12510024943239034,-32.45700052189251,5.210944205704336,5.084773742752657,-38.31713000718473,28.377013024599364,-9.028917156834122,-1.9475647275539874,2.2036701578924096,2.852647395092014,-58.91334664079327,13.80526846576819,-10.99505379334092,10.855239538402486,-21.187181416661435,5.860550814094727,2.4816942161663333,2.4867303139787245,0.3227616465227342,1.7996118603334224,-5.392977428516972,0.5998328919783305,0.9347682638884488,-0.5504475187729203,0.49618185787600494,1.270394930195916,-0.8016091322486772,-0.5219112929033216,-0.06412665012435464,0.006483929641207168,0.03637019520912638,-0.06669334647072721,-0.10270002073816609,-0.13387488149354523
-5.492732177775466,-18.63587017769955,0.8414738143637955,0.885847348885307,4.592008303406255,2.931198699873603,-39.85647358033156,-20.83319871828396,1.1730727367133307,-33.604625076844904,17.67940855547618,6.695963601471624,-39.25482009091379,28.535559618700354,-9.696815265578293,-2.1785723008516147,1.7521130151563837,2.7904343674781646,-62.39236344952275,31.29354427487926,-7.202389352749429,20.07928790818346,-4.020579896886846,11.077968745286006,-1.291255723549874,6.27339408029027,1.9638429053156767,4.484122091282466,-0.5490091761737249,0.6168020994769795,1.296666104135142,0.5250986377559749,0.8236640356309429,3.851951110600426,0.3077667083848508,0.6148047283285831,0.30232630581996345,0.3091197800359008,0.2254477312123258,0.6473508210094643,0.0077093045619507135,0.19695566237362588
-5.5646869638409395,-23.56481714043458,1.4487867781928705,5.145690916970895,5.845947113599782,3.5350864942815776,-45.30538538167622,-28.59864814948889,0.753516726332906,-35.18166715581474,17.05921134089233,8.879894324211309,-40.17200905556431,28.71742845534466,-10.689387457383418,-1.855078892438232,1.6005078674186077,2.9994663167114446,-78.09846178579713,23.596213577262873,-7.323175002696433,9.211783703999167,-30.157169800829404,16.14775234013308,6.015724094430615,1.7349938911835117,-0.3443360945782726,9.559839684019058,-1.9174186233406285,2.321271796466228,2.075593542489802,-2.1425975807595687,0.38100622506239223,4.157289276725164,-0.08273087712406188,0.3760677841287097,0.20900389425694396,-0.39799118344223444,-0.08023164598995099,0.4819892787389393,-0.11911359853519657,0.07874493131693543
-5.926656922386097,-20.972002944230983,0.7460810297267186,6.179681256476753,6.758237292509605,3.2377673541510616,-36.84826606068175,-26.953171263742078,2.307723798105782,-33.182616259696616,23.856738948612456,9.434899911907328,-40.51631116068101,28.53131000462595,-10.988342377652197,-1.5437462758292217,1.0124322748097019,2.8665826654064306,-60.69904823344566,33.554717386288786,-2.6737639682178793,27.35423795583228,-8.343538316092697,11.024267455143137,-0.11090505491728472,5.149245311990365,1.1108182193114717,8.528629488831424,-2.456461424086005,2.2239168305031267,0.5550424363973064,0.7928672212275947,0.7363147369845654,3.805582645273375,-0.062372025193834134,0.18635543800961693,-0.017167911028903027,0.3703396687725047,0.1967403889725618,0.4709475108425279,-0.10667397804693685,0.03217828411962173
-11.934390362254636,-23.39991127248828,1.5189726446206033,10.121313729514716,5.804188365332195,3.0911671288113087,-52.232670694703536,-36.03289609265398,1.2447255189798248,-29.636149683732114,15.57257352231333,6.520707797948108,-41.405658145859796,28.970524422737377,-11.80920451180209,-0.7388805475578382,1.205208428844722,2.803597109748525,-72.753211397058,19.289475652450708,-13.487569835765074,3.328605998919059,-9.404282673675851,17.420150492979595,-0.378661292117411,6.792953703144426,1.5787816845541536,6.066411968352196,-3.800184421090195,1.3274533174807728,1.1661125286934502,-0.011045952499765976,0.6772343973546257,2.0902727910712313,-0.4444356664927041,-0.26724466419531734,0.1004141085511849,0.1648499003937873,0.1267964650369043,-0.026869292374514187,-0.08285137989457436,-0.06507583743324305
-15.247436227912765,-20.050027741668252,0.895228705007983,13.933534592680962,4.447265739808805,3.0896051070681194,-54.260237773185544,-31.16823080648341,2.840054875619073,-29.765603234633097,6.739313056855462,2.8244100537229273,-44.19648419029532,29.97807061134824,-12.443710123146289,-0.6455382562379166,1.538860712674658,2.8689637399945895,-71.9030729864895,8.555752493538861,-15.09978535950047,30.189766070160708,-26.671269813903468,22.387047823363595,2.07889402843459,13.747481975144776,3.1884626856655833,10.029552660283029,-2.9314580690626975,2.0604576990323875,2.637399660575703,1.0231729680153854,2.2671735697029645,5.777920885692661,0.23215461032622897,0.45521191067595795,0.5155071323919344,0.24677718912322402,0.33407000003305504,0.8103706968910845,-0.02853183336459633,0.19989248423152264
-19.73947902813025,-16.45131989023324,-0.16212640140633666,21.502830039410657,8.342995087606075,3.2245893529679193,-54.4300527186341,-25.518577586069473,0.11799406939367338,-21.47214772617584,26.813535483128895,13.242120134236458,-50.28230977240264,32.22719162032572,-13.119006966041647,0.3286688686703956,1.4741603328916741,2.8762869334874144,-70.2335455238417,50.9974259481033,-6.754751248051882,33.98463778868657,-34.76245793178065,12.227526235638353,-4.171361693258412,6.0545472478738915,1.357325475190864,0.46988069915750486,-2.0649358336096584,-0.20278997721735814,0.06588849016492719,-0.22026949744816046,-0.11067030352004152,2.1538521570275884,0.22619257354594105,0.12388543154570125,0.11536915664772007,-0.0020898616047350764,0.03628635494592616,0.24642512920417528,-0.07825255956878398,-0.025663570439266637
-28.265600367605245,-11.457067504493514,-0.31028761324272375,19.466856114124237,8.634386815824309,2.8569879786689896,-54.620193338128935,-24.189316770277728,3.4047996276709833,-24.989165135066575,17.974681532196275,4.947346933394437,-59.75578343818055,37.81270803670304,-14.3148620781351,0.688460563305398,1.4295548270117384,2.8379903423253796,-68.77731613828531,35.61361691779303,-11.504428255387438,13.626350731834414,-14.13492864064624,8.134544672946326,0.3663095128817889,5.991522709102588,1.108277109040153,1.043872810413243,-1.6061985284739975,0.6311334517741504,0.33019406637072474,0.8622645560372794,1.1701282397452561,2.750932731995102,1.3441671332544614,0.9482929855784799,-0.1725365240318569,0.27600843150766297,0.27350777768920126,0.4038436060001223,0.09601413795116363,0.10430196480757845
-38.95531535169411,-0.4189435750901779,-2.082455312121295,32.34665809591226,8.64377740078261,3.2910327496182954,-54.66683194577544,-18.10521538196761,1.6044366052579973,-22.144466606689676,13.866542151586154,3.6130890639341398,-72.76550864268373,45.81688934055538,-15.312012878861614,0.9330484222394801,1.924833029570396,3.126347357307317,-73.44742652863917,30.79956886912613,-13.039227185803338,32.47352846090123,-32.8313889135236,14.948279284297723,-4.363422750064533,11.928555212998758,5.045259886239586,1.3460483587577552,-3.6530287778145825,-1.1055556349963374,3.1686320537942754,-0.19838442077670937,1.36085826724364,2.2270081656821783,-0.637716891353872,-0.5604772556393655,0.46116422990178374,0.1120284232922023,0.20031363991176632,0.07118213987740533,-0.12565504597610458,-0.04045123648977128
-46.97173981622539,10.562405867817148,-3.4409435135778406,33.19504861486681,12.151229861360086,3.140774962924855,-53.737650533108756,-7.242430005090099,1.202256971257053,-16.32454389785919,28.311124166092164,12.19584698917259,-86.70237547833999,53.30793128407734,-15.94809026117435,1.4965358261333914,2.1489485367269587,3.103314875117415,-59.21855664066668,63.15167377305813,-0.6692877552743222,25.391740356741444,-8.161610836569139,2.1647719204790357,2.8740302937395206,2.7568271223926217,-1.0527564334653408,0.5183706335727889,-2.205888029545315,-0.5794425707725219,2.7547915452148186,-1.52468150951443,-0.44584963130104494,2.7697432580501147,0.567112307746512,0.2634296713642549,0.45890905040068813,-0.013426612410041573,-0.06883534927864846,0.40879741787839113,-0.07818980899143183,-0.06240247849195771
-47.98632326485989,14.984990122090615,-3.212652327263948,39.566161699185926,9.261352739764094,2.848285247906611,-36.76718548496326,-17.93990543313443,3.077011419597923,-14.25812477600186,6.312120166719086,-3.1378747497085935,-95.44432925929571,56.44290725884236,-15.814590506486027,2.1753383217018554,2.3045526783539296,2.788673550185855,-45.84652331847216,15.615573237206139,-10.225063023703976,10.698295926606422,-17.75036436053162,-9.09570401754289,6.736997291852189,-1.5425993441266157,-2.663608361693342,-3.107673903116169,-0.9175618715044012,-0.6294154000342967,3.402742678955549,-2.691181281375362,-0.6569748802963089,1.215786115944244,0.6248233791810602,1.0358397919473037,0.5812926242111525,-0.3650193294909125,-0.14438053137857768,0.20863136652183537,-0.031318056211756276,0.1384939485805683
-33.29054641038909,18.14279871767031,-3.5524022739640833,40.224616884927954,10.295177293179089,2.8937102434489606,12.665858209956825,-21.768879440351398,5.397919067147134,-18.40794666687512,14.87898336875718,3.6894433422978006,-92.3386342479634,51.131101889877364,-13.145813369053595,2.259035472736162,2.6508910096981064,2.9146323904276796,6.961002157495891,20.432722170185823,18.198045098411512,7.004213771006018,-20.4320444624784,-19.539994379424083,6.839337537637741,0.04378613173741158,-3.253075595565038,-3.923881223305816,-7.99983317698776,-4.365731265558609,3.188343823851459,-1.9620177169853303,-0.6633207723056617,0.6664128101216003,-1.770025989470411,-2.691093254170994,0.10128625732865104,-0.14763269759527783,-0.1399769740098697,-0.12687842112795925,-0.5005659932229682,-0.7829594331598559
-9.724322663704651,13.451773138559792,-3.609164401512925,44.00325108169278,8.86595655278421,3.159601711583619,39.00673609354427,2.0707680695523067,0.6354857900074107,-5.1489169101909145,12.551978280402466,3.84380245927667,-73.26835684052726,37.44323708456983,-8.90267081711217,2.2943181452177894,3.100455831911701,2.984775847004426,38.196290374626145,11.872505860941553,17.358572587608265,48.248638765032375,-23.08207834097978,0.27954428180260105,0.6725297051392333,6.043344718993288,0.5287161481670134,5.429732820704913,3.5582238341105863,4.313468142610233,2.6203621506828116,0.16615513207779692,0.44566951797292215,3.7523003738500176,2.8670078407405466,3.681077663229251,0.40103855548205547,0.2536659479155337,0.18706656661874438,0.3717782939863254,0.5855389585791771,0.9951527781763859
14.559119327678513,11.987266272382737,-7.916470489497593,48.65985621206889,9.107713937203325,2.944874210406165,54.85992996350402,34.14460198998148,-4.616399014740223,7.66048924668495,16.231242477003438,4.492964838001348,-37.843268062105864,19.216819126358782,-3.2957084523753353,2.441022960538658,2.9513003207997874,3.0477053317647087,65.34702254858689,33.59276621990794,10.768053308711952,22.31621386399476,16.09579099387205,-17.485453797586192,10.832453934674003,-5.013415075940285,-4.363673488156662,-3.237255600965965,-6.6536950895991955,-4.244122295294398,4.5026448798556515,-2.5744655396003404,-1.121658197496264,1.3185288351214892,-1.6238805356899142,-2.1809714468161445,0.39492170428541656,-0.38902195650865995,-0.25599290366378075,0.25984839957003125,-0.4745370048458119,-0.5106025610588172
5.183116126138976,16.42800147055737,-12.539329623431511,50.10625205040978,12.316207373622694,2.544255649672615,65.49533009619016,40.00808547948704,1.3235627698854426,14.522535563227631,40.87570110001656,13.628555246032136,-11.062052690016204,8.25694952441636,-0.589109415916017,1.7184374705112888,3.112658193660039,3.314140639951282,89.43090813242615,39.66507524822798,31.70151161675352,14.925455328446715,6.40118405579899,-5.383021169604528,4.618434889631974,4.977164940973049,-2.796075178721183,5.85474147565969,-6.052740109614009,0.2244751586537437,5.014618091159124,-1.2066372137967138,-0.971363468476695,4.0718493832070095,-0.31345144329866,-0.7899999604472089,0.7617984512698986,-0.06884855329111923,-0.17263132850096097,0.5210491572092842,-0.21540806016074557,-0.19983290551951366
5.725339686028457,6.8178454760898415,-9.96827352569642,54.22398075590945,16.435406292791157,2.060240193090181,72.12703131909275,-12.592485624281437,-7.177891738789506,42.64974999427157,49.051961951447645,17.869786465001955,3.3193138295702598,0.1999799236593645,-0.335507907347951,2.0354772180713843,3.4210015081854324,3.211431143853732,118.65922883165945,-18.99480877100743,9.460928916771946,4.399743835249188,-7.617168012781227,-3.143153105274572,10.30772024141265,3.10636089386769,-5.644802817645954,5.033193634585598,-5.204773910491328,1.5905702651523768,5.066166267367751,-0.9122328803221953,-0.8400636055375861,1.629504100787289,0.24654226136922774,-0.17312101555055612,0.7523331759543816,-0.16592869040133315,-0.27328693145926064,-0.10287287573893389,0.14762781148822693,0.11221664900874326
-6.2968530850262745,1.316717433225471,-0.8957475700660547,52.87290935279657,13.317537512458008,2.489575692522781,39.3787302865581,-13.48580602144156,-0.4752082685217259,11.910774110948601,26.34274904185846,2.5774816651386887,1.54430979110683,-0.9335975090116515,-0.28794384269211853,2.3054768971613537,4.584494892092562,3.3835032677473182,47.99313392075598,-40.07810345200931,-1.9038634941144916,-2.749975315802126,8.32062746942029,-11.584632817393656,1.7423189754993935,-7.132620592181685,-2.4015174934757173,5.684550369485966,-7.505362073700864,0.689092444123693,1.5987110497477066,-2.82968038381118,-3.4983562423520302,3.3698840914950576,-0.3077110535720329,-0.5823384368547501,0.05011324416787948,-0.22739621951586483,-0.3962671783600095,0.5008816987650244,-0.0782030793810733,0.11887564922704462
-19.865260004624737,12.132672540866514,-7.519228818284854,62.31813844505826,11.617269734171222,4.020288205549717,26.97428842677929,2.8908125227261747,-1.0372102272396067,27.705340440983566,15.321046682157219,1.4425548716755723,0.678713240461898,1.2508779075109526,-0.05956055248449783,1.4066923642972227,6.02256774013126,3.559719167318814,45.78468658634541,-51.76919361683501,-19.314952965765784,26.862063850161043,41.85224691939229,-15.365677211119023,6.611332691767795,1.9367733605274586,-4.177956376751733,9.487240076337272,-9.767105882265636,0.31246526892065896,1.895501081451906,-0.02901947656035827,0.01806124834224515,4.839909588652442,-0.9222462261307101,-1.858706336059539,0.21934592620583312,0.018237523387194556,0.016911470158138136,0.6179433566197672,-0.27106270379527836,-0.18302378968501334
-2.5350085241132243,1.8249264786991932,-2.495780401066093,57.65230535991333,17.701701003868124,3.9556781778267984,44.000507389300424,-8.832022130501322,3.172898544210005,24.891332846322808,19.326058399149538,5.680074636955982,1.5689017971628674,-1.1758405177966045,-0.5352428799699819,2.505939872624393,7.147169118782505,3.858347359352531,81.76175597128187,-39.83501194555777,7.703586296662128,1.0939716020512766,26.995108753088353,3.494924307918855,5.122504971096605,-0.33970889168198637,-4.212113554917325,9.241432569104788,-13.021551458792858,-0.5728030457750419,3.203471615751498,-1.5756703266011718,-2.388345115859587,4.081263955747264,-1.1843343283791308,-2.991607213831857,0.2857275942512747,-0.21479898112183785,-0.5023060148192241,0.5933783006227522,-0.2926677419216057,-0.4152953448878863
-17.983661190479076,4.331093943551421,1.9814034023113922,63.23787690519026,18.01254739966301,4.380198133337708,33.792965485996646,-10.265052887151992,-5.550854017541686,61.06964751631599,14.252446158030882,1.689685696941413,0.6621942717618429,-0.08952967086429607,-0.19465584678028935,1.4767220865966306,7.502964260352185,3.805248061884769,96.14010673031272,-53.466470775248695,-43.92832366674575,47.941323181466345,14.700442692247154,22.890233712882,-9.437070649572153,2.3517825984155625,6.364966429674414,7.8676017235775655,-5.715267544950592,1.226685700626393,0.787986654183129,-0.5189258218265805,-0.8845400789412609,3.45532177806249,0.1226942766173291,-0.8182408223409134,0.18248254082175716,0.05383896157745637,0.02222986058367861,0.19422984248188113,-0.016264476348586337,-0.1421311211114002
-4.542058917596814,16.895110504421417,-8.362307771272535,64.62108956033832,20.248369536923782,4.785315275296673,-2.4649653832668568,18.287519115889317,46.78394694142842,54.38800961319425,10.658680175508605,3.366399029358666,1.0625177877759913,1.561095876528095,1.0639349228122665,1.1051647035621184,7.75858209268803,3.987414813934332,51.56978802378086,5.219733007378382,33.158013242819926,10.691555467286776,37.909927066086944,-5.998985298502636,-1.0403613525308477,5.55925599882622,1.3204547358542547,4.607803689981241,-6.72808780489155,-0.6993592182620011,2.6895913459538017,0.02461336374715494,-0.48311117412296434,1.9563182895773261,-0.2878729804313388,-1.424439841292548,0.4003176339339655,0.07442247076789743,-0.15928156495021623,0.28130527596528665,-0.048781211344481316,-0.10569781368382937
-22.51667660932869,-9.017875312581506,6.46817918978766,71.2507118868837,18.141521689095367,4.732456143076279,9.298033693964301,-17.528482313993045,-31.801185204365932,83.42959575021526,12.381698398195011,2.392067141255548,0.4733917056311365,-1.3107938273741253,-1.4788793630036683,1.2449310804070348,6.860188474533519,3.3551098244796878,95.15526339990139,-39.37809011991818,-62.45362643551835,12.47348183393995,28.241291909671826,13.054693465445354,-9.591298087888187,3.6470883818857827,6.024617543602326,4.1587759701691835,-7.668193551988763,-2.9852108071861765,-1.3602978556389098,-0.08368809569011301,0.30817700122435726,2.2687400096247514,-0.689079218331233,-2.41137883817571,-0.23130673794702608,-0.03629722293677073,0.16297288082792039,0.1502225810372925,-0.13872587561049354,-0.5055480112124731
-0.4087452636375004,10.267823181984406,-1.1297559730770068,74.86834102230769,19.271374461035013,4.425356211011775,24.630927870936013,6.860563037909657,1.5698769836545665,73.23708914520559,12.361221465630615,1.4864647841977137,1.9213058014914006,0.8103325040840881,0.3579899523522848,2.520358173559781,6.642222926636516,3.6864502941946133,91.73834349048296,3.823350279028353,-22.82174018942098,14.59651451191283,43.7592190376521,21.70786389589876,-14.013239745348173,3.9692839436580507,11.760124250629772,-0.9741572336046305,-3.9196469254430584,-3.4810009551406913,0.44022487661580934,0.20392477116075833,0.1107463655219024,0.6829925710165369,-0.0678017382237009,-0.3637865516739248,0.05799858777963564,0.09745391883288011,0.1267065056831008,-0.01820867193934236,0.012663312350279676,-5.4709572775198806e-05
-0.7332796143426237,8.90936223605672,1.8185610802154748,76.20138338638687,21.68146965977817,2.8022277161082823,-14.75773968671487,-4.373659634475388,29.18138517114692,72.29002416627569,21.741535379194513,1.0476599290960857,1.3958973766133156,0.19539983153021065,1.0192354135118493,3.324725660797964,5.609719139020602,3.7126605150325966,42.28506520997072,17.422589958093095,16.588521724338,67.66656014933416,10.563683350960515,19.814975926380562,-9.739613680578108,9.754744553991731,12.103379896787622,-7.539935819974741,-1.3499175581070577,-8.672596827599543,2.763940063370887,0.9177618751588085,3.0042748263808394,-0.7196450237276897,-0.019176199705455317,-1.3345980534033925,0.654033514729768,0.11384852533457676,0.7429487171387954,-6.97897231278985e-05,0.029253386169166794,-0.5549991628763071
-9.730241220515511,7.483444278367045,5.5552357784728,84.21982927123281,17.958813450644136,3.6296128839294433,-58.57790477131212,-3.3265611999660076,26.589190411330662,86.07392393430426,13.19489392288483,6.945179395191971,0.5181441088767166,-0.3087609625104366,1.9160412166026963,5.324437222013981,4.3239492271245625,3.360236763167027,36.62436227865624,-9.565255607995498,54.52366520238469,17.621959350681998,51.13284483496082,-27.247346024475505,-0.8172843592596704,13.589810286719937,4.563533091522236,-18.155892529395658,-2.3433717811976864,-19.442169894224428,4.1628712932843035,1.5422045018331996,3.327697006211606,-2.349660154827085,-0.5046968558201743,-2.252405326752105,0.7083287038392332,0.167746034934206,0.5095262139089936,0.11969298517203324,-0.14574182993101467,-0.5400416319718432
20.49525021790399,2.9250560699306556,0.3442845825444839,95.25222310976636,9.867400079509725,4.399521838792411,-110.86837571963667,30.768537485841062,-19.60072206632858,117.74779681971182,0.9418343956051684,0.1950695549907785,0.5887693824857698,0.6128334933306648,-0.4321744869192285,7.011800228320318,2.7175256416415516,2.613556682742286,9.295413937775388,25.00031737726159,4.89902432501407,18.870093070906265,38.65711934109171,-32.637107164557904,-9.36383015748483,7.1120941586656805,8.817231910572815,-16.691214877215774,-6.901144519907515,-21.690745582574042,2.628538676500507,0.48832916313863833,0.20535169598731295,-3.792352136846154,-0.44698945819570557,-5.586349516887167,0.23598300199274147,0.09983661175483557,0.06381360422829052,-0.3795792289633859,0.20197980172012306,-0.9362348133459027
-36.43471370172479,6.332558968334149,8.013225765434504,92.7678619561831,14.655996477520983,1.7164210251298435,-155.64296376558775,-2.961993706782953,9.097044010157338,92.10359726055258,14.20878418646384,4.491354878770611,-3.418660795205073,-0.1381058194049763,0.8440311421447421,9.445924120067609,1.342943175178897,2.9956635999956913,-71.49059475085394,20.811983812798648,54.39103425773477,41.8384238040214,3.2251335199582254,-24.18122057089764,0.46004572088468737,11.210100921818768,0.06994774252254729,-18.749972994763745,5.153450979305696,-17.071053103716373,4.840795788592465,1.2072368351887401,0.7093953303185975,-3.751642414007174,0.8666983125075062,-1.8277650617342662,0.47238510016122875,0.11022535168830085,-0.05682194407862192,-0.1211066217486947,0.1372721637552196,-0.33172953007296546
-102.4597145797102,-11.828989221837423,-11.118338575591025,96.13984550518252,10.750384196562539,1.0980035052409058,-149.29592752634878,9.202545749344145,-45.249688182163425,88.47910688816529,42.55616523106566,5.775208646293282,-6.9889557211967395,-1.1388692053831069,0.6095209870492627,10.85573229056055,-0.8302594435994091,2.548039300359867,-94.64842712432878,85.08753519840052,-58.42708756175745,39.73209817280664,-8.274111888832632,-60.32222359794777,1.4754337113312135,18.667708145828396,-0.10547399397202034,-22.316098898521204,3.9226422743922296,-17.620424816930647,8.249300585202292,3.21600406226435,3.4169266336720288,-4.80289139448394,1.8836415751463753,-0.6401551758804715,1.2758280808962348,0.41483635795799145,0.9689423809680743,-0.4120536549188165,0.19608817296369593,-0.5935881656398582
-30.288416236157765,-15.167822702799592,-28.96746860797555,102.23665838238247,16.47801750085517,-3.052854722797785,93.17112002328656,17.119251252672345,-63.21008167529457,78.3146813829597,50.61091922445056,-4.718833909502582,-0.04182517296684837,1.354793671614071,-2.6127860373939136,13.856246307631245,-2.6103807618530155,2.173092192993181,110.11993325221145,46.79195498613676,-150.61113123859792,57.5964743252764,18.440838129529443,-50.6134536892174,4.3843500646607385,15.012082574486975,-14.163265438878183,-9.247174674559602,-5.265670919123376,-9.107862057960723,3.8624371968929645,1.5035337667795743,-2.0768035706875034,0.34606768479216243,0.4045068890486928,0.3461893474670477,0.1412088577411505,0.16493776423754786,-0.49244692161368986,0.08862181422140739,0.08918358110625346,0.24045980424155353
13.919696659925982,0.6785049670952539,-0.24799805565020588,109.25455213535348,22.895603530814874,-4.097341924494344,85.68567384075011,8.939742938897517,-7.784656858781856,81.99709096742076,61.258483612406565,2.3955107229910455,2.765729336763784,0.39357512314113,0.10420611412004627,15.249431760342983,-3.609100552295338,1.9381825504168027,137.1458406023018,33.73263880604263,-20.745721626949255,-2.9138468906138275,28.27222064183503,-60.972343952581774,13.983778579972627,7.135775786756472,-30.330166087173573,3.1967462288220343,-4.0180241200377464,1.993721228530624,0.9958970887845944,-0.31766172928043573,-5.493731089596051,2.2239400992311786,-1.1081260746918429,0.8785528064094159,-0.4199849562754213,-0.09809778177642028,-1.150233886647303,0.2743178911386655,-0.3791565111818198,-0.09240463301707255
-5.316488824708362,-0.9421791312303365,-1.09725209248719,105.85416524633341,14.261997741143952,0.334585110394801,43.57461394549111,5.625357613640877,-5.796769346512565,69.22798058956599,10.282376696820656,-7.467015294574954,1.1375511938513219,-0.22505096024488283,0.38446179786921564,15.08978367310186,-2.876883346418233,1.6766426658485212,50.32616780824092,-8.424421948319344,-42.16506958647419,65.49036441053325,11.662395979007742,-7.59826734121174,7.001509356643241,-2.657844917014622,-15.845500335836023,14.150267745013469,-17.59574971733454,13.88632864711278,-1.914374504609111,-1.6597026560910328,-2.3110545574892747,8.95477686329347,-4.690127158040907,4.419259293321296,-0.5181683628938373,-0.34107304467174454,-0.39147006858535865,0.8978384662555631,-0.8850255753344325,1.0464601111642986
-2.4692535623076854,-1.0594168338279413,-2.723525049633254,93.99447882868232,14.365477616471782,3.6275088574525105,27.284071692095274,10.305438924417853,-23.931828755246357,71.30864757626878,-5.26004367699873,4.6645435429748225,0.43239453543143186,0.00629301908434236,0.46229003826490955,12.360516518790247,-1.554014588234519,2.4521275607186666,68.29268303419839,-13.682555759998726,-46.482779876331904,-40.49011994177854,7.9548114437474196,6.621592359223504,10.085167331774855,-2.442629511216748,-28.912926544020113,24.625114841628598,-20.216375234382905,23.878310297970238,-0.333198933688746,-0.7850961131328539,-10.514210265822033,9.614453714865125,-6.924754553778231,4.030652848533826,-1.0617806706226816,0.04481799562612755,-1.6191674293257876,0.7543548179714502,-1.173003207389364,0.5126040855337839
-38.52010297725383,0.3326670141944835,6.072316200440937,95.26596109618576,10.998708262468831,6.181943295629147,-15.683061938140563,-9.941441891475463,32.68008045378569,92.43269648375477,-28.668066126285815,5.293287417917332,-1.8369831005306148,0.039480861255069465,0.3526655383204028,9.885345781911232,-2.1400859756037294,2.029175338180059,40.290696548938946,-82.36238166224919,9.339671663622545,-28.03527415395845,22.477375232581473,26.82321323758489,-0.3163869453644293,-0.8858365984031199,-1.547357263138882,17.226671182240146,-12.749543182616607,18.34532127541583,0.7313286431124111,-0.21248428930170574,-4.034656713481927,8.513736467925066,-4.293994863922728,6.654669309514853,0.1484201802671737,0.11932165135559512,-0.22725451903460908,0.6983604804327497,-0.9175110387857123,1.2158631743726904
-44.12599822701359,-5.4439902062473955,-14.117900814873142,88.9620883899596,18.276979354417247,1.8415210057098563,-13.145589972954394,-3.3675583713338946,-31.280628300085407,125.26421754081935,15.66397683599257,-3.786929178313381,-2.9904641586483685,-0.33070905693380964,-0.7897723969599287,6.645278231105391,-3.702375075507783,1.815817421228883,121.22366983695309,-27.05578467158097,-71.01105899773651,-20.59234766739777,0.5022853116411445,26.58610420788262,0.24548952679079458,2.927236626013554,2.308051904808152,12.233138412376707,-11.804369261465265,17.62464511058957,2.3330709426407292,0.5108262334549594,-1.1885346609542753,7.019371809243364,-1.1442558161698524,7.664170711737173,0.47241470867711577,0.07939790996219966,0.16993890142968712,0.4343388552725129,0.15849438482006326,1.5215829828175198
-37.54365098263874,-0.1530260683591077,1.2100368925331482,82.70036835191948,19.103747139844177,1.7697161125170504,-2.890745277594788,-0.3896405908255409,-18.79032198309336,144.7768452533433,37.386649491894346,5.199235596030722,-3.3025515275998543,-0.8297980154204184,0.7098125348830733,4.829272492070475,-4.95334390437076,2.156212910162503,174.61947702136737,1.9445325257155484,-51.81541314695891,39.963944421780454,41.12385806826552,22.852563612924094,-0.1274134915539082,5.411181239061632,2.386357442530275,6.604395781323819,-10.517377446674402,9.375512418140099,3.512635386551679,0.8326142864913807,-4.815279164320596,6.14508588153816,-3.633035532751946,6.0604771199988665,0.45656355611980814,0.24385923751684307,-0.7805693974256664,0.603247972122196,-0.9228175637460432,1.2827601981416696
-38.2897529433574,3.5718455472618493,4.152634683293256,73.74864139707311,10.793649285498617,2.7687268206165285,-9.32952886504013,3.1320977063610345,0.20672355475114446,70.79028467845005,15.750253593030788,4.193218646864484,-1.8958284725726653,-0.025897341064428005,1.5266076371084227,4.189618889060645,-5.252856861695745,1.7681102529068098,61.92380807409125,-18.881757673886685,-17.73153561696214,-19.69218902026518,51.38571522116065,14.261117226008126,1.3488675566579784,8.679124291811847,4.5218065029377295,3.9638636551679123,-1.9698858669506654,5.932305615190013,4.479748283935163,1.3335136873608164,-2.687576678071068,2.7807321648577172,0.4592457417306038,3.9241635300768203,0.7850627027032117,0.2705115119588388,-0.5655522426143089,0.24355291994330674,0.07879883705019076,0.6931040356518
-24.23786787860523,-5.725307957929552,-7.390527435144608,62.91411422759406,12.936860708788593,1.727409351865534,9.568761349956945,-2.782412100447155,-28.773174163195407,47.77219779846988,41.219492208352285,9.32706638472745,0.7552111510005941,0.39735155937042,-0.5342637348639313,3.675025027540859,-5.353052291581564,2.1904266664228955,60.95130593054146,4.0640343854331515,-32.84469896500262,50.14396591259879,-31.743746943341172,39.92241791186543,-5.336802787170367,15.032204420437518,22.256511307711776,-1.546796947874474,-5.127292212095156,-0.5719204902464412,3.389918859905113,1.8074403730564688,1.6364892034321514,1.7827240306594399,-1.1742521239273995,0.8613517858191359,0.5276330823926769,0.190857589936657,0.18062971846098502,0.19949873766444143,-0.28342805641099456,-0.010713220905767564
-16.669220881423513,11.031155921973214,4.666918262047874,65.45230003010359,9.45689195324239,2.4567066361118757,-6.2572891901720995,4.9791596432942935,10.660119594115736,64.56964245100228,23.19391769642146,4.815860037330787,1.9136274462830067,0.9973245946934762,0.9900287272591153,3.112332193123565,-5.8826129043651845,1.9391752207305744,49.17665419819768,9.193851398842432,-6.737238154909204,6.759168793377441,8.628729143078127,13.833882800439303,-0.6203327588681812,7.797743749355686,6.951627930889947,4.266861419869692,-3.7261845252535966,2.851762719257535,1.839745933494717,0.4367154336463781,0.27201540596920726,1.8431022090987945,-1.4888553213040363,0.4124524771845813,0.31597161478401836,0.01809883470156552,-0.1640007994873001,0.18239971974270622,-0.32368069903099406,-0.11998244809880838
-6.638689247545403,-0.34427097088543224,0.1332019397198551,57.413542781750465,14.451425971529195,1.2974156391204632,67.70388036301927,-14.657015665834669,1.6910074627405831,68.82444776520568,60.69483095120969,10.761393036033125,2.955779602312435,0.17769231722029996,0.30132058512636406,1.6104363665887196,-5.589285339758217,2.041883603771098,151.18198764934024,24.475555051354085,9.207122432808884,23.534587779621795,-8.285203935738103,-12.748870411906696,4.965331289156507,11.167020916573785,0.6782288115541966,-8.80381332086801,-2.053189243884533,-7.785072995879481,4.962675904347936,0.8598736960778272,-2.206030963748796,0.05839402243430063,-1.0630245072610367,-0.5015751143833035,0.44722776149056376,0.11761365401793089,-0.4198697307422984,-0.0028706662074055424,-0.2600060389943561,-0.04358602646584735
5.104655027632611,10.220645387778184,-1.0274702756799452,56.773160876652256,12.013230679651286,3.0617174224666184,33.69785273871572,-5.816650632726381,-21.80532330821186,77.18948513879317,31.55190991431686,8.370095000448636,3.4855333508601296,1.452664758439324,1.296245170409456,0.15671376113447594,-4.904998559143961,2.341109614583891,115.10060946749384,-9.412834412980018,-37.71234908743154,30.75022612399032,-2.8825117978557766,-5.411593465459774,5.2079766233051705,10.137705277009363,0.709320414000466,-2.083711966228078,0.8301950010493429,-0.9754983911955091,2.6723160730542124,1.395524486738955,4.441077982886733,0.0919635054101455,0.8061024268827055,0.7258661408240246,0.4592607993820816,0.1156481113255705,0.825663621468314,0.04208528960585338,0.08070964662145913,-0.053545811451782506
22.477777541920535,10.565993031803048,-7.159288619827824,48.24454689875435,6.963864034230021,4.284184144519765,92.87823620946476,15.081618639179775,47.60933527352478,42.85888786055786,0.34350533836105934,2.682137751878047,4.765063881485945,-0.12628517726865446,-0.36014093860407714,-1.0551381344492392,-4.316350353133579,2.308581900977939,156.1294296295135,-34.64412898081331,69.41470731265814,26.166025279506393,-16.39706657880082,16.331850816121907,-0.4183071762810619,6.24269055737068,6.624764456999041,-3.2516426433397037,-4.035872501202837,-3.1371327947335423,1.434053516206403,-0.041434904946456914,0.43988110386064433,-0.02432659022537162,-0.7832686856390768,-1.2931262669398056,0.037505760987337225,-0.08111237009419246,-0.06457754217658224,-0.005512152507431882,-0.12288766278029432,-0.23545975595973645
30.79545904345811,2.6364689944712567,-6.932220186529668,47.471898291688184,13.919352457667017,4.030351732305262,48.62527294774178,10.833259506471341,15.6628308503688,52.16561271063581,31.87733189943807,8.350544774595395,5.595275808367536,-0.8595530431429395,-0.3189803140804066,-2.1376730752942343,-3.5181643278462684,2.8569432923802918,97.26992857882753,21.95781569610849,13.488504753219932,38.73071729128655,9.620005553608445,-37.34286485917652,4.7250765665916346,4.812332646563783,-7.442220493819856,-7.8906144807174945,-4.3725410364922865,-8.237055677724642,2.3042363739230813,-0.49455880698633037,-2.5009010855069347,-0.010651324939860665,-1.4798807920424193,-2.8100266646415806,0.20676668849961738,-0.04824453919573684,-0.43468756708666356,-0.09434672828839367,-0.2549572472747578,-0.8722287322438502
6.6123567426099825,8.846642042930755,-9.555520889601787,42.91857302670084,16.976384557963133,4.177573149910818,57.85032076905729,-3.7586867679677525,2.461681836144336,28.445103740018464,41.07997683413609,10.687982006131168,2.248245035085749,0.7660029758851716,-0.15746037795792436,-2.9072545307821027,-2.552458014806318,3.1098804236502215,80.23301876675283,-14.905855564574342,4.833710046647754,54.11089491813697,-31.899989869728433,10.265086087301267,-0.5744622328424547,6.53452155342252,10.777992147422434,-1.962738900421269,-5.516340250781084,-1.613573749793522,0.6765442560715386,0.7252076471733769,5.543371408252641,0.6183162350756921,-0.19112761258330263,-0.8172223610214723,0.14434119394762807,-0.04071043352053412,1.0371310266826315,-0.023219202520784434,0.17813520778355138,0.06854616381387404
31.14421015862371,0.3533825930969116,-8.14149456578045,45.559144044674724,8.103278289670692,4.542694133454359,94.86194906452914,-4.516509646445133,17.828549384808348,52.70310756413292,15.62569600960552,4.417957357414401,4.9225793047757875,-0.7002870209266024,0.3963644254906045,-4.086124536806657,-2.8939044904239224,2.541831985024555,156.3603024020448,-40.53241844221872,22.515079967016558,23.986332388411228,16.81134260315829,-26.989720763515933,4.136455922758417,3.6834006966098567,-4.280772817580861,-9.022957608666786,-4.574357493470265,-7.492988378287122,2.8736818182320403,-0.2166407687164867,-2.346539075349839,-0.41873583566044265,-0.9541979958036012,-2.625116822885876,0.4550921625930406,0.06919737780054253,-0.3275163243388423,0.13790132700478772,-0.24825904561979248,-0.4342895986233254
21.633824670447883,5.190667139316236,-9.853365994713437,39.77648186444265,17.498456026679108,4.439420430155824,104.90926650173066,15.064434283965719,27.640211575551923,47.18987878549669,40.26897243976663,10.393556888272105,3.38788611254271,0.16853758732390575,0.8158363438341331,-5.208820773078152,-1.6087219023276724,3.4320514057745726,161.9275436696156,28.43021459616283,49.67174441321082,59.47828956142491,-16.70353250712723,-5.930178985282297,2.8139051516432896,6.559337798346495,-0.7629519342666247,-0.48796210402875667,-4.185711722016179,-0.8057901553165073,1.5872779189858095,-0.6021748556055452,0.06370650727952797,0.5129998070429007,-0.48721453026088335,-1.0637514707847218,0.11153645765110826,-0.15580365151041933,-0.0753946378664379,-0.16038234143114566,-0.009464313266656553,-0.5192922202190007
10.647226568077409,8.614107874059187,-8.480124372321004,38.779979099298295,5.922420192146806,5.449677417392934,84.77464733240029,-6.808919771386089,17.262124353855615,21.834169872395247,11.165209495170318,5.976880260382264,2.10017555362395,1.0177508127776427,0.6748346757749074,-5.62844650489726,-1.0481916155185207,3.380570304913128,98.28043477808386,-44.81516765991707,37.395833909256815,30.151621307597928,-5.2627960162067815,-17.76981953611877,0.7337777493039265,1.3557620784320064,-0.23102161522516082,-4.715234946355964,-5.115747135044289,-2.880094667608851,0.6030658012975701,0.26747002064836223,-0.8352331745116198,0.5433883872537303,-0.5210934978133821,-0.9368303050040871,-0.0738096270999389,0.16606949860828454,0.08155663395316022,0.018568070292152218,0.048698279280955895,0.20795256950064556
7.137199691224411,9.541149761084302,-7.024702307237435,33.858697148224834,12.419658863835759,4.229460066487829,58.743812283289095,15.50346140202132,10.406063924952367,9.851183238297372,43.22454213449255,10.645254392881423,1.7530493407609893,0.5612005843084547,0.812347983147915,-6.249564060064176,-0.9763609639668197,3.3023545355211876,59.50121007312294,27.74610037170757,35.03637450593403,52.36562566074236,-17.28219326394108,-11.921097216089166,-0.7609673786452772,2.9823062487376273,5.250023815631328,-6.873270018558214,-6.225356014204663,-4.594410324414557,0.1100950349614045,-0.23940145089813014,0.6981100835450753,0.8476864002247483,-1.3389209897256364,-1.7090858264211717,-0.05291409299134668,-0.10095571076953708,-0.00025053158115689866,0.1078932274337788,-0.30018781144393036,-0.2466581490582547
2.2737086570690574,9.18526858968694,-4.472965918989669,35.58692264865814,10.762031303667369,4.6898402053823185,49.734302696388475,-0.1145990124691092,9.83423478076789,39.93392614142015,28.013801863211338,11.862725103162184,-2.6648386668929707,2.992939270078346,0.1818927656913485,-7.01776926663888,-1.1321310197453187,3.497342574646172,92.34726375577273,-8.511510858258315,28.70567088783726,73.6035209949496,-43.070834551584625,-17.745450048425425,5.068835999837625,2.3626395717442,-7.344818378358111,1.7325621899733492,-1.5418089305088314,-0.20388384349351088,3.1077937179847748,-1.246950029465868,-3.2674991349142513,1.6031783833147513,-0.5598401714663389,-0.6614795784553378,0.6105202902207036,-0.1403453262811104,-0.5387197570089189,0.02792541279377409,-0.2514223244574638,-0.721290853286326
-0.341626907006356,-0.1388325545378272,2.030947514415982,31.764321563615816,9.676423557892996,4.135741927765882,38.2158443082355,-21.766857052810536,14.078796735361209,12.373661446918788,38.87096174460488,10.4201437886315,-11.610889891476091,9.645983988163826,-1.0384183886956615,-7.691848618765175,-1.1910939949144554,3.440907114621439,45.238867083514,-16.31339573156801,38.659103910713355,51.97344221688968,-14.682260194011088,-15.111809528828518,-0.04221685064248562,3.1651189471776844,-0.607043035450533,-6.927045136292917,-6.422186769502218,-3.6466311237292555,-0.33352213501216205,0.00897352589856024,-1.484214511243908,0.5633706462376918,-1.0196684888316108,-1.670565721289297,-0.27881276389502924,0.14192994597226483,-0.15873077222400728,-0.05956960276724001,-0.0068459548454088606,-0.0879117084710735
7.156608490477592,8.76350649296893,-1.1581407043872871,24.360469836482284,5.758903129876502,3.6037715667523256,28.47543937711225,0.5978031822479559,3.6493094097286676,0.039173115376550785,21.84261341751776,5.197471253405579,-22.268096278745578,23.47638247319582,-2.638522984124738,-8.836454281811966,-1.3498399343875642,3.0245148689107753,26.114545426039417,12.522191416587818,14.924423820319072,41.65363572529761,-36.254153500284694,-2.3064444756289544,1.995563015602027,3.4174534046071297,2.8980817381266393,-1.079463397669522,-2.316404104382893,-0.8021727194202836,2.2560037099271586,-0.9277253188599379,-0.9503213651078696,2.6546768882693708,-0.617122897343474,0.12037035159807048,0.4524906036180098,-0.15736534722310408,0.09355946411598656,0.46157816375177263,-0.3486475883141093,0.011373095104398333
-5.206230345667488,16.459628754379487,-1.763639383272503,21.70685215671484,5.053647802931378,4.1187475788888985,0.17929777115351903,17.91022375340655,-0.351834255127686,-3.255960689728978,25.57428965730281,10.300063714541185,-33.425213425049485,37.271248295751434,-5.5728466378718835,-10.039292443757933,-1.2654625760269225,3.3126194391395365,4.168354459407293,42.67549414019711,9.858709497721943,42.3158501949834,-20.414898548602352,-7.932946101118457,2.8011671290977667,5.073053187541328,2.8472515045989906,-4.82985406672704,-5.736698898943586,-0.6337063985207849,1.4069750707512938,-0.39244569418218583,1.5916294980501675,1.1468924370091584,-0.7357020054847249,-0.09818857110017339,0.05338788647834789,-0.1278455098581399,0.038347832623389866,-0.10817581689392779,-0.09839601317705296,-0.03431767094559182
-6.721330133793236,19.25426108875934,-2.33549215769718,22.86159756120683,10.511032761105916,3.8167852826567876,-4.455277792439058,36.48971550438585,-3.644888337320434,9.458779758407838,56.239146062066375,20.811792501498783,-42.13077530520667,50.70707527155198,-8.163768061647435,-10.828104600702565,-1.3042536004702112,3.279376226695121,15.431327921147114,114.83807145410042,16.179799516627526,46.38188635080426,-74.78928398926085,18.88591379665827,1.9050426787877173,6.705889470558602,3.840967266429424,1.6547289912400074,-3.4955797320689994,-0.006189937575463833,2.001789889724239,-0.9951036196284353,-2.0890085395726747,4.270002780219952,-1.1367913130801117,0.28171465381959576,0.2969886925039096,-0.06673374897934885,-0.4180730137429042,0.5896737862896589,-0.32435577352606554,0.33831444004253425
-11.151926986304465,20.1952737640488,-2.4999660628748774,16.849104586439935,6.210393110342465,4.000730597975163,-23.165446202929942,33.08999019968612,-4.212461878447184,9.19792724714531,21.496906484090292,9.723403782533772,-47.98878160879358,61.05489141376099,-10.723143175263356,-11.936289029933107,-1.150892128705125,3.2019113514740023,3.8140035556155385,64.57127129512145,-4.255110182261255,27.77942822358219,-50.36552475843781,-14.558917500152326,3.0374751146019316,3.6432875960586144,-1.6277458251994874,-7.2234409837726865,-4.082971425302724,-3.275253389692583,0.9949370813668179,-0.5254654149452768,0.021808036330787352,1.1739319429087096,-1.8197214513951963,-1.7365762893048806,0.1278877519423605,-0.07563260671694996,0.26768914461342175,-0.08239706487774696,-0.6361115239725873,-0.7808577247698727
-16.631253135066096,23.82090445294973,-5.022779023199379,16.748652493411736,6.282233541573076,3.9097391916205386,-30.12513190868151,57.32479789259928,-10.714857425813419,-3.9550877633993826,27.453132158078596,8.670756372607876,-50.56407869345625,66.35175354825553,-13.193836845512214,-12.11824851985903,-0.6358529657788313,3.188349922787328,-15.238661698505538,107.3999717159465,-13.625285603789024,28.158380708242735,-81.26995723717428,24.360430500525165,5.789839138803222,8.66353045465739,3.384656038053902,0.9052025471518572,-1.8086662157416729,1.605442416120349,3.1138811262453987,-0.7615434108957275,1.5441200186259547,4.2636939453579465,0.020305324567185958,1.7729038817975784,0.2712470848393312,-0.0973620367231164,0.30393026018651165,0.4811451428074719,-0.04361456037180099,0.5370670534382715
-17.65933541251365,16.09425036065492,-4.5402214344900935,9.262146303227498,5.795304176881812,3.928243953983006,-33.54933947537072,33.870193361009456,-8.983059966005618,-23.98432397174686,18.87447506426824,4.222225904031916,-49.67192816179141,66.1746501356996,-14.503788883598624,-12.378136329433751,-0.5984726708444438,3.2038706509638093,-40.38402988311583,75.64532217564394,-8.293714096142896,33.23471803583964,-53.359611265240325,4.249049946310873,2.239348479691304,5.66229735086539,0.6712045927324316,-1.4619177544249575,-3.334039290587387,-0.8781525575024653,1.5290676161644463,-1.540652319340142,-2.6944081851377186,2.0325235071880967,-1.3680651710461702,-0.6870734156493333,0.25539306919422433,-0.16775001437770592,-0.5842819125891618,0.00994232063697464,-0.39395016171385044,-0.328448439169226
-22.767156409397717,9.894499602529192,-3.6488838185641437,9.748731056264589,4.908532139617165,4.080990373732245,-54.0473804921845,39.62895467955429,-9.186393656138588,-12.232376827065547,21.396635207190826,9.079477155836694,-44.84711215673222,60.05703500941315,-14.575263835353645,-11.624632017255767,-0.6904280726330336,3.1515269554372005,-36.85577327100849,96.90396032221065,-12.402575278543978,17.91698131509184,-77.28540163912507,33.6688553616572,1.211941070078653,7.593618701975198,7.371720201522856,5.655773275893022,-3.88093051890401,1.2908378317721374,2.180251176038039,-1.0232803625966629,0.4679332619442662,4.555495676467463,-1.5338452570826577,0.26507357711438534,0.25615096096603407,-0.141363706475225,0.2138736013441241,0.5305531224765289,-0.36880033379382865,0.21062691112431303
-18.328737608573864,5.39477958509308,-4.1674776055716105,6.950164538744514,7.252178408337671,4.407083732215948,-47.72347157376227,50.140873383773155,-13.65509017509625,-18.519024274075264,30.056856683760397,11.426389755038528,-39.72299874614611,52.84327297516116,-13.465612986640478,-12.01934869673554,-0.7771697709520589,3.3612364080093253,-37.295268765166085,122.26747310010404,-14.594344713776222,11.62873562009512,-77.4360568586598,9.915187264494461,8.81864285392658,6.145673513024274,-2.561312065099093,-3.6636927765828933,-1.175030059072313,-0.1730957057248918,3.270676739945916,-1.5404224336742016,0.22929556683234,1.8500432833299119,-0.2266931586615979,0.2535592076581937,0.3581375902138658,-0.18424280899867182,-0.10792321375285725,-0.057825985570369394,-0.09884988534225737,-0.12692515016771352
-17.146315642004833,-3.9445654203330545,-2.3212467663991236,4.604498646721232,8.214256547336342,4.5138989240190375,-55.75428754554336,27.46564651816787,-9.97702475617939,-5.294377090399894,26.63495017889535,13.06522232249237,-35.76038906127338,45.64071689043421,-12.59365058201255,-11.562990734096575,-1.5208773475369086,3.022219140254487,-33.06290182668103,80.65459363159188,-12.774571611230531,3.425992433326841,-52.740417148293155,11.377851380116093,7.377811923574546,10.024949613677427,0.784695583902373,-4.128971915611099,0.19717500746046743,-1.7707032132204577,2.7859000398183316,-1.4178268107701943,0.7051357440137827,1.9781514423038966,-1.1021970637975547,0.025725913611108743,0.26759052029622254,-0.1529714352206664,0.1719151431062005,0.251014944854006,-0.487661323957064,-0.026027911808916677
-12.217421549550036,-6.820586134254454,-1.9741719181490263,6.889277796457458,8.996536436236223,4.83241335369665,-45.49198532875104,29.61581162771947,-7.709413549904214,-1.4252983092929927,34.35024159059187,15.351847525631618,-31.641116334714546,39.43684008291034,-11.04398690993085,-10.388345409311764,-1.4682528286184462,3.238146207432077,-18.57229855542004,98.25925245620081,-3.5785909843809867,21.05793110493066,-54.88631189215633,23.297700615336666,2.3345364119255354,5.174953687880626,2.383022899091861,10.478916785749988,-5.0454465078793405,3.7680634993644233,1.9032712187294114,-1.272133860240743,-0.17811574324973697,4.203496808814371,-0.998841966880784,0.7446783243017512,0.281687460975903,-0.14568702927874838,0.046254066976120736,0.5188003680690052,-0.14050605038302338,0.33986191081607775
-11.60069381691726,-13.120858397423008,-0.525182492967849,-0.7966442021018904,4.92275625859038,4.02806940183037,-52.24707080798173,16.95447857168594,-7.570096394708667,-26.977012002711255,12.42921209496872,2.5936345966753387,-27.617965552319955,33.20369727622007,-9.682086462664472,-8.714057456132855,-1.299665413038164,3.2516353115544807,-59.64330645390441,61.34400508080696,-17.310707828146786,-7.959598002662945,-60.34348264959314,12.695544602073463,4.7005827674714755,3.2855099104975016,0.7427318744180291,-3.980627119617055,-1.8595630354356507,-1.144598866329555,2.9771263745877543,-1.9482263420480128,0.10847002412359114,1.028140279527847,-1.4744033133662433,-0.7060592402126717,0.5219115247717663,-0.2573477337403111,0.11556922276132514,-0.18585117271490648,-0.4881229738921382,-0.4011881094568623
-6.293722848729367,-14.530879295741139,-0.9120783568901953,1.1364113222638272,5.642009513919381,4.321928149114056,-40.54917604158298,13.859596609819635,-8.26274528525539,-5.194278411955046,11.957794470772647,8.327331520062952,-24.032260698995216,26.293011232464774,-8.117509433327085,-7.125394226927153,-1.5377098160354312,2.8904106807076078,-14.749015879273195,57.34761787529935,-17.612505868294935,15.568643630722523,-32.987765916717066,19.60378221489163,8.159714078773753,10.784160742113254,1.340099628377025,2.360483932072234,0.6209931993726205,0.7310546107108756,3.2786474380549713,-2.3220406951695747,0.33872545296529233,2.225860894193281,0.5489322007885737,0.9113834592666578,0.25601716283005116,-0.27717381865031787,-0.25349962779122737,0.24967817513687438,0.2437496723989497,0.29260931465269
-6.131359132945044,-19.616399792002223,1.4200109793380156,-0.16208241406433566,8.340947350606683,4.5594824617428165,-49.81578397763595,3.5009608014293234,-2.6622150631710673,-22.069587012184815,25.90057557289429,9.56531324650194,-19.588873173199282,19.511891128037067,-6.351217694585345,-5.886368801967095,-1.6375024790208652,3.1698752453875034,-54.997544258878726,67.12218181307091,-2.6886753387241527,-0.16579512511954242,-55.80216543657312,13.109917494487226,3.2887383609803464,5.15676856536033,3.4425981988493866,-2.5272347598977443,-4.551762711914987,1.3563232699256762,2.5693977595486364,-1.0293533694906032,1.9792053068110578,2.3894416532969993,-1.800393992588518,0.20482678051837294,0.42529859071988435,-0.0883681484456244,0.6803142127930507,0.2783381263832617,-0.4047594373256903,0.1561696295226212
0.1797031257560138,-25.445662781690096,1.959932937760334,2.072463871394458,6.793339265602084,4.335826828693401,-31.373458615711282,-0.6712599225700384,-3.2195961286233237,-13.933477742768007,16.533425106415077,7.222949817475265,-16.14064608702399,13.81184662981809,-4.930219334171706,-4.045798339723482,-1.6416863712208125,2.964375867879343,-26.30802125663766,44.98934667863973,-7.4939064556228265,20.79293929422649,-32.9618019684003,17.033692537558686,2.3406872797507803,4.17138537825515,0.994040791904271,3.299369548790735,-0.21735016120167075,0.20827983099524025,1.3848489833646571,-1.1525804829361876,0.04118818740527241,2.494686140694609,-0.49383890084277954,0.4000314672079374,0.037128456205001124,-0.04138524527127878,-0.09182851534360945,0.08785217276799516,-0.2747613537004295,-0.02001597868230532
0.8066460347456482,-27.142192654143507,2.754594122436898,1.80322737765906,7.897820859456332,4.152846698282378,-40.15093043509104,-1.9189333200940346,-2.0206736817021147,-16.3027110353836,22.965043295251423,8.078055138170058,-13.30116005662675,9.13148946347172,-3.8287974184733304,-2.8951143295303163,-1.7347992968538042,2.857221786702973,-30.595091865424223,57.49176004899004,-6.245384204782782,-1.5837168146100598,-35.72929932224714,4.94453161752589,7.4723381585823665,2.216398112302287,-0.03348286000686995,1.8160713061850502,-3.857983282004804,1.48949301869324,3.8257109828871445,-3.154139893043699,0.5866328566218447,2.4450041059442302,-1.9972119193342652,0.5308317560875017,0.6213283507717183,-0.4550984860162477,-0.04906079538726148,0.33641395991017636,-0.3914031756972824,0.29292167271147773
5.0129984563094006,-31.059934787830073,3.3332075128484333,0.7067942875846175,6.413419255941947,3.9775987923199634,-22.78547180162699,-10.723147639739203,-1.0107893330897584,-25.833079005622633,14.021320028577545,6.289532591825109,-11.322839504940431,5.90502307553831,-2.864780815424709,-2.4937045747325643,-1.4511403659955164,2.671500757859097,-26.404709742230924,29.500045894769645,-1.2608801529017208,-16.523360149478673,-24.589091807224538,21.692305608494777,7.820560343987334,8.580601713897648,1.8564726412100792,2.17401170064965,-3.858518884944151,2.0439255433115022,3.343986904653239,-1.3211395384678337,2.3778514460829117,1.5603042743342939,-0.8909232015007534,0.1487293697393877,0.5161785531199314,-0.15838585495847995,0.47682865403244534,-0.09631571465173312,-0.002018075537421024,-0.07771746344505663
7.155288543657989,-33.3628690910212,4.3531422819998795,4.072825027706496,8.07730740996049,4.133703903967373,-35.47365988545078,-11.61095506511182,1.0780643841714308,-16.97222503298217,26.57555679049468,9.936587786742537,-9.760852080173425,3.4058511134333003,-2.131889755814815,-1.3699470553904236,-0.7079589848697129,2.896271472455147,-38.31976745378793,49.485831228161075,-1.2347883306504277,21.137620500940553,-37.45779397133889,9.666694969112909,0.7051301546259915,3.5133349114885117,0.1964642843124969,0.672532711512427,-3.0144151713296536,1.3068365969124875,1.6501771267747678,-1.801535425139355,-0.8656369374409894,3.235615796437549,-1.8701473387866951,0.7841082333218767,0.23603799974690695,-0.10836119482151571,-0.2257576134271349,0.5099223670563774,-0.4861581754384569,0.35484914413768376
10.148098916938194,-34.898809300099735,4.521698607963841,2.9279685001898943,7.893062064863224,4.241438980042312,-29.478726565810017,-14.735382932342977,-0.7204527137708308,-16.732559125618355,23.38450704813342,11.751048737469276,-9.23460522655555,1.891883148801816,-1.3392922825409572,-0.7669422676518419,0.1259939943832823,2.8403231278860512,-28.714245134881107,38.71583049857982,-0.5764572941657056,0.26498303494829534,-21.922656196715998,12.244523263006112,13.924036062837956,3.629031955274327,-0.11747955718113132,5.154243895818024,-3.8475368358034143,2.2637782793748107,4.885273733317407,-1.941822181695662,2.8423487800087472,2.3731176067276287,-1.1609859230314723,0.5564172132818181,0.6546221543958619,-0.20927921145208372,0.3394592098625343,0.09082596014781812,-0.07437420688344942,0.07548921447719216
12.584091138510027,-36.090512406146196,4.867501963324114,-1.5025018920344035,6.016736074116159,3.6206969308818855,-18.66798910653113,-12.352372509883255,2.0993847635732803,-39.448304981935124,15.641973923753106,3.498429792511101,-7.965407014021833,0.7964221570802474,-0.9218702533996155,-0.15651846305657166,0.968289985069199,3.0807302535276633,-43.88142690882293,29.42842482189893,-2.109743549660129,-20.780076019289638,-13.277198424009578,4.581736172409236,5.350961734851554,3.1090501754816944,-0.643266663634366,-2.614273969796581,-1.0223214828678424,0.12774320857843663,2.2507383575731614,-2.5969308546412093,0.21932456668069913,1.2778858371299953,-1.1362540468134132,0.39656816245543586,0.2024735937987986,-0.30867661773110927,-0.09043011613705083,0.092525796291416,-0.29810194519407596,0.12800848217302815
10.235391877776546,-38.24188116018636,5.898623002470018,1.1014881119196276,1.845979770850411,3.0862038483665692,-27.3034350098073,-18.772070123089858,1.8048134860272984,-15.206033677770883,7.493139255438009,4.979540512258123,-6.827613519878538,0.6255416792103767,-0.6493245264435917,-0.16328737721331163,1.8984350239760701,3.0544958440368366,-21.253409270035398,23.49145857688302,-5.405492882573568,15.172950932458505,-30.014930208111817,5.527994451753206,5.393920123303829,3.405593597258864,0.27088909635646663,1.0422685912469414,-4.247872596476208,2.0761402099402773,3.1027629588690475,-1.9579520129092163,0.8208001115369162,2.1175105475269755,-1.7863330074221828,0.6767527054654402,0.5335502154807913,-0.21302486759592973,0.0747701081991645,0.3133200347727396,-0.2340377318872862,0.24904601438896345
14.750182485003037,-38.67013533720981,5.539338215018336,3.946470581924157,4.018334891432892,3.520751410309248,-21.393507053535675,-17.81984686395351,1.4963162375554597,-23.779813820927906,8.486588679450279,4.8122132148373735,-7.334036864637998,0.207697008249933,-0.30624988828978444,-0.17742499146421145,2.0272150661557973,3.0957948133272573,-38.6208173929627,14.297296035728339,-3.967154764484976,8.569811704310858,-8.421416086540654,6.280049891657765,9.01672380077481,1.7856189430926146,0.5095645681691671,1.141803932893805,-5.134690128960376,2.193761965353593,3.620567359347607,-1.9440822549683112,2.1898002568998063,1.7200496767723903,-1.9242975340228472,0.5459589119999039,0.4669874470213669,-0.13667914217001803,0.3890616311816238,0.05153556305107134,-0.3357632610094865,0.11374273362141085
14.512585261865413,-37.886278363450934,5.779875056789563,1.2275633205138268,4.525276042504134,3.2644834319991958,-17.369132451561505,-17.7244653334262,2.8849354411891825,-17.57209391850882,13.270149500626502,4.865734001403155,-8.293328063901692,1.7634070012305152,-0.20308978271014008,-0.5668597162177523,1.7206763907490155,2.968568718768345,-14.820031703193951,23.241562908617063,-1.2433676373810092,-15.764123511225385,-26.88747784611544,13.15313995668935,6.1655682043967355,4.742785185708971,1.018365215749772,-0.1822602920618301,-1.464355704049471,0.5912440896908742,3.284731427140167,-1.799181212552715,1.6018650915676915,1.6029947124546404,-1.2083143137882397,0.6883913461082433,0.4263545999852619,-0.18797496916926787,0.15829179346922828,0.2768073376529538,-0.2792969444564579,0.2767439172149839
13.922104681051032,-36.13518420765445,5.744178961559196,-1.4892150484788025,4.506734688978941,3.71072489500338,-19.35480251494208,-9.378838767279657,2.559678590835635,-30.72338286664496,7.936592682381837,5.0097882582730495,-9.489256165755588,4.785563076368748,-0.3155268225629598,-0.688701144519125,1.455031528593628,3.025500943689244,-36.052081001485575,25.994908753081475,-4.270227770165595,17.51276115859751,-18.02746865543423,3.67825998725107,4.618035930344,-1.0989368947172389,-0.9452083601628747,0.8436928867710978,-5.201395576624825,2.404585606646304,1.722093131294144,-2.0784889919847256,-0.1030863337751505,1.171343829975086,-1.7695016890467787,0.45590409292928646,0.20214716700613156,-0.24588225411431142,-0.1272199208399519,-0.012496162234491645,-0.22067895829602058,0.07019281280605434
10.838105347486842,-34.15622911078428,6.306834824375795,1.346217773936885,6.784361334058852,3.8336590164336206,-27.07276089562365,-14.180892453380718,2.4111394063313507,-7.784824458299001,19.988274193608014,8.821375370065656,-11.854509585542369,9.592594083506164,-0.5424195927151351,-0.6664383358373974,0.6753336083641357,2.8423098979478154,-20.224378704819785,39.10574360591965,0.7267851054319245,6.408412755842256,-26.79499280145989,-6.272489450802255,5.3933720283827755,1.4464245524304,1.1847590054509394,-8.060454032599354,0.6548383372090231,-1.30925726116275,3.4780219260397045,-2.130119318795974,1.635953648434691,-0.0227592975867349,-0.9730714746280723,-0.006804356665985724,0.5752820934803272,-0.2323014744187833,0.283337826227782,-0.061520247122933434,-0.2670616674912281,0.0027469171781125093
13.081596798617532,-28.054349426383677,5.4884911454436995,-1.304888530670376,5.82051311596048,3.7223046763750482,-16.572951503777716,-8.44906926836779,3.611411309060148,-17.196197002923,18.866983898863836,8.576327714775784,-15.143898213859046,14.776943550202581,-0.50582824732795,-0.722010600284336,0.12882097969536607,2.733021209891589,-12.930386709496345,38.956239252861145,0.7004226667321927,-10.437538640854557,-9.445445249518347,5.304789015466784,9.983613522831922,2.326604733725291,-0.2924959995216566,4.731239394558797,-5.991696715314976,2.8701794335158954,3.0967273470629118,-1.6903802239538237,1.6998629555314773,2.0957707518289315,-1.874100590677327,0.6557556080276945,0.3684015116197936,-0.02620974015403503,0.3174703343084036,0.06428791058673211,-0.2476276792761766,0.10192874291560883
6.0085954508496835,-13.11053894025575,3.7819024238265264,1.5319461981368114,4.767483574265418,3.853640975942358,-19.843874646671754,5.545483967010969,-0.07353903521279695,-17.759583346343245,17.67379632794551,9.429461867698027,-18.3131218204145,21.553974192857066,-0.5753490647762797,-0.3447778052675805,0.25107548154510984,2.967419666598506,-23.847454004479474,54.363891223850196,0.8767689401369981,30.641668715329512,-30.9188908191445,-0.09851378393071301,-3.417643671607097,2.891840330117267,1.2408316508677564,-7.545386119625071,2.2803093690693506,-1.4455849481279748,1.2571528442990618,-2.2302996913660538,-0.6413210567658963,0.640314990243056,-0.3418909079421169,0.3963947268843119,0.21994968965250006,-0.30221630399495714,-0.1293633070875294,0.22607391589030587,-0.12257949991256463,0.2138146931198292
-1.1915139451403287,-12.082061864118424,5.601825500214781,-4.250839950385037,3.547322388939447,2.8869452614217974,-33.22595058816752,-17.095796182985094,2.6901473557826696,-31.575988964743324,18.25097455619016,4.877495275279644,-20.679776278605527,27.99758623488783,-1.0088903435540935,-0.4794282368086178,0.34137567027535093,2.6488841620410066,-65.39333549540535,15.072498599113388,2.8385795127472564,5.838886722473283,-19.95346278013724,0.5878282655904666,8.379268996230847,3.653829425493874,-0.025079369533009297,-1.7048351323171083,-0.5649518034170474,-0.15563769126333266,3.135759936698025,-2.3225520265364583,1.2231048935976645,1.071286010207828,-0.9737419929997178,0.2353889465793815,0.42115422196985014,-0.3107681793171664,0.09489185146281419,0.1025029003275738,-0.26981210295268143,0.07733611120970324
1.4337251852058353,-8.070787928326366,5.2485965927316345,1.0776450238825335,3.394905571169555,3.517028031911972,-12.39137898743409,-9.61756877881853,4.200935260595378,-12.061483552893796,5.692584195677759,5.691360325044642,-23.104573215619833,32.14736974774613,-0.6542991489945599,-0.6195784620234284,0.5775284755957901,2.8343681702138306,-6.199503734671183,11.050268709218797,2.191645716204039,5.580856611237134,-12.831585264652617,-4.946636496970112,4.107725498276375,-3.4775324782676185,-1.1054946815373263,-4.927873067226561,-1.7064834190329805,0.30906174039504225,1.8281735534086874,-2.1410321279278017,-0.25096250869831477,-0.17111391914628746,-0.4850360490044601,0.0664667636932339,0.19414778944179423,-0.11418332634205904,-0.01667413100914851,-0.1114328089272394,-0.06275022091046314,0.009615806280165453
-4.595310877789927,-3.506855103367264,5.351922230966673,-0.5612673371059311,4.115709799845732,3.3756882670810664,-25.267310641326816,13.795601697180404,4.210070894714752,-21.10677837083304,16.835851245600402,8.089406755807918,-24.189024879716335,32.980867308755315,-0.7515729450540615,-0.44655239386988377,0.7626004255579452,2.7640685832651575,-46.70398507861555,50.32964595972312,3.1644445222586413,17.319642917053216,-15.990055764862003,-3.78214100715217,3.836923761842016,3.2631272687105004,0.3824635785401165,0.9314101237937751,-1.821592156401769,0.3252188530446493,2.071168902529673,-1.9316018876911452,0.3145922917162193,1.9470069104759666,-1.6131524740952359,0.4583638877317548,0.21444802333982216,-0.2743691447954593,-0.10017976002535602,0.10841519783920438,-0.325770781751582,0.08174100639577454
-2.830762015937684,-6.922089516974708,5.718524771078389,0.06424379969621802,1.6934560921357784,2.950365202660301,-12.495586984142644,-22.010145350289903,7.746353194471904,-16.438925295341004,4.631390178534918,3.6631976109062676,-24.55981459590513,30.76614033273273,-0.9248092785014241,-0.1908264609815295,0.978984454808741,2.7911036836722003,-20.146634328486353,-15.857710706561154,12.045440558211576,15.675185019602772,-4.9644197049080825,6.742183236771391,3.6295448359816183,-2.3970912135043254,-0.8014681807037887,-4.8128031892760115,-1.1216903739548332,-0.32252286057521634,1.9286803808252708,-2.1296545918427023,-0.15069593815324894,-0.22232342283893816,-0.041149574875442727,-0.23575538291139175,0.2757186702344872,-0.08031828837791542,0.1521706699928093,-0.14407163428834097,-0.014682752964234349,-0.13157425973825415
-2.3574202064384475,-5.3855903086777825,4.473295835270421,-2.683224847203282,1.741784221156071,2.7112866493131507,-18.23263720407567,9.610019693503693,2.2117818924336308,-22.498680691431453,7.420513837845148,3.4853664579073,-24.486082613644502,27.631779530110474,-0.9784284647870344,-0.2679822719708346,0.8812906855347614,2.682285237007699,-38.47995671825647,45.45925885725388,-8.634917136875265,21.12517179972567,-33.40369933067357,-13.669843811028889,5.601786825394315,2.990773491722098,0.9064480122349209,-4.4968082575797865,-0.2179273971163925,-0.6854654238591023,3.048880096403735,-2.3548043664299056,0.9598816394601463,0.48329997075814196,-0.9893794924147418,0.14080370194316794,0.379870299133426,-0.30348014238886806,0.08921616870433546,0.07711752839744349,-0.2857736570523593,0.09342060712188993
-3.4030632990591925,-5.758082159076814,4.222670811522729,-0.7646852691625187,3.6960848998129583,3.309658762184986,-15.296018192309452,-5.9323632280281124,2.7987012709612538,-25.54042676504292,15.281852996835479,6.5527765511458576,-24.581438514240137,25.171341858947965,-1.226480899760071,-0.4951364307380915,0.5846022552449067,2.8459278172415123,-49.242211919536366,17.101553617120924,3.2575127284112444,16.941901269389398,-21.42313323089579,-8.817426697919787,-2.001047496221545,-3.5444258164530322,-1.94950421887121,-3.2360664576678766,-1.484648737890127,-0.4642468836241976,0.18472069538301453,-2.039034919798836,-2.3768411933979956,0.0007769033532596479,-0.9077272140144741,-0.2652060736841266,0.022991019350516555,-0.16060815788191088,-0.33680934172961907,-0.1384387904225675,-0.17405182709575606,-0.09727290713706736
0.7972774971641982,-5.905688013769025,3.554345720504921,0.05036374638284459,2.936557473403178,3.778763736764122,2.112285743836654,-11.53551373847369,3.3019387559458675,-13.861376426961337,5.4423525183278745,5.843820958256412,-24.481531376721705,23.384531949753054,-1.0604467979835936,-0.42046746361707504,0.7675786909129124,3.154884633495492,0.9659064663104096,-17.311147232818126,11.36016930960057,16.39322733167807,27.09341942127828,17.675420101445845,3.4554592633614503,4.3640902689676535,1.5950526064554564,-1.7721837520599955,-3.458982483063632,0.1212265969246753,2.0229465893722227,-0.8657566599467632,1.0724399571090193,0.3871796855684043,-0.3808342608349261,-0.4132960279975925,0.22022175452793624,0.03938590187375042,0.2323421417800644,-0.03540156281183626,0.07471498012021514,-0.13186492363669036
-0.9395886283133456,-5.810130371831234,3.436242646863272,-1.493269937403253,2.261505795359731,3.273891084179071,-5.245874439959896,-7.9345599805529305,2.2311975159925206,-17.436025729811238,5.571922782124011,4.894690799512937,-24.657020214822456,23.317584117274958,-1.3635656736448405,-0.3054871946952773,0.3606901793085962,2.7907981710687584,-16.35020528659666,-4.307019797642672,4.871230013906752,11.852851784378508,4.515453540245938,7.937650622203326,2.102358142547581,-0.5654231450402378,-0.2694951993620753,-3.4360892786886543,-3.197888045655904,-0.06994634781525931,1.9251647009980122,-2.5381680145178795,-0.7423828086107714,0.7390391292140829,-1.1518750357446395,-0.14626640408077227,0.23916592176783008,-0.35103689286576845,-0.19660676735273508,-0.06405703250884964,-0.22255365605239863,-0.07447397074986312
1.1796467252479321,-6.969245168435056,4.028360585528691,0.8377622341967799,2.710608464224228,2.8089867546954865,-18.05779666082785,0.3023196934276564,3.7889165076332283,-17.83784485168613,11.700136946153652,3.0988211762728373,-24.92442783326789,24.966567430284073,-1.3954993077119513,-0.21330677488064573,-0.3883166404517481,2.6723969041351405,-45.81898161938118,35.190637017205674,-11.317584581933293,15.409987079843162,-40.154454155455326,-19.21025904783743,3.7906659113592567,-0.9349957664887434,-0.8987483817748778,-2.7282638104437993,0.3929880395093345,-0.6452262110569618,1.3793381944624845,-1.2521773769477487,-0.019406143614789387,0.5617138385041138,-0.7522554598755442,0.13506089535056934,0.23240520203200718,-0.10966195428033347,0.07078849535522051,0.12342635630007048,-0.21071489263758153,0.11052751609451941
1.2085645344652567,-2.477669128065432,2.208270366745135,3.0758686049301422,6.138893172362246,4.306301683053746,-6.160957882073913,-10.082765335966174,0.904411551596757,-16.273189919508535,25.50972512722675,14.197014993319808,-25.72919113553444,27.38399875624364,-1.92662916019538,-0.43123821725779765,-0.2440550672868508,3.011319754829881,-21.489590300281325,26.252256307539387,13.811882597825544,11.969703934143896,1.2198537584025884,9.536878214742577,-0.1329651658450616,1.092149480283009,0.7217695299441718,1.5990606718698657,-4.09682201172241,1.0059639035805694,1.573445727831455,-2.3971983139542874,-0.9202023834043002,1.31982750940401,-0.7916305595457556,-0.20133316135420898,0.19529324982752547,-0.3496896226583838,-0.1859811636947125,-0.07964186934411435,-0.0003736720323658776,-0.12413420740124652
-1.4901346464600838,-3.1438784564511923,2.5421829332196393,-1.6375248924774057,0.17047177042074196,2.617562287525839,-9.336678013249644,-16.866856503013114,5.212042560363325,-31.23930747854347,9.339312299581715,4.234766287298698,-26.51652712045018,29.13919313914612,-2.83055559090209,-0.49843788008261203,-0.5153805360669055,2.639256405283238,-41.85541162402525,0.37606682029221583,7.474570196479728,30.655955471438336,-22.48805141724757,-10.726691880454144,2.4958886722597327,-1.0471574485727917,-1.5221906674403596,-11.597192947371934,-1.3722024697781319,-2.6731247562162728,1.1980044603709743,-1.6724062597902438,-1.0988096064883872,-1.723711360324876,-1.2498355049194414,-1.1584277979851878,0.14565293698476395,-0.11624668059728734,-0.0956461756949573,-0.32031898864913105,-0.3436441633091593,-0.2642796518951348
1.4562054489547178,-1.0588365931644257,0.8781531211230653,2.594407625696368,4.139993416029205,3.6848576484609272,-4.114254881670254,-6.729875526841459,1.2369257570374672,-19.553208236242774,11.002270163883265,6.936426957500874,-26.794562493598132,29.744589563262963,-3.2192683483274123,-0.27676315245529093,-0.23505135709307773,2.9199560187427944,-18.83113721174567,18.25504024781766,1.6441703405801968,4.2594849534517785,-13.178219128946289,-3.769049019972559,0.17444066038297348,0.03568868952401527,-0.2658731234461231,-4.549154947255047,-0.4462197214001543,-0.6848251681134353,0.7712301239459035,-1.5745232679307049,-0.9168792291578725,0.9611097528343571,-0.25563621366107536,0.10160222250648251,-0.00667703528426823,-0.16443634985783243,-0.14654355274878506,0.14408673980819264,-0.047824137178397515,0.039134028112120876
-0.08402034602775245,-2.8186564766067432,0.5194131472985146,1.750831205642264,2.6980286792044033,2.8398247350055277,-7.582026900288905,-4.9489793204938195,0.018622392024179913,-28.292637838519394,20.050341614424774,7.953735752178248,-26.3049595235616,28.107782769448068,-3.791523462965969,-0.3374682490999186,-0.7129777811285374,2.543759352311057,-35.47944549302422,42.27432867264429,0.9977162894569966,10.532648483242621,-33.72917223717951,-7.246923483881942,3.4187361667296816,2.0945345698578235,0.6861892535869569,0.4761621852789526,-2.4044855969276946,0.0998039016826742,2.006312428211033,-1.320563012005142,0.14095528354385398,0.8609252779814782,-1.0385919956847154,-0.4293030468496297,0.2546962383633226,0.0175814968378396,0.17984886846429307,-0.17653601237058852,-0.17828692343742047,-0.20120634538826965
0.9497903370228578,-6.317471673437267,0.9860738947098688,-1.5214922300821487,3.8043542031352477,3.6544235632273314,-7.929387756915702,-16.16035126882554,2.234563503915854,-29.24097228648287,7.68676181909248,4.355100557662458,-25.437767185998784,26.20044304929716,-3.960683491813234,-0.9440961970447276,-0.3009167095361818,2.9451275217881143,-29.634706563914577,-4.024261112348137,3.245415603941651,17.825696762293898,4.6444137578783575,-3.9361203656040287,1.6342364448536415,0.1934989920315125,-0.514009214526013,-7.458253610276948,-2.6379564565878812,-1.2881518156871288,1.116598709008606,-1.6802154518057992,-0.7588956678066096,0.1050188788991371,-0.8272771211542834,-0.29408184926946174,0.17536769560101528,-0.19860812506345465,-0.009291970399506019,0.033978991103237155,-0.11186580248776752,0.04205553925269842
1.2158107934369897,-7.176249779844376,0.7827896149373579,2.47000662331143,3.993107857806865,3.285189204543414,-14.389312238536462,-6.187246912664874,-0.16419417346829482,-21.926007626020553,21.190714562806374,9.130395822969062,-23.943558122303717,23.85196451272376,-3.7562489515574065,-0.9662085688400759,-0.08805573598646034,2.7718626880722628,-39.14488865515139,43.62316109361597,-2.778365298817773,8.940035120536608,-47.772831500290515,-1.8135670354648707,1.6872824069197367,-2.51827705000487,-2.573355388262146,-1.123817174061423,-1.3947603914816822,-0.45250040527623175,1.3025970173932764,-2.5727137099470214,-2.485374288026475,1.4143720815730891,-0.9297563372016184,-0.32161409819055886,0.044516328174397914,-0.25100607339018793,-0.5216827249974997,0.05899118547065466,-0.2808047807491234,-0.16892766702421097
4.199526202704623,-10.620251449823877,1.072421264546194,0.3179510051319339,2.755448691079355,3.7747576723489624,-7.488963204370449,-19.645467810423913,1.214870607066617,-20.267259199742643,1.6173196545344846,3.459681921125466,-21.55494976857882,20.65526822003749,-3.5122405184877463,-0.8033799178302006,0.2752046491867806,3.1742316543557068,-17.85373330694185,-18.239980448624685,-1.7683687403892665,4.053331883587224,16.419645020170982,2.0000454553698406,1.6856560074514961,1.5350795799034884,0.3980076217652024,-4.894747045645387,-0.8608254438519822,-1.1869041807309673,0.8996633182848508,-0.9256461770823625,-0.23037663338020564,0.4048211292947905,-0.46469481972176907,-0.047541922729485944,0.020751923525073147,-0.038335645021134006,-0.07337802061878934,-0.012406987192258221,-0.12015999885365751,-0.02058480173848578
3.545223615971997,-9.80318800151989,1.0263139331501703,-4.970120514504011,4.451417558751052,4.081945646882787,-4.520006694530032,-11.151782894114685,1.4668971472031036,-34.55704464956385,15.218178492301769,9.188245839005763,-19.194849159791413,17.425426682414557,-3.0175844300357357,-1.1015614465375085,0.23676442617406263,3.039564943697939,-32.097789015879385,12.486664252174203,10.869221028254486,16.951475617590408,-7.527355191139435,1.4787623695795962,3.641362304783169,0.7620183514194945,0.7150943798976893,-3.9435617045555666,-5.897729066165872,-0.9279498201261358,2.0164440879215584,-1.7248822570314193,0.6599370747245862,0.8000950737805655,-1.7252870841611379,-0.8763877776203414,0.29020068539360855,-0.0782687088140643,0.371821954315188,-0.0021983984650774772,-0.26002461517262937,-0.13467995107237157
4.272517219405724,-11.386573432568733,1.1074395043121514,-0.1851300131575168,5.279928026811815,3.796229729649749,-16.565683843400304,-9.233601060139657,1.1388654247422478,-15.231236142074279,19.517271430469506,7.941288283693026,-17.61057922666361,14.660608488797065,-2.815302131358884,-1.3678466476732214,0.031096296670415014,3.013698050485642,-25.671513315580746,37.80376412101342,-7.209296721574528,15.711819674671807,-26.28452104093391,-0.8853943682654017,-0.6014456228283421,1.2777216595647898,-1.250797464914978,0.9089762142324781,-1.0044915664949592,0.5724370872858197,0.485559771550217,-1.93463908900416,-2.42240048695323,1.6162539529873112,-0.5436933000537534,0.36414676016279135,0.01539577245755874,-0.4042758651488768,-0.73525524559386,0.11995371556971263,-0.1189147122085355,0.07455064603397304
7.47668325843472,-14.459196858658023,1.619697512096953,-3.3273986429113194,3.3157699949124386,3.456362680107136,-2.6429135941291646,-22.070229140387138,2.247719494268139,-27.665964967196775,9.233220988930034,3.952909666956244,-16.479518995397935,13.161791873954456,-2.454354700793833,-1.0038687887847304,0.18256377738508398,2.9586351351889246,-29.163062505535557,-0.8940617152006217,2.636442135570744,-6.82862521615137,-21.320885019687303,0.31560025954320614,4.015062987456162,1.2078865450992424,1.2432868972464053,-4.162359304985333,-1.8620717638955437,-0.8930248966861144,2.204259512349784,-1.1894857933012641,1.1222017563146494,0.6446121695276709,-0.5777236681278102,-0.43978680345436894,0.2596663551553689,0.0578214320406551,0.33472686850430156,-0.05159633200984226,-0.1286554130594551,-0.1840089803248755
7.660418246402114,-13.79031759063612,1.1934435027558223,-4.620552168529518,3.5470528893759043,4.242829434947019,-2.0478566199109762,-25.3048740788421,0.002069762535650558,-22.911829668976527,2.7972483281554297,6.859526667986244,-17.0959995575447,13.312308123148332,-2.3551122612867847,-2.0325045269926494,0.1905513632619251,3.1059787523828093,-8.00899969406057,-18.60515321213235,2.6813698604066696,30.037916160667322,5.39151611496562,-1.186376657110091,1.8826781859864388,1.594897456899532,0.3908544502964576,-7.606118278321727,0.0597631082434729,-1.604578722943301,1.2471494473059739,-1.1668354188904628,0.017842916350639653,-0.3147924349854432,0.036390211338919204,0.0017766729070839405,0.22063126310667688,-0.08777804290591765,0.11097820417165466,-0.005929054149355847,-0.10101867991228901,-0.01773655513673727
5.226617526682515,-15.502857992437251,2.245989114337532,-5.133724777433169,6.159480327914017,3.731053845962267,-25.37378601524884,-1.9417241302540547,3.050704233797768,-28.23799887105166,18.369446702914647,6.074620671424493,-17.57595374559659,13.95828565661664,-2.560940128579369,-1.343300271898861,-0.4787591274885938,2.7363036312358258,-55.684475973538916,54.76877598333213,-11.795001927017669,-8.055986993138927,-37.55419967038492,-0.12345495668194313,5.879211549500065,-2.7702736951971025,-1.218432878532054,2.245440027327045,-5.069396219133373,0.8823614311522016,1.8033089469148036,-2.040437270943941,0.02334297937901702,1.9494902093632704,-2.135745527079538,-0.32683376701191313,0.12349049003685096,-0.23192667341339226,-0.08798020730696557,0.05256888651339793,-0.345494293211802,-0.0312217565882777
9.744206200052293,-17.186358638900842,1.5680359185495554,-2.944495856995199,6.001632533732519,4.480158030535965,-4.631096166498088,-26.207354463621318,1.1949089472847017,-24.160313742184517,20.2448102252557,10.792447561323613,-18.643167111083127,14.382497662254742,-2.7215359297766324,-1.9860649570610556,-0.05198357285660609,3.1916292894840974,-21.856101484613216,17.83750939976148,5.641398118769381,12.338396232424392,-15.754811835471298,3.274685886718541,0.46690566670064826,3.9486053223224307,0.8917110817573178,3.0796349462758688,-3.8876485447374756,1.365146544734098,1.137229866476301,-1.2263700364104202,-0.30494410346368817,3.0175959271293364,-1.5442623521625036,0.4539893516052538,0.15207681640766774,-0.08505039613798761,-0.022195311739032875,0.30329344763493005,-0.30831330325621453,0.15227330567088632
5.8535858862938985,-19.412047068689358,2.279578143797808,-5.36907139489336,3.2164883463060088,3.369250591054234,-13.890530042080574,-28.639128370451093,1.1825605783011837,-32.68982287290095,9.896524780335078,2.6486070071145815,-18.857602712677238,14.79357129533866,-3.0362331081708303,-1.5590917509629878,0.215416853165748,3.0711386563542202,-43.28110118851828,-1.0896259614205819,-4.380251449499302,13.792342823548248,-13.944224277633763,-5.80444964932424,5.048921455188997,3.9215543467488034,2.133674460471911,-4.977823672998444,0.4283961031302167,-0.9964524271352564,2.514791596557961,-0.9629264670158673,1.8425941119065603,0.8292448178769203,-0.0001716355221181333,0.18196414082809292,0.28651091436149273,0.06409589494384334,0.37015034502136485,0.14170972429497394,-0.04903322419727314,0.03610574203563309
10.710938581574089,-22.716738675339283,2.483162779862917,-5.448068170910305,3.5738850497977683,4.111651880798067,-8.820022138676604,-22.960480166066542,3.4447224792334485,-31.57625342339333,9.661556928653487,8.696282233633836,-19.36927225047305,14.551608190354925,-3.2537504746751886,-2.5071525947685296,0.35584392551553734,3.0896314559713347,-31.258927934721854,8.721421650540261,2.6810040679379905,18.966896926588852,-19.325746790967454,13.592111972364247,1.390458875364191,-0.341277266898458,0.24610678845629763,-0.3878638173906759,-6.711522081905733,1.457587903207435,2.017475898054381,-2.394669596826621,-0.33343412393016547,0.5759904982357763,-1.4066513493678807,-0.6305339744038977,0.2667668741018725,-0.2140775731984459,-0.021920915811608918,-0.2768467968102088,-0.1946790499012586,-0.27297735280349844
5.286881150152931,-14.996200366799536,0.7691042062331315,-3.8194778767925617,5.6563198959476795,4.221733291487912,-20.112321796671136,-5.200749412465167,0.27657294267835536,-26.206204903349082,20.33071219400244,9.683786210456269,-19.52040594742038,13.265237435004313,-3.3011962859551875,-2.2787266684477703,0.15210902744389557,3.1612791880519127,-34.253015624314884,45.062605918767,0.7639278960472279,-6.0507823813146056,-20.37819781716143,-4.271848290480014,7.989781107372279,-0.8086768513904232,-0.6797443156478851,-0.9862831596766739,1.0018148137039526,-0.5037419878107724,2.2715187929898817,-2.107900358213491,0.5375595020606971,3.1975557794539204,-0.24582385460090683,0.997870398919881,0.28010513151083394,-0.3717476406275645,-0.07137650619311692,0.5643440025521091,-0.0756232612444462,0.3560005665163901
6.599777886544357,-20.555229649461467,1.5987971469081335,-6.6345841155257395,4.586874004399772,4.012298536902628,-20.64046658794878,-20.07713384900194,1.5978315125151945,-33.041018806929486,13.245992279906844,6.010273740250886,-19.813160962794655,13.604076178420426,-3.779679671274954,-2.281771422475279,0.062371743610957354,3.170557160169481,-49.4475345516159,15.833739152964737,-3.507300783767513,2.534908967602909,2.176461786815052,3.3492738161462023,5.578014366856066,-1.2447268053470055,-0.3607364980665212,1.053354786044324,-4.303746337263995,1.3450584453919143,2.0447833759800984,-1.755818847414244,0.4286190378560229,2.0387012763065426,-1.2425424912769516,0.16982452572738063,0.24856710603114557,-0.029377866369153047,0.17629988905543334,0.1687276743530983,-0.2710253080681379,0.058597097313553795
4.829116123873451,-20.80613214678849,1.2518865567503357,-5.0039722397372355,4.538746647110332,4.229132022760328,-22.593038493465233,-16.2966418345716,-1.8149667517242767,-27.832714648733443,12.311405668842152,7.935261168233881,-20.245797995928356,14.999185975293429,-4.141844934265163,-2.5783336257649183,0.39088413759641155,3.2401848852014683,-39.04924723284846,24.591941431154467,-6.7801817180867365,17.373146463287107,-31.837870944914517,1.8776938344327294,5.26049374408365,3.0427264681376487,1.6783006493402859,1.0407295855017806,-3.406226446504396,0.573144239351375,3.1047647222075008,-1.404740417436586,1.667903101674082,2.2298792538481957,-1.5814602367177688,0.12717603943470124,0.4190719118667271,-0.09526289182521927,0.22333811412914992,0.11249220241773909,-0.30586922638807784,0.031427669786362425
7.6831825432296394,-22.589160313222106,1.4125135086148628,-6.291206357903038,4.893490846700441,4.060537529897341,-12.018720557893948,-24.000840562953236,1.5538005742086036,-33.28282142909136,17.754868060688644,8.58152779383323,-20.129546400809506,14.701050384274437,-4.268603698846435,-2.4919133615507896,0.4175172427778449,3.1453027499127497,-36.673719007135304,19.63219846732128,3.301773763286737,6.540101211029621,-24.283564491571468,13.20642762363044,1.6255212231262788,3.9784794607794414,0.016200726519152497,2.4147842283465057,-3.5531546863919106,1.5220911772777816,1.4793248354021125,-1.9522345539768797,-0.4105569210563871,2.1692776309625006,-0.8839650679510651,0.27482473306994876,0.13142790021065656,-0.24057808573788975,-0.18123149461878568,0.24993644071918375,-0.20875897649701722,0.10033082855196193
3.8930878777694726,-21.672324264727393,1.6140435497932055,-5.629763238927897,3.5774132504444074,3.9505166692347755,-21.073381547264322,-15.549148370322428,0.44261608689771065,-28.075279907805196,8.847966677130353,5.372065816402905,-20.001391668761727,14.663749586544778,-4.193809389889418,-2.489438176954863,0.5685850736403333,3.313605577956888,-38.59129628168954,18.16118706811813,-6.699629053739365,6.27709713096484,-12.652270330820308,-2.408847833780792,8.923492607729157,0.7143841361652854,0.4011319428942857,-2.3678332486880422,-1.9131853360130344,0.05768790825074305,3.8205436427919786,-2.665917379576145,1.3064056047758625,2.1013952834771468,-0.9374633279303094,0.4131081023576746,0.562934536664364,-0.3443922531529803,0.13035339681424712,0.23277124065991464,-0.21709305138205692,0.14245480303074023
4.937196366993214,-22.249756555958918,1.6804192056025975,-6.169476180574142,5.675607703769126,4.343870000010829,-17.832193037032606,-28.539786294178025,3.002595548736053,-35.457943111751206,21.11182076348151,10.349801000634182,-19.666304830017353,14.1719080060571,-4.373668795058791,-2.1814951509476677,0.35876337939560615,3.24979808223606,-44.29082448280428,25.321920323177313,8.389901084776067,-4.201968637512801,-12.069122582681418,5.826282044033304,8.491119614018261,-3.0105064358222315,-0.9214276692167611,6.067597449520141,-4.987889519992608,2.2272408860671793,3.047873800229839,-2.5267807711352157,0.5550064822719172,2.8117416664810575,-1.430261675811979,0.06239605786270001,0.37047455249880673,-0.14213285125445607,0.11658442950057281,0.20798975587319282,-0.225430660302066,0.03252155988699321
5.797775072021863,-23.79628870119277,1.844509595482665,-5.8281519049484585,4.106348432971137,3.900592544889605,-20.006274345230647,-22.958977608819136,0.6967735676080498,-33.22053524545203,12.347589224133394,5.712740918781437,-20.025539296895627,14.118497104674695,-4.223470797771697,-2.4818317470124973,0.41994182184087714,3.2303605204951014,-47.226896099977495,9.863451583576543,-3.8948617696715706,28.926612873034916,-19.876338909862863,-2.6621146862610714,0.505024359914749,1.2868673414282135,0.7947863104558569,-7.122424300686457,-3.433995186563546,-0.22550071382091344,1.6816523847845273,-1.778122096361883,0.2066837224274133,0.7772262569947123,-0.575844738152053,0.04037480600167343,0.24941209736544107,-0.25222068738388576,-0.00570100700786646,0.09058040656593108,-0.10150485690527615,0.04846821154721745
4.060801582467466,-18.153172482900448,1.4294091701221756,-4.63117645126553,5.153959622501853,4.3672656228330995,-20.996693736016525,-15.96580390866415,0.246670609665075,-26.96013299180326,14.648183956966449,8.846706853628135,-20.709884341773233,15.094954322764671,-3.599267143255986,-2.440806351031699,0.5089748925995168,3.305560595281554,-39.060714909523035,25.974640773678413,-1.5472895697073115,13.044492054880223,-6.619853422953959,-5.633525875526952,15.171845780278261,-4.055131045289917,-2.178559477403372,1.9388885367699373,-0.7867805627951608,-0.6768962610630892,4.339934208149135,-3.3822747630274366,0.819373993552945,2.538220860677021,-1.2840962647630563,0.07185291050995894,0.4615642085615203,-0.31218310790532366,-0.03423366941539549,0.18675053434683173,-0.28830864675034373,0.010556488370874199
3.434482933425717,-21.456998087290103,2.6327589943521446,-6.737908997010087,3.4114584863653596,3.935535965732,-18.570326632295803,-28.950164916034126,2.7513460843521087,-32.120497435768996,7.128391750248566,5.5250810445551375,-22.171624762104365,16.782321279593194,-3.757972480191083,-2.363221965112748,0.8011670191505454,3.2664284943926662,-43.8318036232314,-4.509320933489773,0.35224844592927507,33.79819819199328,-35.56892894525336,11.244117137111456,-8.079782653847154,3.8690571807889342,2.4784508172201845,0.31886167651526426,-5.1646327834780195,1.4715748186898432,0.879926997102201,-1.7888364168950364,-0.46841800456657373,2.403500337259918,-1.3699757758018314,0.10205057248708957,0.30625720040779736,-0.25676196380528366,0.03531924544588775,0.35835151690277156,-0.2894902331723,0.13472109284160044
2.38991,-16.98205,1.79392,-5.09913,3.862,3.72285,-18.58135,-10.66655,0.02185,-28.32419,15.69172,7.74114,-23.28622,18.29822,-3.58752,-1.62731,0.49246,3.09931,-40.00286,29.02923,-1.58988,8.67234,-2.64689,-11.57353,10.73428,-2.40599,-1.0441,-5.02533,-5.56303,0.00593,3.50092,-2.47668,0.92031,0.20569,-1.56804,-0.65454,0.45307,-0.15062,0.14656,-0.19499,-0.30984,-0.19207
,,,,,,,,,,,,,,,,,,,,,,,,,,,,,,,,,,,,,,,,,
,,,,,,,,,,,,,,,,,,,,,,,,,,,,,,,,,,,,,,,,,
,,,,,,,,,,,,,,,,,,,,,,,,,,,,,,,,,,,,,,,,,
,,,,,,,,,,,,,,,,,,,,,,,,,,,,,,,,,,,,,,,,,
,,,,,,,,,,,,,,,,,,,,,,,,,,,,,,,,,,,,,,,,,
,,,,,,,,,,,,,,,,,,,,,,,,,,,,,,,,,,,,,,,,,
,,,,,,,,,,,,,,,,,,,,,,,,,,,,,,,,,,,,,,,,,
,,,,,,,,,,,,,,,,,,,,,,,,,,,,,,,,,,,,,,,,,
,,,,,,,,,,,,,,,,,,,,,,,,,,,,,,,,,,,,,,,,,
,,,,,,,,,,,,,,,,,,,,,,,,,,,,,,,,,,,,,,,,,
,,,,,,,,,,,,,,,,,,,,,,,,,,,,,,,,,,,,,,,,,
,,,,,,,,,,,,,,,,,,,,,,,,,,,,,,,,,,,,,,,,,
,,,,,,,,,,,,,,,,,,,,,,,,,,,,,,,,,,,,,,,,,
,,,,,,,,,,,,,,,,,,,,,,,,,,,,,,,,,,,,,,,,,
,,,,,,,,,,,,,,,,,,,,,,,,,,,,,,,,,,,,,,,,,
,,,,,,,,,,,,,,,,,,,,,,,,,,,,,,,,,,,,,,,,,
,,,,,,,,,,,,,,,,,,,,,,,,,,,,,,,,,,,,,,,,,
,,,,,,,,,,,,,,,,,,,,,,,,,,,,,,,,,,,,,,,,,
,,,,,,,,,,,,,,,,,,,,,,,,,,,,,,,,,,,,,,,,,
,,,,,,,,,,,,,,,,,,,,,,,,,,,,,,,,,,,,,,,,,
,,,,,,,,,,,,,,,,,,,,,,,,,,,,,,,,,,,,,,,,,
,,,,,,,,,,,,,,,,,,,,,,,,,,,,,,,,,,,,,,,,,
,,,,,,,,,,,,,,,,,,,,,,,,,,,,,,,,,,,,,,,,,
,,,,,,,,,,,,,,,,,,,,,,,,,,,,,,,,,,,,,,,,,
,,,,,,,,,,,,,,,,,,,,,,,,,,,,,,,,,,,,,,,,,
,,,,,,,,,,,,,,,,,,,,,,,,,,,,,,,,,,,,,,,,,
,,,,,,,,,,,,,,,,,,,,,,,,,,,,,,,,,,,,,,,,,
,,,,,,,,,,,,,,,,,,,,,,,,,,,,,,,,,,,,,,,,,
,,,,,,,,,,,,,,,,,,,,,,,,,,,,,,,,,,,,,,,,,
,,,,,,,,,,,,,,,,,,,,,,,,,,,,,,,,,,,,,,,,,
,,,,,,,,,,,,,,,,,,,,,,,,,,,,,,,,,,,,,,,,,
,,,,,,,,,,,,,,,,,,,,,,,,,,,,,,,,,,,,,,,,,
,,,,,,,,,,,,,,,,,,,,,,,,,,,,,,,,,,,,,,,,,
,,,,,,,,,,,,,,,,,,,,,,,,,,,,,,,,,,,,,,,,,
,,,,,,,,,,,,,,,,,,,,,,,,,,,,,,,,,,,,,,,,,
,,,,,,,,,,,,,,,,,,,,,,,,,,,,,,,,,,,,,,,,,
,,,,,,,,,,,,,,,,,,,,,,,,,,,,,,,,,,,,,,,,,
,,,,,,,,,,,,,,,,,,,,,,,,,,,,,,,,,,,,,,,,,
,,,,,,,,,,,,,,,,,,,,,,,,,,,,,,,,,,,,,,,,,
,,,,,,,,,,,,,,,,,,,,,,,,,,,,,,,,,,,,,,,,,
,,,,,,,,,,,,,,,,,,,,,,,,,,,,,,,,,,,,,,,,,
,,,,,,,,,,,,,,,,,,,,,,,,,,,,,,,,,,,,,,,,,
,,,,,,,,,,,,,,,,,,,,,,,,,,,,,,,,,,,,,,,,,
,,,,,,,,,,,,,,,,,,,,,,,,,,,,,,,,,,,,,,,,,
,,,,,,,,,,,,,,,,,,,,,,,,,,,,,,,,,,,,,,,,,
,,,,,,,,,,,,,,,,,,,,,,,,,,,,,,,,,,,,,,,,,
,,,,,,,,,,,,,,,,,,,,,,,,,,,,,,,,,,,,,,,,,
,,,,,,,,,,,,,,,,,,,,,,,,,,,,,,,,,,,,,,,,,
,,,,,,,,,,,,,,,,,,,,,,,,,,,,,,,,,,,,,,,,,
,,,,,,,,,,,,,,,,,,,,,,,,,,,,,,,,,,,,,,,,,
,,,,,,,,,,,,,,,,,,,,,,,,,,,,,,,,,,,,,,,,,
,,,,,,,,,,,,,,,,,,,,,,,,,,,,,,,,,,,,,,,,,
,,,,,,,,,,,,,,,,,,,,,,,,,,,,,,,,,,,,,,,,,
,,,,,,,,,,,,,,,,,,,,,,,,,,,,,,,,,,,,,,,,,
,,,,,,,,,,,,,,,,,,,,,,,,,,,,,,,,,,,,,,,,,
,,,,,,,,,,,,,,,,,,,,,,,,,,,,,,,,,,,,,,,,,
,,,,,,,,,,,,,,,,,,,,,,,,,,,,,,,,,,,,,,,,,
,,,,,,,,,,,,,,,,,,,,,,,,,,,,,,,,,,,,,,,,,
,,,,,,,,,,,,,,,,,,,,,,,,,,,,,,,,,,,,,,,,,
,,,,,,,,,,,,,,,,,,,,,,,,,,,,,,,,,,,,,,,,,
,,,,,,,,,,,,,,,,,,,,,,,,,,,,,,,,,,,,,,,,,
,,,,,,,,,,,,,,,,,,,,,,,,,,,,,,,,,,,,,,,,,
,,,,,,,,,,,,,,,,,,,,,,,,,,,,,,,,,,,,,,,,,
,,,,,,,,,,,,,,,,,,,,,,,,,,,,,,,,,,,,,,,,,
,,,,,,,,,,,,,,,,,,,,,,,,,,,,,,,,,,,,,,,,,
,,,,,,,,,,,,,,,,,,,,,,,,,,,,,,,,,,,,,,,,,
,,,,,,,,,,,,,,,,,,,,,,,,,,,,,,,,,,,,,,,,,
,,,,,,,,,,,,,,,,,,,,,,,,,,,,,,,,,,,,,,,,,
,,,,,,,,,,,,,,,,,,,,,,,,,,,,,,,,,,,,,,,,,
,,,,,,,,,,,,,,,,,,,,,,,,,,,,,,,,,,,,,,,,,
,,,,,,,,,,,,,,,,,,,,,,,,,,,,,,,,,,,,,,,,,
,,,,,,,,,,,,,,,,,,,,,,,,,,,,,,,,,,,,,,,,,
,,,,,,,,,,,,,,,,,,,,,,,,,,,,,,,,,,,,,,,,,
,,,,,,,,,,,,,,,,,,,,,,,,,,,,,,,,,,,,,,,,,
,,,,,,,,,,,,,,,,,,,,,,,,,,,,,,,,,,,,,,,,,
,,,,,,,,,,,,,,,,,,,,,,,,,,,,,,,,,,,,,,,,,
