PaulMeinheit/Bachelor_Muay_Thai/processed_Data/N4/teep/scaled/JointMoments/scaled2.csv
R_KNEE_MOMENT,R_KNEE_MOMENT,R_KNEE_MOMENT,L_KNEE_MOMENT,L_KNEE_MOMENT,L_KNEE_MOMENT,R_HIP_MOMENT,R_HIP_MOMENT,R_HIP_MOMENT,L_HIP_MOMENT,L_HIP_MOMENT,L_HIP_MOMENT,R_ANKLE_MOMENT,R_ANKLE_MOMENT,R_ANKLE_MOMENT,L_ANKLE_MOMENT,L_ANKLE_MOMENT,L_ANKLE_MOMENT,WAIST_JOINT_MOMENT,WAIST_JOINT_MOMENT,WAIST_JOINT_MOMENT,NECK_MOMENT,NECK_MOMENT,NECK_MOMENT,L_SHOULDER_MOMENT,L_SHOULDER_MOMENT,L_SHOULDER_MOMENT,R_SHOULDER_MOMENT,R_SHOULDER_MOMENT,R_SHOULDER_MOMENT,L_ELBOW_MOMENT,L_ELBOW_MOMENT,L_ELBOW_MOMENT,R_ELBOW_MOMENT,R_ELBOW_MOMENT,R_ELBOW_MOMENT,L_WRIST_MOMENT,L_WRIST_MOMENT,L_WRIST_MOMENT,R_WRIST_MOMENT,R_WRIST_MOMENT,R_WRIST_MOMENT
X,Y,Z,X,Y,Z,X,Y,Z,X,Y,Z,X,Y,Z,X,Y,Z,X,Y,Z,X,Y,Z,X,Y,Z,X,Y,Z,X,Y,Z,X,Y,Z,X,Y,Z,X,Y,Z
16.00446,-29.85542000000001,4.38203,4.3503099999999995,12.23414,4.306230000000001,-19.49441,-9.910400000000001,2.3501700000000003,-16.13963,33.17738000000001,13.589610000000002,-18.4663,17.19703,-1.4191200000000002,4.469200000000001,0.6048500000000001,2.08915,-26.03579,50.10291,11.605310000000001,23.20185,-35.16518,4.42133,1.19998,3.0136400000000005,1.23198,-8.071350000000004,0.20187000000000002,-2.239110000000001,2.16275,-1.3313300000000003,0.26966000000000007,-0.6052900000000002,-0.011240000000000007,-0.35168000000000005,0.38664,-0.04105000000000002,0.16197000000000003,-0.13145000000000007,-0.10391000000000002,-0.15356000000000003
16.638361498639267,-28.882592292069965,3.7049880570201754,3.288006999188279,9.29560432453664,3.5048295638007447,-12.468027915428852,-8.161907140731223,1.8825945217443967,-12.908009541090822,19.53373778507924,6.783046698103492,-19.834179038400123,18.634853635478823,-1.6451243892670355,4.0566386523527935,0.7107178534694601,1.9778966724943754,-13.005208292434421,29.167980464521815,-0.14734974644878862,35.577609376970464,-19.876200338831172,-3.9587996138552444,2.2670063397715428,1.1987129576287443,0.01700949506332068,-3.33351546419769,-1.8848984141743517,-0.7313920322053458,1.4067653473672077,-1.465649621700784,-0.26489442244198813,0.8051631057188666,-0.8564144518946187,-0.06065946356431385,0.06966055354543622,-0.13523849156136789,-0.15604924640220869,0.017603216860247566,-0.1451432882953439,-0.010155674310744994
14.533850842573429,-29.423747101049777,4.171717198240207,3.5907312026961318,6.4950566153943825,3.2085836054024552,-19.413936271316935,-11.649675236829266,-0.36237647531451345,-12.13645486626704,9.707780695388346,4.540181893262079,-21.19353077642775,21.019148779127008,-1.9240320822076626,3.7324967775374907,0.824835874206154,2.048399833891009,-17.097734343216718,23.10583471762546,-6.153894334270066,23.019290998249808,-27.300308234504893,-0.8874148269941211,5.451223344564687,-1.4017766257495334,-0.9714282285458173,-3.1471656010745157,-5.3897217784816815,0.7092186968072233,2.1557764741892322,-1.7232001439697542,0.013049012109937703,0.5894138239414356,-1.2759441795411048,-0.3474981767666979,0.3303763336134898,-0.15558120326532246,0.005938587386186351,-0.06038569706739457,-0.15042167803463288,-0.051829413783342076
14.597240323316456,-29.923745160485815,4.307508739207476,5.6115835093612905,7.515035706461979,3.1987432897045833,-14.100552408424653,-16.71883487679332,1.2142976161870316,-11.745815284579317,15.164008113868634,5.592611289497168,-22.897758904276944,23.20246132558947,-2.3124860793404394,3.7118898016207207,0.5296164413778465,1.849502653696049,-14.05811452588033,16.849142849461234,0.9098734786706413,26.80146771143351,-1.904622794153543,-2.4940330445722947,0.8439491607734119,2.246956419986948,0.3377608180783597,-3.5691376962387924,-1.0137400311521942,-0.4102548082969735,1.3189362487628773,-1.3282844540599634,-0.1705159062294483,0.7382594918994649,0.0013581032495669563,0.2449408370617814,0.30867447419809496,-0.11174615997433529,0.1085279387176642,0.02184674209567513,-0.0015430647933924308,0.026700226246952848
14.486599862178696,-25.0820262131796,3.148118736201296,2.0704999573713785,6.180608663521182,2.6861134640834328,-18.98682707340605,-7.160406769203095,1.2884980865642275,-16.268641681721554,12.789187679883568,3.4538056065899427,-24.57648923576802,25.2090840764935,-2.4748051190033205,3.198279246261828,0.3309493886731749,1.797314921451548,-23.466742277998353,28.296614317599996,0.1861662554783248,41.534386250475464,-34.43156018914267,-1.9197613984146231,-0.13547104822714928,-4.269649138214567,-1.835490108388108,-1.1485273453072973,-3.2989921721454465,-0.30818848147445926,1.015240393315431,-3.1611952282864295,-1.9914837923133102,1.7271199014773793,-1.3054154944583016,-0.3836730771297427,0.03507472150146935,-0.2720467491962245,-0.2783036292987151,0.22651289118142467,-0.29308346938806973,-0.08729315283652235
12.734535409603417,-28.229951140252005,4.048135668132769,5.4216169679584505,5.90466350316641,2.86962481092743,-20.35877362385317,-17.850587338319368,0.33623988724429826,-2.256482517424031,16.95141248014412,8.70089069135968,-26.14387539296934,27.775397122368435,-3.0755907444035,3.3366942361289427,0.26331841565268166,1.6949045331711148,-2.670466033675623,27.478894672589206,3.7162131151441145,28.164012228447667,-8.698050491797245,1.1359775021962515,6.518804455767697,2.1043372539469702,1.0115051959248602,-2.3090343123206134,-2.8549635396585744,-0.1854041795217598,3.0240324686188615,-1.2178239469238752,1.3674363267429859,1.5205343385180703,-1.1226005403882002,0.1928174075107673,0.4648002288971419,-0.16199918730539933,0.09851989178149138,0.0360655317910884,-0.2833676954587793,0.0189010263728526
11.719358527387843,-27.34897976341332,3.6198055429538365,3.649408598477016,3.0763756211049125,2.064133332170618,-19.83245206846152,-8.529787070507187,1.201814206323991,-12.610432866561617,4.0645987744493315,1.6368831396356402,-28.286834630534077,30.59201915548005,-3.7798334231671764,3.249079820006145,0.4651816000762636,1.5319264527640482,-21.556028352883498,19.243092144210177,-4.256018383105523,24.667238418485425,-24.78894901690804,9.41191067831802,1.2733843643454763,6.108944102526267,1.9345115130012915,1.0375933894475733,-1.9501210029682716,1.2630051623680316,1.680492712998987,-0.43394531618657334,0.8730671755745293,2.784879047874882,-0.07913881272762345,0.8485662937093764,0.294901443721568,-0.039646499090778026,0.10919425215328576,0.4831218669321114,-0.027161320819902135,0.2546599768180759
13.96442170571373,-27.911283090602698,2.7855610849085033,3.4188002975821186,4.171200120704141,1.9649922450483661,-20.064254490032216,-6.590587644176529,-0.10745339285282471,-7.6879317124692355,13.79967244872118,4.845870553910565,-30.25887647975993,33.2341843686751,-4.463311586486859,3.093987066496185,0.09125141478039615,1.386861676053972,-10.301320271624629,41.7530611494333,-3.1690906056200316,13.494824314614354,-23.825242005217735,-4.132517171030149,3.7999018127967945,-4.103838143030623,-1.7466097659038315,0.23740024277628385,-3.899546953497719,0.22798134875982612,1.5134242865639091,-2.5723242470488907,-0.9326257274248437,1.7004327588266404,-1.25946450818493,-0.48707125927255107,0.03681621558812758,-0.1983491601801164,-0.15959958828402987,0.061510848589309296,-0.2269709191363278,-0.1525095512221311
9.555614993490023,-27.320743503855624,3.058998390573425,5.0047713551672715,4.68039377585976,2.7457991632998078,-29.3158580673648,-11.370833400504258,-2.4143216629048294,-5.915770952644221,6.875495843906857,5.784862138316627,-32.38466277882613,36.56461061596019,-5.376315186549051,3.0835507069915664,-0.2441632856176791,1.5246995857458052,-15.21263597780808,27.395095945726375,-3.148222119053272,42.15418699000248,-20.501451983513892,0.8957838918526276,7.0547510892918,1.2739549525338723,0.33897621231869896,-1.5931601908358342,-3.9644626926580453,0.4121088642753119,3.3373262556593914,-1.851639515499836,0.96223947520037,1.6325545475454752,-1.0548694231630287,0.11807033633220328,0.42095259204741775,-0.051570457683938246,0.22256958936178475,0.0979860067502729,-0.17277416091972148,0.06471432766690839
9.967735305886755,-27.3069384174421,2.82963509984045,3.159426672618964,3.96599507968758,2.0214450687255887,-22.80725333187276,-6.259890291977123,1.8586253798402506,-10.254954646647363,14.338242478572685,4.4719244425221,-34.37794325452689,39.86777834441718,-6.280738542586095,3.6859789612711475,-0.7017386306973501,1.4544064918837816,-15.716387220310992,42.80499957024475,1.7279786395201395,11.372864393804855,-22.727734358833192,1.8902865997630987,2.9439981533904724,1.2341279186508767,-0.519931339780457,-0.9259984606033028,-2.1530092491096204,0.666888380874489,1.97748094192534,-1.8714628740836408,-0.4903134064990395,2.2973866405414194,-0.09290716070163106,0.5956082615357353,0.43964850225227764,-0.299700767470686,-0.17996015553094372,0.3548614486818426,-0.030723168048217245,0.16831999342511472
7.748380431442733,-28.157501663772674,2.769274620341658,5.388238834709785,7.633912793547876,3.1234023821870722,-40.846723194524486,-9.384004209035046,-2.2695170341098008,-3.5307430382492475,21.121099946411395,9.85475418008277,-36.341098473616995,43.06116585524007,-7.405038910408444,3.7937005560043136,-0.5723615959471131,1.6503576741294335,-29.84802935465293,48.838832611443024,-1.7272213050455418,34.93116117885853,-24.327160046729976,9.200143847046558,3.007703844317809,1.155984374150619,0.4650863045338218,5.72379521222004,-2.96424187717981,1.8033136438830288,2.428838892465976,-1.7514686088120637,0.24133145148688484,3.2219484635728763,-0.9187974871966341,0.2982039094544346,0.382074456376095,-0.1489458628886014,0.05049057455236968,0.33774866823503463,-0.1938809710528807,0.06856778285941263
6.743841764566818,-29.14729089616365,2.4003366394606167,5.567659648701405,4.838544696106622,2.6619222383027363,-38.12372809300097,-10.015109501463291,-2.4908653459163155,-11.509421868987916,11.407724267828554,6.659843471154688,-38.5026529474214,46.95039028392692,-8.633056679558289,3.468021552372991,-0.7107876503714434,1.4892687277712122,-26.85627817305504,41.22791685891756,-5.726757619534868,16.02810376314749,-13.14158549025896,2.0518719913226238,8.987440718765443,-3.9730854060527863,-1.7387661760156101,2.600890312368517,-4.253667143753248,0.8663160888329896,3.5576215355892242,-3.2960889459123925,-0.19335882011895197,2.8021482311623336,-1.209761859309119,-0.1693810724911806,0.3434458515334226,-0.2422267852874504,-0.07074953865119056,0.2524955557271982,-0.282680743815284,-0.07669997692356553
4.720072434672444,-27.151148880171025,1.3537852257119716,8.180509869805624,8.564774053516851,3.2745227784643083,-33.04115814196898,-6.698533343658807,-2.4400272889921695,-3.8207403243401097,18.72626040663387,6.241425142105037,-40.701591622268985,50.38774364725615,-9.798083854185307,3.443957192749805,-0.8297708464351766,1.786618151544612,-16.453009048037902,44.01322510405737,-4.82392251792855,7.816508040122905,-24.753838330094972,12.308776797620348,7.541261623362051,3.3003190987452524,0.10776435267281723,8.085337812249808,-2.9515405668797463,2.9811333685953896,3.1087379722183393,-2.037221602080019,0.689233491674235,4.82005524094754,-0.275007007805793,1.0005655343021784,0.4425976963181735,-0.27933812507016137,-0.06604304857827412,0.5997602205335179,-0.03880796827589537,0.2651285178506002
4.427734246635814,-30.732277775216712,1.6259057288397023,5.394464179548538,8.320578892304209,3.5605402124880614,-40.12523778439364,-8.411742538538922,-2.2815474983550983,-18.030717318763486,16.938301916415295,7.846232733836001,-43.02605929736248,54.34016057125186,-11.20453263921919,2.4346517964944656,-0.4932918170553758,1.9882275224013797,-40.750355914559215,51.74229927827847,-0.9540920985475105,30.881569480709075,-35.17601371965073,16.11115718644288,6.915126927908325,2.6646851260085542,1.7763697889237648,9.185177297328032,-5.1169011890137135,3.223692653148172,3.7853431697833635,-1.6984380008367697,1.9460969388180682,5.657539349686601,-1.0351915323307297,0.7075642264445465,0.5252853869417491,-0.09055232963421664,0.3599099928717262,0.6754671749282369,-0.2116999176181633,0.2148917750512898
0.8782496680799003,-29.38072459887564,0.9468528195225691,7.075314416771954,11.334054886402484,4.203959172512736,-45.88751125826097,-13.215277151767694,-3.4542585161538404,-12.552429481029652,23.548963714772604,9.257021142973377,-45.07332223927529,56.66880683360604,-12.619105125711712,0.7436139867587266,-0.3855902751300641,2.2951567561871804,-40.39544250313251,48.378925338665,-2.5033234117355123,20.993812063215284,-14.266992621465103,14.885987702714704,5.0484970862795215,2.927851306139946,1.0516569561022686,5.75676609518145,-4.235790129085456,1.5921134456910286,3.0636749723977093,-1.7301861675251418,0.9670542872207919,3.8352534872281914,-0.8951347380147443,0.025408814567447677,0.4730157115147744,-0.1448454225742067,0.14693043186148688,0.45023716528538726,-0.21595214621677578,0.006987072579564852
-1.3190209387052954,-28.073441253454305,-0.198228843169211,10.979087774582682,10.665429482019453,4.520159891940458,-41.86081152088946,0.4298302161379469,-5.832291342985559,-7.30340794955313,16.672514170256132,7.131946283796955,-46.480840531251815,59.37854867388254,-13.857397573218332,-1.0082750672748009,0.13689233552462918,2.4866749030505892,-24.772073915437602,57.24581720889358,-10.788365808129276,30.29218505918701,-32.97329653259753,5.866340024732071,7.6578986113643515,-0.8352579960700515,-0.4210321024706099,7.92985607924625,-1.5233647066094995,1.8695941696490044,4.114152922342477,-3.6817185176160714,0.0477829079156642,5.490446705805788,-0.6071700047551551,1.0110527896083181,0.6709368971413836,-0.48564805780105424,-0.09399376056708944,0.6960892801127655,-0.26113275207589204,0.24774519025395797
-5.679186078855372,-29.635601199966686,1.186227736342128,10.25407538413995,13.699867758425238,5.3081500605857235,-65.67717446406581,-7.100202833932155,-4.351134709293132,-3.935394354927193,32.50419887050639,16.9407497654559,-47.90682238887648,61.53106784638356,-15.031425173324957,-2.9090473395756486,0.670916046516496,2.8069826946750873,-48.129257613978226,79.42562065410849,-3.8625015670547804,39.29311439912719,-47.589082986610144,12.707021309892827,7.527568177246421,4.479486766297475,0.9428193001185176,7.998585054089798,-0.8787314962221858,3.25269573802248,3.472902607020549,-2.330462145700166,1.095496060458643,5.73015794946811,0.8069135378933194,2.043630929010309,0.37641005280172724,-0.21669853906487066,0.05447976490043918,0.7334982700121416,0.03411854885549857,0.4521054657667789
-7.850158310400318,-26.94288660575205,-0.10392757923015075,8.645703024274548,13.84244503030496,4.995384773465114,-65.02477983822604,0.20665994270142077,-4.97815093802173,-19.457345474756668,25.080271263948557,8.817713748807755,-50.10414400597179,62.33538411369422,-16.24814724854791,-4.691372245352859,0.6180036365425604,2.8312452943867434,-63.46076501482116,68.8168811747074,-9.408550075540347,19.096567988497902,-39.06469340666,17.747394586433508,8.662923942384046,3.750765887392022,2.705272793772339,3.463636862324981,-5.553720043737237,-0.2001872977557933,4.187375155041584,-1.7578667781702522,2.8658537316435777,3.8288452260482666,-1.4367534171827172,-0.8467022002356794,0.5768045370413859,-0.1403063614514088,0.46755130693379676,0.5281360467028944,-0.3350662870239447,-0.12432243832733027
-11.547257317954553,-31.13342917972086,0.9877517438094034,16.002907978669477,14.334891921195547,5.589160568634091,-62.10685252720685,-8.772004516264365,-4.439046122141632,-5.459450090398203,24.542243621441635,9.039214347569843,-51.16042791705042,63.89563598962308,-17.66420891045308,-5.477966285724177,0.5702069208444157,3.02528751568094,-40.49245164839482,55.10280377254565,-10.636012438857021,16.54088020197751,-33.6505853914464,16.881416132510886,8.795614308314546,-0.6654118920762127,-1.2700649718992518,10.787589108157116,-3.887228053166521,2.8470324584420044,3.497602893209671,-2.6470288513313656,-0.09950282902079169,4.924052548975313,-0.5917733170455983,0.46855109680990326,0.46913396780232797,-0.23364697411283727,-0.11103383891842158,0.1783012969746109,-0.2078999435311922,-0.01215411342980427
-16.75500042143836,-26.35708673906581,0.3768898874128361,16.095099497289144,14.807531803190303,6.005804102663067,-75.81818778960154,-1.9663339203639987,-7.320902894220497,0.9880427222440266,24.751393301915442,12.858717532024432,-52.225387121093426,63.401640746548296,-18.222756979615475,-6.710981038117459,0.6569634447755187,3.1201994489777825,-54.78092552268011,64.8605251929686,-15.916493365182582,47.095647391805606,-19.44567618877809,2.3276459269234766,9.498176863645572,1.2559083610125616,-0.08045746715611363,8.610278945119724,-6.730277268313586,2.717180682300812,4.052683057182222,-2.866019288227316,0.801136553070168,5.568769982085197,-0.11887456616853434,0.7501898860100136,0.5561707205145833,-0.25897592567206773,0.2039764829356193,0.9151310540921561,-0.025444107774361995,0.4355230558060147
-20.276380035436716,-25.97251608209287,1.2241217573173206,15.432495506623898,13.530565439778142,5.035662257179755,-72.99673969101488,-5.159021853627248,-2.1785831991852684,-10.713867091374027,22.967043344307054,7.265276987194413,-54.17686762857099,62.77833923462706,-18.81526461451396,-6.3250996393819765,0.2069960856367275,2.8385126838048604,-58.67341663559335,67.57457089541975,-8.79255889758351,37.42203032211676,-42.04828339031314,13.75878584700926,5.708543728064515,4.980465982435699,3.17205493765453,3.4108818919323247,1.0517840747902414,0.08408777615273595,3.7972187358773053,-2.3340296523481427,1.856117535307094,4.360799012975758,0.06402457797941928,0.6637232770559954,0.4629290252779614,-0.21452934625960698,0.24735652262479577,0.6711399203477519,-0.2648039592304526,-0.10686066488797782
-22.100532867901602,-24.575400190090825,1.4278451765382607,19.256114432376734,16.03689269140991,5.287849634242889,-74.6469895613981,-9.742052551592637,-2.743507459845859,0.34202288631785915,33.302983323781696,15.76403618907744,-56.75281393134743,62.230871347754494,-18.835145438364503,-6.0486137035323955,-0.15420959596741407,2.5144570723332578,-50.92027041184244,79.1858075600488,-4.506310334549728,25.917823325792156,-65.4990153657882,25.909529349353175,7.838298885359327,6.943429276754966,3.78060584530946,1.7530034517331163,-4.40164689398394,-0.24692908436286665,2.954095292093169,-1.7987259093951518,2.819159015993599,2.764720135569088,0.2867176949541711,0.12770974127636314,0.23034152468841068,-0.200476859575881,0.19499383920765176,-0.017848202164451557,0.09000288665685513,-0.02269698868091649
-27.50169266585461,-16.476547985071434,1.426990865409115,21.093908702230745,12.059311595385832,4.650029574663111,-81.2608860578032,-8.915053662614627,-1.8531693406162228,11.480382390144555,18.929946932530655,9.320002754437096,-60.94820826945911,62.94856079988556,-18.1299973950237,-5.086958802663408,-0.5014632546363811,2.2341559873227483,-40.93356419974156,58.721652243888,-14.410468837375179,26.470558856848765,-34.41489165392845,3.767474718293053,7.843966500184336,-1.6881284497487368,-1.8018073656888607,10.114287021016802,-0.9304043426676624,3.4722383338740377,3.7751615795008098,-3.055333048308638,-0.8236073159679506,4.507643943876737,0.3471591475870761,1.321542620805785,0.5307705059195496,-0.317247228311399,0.06362648424862256,0.5120740140809757,-0.10816026552705398,0.09847041857518381
-28.751005147649273,-12.369303876669166,2.524993845231289,19.414658155323856,8.98365819108052,3.6699542298186856,-81.5476810637956,-13.635429488167828,3.593164421923883,-2.848438609767822,19.725346045121615,6.880540612683034,-67.30301670332015,65.21854181711264,-17.262311828519042,-3.463815917339128,-0.49721127989591596,2.099968958022605,-67.26633832872514,58.05358599311504,-6.9421678337830794,74.41175581939099,-46.00885111927359,-7.168263907319724,9.859881491363216,6.12557611865913,1.5148582818909961,2.928237573508996,-8.263028323455652,-4.252594046170683,2.714095980061931,-1.7935161559214843,1.4500005217788419,5.4321854435907495,-0.8039597555269806,-2.033480948257947,0.11958295535822397,-0.059036752277969014,0.32497027859417776,0.8148147276096681,-0.33369107511818635,-0.4627847890146478
-30.19503070603867,-3.4822418184812203,1.764082523097521,21.424742021272554,9.27426034576984,3.6111518562918756,-61.30006603419761,-6.825060520325617,1.031823284483696,11.305374809384135,11.944960341686325,5.442621877771858,-75.18532369044976,68.47893380155325,-15.959354714899924,-2.0105631033010263,-0.8323153518000022,1.8679511859794307,-26.163791194359554,64.90233105948845,-5.206033062018046,34.56046431621029,-31.58264950870274,17.11799086739552,6.829859400339793,-0.08841985617706516,-1.1849785839712923,-0.4322999990920976,-0.42502743118787467,0.49596465693034036,5.414659087482037,-4.044478033354191,-2.3899026291610452,2.526703108909598,0.5479578336643994,2.027016869732967,0.8703716726389409,-0.4007590339754905,-0.5648098837436227,0.2352207230902867,-0.005450146953060458,0.2502287679129599
-33.37110073992243,6.216094312831861,1.8570832767448444,17.537712653405254,7.773204846104653,2.6760522559154194,-62.00560834816254,-17.011900015789287,3.0105173088381707,11.29987308701085,20.04594178386538,10.213138937389395,-82.32407822188284,70.09708185666965,-14.447562152372022,-0.6909594501577647,-0.9437689401044222,1.4678337086171271,-26.770063075993072,60.14667961446399,-0.6083823522434925,19.382532950039405,-17.70524194123962,-0.4072105680751752,9.576818864176742,0.6416194866419477,-1.4867786691560976,11.098569582019671,-1.8878154604011723,3.3871560579095954,4.140071853134601,-2.480262731674998,-0.9788056182497352,4.255502566326933,0.4962528168240303,0.8273417778769195,0.7011443864337453,-0.1666721045335987,-0.20004407888368558,0.42851949390424443,-0.01424810537045955,0.0932208526024443
-23.528064499736963,13.100559989830789,1.265184553355072,15.729122475193465,4.32194388526724,2.0489783296205504,-14.206096493715814,-19.89065290030471,6.337005724533026,-5.00786764720699,8.189031494663492,1.6753518154074523,-84.91136910992662,67.52123779002784,-11.84919102644403,1.0545869790985078,-0.972280145392828,1.3644997871937812,-1.0793069147132104,31.053472586915714,11.184610355856979,11.71762237849138,-31.742465909131496,-15.332501135518655,5.969224961595295,2.2843056226981533,0.19083825463747342,0.5287797553156874,-6.818388583772247,-4.110221446217712,1.9519165929742543,-1.986462023473198,-0.5181657377764924,3.4854613876450564,0.016951117438533968,-0.45211929038250886,-0.03195510238321849,-0.1093751098887404,-0.04094302541676545,0.2670420504940708,-0.10521292805090475,-0.06412406380604865
-7.282012258851007,15.429622745829043,-0.7532322443642514,12.28130944536624,-1.1629136105361442,1.7632201916977313,37.42228281252632,-14.676461390507983,1.2980213688324171,-9.138173411954012,-13.306724511757238,-5.973785774382245,-78.69022936643276,57.4935308908413,-8.473012535347808,1.8741166938470062,-1.2037289824037702,1.0411340828545057,39.36412157135778,-3.0068230225088395,11.68901792350038,42.788953831702784,-19.26373565247838,-13.507665931249532,13.01402419007208,0.025046010698159964,-0.455537033772203,-3.8391883703213403,-0.385955555083833,-0.6236875865568067,3.4715013311478473,-3.0664374840166584,1.3991428794811633,2.3186128749006203,0.10216801129718019,2.5429378029038885,0.7234423448740492,-0.40074369826467465,-0.030983651857084044,0.2509638983967529,-0.09037904242785157,0.05368349921639911
12.166525555695522,7.220600453167981,0.0009500022462992919,5.870552509752519,-0.43365198562864277,1.6482178850275895,65.10844194753125,-19.068330985625806,4.957921185155836,-4.750494518243044,-9.334517503124104,-1.9163534776169582,-58.83310647457036,38.828655934490286,-4.827963582724,1.5276565125441932,-1.1295790721891312,1.206860681034284,64.5842918803361,-20.80680169232715,27.263433274596277,46.93463206170652,-36.73480370038853,8.766895725913004,1.1980288302536506,4.865464336804099,5.888006088532777,8.7529079054815,-4.261185584929713,-0.041853538901606605,1.8515731705706076,-1.7326922930075406,1.1437182427139343,4.11924737984304,0.43704075238895884,-0.4617170706726575,0.2636427751933473,-0.23891237964334283,0.2935159308248724,0.4912208204162908,-0.02357360894885174,-0.25816257017698285
21.809736742849324,14.613658830527575,-8.432760127611607,3.636610682582988,0.46439238504188957,1.7717353672350087,59.61465479166067,44.19470421274712,-0.3354637967549205,-8.86816327433899,8.124139077276379,8.518328076929528,-30.8952590843444,21.159366206645927,-0.4378364063273606,1.5173878052966832,-1.09419592936815,1.3074006967093907,55.5555805882006,70.18946600584988,31.540685177975707,-5.129674435113876,-25.62927965443282,4.031670881501574,6.794576044342982,0.5734418980940473,-3.004124882241014,8.37357169568059,-4.959991405084754,-0.4954503485221664,2.9992432165431597,-1.332429887579233,-2.483341348609802,2.7733771617625376,0.4379897651211533,-0.7010894705578098,0.276086954512702,0.040571446319849803,-0.25147097032613835,0.11521592863671022,-0.05564678424165259,0.2042612749032312
13.62084843664796,20.51574374130653,-15.240335674015903,4.9055392214628295,-1.4316579325685654,1.1743368660710083,63.650751640030464,41.35705456302864,-4.915112203505522,0.9264437113462562,2.0757577308676796,1.001052219147177,-9.703689266681062,11.194574069513061,0.28420945861314,1.0447752065209432,-1.1353709044300595,1.0099854488129356,81.22529058511834,25.850586379593327,1.6602967540856481,39.580919750959914,25.512538664867204,-31.368578936097535,15.387783946931243,-3.4369179380183907,-9.082960727499557,3.74322207794656,-4.152194696044822,-1.1063007918482686,3.3777071503498926,-1.7889931688265417,-1.8241036882595123,2.719785054906613,0.10138745466543846,0.5832530677925855,0.5959986727685036,-0.11754102600207546,-0.3139878146133881,0.2940105898780827,-0.14256700206509793,0.177548894959215
1.1334003287419745,16.51022112871225,-15.546521142805556,3.6028032483821457,-1.455762984863493,1.3513726399027994,33.30027439242071,31.21569436275733,-3.2842322075526518,15.522057692994364,-0.0031234591622328334,1.8352702854629206,-1.8711874170656775,4.321851479151043,-1.3199599822730614,0.43807904059732333,-1.0960540208350844,1.1590922898741949,38.620213744621864,2.291234332261726,-8.234523539563641,25.864360731408006,-17.47858918735439,1.5639701907269923,3.5769217418876837,2.152075333747398,3.4889349787657653,5.028724726159833,-3.7749987716900426,-2.245063826770191,1.6859788598551901,-2.036965556583964,0.7225466998417718,3.107791624559717,0.5057621797540617,-0.6731531525543855,0.03574997386312284,-0.25305887742983385,0.26406390882048636,0.394149535843104,-0.006933374537330172,-0.18979596726190348
-0.6784071063434491,1.731541592075647,-3.1911877427985424,-6.123327121541375,-1.4616416000802996,0.8172505464012885,46.38329253417924,-8.179723124633002,3.3308664501070875,-9.002429651652355,-1.7269670579131864,0.7299636521179669,1.3347385178138171,-1.0962519902442511,-0.48191816642545177,-0.5519121606942352,-0.7994157341898465,1.0949522308640358,37.099834817773285,-34.57063933164186,8.526729476561615,-12.579365462546816,26.797550971208306,-4.411461129134807,10.014287558437845,1.9972520187261784,-3.223648594941836,7.902599141316733,-5.231887055139923,-0.8793433514198696,1.3494573045906952,-0.44418095464177737,-0.7438280968407477,2.69518478379602,0.7497833785420603,-0.3277704560215538,0.009133531922376257,0.29379564925828006,-0.2043367224545265,0.46752738725341714,0.08897937019325815,-0.07110455424721696
-7.741766450791106,8.409991990913284,-6.059144949671579,0.43150838217814724,-9.87071332458006,1.2466496451910485,29.371685213643108,-12.388284389826705,-17.519060787809106,0.11305935974784356,-30.093556683200294,-10.113120580042128,1.5648842074736127,0.8971849165101741,-0.14674595034451146,-0.21381480338275094,-1.0262018988883537,0.6856746625927276,20.494157781586548,-81.84146013527804,-45.10411584712408,52.664393595544446,22.48746280706654,-16.040704844885138,7.738937349454772,-1.6843865369466113,-8.299041377449708,8.134311974055601,-4.573479926039756,0.6379814916126607,1.465234993656381,0.13479667785569752,-2.498541282750148,2.06920391512468,0.5021475192552789,0.17730767336684886,0.22967082274480963,0.10186793796364313,-0.3470373689281544,0.0421231056745694,0.06618863540623218,-0.07323327122433507
-17.075477860457923,10.520691471444804,-5.012506818031465,-5.352396771449566,-3.7466742881752375,1.3069570497813678,13.551532974497453,14.471101958512437,15.62661749427952,-4.203482331918155,-11.192141448326836,-0.14891971532253673,-0.535894734914305,0.3976562948710539,0.17847482680397603,-1.7064400024588429,-0.6075760946697646,1.1046955616440841,11.124871511815165,-15.126470006037689,2.934470233687481,63.103479319191365,-3.6065125760144277,11.452577277580192,4.228859781419956,2.022329888190106,7.098537369612215,5.278178717966785,-1.8801054236850727,0.9804058513856401,2.0535403228655875,-3.4148129191061116,1.5480523225036606,1.8263355012742712,0.05159907447223642,0.16873338789032638,0.25920052842954927,-0.42814160065336343,0.21781880699773018,0.17513908371627518,-0.10355632630311276,-0.014732704578795996
-2.7862046468049355,1.7757503784803952,-1.0259277395778132,-2.9772675997451064,-6.014611723706439,1.5216938774906135,33.80627056977269,-1.2942531887231472,14.430546690488907,22.404729567033367,-14.26529312946187,-1.0641950624134267,1.068101630630674,-0.5608498945267769,-0.382088845547283,-1.9163882375337726,-0.79897599059458,1.108322556875841,71.91643748207134,-26.064834294210023,11.762310640758706,47.50510056350598,-7.358692268065292,6.264410205786592,6.358648599628446,2.9301422959293926,2.4774418832337295,9.44066975729391,-5.281831525576374,0.4757053197664375,1.4282173246128804,-1.4016912966371362,0.15922589580615612,3.1679326945864696,0.5694206577196642,1.0221109881750507,-0.06412439246178377,-0.048011297045836974,0.20542058112954206,0.3011926677944666,-0.009404164802073789,0.1052083136583781
-13.641344976114663,7.337997697716813,-1.1013795917171076,-1.9954530052257538,-4.324242649728884,1.6189931971667633,2.0115676346214717,5.7542477708407995,-7.774907200373958,21.272519910970004,-8.748620423140949,1.206038565592912,0.30815226154382286,0.4713831912468176,0.014816496833967532,-2.235726294724988,-0.4723526615733864,1.0710289132755502,20.227883912707345,-10.351727027546383,-37.27183475797934,7.900844849354562,27.144917303887624,-7.887054681337033,5.235717298441861,-1.7067841073187322,-5.855930948118546,7.646300489953263,-2.379504491439691,1.2851568538597842,1.5086788796914872,-0.6196192611890726,-1.45407714924899,1.5082217173029724,0.7926831347362878,-0.5513042149540206,0.15752722753757262,-0.06723086443583419,-0.14011086660980115,0.07021645359910389,0.1663249154064613,-0.2057346632416259
-11.510044436344286,9.572406035347461,-2.079028522196866,-2.303344012543443,-6.380554849186672,-0.3252060202141964,-1.0876904540592294,-0.6157326116562211,-0.00750150411726036,18.471285162166378,-25.51274685215645,-8.847878844633799,0.4073659888478602,1.0956977980553113,0.6579430737986395,0.09659318516765836,-0.5411123694813138,-0.6720481646886596,22.61311111834503,-38.43504741810973,-38.49213082168538,15.983821116144712,17.75477007768474,4.273223503935823,6.606236971445878,3.2356287897132425,0.03219244000377558,3.3434140596927806,-1.1127123751638863,1.0363354976636763,2.4779823148372566,-0.23390802725269544,-2.3625916111764522,0.7701177993985575,0.04127874614322602,0.29360063205131576,0.3530205847778454,0.2763967903686587,-0.346536516768585,0.1888661205724463,-0.3032648824744826,0.3919958633576054
-2.1852779115721677,6.130840953587368,-2.743459460656316,-6.166723495672691,-3.814628657557716,1.7013078060721634,12.191067352573981,0.6771879161609776,48.73507688824628,11.891492581213548,-17.44224284317385,-0.5441823663765772,1.6417553287233906,-0.8622963677129426,-0.6952397421186267,-4.322098426873095,-0.31675809129273436,1.0466708004580294,45.430386111356654,-13.204786745063748,54.07891407427596,71.59457508501801,17.660152531956896,2.6161220247055166,5.123327265314887,-0.8696552695721481,2.646521454259326,5.084669864756279,-5.424674381611266,-8.91267489963776,2.4123791619628703,-3.50270789331119,-0.42022234922443136,2.431132235179599,1.290249935316692,-1.0225665122645753,0.14152214659467938,-0.667769965009485,0.1458393919800508,0.11999056587341027,0.0832155111301842,-0.1370156647540938
-18.251620424075647,0.9557630717187069,3.489127429122732,-5.099914856397633,-4.712840402656445,1.404977161588308,37.62289890870351,-7.569316843702926,-6.226451217457077,14.62868244897295,-0.20915726612187432,2.241595770373237,-0.17589056424470098,0.30261350555952615,0.07849808715605897,-5.231408310155652,-0.45799690870346865,0.6415488590856743,67.40554570929227,-16.487780947938244,-17.030788113547338,48.387123123144725,18.83492305097684,0.6062653355755558,6.4570859536865,1.7328054341988506,-1.8767110857625888,9.073959586745149,-3.3719530161992846,-0.8896808444986672,1.129518053099982,-0.3530731142442469,-0.6565105103546724,2.2278971696313787,1.1891990008892803,-0.7806466346292228,0.19250285491317223,0.054297298544340636,-0.07656404293099736,-0.07338839068758762,0.171237567906122,-0.2597817344290599
-1.9580341222771995,7.983083268306186,-0.42536928673769675,0.6071587543705083,2.06992759671889,1.2358375730608417,8.940354053058101,9.53102685697314,-9.325061540259677,-5.265649786752687,4.742292795637795,-1.4162755512790508,0.6887624858399616,0.8065245008252265,0.5099892654392554,-6.638835638129729,0.07364668273683311,1.5297128459804497,0.6882064468987165,13.783973412612749,-21.505575783308377,6.932128076018616,37.85753581845996,9.549855370071764,1.101131435718524,2.860281620765345,1.6066427011593938,2.113828323660102,-0.48837797667134075,-0.24768898111023685,0.81615266565693,1.4654671359710687,-1.1718852749692819,0.24689561811408992,0.5018456588628625,-0.7092602093485388,-0.016248907443288947,0.42689966800293827,-0.03492975922331718,0.2817038651072174,0.08356380804155147,-0.0335343199560083
5.932078480439955,7.3075194337848615,-0.5137761906358133,12.615339912177996,5.319791615517969,2.3761798145258064,-16.058088991733435,0.8348113833045134,17.127477791963088,3.251499055701948,5.893899315492567,5.945909595306287,1.45690103669559,0.2873745188012034,0.1847442746662775,-6.096046926967711,0.20251988870245732,1.8782450138301954,-11.449845532670071,23.532425104658884,19.156594363684267,29.502799279025837,-25.798163645642948,-2.1219417166776684,4.794465027066998,1.3424943520309471,5.89378869286177,-0.21016650386303415,-0.15631397271991965,-6.435899041189354,1.2268283045345278,-2.6230447297303,-0.4140339402652098,1.5839706014626436,1.1811195697437091,-0.49305734276737473,-0.048764556322742215,-0.3175574934878699,-0.006389597141687254,0.45849513348186627,0.3281773020335623,-0.19022287539174842
1.8914125520456455,-8.708070898563127,-2.090756706850153,36.96353957639268,9.174099048532854,2.068332354808768,-3.3962481591380556,-1.9506992741972717,-13.106614361446287,26.625277288094054,11.477985374616525,0.4722020155997745,1.2092184681959564,-0.49675618544100236,-0.6149460242342495,-3.8588170117816447,0.32367857540097117,1.8674449950667988,25.218766787835456,-4.11648974125726,-17.44298078887572,59.388291024078825,22.730952781563964,-8.674823992281608,10.11431200708082,4.303414149968282,5.924064000398911,1.2254645086932812,-3.553810927763855,-12.248048078264542,2.3826302644902135,-2.11456538132912,-0.9443542603386214,-0.27866958994408686,1.1909184542286737,-2.0938722185324634,0.3257373749663712,-0.0540001272475831,-0.08212904379470634,-0.3916309159457411,-0.019999813176271676,-0.08678528538781505
1.7357089070099407,0.42407013697959056,0.04358696743955361,68.95512425991228,17.79413469089728,0.6130626359975186,-28.39856880242202,3.4357574376993387,-8.639208638799056,45.21035408270768,28.690653776596694,1.7718275367126939,1.1316259964362512,0.09277145486903074,0.23306724115713678,0.5138723355406132,-0.3678024111053912,1.5966219528372785,15.939561919743348,8.481957518528484,8.29064057166214,31.207963306434824,10.663348683668199,-16.291630708666354,2.3425444400536906,2.0064873439912745,8.046148592137824,-4.12908410555804,-0.5136564158685364,-24.448035187781073,1.7414893621300238,-0.9922270513048198,-1.584975352256806,-0.5444000014773893,3.274105518546883,-5.5284226341489635,0.03869400249288407,0.09685971179293722,-0.13823126663303856,-0.01802348993935787,0.6684467223801965,-0.6165230439660605
6.0544369353353735,2.0976762963533173,0.1702550245438147,105.23968194637939,22.861346175113507,-0.06737830024155544,-56.6803702251154,6.865136990319469,0.7122202737950445,73.1021610744764,29.146173675698865,3.698389882264988,-1.3140750262459124,0.46068673945186783,-0.369255491198411,6.623944857518274,-0.5726508404361668,0.8490405637000805,-2.4807399459484207,12.629229128026925,19.494353870538422,60.819147065084486,10.359713373569836,-18.47788782170751,1.4610328407158035,1.9480017354983317,11.28232895281219,-9.027396690580975,3.719768863005852,-28.92972288503445,2.3578046123056087,-0.7380348798978401,-1.854151950705899,-1.2471238986099094,4.611246438464992,-7.236663512939336,0.21665904735167354,-0.04122541104786403,-0.08783847750663402,-0.18771475229520848,1.3060252673584936,-0.9723723136696079
23.643461692653403,-9.788007531148953,-10.629051559239256,136.44022075375696,30.32093234036662,-3.534628886334126,-81.75432910347412,5.215480012345339,-23.75992918818007,87.40727057421553,53.8914031608859,0.25534166884366216,1.6544954505021097,-0.13195055696190144,-0.9777309732089289,14.502411371275056,-1.2025723395318653,-0.06993684955420362,-15.081432073262338,35.46827386309255,23.387816444218664,48.22233681217162,50.62842528132733,4.843733178533232,12.809037167932228,6.120269765659861,17.750226787833466,-7.6488196681950615,4.333496950326144,-24.51624964664919,5.299344855804244,-3.709580483060102,-3.0692455967681065,-1.581963215991185,4.333402685039538,-8.099039156753483,0.3917669815235181,-0.01645126707991715,-0.06447971475597804,-0.1250314670294999,1.3206875126950504,-1.0707098059126787
17.552395120750678,-2.883464778143701,-4.055265697988415,165.30368377748422,36.490522991575006,-5.0938023891116355,-153.40170820286156,6.4111735547342334,-18.031219076144588,111.92861291180279,59.83540728512906,0.31653107913716594,-0.8537898868992779,-0.275312642726584,0.284564488536584,21.50836328266374,-1.6948215473767436,-0.4222996543906709,-66.34528611867049,49.54098194438689,60.034990751424964,57.198498516283195,42.36402915014325,-30.31948670019855,9.58085780007838,2.971757867710867,19.986691585923648,-13.303739431185948,6.587747903246114,-34.39076216643478,4.213888665076946,-5.422075178688308,-1.9043596832276577,-0.008748962750802225,3.7066703833227823,-6.271509810493018,0.3488943396820934,-0.804360326176867,0.022738009361127225,0.2197795696870031,1.1997032813082773,-0.7635822093328768
-87.30341473254288,-3.5467693696416607,-1.358820024259682,181.2952222697197,39.76656826527385,-6.192518196846241,-181.2608680843062,6.4060196502653906,-22.14132491255179,146.06641666126635,54.52990656559974,-2.120139743326253,-3.819310548974926,-0.71844327788019,1.2986399619807425,25.480806692049047,-2.6555212389156555,-1.0405630706084221,-91.80143689201597,41.52655299272843,-25.995542790534376,83.29126370987267,-48.06273651598163,-52.653035992881236,-0.5765909466489708,-2.176518503166046,1.701162614423012,-24.671485930766917,13.682866015191621,-21.368088845039154,0.3458441437676213,-1.0331677788256348,-0.41991750653006593,-3.9862881290682495,-0.5741085459070386,1.55230115912127,0.24853422107878678,-0.22326200549659736,-0.33560786149619903,0.10082829699236834,-0.1030669657552694,0.19224593902508547
-73.93186631747696,5.757133335294248,10.717900541323031,191.7021056585824,39.88985096728707,-5.891317546556984,-10.08995497294572,-9.079451439416301,44.31969573585293,187.27454335626,69.0569108022544,-4.164240771838452,-2.9710668445821393,0.4389694758002403,0.15357108067168354,27.871138664497362,-4.638783076910436,-1.37390805904782,106.72619888339784,26.57645035709018,-16.322952008640446,2.7912078936863285,-18.211534234128738,-111.86129238957675,-7.166562395220697,-5.2544696713960075,-17.78236453901071,-13.9347923242071,5.522589894552711,-27.112951975989937,-3.833893396116619,-0.12181468014726883,4.747503628806162,-0.5460393148774305,1.6755873369664824,-2.908004050733362,-0.5393202361126896,-0.4258824389941603,0.5345953146114591,0.6244245020790348,0.8663191105160908,-1.004145689439556
-14.516789599902065,-3.739621737269319,-7.75099333624319,184.24396139377328,40.86690069702688,-6.343149093507514,92.34099141317817,14.845436216671326,-49.359242335713375,168.9087752556278,46.13484712582117,-9.983656105828072,-0.58667625536492,-1.144845564050392,0.6584470979227579,30.004029147808726,-7.882543283199588,-1.2883981903541302,179.0141200662157,-14.46484406941594,-133.34337586964057,55.80107499169676,-18.404267350373416,-43.95807678251601,-10.797160201206765,-12.89223509196855,-18.869782302901303,-3.590028590630346,4.416852661849151,1.3517929842944914,-4.790435258964147,0.6229666605999695,7.166679194127995,2.5941941110413618,-2.7928894685784367,7.431360449224073,-0.42870813065067187,-0.5993156563982122,0.9914158484708488,0.9802749750580441,-0.8492209105047716,0.2805718519640438
12.171597430952604,-3.9592194357395294,-17.973830100878978,172.28323846680885,43.4631168870137,-7.139656814067449,85.76259050286983,-2.2401010366629586,-27.53609280987496,158.21739786179802,55.92184290324111,-12.03717286652881,3.4339012742731634,1.3232668282381586,-1.2294736493392686,30.086867216574035,-10.388983202680208,-0.5883499438279243,166.22255936566646,-15.769561798086741,-74.51993607964586,114.34772915813427,-2.3227100527715514,-43.10994554951956,-11.513208950994464,-11.862017159248198,-20.098237680082242,-2.377744894129527,-2.1618447408788195,1.4304989071882686,-7.649968052960263,1.8707631810599121,8.71673930702903,3.4811041634514837,-3.3030066582833215,10.528953237753246,-0.9822226813501883,-0.17627283604076588,1.195376897037213,0.5647542709995017,-1.5731312402594155,1.8019096025239463
7.451688410541998,4.405982013370971,20.766211607883793,150.72708873202896,34.540216285672415,-5.12271689710227,70.13133440883112,9.053545531166563,35.58503269794246,117.43459206853315,58.218991504287054,-5.414217272164899,1.5198335577890874,-0.9022992500119827,1.9726117371764336,27.17232502938761,-12.92082939654429,-0.7506977317197939,154.34389912775816,-7.613513414528771,10.783502842696283,-125.56621601190669,45.53518639571825,-26.093977210819645,-6.877041516426403,-1.9569707240023546,-34.10169489974511,16.25271655651027,7.129289113843851,28.790551057896494,-8.65271151130252,3.3316989045584577,5.175088173269554,2.9481685627874428,0.09306062038009635,10.466917559859787,-1.1698586233370192,0.28748394777321473,0.5584045948563073,0.14562779112067975,-0.08039339502041132,0.29304577468792553
18.021380204790688,-1.3862398516005152,-17.31204437026653,128.51666652539936,22.82604255945645,-0.8758879095868825,151.45532089409213,4.132390494775049,-52.326694662734155,92.44223720681133,14.735673910253682,-2.7776422743582754,3.562786062866231,1.1699342464614026,-0.4284682064242154,22.76194679448259,-13.414808791812893,-0.10879296952926186,212.40080084172652,-76.10503478767913,-97.966258829762,-20.73447560355756,12.189058263326238,9.146006873129576,-1.1654889917761735,4.751512584101542,-13.21019570427496,17.07272461993206,-5.667340524127579,23.288946961552064,-4.358064140922723,2.4399574703796696,1.0339887816633986,6.024209021078487,-0.9754168771248118,10.139427169863538,-0.8351302083916257,0.15382921243518594,0.42691668056956417,0.20817053590339013,-0.20279839165386354,1.1539020528396264
-19.819893813261125,1.6017233230337307,19.128569021939697,108.09960773822442,16.136261195263305,1.5874795455273996,26.171185024143305,-11.789170456374313,62.41567562557668,103.71002393171983,-5.513245690226142,2.134970065006761,-2.3366385647771235,0.11251388066004657,0.8386606640647299,15.159739599575547,-14.640041853612672,0.20181735274155546,109.52585036710971,-78.30052301350902,55.72324857744331,-49.6278949482322,21.12658058689153,33.01854843899862,7.878588222940771,16.737783900972758,-3.8573778022551113,16.994274559239305,-1.511765504001609,19.462942491351402,2.459170838207503,1.143802556404505,-2.628576984813307,9.218497481815984,-3.3650466575600255,12.636877400136555,0.040022927777794176,0.5449289562794872,-0.2730252223138601,1.0334962262835592,-1.613282600105312,1.8565005196413398
-46.15684052627076,-3.61225044378297,-29.707985423371216,83.54878333962466,15.294028143876321,0.3705060767487724,-35.12247491450414,2.2911339427510446,-95.00477053427497,90.21129436144311,11.12872487298341,-1.0466990687250668,-5.009527891628765,-0.62699258725896,-1.4881242013835119,7.514183660204064,-15.412777730268848,1.0739682484036766,60.15857228436439,-54.04238000880453,-130.38090814335732,-49.91279435924723,-7.53653244759772,56.944452683682414,6.816541666397902,14.457289031422524,3.5346234753862014,24.40294972046668,-14.478726287152714,25.832163557257743,6.009409632154872,1.198354882509772,-5.219445156044245,11.280894133571897,-4.317321051340474,12.072049224339265,0.6545834136943521,0.6770654361070375,-0.7177036494952445,0.8190740777464603,-0.9235140265930833,2.0391039543532425
-25.968392402294086,-3.1778751209949547,-18.503907333546337,61.25971503809611,9.28768483794913,0.8446672970669795,19.032587196793962,-6.083198268409001,-39.37608507861746,37.6202857145086,9.30905918042611,-2.8304953590157838,-1.3826183626658222,0.35722882918298393,-1.8189301282694763,-0.8025447305971722,-16.01551238027397,1.7497610020060095,32.65711648178671,-63.03770916664847,-72.86122554713064,-37.60242777612701,-1.1895022058715887,27.878002487839932,9.761692155704823,17.30941776690284,-0.5672197460790556,18.557098742830327,-22.274408439121334,18.970852094143215,6.244166399304231,0.7481441768932454,-5.043008003805308,10.920065532946635,-6.5979066215201065,8.259307268054007,0.5990386293126968,0.5698529613423923,-0.7610686806260774,0.8315640962573947,-1.1675181361816882,1.7449979090781407
-33.12270328482779,4.702836705781522,10.38821567184503,44.39062785907018,2.833309133553933,2.275042478081284,-31.39366980060218,6.246109128495769,7.877886379654701,-11.031617400070301,-5.92474385965976,0.8385608336372959,-2.260431620683655,-0.5037840530962843,2.128516161984305,-9.419578786779635,-17.214647136580624,1.9369935783176775,-62.00454024385659,-40.881961051272455,0.5720648705681538,21.258674961780834,39.84638735227461,27.631543134372194,11.52062804096072,13.924867828163562,-0.6713975369065641,12.131856438150669,-8.93893330435386,10.079486496833656,9.787143731477556,0.1253062962336781,-6.464300626328679,7.3153745737111056,-3.032971546877271,5.234001699893037,1.203844023137236,0.39836514645174015,-0.788149196349741,0.636487388245379,-0.6169246347151587,1.1652325595749944
-21.597430111222902,-0.5916423981088514,-2.642302711444251,36.917457749742994,6.690953889258134,1.5510280919271793,-4.804855222476545,-4.937920581813423,-20.025999433695276,-3.2780218241327503,25.682075683167355,4.632877205285273,-0.41727312468451333,0.3144346913159059,0.6176165968411521,-18.306065573834225,-17.459351608662615,2.3398140438474035,-16.32365131876303,-5.238834010414383,-20.056133160200964,41.987020488711906,-33.025124573996656,51.542247710182544,2.6463242283082127,9.293507523351595,8.507137164618488,12.916508017952886,-14.399781570262638,8.961388215204957,5.442674998789692,-0.8938064672610985,-1.3155051356458185,7.820393360864451,-4.614630134473642,3.1140744512533525,0.5653091627444529,0.059354620875181535,-0.0924170060509667,0.5537154938481417,-0.6435171900049287,0.6629968476914251
-24.19880174135399,-5.1830003082190075,-10.576650362124981,33.37183360058615,0.7199675449321117,3.138986157799189,-20.442497230279038,-0.7204872177277779,-2.824881371650347,6.622871662562859,2.3267611163905384,2.8188854645627783,-0.1626765607054626,0.22905033453595827,-2.809159558828056,-25.876730671647586,-17.814218959034164,1.381138124327709,-24.665942749789302,-26.326735730652132,-9.761341910481104,55.020730543589366,-7.590271970848365,11.504854455887191,7.684448148746669,12.790979427043183,4.471876279498107,6.1020338338323885,-20.07435204307118,3.386473686121013,6.713648202546485,-1.4289250289859707,-1.40456138447019,7.3780257211284885,-7.97864942641887,-0.3193736831839424,0.9174788215410411,0.02814825216633033,-0.2650301600947996,0.6552728373191734,-1.5419912157152837,-0.019400274216316786
-14.811618142269191,11.863626546226397,6.294988043018417,35.334168368401315,5.2855080640915135,2.8095354779742454,26.923940310809627,12.617254342370574,4.406623957782464,14.235797809273684,-1.5219607593342885,1.5437025227144363,0.8617734777068241,0.8341241742439398,1.8285391465964116,-33.45130707058146,-17.11653896162054,0.5653101967311351,39.17711382928647,-57.50309006114542,-19.073215360161527,6.288431515944074,-22.06303910996786,-8.654513634524525,12.81254823234025,11.270807622591361,1.0857731234269632,-2.6371700752602294,-16.684944775930003,-0.21622872744560137,6.929062397882112,-3.0077414731866714,1.7462864062450651,4.145314721760399,-6.114108674368192,-1.3889870344917876,0.8412257533769287,-0.4380743260344107,0.3899826828234314,0.6406248715993416,-1.1841288080109322,0.12960816029727712
-6.345362657971977,0.6950326626556889,0.23552508869529654,39.78916755097026,1.8804608134171783,2.5028192482275244,6.273163080023027,-7.772405901492259,-19.479451510989385,32.209539416676044,22.301660994999548,4.935705479301838,1.8733686107140963,0.22664272664006957,0.5011260639499573,-39.42372439837737,-16.117576807515785,-1.490624358764772,37.24456998526959,-10.584546619337768,-25.648817068142566,1.5951498269143851,-18.544608723646977,0.10878158384299319,7.834781401516657,6.587300313545332,-0.8664705431618441,2.5746970033631844,-13.71145504144102,1.4422101240693703,4.037159447714636,-1.3399520234913427,0.19944545561358698,3.419589878677773,-4.6823783174288085,-1.1339762351226423,0.39679853580019436,-0.03395019974597521,-0.04007448346588525,0.26949759838179715,-0.6980211767447315,0.03425822451074648
-1.4806452264638925,6.467293038348394,0.3287929816829472,44.56973353662719,7.720278273026779,1.9495050772649565,53.43053669876772,-2.4427701084126925,20.12321756830367,63.72720271215954,40.04088633658897,12.30146492183532,2.739034535775506,-0.05984819728662791,0.5046202170435007,-45.28641283133638,-14.32700936953027,-2.667481313107633,139.14773507950974,2.6911331345092946,30.879803923052012,29.985827020510865,-6.074668948310261,2.449775734189782,6.115082174295098,7.9011811953924065,1.3976163420223016,2.3972208597210343,-15.855834647886525,0.8154530708929798,4.283647212869966,-1.4369405357290301,0.1099174038389988,5.160253366895871,-5.382194715131293,-1.8313809390429334,0.6016494090186041,-0.11932032070441535,0.07136876824515558,0.5301444510144319,-0.9913943608914318,-0.2189968841231666
7.174192081266722,0.07601354259623508,0.646762282834051,51.049592035122735,6.197466748787946,2.9181493966372947,56.32711265385354,-21.07841234810591,-20.865633910040785,81.05157480228544,35.39907000605108,10.281387042336403,3.880894921530921,0.05816333216989717,0.923953402065408,-50.81561762904947,-12.2603559842598,-3.4897302513938047,135.24483159135167,-48.744713603748664,-40.631680077924514,29.842677460685895,-12.576532156299416,3.3477055103728213,6.905120525236548,8.7154257513866,3.57324685684772,-3.1709757444534468,-10.083767398247122,-1.3284884889860904,4.723882710540121,-1.9790014382631549,2.103616297916965,2.157771669358055,-3.857094140958375,-1.8202806044787512,0.6752073349441424,-0.21799579091666813,0.20165666196818577,0.36287290924907034,-0.8589721018478744,-0.19829088757331154
14.25372743562563,6.926137098897333,-4.484682262653419,48.99488839167009,0.2963863465485518,5.3266803562873175,51.430069751299584,13.33330943847076,31.360000521380776,67.8965571501286,-11.629106903723633,3.756060414853191,3.4794810034455854,-0.6518963202288781,-0.13983858620521172,-56.638784882904915,-10.298919985031127,-3.6492696536679903,133.49958541735535,-51.3467396778078,26.444919285815878,42.010245471609565,-1.1976686447052618,3.221372705737405,3.7252938544109373,12.032724093714679,4.692360055206925,-4.750406547289403,-6.742568618408036,-0.9205612007906108,4.165492673347066,-1.3936448010805018,-0.27657386950928503,-0.14961494855295776,-1.9217836624011269,-1.3153443190275487,0.1785242794928333,0.08288859731696224,-0.3388100576028169,-0.13510657697509784,-0.18708639245965955,-0.1380793855634929
17.884243811456354,3.240475494503715,-4.263355552385543,50.98394262101817,10.220253851451186,5.53032705744091,59.02731322712971,-8.207362121179257,5.862066504877236,69.55511866776403,17.294777267118892,9.519702564558607,4.279400416767866,-0.6336906346947432,0.18294929637276833,-61.83118668638246,-9.619976380361866,-3.048589079716491,132.63747098771043,-67.6994145794408,-4.616780769018857,28.98774387909677,-8.140622036830404,-3.6801435659850887,5.743148813409306,2.297654279555202,-2.504475756050415,-2.5142226418858495,-7.953620977024137,-0.09351219544155943,3.4894460455619476,-1.1882921191824858,-0.9580302399197581,1.4097564001622327,-1.89519755969196,-1.1303381521492788,0.5974054648929338,-0.11320430961369167,-0.006639004868222198,0.03951494703463821,-0.23964884672321202,-0.12016921668112768
9.568616206325405,10.288638604109934,-9.42835848685542,43.468964344207336,16.792606652367304,5.835263659320278,43.51118058756585,13.297700721587171,12.87510911139935,27.085661430567953,46.30418341385129,13.264318565217545,2.2640675382358317,1.4259406722745473,0.48207562827291256,-66.85078325751448,-9.64720886733039,-1.4361298994150564,61.43402430962947,0.6980660863848375,18.15403234079846,42.286971421749584,3.9680094709905234,-26.735501351611916,11.743909332376226,-1.4326579370467252,-10.974158038553293,-3.5452159466503197,-7.691219092897066,-0.9538645132061742,3.403474265788415,-1.4814506660455096,-1.3190472364801837,0.8733391575190799,-2.2669820293526866,-1.899022094156778,0.6117165325078436,-0.19234045606203173,-0.11736629219997455,0.17140687315001535,-0.5392079064210903,-0.3673635108268607
12.307732257557657,6.570387422167955,-9.614205777257798,34.9183556381189,22.064166958918683,6.032460888597434,72.56283112483224,5.177619568610996,13.211767409955671,20.734885535465335,60.13979001471384,13.445665183845033,3.193193252728196,-0.003411570340044273,0.273122482736909,-71.56835093630428,-11.291670186740014,0.24112968055518663,83.11076662891523,-15.482901739524037,11.259683722758293,16.832311383958704,-23.992056753237364,3.00363629459427,1.533752625390657,7.780304947719802,5.900670706376077,-10.387151389162916,-3.5876420006920187,-2.467797074388518,2.680893505923654,-1.0520806998309598,1.8641539579432416,-1.4602487828502153,-1.3183248063981812,-1.6148878414760863,0.4012715761004631,-0.14894306557663647,0.1662161645198698,-0.36612300328878256,-0.14850849396218851,-0.37758110000457845
20.95124473313338,1.7333121485529703,-7.716349115704448,20.24073467634707,27.32573598191789,6.247655369864592,70.55316857641021,8.253298308411944,15.230879811103476,-2.2846724429345517,69.50360094311559,15.40906791878307,4.010174232599625,-0.7338922913051292,0.6696917070040266,-69.73639574602967,-13.046169784702075,2.433526681842581,53.586771671960776,5.374668104074728,21.693913713074608,36.11361668136653,-20.071221184381454,1.0968888084752622,3.286166523511872,4.980303713792294,0.7149723622097022,-0.21641488633154451,-4.8383230997058435,0.2917865388049244,3.012286431186501,-1.6707919524583474,-0.9019450215927444,1.326802125441895,-0.9194165916202037,-0.6864029523870676,0.2228992120075974,-0.1448581320661085,-0.059621095104491706,0.043408259388756594,-0.1278411921699792,-0.11873536398555092
13.354188587768784,2.3003979521208238,-6.325257090646745,3.0240737280381427,27.086740651707977,5.957354693177054,76.21180226980098,-8.32084234625076,15.47130673741557,-59.69984831636453,61.183096505325516,8.914046255030396,2.8664636024646764,-0.27668059924674027,0.587653649295244,-64.42735872664993,-14.328840444236683,4.496976490824679,0.9041090901836943,-28.878177144404695,28.730744007918705,4.519929077025587,-1.2127218167722702,-11.97944221591629,5.035191862867742,1.0827407041587411,-2.969363070309966,-2.5715895866272955,-2.1485631508092586,0.38171298397206205,1.5129615777885448,-0.2484013448915831,0.5187287643412958,0.1636091736354,0.25066139725167963,-0.00832510429133166,0.08863327591402252,0.08493864603647244,0.09692531716018069,-0.1664661283508531,0.1385061637359009,-0.07777410463352546
12.907400968290704,5.227452833944486,-8.37800716994781,-3.7401427442563735,22.814301018242098,4.160904341492417,77.72162761110782,8.82199344939094,15.872629366230619,-99.39218633592786,49.28067176878909,-1.2562551422826562,2.497326798929606,0.39851884303617513,0.7751085298294965,-54.236873853578565,-15.674069736991262,4.388202791256447,-45.21590568466036,-14.772946751855443,28.6894620534802,50.007020040700006,-14.979348951937801,-14.368779057237493,3.4570711410648935,2.237410900899482,-2.500786236519908,-9.388202862621885,-6.4332702544091545,-2.5522880499045995,2.8671473192684096,-1.4190614124313574,-2.8142087861388494,-1.2236926154888625,-2.4763378213757496,-2.5508704331628027,0.4107737012980091,-0.03822332632507291,-0.3118409431777336,-0.27768950642851375,-0.6891622927518679,-0.8116773696565817
19.629463331185594,7.69559125158044,-10.449708277823845,-6.689475845583302,21.189868289972726,2.2392740521289936,102.25920393290592,5.396523676380739,18.320551603846962,-126.6655562017429,56.29646347048017,0.6410350506125314,2.7296161078245063,1.3588902424864462,1.1651176623594013,-41.26986104787825,-15.79774812214246,3.1966330086264207,-59.66260508975953,-13.196901384290094,45.67000623698007,18.287407927257032,-12.269988212756578,-9.512625059440115,4.468097225153367,0.25833050380647465,-3.378266082461267,-2.210923031753942,-4.1063616380368355,-0.11444915586550335,2.28723312524178,-1.7853458038235805,-1.4753565358315817,1.4173785434661186,-0.4516898906140675,-0.4913343708679129,0.3153471911918537,-0.25017533469334563,-0.21405139165437814,0.2054010535068322,0.0964083826346879,0.177462075423409
15.878627024029047,9.109215836939388,-10.040471322635103,-2.7699239759215115,17.86676081198256,-0.7835280212106964,79.1762695603849,12.529145489174141,10.136240924761546,-101.92474604721602,68.48153667884291,3.035567545526799,2.5093759991492846,0.7338412367592154,0.7853106436871136,-29.81007966490605,-14.906221526361842,0.16852247066409093,-59.126512252169185,20.843133057046508,32.863883120762054,27.209521148087795,-26.099570420208252,-7.973958524066091,0.9085168628508957,2.94142652480096,2.424282160409484,-4.507932380517505,8.65512163564093,-2.5042087624276164,1.4398686955068218,-0.7697288956255551,0.33267221627464905,-1.081407518360026,1.0679268366859294,0.8298556469287164,0.12988220087305805,-0.07933738388848113,0.02065606691548596,-0.12980734290846183,0.0325991236664429,-0.09917912665717384
3.629446048864168,8.506571954065198,-6.990485402675205,1.516383294966449,6.385869497324568,-3.6986221659189362,50.25379263505261,6.6487262525160356,5.783040313316018,-72.83920768081333,43.85717914454971,-0.8602952615047313,0.9826161668881451,-0.413673184076627,0.0006738060849086072,-21.866658530235053,-12.13061949673658,-4.01275898773406,-51.785585177486695,-6.3240047294359325,18.085803201390128,43.16128545461063,-31.257885808679543,-8.176869167282277,0.33863395394126666,-0.47490970590433323,-0.594941698454525,-5.729866595099218,0.9037394159214461,-0.17314042070686028,0.6724319477765123,-0.5556336713085999,-0.9673647122675071,0.7000089585604524,1.206786910358657,0.8429770112545435,0.06506561178572842,-0.017978730561969938,0.0042404793857275325,0.15143782802771502,0.31844130559918227,0.2716359953736847
-11.95171869277217,-1.4927960187717455,2.7852929087136307,2.7971906894803835,1.7088152089517972,-7.366003788768547,13.517338546585457,-28.519027837113853,10.41079791796848,-83.52649321431858,35.022780966166415,-8.71181372504947,-5.237382934910163,2.321963155250559,-0.8842522592153615,-17.006830492498764,-8.37851176798366,-7.873116078717005,-106.93467688493703,-65.71526002655418,11.507615255220697,39.554668800272935,-1.6512227956575842,-14.055856120032047,-0.2426275001676353,0.5098263606368316,-1.1224957603121037,-3.4540940949244985,-5.2936537770062735,-0.19597683598572685,0.13048051310425018,-0.6589199313472086,-1.7661571038420851,0.8846593667697218,-1.1961583174934882,-0.8103998267128028,-0.07762492607150213,-0.02719706497485958,-0.2841400562022217,0.08739177631943888,-0.19997387380076337,-0.06242667745896596
4.016002332161342,4.661825487402266,-0.11153144667637624,-0.4801906125096739,-3.3048149105688664,-10.631182034919133,30.429169159241596,-3.8914563055232745,5.886889820587848,-100.35985714308127,14.051426958768747,-20.470249873757364,-11.133560566779638,12.586253986531634,-0.9008198400267817,-15.472547495580592,-5.9746533546803695,-11.096096168270607,-103.64999463483761,-40.99077709025318,-9.949043689374815,32.08805796851931,-15.039751082811055,-15.63820223699915,1.9123056832150034,0.031058326182854742,-1.1315698468744397,-6.0718450157655095,-3.0064556246949956,-1.864546335933449,1.3856118599027252,-0.9220639813297707,-0.8647460504285368,-0.05725065233754681,-1.824808099947987,-1.1186724326151465,0.1807498361137939,-0.0479253338129946,0.007036437518943121,-0.2791037936190221,-0.49720955486272483,-0.4695093691436923
16.854340787987624,3.854594348367118,-0.0006871069978899632,-5.291556650052819,-0.5723565353773745,-12.471139354119458,39.56831983124229,-12.983784808005282,6.573872588208236,-129.91074440703073,34.19377503714716,-15.643238374266039,-18.730722966330976,25.178243260988456,-2.422585821633364,-15.348499863285584,-5.133665621072033,-12.848891739362196,-123.7170040359336,-21.7663461942193,1.939915137587198,26.819028323807345,2.4406781688836534,0.37271736489230267,2.4949995333203816,0.7369364205590517,-1.4865960820666757,-0.9572432830604088,-1.558297780509648,0.4007982619981223,1.1498614988842715,-0.8531115402588133,-0.7571723315975996,0.08515643183502052,0.3682019719451896,-0.020913777105728223,0.13093492594153902,-0.06847210227800431,-0.13953939261572498,-0.051202623252366936,0.1418986408966508,-0.034896939828980955
0.3993615573833939,15.037213355269234,-1.179234736096164,-12.19762917138838,5.812615718490946,-13.501401743017652,12.037003772615465,7.989849010393491,0.810517838595056,-153.8445564192643,54.4126323632276,-12.489324115781747,-27.602424154605618,39.88936598446311,-5.5813410269393415,-14.44768333570396,-5.588421945774131,-13.179786486050896,-180.56618165804113,37.60016496875084,3.7976965876998,38.07866878273964,-38.23229030701748,-7.801026268695586,-0.17327400287976139,5.551307353221452,3.1523181424741327,-6.096781027313382,-0.45296825949290076,-1.166866879800085,1.4902019884715203,-0.9742258147843144,-0.26710171899779545,0.43327984875914893,-0.3033263028315951,-0.13099703354030282,0.20001534327201206,-0.0807834211532632,0.050677366166706504,0.015293270103777228,-0.16496249298298865,-0.11379656804418614
-7.372200474155218,19.370014225854128,-1.4943766313445865,-13.842265713571432,13.659397381589661,-14.018184934908954,-12.186751782374742,21.40309909046722,1.29093524458829,-130.6481235311295,69.41969381928608,-10.439742179642788,-34.85694896949585,54.27713029228711,-9.51737745269258,-15.170871790463226,-8.062337752543192,-12.9361828138403,-171.36035738663404,70.09691959451432,-2.8236654580673597,18.14151620224569,-41.668243003755556,2.712291604105547,0.5202383499803228,-3.4043951064378515,-5.062066857770499,4.614124659555788,-3.5168971388050996,0.8468955470753426,-0.4792845392228237,-1.0687758221055674,-3.284865857425115,4.343148383227279,-1.6632398308248058,0.10010867291017053,-0.208913028010376,-0.037887596133152145,-0.5728743721663961,0.5249181239259865,-0.5582122142911093,0.03647895298395593
-8.103337578153214,19.185320128138663,-3.839388442200171,-17.7024170044449,19.883539036616177,-13.665836592723883,-12.476554196223226,36.38283330747852,-5.879654951690612,-144.68445482049407,78.8777930811447,-5.548677306303438,-40.89243118093928,65.95639314601355,-13.5347062988424,-15.005146025010816,-9.876836633915064,-12.866935533390091,-176.833776734391,103.14632903765383,-8.961376889218393,16.97701605330813,-30.515519940216972,17.568010173763376,-1.3744313878795724,3.390944744219589,2.789420624141207,-4.829943656407864,-0.7101581241926237,-0.2312059685076058,0.9867547592576142,-0.8853571315048545,-0.5573693246569701,0.8089025592750393,0.2760612215479149,0.28717720849426553,0.23196239472687366,-0.14724591090432987,-0.07803294716574538,-0.06595972966412825,0.12476989187977781,0.014644449353445405
-9.435274548296512,10.826488869579963,-3.7448553752111104,-24.82470105572032,24.434383282848096,-13.931026504682404,-6.586296937920959,40.11544819509972,-6.318405583167474,-171.60719553651901,90.29458614159657,-6.32218406983467,-44.861880482500496,71.28915255696832,-16.3738156824419,-14.30270537305378,-10.589774833815852,-12.848560582367854,-189.706233543255,128.59159099101598,-5.644359269561078,38.16373756817673,-78.0961194532887,-2.513826857569842,-5.213330760905506,2.640609287545821,3.262120892858548,-6.5299935045499256,-0.7903418044758197,-1.9443469107640374,0.0701818565105743,-1.0797088082383692,-1.8028390500202023,1.192407091177497,-1.0828160385326118,-0.6271990496718132,0.12348402849047464,-0.035085238040050974,0.10095633901253498,0.20168722631971273,-0.43614674534298814,-0.2028517410411237
-10.134049950821293,5.065194661643682,-4.535911581250448,-31.175024916378618,20.68541767618815,-14.67558682318614,-13.353823951591258,53.79046595158004,-12.336091675820706,-196.185590379294,85.23787573564745,-13.161018991077672,-45.617809641685504,69.44548487310261,-17.389722922965326,-15.022273038837694,-10.82287661351576,-13.568427152652065,-217.9642697667894,144.4172609569252,-26.040979374423085,-9.57719990151669,-71.95461577205998,12.891313947812534,4.146352257611455,3.955250612642078,-0.42812194028379047,-2.837470947922685,-3.1961994658099173,0.13868087093715806,1.0821380165396384,-0.6994014377568707,0.1543584913969607,2.333039187777295,-0.9230366818369737,-0.028981338215677603,-0.016766213349217463,0.10491078098808355,0.16599445776727714,0.13481797749621144,-0.17146422056380078,0.009519977629888862
-16.894519797163653,-6.9548056629164785,-0.3743058561046329,-27.86994849031523,20.640659090570523,-14.650230239001107,-63.712857990380186,49.62815336684622,-12.759912094043148,-182.1177763018231,89.0050222682287,-9.851212344464424,-42.79238404353904,63.19727541786075,-17.008179219174743,-15.313401574580496,-10.8460854018397,-14.171234587740262,-262.48088310547394,149.01169819362104,-31.91682147180732,39.44507685906236,-55.16574296227461,10.017883740242603,1.1205078490212854,9.452726347251627,2.142459591643935,-4.341154824035609,-0.47256370857750957,0.13220768879420894,0.7634349300413567,-1.1195714591939274,-0.5499520515432168,1.5981763180736885,-0.14490630445731698,0.7176578891577902,-0.08470034210502098,-0.021233332804074256,-0.14013163526402764,0.07417404750008466,-0.25836646541735714,0.06357084831552363
-9.27964219506682,-11.911708380899102,-0.261903021721528,-39.42750325283038,18.309299167565396,-15.65874671431746,-36.61833394571645,51.62011293119649,-10.816587647162718,-200.24230108306116,85.97563567903347,-13.137085768384516,-37.97903867646104,54.99180778773814,-14.425968236406264,-15.939162695929292,-10.810960099856247,-15.268840960050445,-242.58137340063033,141.82932305891518,-27.241767839733345,24.627190115248695,-88.33293594107857,28.51042127947733,0.2956128932837763,8.981673606915978,3.7026344503582784,-0.9165770986428595,-0.4564719524463748,-0.5781091662987484,1.2828817211848431,-0.9482239063121018,0.14668052370994392,2.1666993787845343,-1.0014872200352483,0.3085143773065762,0.2545433640925939,-0.29486259428787875,-0.2331010674557115,0.1968821791816736,-0.38132980549885054,0.06593984004727908
-5.326747074627655,-14.816102267128212,0.49922443385466303,-39.9660590155908,17.033075238408664,-15.975956064989537,-47.419680493383225,43.804903891311184,-13.323059865623057,-179.62754949251067,80.49640639148605,-8.817238560538696,-33.89302986411111,45.85675625556272,-11.519959146106011,-16.328353445459282,-10.047927284285844,-16.441467108748256,-233.3041714080747,129.26907596938688,-31.481699721030196,28.383372305628107,-78.13144022856801,21.738671279858824,-0.08354303614423564,1.7350854048309206,0.5625682112051107,7.724606146443785,-5.25901848593389,2.2341139334710207,1.4975983684975218,-2.7529545877539547,-1.0675176197196665,4.3094559841335265,-1.7035415715923368,-0.07899910195398124,0.33847777751490754,-0.24014038237411803,0.014758091035091028,0.27769338176139535,-0.2564145312009325,-0.010111225919897052
-3.1186219427001824,-18.90409697890018,2.7673306372907422,-42.573974493852,12.261531320847606,-16.765049308134095,-50.64718368795861,34.077187628647934,-6.732475968189301,-166.2291254198451,74.27590464027192,-9.906497662883297,-29.738186685748232,37.8784092322744,-8.955813450346138,-16.79175714845619,-8.187641434587572,-16.959509638800732,-224.4660632571417,109.38309561856626,-22.330981109361588,26.796997379511833,-61.77655198388801,13.034273607043959,3.3500728454659705,8.721842469004148,1.151187489863965,-3.1289171127254516,-1.3307548020854263,-0.4431166951276446,1.844987907797965,-1.7096296649695841,-0.039097711679634266,2.0695606921586345,-0.6755057028647788,0.18650621354766989,0.17767846467811113,0.005639952423231309,0.07297213580172036,0.12169159991409852,-0.33389155422555994,-0.04047755707091641
1.167116709833723,-18.87678459237926,2.911134650533459,-40.84540596930022,14.09787678713457,-15.785475251367062,-47.27532214249325,34.62155778753391,-9.289498367052676,-151.42748255623272,58.00558674726509,-12.885058193237027,-26.02183511469726,31.83188794188982,-6.324279282462264,-17.075792401751563,-5.214016878341678,-16.348282070535735,-205.33032605668578,97.65061851443873,-36.48074251269389,30.969482428504765,-65.07231204302954,23.603965035455616,-4.371234185844426,14.910712797453396,4.5945166545154255,-2.039312489432028,-0.13978775883904898,-0.3649274343708893,1.1514139568498578,-0.8545099568691872,-0.2952084304378127,2.2567924126649275,-0.3538182993141834,0.5312135163744309,0.4109628265585707,-0.12041280294957694,-0.028058202722802596,0.2821004227802393,-0.1128208229408392,0.1889985871869317
2.748460477477972,-19.856130532973342,3.4928619397774097,-43.552578470155176,13.01930163957601,-15.299046032421282,-48.92592100730761,24.691740822647834,-8.599042383678755,-148.57425987570852,51.596324497308544,-13.840692293814895,-23.686557051261723,26.25756646545738,-4.453854753330599,-17.723312983556767,-2.3280298642817097,-15.47911749380584,-209.95998974304456,83.08320537400436,-35.81151257733123,5.50986189258714,-68.21544239331762,25.518227136642395,10.11320312381127,4.985295842682129,1.2622067112438957,-0.4820433659003223,1.5115452693103903,-0.7814648248836046,5.049108271314578,-2.9374389848857927,1.5809947084417275,1.327082550030822,0.3574272052607537,0.24963913731273826,0.898699295007345,-0.5289821977345691,0.15426171274212508,-0.0878706779778421,-0.028728864526446504,-0.10645281046946373
4.4051547040527534,-21.13328025355227,3.772750396222343,-39.16464951827665,11.511412942992266,-13.628918465225327,-26.212759785615717,23.244626881275607,-4.06676495436508,-132.52205700625439,39.02847679080627,-14.048406694147582,-21.426300257113596,22.697069122814526,-3.349776220865233,-17.591304892513985,0.7511109701366454,-13.783809475828939,-152.85355899101177,70.08466639266713,-26.308151268967364,17.208107544582894,-44.208398959869186,9.186697880593671,12.175055502144334,1.8626678752112695,0.3795662898411558,-2.536453852860675,0.7738532190849491,-0.21485378611802258,4.604375907673202,-2.781266942576627,2.1302665277015,1.2918232390651607,0.5991529753184044,0.39865433467427686,0.7742699611925796,-0.3960534623536118,0.4023992641676537,0.03929217488544968,-0.05711556175458911,-0.010434551661690843
0.23922201798763407,-21.51264288433889,4.435056471559908,-30.195183762669195,11.404920457772159,-11.857118273570213,-45.11266144446595,25.410103193028572,-4.767659869136814,-103.33530601822494,34.97771521517038,-12.51279145047551,-19.65350550042156,20.069201352359816,-3.190429668098139,-16.993449630482864,3.006411632233687,-12.044990542907966,-145.1119754844418,67.78267432376356,-35.4829460853279,4.583902082415362,-53.49279994490816,21.36595251054686,3.8994793714134564,5.607625888036274,0.14407083802339243,0.6171512422274539,-2.2145639498802296,0.6585727736370754,1.3375301678273612,-0.7994450847977309,0.5604473212240606,1.734933440230803,-0.7653427042808452,0.036048729113667057,0.12908496833336047,-0.0032605844353224825,0.08846360246956039,0.37091837551557516,-0.15550572792606543,0.10844963327481381
3.9010555506449354,-23.701692737341663,4.060370403147255,-30.63481983152571,7.919958140216979,-10.829340864933652,-30.08665318741665,14.964870860841899,-1.4323996261685426,-111.35050770382198,26.079780019329217,-14.083453821908801,-18.750621949858992,18.43527593990381,-3.1842732920626124,-16.003834653071547,4.940228429647002,-10.53066220462129,-144.40480363341538,44.0020187522393,-21.889600493762252,36.50533510287522,-33.46909872385773,9.018881738068547,5.6844967637013735,5.409246547560577,1.3435583385254661,-2.525561270626444,0.9513794750772215,-0.15636410635592138,3.6823602963241657,-1.2924616559692343,1.2297707390302048,0.8735204038138494,0.3813632393201294,0.6987604219143683,0.5674273306564117,-0.15967416332999973,0.08709798280019984,-0.1048922176262869,0.06030453301619784,0.1037852833003018
0.3810558540783806,-23.016974924687588,4.218277470473054,-26.236689707838735,5.710619285122948,-8.922485974860003,-37.5798119126373,18.483962097962312,-2.613400706872749,-92.9894137066806,18.30975761805998,-10.52321146308153,-17.75844214072332,18.585735649796725,-3.403045951875595,-14.54772873461193,6.235024882565681,-8.645247571801892,-126.78873565755437,46.53626088139146,-23.111955954021166,8.510740613360694,-36.94551596269624,16.671246503501294,3.1289804466918714,3.660666119281076,-0.6294560938352727,-1.194258431654069,-5.039735464460901,1.9618745818931231,0.45768842704082663,-0.5242721343349243,0.32020466601535513,0.9470754420004494,-1.8624130633639913,0.1879009613935988,-0.020447331991820267,-0.22922646680086617,-0.020621375111109716,0.17174842945561186,-0.470043496272131,0.15169330193877498
-0.029585369496394495,-23.534908089537396,4.0077507588836,-26.08223174174843,3.3943703138613293,-7.468295273750391,-31.64172376681425,8.968776922529015,-3.079259188624857,-82.63974572305492,14.014214120114666,-6.076425061237997,-17.59760035994698,19.803667567417897,-3.6961134579792345,-13.30814070001559,6.757472361274603,-7.138233521876703,-103.60283928675949,33.61782882594514,-17.037510106432272,8.273023356371153,-39.8867184242026,6.534323123790106,9.243517614310226,4.445206392245265,0.5807283742510134,2.7586378391532143,-3.121643994164147,1.0409399275859554,3.9754962866700847,-0.42489685234164454,1.878568787994948,2.241003783654261,-1.5130488880103836,0.3163212118930455,0.8622913694098955,-0.008611837234459355,0.41240375869658724,0.14303941051864583,-0.21582243630517595,0.05003328810019332
0.7555996734598835,-21.192128875240094,3.6194259390271535,-21.964393618964266,1.7147019999940194,-6.79452644272052,-29.841550271395484,9.024156938410252,-0.8675621189381566,-69.90221064125417,4.83566176620845,-13.431294633318574,-18.304797718222027,22.42050643802095,-3.9707691526475846,-11.697987927364409,6.525196404579255,-5.64922834067455,-86.78138194058633,31.077412282305353,-22.14767316867491,22.06616282068983,-38.91534355353877,6.9163369613946495,12.049221821165784,2.209796012291297,0.6016331177461469,-1.0534765600806395,0.3173967715195211,-0.12308334274488417,4.670699166938787,-2.027488893516317,1.9795600413755658,1.2698307250167657,0.11377464128157876,0.1828587255912124,0.5633680191113372,-0.25393797088993253,0.20775201177743302,0.08649143059578232,0.0772649929580018,-0.009562920936199815
-3.637493574697739,-18.90545523356575,4.036904311851421,-15.788193673581524,0.6756787081531923,-5.36250878016576,-39.683947175338936,7.665445960799866,-2.2033864908345153,-45.36117840346882,-2.4121654659752876,-8.602741625952564,-20.14472639067455,26.566268377349633,-4.279939686600742,-10.647148718211037,5.660908185123883,-4.734629839790636,-71.19281949167835,26.159508191401418,-21.100563513833308,18.805100752239213,-27.957494684791673,3.4736898386926347,6.966296536355499,5.351960382003093,0.016318397232614915,-2.8382699804027096,-2.0740697909215102,0.46473783512836375,3.0323747507652414,-0.7708700515210829,1.0401983090992297,0.10581326370110132,-1.4410298592397952,0.3483575931452062,0.4594290369174104,-0.07118877309419619,0.10853637119312244,-0.06741739922456737,-0.3155208447366127,0.12799975118270943
-0.6154648267160562,-15.540337340997612,3.381949459354577,-12.432280069941509,0.6282225491336554,-4.934038077912764,-22.53032932222288,11.270692121112333,-0.13081385971935433,-30.29963067445977,0.4344617877330519,-7.468787675383478,-22.897794545027793,31.69293906925015,-4.219152051095287,-8.949150301998882,4.015181459953764,-4.298963113824529,-29.213490601299185,34.31447578838986,-15.800533527133888,10.497131806887358,-39.13780756864181,16.11415740293791,8.960597716806333,3.1011960918421226,0.42376136836304557,-0.19946361134995652,-4.8757573641450795,2.6446115035382607,3.866648011833046,-0.4898235476437669,1.4657023137090772,1.654437665462906,-1.9084946316680642,0.5979644353745097,0.6235474012269514,-0.14819151531752195,0.17335840512208656,0.1555422303529501,-0.34823912343989144,0.15466842909794185
-4.941422000394629,-13.298181702251705,4.348676603172143,-14.548826834370502,3.929494164251416,-3.7475319840076704,-37.811922189850684,3.23709991927265,-0.06687746382060587,-31.924669082953017,9.136030544380604,-3.32388654202835,-26.100821947759613,37.63002559243192,-4.457840527500321,-7.5190493823511435,2.7731133071179146,-3.7610518376848243,-50.58434017497082,41.545662000060105,-11.245287253813107,-1.2118379885798154,-38.42443561260636,2.7585390913324765,10.011713148866768,2.1539688921121556,-0.0788337073627033,1.7121353949052809,-2.7765252994997915,1.2412926924484806,3.004945216038692,-1.1878903699852772,1.7933383324401155,2.297712484087149,-1.3241400976651516,0.5876507357687973,0.36118949594181876,-0.09184975523556302,0.329073968966889,0.30211300634206284,-0.151566510829578,0.11838860253296472
-4.93385429741854,-10.339338484505662,4.071349664920599,-12.446759945531673,0.04951653660315823,-3.8537754078440387,-23.630797829620747,8.133075908200013,0.5419350863498346,-25.605049745427486,4.018525919173353,-2.8964105639220667,-28.99547936341588,42.54292017525731,-4.3945619440843515,-5.801920916950956,1.9466020202440424,-3.5129361581014904,-26.69514630785241,37.52603269252614,-7.5496135096573225,4.35141949978615,-17.23148683551278,0.819050913783844,10.153374456592346,-2.741664141916837,-0.4961216999425039,-1.7097773298951484,-1.824988745359677,0.8587235066842728,3.309998039879234,-1.0699233528646808,0.9717336020669886,0.7652445358268698,-1.0269585189408907,0.5419515051914156,0.4467800867551595,0.0845882268494337,0.09205759661477973,0.021642299104010887,-0.1751324648123227,0.1364878133852103
-4.897680261658893,-8.101600459401164,4.194994036542544,-14.072605623050517,0.31887010941684507,-2.9477813225508807,-26.863764285568493,17.394852940432216,0.6455757521929684,-33.451117026678624,4.4872856999384085,-0.6998701459048497,-31.930175924176464,46.518566533402904,-4.20704445243687,-4.654101092387105,1.6051333430572077,-2.9188466154954287,-44.565154006635524,46.95627089164706,-5.140503411420135,18.432626024795248,-26.314252205421553,8.226266769515828,5.381724733532654,8.442581886933718,1.1701584736882091,-3.432010815191172,-2.149990917466329,0.7711678603762142,3.281176837118867,-0.02338869571709251,1.642675357593846,0.7910296230977769,-1.2337993351783385,0.37954970430890034,0.47415215696224455,-0.028028478750810798,0.2707479318006521,0.20757771970810646,-0.21194232079281392,0.13535507759523946
-8.638291026696471,-10.183142169367054,5.4937899997822965,-14.749346021261106,-0.4245572790123708,-2.613892752379936,-44.506562586838115,8.738789166553648,-0.0006901110487369036,-36.461867259647555,4.437582116665639,-3.3590979584953473,-34.45150726620492,47.83242652534367,-4.362332368078393,-3.7283453376894533,1.3853526075393614,-2.136516304457242,-67.99713084680437,38.01578031429711,-8.135867981141702,16.339676119134896,-25.489444847597102,6.443735487627064,2.6633656329113617,-0.7789414736713287,0.06373009169942379,1.5222873347141765,-2.272442411044669,1.4011688393153714,1.2694787768857498,-1.4414051427893826,0.7466058217401247,1.2759508281690028,-1.0250571411690819,0.47086114636315096,0.3254121912858843,-0.20433280376587648,0.22716273296503706,-0.003928506167766949,-0.13919373720766168,0.04136006423677687
-6.87732769780616,-12.420974096605129,5.842171252930536,-12.480851543304196,0.7550372765426184,-1.611061088327925,-34.30191632400657,1.8337537169295113,2.3777819017099557,-25.882370628734815,5.28265949145033,-0.6970523430502166,-36.39005876650706,48.44877328663502,-4.198816289880058,-2.826826095132609,1.3526051173690272,-1.4583129588390211,-41.658463314356396,32.56941248695318,-4.6006393543946,19.129417830655473,-21.881788169496925,-7.266004481407908,1.2926400605589032,-8.047452606464036,-1.8601464567607473,-0.9865219810873831,-2.8741359645158164,1.7039545527394184,-0.5001879567882576,-3.671254776983084,-1.2942081917795476,1.3606519706957445,-1.2754088652543878,0.7337833689437365,-0.19556399618920323,-0.38282805161904326,-0.31291695883366394,0.1564285058673984,-0.22599598008495458,0.19084705568686644
-6.6035711229959535,-7.590577859049053,3.7725150283251265,-10.190521715389368,1.1112402065984768,-1.1612379751476747,-21.460096119604195,10.288217954609864,1.055046582900502,-22.707176950853874,4.440032546751018,-1.3070720219131757,-38.50613767737326,48.04009739929339,-4.368779291755851,-2.2361322856936803,1.242601828095044,-1.0264700401947928,-25.31425035089411,40.52296360934041,-2.6024339791390365,27.529525238560133,-20.606131802490218,5.913413333685301,0.5699798809382207,6.18161861632909,0.9704846935861019,-2.476066541778861,-3.047953291577064,1.5286571984736492,1.2665292798161025,0.2150830121515504,0.5483668605011373,0.7237886851306926,-1.4485201108201475,0.5840018272857834,0.19548034822108262,-0.10267381590784314,0.022601655422123182,0.15281472985485922,-0.21296462778920747,0.18443369280194402
-5.773401074562076,-8.960674398147907,3.4931556997478173,-9.702618614471472,0.47770301361900686,-0.9789321928089441,-21.950078802541267,4.809611341974634,-0.5426247143327337,-20.432274622035386,-1.2160457798554534,-2.3130508717893377,-40.14246229778805,47.56180222721514,-4.480144449683848,-1.8667000143474162,1.1982072997958617,-0.8647444394493802,-22.15973807170768,27.314018666786975,-7.83666530939159,29.545982376745684,-7.106329622484188,4.963381432487585,7.817670735727031,8.304431926479346,0.7492629037232186,-1.5602332445760998,-3.5197868170200257,1.0270840916721413,3.3861314057807412,0.8924580846726202,1.7184162584778708,1.1609529415714877,-1.653731605549016,0.41523210506245706,0.4581816688055848,0.19336114907501267,0.2618980756707479,0.19599351273481994,-0.15723171034652353,0.0815128774521743
-3.820590516064517,-10.948301633906661,3.6120923228726096,-8.672948914355173,0.729570817083241,-0.6472713037494613,-18.229470751777843,3.3021570454366427,0.3191009876138825,-23.181496379126003,2.090311224371774,0.33916888863894684,-40.916367751843595,48.1187700678884,-4.627187319225162,-1.2743685050627165,1.3287057229127088,-0.711755994004932,-20.89642890154488,33.156853082310846,-2.133821878910271,18.092422993191875,-34.963404869040126,6.0467841496339965,0.5818236674345184,-1.2357791665905977,-0.0910527046590244,-0.9613236597583457,-0.9607970644759721,0.6660766365552608,1.3428861853348457,-2.4138562956007434,-0.20520538643587133,0.8854807396151212,-0.29792818955861594,0.2627418518669592,0.37169896959842313,0.06544757408134216,0.17545570829233173,0.013477070976761487,-0.08398765841256327,0.027870174658972208
-7.358476148043476,-10.696788620813722,4.953384941621076,-7.049707240191124,-0.3950001202714028,-1.3223547052573845,-39.23193915031116,0.2903905463316282,3.358776374563469,-18.030909906149173,4.67763776996129,-2.732889196634063,-40.8991840107422,48.582208315305216,-4.727801766858252,-0.5208184513731805,1.0090778306562709,-0.7337957676739213,-37.72653728611555,35.612532523355505,-5.7524928656733,21.39809673597982,-25.976504538782734,-6.893504086420074,-5.711877084425976,-7.629040639112492,-1.7637478741280717,-0.9727351723745797,-3.2431878875750444,2.014942866881537,-2.0799130427452925,-4.404313183103028,-2.5134810812422974,0.7423207230105183,-1.288968720016111,0.5468040110138531,-0.3002443253324802,-0.9269134914000414,-0.5765911653470255,0.036183587001929085,-0.16617887124578945,0.13263677646974012
-6.273518220658481,-9.418366672026586,4.127506684363539,-5.815180590025395,1.535452521346455,-0.24336977634509338,-34.885809078193276,-7.893928950638253,0.021488169923435226,-20.227822531350572,6.494236353714834,2.3644452100205027,-40.66133273499262,49.361305399729815,-4.671342789627315,-0.20927120533721025,1.0722711965462535,-0.4899247673166906,-37.00090129415035,21.593080668825035,2.519215580109845,-3.187072398081606,-22.504566660533435,16.72364612008765,3.8210198165495397,2.669754148677943,-0.04170094116902324,-1.4150994248836404,-3.4989073858372004,1.1342481502177775,1.9532084874416422,-1.249899890075618,0.07281909324520115,0.9356463027991796,-1.5502973898365584,0.3354042403567995,0.20109464171994623,-0.11200447870056429,-0.07163276029242491,0.11273972449569626,-0.18692317531132682,0.07597344816218735
-3.353397562281886,-8.140235163585576,2.9821540982354793,-6.9404678802430775,0.5846320809813438,-0.4748236893121055,-24.145204440320718,7.108864077009416,1.1429399031083767,-22.101405047210065,2.643483223878958,-1.0464704652083343,-40.30743022601511,49.18244828549188,-4.730646918395129,0.216411769531089,0.7501392303598998,-0.407351758920232,-21.392057857714505,41.38850923183372,-2.871685696598828,24.145968453607892,-27.655545836789003,1.1197958227439413,1.1457563992381326,3.4609480203149396,0.9681740600985375,-4.210364795912232,-1.05927702664473,-0.19461456392307075,1.1671564526006981,-0.7609683906654238,0.5313265491278615,0.7277153688081769,-0.7943656338795536,0.2845195921047458,0.29626200882175013,0.022896530171265344,0.24480173448297346,0.2509506749569454,-0.26489040303417183,0.1601446855366818
-3.119851114560273,-8.889239738447822,2.630433014327715,-6.213760775586721,2.264610519702891,0.0991577377728655,-21.84363489064456,4.6757942400635955,0.7568627622473193,-20.51993138029237,13.553222764553773,5.478692933241768,-39.51047932604248,47.9728168599774,-4.941602331350322,0.20024937379316046,0.5479581911587762,-0.3304142797729092,-23.912882969593802,44.25542955971114,4.895441910524565,29.75052950071349,-22.36228681840066,-2.322421706701332,-0.5889119595334236,2.497707030427636,0.12216834137047032,-0.3648758416803625,-0.15800062859031494,-0.04433623587735995,0.5401248133139005,-1.3714064811408588,-0.485002321882471,1.1755797301952242,-0.7930916323146249,0.5796880343152904,0.04434543917970414,-0.141269077736063,-0.09533565983105018,0.05980294088679798,-0.13436512193257047,0.12493350718122774
-0.7507508257713089,-10.735134138419713,2.356963780097779,-4.587907631614747,3.461102200251376,0.3257439272626138,-22.344852842969637,5.837928300778067,-1.2222112229895932,-19.201174748459355,8.35513233989777,3.7943935125706614,-38.248811380039896,47.01181689961337,-4.934294839683225,0.31312168427577314,0.4941357173091859,-0.4303317407422907,-19.060046932818306,42.823784932830144,-0.8130537211231812,20.839375658338547,-35.79985318537115,-0.06591244740606521,-1.7983575662637257,-1.4725619395651053,-0.7816107553191162,-5.619465763343907,-4.578270398790543,0.7853377669481919,-0.7391866456616215,-1.2377144383848457,-0.9091691743393021,0.350656036503502,-1.9218360080862193,-0.049853566292076754,-0.15692861763886898,-0.10349678907987145,-0.11457221281582458,-0.29108234358318086,-0.23175522857684935,-0.15115369997694178
-2.3228927719571,-11.701681340741496,2.947468294091121,-7.551396310455542,4.167516541463051,-0.01971446158502677,-33.316369066359236,8.257925394062948,-0.46160172674342237,-29.75000422907833,11.37062274864745,-0.5912366568101693,-37.05706024684714,46.39710174754399,-5.242758014481141,0.4254064103566935,0.3771818531229556,-0.335487177196849,-45.331128442004214,50.96838397290439,-7.209244030187423,15.088609430746267,-19.619577451813715,-5.665482058102422,2.358783931778373,0.6733166403632046,-0.3459341680377809,-4.33656894769632,2.084084484083388,-1.2380094715123395,1.150278320763985,-1.3744660479453068,-0.05645396925780921,0.49806816996498776,0.5872077091805477,-0.07696266817381928,0.21047669702416053,-0.09188975666313517,0.07045698782389082,0.0681605527063194,0.08023531331131435,-0.0631684701136975
-3.051462102726841,-14.86142088147871,3.7856880769719785,-3.3139833074262723,6.025702699251627,0.7996550276661551,-35.612227564887114,-0.619136740823024,0.4079868433961374,-12.813354947863683,16.138789158500987,6.006723404925808,-36.71020124271302,45.952778141668084,-5.520384731014641,0.35964850194791226,0.4111007494570666,-0.3095433830503756,-30.92770403363099,39.87091330228117,0.8692189406136825,22.109298045641744,-28.435898690596513,2.9193299467646887,3.769090895580007,-1.3544718468993762,-0.8036227485028871,-2.688907063874754,-0.9442602812504909,-0.17158769769326798,2.0888435753830317,-2.2629474501788853,-0.44967046061372207,0.14072876623191705,-0.6715194496911131,0.05978825788389656,0.25639407961594685,-0.20506324075631951,-0.11230893187372443,0.03626096451530655,-0.20455246747657485,0.05543608029285254
1.6939320868340195,-15.666949970951594,2.7766943990238038,-5.329290082385919,5.257255487143451,0.4279182148515137,-21.860416591967194,5.162089352838763,1.1215445036314546,-17.996645798694484,16.089909104600746,4.436056562743292,-37.17820807345291,45.549465763038505,-5.485774388816851,-0.43015352630899206,0.37895469571656604,-0.3672356979485962,-16.484853789063266,55.01374258648777,3.8327779312240624,17.88067789499167,-32.14986420978935,12.590177710077734,-1.6280669023781973,0.6998047142917573,-0.11200615895376442,-2.0775198098451413,-2.8180205345331437,1.1168786360949496,-0.5337100960139102,-0.9361858016577839,-0.8274728417056236,-0.10397139151578164,-0.3820633770696256,-0.03482714371325306,-0.12733349983595957,-0.1364433810161925,-0.17073530028743492,-0.11933914540916227,0.0003243586575232657,-0.027695999846577137
-1.3576783046419456,-15.993865965683026,3.4658047054572716,-4.839497712249927,3.8425019068853223,-0.2935702894920016,-35.82059049088547,1.4514570854042081,-1.4669729095065913,-20.13142998562427,7.911534304913814,-0.19212831915035575,-37.362313028458715,45.77248046213533,-5.539884985823698,-1.0475042665110188,0.6578900737054918,-0.7525855351385873,-39.05663059525784,33.98181978834653,-7.969734662583585,15.714742408580456,-26.79906976444971,0.8111172837853544,0.5186073477676281,-0.3598993637016997,-0.3090968022462777,-0.1742383715337759,-2.294234079297821,0.7820411578059216,1.0373720755703288,-1.6035389290874242,-0.6663038028799776,2.315778175998255,-1.144181853657647,0.6220072940688066,0.19701115690006296,-0.1317846366586159,-0.09646347940634045,0.22312208310427423,-0.1312312690771126,0.15437568643551947
0.13200316047961974,-14.73165439353799,2.6920240197637098,-7.517541723424457,5.574073985397712,0.4250015324893764,-22.891228083386096,11.0398559887079,-0.4375829768638332,-22.567074878174957,13.011297644568758,6.065766375844508,-37.36877822158943,45.02138152126834,-5.400981385709546,-2.1358391355826343,0.7464168287372354,-0.7678846885338252,-22.36765492050242,58.980861553298304,-0.13127857132666806,40.93364898525191,-31.219409707323344,-5.313939660317254,-1.5499639605928635,4.117248364110323,1.156645055888668,-5.268917369353671,1.527292374326599,-1.6882083216323258,0.9241262518363743,-1.0709567846414543,-0.4240358368048654,0.3348777892910685,0.02600538717709251,0.1359469496079377,0.2635576773669388,-0.036590231748932826,0.006563604838348847,0.10534751256056192,-0.14033896276956795,0.03791196661561749
0.07064114601851446,-16.383715404498094,3.9081818960799763,-5.149357398729575,6.523458852755877,0.21887265170363002,-31.408737733348374,2.783005298061515,0.9717786941169472,-21.69750486424853,16.60220020803371,4.072019518703017,-37.038984044620285,44.728168321130816,-5.019717452414898,-2.970500074664434,0.8162294099715742,-0.8031011540554469,-35.439280096188405,49.525228732167385,-1.7210306451741721,23.645115613733765,-34.2144005469124,1.9171533049125786,3.2605829456396425,-0.013186120549881719,-1.0419600376446898,-5.188999000391075,-4.2937922833816735,0.1669358562955947,1.0300471623340746,-1.4148977129440259,-0.4406623372270765,-0.10735929208149556,-1.3934945373316059,-0.5176278843820203,-0.04354047386683249,-0.07706718645660027,-0.1041799513200717,-0.19581094162200507,-0.1806648459703067,-0.13803738157602102
0.007080506780988997,-15.338486551957988,3.836047826853988,-6.330581337278634,2.647002753653283,-1.0615542875925814,-27.158677925567076,-3.044724328952246,0.3461842157707459,-24.257584338957784,5.264898389208021,-3.3159657613099545,-36.61940342423429,44.47097541541835,-4.874493629162753,-3.243820299753359,0.8804481882676433,-1.0748701653748474,-30.64038392409178,27.22309825739389,-6.447681994107278,19.03804488557585,-13.650695051099314,2.9122398072905167,0.5086463517063405,2.130498880556531,0.5221111896907217,4.4101912751522905,-1.4295047530063851,1.3103393396540481,0.6953598079615624,-0.6072444129270451,0.17085232830500094,2.6886721815983847,-0.4996457293121966,0.5458865860162395,0.15955361952148076,-0.10248875609251525,0.04797647035549374,0.2604327247220186,-0.10106887603111601,0.06574349178806815
0.5592466243568878,-15.168451457931267,3.9379882929453864,-6.765922947532884,7.095260620375891,0.27588983335720674,-30.739031322260853,1.0525220336735472,0.251207080483921,-17.426195202367097,15.485798288316957,4.117331762422854,-36.88741533207174,43.71089401928353,-4.6565139080062945,-4.212384941754734,1.0209864679623843,-0.9232663059887921,-32.98360075426911,40.85095958146019,-3.81940366629017,26.858678320747178,-31.040196839565304,3.9441495589274562,2.8210985777132063,2.2459363866419464,0.2701917486150837,-3.054101689490235,-0.9948933918469812,-0.6798138837099343,1.7686449919942502,-1.1834094262868793,0.09644346632115827,0.4814617987314852,-0.5761664060868346,-0.12136599984201972,0.22023289265219667,-0.05948757447960748,0.02887539904566692,-0.09205319730907201,-0.05892138560331508,-0.06566765890299875
1.0226693714753128,-12.558342440069904,3.3669744462545985,-6.996334692349906,6.554230990837141,0.4153040091801659,-27.119377006187026,6.517277962651048,-0.6203359896483368,-20.236018978106017,13.919077581808903,5.7752141360051885,-36.728151598265754,43.40044134261902,-4.3787427514712105,-4.627902154327948,1.4238684906348027,-0.8588459190728415,-27.477761227182928,50.433965040113456,-2.703841217993971,26.84700743264668,-35.01741109501982,-1.71926586586636,1.8573714043752678,-0.46064358215419066,-0.8580881177776718,-10.093818925662074,-1.0455799854596974,-1.412296220010826,1.0954265791742417,-1.847060614774988,-0.7634360416508496,-0.7091401655131323,-0.1683542275700263,-0.16298953420803755,0.16190770321937117,-0.18753415343472907,-0.12620106912032214,-0.23006885020932272,-0.04138045415139667,-0.07218410917605068
1.4408582752688097,-14.093839540887092,4.162185450339501,-6.871650323211428,5.985868828773203,-0.2867311297294841,-23.467001176520547,-5.882703400282619,2.239557020779116,-28.042836400791167,14.835673874986583,-0.18058926146367116,-36.263334337573276,42.28906807242295,-4.232697942596563,-4.662188101084247,1.7392414943604608,-0.7484585006352458,-35.73454478285275,26.87165752206312,0.09397713039980292,13.128850945938773,-32.18445419234518,6.886438011675261,0.20500872209683405,2.5227923411560336,0.4633744373239807,-0.1649850555638114,-3.5323612551351404,0.38050216439563206,1.2041918877683304,-1.1433881147906446,-0.26727263301233484,1.7112748784740692,-1.495370941174006,-0.09216314555118835,0.26015701031355076,-0.10447452850842918,-0.01853521582905666,0.24673991593220504,-0.3853760063979915,0.0069871664321696034
0.9746390544331718,-11.708933689429811,3.814120874075827,-8.545162450967267,8.135214271408499,0.7011595851430095,-27.72922297184199,7.791995735018036,1.3897892510602772,-25.241711122439106,13.6396937517797,2.6374487132883457,-35.96972585585358,41.43721438440812,-3.9488672167131225,-5.391486655552413,2.203144849060859,-0.4436664220389329,-36.109158715746,46.29522579329131,-3.846676933478829,38.122601571513975,-31.03437379179787,-2.4905577716757685,2.3406275303404955,2.6039644283923264,0.19379162905007125,-3.9781541094632606,-3.225168518856097,-0.1474872207430496,2.058976790371114,-1.407223650138715,-0.141806025369586,1.0303242921307003,-0.649280689762646,-0.23150356219869908,0.24862160309629638,-0.0665520467637206,-0.047579174255172864,0.05065383222592407,0.01809189336731926,-0.03259169777763364
2.8027,-11.63393,3.59026,-5.60336,8.21568,0.66738,-22.22536,3.94739,-0.57995,-26.83434,18.9669,4.0411,-34.90676,40.04306,-3.44364,-5.55758,2.49165,-0.43426,-38.73941,39.35355,-3.12591,37.33649,-32.75916,2.07033,3.85545,0.02607,-0.86057,-3.39665,-3.3638,-0.2967,1.68957,-1.64953,-0.15896,0.10703,-1.2294,-0.51264,0.1827,-0.13059,-0.01894,-0.13066,-0.30155,-0.14323
,,,,,,,,,,,,,,,,,,,,,,,,,,,,,,,,,,,,,,,,,
,,,,,,,,,,,,,,,,,,,,,,,,,,,,,,,,,,,,,,,,,
,,,,,,,,,,,,,,,,,,,,,,,,,,,,,,,,,,,,,,,,,
,,,,,,,,,,,,,,,,,,,,,,,,,,,,,,,,,,,,,,,,,
,,,,,,,,,,,,,,,,,,,,,,,,,,,,,,,,,,,,,,,,,
,,,,,,,,,,,,,,,,,,,,,,,,,,,,,,,,,,,,,,,,,
,,,,,,,,,,,,,,,,,,,,,,,,,,,,,,,,,,,,,,,,,
,,,,,,,,,,,,,,,,,,,,,,,,,,,,,,,,,,,,,,,,,
,,,,,,,,,,,,,,,,,,,,,,,,,,,,,,,,,,,,,,,,,
,,,,,,,,,,,,,,,,,,,,,,,,,,,,,,,,,,,,,,,,,
,,,,,,,,,,,,,,,,,,,,,,,,,,,,,,,,,,,,,,,,,
,,,,,,,,,,,,,,,,,,,,,,,,,,,,,,,,,,,,,,,,,
,,,,,,,,,,,,,,,,,,,,,,,,,,,,,,,,,,,,,,,,,
,,,,,,,,,,,,,,,,,,,,,,,,,,,,,,,,,,,,,,,,,
,,,,,,,,,,,,,,,,,,,,,,,,,,,,,,,,,,,,,,,,,
,,,,,,,,,,,,,,,,,,,,,,,,,,,,,,,,,,,,,,,,,
,,,,,,,,,,,,,,,,,,,,,,,,,,,,,,,,,,,,,,,,,
,,,,,,,,,,,,,,,,,,,,,,,,,,,,,,,,,,,,,,,,,
,,,,,,,,,,,,,,,,,,,,,,,,,,,,,,,,,,,,,,,,,
,,,,,,,,,,,,,,,,,,,,,,,,,,,,,,,,,,,,,,,,,
,,,,,,,,,,,,,,,,,,,,,,,,,,,,,,,,,,,,,,,,,
,,,,,,,,,,,,,,,,,,,,,,,,,,,,,,,,,,,,,,,,,
,,,,,,,,,,,,,,,,,,,,,,,,,,,,,,,,,,,,,,,,,
,,,,,,,,,,,,,,,,,,,,,,,,,,,,,,,,,,,,,,,,,
,,,,,,,,,,,,,,,,,,,,,,,,,,,,,,,,,,,,,,,,,
,,,,,,,,,,,,,,,,,,,,,,,,,,,,,,,,,,,,,,,,,
,,,,,,,,,,,,,,,,,,,,,,,,,,,,,,,,,,,,,,,,,
,,,,,,,,,,,,,,,,,,,,,,,,,,,,,,,,,,,,,,,,,
,,,,,,,,,,,,,,,,,,,,,,,,,,,,,,,,,,,,,,,,,
,,,,,,,,,,,,,,,,,,,,,,,,,,,,,,,,,,,,,,,,,
,,,,,,,,,,,,,,,,,,,,,,,,,,,,,,,,,,,,,,,,,
,,,,,,,,,,,,,,,,,,,,,,,,,,,,,,,,,,,,,,,,,
,,,,,,,,,,,,,,,,,,,,,,,,,,,,,,,,,,,,,,,,,
,,,,,,,,,,,,,,,,,,,,,,,,,,,,,,,,,,,,,,,,,
,,,,,,,,,,,,,,,,,,,,,,,,,,,,,,,,,,,,,,,,,
,,,,,,,,,,,,,,,,,,,,,,,,,,,,,,,,,,,,,,,,,
,,,,,,,,,,,,,,,,,,,,,,,,,,,,,,,,,,,,,,,,,
,,,,,,,,,,,,,,,,,,,,,,,,,,,,,,,,,,,,,,,,,
,,,,,,,,,,,,,,,,,,,,,,,,,,,,,,,,,,,,,,,,,
,,,,,,,,,,,,,,,,,,,,,,,,,,,,,,,,,,,,,,,,,
,,,,,,,,,,,,,,,,,,,,,,,,,,,,,,,,,,,,,,,,,
,,,,,,,,,,,,,,,,,,,,,,,,,,,,,,,,,,,,,,,,,
,,,,,,,,,,,,,,,,,,,,,,,,,,,,,,,,,,,,,,,,,
,,,,,,,,,,,,,,,,,,,,,,,,,,,,,,,,,,,,,,,,,
,,,,,,,,,,,,,,,,,,,,,,,,,,,,,,,,,,,,,,,,,
,,,,,,,,,,,,,,,,,,,,,,,,,,,,,,,,,,,,,,,,,
,,,,,,,,,,,,,,,,,,,,,,,,,,,,,,,,,,,,,,,,,
,,,,,,,,,,,,,,,,,,,,,,,,,,,,,,,,,,,,,,,,,
,,,,,,,,,,,,,,,,,,,,,,,,,,,,,,,,,,,,,,,,,
,,,,,,,,,,,,,,,,,,,,,,,,,,,,,,,,,,,,,,,,,
,,,,,,,,,,,,,,,,,,,,,,,,,,,,,,,,,,,,,,,,,
,,,,,,,,,,,,,,,,,,,,,,,,,,,,,,,,,,,,,,,,,
,,,,,,,,,,,,,,,,,,,,,,,,,,,,,,,,,,,,,,,,,
,,,,,,,,,,,,,,,,,,,,,,,,,,,,,,,,,,,,,,,,,
,,,,,,,,,,,,,,,,,,,,,,,,,,,,,,,,,,,,,,,,,
,,,,,,,,,,,,,,,,,,,,,,,,,,,,,,,,,,,,,,,,,
,,,,,,,,,,,,,,,,,,,,,,,,,,,,,,,,,,,,,,,,,
,,,,,,,,,,,,,,,,,,,,,,,,,,,,,,,,,,,,,,,,,
,,,,,,,,,,,,,,,,,,,,,,,,,,,,,,,,,,,,,,,,,
,,,,,,,,,,,,,,,,,,,,,,,,,,,,,,,,,,,,,,,,,
,,,,,,,,,,,,,,,,,,,,,,,,,,,,,,,,,,,,,,,,,
,,,,,,,,,,,,,,,,,,,,,,,,,,,,,,,,,,,,,,,,,
,,,,,,,,,,,,,,,,,,,,,,,,,,,,,,,,,,,,,,,,,
,,,,,,,,,,,,,,,,,,,,,,,,,,,,,,,,,,,,,,,,,
,,,,,,,,,,,,,,,,,,,,,,,,,,,,,,,,,,,,,,,,,
,,,,,,,,,,,,,,,,,,,,,,,,,,,,,,,,,,,,,,,,,
,,,,,,,,,,,,,,,,,,,,,,,,,,,,,,,,,,,,,,,,,
,,,,,,,,,,,,,,,,,,,,,,,,,,,,,,,,,,,,,,,,,
,,,,,,,,,,,,,,,,,,,,,,,,,,,,,,,,,,,,,,,,,
,,,,,,,,,,,,,,,,,,,,,,,,,,,,,,,,,,,,,,,,,
