PaulMeinheit/Bachelor_Muay_Thai/processed_Data/N4/teep/scaled/JointMoments/scaled1.csv
R_KNEE_MOMENT,R_KNEE_MOMENT,R_KNEE_MOMENT,L_KNEE_MOMENT,L_KNEE_MOMENT,L_KNEE_MOMENT,R_HIP_MOMENT,R_HIP_MOMENT,R_HIP_MOMENT,L_HIP_MOMENT,L_HIP_MOMENT,L_HIP_MOMENT,R_ANKLE_MOMENT,R_ANKLE_MOMENT,R_ANKLE_MOMENT,L_ANKLE_MOMENT,L_ANKLE_MOMENT,L_ANKLE_MOMENT,WAIST_JOINT_MOMENT,WAIST_JOINT_MOMENT,WAIST_JOINT_MOMENT,NECK_MOMENT,NECK_MOMENT,NECK_MOMENT,L_SHOULDER_MOMENT,L_SHOULDER_MOMENT,L_SHOULDER_MOMENT,R_SHOULDER_MOMENT,R_SHOULDER_MOMENT,R_SHOULDER_MOMENT,L_ELBOW_MOMENT,L_ELBOW_MOMENT,L_ELBOW_MOMENT,R_ELBOW_MOMENT,R_ELBOW_MOMENT,R_ELBOW_MOMENT,L_WRIST_MOMENT,L_WRIST_MOMENT,L_WRIST_MOMENT,R_WRIST_MOMENT,R_WRIST_MOMENT,R_WRIST_MOMENT
X,Y,Z,X,Y,Z,X,Y,Z,X,Y,Z,X,Y,Z,X,Y,Z,X,Y,Z,X,Y,Z,X,Y,Z,X,Y,Z,X,Y,Z,X,Y,Z,X,Y,Z,X,Y,Z
1.5373000000000003,-16.99542,1.94203,-5.09071,4.09244,3.5636300000000007,-18.1696,-15.154640000000002,0.16696000000000003,-29.368970000000008,17.08939,7.266020000000001,-23.884540000000005,18.879020000000004,-3.6568299999999994,-1.4478100000000003,0.29048,2.9580900000000008,-41.71764000000001,25.876960000000004,-0.50441,25.365430000000007,-16.15030000000001,-8.298510000000002,11.856390000000001,-3.275980000000001,-1.2654500000000004,-0.7030900000000001,-3.2803700000000005,0.036740000000000016,3.639360000000001,-2.6246400000000003,1.0108,2.2482900000000003,-1.2898000000000005,-0.009790000000000004,0.4237600000000001,-0.19291000000000003,0.11406000000000002,0.09268000000000001,-0.32145000000000007,-0.06395000000000002
-0.06654628404541543,-16.59693528458954,2.5360889704448963,-3.7891339326924816,2.4153022904830497,3.2000696022476047,-28.526828803398768,-20.830405283016503,2.498260925390823,-21.109993936443722,5.552019929070981,3.129140828001054,-24.777315774414348,19.657273341569365,-3.6800519095718385,-0.7697569741292816,0.3100056237080201,2.856981457881766,-46.08978278451631,0.5419035277403158,-3.9604558487805908,39.51618371464411,-18.740350531186486,3.9832369140308215,0.53944497410899,0.12827244997131002,-0.13900112915209006,-1.2582118660095047,0.9002761285949719,-0.5946904929701397,1.2122558689990588,-1.801562074623709,-0.5346967308676372,1.0469048239556684,0.21838566380171928,0.3589033919359918,0.10433545355147693,-0.21693383336173394,-0.1889176767567574,0.0520058107190551,-0.04040602334047738,0.0011791088591038739
0.1185995659509916,-16.419486466336917,2.306160596437919,-6.223960491489687,0.6977615633123989,3.001362761241279,-21.416507415578568,-21.175757236958905,1.8368444273028874,-21.02507989799138,-1.31191350413576,3.4834203517791176,-25.373230129549142,20.4220104360933,-3.860207475182267,-0.44250325344171704,0.1316083393981396,2.62967593207318,-28.74279481495713,-2.9171121230856167,-3.1622208253171213,21.558098240391374,-18.406867681075926,-6.450496428407275,2.0900853003784343,-0.2911900717266998,-0.25364016552956076,-4.3092758279866406,-2.2171685413790607,-1.0721942917206628,1.8314320728985403,-2.1254927387294686,-0.43268672178359846,0.7890345940624851,-0.7469524105272547,-0.15401675700429568,0.29592751989561383,-0.23211817355965741,-0.10163397104126483,-0.015200809715094434,-0.13692864776707092,-0.042027680163003074
-1.5341571667525975,-15.934905610704563,2.325446112266198,-5.3888397384029725,0.3027144874459352,2.1243075532411564,-23.716967229216415,-19.5920005696922,1.5784303485201368,-23.464588101480874,6.777046599311878,3.357598885502805,-25.691070737928378,21.279294139060067,-4.077267088667916,0.47824906503200526,-0.28713050424903036,2.134608887455938,-43.84320161078632,9.882276255714903,1.8525378776434989,22.002210008160585,5.118141490913416,-6.1772798141130565,3.3044183271273915,-1.4685431605586947,-0.6431209649623312,-1.2203360867910904,-3.9767885143889368,0.3640885249349215,1.851547103445088,-2.0966240115718735,-0.1686448077850626,1.6934097610436543,-1.1178414264050516,-0.008625619932290886,0.2754966371436956,-0.12918626617345833,0.07999127074495042,0.22449574505531372,-0.17009550876074558,0.11502775548800877
-0.2394544241882593,-16.615582055866025,1.8563992657653063,-6.272279542182443,-3.463549847274887,1.106847966545596,-16.73834200185486,-20.532154790197488,-0.10031084207482278,-18.12630680581928,-4.3856401408473955,-0.17649150987169002,-25.90251729633893,21.33948633675418,-4.312110740809499,0.30004874118733094,-0.5410244347727873,1.7363626386458981,-25.44990401885532,1.531780134191091,-6.669445792350192,23.087405712533712,-27.190483173043276,9.806255513544828,0.02114873756429214,1.9047241428358703,0.8632511281966125,-0.4156226415133751,-4.071207528718084,0.7148507668983299,0.9759724577581367,-1.0860139697771447,0.20573639528073828,1.6855898537632628,-1.168982270023471,0.035597636214017556,0.07604203918056214,-0.07519503785820472,0.06976210417668656,0.19799584184546384,-0.2853118510092288,0.057388467476282505
-1.5291961519698636,-15.755427918537409,2.176075259108521,-7.197728996841921,-2.4767165423376976,1.3236678500751036,-30.62949450902283,-14.26837575244671,2.1640058338081145,-20.429683707861784,-0.6091700155974992,1.4682567726061735,-25.902748205853694,21.09752060466714,-4.318511545276307,0.45371206836423017,-0.5258536720580818,1.7372394805937004,-41.84025927557282,16.720437628872446,-4.925964875443575,32.12309517247145,-34.56616423508853,-1.5124341588030643,6.365375150598091,0.48638296229170264,-0.47347526339738233,-1.554285434018531,-1.440878122299242,-0.15246765022385567,2.0922922067948004,-1.519877972941018,0.4038733737568617,1.5664124527954575,-0.2903938510641007,0.08772720080368474,0.21800989273729912,-0.14743661027053326,-0.03092993266483332,0.16724132152539217,-0.10555598444913258,-0.03337998130710606
-2.769706955663074,-16.07341500860563,1.9875244388670796,-6.246890017769249,-4.4770020585189,0.7386391812248643,-26.847322574959783,-18.95039939923532,1.1733955291833926,-7.749026570656702,-7.42058242472854,0.37350833800334093,-25.613603532276475,20.887950561399727,-4.623160119310862,-0.3102905121703145,-0.6141010498013202,1.3867116429902095,-23.280081560393985,-0.37682105184360076,-3.720425523129165,36.86309452749769,-5.464033831171508,-9.969823972497762,0.7811925348194069,0.9776824334398763,-0.4534605599573035,-5.199673309232045,-3.4594058277256936,-0.9926050501632835,0.7887246852642645,-1.5015382682083642,-0.7109906238372109,-0.040404877529290235,-0.8652063537823788,-0.5593591911121306,0.014418317281888188,-0.08837954678985284,-0.11437612463193686,-0.24499253240615373,-0.2070572264985222,-0.25008959681263837
-0.8729839120421968,-19.34876274175772,2.3343533588336216,-7.3825125105928615,-9.431616480521443,-1.4386803745833079,-26.8717970438724,-26.093414782045524,1.8590922785945354,-11.25986276439723,-18.517964468866456,-8.391009569815154,-25.22037511568328,20.79402246625905,-4.918930920740979,-0.6213878080318248,-1.1270304225443115,0.5800261822615131,-25.35639043022374,-11.1714097093189,-10.747577940153302,20.52622390292574,-1.5865048367831953,3.048514880706207,-0.9000121259524632,-2.2702961793203875,-0.47671460615836736,-1.7463603355005133,-5.858719716437637,0.164750481504863,0.7884708659481504,-1.767731665614877,-0.8644509781245364,0.7266888165700359,-1.4620959279891794,-0.728698974600063,0.10731223951073712,-0.0837545765551194,0.009080947605655972,-0.1720880578383782,-0.29727796954151814,-0.261791326374284
-0.8046101515182952,-18.836017883754216,1.6774185696640933,-5.871677272587808,-8.257048243691168,-0.7497600214095471,-30.174351725260703,-9.23493588197441,-0.6756220516048075,3.1365702249982705,-18.897948957324875,-3.4449079875129613,-25.01002023393223,20.637068907575618,-5.1672328239701,-1.6646614900758592,-0.8332604859745877,0.5724156045585879,-10.534229717124184,10.881216385085496,-16.991333815184326,22.8576380552119,-26.553191212093708,4.2971267130995265,2.0025447246839874,4.038798283637705,1.30084375556692,3.2085718789681783,1.209497444805782,1.3793055375056187,1.7454280472845818,-1.1866633087724756,0.5438076744618948,3.3368651397481806,0.9746535917877179,1.5227472467842245,0.2891557708748214,-0.2073372118292903,0.028400987876708396,0.7242330159227949,0.26961528552040764,0.5546812436296585
-1.0207877708744124,-19.803631540309325,1.7184003836309292,-6.636505118599263,-3.6680542369710514,0.07876379727774517,-36.31800782801119,-16.162529489601607,-0.2638200409249078,2.4548413982137056,2.744208295984725,3.434862258731909,-24.158840571198173,19.445596224756212,-5.380190605609447,-2.1226395045436672,-0.7586467002453386,0.7248714802278692,-15.142775364889152,34.54187122851014,-4.414541375024612,20.958591446243627,-6.080310905833434,-5.825068051425783,1.932986672288058,-0.24330573618223084,-0.7872081833768969,-0.5663259323573788,-2.30534274527117,0.980260418249974,1.3782293351730002,-1.7774402752123004,-0.7928746112200188,1.2334325560805484,-0.2342226852212485,0.7743748664186734,0.1956259922828597,-0.13342576805206013,-0.11484746630608723,-0.06438076763716025,0.03723938868861421,0.17625309220195115
1.9914714620824703,-22.850481676496436,1.7368209743388456,-5.623071482428127,-10.155763069952549,-1.7655022886134641,-29.489615270048056,-25.6799662306905,1.229011803056923,0.07894967699327349,-23.25405496749161,-8.402614897156715,-23.858555263090103,19.133017291153475,-5.908606946582737,-2.4671542702148135,-1.028357332378339,0.1963343409932228,-8.38425551531729,-6.627072119698314,-13.535827208797894,21.819210781733588,-32.347255138705876,7.960420418860542,1.1395899064227375,-2.624466574539151,-0.6891881670597966,-1.2287263773634405,-3.0849925649382226,-0.640286350410505,0.9614841240497397,-1.8590482906191574,-0.5743826906437237,1.0810744238652912,-1.1937199826250235,-0.5273561469775933,0.05476092425315104,-0.1518754113343884,-0.03095673131192198,0.07307050236202252,-0.387135553064566,-0.19828360772181208
0.02520393770148948,-22.948553913996072,1.2900462119790632,-4.764000498988043,-9.607456271395838,-1.4149613145956883,-33.3744581128596,-19.55222594414892,0.027124086670625304,12.289024522051161,-22.190541930076023,-4.951409466227027,-23.827377182777575,18.791054511868463,-6.555890027240311,-3.0979677688455216,-0.9076506332387033,0.13128263242709684,6.084886022038521,4.022672742745676,-13.547226630539637,12.119851102482976,-0.9308977977336599,4.383334343538843,2.685596263255695,5.047417000644647,0.6232958787384896,1.4714794521625485,-1.7364738442340408,0.35514762342143974,1.0717714072068123,-0.9102695881474917,0.21526996462464623,1.9763431078784703,-0.2093062567571283,-0.007509762262167791,0.12013033378746386,-0.08121951698845148,0.0400048615040653,0.18926356176181594,-0.21437399122221623,-0.18509911737495316
1.0480070819980667,-27.658462007861957,1.7855670525691918,-5.032010784428963,-6.533649133803389,-0.7031855568929017,-39.47024895690133,-21.41297284202806,-1.004299385483283,8.295109525285373,-12.117076851229475,-2.4709414941987244,-23.392951764785266,18.84595638223579,-7.20391086133044,-2.9333426945828602,-0.7796460004317552,0.4124358550224385,-6.656384643667327,21.182527846433278,-14.293041306109348,16.09261781275333,-30.409018293925996,12.616561082703642,-2.339369659253584,4.203923129659142,1.2686810817775682,3.8005435250518897,-1.6145832205884942,2.2333510463200383,0.6624591535524029,-0.3900509865657217,-0.18070630400820162,3.206452764197035,-0.02777886180718299,1.4402674638915456,0.13548734047778305,-0.02766962215007094,-0.06333615287781243,0.24126183168201096,-0.015418589212578587,0.31505072806270495
1.6255365920621305,-27.249540365944437,1.0260912189405915,-7.965461097804309,-4.840520817825771,-0.5103965937868173,-44.51779563046091,-18.278827678026612,-3.1583218765209913,6.26526260342651,-5.891915511379403,-1.2974434384461675,-23.837084085799983,18.978358410196012,-7.824783058922831,-3.3555803822945003,-0.8242636217329378,0.4086458510505128,-20.07239116867749,29.372425092106276,-13.980485194771802,8.472785090073089,-16.461238530671977,19.434997188228127,-0.151975263726483,1.3366605980006145,-0.14913467119074447,5.875471036293854,-0.5869685676920786,2.8990224990130917,0.4821317523258256,-1.1987620446030833,-0.6366708554289637,2.774034932701775,0.572849835786484,1.5773287856688776,0.07769269797648902,-0.15419657797098413,-0.10451674342470187,0.23789376743849405,0.2846532892734866,0.47228167696787887
2.399719142882535,-29.649543733122353,1.3961185287672584,-9.55019053875145,-7.2484670726379274,-0.5952272780363178,-50.24907854666654,-20.28547661796248,-1.3359629417793502,-2.601386713228884,-16.778347774369543,-4.786868523814875,-24.95871796882236,19.52304404975228,-8.538250566792541,-4.465152984663642,-0.6898481251422734,0.5662822124320911,-28.995359859163425,17.653234157180428,-16.993764909580353,17.957061164483505,-23.69606323750551,12.650790864961978,2.4087594965386545,0.19411523907953265,0.296749223210226,4.467762834673152,-3.9813295676169806,0.8185254815952046,1.3474772922983282,-1.0666135155911023,0.4510309028138104,3.2552698641945903,-1.5360322264249613,-0.2694066352303439,0.25108493268668003,-0.07683843273407871,0.18545590355797217,0.411853495837501,-0.6059830119116317,-0.17950068379546652
2.8086871381274228,-32.800430558946346,1.7544569767320681,-7.62174323921276,-4.778416055242013,0.3274475314847596,-46.38610263678263,-18.416442437609383,0.9052411476341264,8.042785332570324,-10.306306116680597,-3.100303161830576,-25.710260711243965,20.009677213231,-9.496625800351312,-5.072140859742219,-0.5750631427664975,1.2081923249475304,-8.608237355664357,29.812528191188978,-17.04498368524805,25.547251665524147,-24.60691160752196,2.477659628619298,1.185797399226836,5.057065277822744,0.6821885076350043,1.015779817521859,-1.9204668070360111,0.2557230172305322,0.4049637252794557,0.06785264324090143,0.2543888504150468,2.7929454848163533,-0.814271219564009,0.599224346528956,-0.20640340407200847,0.21944638279975665,0.006416891744951796,0.18359541853002312,-0.33688227663234754,0.039945004817399946
-1.3955156408562974,-33.78768507644764,1.8200124585334376,-13.998277386268624,-4.026898462793991,1.062587274286074,-64.24059404624738,-23.50326809500395,-2.3126795712039434,-11.94234555346498,-6.476156443271129,1.1149936018586148,-26.969604407044883,20.63915515635463,-10.4116780403644,-7.056265055891243,-0.4176793189680918,1.545553143991424,-59.516488811586605,29.18070491306401,-13.279629555409254,25.397401300103358,-31.154597797325895,19.740117261792808,0.08709540901672294,5.394361381742493,1.9027586504374419,5.428794176614404,-1.464869110526502,2.937179931978344,1.48516830964369,-1.031460370804434,0.6314575753308586,3.2951693074411748,0.9893468966294896,1.586645657614931,0.2783437287926083,-0.12693224602223316,0.15901584539649166,0.3879152476696201,0.28265292689658517,0.45100169640266813
-0.5015814639953939,-33.99397676968875,1.0496127349538784,-12.981334246282978,-1.3526744621841813,2.199669697663314,-51.00843179452675,-17.704485305481995,-4.542946509921021,-6.291709862738868,2.317695360877629,5.665814499986682,-28.60326107610823,22.078959775994413,-11.221175634235536,-8.609010622655255,-0.1798350278426961,2.320561457745375,-27.379223429423984,46.94913477801771,-13.56655069457488,3.235390840024409,-45.80060018583822,31.3392441995136,-5.818580590937084,11.867490702454072,3.3978787625667093,6.812300113120079,-0.986387262645526,1.5040431924183568,-0.8589666525749635,1.6652682908364134,0.794280624415894,4.271520442466451,0.019510531119748424,0.46233494976223005,-0.16206592837261186,0.24341306175925145,0.2005721183290744,0.6066539591529085,-0.06122294940207383,0.13046929530411985
-3.689929034655159,-34.132325499713396,1.3261123029437116,-18.482028469378303,-0.594936780606627,2.1579680565650485,-64.58214488023893,-21.03667715132518,-3.2106850033407173,-39.56363682306601,-5.2399176238318805,-2.1831048086446136,-30.553118633428156,23.745002870205216,-12.384783328673405,-9.877778326790283,0.2709921847342834,2.499421564032172,-81.93995854451337,27.097142324721073,-22.675706433786175,28.544725323697655,-18.235345652199005,6.441920931244891,1.465043888596768,8.648439944129379,1.0212673019090717,5.305342569925639,-4.0496031003146875,1.8715125998296616,-0.19345150655289767,1.4080660149257904,1.055355787939808,3.769813321462407,-0.774161822093475,0.6575256852256423,-0.24380293217479362,0.3990919496770386,0.26363635813536856,0.23150339649036553,-0.3136379409490945,0.0681763986949502
-8.216740384129567,-33.86585476192103,1.8792651888881495,-15.426176485961745,1.920850225578529,2.284832766218102,-72.95295721622331,-29.70961998434405,-1.3409477574222939,-68.01411248061311,7.328150981489236,2.0514704304740765,-33.424820111179585,26.29232229202433,-13.444786307667394,-9.14455226861557,0.17711464741507452,2.2891518519391663,-135.19776100138844,21.27018474488057,-16.04885392367285,20.07919542534587,-20.619788554213937,29.793955373084554,-2.792314137619553,13.046682171577196,3.472922734231504,9.290491901574287,-3.86071982412044,3.345252462405836,0.4615412310671535,2.1119065438330846,1.4885249440516894,4.401908152438437,-0.2151648182376332,1.111512067838027,0.18637957249391784,0.17238052756342978,0.2217454565245666,0.525595863251177,-0.028996037469164467,0.4292542270329248
-12.141405668458301,-30.28581327054677,0.9403711656700451,-12.535434324470048,9.641631093872943,2.262043816911098,-70.1523475118619,-17.853270642717586,-3.915753998305316,-85.2285939404901,25.2943007543985,8.4597622657305,-37.827716227684114,29.64947338149969,-14.428810605898587,-7.581632712339628,0.28034058274653595,1.7158852233945137,-141.4600684709097,53.502151597505495,-13.739536160004244,24.141689896201957,-37.67362314371392,1.0924918624265114,7.502824948618856,5.144607252870019,0.35917548131887705,-2.3264951953040867,-3.563731962596294,-1.5107363632396444,3.2725081891648173,0.03660985275249668,1.4538043453066436,2.1198511293279334,-0.5887079100394664,-0.4736337397617146,0.39590013460391665,0.23143061305856352,0.23860367064842147,0.1500229801808213,-0.2954159230581655,-0.2738682983302343
-18.855566220076714,-24.746593381588585,0.9395470001468154,-8.574570426419323,12.31711157901764,0.46313267804331043,-74.87051886886091,-5.640723360894994,-0.6736264866120064,-112.31009318524741,26.86648332003741,0.23582347340217513,-43.322441575823106,34.58014437504405,-15.428286851216066,-3.7829871860725177,-0.20393568977906867,0.4970199732733307,-183.36503384002407,61.26589376643264,-18.586675313475617,19.718101529880986,-47.55574869104168,16.590798064491892,0.9866307045893666,5.929725089342622,0.4966513870307476,1.5159451108007589,-0.5378236040801664,-0.09956617044697835,1.9436850406101045,-2.038079997616038,0.21976443786196648,2.755396643711587,0.19540281663714879,0.21637011783569093,0.415499750313085,-0.26558511157880266,0.11808802014836572,0.3136712101819558,-0.062212176096802074,-0.02196400790380506
-26.753458855897886,-19.257536367464557,0.6930405394585277,0.7387710674614556,15.043425494951434,-0.5933202534201067,-80.22420601403871,-21.755281593879307,-1.297684661926671,-145.38872233928768,35.43808133345836,4.305585184703027,-50.877926750776496,41.07125276539454,-16.43550824985402,-0.2621170255303615,-0.22514309319650821,-0.8506241569364276,-228.716165713277,38.431672465619876,-12.952746623674113,41.26387334871743,-53.055924145107134,18.288609900380244,8.269714811874922,10.60538308183856,2.107934325508695,0.5205975514691964,-5.550506269125865,-0.8424656555995578,6.909655566950028,-0.6628451795584495,2.14552340796335,2.257756166576496,-1.0879882836005956,-0.8276041839508269,1.3222567633856812,-0.138034489589074,0.29301406090204374,0.2263075939944687,-0.2954253598967647,-0.1682869627958175
-36.76513686477365,-8.304427532070891,-0.2919002249751426,15.41712620116093,18.28000002367799,-1.7186380605274028,-77.1495260986302,-22.664172333320398,0.5505547134218907,-150.12322275918729,38.32673578992609,3.4064580571842775,-60.62529139296689,47.91977083295592,-16.977539947400512,2.0783106787311585,-2.5537651915404926,-2.1681328214881104,-238.56677672826953,17.041474414268027,-12.94134223514737,30.738457372697184,-19.313604869441534,11.827031700655462,-10.269784289538073,8.87593602228947,3.166667511482638,-0.05814319241803761,-6.078559551067649,-0.9196987359190721,-0.6579170246890165,-1.751662132947511,-0.9585737294928756,2.6808192797556565,-1.1496260692322853,-0.6954365790653142,-0.07911278325089972,-0.35270212145528745,-0.22737884459400112,0.24598036544725616,-0.34485582799925524,-0.15795172122084802
-42.56623018451323,0.9585103104157479,-1.007731328175662,29.055977061199528,29.134645180417692,-2.6295334106725505,-63.09101965873231,-22.417562795626814,3.720738803340561,-156.2457995856051,45.761338012500985,-0.7440608299460795,-71.50233905232143,53.89988754701036,-17.20496248011523,3.296779315334366,-6.925572283758042,-2.476260475175474,-226.7492092757766,25.311880115482285,-3.992352407026921,31.837554792269763,-17.740543290064938,-9.499450228732934,12.353737358840286,-0.5278713478694048,-3.4597377661536313,-0.8745797641551761,-1.0987615595426519,0.025416492810569458,5.110982556219919,-2.3753344984499507,0.3434619844861911,2.1444237468869844,0.7271326341501447,0.7525773151811428,0.533038511088368,-0.05510145119019644,0.09330742710669765,0.20808237448087796,0.08175304416240077,0.11733782219670368
-50.636776567859535,15.262051670325302,-3.2524256022105433,40.208077022629375,37.60042501995604,-3.092535852889045,-57.87288642315837,2.8532720870537602,-0.5748752717507952,-134.26881118131837,70.62316554650556,9.296347505742155,-80.46413253061844,57.542666382044594,-16.564976662910272,2.4770264711394008,-10.426830974826325,-2.077765821859958,-203.59097118166434,79.13604554022727,0.8277104475266835,29.955866324308815,-47.35631372773661,4.48473658638418,12.565230812644014,-0.2482723619877819,-3.5955203509668636,1.650839937018499,-0.5477666001802712,-0.15977066530892048,6.668353036188064,-2.7662181917117477,-0.17665038831919389,3.3666358717984806,0.3594406520572402,0.46969599329057116,0.7623617062573705,-0.21412170629426,-0.11699870244611593,0.40901460311059024,-0.038531175334815496,0.09194389319851243
-40.40342127889425,12.145856046386553,-0.8010984976345193,45.11324403423054,33.88809000255385,-3.2763917367298734,-26.843781443862742,-15.197768734635579,4.632446440615099,-135.38028004303177,72.15127738986213,8.746982768215311,-84.29015375935028,55.12214717644669,-14.89340547035173,-0.12263568044299691,-12.062635191239108,-1.4505266776836594,-178.18526454419282,57.813721467377874,17.0448409478104,27.796726730568288,-34.06837305558992,-15.196280509975114,4.136149562978032,-4.843211604921558,-2.729340738371034,0.6351055075353993,-5.615863522846414,-1.7246467162084902,2.6763183248771667,-4.35645832174068,-1.5871166166917263,2.9260401090795125,-1.4241194146976344,-1.3431115881399196,0.7983325758067311,-0.822775392439069,-0.33879017651909277,0.5034012737681897,-0.3847316598829909,-0.1774713928914098
-17.46076083127212,18.670859731927514,-4.413435346504456,46.24968862737565,27.555270870720594,-1.5497679253571308,25.900572332766178,-9.005882768325023,2.3168297591090834,-131.26830354118962,46.51196247930087,1.2969775701533544,-77.98338363133163,46.48114807189674,-11.194060552834149,-3.035790429569664,-12.576719304064806,-0.06944500715783758,-121.85251966053337,3.5788782842887725,18.436226129198957,41.24058956763339,-40.35739605616553,-19.593630211302624,17.09173028951941,0.7505884131428575,-5.472660098227204,0.6700119247627556,-2.898787013183131,0.27475931123229497,7.3083723527388145,-0.9815572878632673,0.5248989734512295,1.9862474406595685,0.1516778667478321,0.33779359560505207,0.8270721536822355,0.03681956862284675,0.049737261571562316,-0.04755045452908767,-0.06951089250180921,-0.03587794580166281
-2.1232079048228445,14.823612071797902,-5.2845539452578745,43.96535920781322,29.264802016040754,-0.08088540932137622,64.42425419050264,14.490393424076746,-1.4095779319209971,-113.97618535607255,58.387381957985106,10.603498043383354,-57.68898265847462,31.662632241717866,-6.855196779262165,-7.4745609133231765,-13.709455800881209,1.845434144887017,-58.79560613023097,30.701725329176107,35.15686034592946,26.98274590783655,-3.7615124048011586,-15.405476361971196,12.023447071797943,0.8643948557805351,-4.805354535903297,0.6187291357774226,-3.5291002415096218,-0.6117042485335763,4.761964134810471,-1.05173065482419,0.04844148904042462,2.4489265713543866,-0.0022130344283736447,-0.3396452159726,0.37799614942423754,0.08470351717907407,0.09438394034650915,0.14043523184551665,-0.11606069218594453,-0.21967402064408403
15.108658937064295,17.04970175539757,-10.296755567693657,35.65576606990926,27.26088361052637,0.724328560793289,82.32613385063236,22.627275775313837,-0.7519670569885801,-107.38422822702432,70.54573069375773,15.37231464092736,-28.015753544464307,17.606927640051037,-1.6770630482479405,-12.023093457246985,-14.311025828796645,3.274462257272581,-35.63589158899803,24.454402963127627,44.08034640595769,27.17357313181633,1.5160877430158406,-10.352589540495226,7.624003049697642,0.1713699316773059,-3.7589641962900524,3.7813734592700206,-8.446292581759558,-0.7327910212910342,4.40356722334303,-2.629739817574144,-1.170370083834493,3.782301213866455,-1.2329461979446472,-1.2696806802349594,0.5958302791201203,-0.4073646519275785,-0.2790214238457147,0.48654374510182974,-0.2720139083680684,-0.06699156717057358
8.911806556859956,19.46700159333959,-16.626835140249494,29.322041407372765,17.400644984914845,2.302899579242339,62.38419856873724,43.963324049146806,-1.880266909360634,-99.38035622436936,51.22291663403428,9.089199517305731,-8.014953693883305,8.918495618499126,-1.0869383101219934,-16.55545918085906,-14.03183160342057,4.039500960976802,-60.22111429148678,20.11211598008546,20.60395740781844,55.009042346024486,0.3858737726541452,-4.979951186965556,3.809500951743692,3.8101657971040286,-1.8611396729638252,9.575733127808896,-2.3882732366004724,2.530820855604402,2.510448864716656,-0.08874877472359945,-0.14961556532616296,4.4360089804263945,0.21962818056356095,0.48451249439934935,0.4440426040781718,-0.09756965091344522,-0.1746276114211226,0.6554274342272303,-0.03842291279218166,0.24430230060491442
0.19477771141215472,9.27809668958307,-11.658484065366595,23.064400303081634,14.735114762698995,3.3217308201084093,41.6585603144855,0.17365048837421426,-8.64365451157397,-52.11248294842392,35.475267218823504,8.507086848974438,-1.6261268392076798,2.4456869701939556,-1.8733345619963795,-19.753247431085956,-13.391475051365662,4.555386829076079,-23.631413137669387,-41.020941754574785,-10.839827693889717,18.54978410311276,-2.531359272880302,-14.960853697880708,6.69405785472055,1.5534096913353062,-3.621456158043467,11.06553475404571,-8.570157814283592,1.4705454683181267,3.720725725807171,-1.945963983254512,-0.9629117936756423,5.178491143540137,-0.6530586595311344,-1.0226376130839976,0.44447475195902136,-0.15833922377068815,-0.08934397418903114,0.6094051062998638,-0.18835475382890807,-0.026910971044410953
-4.64840068653751,-2.7610111164620688,4.735832322952088,16.283839116334047,8.62993967805193,3.698764760411029,52.47373496957456,-52.47047560942581,-6.818486348090403,-86.81770419008103,14.733052615397103,-3.3879456616896007,1.7157826396397131,-1.0066365183358161,0.02761805710012323,-21.987930323313126,-12.305210903667485,4.683141372797965,-54.30814031792652,-131.38868030432678,-8.92947501985109,7.9796792087431125,20.131004137403167,-10.426917048883942,3.2140857238110514,1.9189583447511733,-1.910482104441063,8.936941850734458,-15.865543765878785,-3.134283147082579,2.4140038224343674,-1.251798757550812,-1.095709784145882,5.577621639563975,-2.3374533509516118,-3.886185214290789,0.12087788777547057,-0.22221034490602803,-0.3283246370666267,0.8056647210439618,-0.4157190829462222,-0.29078422257950537
-3.9563741487358355,11.999068260278134,-11.971574077193996,14.365385121509691,3.1815325283169402,3.96550473196487,37.35866535022115,21.04706976500849,7.248363713491232,-83.38007195501078,13.66024118334384,-0.8011667025389004,2.2286836451734637,1.1058090394992939,-0.13708710159753515,-24.979321279796814,-10.885955230301384,3.81657110642829,-66.50597608485454,-35.461614402431834,3.7162789100527553,45.312220604633,-3.4245308307821896,30.661010235998056,-10.248698695795307,5.192249473214787,6.565421872775904,9.860553929188972,-5.1906549993574105,2.3275452689163285,-0.5865610852678269,0.47684767376471904,0.3126134426187935,3.7508100810779226,-0.07430839532982342,0.004668738204778436,0.1525564619913055,0.10365345821073445,0.08725905895134585,0.2960606162478549,-0.10758116630848909,0.07201110433621272
-5.011829541618933,4.592733538309522,-3.3445183631755704,14.333249607304115,1.5175257436359213,4.996449590721437,41.67872835965327,-7.678462982428237,4.509155107997852,-43.31781363513469,7.56933193899427,7.414579868271537,1.4815337907059463,-0.26066759504355325,-0.3134785353559137,-28.01466706622956,-8.814026230638147,3.2351242461815506,0.9747717831247171,-59.265305186381674,7.49358204385253,15.375104838785287,13.357773395393693,-11.080285372661562,11.02673562815918,-2.5672083210121364,-7.559356181411639,10.855743078758001,-5.5436947289367104,1.78668767412672,3.016191781401853,-1.66768910995526,-1.6362843688598119,3.5193869996516924,-0.5595519948983674,-1.1157787308894886,0.2223176557122248,-0.03859879346069588,-0.1624368937098361,0.5673395941673334,-0.18297998491136822,-0.08281056088116909
-15.347084949072572,1.2059792073522027,3.9181304360181275,16.622916265141164,-2.5926855555281216,4.920174373686881,49.4886346859993,-18.22017617311026,9.338263677013561,-17.920229677441395,-11.532543545297928,1.349333249195486,0.33949795398795063,-1.4456816490578215,-0.2645008450154543,-32.469104937546284,-6.313648016370083,1.5069988374463523,19.673910503134966,-94.61592214057626,-14.972425453025224,4.048451583921298,25.221903487026346,-5.162306870376451,0.8911265312299558,-0.13313355651437644,-1.1588575253767193,7.28916673188241,-8.485761132906195,-2.7625118442865926,0.8750851979108841,-0.9747170896330403,-0.8306756331566246,4.84917080197764,-0.9648830191591771,-2.191140364199927,0.21117026622267562,-0.0036311151902183613,0.0009172738811316531,0.6385367939984143,-0.2852009938765454,-0.38447389499439016
-5.870283427744048,5.221769119489244,-1.3791989250326178,21.459292446985877,-2.620395337614706,4.751415854042033,-1.523715762761157,0.0019169332875026077,1.7934019223437565,7.4961305997998915,-24.421759562387802,-4.217333101907525,1.5824506906799687,0.45088724699038735,0.0365647823555145,-37.52392131234002,-2.81023303190254,0.0676138275798367,-1.385858657256224,-74.58495254381897,-38.54889638717889,20.188066701369735,19.029121605343562,-1.2707546227304838,-2.057519465635615,4.08713997361614,2.4656056382941007,5.64054282331802,-7.401488326938739,-1.2017929055809238,1.509916050533585,-0.5518387549729299,-0.6737542358682442,2.7823564056495114,0.16635995172947537,-0.6838126089815062,0.06926813864625671,-0.17068920542222832,-0.33876184039635004,0.07286297362030528,0.04540687154703165,-0.22671265363098494
-3.210829414688553,2.908310533992933,-1.3219056478728122,30.909587935888453,2.1135263186918007,5.471922331923,-1.3985108693595707,-2.1723392433800486,9.358983223644218,26.64804602123181,9.888144057182558,7.194560577668542,1.927896299931395,-0.5653433679599817,-0.49619003054623534,-43.594808965817805,2.3866934706723333,-0.37621580739315946,27.06236432227135,-24.067028671609183,-0.1863422526682359,6.233448707414387,36.980685594285305,8.451492294203499,-2.1609566907366426,2.897242068051511,2.5078141808692473,7.616080680631195,-4.557321874273026,2.6533413368605436,1.4255153886252518,-0.5545822865052696,-0.25631396876816304,1.6810941710198168,-0.1781970732704537,0.31322273888221436,0.2946291839577893,0.1168935530012571,0.25397754183034155,0.11236724849643247,-0.10593435154714893,0.08153090872659821
-24.011324572191526,12.50079029217729,1.2223277238184937,39.58356049554367,1.567845911949767,8.416090124230967,48.83522660843139,-5.375432287975104,-5.712247008021204,60.591125839575355,0.7563318801651716,10.812863767287993,0.7551055760903571,0.6229389420530997,-0.06762799121545822,-51.15561844055338,7.790792765303686,-0.46899722847088193,104.95450520291296,-43.20440836402293,-41.75609951274688,76.09835195739892,-38.793424056915754,18.761938223642517,-13.01344749119031,7.110606757496023,9.202812717142054,-2.235650719838469,-1.2703591022729348,-4.520882053201587,-2.256297632878627,0.47441212898563406,0.5651310266658112,1.1368922094947527,0.01060272917349047,-0.8261287945815674,-0.06903772986189156,-0.09263820050079233,-0.06265536813032056,0.06829407562910762,0.045755166618677096,-0.13131220757166043
1.3653159548263847,16.02877969556874,-0.9075213646024873,54.93524273526657,4.666951765214832,12.869842630977363,28.28318186529524,1.2138790904264183,29.095342797211153,100.26368788103345,-24.476822025815697,4.598320197429011,2.9527275270276485,0.6968436578738059,0.5020284924204947,-59.01055892233267,12.605370582308163,0.9205779680807794,140.872984455593,-54.51599132912295,5.945649238118781,-4.176191358647142,15.653641430485639,19.826333713927447,-4.965410025728989,2.397371719785828,3.1547366988146925,1.9467762401817534,-2.9530178500154483,-0.9133760470202266,-0.4993992376156055,-0.48033611764726913,-0.7143156595118105,0.9441310325152122,-0.5168438207913787,-0.40768012540932197,-0.22669840427436516,0.05653214921180191,0.054106727455074465,0.13176798178724736,-0.19777759717715457,-0.45263611138842197
-1.7525897431970479,-7.34366458325578,-0.8145275759323576,64.15787472031235,20.15916685576605,15.7963305390551,-40.10796420303346,0.4715790986320097,-14.178628832162563,88.94113981126718,-10.724531769453266,11.432458393703817,1.540510242117327,-0.3661262630584961,-0.3713882849257413,-67.56036036105799,16.49259258394307,3.504443389266681,40.322441854858965,-54.20597288070915,-20.12482245423929,24.83724890152448,16.873149809108952,15.9683526269039,-12.192783003891094,-0.17512716462782507,8.323190468151374,4.79560505922651,-2.1885063826886824,4.893034180506072,-1.6783907450454287,-1.1174505094378049,-0.6490584097742016,2.2141938397837233,0.8323259068121712,4.046487692509634,0.04354926444391004,-0.14422897873982501,0.07485698691972355,0.3478955580403052,-0.030049222466556193,0.7822330620038779
-18.984702673162165,2.5327464287916053,3.403786715121378,72.47394022592849,38.5048850109234,16.446213311883202,-18.625629908360427,13.156681365560647,-7.34206628022607,106.38733371312195,21.465064085588363,15.519331057322866,0.7151914918220876,-0.1672490438711936,0.814811947331955,-73.02718243754012,18.263364187553314,6.729568339271982,78.16162414065211,6.151435127781118,-22.054795791652207,32.3957462250212,-8.657009838701518,13.188582303574332,-21.68153726031735,4.764675812205689,16.098265113005,-8.673979775511311,-2.7916017531874053,-11.128515888870474,-4.255375258107552,0.8860666005698318,1.2204847505690817,-2.0724178266000375,-0.0027996485411736667,-2.8296102250373876,-0.11008790941878219,0.21291084608313748,0.580735136280492,-0.2538272458086943,0.20691445888528304,-0.5528653629014019
-5.602677683187707,6.396768611476676,6.068456553015727,84.54801261661753,58.99063418452097,13.382404816670054,-49.96129872850449,17.651542154234235,2.7523020050042786,99.5190942348269,55.22660528896729,7.875724128988528,1.4531633687392755,-0.7045666726714334,1.4964481010760355,-76.96940008226514,19.18477503591466,9.540985654298535,39.10109604398912,43.43043228142689,18.49974252603197,30.483040497514995,-3.507250918110857,-19.723150960561387,-17.863645330071265,-3.096049441611501,11.094837477171394,-13.223504349968948,-8.099280223816804,-23.54535512379461,-4.501062291007414,0.0900443633738566,-0.7381291037671386,-0.45099929329754607,-1.3417356544628856,-4.988984126463033,-0.518838862306208,0.07513406581950513,-0.0475580338634221,0.05621207053864459,-0.03518119892668884,-0.9478950092268567
14.770501288090145,3.752426146104463,5.801502570328149,98.5884898195673,74.83799476347183,10.421747489721259,-144.65130974527298,24.63045170107797,5.788791864665112,105.44418968222918,67.16347556010035,9.620907485344741,0.20608498174700132,0.045236966567768634,2.1952502855090867,-74.72431770618667,19.343113604269398,11.981623645443015,-38.08410748692522,48.770420080709634,67.68254922336263,61.298867645022014,7.133089918106723,-23.597901973206273,-19.021229576587043,6.147877464171456,13.759223372131343,-21.257454357044555,-4.5661903326240045,-26.11610680845945,-2.5857677355070527,0.36861705868829103,0.9814980010312928,-3.899176004077474,-0.455834304172123,-5.229913723323072,-0.1807565001961748,0.00527642305090522,0.2695362320977871,0.13864856493273642,0.044475232046748435,-0.6614256034665547
-64.65997960891438,5.544864041998609,1.545294248055664,115.23285969308249,76.84413815685583,7.944167470148767,-200.18960423945,8.219909059431496,5.831500653921424,86.66785262009289,67.85980900508108,9.498332722781166,-5.487749846378398,1.8468497408366236,-1.2612759826368947,-67.84409054286984,20.197843433868126,12.288563772863164,-173.55663175866263,53.33034744173077,49.7038646674331,87.83811461624249,20.060205073926245,-39.33813382234305,-11.317799211081628,2.4401805974897197,4.969185387447744,-33.8825830926256,5.893067501279518,-22.95394955505152,-2.742291869516877,-0.7250557761462052,-0.22488962226892667,-7.988037954949533,2.0469484011303645,0.3566200464046754,-0.06070424575825317,-0.03870059277589496,0.13171933276280196,-0.317554292814309,0.1814429011970552,0.13730154019330387
-105.82724541307138,-2.438111020291234,-8.776646208272602,122.19996016258015,71.10524316848499,4.799963399694046,-60.925728380787135,-4.385600299626097,-8.411982298293692,69.25259856994008,62.35711571523485,4.0336592904801725,-6.586654095706451,-0.4568352396687562,-1.868433015984429,-55.45828995681482,21.156458620349778,11.04037422813272,-65.01871261214286,20.671097305896797,-45.34069686621733,87.8078618852727,-21.923092636681492,-70.96498425804113,8.088574438454694,-0.3672894423068695,-7.302994031646773,-27.733156370159783,1.5579197252412682,-28.74950343021956,0.005494027072959881,-0.6173059727238035,-0.7907170015474848,-6.774938550318019,0.4287943819265442,-6.134907332795997,-0.47055846300501925,-0.12058282934845538,-0.04660925107364768,-0.642175469950185,0.4816019901772824,-1.1822692672337993
-31.292128976794558,-12.87295533467269,-33.50421158134146,132.78882787573977,66.6314652959525,2.8992656111897364,42.70177619712743,21.54033592061833,-93.32330177047415,79.9976056233206,89.77764177194548,8.892888924131412,-1.776986982923275,0.3124516811166683,-0.23085658878128484,-40.39718529759325,21.81900922046219,9.492763662466,74.15460452119429,40.529677386117925,-122.55264760985864,50.640299902260494,24.14449865753061,-56.42803871300886,4.35273670461775,8.760140236288661,-4.820404043225412,-15.74320539428393,-0.4084392844503979,-16.75621768598227,2.1249604043139882,1.4938846677200375,0.6454164365584085,-4.107641555468835,-0.4942635846846653,-3.7366603204183657,-0.11447474135101861,0.17682371350061143,0.11559432532744164,-0.3296311451190192,0.009684748625011654,-1.0977793269852618
7.774373440603314,-5.264570112173672,-13.554262762893432,136.24933010306404,59.252335282871115,2.125049330374511,68.17408597771114,14.029176310787337,-41.61278687518293,71.45828986183388,71.56510437844248,4.812652839018321,2.3119735934331604,-0.5625247486260397,-1.587494177479422,-28.458315836361965,21.617922704245327,6.3474552511364,64.21328483109741,15.474105336716535,-73.4291457233348,48.49581458137925,27.582169990234497,-55.956360945173174,10.925980640830577,9.715225038638966,-11.590263367478478,-9.996037059454054,1.2498253993992539,-8.786847022497392,5.85495199467418,0.620535285588857,-1.8919327057610476,-2.9902971851574995,1.1888730754941892,-1.0830212196248925,0.4495166986887134,0.0697255059613913,-0.6575074819892653,-0.42195592078270594,0.3185343420134814,-0.4717434357077674
23.778589192788203,-5.178832093453339,-18.037065873045727,129.4556073872322,55.96249972016315,0.5800267630707092,76.10158333426385,26.00041155550729,-52.83256191107366,58.842837390631246,54.908061528062746,0.3478141481319594,2.8783890490767674,1.7526546466309891,-1.6239523223581431,-21.712288308464945,22.07180201337577,3.102411467931412,53.889540930918734,19.796402215148536,-78.98061123098401,124.4738114104841,50.771047192388444,-67.78064770450169,21.240971741555242,15.376428652031258,-17.996522615087482,-15.673255076332982,3.50757476329978,-15.418385496691279,8.779036212116093,2.522688581113972,0.26029874661949864,-2.854450187725345,1.4437824105567318,-1.1387149412315176,0.7328342066293462,0.05434595515635886,-0.22314275471279693,-0.015939964781445798,0.10331561480660703,-0.4073610507946674
19.403886795556843,-4.222277295494973,-7.34665855136014,108.66371863648568,45.45350927672414,2.655304511071084,55.0129674780372,16.345204251135815,-36.66926349210946,12.547943986861776,18.552932557183716,3.8815722941814323,1.9967297124914312,-0.4637383551663585,0.1505110787517262,-20.421670064793876,23.479326551687432,0.05382132128918893,-16.831512275536284,-18.651075659185288,-49.29915376718505,56.87319879138003,-7.689149593778441,-27.126525761153484,23.71951771791721,18.667336195509424,-19.078607134444574,11.505197569724187,-0.8434888466564334,11.591033306753241,12.278393279675587,4.662663964052901,-0.3031404389453484,5.3543243296898275,-0.2841178361335379,5.026060354177549,1.4947315278876943,0.6064056336910248,-0.3873500286845149,0.6184572058108917,-0.7131457749383477,0.40202343270285773
-9.064600698788018,0.6965905136828301,-17.637550205336588,94.70280375285517,42.48248278248008,2.3864711131281195,18.084450844477217,28.267248291108526,-66.15993905614428,58.82684681069088,36.83858324370857,3.033518656482889,2.764645731218166,0.9209822211883416,-0.5899370346074359,-22.498202593016714,25.292045752426475,-1.7784246250713671,32.20082442801288,39.50020195083279,-102.42607250001639,13.27851387699934,-22.723959115218072,-14.803181793425226,17.79014522333383,16.83183996889123,-11.717701282659817,23.853008240038918,-15.261842711260947,20.568042067681063,12.926296985875153,4.440018579605831,-0.11419539989400376,11.692295652342715,-4.301440790322347,6.152655926598528,1.5638537092223885,0.5739178003446953,-0.1619099963540512,1.3266179899465873,-0.9463441972504429,1.538820746183886
-58.15019437650476,8.945198713185349,15.467556768411367,74.40842201394851,36.87116600553622,2.5071716677184024,-29.706687607976736,-7.339652482852009,43.6665410262342,36.217649131204695,14.85422379461736,-0.6069118598004707,-4.871681313345112,0.21936555812046826,1.1261643193866098,-25.11745128027859,25.475522225042486,-3.088012003270077,-41.71471219631735,-26.72011548412133,28.03056077885119,17.299577518283954,7.5357199285657135,32.965343437327505,7.924610164366212,7.542988137187985,-5.779686219270736,21.367024571353067,-11.07323563505456,18.548441303502777,9.961883199120294,-0.5035624101787374,-2.9380412478044264,9.34706829633934,-3.1138662848261958,5.360694235117885,1.475045747994309,0.24933177266066428,-0.4840297742460758,0.7222728031308835,-0.7192151777494938,0.5866082882204248
-65.64503084409269,8.83667122047554,8.781559313046735,64.85857410348484,43.990408758387325,-0.8919413888097723,-48.571527250190286,2.050912693689902,20.997660726798188,74.77418493690222,14.89114405091151,0.5155239276496814,-6.44748244128049,-0.5710943533881624,1.0550971812006265,-28.450292060689534,24.15426622846718,-4.488446022430469,0.9269352074254273,-50.82398047985114,-18.101404254998098,-27.996367336313796,-4.657860573435145,28.45975073595722,16.859078904408033,15.867323405104855,-12.812187925140806,24.924100665035226,-22.554195408218938,23.732826233735327,11.803434047051235,2.9929787036883457,-2.1420815883789968,11.29922707655984,-6.315248535170782,6.596950625514235,1.654568289223346,0.5687614596179595,-0.5195576029981389,1.0025746422794128,-0.9629171246553034,1.346614652921116
-50.044991391071505,6.717772214323352,-7.941842075026903,58.57554914948292,55.41384036172954,-6.022324915447703,-21.47387957953985,5.079194050198672,-28.473941801880244,94.97563506003398,56.55641139004421,-9.956020825287833,-5.040216308525655,0.6458812181371387,0.1418573039748193,-30.909328336237063,23.96841641392997,-4.662976220657051,74.4100534330643,0.49809499732854595,-72.32331558645411,8.56627853177405,-6.061084157007945,20.61643164774836,8.958035410024788,5.237388118992097,-4.378163975374679,13.504611427720064,-22.66428603287542,14.531042064413766,6.216404976646374,1.3775112786998471,-0.6487664422303236,8.548790717387467,-6.810410079751772,5.593465203501781,0.9021674025520255,0.4242512380365473,0.08011733488379182,0.7624456305104526,-1.1774822827589502,1.274258610303231
-29.344055105911316,7.31861933546142,8.088387031406215,55.34505325713455,50.99393388411924,-5.871685909752425,-17.075300995605534,-4.702417182360776,36.27761300422502,61.11963278911964,32.896934059662115,-9.072394256562387,-0.946197004348048,0.24179213301889382,0.5317001791976367,-30.901684003209922,24.052512465935408,-5.858480696314488,27.617292909154823,-30.46199272293168,4.848841198473734,-2.1352919332186686,59.556852239049284,9.162025744999431,10.445477393130055,3.148975434568559,-6.898735187499018,13.642185786430916,-25.920952850118923,16.486761203991804,6.448837938432258,-1.1150150188783763,-2.438283877424795,7.16931678584952,-7.663352317311029,5.153885142084082,0.58750294763625,-0.13846942485748537,-0.33234709512004973,0.546294006786028,-1.129522549351617,1.213253247328303
-31.87453138120736,9.399208588119073,5.4694484011704665,58.973323260746945,50.42646288359136,-6.972618882753244,-29.713716876570896,3.183591944162383,36.75705531600262,15.014774632358309,53.71797954805476,-5.003463272717012,0.1746897845421112,0.026727896486208134,0.17087677764491904,-30.760758802772784,24.19879646527461,-7.093627375219148,-59.72880389734356,28.399778596108128,20.60394505220799,-21.123432842561748,52.636349759787876,37.459432188291046,-0.3110289238132547,5.855379299673815,2.8992725845656104,12.150535836818905,-11.748871169352142,13.69537351804422,4.756849933410136,-0.3265898411975756,-2.353717380180192,4.572344809384025,-2.2553247848507816,4.205195478158365,0.9098676210927777,0.24699166280828513,-0.3485434651931253,0.2230098834294746,-0.24454624702728522,0.5684092832353602
-37.3353554394856,7.392799022062862,0.011075258943454853,52.39455808395417,49.64668217746841,-10.756942363379846,-6.868815961872877,13.54355482963364,-45.210731492116466,-24.44572731604387,62.55771697862286,-13.9032253511973,-0.4296008912614626,0.24748150294184723,2.011881350302737,-29.233361674296674,22.82923081554506,-8.56518607000511,-64.28971125395813,-6.40819264660054,-73.83248496298391,12.312545521515517,9.94464008477053,30.186941902621925,-1.1367365422848337,6.179541087720807,3.2103359112336247,10.514730717599967,-8.235084938983194,11.234201364528662,3.2261578430558435,-0.6235483611552353,-2.0858154217663234,4.321861736058467,-2.4064156555405236,4.612037664094259,0.5723626660444459,-0.004474496461358116,-0.46272007536386955,0.2560571010622781,-0.3451383428232032,0.9430663885399957
-5.061508900275407,1.1885271146227638,-0.21469831003954573,58.06448793079815,51.00705250424353,-12.837270887956647,45.19516297332023,-13.85329260208997,-8.628407590233058,-13.16265140058492,111.17602913560778,-6.273615404442547,3.1590602784833037,0.08124621248912721,0.04358070916416211,-28.91528744207874,22.43123776242159,-9.47110478339697,12.590094001070364,49.13059725602268,-14.434344490874139,-56.63986324589032,-11.242165831686185,15.751450426395106,-6.828552170095939,7.986335276937013,10.096134553829483,3.5001694185917684,-6.719701605239167,4.30987087328307,0.7146635364902969,0.3664896830592597,0.3681481833024349,3.213287235073413,-2.2310826543732505,2.9467534296694033,0.4181045361306615,0.10624430327779873,-0.03066427191385812,0.2019905887596272,-0.3694932322474947,0.4793077523318872
-13.046085727678118,3.534707081676445,-0.016880475080163333,58.36559671008685,46.69654749893722,-13.356669436127888,32.63300148655401,-16.728038791167407,13.756832943424085,13.931287697364176,112.34378444326136,-6.8508063733896805,2.69377225765945,-0.24865518969833755,-0.35623896555149354,-30.009147911136466,22.746158750698847,-10.355071901032858,32.84237286765628,61.45207307604542,2.4391401917502096,6.990692794041597,36.05363073801649,5.446404558998395,2.2477995961526127,5.668788410850785,0.16182676897386183,1.5703950751724454,-0.834084910837436,3.071485898956388,3.490243159261687,0.3156834300905093,-2.573520893630278,2.190846248619974,-0.10992143267623389,3.0550703497937843,0.7599052270221465,0.32666998065111835,-0.44056834438446074,0.16174802184579593,-0.09287293831433528,0.6802660529970216
-4.203798347897019,2.4574134390654483,0.8741971531906677,51.4401426015574,41.12786586282067,-12.319535563799171,48.22663652048445,-24.048934967523373,-21.586505152154302,-29.82804249565736,79.61977964955156,-13.425373769993293,3.974490465514214,-0.22216433403184774,0.9968091900186559,-29.584272790197865,22.996198759231916,-11.04159966916398,-22.965401466352937,-11.48150000460009,-51.075183880561866,45.78203129262973,-13.233000378322636,2.2934066726528464,-5.547791173379676,1.018608664972905,4.6798944328752565,-2.47524686818662,-3.7030956270843363,-0.6211293430341519,-1.365360140410199,-0.8718286577212714,-0.676344804358582,1.1882727190211542,-0.8507498403565039,1.6612270049167006,-0.2530179955621079,-0.12578830337894015,0.013367138301320521,0.12715866109572452,-0.3103945817464867,0.5702896813022881
17.845291939067646,12.721044015412794,-5.050893123166531,43.13266965343228,44.662839983860785,-12.601880947081545,92.85859488922924,-9.39499922881995,21.631188935329142,-30.442353723601318,83.5306840902622,-7.393821419364528,5.8208014413235984,0.2114141419659925,0.6714406295415544,-28.39556344101704,22.816817741323906,-11.15441135946075,48.02505518659804,-4.703036047939621,26.906281201109987,-9.571526517656356,-6.298761012192137,1.4125984721997709,-2.3249998132608836,1.3082248662027105,-0.004923595895998389,-1.887548458091322,-5.467193621700693,-1.218689238874836,-1.316718956295782,-0.8577755484736137,-1.4634673757220962,0.5796184087120586,-1.3036594466832596,0.012403943579999605,-0.30760484177630953,-0.12584943350640465,-0.3022317991292608,0.00424717919543527,-0.25439666652601145,-0.10282659731076561
18.605743988913858,2.2839509054874587,-5.376314754474398,43.4510176699007,41.085637821592826,-11.098165333427819,80.09425699510255,-18.281632074739647,18.925881790725768,4.943719747247172,74.81703893015865,-4.9681580228501785,5.24309278798406,-1.3172579033351304,-0.6101415157924355,-28.29085479062168,23.56695854345575,-10.975414951636273,80.64338854059582,-3.5572304325225588,19.285935997305366,2.3290700909846436,-3.6473390581328062,0.7755366488431534,-6.62160640024361,1.5715070764519898,6.292112902586473,-8.020602844962882,-6.552530874455182,-8.881778939914206,-2.328164336936046,-0.07802172852686598,0.7660855247849054,-0.678272662389593,-1.8343810661018507,-2.8935169964131435,-0.23822145427276675,0.007340593472769995,0.21416084415687087,0.03278506124537046,-0.22054675124435158,-0.5035584921126031
21.94709107095038,0.26361162765797186,-6.197801418492717,37.129250238882626,38.49302338018727,-9.793353142621552,51.63154145732949,-2.571700103395909,8.943253209777433,-23.91652806456212,49.01778654010761,-14.452253585275677,3.996898504561008,-0.7878961018536923,-0.0680732377037457,-28.25819585227712,24.553818159314602,-10.116358284776172,3.7865211171194844,-4.200290661879636,-10.587691830632695,39.901332526354025,14.392903653740596,-22.465097164126064,-4.0275814455807195,-3.133804602727933,-1.7588548822405525,-7.616093724029112,-3.9550808956482038,-7.118601388825127,-2.51915224571339,-0.6242475827450952,-2.002404979008039,-0.6381794987822579,-0.8612819225303597,-1.5419696017189108,-0.3641612823914469,-0.017856226613105763,-0.41484424146651344,0.030472747300285808,-0.2863368305192763,-0.2753814616074005
25.551564522088672,0.09211772691840048,-8.450763048891345,29.494387231669776,32.169830792537354,-7.689068635132189,86.90479088380106,-9.235786707572613,21.885890723309448,-40.43255434892718,29.104443878572738,-14.592879002253168,4.805712974989159,-0.47564796627886835,0.3480693170474397,-26.359699286586835,23.006226630596164,-9.073667209394209,24.485770915763652,-55.39569875835252,9.257409198236436,17.47026372819741,-11.013365861990406,3.022658646595091,-2.635664381244103,0.47257833456023385,-0.056688062320399774,-1.4223290225998686,-4.390089595286339,-2.8205062610764227,-1.901185839263681,-0.34636343192810776,-1.171880459897205,0.19757590818827553,-1.3362528883069604,-1.64768763117146,-0.4944517451170749,-0.05836411900560167,-0.10925036281482312,0.042661641520798946,-0.21749293985312376,-0.5435271131370556
20.396773894529808,-2.3041332913284043,-5.266421733179528,30.655983138639243,25.639046838775627,-6.081396595059358,75.33740815712795,-38.62249872832121,-0.8487328013591172,-19.981537905969557,32.52339833718533,-10.771454199779745,4.447360014595116,-0.628939990555648,0.1940715949454957,-24.670298889162428,20.814338002748823,-8.03222483903193,35.7402205233784,-76.4219638023007,-12.27241681787587,-12.491284894096722,11.620123011240997,-14.116388161615884,-1.6787390073145239,-2.1472898923901993,-1.2270367858946074,-5.265912344174424,-10.593560897853129,-6.756220278766588,-0.8999969249135414,-0.36738348103278434,-0.978604552664674,-0.03223919279730357,-2.5851351622197396,-3.4849485949746972,-0.12411077396407848,-0.06158875792513216,-0.04216545499631793,0.060586122472486716,-0.2984054347216005,-0.6263575704262545
24.584650096100816,0.8279911157580561,-12.339116504231704,24.830261852059007,25.858679716351606,-5.382045508600977,92.51532714622861,18.542258898808754,26.172667157354343,0.727153511334647,31.453879416833114,-5.692813534676703,3.6487776658363575,-0.852820744008985,0.22896418483980033,-23.126211321255784,18.327514227760684,-6.555664692751829,99.45455537517377,14.304555213189392,31.605371866135958,12.589805827932064,11.1902681326927,18.710699093581407,-1.5922732743666714,-1.1095005745622668,0.680376431321119,1.2102173281576214,-3.1671207698573527,1.7055358330599557,0.3064695445189104,-0.34296499771606737,-1.3874508866770763,0.9767263470736165,-0.3545909158117949,1.0474301320202128,0.09823147906655194,-0.029966453024030996,-0.08025272608145692,0.013758239597333329,0.025343255940828934,0.3337827267972876
8.242718763123024,1.8648854526362504,-4.6290803609335205,19.882516739332925,17.930090654022102,-4.10008943664901,83.43256169157563,-16.813460055276785,22.35202975501187,3.0428452522591147,19.107662218357774,-4.765562441590674,3.102035809297127,-0.6772142556044796,0.6993445364601342,-20.53983103437833,15.54399171775277,-5.723106859077985,79.01484267576907,-49.937087610718706,27.65108090570451,39.164396744988196,26.44988497688079,-7.009364426120379,0.20534979937525483,1.4624166821791722,1.0284334759074893,-4.591416641864953,-5.190828636227415,-6.001630668611783,1.0007982851290924,0.03729435823081674,-1.116968079256736,-0.035872626102856846,-1.270333289537554,-2.726066789069482,0.18883446741669718,0.09051083010886438,-0.1605780238022017,0.04993737455187541,-0.05210981647404093,-0.49651392817716455
8.331662375375116,11.109653069220416,-12.32055283355287,15.50935614864455,11.470875274612611,-3.800404572017317,82.79186127898241,2.198205453009797,13.006200955808989,-27.789755713153195,20.56139715314191,-7.673153910744867,2.1994125188053397,1.0878958771502298,0.5505180712184834,-16.272480372040146,12.724635933983535,-5.076291292928867,41.88005743932577,-19.85021676410529,25.37726828273933,16.894158722001475,20.886142359018972,-10.83396892711038,0.3992965939009082,0.12874160028090403,-1.2806279069682298,-1.3249204902518414,-4.377836461923136,-1.2495176976470668,0.08837389071087529,0.15479388558343166,-0.9145319567155655,0.1985221754661802,-0.9866895848421839,-0.9682793043258738,0.014938751159169922,0.0969837418333035,0.0001401592438246826,-0.04430744717039793,-0.13858705529689155,-0.30317183572492956
-0.8781810059874451,7.1954845426494245,-6.416055104112412,8.068449636741745,8.51349203713875,-3.215790703923669,61.59605291019271,-33.07273058329398,8.10139654530685,-37.72106431777292,21.026052704735054,-4.4833618629421315,1.2627343242727562,-0.07824419534112259,-0.09080133354465175,-13.472711459319706,10.213304688163287,-4.193426485140211,14.4923835775998,-54.11606113733158,28.28205837384527,21.17356249345185,-6.554725265513839,-10.948498397668606,-1.0870666364903088,-0.2764824275386506,-0.4991174830672821,-7.058980638517106,-7.212604906658056,-6.099162650238638,0.23927057437309107,-1.0123524631035286,-2.4637846852346525,-0.6461923856603732,-0.8879829675057617,-3.0047351852227604,-0.014883582465137296,-0.17671927015469707,-0.4216013557250134,-0.01489461653814622,-0.04498210023566021,-0.5508696221164149
-5.781308132355003,1.8552055008587416,-0.9682650785118436,12.651584075411664,5.533362405355894,-2.4322415413664955,26.087239892842664,-13.404101457350622,6.8743261341781405,21.321040002444704,4.866733707670369,-0.866359790262256,0.6413375357001319,-1.400373112927822,-0.26315561402055687,-10.426723247211694,7.39445941566822,-3.451951048385907,50.01613650595791,-38.12764801737109,7.767391954662019,40.07313169127426,19.87931107737191,-7.763606946671345,2.0881235445512707,5.638628804176632,5.799178426377095,-5.872906779280819,-5.729300501484787,-5.644168986385612,2.0687442627808825,-0.03136603292494656,1.9677953398042183,-0.15014597525391288,-0.9714615413889208,-2.502876638582779,0.32438800695487485,-0.01957300445995632,0.4303743271323613,0.004272818026348883,-0.008375560038270077,-0.4538788253005629
-6.334660829447915,0.11575276937552975,2.026127129240043,6.006697879586487,7.029378872244819,-2.597778010546102,15.251300119483577,-18.624115421964127,12.864271848950077,-1.6413088773831541,15.888141232272165,0.20603759099254956,-3.5277168950509306,1.5446067945328874,-0.22069956093682072,-8.038848281862073,5.376526295721206,-2.7765345327936015,8.191580920171202,-26.988769761997755,25.122886403275643,55.80454694056818,16.704476210642564,-3.110301339670997,5.4453007663556905,3.5188978801457544,-0.9232011820594832,-1.1372285852038058,-0.11960318823894286,-0.5589444904380799,1.9756726238851912,-0.17574149103796752,0.28697621168525095,1.5495827214760007,-0.2754482532679595,1.6799001204534123,0.30834162321656905,0.02898984250072735,-1.684317087949621e-05,0.17540335277822502,-0.16861105500460194,0.2666120728208253
-2.1087174762444203,3.1792142429492207,-0.4761764176043959,3.6624032127565034,1.3865523372566462,-2.1528253762194356,27.76589087491033,-15.695050218728882,7.932663521504973,-8.295558949697394,7.178125006216796,-1.3714169777221705,-8.39205348605074,6.802790685874472,-1.0374659730166846,-6.252166769750483,3.6461523059586716,-2.679405188991848,19.089991696562514,-21.597660564697588,18.152373273277206,52.80774627271718,52.360731496186254,-9.32096488852686,3.321267126159127,1.79694576393139,-1.5354009056244802,-3.2353043255562906,-7.174852253640696,-1.8995687859864168,2.233277771575857,-1.1852338289931794,-2.213676949190884,-0.6960604496298651,-0.8593772016465527,-2.307666994034912,0.24206444008720754,-0.08623107249099193,-0.18621802686193958,-0.1323901194155707,0.06442766147852465,-0.28768455824153427
7.275812845589916,-1.234921866045092,0.10978165131274567,0.506406478702171,-4.372945497658134,-1.8019788758932367,31.52343257040119,-13.507762837882547,4.333028645259935,-5.790800026444939,-6.313218966050928,-4.129335071979347,-15.4226517315304,14.27895123574969,-2.2947417907959298,-5.406663671114248,2.3173732539896705,-2.6778173842965134,32.31748768480379,-16.356375045544837,9.616991975422238,52.722963350890424,-1.4590024810699191,0.19279885267094515,4.149536454438821,-0.6847776810232686,-3.1143351153153658,1.6486872702430544,-3.9842023682571996,1.9677802130945024,3.5313427301895897,-2.070251536700797,-3.528871871258951,1.5370433334295819,-0.7070815646935746,0.5867714630290395,0.3512366661179254,-0.12956175394651587,-0.3967822885896818,0.0517389364082045,-0.051637874862968926,-0.0007892162155278236
-0.3567586429698798,0.6821128478865031,1.7646283565712322,-6.105950338215926,-1.8495417989135134,-1.5067552755590823,12.814156276194934,-15.572028010042407,4.816460302176947,-25.013589962969146,4.740243318140026,-0.0844235824277841,-23.506932341545127,23.279047669045063,-3.473275236600836,-4.798862545141713,1.7674280157328357,-2.0925340789786606,-8.107284674399253,-0.5810767614882018,17.80892726031261,25.206241737712308,-23.239275744236917,0.6295825511617184,4.98793915963473,6.793743484912082,2.682215863389694,-6.563369452591363,-5.977816448655048,-5.2857000381369215,2.3459143423465214,-0.8043547432739047,0.2824085400757289,1.8055592948289352,-2.014134651043811,-0.8546417449464316,0.149787274074616,-0.020733007602805616,-0.016230136042123068,0.191974555698677,-0.34913286516905084,-0.12745912027696338
-7.127367198932418,4.177548158997233,2.794945037101315,-2.2158638991098725,-4.835585328756755,-1.344008605366629,-18.965308574950676,-9.250468693118497,7.335204613533752,-4.867710384427484,-7.091544401583497,-3.48989006860323,-30.761133417027533,32.3702302067372,-4.986273060038717,-4.554563729949564,1.197777193877305,-1.987174871914717,-20.653923863836166,-10.792267619037505,3.4866860149732357,30.811104062501226,6.575759392214951,-1.642289191923295,2.083445017572161,4.139767681196585,3.6291210669822855,-2.4953603642566122,-4.577792122102013,-0.7268339878076625,1.675379272337612,-0.7769289223849765,1.0311198591624273,1.9853875086357107,-1.1203318722375788,0.8175601295412724,0.3071670015141054,-0.16848484268491606,0.3337042377489701,0.23328366552665195,-0.33209595643105444,0.0767996963320555
-5.614682397755213,10.68575757009672,-1.764182378923518,-2.0905243941737637,1.2026410472887579,-1.1052807634217026,3.743693034682101,13.626383909977823,-1.0323849166875583,1.9199820207022729,6.31153525383631,3.5558162197686287,-36.97957212368243,39.73559630366527,-7.291440256710597,-4.385395051703075,1.5854283866984606,-1.3839529272694364,26.714717549600238,44.332799915691155,5.318374938093343,31.893675943099225,-25.676386784986473,3.268421933892081,4.823946556834367,4.161056762913765,0.8009405100618876,-3.047746774943991,-4.159586270488299,-1.9703658288255286,3.056042108504925,-1.8081052970858165,-1.0888714679312212,1.671742269356797,-1.6280228066200944,-0.07062704434892536,0.5190525554608914,-0.22984129468703957,-0.29524274389814353,0.2774029485667988,-0.48946141314599867,-0.021925847097994916
-10.199751273918867,9.31070159676803,-2.7371457227767815,-3.134283748167691,0.24448100683624455,-1.0274564379928774,-6.731854326641988,22.876399993058108,-6.657024545763576,-13.429445948032285,1.5389418112559916,0.5591475424293345,-41.69117484216956,44.334079386186644,-9.641090987636556,-4.458267016157511,1.5252080919709663,-1.4139287768167677,-5.23418695158261,50.74658663876084,-6.027587955870049,30.717951853577908,-13.622434566500827,10.226723578186474,10.747190906228585,7.1943067211890455,3.3011559396669132,1.8287572800663274,-3.1445431901122904,2.3084584316924026,3.2815436922547803,-1.049444753148361,4.110736314677652,2.4095914193801913,-0.5203064820756389,1.3819445537889428,0.2589740105795087,-0.1436196004476573,0.5823048569672312,0.04166573587601174,-0.0054549508489337714,0.015567319825226345
-11.452301473231115,5.147459567669446,-2.652572518502204,-4.611730169777376,-2.026699847264701,-1.159706306428588,-15.049540484445451,35.04438430073699,-5.412832518884703,-10.492123693466715,-8.070110509069995,-7.97609965543551,-42.828755859066945,46.285850637721296,-11.6281975684745,-5.290433170792622,1.4897177232856407,-1.076118010503134,-0.5335985759155856,68.9159503993902,-19.10625788545982,53.06189242155611,-21.01053065266326,3.4686887478332586,1.5354265833864447,2.802791905816065,0.9938151720070253,-4.9265020173823935,-8.352356205236575,-2.3124407459705796,1.8589383800479127,-1.5835737442550955,-1.2352890646029826,2.313146574957844,-2.3388260083329366,-0.8538821107524823,0.19412148455605907,-0.12163466907470191,-0.10074752294027073,0.21554527103266938,-0.31933950851309073,-0.06758671236661132
-14.470922831919353,-3.5953959159500863,-0.8857679210533417,-2.4464541172959784,0.24133782088408723,-0.66826902543119,-23.986927354681992,6.140118732782864,-1.116672293548307,-3.2703410988475667,-10.739002393048859,-7.710829863190748,-40.503079875817974,45.7692306872479,-12.908871596839589,-5.993710840175539,1.7849125783036677,-0.7057563040530421,-3.4067010114082037,21.303137800820405,-14.4365653957945,16.240127778738756,-37.497999412520365,-1.258407917261224,8.731462498125344,2.6477757035291045,-3.0408135623562424,-0.585158182727803,-6.829815893558756,0.7014216299821531,3.205677120782316,-2.515891082077408,-1.7164069001868416,2.8352030267863526,-2.3065825534304376,0.17452237712584392,0.3854672029743542,-0.18613327442203628,-0.24275312924210715,0.1418940928600428,-0.4675721231200682,-0.11478549402315934
-12.592294032315213,-7.227423786635829,-1.4244578808330886,0.3738509305984897,4.832874004464071,-0.4270009519182107,-27.775725317512837,11.625108620878665,-5.877769131841176,-5.635030857895363,7.682096655899749,1.274324208657352,-36.38188168913761,41.499824347332286,-12.806588465152394,-6.96904121296977,1.9236333836398878,-0.6643418034821844,-6.602513303824921,47.76075342757588,-7.374685169280621,3.1636326907421957,-33.02881600223473,23.615467385934394,10.5316825864903,4.309574740189055,1.8395856557785337,4.347813507485039,-2.2876011284144915,3.0386434172017553,3.8981103503641927,-1.9426741941094774,2.844667192443583,3.0671518252476684,-0.6843432937184062,1.5010504244709855,0.4501682887375715,-0.196527993010746,0.6223616900950648,0.380270036878951,-0.20464248338805785,0.3759986682021204
-5.134000663290525,-11.142904325572937,-1.1140279404095041,-2.281696800758538,1.025915798216772,-0.4930352053925205,-37.509169891274425,17.179312167631362,-6.8973984256839875,-1.351981464486416,-0.5117104884763585,-0.8315401938887759,-31.849679284409866,34.61647548542919,-11.150678138683947,-8.411185995410923,1.5634402299044818,-0.7253386605473597,-10.003366602267135,56.82576537603236,-16.60082702636985,24.55260812849497,-40.88504175683499,18.87125691048784,-0.003174863549419654,8.519893757558268,4.867938758107306,-0.08611088324173954,-4.18806631491866,1.716514832120302,1.3581067411763774,-1.1138142879285322,0.024774333892015152,2.2374099370456983,-0.9429644194446053,0.8817354592858152,0.11756616635342484,-0.17853676313348316,-0.4851937349144992,0.17053743853717582,-0.29410655011867815,0.05938088313080551
1.7544647839624643,-16.73431334396988,-0.260067798627943,-1.646066994244527,3.0280787541603718,-0.5649769148921961,-34.51556188964064,16.62545579595516,-8.91718268217133,-1.318420758841583,12.33558603915738,5.362759254428324,-28.404204903130548,28.04996043028207,-9.049909652132289,-9.468049830398703,1.5775005604292904,-0.9622656062197756,-6.245302518220781,68.36171191294102,-13.421354225817284,29.155392250945884,-37.13821015094719,1.4449049914648082,4.860803478304072,5.042256263080953,1.768399192994293,-6.998192095698966,-4.5286719941029085,-3.1539747820786177,1.864253264700459,-1.2320623126359431,0.9378204246494278,0.09979736961487413,-1.4873787751705732,-1.4881123254855528,0.2541819913955302,-0.09863255106999019,0.38943065091985785,-0.20065165875033056,-0.2027557579564416,-0.541316917488935
5.450047610519757,-19.175634124302746,1.0627897589916022,-0.13226966150330818,3.938204709575114,-0.552439654028956,-42.48084006241738,18.711080340103642,-7.528829419757465,13.157039021194812,8.905115648600363,3.1460222105921702,-25.501405092785358,23.21873341217807,-6.909690395728332,-10.650701278723618,1.5544667658937876,-0.9180400786848669,-1.0792740796632478,70.27818203660617,-20.56670104539978,30.16889674603223,-25.273968027635284,15.692583128062612,5.251257199569625,-0.1476233786438277,-0.4412132197742402,1.7822409151670808,-3.1911775749991453,2.635228638661608,2.8081958845215054,-2.890752959225781,-0.28462230056705556,4.094852460699146,-0.5774238699182574,2.084548000856208,0.3176666272389177,-0.24312410517159083,0.1440683997737096,0.3843716389775864,-0.09048181650820528,0.5554933505251431
4.465254108890114,-23.12527645800212,3.0755819711872503,1.030297008973199,2.3696863269127224,-0.3351201567433606,-37.881524680346025,10.151508157507166,-4.50865347782062,9.2037905665409,-0.1687582500009801,-0.3796023367476113,-23.79098216358162,21.23684072543478,-5.699581956733092,-11.687238971159417,1.6523287981496964,-0.9295222702314746,-8.570138521353298,45.530175712625706,-19.31419270818042,11.564427892660623,-26.128569960722103,15.644402087288883,6.020536796550605,10.122785266387998,3.8452235555227774,0.7175456916275352,-7.414466461069009,2.1260963348294175,2.2767974310107597,-1.3574911802629501,1.7350122651542765,3.051811471009747,-2.3696075636845286,-0.15479854937389267,0.2541395356421164,-0.18464449521011278,0.14373665482903203,0.31146691467738796,-0.5454388231643368,0.029399411876883046
9.34576538424691,-28.15242013563406,4.010253958939105,-3.088547682476577,2.175198222649593,-0.4810504427735977,-34.72076852242906,-0.041162874449910125,-2.035257493792688,-8.220510979676167,3.265277363721733,1.781073803791535,-23.897906402495895,19.900768407027254,-5.038702145454135,-12.535708668579515,1.5739118980762763,-1.1930252522463471,-14.367043481830324,44.883253131596575,-8.36003955837534,33.426547485392,-56.89549361441536,14.258714612903043,3.4581011170285025,4.88627789461023,1.492051676687276,-2.4954292704336862,-3.813494179201004,0.12969305419591037,1.8924999131400704,-1.0748138084156607,0.2383956743397889,0.5477990910000834,-1.2878409046204542,-0.32806860546461925,0.36500282217614705,-0.09496033536087657,-0.007468092791893793,-0.13293244724031825,-0.18394787367940807,-0.12186836622414081
14.82289174167626,-34.19719980245566,4.701928643017321,-4.93876171591988,4.51226324826777,-0.5833355935583253,-22.4806073543367,-10.452775224823235,-1.7597406263295416,-0.9658627711362391,3.624767923106866,-1.7566998657499802,-23.775395577789546,19.233543774861964,-4.593476904433632,-13.126572394013671,1.687685432939536,-1.0348135628425406,9.757200383270826,31.765021883731567,-15.395346767961415,20.43054282116156,-33.61126179569258,15.275278202498146,3.7421014772580254,6.274082600720806,4.6418620128309955,-3.361616496593169,-0.6955720817351077,-0.5271389854106502,2.923147095248172,-2.183527356702615,2.267393358628108,2.2575355028481128,-0.16414158465830261,0.9907939539172367,0.3906241188449823,-0.24210039374732747,0.5059137120521947,0.19770773188857474,-0.2127662810767404,0.11290555185420412
13.529614348726113,-35.53121638472133,5.037716507402078,0.2920661794138396,6.621010892726233,0.4653451878319582,-25.340350272746733,-6.950693737263965,-1.6767374724411561,10.797344667531663,10.396905901778585,3.97942013178642,-22.73503670209094,18.440070807091043,-4.447767988804298,-12.94706607902348,1.921511633459617,-0.5611839466733687,18.80647741357104,43.65466645556524,-8.733138529014717,-5.954650321157864,-32.38747492648312,25.013013554650588,7.813656070593892,5.769647226457598,2.7000260257361655,5.955995402109777,-7.856319342500441,4.116241353948928,2.977954482750276,-2.0822694625250286,2.161499027584534,3.420387025785804,-3.0371499478291786,0.07542120274775416,0.3610067395481933,-0.27719126975905584,0.18884615978901223,0.33497932073186887,-0.6689977416218587,0.2020548761212791
11.564166586458397,-37.13139703688539,5.8819147192994485,-3.9152676228661134,8.250311354544007,0.3637632091482145,-32.94145908228569,-3.4509905289338985,0.8814354170956056,-8.396936830750688,18.89073289492464,4.085708208531904,-20.575499933063682,16.365313546395846,-4.215204697320812,-12.726487737354287,1.8232105677064188,-0.45909265837493873,-15.234040798341674,55.14872622112733,-3.376818706709063,18.41971736552189,-26.094211264020323,2.5528328080920613,4.7418761998236425,2.3536684894658126,-0.14736672507080817,-3.301593165935679,-1.8910450592959318,0.38921861631201105,1.826346595973643,-2.1962494951992286,-0.14916198849986526,1.7879526492444784,0.020065460490528396,0.7543543429865153,0.3328655458383999,-0.31807322030748164,-0.12255292871335989,0.11948907921536792,0.1457686508653465,0.2220047470512169
14.925615740122133,-38.504546299722065,5.273704174900545,-2.8007672457093507,7.345837879006506,0.6823780840108309,-35.16250800172366,4.3230066544883385,-1.569812170402694,-0.6430157598324551,16.00466836861809,5.604819162246061,-18.43412704723908,14.273108826174385,-3.9135820544914526,-12.301963351944067,1.6245381394486522,-0.3433434964510669,-10.413106942552787,66.24481483054714,-9.167941636608523,34.24897410917334,-27.62948803457539,5.019559836384904,2.3864782532612443,4.188230781861198,1.3654196761714088,-4.991481051944943,-4.913742391574917,0.22935629667182883,1.7389104974180665,-2.144624530954735,0.3323539039285001,1.1743808991519904,-1.7876483053257302,-0.2557733214893936,0.25755768035048643,-0.20960126148149194,0.15066673235520436,0.042309543834436025,-0.3889080436369657,-0.040554904793242454
16.17628388942894,-42.8815380446497,6.122683530504538,1.52349312763851,10.121861780855905,1.7882247976939696,-24.369060111787846,-19.113243959036335,1.069576694520231,11.365403387072655,14.460105837779379,7.318584212310665,-16.161136063608495,11.898760915522553,-3.719450583510732,-11.316227961389227,1.4831820422383304,-0.007922809543110004,18.429711540865778,29.592716382627522,-2.5066625079333966,-7.190194650855312,-41.43640049348678,17.58978106966134,2.4681485890315145,1.4162638457696868,0.28605034132995294,1.7404389791146424,-4.250603053082506,1.7043569118470248,0.9867185913809599,-1.1679299733608794,0.21659099691625236,1.8048119890317047,-1.7254907748070116,-0.13279206401626065,-0.04074825985050168,0.0238018501213849,-0.037519793640549554,0.03745518168445385,-0.47668095247658654,-0.13660284627511968
17.088706416850222,-41.19102756601999,5.186873871844423,-4.093497400668526,9.261637459929016,0.9530131719316212,-21.28032369824124,-11.089423481958018,-0.7551440906301125,-22.085768813480424,17.13340753396759,0.8910358332526388,-14.21285025567524,9.40365761967423,-3.23931560829214,-10.114956119501935,1.3892247420849353,0.046283638555638364,-22.271339662160543,41.026511813989735,-5.633540779544795,8.92123109438287,-13.118744381938567,-1.9809368182990752,9.671761628609035,-0.05577223694087556,0.4573210601194592,-0.9927472089589368,-4.052411816563913,1.0744300396453421,3.076538303696196,-2.1162066039497067,2.1018903939182905,2.005351516201801,-1.2254148953346344,0.044339656183675386,0.39735857308084965,-0.21576497307461862,0.2846783710863048,0.2358193507502955,-0.19264309872379404,0.09948034396272488
18.58538249844221,-43.62418267116107,5.952758970852622,-2.4558474863761037,7.988822412570217,1.2560030862421885,-24.79518043572678,-12.299542628178775,-0.3601755671541496,-7.42733227074838,12.456307506334086,3.8144153152705225,-12.113655981713956,7.5206969271481885,-2.6924107187822637,-8.44177748777427,1.0737929973200835,0.039872064562133214,-9.229018138620045,35.220127463381274,-7.8871798145540755,24.789801657306086,-28.414655068128315,15.785197702819064,4.1291994971397665,5.1411803484973,1.7190142447065373,-0.2967356541464183,-4.740959863708824,1.5610276582970473,2.325145712917817,-1.3515717952865822,1.5254608118197044,2.267116380592297,-1.7023191123421126,0.0923992972524303,0.4511332314132963,-0.16395365348487514,0.3384866418277395,0.10801075701280653,-0.2484717591336812,0.01911109308886895
20.995936487091047,-45.89104500025524,6.395619350077004,1.4315554483584474,6.438559094619711,1.3411351266835887,-20.49176916238867,-23.07727686144504,1.305348314321971,-4.282367459054399,16.943420674745834,6.546249244758276,-10.869277647798574,5.255825269571849,-2.1724821564096803,-6.080561521088582,0.8501206703330269,0.20771531609886598,-5.951809959169875,26.712688146382995,0.1720107643212142,3.369338020222539,-18.901370676377265,9.123124969686549,5.21262828348361,3.611617566245994,1.0764366610750173,0.7075432454957684,-4.758787652033127,1.6411981377317795,2.2146095320699573,-1.901810218508588,1.4167694292299746,2.3235350344325427,-1.9699063737980846,0.2464782990884579,0.216823867042878,-0.08613596582766171,0.28242483129372054,0.11207657710040128,-0.4275235527495206,0.05828123912065526
22.914845788999266,-43.363378344333576,5.320094146368053,1.6174657806068748,5.9530623865163665,0.7287665424495299,-18.44184002978704,-8.874084987929917,-0.4415397246949245,-10.098701433407749,6.93059849678216,-0.7803258909807803,-9.8457528051877,3.5792277615566674,-1.6024076140062022,-4.1286158686339585,0.5562026063479552,-0.16462408534319437,-8.50506949564508,26.56088742889725,-15.310836084819227,24.105486593988175,-6.772202664123862,-11.290349105846413,9.26903055351181,-2.683080170927274,-1.1434350708837036,-4.64989990101102,-3.988742541713013,0.15763389324862603,2.3628590129345968,-2.7533342384468433,0.9648358680093547,0.7896453904415345,-1.7402909550338006,-0.1957085697320207,0.18817435998432122,-0.3728666516864158,-0.06401729714185073,0.0492085792071844,-0.31750344280158593,-0.007721876345935966
21.41195804614582,-45.792867254438136,6.666758012886361,4.176584507307752,6.431777601959975,0.9329409794578953,-25.04076630411868,-13.741270516868283,0.691178683904112,-19.689133782821024,12.335855961028212,1.166336534505729,-8.701785739524627,3.524887648534273,-1.3708604158910755,-1.6122851847693869,0.33709369221184865,-0.07662619267509839,-26.216416378541254,27.831538730438574,-8.443631632115125,4.50921856326342,-26.406412057790828,1.0198767115488645,5.056705785859209,2.8027810233484796,0.5816157037462266,-5.305491323320748,-5.1586479987435485,1.124708404907279,2.421517931169704,-2.394764421289571,1.000887514453146,0.8385112432258633,-2.0538342006167247,0.2520402690119096,0.3829352052968935,-0.3957975851300013,0.07479815530345547,0.05840671805942095,-0.4387250410238681,0.16143809310355384
23.66641172824195,-46.137421862165574,6.329675732111913,4.847963368715497,6.981647066611466,1.078874391490805,-15.815265257706127,-20.771013634938786,1.1979205696543862,-18.17717273246132,13.300228196591453,3.2147385752569577,-8.343597564010183,3.392396361528922,-1.205350703534625,0.31934806641910446,0.1911780499414824,-0.20324770443442425,-17.597293584226666,14.570666418120116,-4.5376295047305675,4.866116233774655,-27.46732774311316,12.913150725955212,3.712768508694018,3.065016360341518,1.7397485028807973,-4.282829247550595,-3.0740516842720353,0.3640485498599862,2.6261482728658962,-1.1422601955784428,1.7517796104285486,0.17500765590798953,-0.7217103507636138,-0.35356460653867716,0.47480013374354985,0.050336378248859365,0.49505399719084586,-0.031874145374685976,-0.10616671326851744,-0.12179983823134864
22.99182839304336,-45.11062613443179,5.916574547684245,7.881010495529002,8.813509995217396,1.2341151872254708,-21.856475678731197,-14.028705833311035,1.1503724988452055,-10.677445657750624,21.703141090278425,5.021870348803499,-8.57885422457654,3.172898457423227,-1.4122116853477802,2.205158756775654,-0.522455825995238,-0.21251159359543365,-14.987658515610432,35.120388523550304,-3.0030409089098082,27.886010423219943,-23.770206397666623,3.80960882947942,4.305243161428977,-2.897219293752692,-0.9431990850154184,2.737618972984715,-5.909788642900279,2.496436285951946,2.017195952044894,-3.600069283086421,-0.22262820554759769,3.783772568745307,-2.8686848418777013,0.8204483143395624,0.22302550344575942,-0.48616592367703954,-0.1757844435010065,0.5542614194842226,-0.5904591179618969,0.379769943895515
22.4807231187492,-43.83610087461192,5.630413568924526,9.338303216531344,11.535273240427971,1.958474898843801,-20.003820406803676,-11.594499258051062,1.5865155798533488,-20.952771816860633,30.97795888816367,9.416770321418278,-9.03401820738111,3.431460495766819,-1.3525300140795185,3.4256086434722732,-0.5500954681349149,-0.03192457733472361,-26.816907975718703,48.82734248266789,3.4700795978684744,7.806400962673068,-22.471660508064698,4.212372677766296,7.389930599044666,0.41079946675207124,-0.04215463489987745,-0.6400646118908746,-5.1648997395714025,1.7941511722586128,2.8529057535872275,-2.2770609780669915,1.2055742172087762,1.681444220281948,-2.1487192057037814,0.40470961984331255,0.391811356802261,-0.30943811328880844,0.09482738762393317,0.048853160426619704,-0.333324120190323,0.10710008704412541
23.971983975387364,-45.631474574391696,5.486672144481844,11.015218561680209,10.317651674693689,1.945987988170804,-13.15905442477297,-20.13720737582635,-0.4924309980320587,-12.860712319516008,21.48605690500547,7.130658111658848,-9.538947187921423,4.553766545864649,-1.4388975288958474,3.9247161875399215,-0.5509676910123581,-0.15488350368546003,-9.028918318843704,17.801157423118454,-3.8303319099148134,23.143496233650147,-10.369824564096096,-0.5526446201006573,2.944320315280476,2.7320580442157882,1.0056076588520466,-4.803768723662879,-3.3492311817163904,0.5552837125007365,2.438085387701093,-1.8412865023510236,1.083001965415108,0.6243198305960229,-0.8804820470961325,-0.09470171821401846,0.35887423856141126,-0.1976305374057627,0.18631911923047345,-0.07162548146388534,-0.09000370489261905,-0.09294509656509531
19.543925713098236,-42.81544386889186,5.684458521933788,11.271579246504169,11.068049288228789,1.898128158263644,-24.10255237285988,-14.317001629738916,0.8411503872755324,-17.67878011508409,30.339525906994382,7.853027650962251,-10.121672775169362,5.76795131987444,-1.7216641507315826,4.073436550330829,-0.7490504128743812,-0.0017758267995133612,-30.3940348791799,39.45452608096405,-2.017104258572133,15.843903371560597,-27.99097976768195,4.00711481291112,5.603440229930193,-4.089828008013777,-0.9160659505817842,-0.19912299464143846,-3.9657003961137627,1.4675549306444962,2.7645183522559913,-2.868972365107078,0.15112310194319667,1.854196705872996,-1.9574006726335853,0.5424706162568477,0.4514526956197493,-0.06661154046765386,0.18771627829331058,0.29463840179644324,-0.4308589868106948,0.2355131721374493
21.7630501248373,-44.08790333167852,5.254623066177327,9.29074981276288,12.276456337374055,2.553767377879465,-10.418189948299432,-15.228443883755823,1.3227014705494888,-31.503389464172606,34.5595447396675,10.754075795202244,-11.242991163184078,7.416012273990886,-1.9493898557430733,3.5686124445548746,-0.395690454041578,0.36758218774506096,-30.214922513151997,43.98629435516731,6.190822369573843,23.635962096748294,-13.97748455917065,-1.8824058063496858,5.572650154908457,0.1110083727978543,-0.3491657816893405,-5.727584127387523,-1.900161144698186,0.06673298429304553,2.618917307884504,-2.6458424654062083,0.585130574736772,0.06349578743563485,-0.9577790939960369,0.1757039972031131,0.37414640673042626,-0.4099249415028599,-0.007532998156602988,0.044764185814870905,-0.26681180259548626,0.11464073777213982
19.673433070313756,-42.008445963706784,5.530138656714349,12.150586641324582,11.032869731650782,2.545456059513152,-19.827761092936942,-15.62040632176665,2.2309247982164733,-12.93575407106931,28.58332691701418,7.78797775359637,-13.112367160381273,9.775692331534282,-2.0805543605494883,2.44840541957128,0.22029955734802717,0.6901722905092053,-19.76569989344065,31.03587940095361,1.3088553236250284,25.693613482280448,-9.094395153377885,5.035549726399971,3.1936817395222765,4.017581899406795,0.21307484243741182,-1.1341835386021695,-4.428871283389707,1.338041382524493,2.130392423234868,-2.3781035459898314,0.5183468559457435,1.3654554174264104,-1.449612060923036,0.13579668973292444,0.30581221759336397,-0.39930691712972277,-0.0033282883938963504,0.15012184733159206,-0.17790554736805606,0.035408001694273716
18.87973893899347,-40.52587491740619,5.0083193973810145,8.71448017549035,11.023227920019394,2.897147987485555,-19.847843496266858,-14.972753126771845,-0.5779827470757888,-24.21198837393391,22.66654398236392,5.672586707276661,-14.986378047122571,11.90287056152747,-2.275047484352289,1.1307627043574768,0.7834244237502338,0.9949594910209258,-38.926549938564754,14.139428886008112,-6.474795303564745,24.95574989569801,-23.683915983309543,-0.6267235692003356,8.740495492948991,-3.2853249991474356,-0.4192435454559042,-2.082257554899087,-4.770096007504951,1.136448646208251,3.5532504979230164,-2.3876983447238733,1.0882017380460973,1.4318146860617305,-2.3719145088618827,0.3974249946149261,0.44470287186658203,-0.16525220950801864,0.11524625764499044,0.10215098000903826,-0.4859793650738622,0.1258485541686638
19.698683709085735,-38.72979354508552,4.1508531868781935,7.346149555596583,11.97677003063915,3.5501168223796142,-9.276317340684901,-8.338263169664664,-0.11193362968788599,-25.498731549696224,30.62839922325387,11.422657175821373,-16.648490968417033,13.751822952383211,-2.443744803516504,0.0716077778949874,1.461252102565177,1.4980007519350549,-16.159416647475858,50.50165859388633,5.89951136777555,20.248726342455907,-14.998415703793935,-3.8322405628477973,-2.9029101408288347,1.343423811454578,-0.403617744398299,-4.082099505821356,-1.4596914522788684,0.1740374203751621,0.20246809475061295,-1.706493150260616,-1.2506951368751966,0.40645432966422584,-0.6522621001412862,0.24849595671394997,0.030168465519532534,-0.17349302711245138,-0.23033365274674755,-0.1097407596924154,-0.08581771780446111,0.02024037627011439
18.428600046772775,-40.821159894736354,5.721604469666777,8.85374305039761,12.249723922655285,3.333375434305589,-27.11238617754499,-21.732147198958067,1.5522073368278406,-24.184416911494793,31.40830836419044,8.156504734342592,-17.41178910086649,15.194060531475841,-2.5550093195567407,-0.8194781792624961,1.859670373014665,1.5606648832914805,-44.011506263202975,24.224377245079207,-0.4163846440371379,11.792452976963428,-26.019204692335244,11.028980610792395,4.827367011067794,3.1578587513073395,-0.09556844328158595,-0.011112683698913491,-4.582176615703761,1.452353049717528,2.3678655800019532,-1.8981825743919147,0.6739297054629084,1.1622771985850904,-1.4521231521279692,0.05224106760468211,0.3751092134531021,-0.25502856979506194,0.09152651938551894,0.12087716193890043,-0.16575439033223716,0.012044764675175937
17.827063464321434,-37.09514692862079,4.681636733263084,7.935050869282935,12.724803816196058,4.049115822439484,-18.97320501580287,-11.145350302894654,0.7098033818032555,-22.98452231025469,30.21920541412206,11.135788471980536,-17.793331561832055,15.618656772896415,-2.3835327158913526,-1.2659342790021315,2.5752339412287175,1.9819776497549144,-31.27917507554836,38.66853482689271,1.3686652633161291,49.03042545800408,-32.7182656191644,0.06192939380286244,0.8862070945642991,3.8691679808149835,0.8948335105674609,-4.34680628564437,-2.9711912900206157,0.03968766123842029,1.223524008103992,-0.6801092843051697,0.6135941886254456,0.7565082644610224,-1.5173295094349386,0.2259317527894605,0.1148962180004583,-0.04382833782599053,0.09822578133100855,0.03520991872431866,-0.22725343192508174,0.07794684887576846
17.91030611831072,-36.15270797986647,4.144298427091036,7.77256524605787,11.690597851946022,3.7062974775266992,-8.233967378830284,-16.323401936318675,0.055493015666653045,-27.1765253307936,26.536766190208137,7.9898305638409255,-17.55216167073914,15.302543387731982,-2.343415013013658,-1.1735393357423698,2.5687915944485225,1.8814518445948738,-23.079683253571524,21.769429379708264,3.9833188804405713,35.19575986704194,-6.007255208295658,-11.704344227214131,5.110519423082839,-5.596410486457525,-1.8313912989147398,-2.4044287133554474,1.8678521349153525,-0.6698881043970794,3.003023798587252,-3.998567835573096,-1.0312505525456457,1.2902558146725385,0.5611779460090086,0.5531825410700626,0.3979650291031925,-0.3060436186597476,-0.16203892275803844,0.24670168185851385,-0.043273553710505334,0.14093640144134809
17.68676356147823,-36.65567034166509,4.751923674618544,7.949444194280593,10.540528124512099,3.392820034274656,-17.415600045943663,-12.154064756514217,1.6249869492885167,-25.165523419303177,22.79916481181127,5.8745263103006184,-17.128303622114668,14.833385642405169,-2.1978220422642107,-0.7649006173079975,2.9555740359308142,1.915173817483381,-32.706977836070976,27.656793016781783,-2.892409610626254,10.635318874972782,-21.349806801880252,-1.988879773043284,4.8056327784413355,-0.6648439097842325,-1.0445878678949791,-7.316161340505219,-2.7882708413167494,-0.2996920955006265,2.529109251659297,-2.800508975234517,-0.39416941797338684,-0.37123089656372704,-0.8862525278575105,-0.3148376940755067,0.3939564284681225,-0.34342637680105337,-0.1516133965589262,-0.08050940574736272,-0.22510841903052192,-0.06601792022040245
15.87341245715363,-34.198876312977696,4.384436451390132,8.90296096978139,14.063775515087805,4.318051837372231,-26.476939836748198,-9.780285923066032,-0.7898244145247639,-15.879891822104168,31.085550785255656,12.55539004591059,-16.760921082510333,14.28966034945348,-2.151759759744422,-0.255168930543954,3.2394652440800167,1.9597543724003728,-34.12930663311816,36.68145729957588,0.36960124943952705,25.447158164912555,-20.147223363474374,9.940690986104872,-0.34043654694344483,3.910824715151083,0.9769085427343158,-1.3404699871156807,-6.908003755310994,2.125246811641577,0.758607611513554,-0.3743370218676244,0.32420664025589135,1.17611144864921,-2.166139605585075,0.1047420607688282,0.07196289616871361,-0.012627396843722154,0.05031684628236236,0.05051412282532948,-0.23244449712922927,0.05443063911357975
17.275167816607095,-36.68166499418058,4.821732776781939,7.956402826830834,13.898068776577546,4.0839693534568795,-16.927830698176944,-18.3497093919304,0.9576097663808336,-23.56097979247391,30.87298281840945,9.733180529940867,-16.21379673103206,13.508742362233114,-2.0308470614801615,0.5502703580732775,2.8647376266372593,1.9612901110494056,-32.19181799650625,27.250057174021176,3.7876963024524093,38.89493626146044,-44.23026797914498,-0.510924179511506,3.7375720439700806,-0.6429370265534391,-0.8967377041903024,-1.9013870494714589,-1.1164841404589676,-0.8047051205463357,1.2662664224361886,-1.66635990107179,-0.17757999187616508,1.0171009898966117,-1.0254959592942423,0.02807379369252706,0.11364073375610402,-0.14703064010537742,-0.0297637904103823,0.0552510442948256,-0.15040386562073185,-0.012219732810710279
19.583667596253903,-34.54035473638796,3.5987667203103832,7.202334163466028,12.705106422341052,3.8839362034432177,-2.0040305721165477,-11.454394979373689,1.2486509738020863,-23.04186111372874,25.93495512320705,8.365670955984674,-15.579768598982852,12.495567460112484,-1.7605676825469998,1.8540681414152287,3.0301112793367038,1.951726806874176,-11.623999777215701,30.471284230963086,5.380426576274528,25.101813633365317,10.160333380353388,-1.8332718087957611,0.2560098832322014,1.0994495247561784,0.7830781107136406,-3.6960392805650937,-0.39540960876047965,-0.47162452083055134,2.3020487907761056,-2.1889457517199413,-0.018659557633215543,0.2586149106086051,0.07323705233356571,0.06172095313078544,0.42479617374927897,-0.2005664024641316,0.07534303640937257,-0.09744212809909494,-0.07840344438169188,-0.06823071056906718
15.064648413147598,-33.63248499861584,4.6358122997866555,5.764057268681696,13.161928048137895,4.063961173691659,-28.699275438952906,-9.298628857949941,0.44376647400961644,-17.62897132661003,22.95850411529292,7.469931410376239,-14.968039165636963,12.09415162852633,-1.790029867208884,2.623716039375055,2.6859700508056195,2.012835142338531,-39.729195598885894,28.791617738267,-6.075398207536723,21.807097648785827,-14.177748388562868,0.36000597260491624,3.4644907146515,0.2630964403750152,0.32465868445977253,-2.1574742418324577,-4.419526965410668,1.05483931220637,2.6791520195298686,-2.566559360782116,0.10426863249615742,1.3729558696645152,-0.8871099672801892,0.12743490852812334,0.4713679646477076,-0.32491300894667946,0.015092125999101594,0.06128206884787845,-0.0035922414231741376,0.0014743691726508256
17.89181959213263,-32.96828596257466,3.9117170336760014,7.160991745144668,13.559533561115682,4.251199940426689,-11.343736453030921,-13.239052774905765,2.218143731150651,-16.554562825043856,27.322911829948037,8.487572445269379,-14.659819374840405,11.757892786159234,-1.6478353533283685,3.6123553131052026,2.3064910397639093,2.1745770016900887,-17.760363724128464,26.75707974702896,5.612206269451692,47.55932409742895,-46.505190466447345,5.745780953019794,1.0342020041917723,1.0420483177813178,-1.100949823560506,-2.2483339211425104,-3.144818679251953,0.12480925070118085,0.366704966555037,-0.9732701919698633,-0.9996285718881376,0.7896458558689765,-1.7411311109552348,0.02906026193781493,-0.13565377215598665,0.018509481718656344,-0.2604464797057502,0.21025271652701452,-0.4826412187277395,0.11133208044093898
16.620557927425644,-34.091186362070914,4.238972003377933,4.833375032770436,12.287305335462944,3.9154509306420655,-14.7733565705137,-12.991709063204102,-0.5164592506036664,-21.514635856584498,25.269215535395286,8.710655296953394,-14.744331143630436,12.148646177461023,-1.601237730247629,3.9744810750249306,2.1874138632372047,2.0127373337916583,-25.45556074205507,31.411286986135618,0.2715045925258305,23.87677224861684,-15.581075413882425,-1.5737182112571566,2.497565454644079,4.335370571680727,1.2381136966075077,-6.914222947083728,2.5036385338496068,-2.3691971583765534,2.2951952503555106,-0.8435180961980658,0.7197857113729571,-0.4407584342718891,0.7415857740424155,-0.008966154358690345,0.500710518697623,-0.02797470431494044,0.21166525303424882,-0.1452673801547042,0.11322678561925004,-0.0781243302245348
18.68608892400328,-34.26346155704398,4.279175091640785,5.187305137049843,10.34698947797603,3.250369876282924,-12.196120118680918,-10.963598612470044,2.2524002900433864,-24.623388092810373,22.048822130359728,5.1201265258351105,-14.57000693204048,12.234520190382042,-1.4753630559867836,4.817164943751625,1.666866409081498,1.8738455128438463,-25.95268791941251,32.50389638907328,0.37923417309882856,25.513172317250998,-4.964156007002849,-5.485948532095837,1.7301907764900262,-2.1915884758244744,-0.5768387058416281,-0.7063349633269724,-2.505320413975089,0.7480810327061663,1.4437136012695166,-2.3822548993937294,-0.5938500194615269,1.5095230301636855,-0.6072347323820368,0.2689316832713365,0.12886989433124732,-0.2051000260762591,-0.04624934240490654,0.056552920278156296,-0.03260647774558361,0.022069672450273668
17.145232072572966,-33.27797564233497,4.3231395930483885,3.835713902211215,12.539218519233742,4.149036052893778,-19.252493652518677,-13.304460406078755,0.8905142282072985,-18.378137813700082,23.15175132354147,8.253746031772156,-14.9809649270505,12.809909811007456,-1.6079594445939622,4.905052858758691,1.286018663627753,2.0433813387287763,-28.733601899428592,23.30843266917498,-1.8032897406178137,43.98650267258042,-36.130866551513094,7.359602685351646,-1.0161946960927686,4.225106881921467,0.8173226759814382,-3.414749769630398,-5.280203886602612,0.5260681721581114,0.5527919183710764,-0.990322649284311,-0.3473944780916251,0.7847342361847098,-1.9590104889565099,-0.22369885168351203,0.11870768038896744,-0.18504759690442968,-0.1170335111314681,0.0970650727090567,-0.40820669719058283,0.018539069040801076
17.846061864441385,-33.91730245398579,4.473722629255483,2.7720024170058677,11.600469991231535,3.8931178771862887,-11.88335934668799,-22.116265516051083,-0.19216753822143162,-20.044631027641763,22.844652789090937,8.349510047503841,-15.275714027386906,13.128208491627225,-1.3013929394088506,5.2571720511954,0.8641114893325977,1.912093553047138,-21.876459153294352,16.423271341174,3.3794800711196085,24.45381363827122,-28.228611828320204,-2.777779268958188,2.840071248948968,-3.3616739393718538,-0.9490502770432454,-3.221568339850376,-2.1330478384231952,-0.31484805156185686,2.0393942752526817,-2.723898889833716,-0.662749534875777,0.014568284074532381,-0.6274407747236272,-0.2548499141033102,0.32569830573001507,-0.2843671298711006,-0.07760198232412334,-0.13055080837888544,-0.06879783466925501,-0.08269237520860354
16.96307971882897,-30.317876626348692,3.9589363043022407,3.3652215741072546,10.58745459272745,3.6102089108425024,-15.709144269401168,-4.793237359468631,3.0250064844023736,-21.663224222968722,24.630632319056378,8.34242797418832,-15.979727911592779,13.749451553464064,-1.375837016437759,5.2364172012826,0.7554204652003251,1.8822020079379016,-27.05448479244041,40.920332861384125,4.72936862011992,22.579203515639026,-11.007850900542694,-6.609779697513297,3.850094418463301,-0.8019349559591755,-0.921315587273023,-2.9513296785102368,-0.3106935492878613,-0.3530222402313334,1.6771631127137252,-1.745033171802275,-0.3780961469386159,1.241399038209713,0.0747889213790652,0.46766296874272417,0.12765969218640624,-0.07769896753321548,-0.0699656515341486,0.057068019101232006,-0.02829590319203752,0.03872259214703498
16.183613472178912,-31.913086321226338,4.286321535300775,4.058841568412832,9.131183838405011,3.463780019746459,-13.954189485119077,-17.59705792452841,0.2574354782263163,-13.97951384056277,12.29583594476735,3.556994856923817,-16.69584738329391,14.806320088921519,-1.5026822440566638,5.063023130134208,0.8195074130582847,1.9399040386355815,-20.085815668810998,6.789106783502243,-5.0508329382775425,41.09786053849378,-4.641316419160254,4.015396162256174,-0.49902163071596417,2.1079618815938073,0.44540910998967764,1.2678018385305851,-5.316621561642559,1.561481725593897,0.766589556020673,-1.1801492857750926,-0.46486561418416095,2.3250393847987207,-1.495454210220871,0.032677606302347444,0.18855826541683218,-0.1987833077716947,-0.11946439889444842,0.24250252761119884,-0.14060539089324975,0.05942928915999314
17.49464,-30.81536,4.23922,3.49652,11.72748,4.23697,-13.03674,-13.63323,1.68224,-20.92527,33.36243,14.64194,-17.84462,16.54979,-1.28485,4.52213,0.7229,2.06576,-21.76801,51.04335,15.21822,20.83804,-32.8564,3.32887,4.3293,1.17097,0.61035,-6.61796,-0.60157,-1.36899,2.82702,-1.63765,0.69004,-0.58421,-0.04736,-0.28513,0.43778,-0.02179,0.28405,-0.08087,-0.1278,-0.10898
,,,,,,,,,,,,,,,,,,,,,,,,,,,,,,,,,,,,,,,,,
,,,,,,,,,,,,,,,,,,,,,,,,,,,,,,,,,,,,,,,,,
,,,,,,,,,,,,,,,,,,,,,,,,,,,,,,,,,,,,,,,,,
,,,,,,,,,,,,,,,,,,,,,,,,,,,,,,,,,,,,,,,,,
,,,,,,,,,,,,,,,,,,,,,,,,,,,,,,,,,,,,,,,,,
,,,,,,,,,,,,,,,,,,,,,,,,,,,,,,,,,,,,,,,,,
,,,,,,,,,,,,,,,,,,,,,,,,,,,,,,,,,,,,,,,,,
,,,,,,,,,,,,,,,,,,,,,,,,,,,,,,,,,,,,,,,,,
,,,,,,,,,,,,,,,,,,,,,,,,,,,,,,,,,,,,,,,,,
,,,,,,,,,,,,,,,,,,,,,,,,,,,,,,,,,,,,,,,,,
,,,,,,,,,,,,,,,,,,,,,,,,,,,,,,,,,,,,,,,,,
,,,,,,,,,,,,,,,,,,,,,,,,,,,,,,,,,,,,,,,,,
,,,,,,,,,,,,,,,,,,,,,,,,,,,,,,,,,,,,,,,,,
,,,,,,,,,,,,,,,,,,,,,,,,,,,,,,,,,,,,,,,,,
,,,,,,,,,,,,,,,,,,,,,,,,,,,,,,,,,,,,,,,,,
,,,,,,,,,,,,,,,,,,,,,,,,,,,,,,,,,,,,,,,,,
,,,,,,,,,,,,,,,,,,,,,,,,,,,,,,,,,,,,,,,,,
,,,,,,,,,,,,,,,,,,,,,,,,,,,,,,,,,,,,,,,,,
,,,,,,,,,,,,,,,,,,,,,,,,,,,,,,,,,,,,,,,,,
,,,,,,,,,,,,,,,,,,,,,,,,,,,,,,,,,,,,,,,,,
,,,,,,,,,,,,,,,,,,,,,,,,,,,,,,,,,,,,,,,,,
,,,,,,,,,,,,,,,,,,,,,,,,,,,,,,,,,,,,,,,,,
,,,,,,,,,,,,,,,,,,,,,,,,,,,,,,,,,,,,,,,,,
,,,,,,,,,,,,,,,,,,,,,,,,,,,,,,,,,,,,,,,,,
,,,,,,,,,,,,,,,,,,,,,,,,,,,,,,,,,,,,,,,,,
,,,,,,,,,,,,,,,,,,,,,,,,,,,,,,,,,,,,,,,,,
,,,,,,,,,,,,,,,,,,,,,,,,,,,,,,,,,,,,,,,,,
,,,,,,,,,,,,,,,,,,,,,,,,,,,,,,,,,,,,,,,,,
,,,,,,,,,,,,,,,,,,,,,,,,,,,,,,,,,,,,,,,,,
,,,,,,,,,,,,,,,,,,,,,,,,,,,,,,,,,,,,,,,,,
,,,,,,,,,,,,,,,,,,,,,,,,,,,,,,,,,,,,,,,,,
,,,,,,,,,,,,,,,,,,,,,,,,,,,,,,,,,,,,,,,,,
,,,,,,,,,,,,,,,,,,,,,,,,,,,,,,,,,,,,,,,,,
,,,,,,,,,,,,,,,,,,,,,,,,,,,,,,,,,,,,,,,,,
,,,,,,,,,,,,,,,,,,,,,,,,,,,,,,,,,,,,,,,,,
,,,,,,,,,,,,,,,,,,,,,,,,,,,,,,,,,,,,,,,,,
,,,,,,,,,,,,,,,,,,,,,,,,,,,,,,,,,,,,,,,,,
,,,,,,,,,,,,,,,,,,,,,,,,,,,,,,,,,,,,,,,,,
,,,,,,,,,,,,,,,,,,,,,,,,,,,,,,,,,,,,,,,,,
,,,,,,,,,,,,,,,,,,,,,,,,,,,,,,,,,,,,,,,,,
,,,,,,,,,,,,,,,,,,,,,,,,,,,,,,,,,,,,,,,,,
,,,,,,,,,,,,,,,,,,,,,,,,,,,,,,,,,,,,,,,,,
,,,,,,,,,,,,,,,,,,,,,,,,,,,,,,,,,,,,,,,,,
,,,,,,,,,,,,,,,,,,,,,,,,,,,,,,,,,,,,,,,,,
,,,,,,,,,,,,,,,,,,,,,,,,,,,,,,,,,,,,,,,,,
,,,,,,,,,,,,,,,,,,,,,,,,,,,,,,,,,,,,,,,,,
,,,,,,,,,,,,,,,,,,,,,,,,,,,,,,,,,,,,,,,,,
,,,,,,,,,,,,,,,,,,,,,,,,,,,,,,,,,,,,,,,,,
,,,,,,,,,,,,,,,,,,,,,,,,,,,,,,,,,,,,,,,,,
,,,,,,,,,,,,,,,,,,,,,,,,,,,,,,,,,,,,,,,,,
,,,,,,,,,,,,,,,,,,,,,,,,,,,,,,,,,,,,,,,,,
,,,,,,,,,,,,,,,,,,,,,,,,,,,,,,,,,,,,,,,,,
,,,,,,,,,,,,,,,,,,,,,,,,,,,,,,,,,,,,,,,,,
,,,,,,,,,,,,,,,,,,,,,,,,,,,,,,,,,,,,,,,,,
,,,,,,,,,,,,,,,,,,,,,,,,,,,,,,,,,,,,,,,,,
,,,,,,,,,,,,,,,,,,,,,,,,,,,,,,,,,,,,,,,,,
,,,,,,,,,,,,,,,,,,,,,,,,,,,,,,,,,,,,,,,,,
,,,,,,,,,,,,,,,,,,,,,,,,,,,,,,,,,,,,,,,,,
,,,,,,,,,,,,,,,,,,,,,,,,,,,,,,,,,,,,,,,,,
,,,,,,,,,,,,,,,,,,,,,,,,,,,,,,,,,,,,,,,,,
,,,,,,,,,,,,,,,,,,,,,,,,,,,,,,,,,,,,,,,,,
,,,,,,,,,,,,,,,,,,,,,,,,,,,,,,,,,,,,,,,,,
,,,,,,,,,,,,,,,,,,,,,,,,,,,,,,,,,,,,,,,,,
,,,,,,,,,,,,,,,,,,,,,,,,,,,,,,,,,,,,,,,,,
,,,,,,,,,,,,,,,,,,,,,,,,,,,,,,,,,,,,,,,,,
,,,,,,,,,,,,,,,,,,,,,,,,,,,,,,,,,,,,,,,,,
,,,,,,,,,,,,,,,,,,,,,,,,,,,,,,,,,,,,,,,,,
