PaulMeinheit/Bachelor_Muay_Thai/Sub01_Teep/sliced/Sub01_Teep/JointAngles.txt/sliced5.csv
Unnamed: 0_level_0,L_MTP_ANGLE,L_MTP_ANGLE,L_MTP_ANGLE,R_MTP_ANGLE,R_MTP_ANGLE,R_MTP_ANGLE,L_ANKLE_ANGLE,L_ANKLE_ANGLE,L_ANKLE_ANGLE,R_ANKLE_ANGLE,R_ANKLE_ANGLE,R_ANKLE_ANGLE,L_KNEE_ANGLE,L_KNEE_ANGLE,L_KNEE_ANGLE,R_KNEE_ANGLE,R_KNEE_ANGLE,R_KNEE_ANGLE,L_HIP_ANGLE,L_HIP_ANGLE,L_HIP_ANGLE,R_HIP_ANGLE,R_HIP_ANGLE,R_HIP_ANGLE,L_SHOULDER_ANGLE,L_SHOULDER_ANGLE,L_SHOULDER_ANGLE,R_SHOULDER_ANGLE,R_SHOULDER_ANGLE,R_SHOULDER_ANGLE,L_ELBOW_ANGLE,L_ELBOW_ANGLE,L_ELBOW_ANGLE,R_ELBOW_ANGLE,R_ELBOW_ANGLE,R_ELBOW_ANGLE,L_WRIST_ANGLE,L_WRIST_ANGLE,L_WRIST_ANGLE,R_WRIST_ANGLE,R_WRIST_ANGLE,R_WRIST_ANGLE,NECK_ANGLE,NECK_ANGLE,NECK_ANGLE,NECK_ANGLE_SHADOW,NECK_ANGLE_SHADOW,NECK_ANGLE_SHADOW,Trunk_Joint_Angle,Trunk_Joint_Angle,Trunk_Joint_Angle
ITEM,X,Y,Z,X,Y,Z,X,Y,Z,X,Y,Z,X,Y,Z,X,Y,Z,X,Y,Z,X,Y,Z,X,Y,Z,X,Y,Z,X,Y,Z,X,Y,Z,X,Y,Z,X,Y,Z,X,Y,Z,X,Y,Z,X,Y,Z
2326,-3.35488,0.0,-0.0,-0.46162,0.0,0.0,-3.84012,-6.60833,6.16769,19.98632,-0.17664,-21.44225,-24.74997,-1.76341,-0.00506,-31.02597,-3.24266,-0.00115,26.6659,12.09853,8.52324,13.39371,-0.52538,-13.22202,38.13335,23.73924,-11.0543,54.87014,-9.27244,40.43968,134.71695,-0.00225,-97.57063,118.74309,0.00056,102.95039,-1.54623,-18.83299,0.00276,-7.7119,9.76903,0.00842,-10.56977,-11.03008,7.96883,-33.84884,-13.24745,3.00741,1.57466,-1.41941,7.30343
2327,-2.61741,0.0,-0.0,-0.41315,0.0,-0.0,-4.87418,-6.69241,5.72854,20.15487,-0.08871,-21.07542,-26.91366,-1.81213,-0.00648,-30.63455,-3.37718,-0.00127,27.83271,12.42911,8.52139,13.01939,-0.51929,-13.35193,38.64679,23.82238,-11.68356,55.2381,-9.55139,40.61925,134.8605,-0.00029,-96.80244,118.96925,0.00212,103.15854,-1.64396,-19.1132,-0.00066,-7.3395,10.31733,0.01182,-10.65044,-11.14376,7.9027,-33.94149,-13.32621,2.89998,1.59926,-1.24069,7.35758
2328,-1.99812,0.0,0.0,-0.43005,0.0,0.0,-6.4176,-6.92604,5.12367,20.29449,-0.09178,-20.70615,-29.44463,-1.88549,-0.00866,-30.23023,-3.49271,-0.00071,29.22067,12.85533,8.56171,12.58972,-0.53286,-13.51307,39.15833,23.89083,-12.28911,55.58667,-9.86181,40.76291,135.00053,0.00257,-96.40948,119.26248,0.00373,103.15881,-1.39642,-19.38844,-0.00353,-6.88939,10.87027,0.01147,-10.75299,-11.2719,7.93285,-34.05549,-13.4556,2.87581,1.55098,-1.06166,7.44605
2329,-1.63891,0.0,0.0,-0.49783,-0.0,0.0,-8.42468,-7.26296,4.3409,20.41575,-0.1691,-20.37222,-32.30352,-1.9781,-0.01001,-29.88135,-3.56968,0.00014,30.78539,13.37684,8.63777,12.12596,-0.5799,-13.65474,39.66073,23.93516,-12.84083,55.94287,-10.22465,40.8824,135.1353,0.0051,-96.39384,119.62287,0.00313,103.00627,-0.82758,-19.58319,-0.00361,-6.43156,11.34504,0.0083,-10.87519,-11.43903,8.03556,-34.19157,-13.64894,2.90291,1.40342,-0.88414,7.57868
2330,-1.70025,0.0,0.0,-0.57942,0.0,0.0,-10.74645,-7.57445,3.38236,20.53913,-0.2803,-20.10238,-35.43217,-2.09864,-0.00772,-29.6501,-3.59711,0.00065,32.49019,13.97244,8.72051,11.67335,-0.68608,-13.72162,40.14519,23.95378,-13.32506,56.33506,-10.64844,40.99091,135.27081,0.00604,-96.57688,120.02942,-0.00046,102.91808,-0.11521,-19.6494,-0.00126,-5.97338,11.67763,0.00369,-10.99091,-11.65598,8.16057,-34.32579,-13.89665,2.93027,1.16459,-0.72289,7.75591
2331,-2.3023,-0.0,0.0,-0.63512,0.0,-0.0,-13.14028,-7.70482,2.27753,20.68647,-0.39284,-19.91397,-38.77213,-2.2703,0.00049,-29.58365,-3.5662,0.00033,34.31413,14.60567,8.76683,11.28945,-0.88536,-13.6695,40.60599,23.95529,-13.74398,56.78298,-11.12617,41.09438,135.41954,0.00446,-96.67405,120.44522,-0.00463,103.04049,0.471,-19.60056,0.00132,-5.50142,11.81893,-0.00146,-11.05458,-11.91,8.25539,-34.41269,-14.16666,2.91435,0.87279,-0.60152,7.96308
2332,-3.44586,-0.0,-0.0,-0.64019,0.0,0.0,-15.3117,-7.5528,1.09435,20.87119,-0.49818,-19.81287,-42.27625,-2.51868,0.01421,-29.70915,-3.46884,-0.00091,36.24407,15.23742,8.73723,11.02236,-1.20785,-13.47749,41.04272,23.95468,-14.1122,57.28709,-11.64051,41.18392,135.59499,4e-05,-96.39625,120.83531,-0.0062,103.30085,0.66686,-19.51282,0.00374,-5.01215,11.7491,-0.00602,-11.02225,-12.16826,8.29053,-34.40575,-14.41736,2.84119,0.57516,-0.54332,8.17679
2333,-4.95067,0.0,0.0,-0.58538,0.0,0.0,-16.98691,-7.11301,-0.07435,21.09319,-0.5832,-19.7846,-45.90925,-2.84992,0.02961,-30.02825,-3.31074,-0.00253,38.25994,15.83462,8.6175,10.88764,-1.66909,-13.17297,41.46206,23.96989,-14.45118,57.82391,-12.17109,41.23695,135.80296,-0.00618,-95.55774,121.18328,-0.00417,103.48853,0.3188,-19.48321,0.0079,-4.5172,11.50408,-0.00868,-10.87648,-12.39274,8.26827,-34.28349,-14.61475,2.72849,0.30166,-0.56378,8.37275
2334,-6.48073,0.0,-0.0,-0.47111,-0.0,-0.0,-17.99137,-6.47592,-1.12651,21.34142,-0.60417,-19.78951,-49.63871,-3.23934,0.04122,-30.51464,-3.1196,-0.00355,40.32294,16.37253,8.4283,10.85639,-2.26881,-12.83345,41.87687,24.01799,-14.78093,58.35467,-12.70049,41.22904,136.0332,-0.01175,-94.11161,121.49326,0.00036,103.38731,-0.56456,-19.57026,0.01383,-4.0518,11.17541,-0.00855,-10.63712,-12.55654,8.21214,-34.06224,-14.74328,2.60921,0.04988,-0.67026,8.53159
2335,-7.65384,-0.0,0.0,-0.30798,0.0,-0.0,-18.29842,-5.79796,-1.95918,21.60256,-0.50045,-19.77249,-53.42516,-3.63564,0.04395,-31.11881,-2.93688,-0.00308,42.378,16.83132,8.21484,10.86268,-2.997,-12.55602,42.29987,24.11047,-15.10997,58.84464,-13.21656,41.15178,136.25755,-0.01356,-92.09058,121.77515,0.00519,102.84285,-1.84387,-19.75738,0.0174,-3.68708,10.87555,-0.00612,-10.35105,-12.65366,8.15138,-33.78745,-14.80882,2.51301,-0.20961,-0.8641,8.63796
2336,-8.14992,0.0,-0.0,-0.11678,0.0,0.0,-18.02133,-5.2276,-2.49532,21.86927,-0.22076,-19.67459,-57.22229,-3.96665,0.03491,-31.77728,-2.80927,-0.00102,44.37493,17.19319,8.03448,10.82732,-3.83685,-12.43714,42.73581,24.25018,-15.42985,59.28111,-13.71107,41.02441,136.43771,-0.00961,-89.57948,122.02416,0.00764,101.82185,-3.30659,-19.95205,0.01395,-3.51272,10.67294,-0.00309,-10.07135,-12.70037,8.11261,-33.51334,-14.83662,2.45789,-0.51123,-1.13764,8.67373
2337,-7.80894,-0.0,0.0,0.07251,0.0,-0.0,-17.33703,-4.84331,-2.71209,22.13975,0.24049,-19.45984,-60.9876,-4.1541,0.0158,-32.42572,-2.77079,0.00158,46.29375,17.44798,7.94241,10.68734,-4.76153,-12.53968,43.18011,24.4304,-15.72342,59.67722,-14.17954,40.88608,136.53995,-0.00092,-86.74343,122.21629,0.00626,100.45713,-4.72025,-20.01162,0.00415,-3.58557,10.54936,-0.00074,-9.84056,-12.72852,8.11703,-33.28543,-14.86416,2.45039,-0.8719,-1.46991,8.61965
2338,-6.70435,-0.0,-0.0,0.22331,0.0,-0.0,-16.38147,-4.65697,-2.64132,22.41246,0.8125,-19.15761,-64.69334,-4.14275,-0.00701,-33.01493,-2.81214,0.00317,48.15345,17.6014,7.96874,10.41597,-5.73241,-12.83507,43.6274,24.63414,-15.98244,60.05902,-14.6239,40.77318,136.54858,0.0083,-83.85342,122.32888,0.00235,99.02901,-5.87552,-19.79653,-0.00461,-3.87896,10.42738,0.00084,-9.68342,-12.77265,8.17433,-33.13198,-14.92689,2.48529,-1.28506,-1.82992,8.46822
2339,-5.10733,-0.0,0.0,0.30492,0.0,-0.0,-15.1945,-4.64654,-2.34648,22.68734,1.37119,-18.87337,-68.32607,-3.92416,-0.02549,-33.52413,-2.87445,0.0029,49.9957,17.67623,8.10719,10.02373,-6.70749,-13.18773,44.08265,24.83506,-16.21765,60.44895,-15.05299,40.70125,136.47041,0.01294,-81.29884,122.36301,-0.00115,97.88881,-6.60557,-19.25492,-0.00425,-4.2745,10.23264,0.00162,-9.6062,-12.85631,8.27207,-33.06195,-15.04157,2.54132,-1.7332,-2.19006,8.23533
2340,-3.34983,-0.0,0.0,0.30867,0.0,-0.0,-13.74469,-4.77461,-1.88617,22.97008,1.80185,-18.74503,-71.87336,-3.5378,-0.03386,-33.96497,-2.88368,0.00107,51.85566,17.70748,8.32871,9.54494,-7.65499,-13.41371,44.56263,25.00552,-16.4539,60.85889,-15.47769,40.66652,136.32956,0.0106,-79.52952,122.34542,-0.00256,97.30277,-6.81455,-18.48913,0.00485,-4.63036,9.94,0.00141,-9.5991,-12.98257,8.37049,-33.06665,-15.19558,2.5804,-2.20491,-2.5398,7.96104
2341,-1.6914,-0.0,-0.0,0.25067,-0.0,0.0,-11.99653,-4.99134,-1.27876,23.27017,2.04209,-18.87737,-75.31057,-3.04815,-0.03112,-34.37318,-2.7956,-0.0014,53.74583,17.7361,8.60191,9.01956,-8.558,-13.37138,45.08446,25.13034,-16.7176,61.29311,-15.90294,40.66156,136.15688,0.00345,-78.85689,122.31174,-0.00246,97.26947,-6.53657,-17.71937,0.01316,-4.88328,9.58075,0.00072,-9.63983,-13.1312,8.41477,-33.12275,-15.3491,2.56005,-2.70197,-2.88453,7.69421
2342,-0.27642,-0.0,0.0,0.16122,0.0,0.0,-9.96134,-5.23901,-0.48664,23.59514,2.07812,-19.30053,-78.59906,-2.51729,-0.02066,-34.79074,-2.61396,-0.00351,55.66215,17.8039,8.89976,8.48135,-9.40802,-13.01676,45.65215,25.21568,-17.02624,61.75154,-16.32022,40.68623,135.98042,-0.00371,-79.27062,122.28704,-0.00194,97.51715,-5.95385,-17.17076,0.01295,-5.07644,9.2089,0.00041,-9.69605,-13.26544,8.3644,-33.1946,-15.45266,2.4579,-3.23217,-3.23169,7.47116
2343,0.81227,-0.0,0.0,0.07554,0.0,0.0,-7.7003,-5.45579,0.5634,23.9478,1.93534,-19.96216,-81.69445,-1.98442,-0.00859,-35.24634,-2.38652,-0.00425,57.59045,17.9479,9.20423,7.94887,-10.20031,-12.41152,46.25249,25.28464,-17.38415,62.22815,-16.7062,40.74353,135.82246,-0.00724,-80.48604,122.27917,-0.00138,97.71372,-5.31238,-16.98844,0.00601,-5.29295,8.86682,0.0005,-9.72824,-13.34908,8.22035,-33.23843,-15.47345,2.2899,-3.80353,-3.58191,7.30505
2344,1.50249,-0.0,0.0,0.02803,0.0,-0.0,-5.29865,-5.5703,1.92358,24.32725,1.68958,-20.74467,-84.55668,-1.44641,-0.00109,-35.74377,-2.19499,-0.00308,59.50084,18.19387,9.52361,7.41259,-10.93481,-11.70541,46.86301,25.36213,-17.78152,62.70758,-17.03295,40.82585,135.70087,-0.00644,-82.09442,122.28771,-0.00066,97.66791,-4.79729,-17.19604,-0.00069,-5.57344,8.5893,0.00029,-9.6987,-13.36546,8.02468,-33.21371,-15.41252,2.10201,-4.43192,-3.9316,7.18833
2345,1.78053,0.0,0.0,0.03855,0.0,-0.0,-2.85216,-5.51314,3.57501,24.7273,1.43126,-21.51997,-87.15267,-0.86259,-0.00045,-36.26781,-2.11372,-0.00067,61.35176,18.55296,9.89731,6.84245,-11.62135,-11.05566,47.46487,25.45871,-18.19596,63.1656,-17.28563,40.90516,135.62599,-0.00307,-83.61839,122.31559,0.00029,97.36156,-4.47594,-17.67226,-0.00283,-5.87632,8.41143,-0.00041,-9.58662,-13.32499,7.82892,-33.09997,-15.29943,1.93764,-5.14007,-4.2837,7.10529
2346,1.7723,-0.0,-0.0,0.09618,0.0,0.0,-0.46772,-5.24436,5.42673,25.1324,1.19215,-22.21512,-89.45026,-0.18955,-0.00453,-36.80098,-2.15282,0.00149,63.11048,19.02012,10.37565,6.21956,-12.28736,-10.51892,48.04701,25.56435,-18.60073,63.57483,-17.47323,40.93791,135.59503,0.00024,-84.59397,122.36996,0.00134,96.83595,-4.32531,-18.18204,-0.00076,-6.09209,8.34148,-0.0008,-9.39901,-13.2565,7.65956,-32.90715,-15.17086,1.80931,-5.93697,-4.6589,7.04404
2347,1.70342,0.0,-0.0,0.16221,0.0,-0.0,1.75472,-4.75527,7.35253,25.52304,0.9568,-22.82186,-91.41845,0.59952,-0.00994,-37.32931,-2.2636,0.00248,64.76707,19.57654,10.99958,5.54673,-12.97163,-10.05356,48.59637,25.65821,-18.97375,63.91291,-17.62234,40.88762,135.59395,0.00205,-84.79285,122.45394,0.002,96.13047,-4.26708,-18.48861,0.00338,-6.10187,8.34669,-0.00011,-9.16727,-13.19057,7.51142,-32.67014,-15.05288,1.69956,-6.80649,-5.0887,6.99442
2348,1.7686,0.0,-0.0,0.19145,0.0,0.0,3.74973,-4.05532,9.23288,25.88966,0.73186,-23.3585,-93.03717,1.51653,-0.01368,-37.83601,-2.39597,0.00238,66.33469,20.19849,11.78582,4.8306,-13.70342,-9.61121,49.08648,25.72883,-19.2993,64.16914,-17.76103,40.75126,135.6095,0.0024,-84.36336,122.56105,0.00168,95.3715,-4.19385,-18.47765,0.00798,-5.84895,8.38869,0.00155,-8.93165,-13.14715,7.36997,-32.4315,-14.95815,1.58672,-7.71521,-5.59343,6.93937
2349,2.08029,0.0,0.0,0.15177,0.0,0.0,5.48554,-3.18463,10.98453,26.23673,0.54269,-23.84984,-94.29982,2.55007,-0.01338,-38.30023,-2.52305,0.00165,67.84383,20.86216,12.71087,4.0722,-14.49295,-9.17533,49.48069,25.78537,-19.56804,64.34633,-17.91012,40.56601,135.63971,0.00165,-83.64975,122.67932,0.00066,94.75124,-4.05112,-18.18586,0.01087,-5.39154,8.45364,0.00334,-8.72673,-13.13249,7.23542,-32.22647,-14.89245,1.46841,-8.62317,-6.17246,6.85666
2350,2.70524,0.0,0.0,0.03455,0.0,-0.0,6.94654,-2.23118,12.56485,26.57354,0.38567,-24.32826,-95.20724,3.65896,-0.00803,-38.7038,-2.63014,0.00073,69.33427,21.54113,13.70862,3.27284,-15.33776,-8.74375,49.752,25.8468,-19.78106,64.4583,-18.08646,40.38969,135.69179,-6e-05,-82.85968,122.80157,0.00022,94.29905,-3.92198,-17.72434,0.00874,-4.91364,8.53764,0.00415,-8.57651,-13.14267,7.1255,-32.07842,-14.85911,1.36265,-9.49414,-6.80977,6.72977
2351,3.69913,0.0,-0.0,-0.13774,0.0,-0.0,8.12918,-1.31332,13.94695,26.90512,0.23229,-24.82423,-95.7636,4.7907,0.00208,-39.03783,-2.7114,-2e-05,70.84512,22.20769,14.6942,2.44069,-16.22898,-8.32159,49.90279,25.92005,-19.95428,64.52695,-18.30528,40.27207,135.77194,-0.00251,-81.96001,122.93211,0.00128,93.80947,-3.99193,-17.18411,-5e-05,-4.65473,8.63212,0.00323,-8.49483,-13.16886,7.05772,-32.00014,-14.8568,1.28922,-10.30599,-7.48136,6.55615
2352,5.12689,-0.0,0.0,-0.30445,0.0,-0.0,9.04629,-0.5381,15.08499,27.22777,0.06437,-25.35213,-95.97451,5.90694,0.01603,-39.30648,-2.76842,-0.00044,72.40186,22.8431,15.5986,1.59424,-17.15597,-7.91404,49.96496,25.99132,-20.1146,64.58057,-18.57146,40.23639,135.8777,-0.00483,-80.85188,123.08382,0.00324,93.08865,-4.41277,-16.5881,-0.01318,-4.77466,8.74245,0.00062,-8.48133,-13.20128,7.03034,-31.99031,-14.87589,1.25055,-11.05573,-8.16348,6.3461
2353,7.04848,0.0,0.0,-0.36824,0.0,0.0,9.72884,0.03262,15.89999,27.52458,-0.10959,-25.89997,-95.84519,6.97977,0.03226,-39.52547,-2.80333,-0.0006,74.00088,23.45048,16.37517,0.75722,-18.11017,-7.51634,49.98601,26.03791,-20.28598,64.64959,-18.86724,40.27786,135.99435,-0.00572,-79.5719,123.26713,0.0043,92.19954,-5.16782,-15.91068,-0.02444,-5.25919,8.90235,-0.00297,-8.51206,-13.23272,7.01878,-32.02449,-14.90024,1.2269,-11.75992,-8.83986,6.1149
2354,9.4444,0.0,0.0,-0.22277,0.0,-0.0,10.22435,0.39198,16.30173,27.76291,-0.26002,-26.42042,-95.3804,7.95469,0.04718,-39.71281,-2.81985,-0.00056,75.6021,24.05745,16.96616,-0.0576,-19.08333,-7.1278,50.01701,26.04602,-20.47811,64.7571,-19.15131,40.37223,136.09413,-0.00462,-78.33903,123.47876,0.00336,91.40772,-6.03111,-15.15531,-0.02685,-5.93641,9.14336,-0.00584,-8.53664,-13.26199,6.98674,-32.05244,-14.91463,1.18522,-12.45198,-9.50157,5.87408
2355,12.16147,0.0,-0.0,0.18956,0.0,-0.0,10.58767,0.56931,16.23332,27.90675,-0.35117,-26.84335,-94.58648,8.72403,0.05465,-39.8782,-2.82709,-0.0004,77.14706,24.70495,17.27207,-0.8545,-20.06121,-6.76832,50.10401,26.02038,-20.68708,64.91083,-19.37542,40.48655,136.14357,-0.00268,-77.4304,123.70103,0.00122,90.90595,-6.67227,-14.42022,-0.01942,-6.5837,9.44666,-0.00613,-8.49324,-13.29534,6.90142,-32.01326,-14.91208,1.09265,-13.16532,-10.14102,5.62887
2356,14.94051,0.0,0.0,0.82466,0.0,-0.0,10.86973,0.59509,15.70684,27.94345,-0.3536,-27.11616,-93.47239,9.14109,0.04772,-40.02066,-2.8357,-0.00023,78.59588,25.42891,17.16183,-1.63632,-21.02241,-6.4684,50.27609,25.9839,-20.90145,65.10469,-19.50675,40.59053,136.11823,-0.00159,-76.99187,123.91167,-0.00075,90.68414,-6.85097,-13.87337,-0.00968,-7.03237,9.74797,-0.00377,-8.33773,-13.34269,6.74718,-31.86387,-14.89559,0.93068,-13.90421,-10.74833,5.38038
2357,17.45845,0.0,-0.0,1.54125,0.0,0.0,11.12072,0.47832,14.81516,27.89767,-0.25832,-27.23413,-92.04639,9.05698,0.02249,-40.13466,-2.84892,-0.00012,79.94154,26.2405,16.51638,-2.3884,-21.9533,-6.24732,50.53186,25.9714,-21.10631,65.32816,-19.54028,40.66716,136.01575,-0.0017,-76.95043,124.09331,-0.00217,90.67979,-6.56386,-13.64886,-0.00497,-7.19114,9.99649,-0.00014,-8.06881,-13.40945,6.53613,-31.60325,-14.87482,0.70832,-14.63341,-11.3185,5.12506
2358,19.37573,-0.0,0.0,2.16994,0.0,0.0,11.39425,0.20921,13.72488,27.8179,-0.08613,-27.23307,-90.31136,8.37097,-0.01735,-40.21741,-2.86022,-8e-05,81.18486,27.11458,15.28971,-3.08868,-22.86851,-6.10737,50.83418,26.01848,-21.28542,65.57289,-19.49783,40.71938,135.86064,-0.00217,-77.09611,124.23625,-0.00306,90.92876,-6.03456,-13.76013,-0.00407,-7.0287,10.19575,0.00356,-7.73102,-13.49191,6.30977,-31.27515,-14.8625,0.46541,-15.30213,-11.86344,4.85302
2359,20.44691,0.0,0.0,2.59132,0.0,0.0,11.73151,-0.22276,12.65082,27.75297,0.12759,-27.15888,-88.26871,7.10438,-0.05813,-40.27079,-2.86601,-7e-05,82.30096,28.0014,13.57364,-3.73407,-23.80866,-6.047,51.12219,26.14644,-21.42396,65.83205,-19.41972,40.76789,135.69737,-0.00239,-77.23853,124.33705,-0.00323,91.51752,-5.5518,-14.09591,-0.00198,-6.57775,10.39202,0.00664,-7.39293,-13.58294,6.1234,-30.94718,-14.87355,0.25594,-15.88152,-12.41158,4.55579
2360,20.6599,0.0,-0.0,2.77297,0.0,-0.0,12.137,-0.79976,11.80994,27.73176,0.35147,-27.04508,-85.93036,5.44798,-0.08189,-40.29836,-2.87351,-6e-05,83.23043,28.85795,11.61638,-4.35602,-24.81347,-6.06391,51.33575,26.34894,-21.51457,66.09689,-19.35164,40.84018,135.57291,-0.00236,-77.32272,124.3946,-0.00243,92.42084,-5.27689,-14.48605,0.00215,-5.9509,10.62565,0.00805,-7.11495,-13.6818,6.01795,-30.67985,-14.92322,0.11784,-16.38388,-12.99213,4.24085
2361,20.33627,-0.0,-0.0,2.76975,0.0,-0.0,12.55819,-1.44092,11.3678,27.7484,0.55581,-26.9145,-83.32397,3.69623,-0.07905,-40.30375,-2.8848,-3e-05,83.90556,29.66858,9.73698,-5.00377,-25.89916,-6.13569,51.43858,26.58879,-21.56253,66.35666,-19.32914,40.95838,135.51697,-0.00185,-77.46362,124.40683,-0.00097,93.44219,-5.15902,-14.7935,0.0055,-5.32068,10.89101,0.00688,-6.92707,-13.79399,5.9991,-30.50398,-15.01873,0.05403,-16.84613,-13.61891,3.9327
2362,20.05028,-0.0,0.0,2.69945,0.0,0.0,12.89228,-1.99651,11.40025,27.76662,0.71886,-26.78516,-80.489,2.10001,-0.05511,-40.2911,-2.8882,0.0,84.29193,30.43839,8.17957,-5.70693,-27.05453,-6.22042,51.42936,26.80938,-21.58304,66.60477,-19.36741,41.13295,135.53242,-0.00025,-77.8914,124.37222,0.00043,94.35288,-5.01365,-14.98823,0.00592,-4.83849,11.14799,0.00371,-6.82774,-13.91868,6.04062,-30.41809,-15.14913,0.04062,-17.29269,-14.28354,3.65718
2363,20.32219,0.0,-0.0,2.69625,0.0,0.0,13.02931,-2.30217,11.8837,27.74678,0.85478,-26.66268,-77.47241,0.77026,-0.02505,-40.26537,-2.8794,4e-05,84.40903,31.18205,7.02813,-6.45064,-28.24842,-6.28724,51.33747,26.95699,-21.59061,66.84573,-19.46311,41.36423,135.60307,0.00253,-78.81081,124.29469,0.00135,95.05013,-4.68825,-15.1559,0.00273,-4.56045,11.35681,0.00029,-6.79861,-14.03793,6.10774,-30.40192,-15.28448,0.05301,-17.71225,-14.95937,3.43281
2364,21.33114,-0.0,0.0,2.858,0.0,0.0,12.88645,-2.26863,12.70972,27.67319,1.01861,-26.53724,-74.32195,-0.31166,-0.00254,-40.23106,-2.87665,7e-05,84.31178,31.92175,6.22882,-7.1859,-29.44235,-6.33343,51.20969,27.00278,-21.58942,67.09385,-19.60532,41.65024,135.71056,0.00541,-80.2405,124.18417,0.00183,95.57402,-4.16474,-15.42898,-0.00339,-4.47778,11.48445,-0.00179,-6.81925,-14.12004,6.18056,-30.43154,-15.388,0.08603,-18.06736,-15.61464,3.27446
2365,22.79322,0.0,0.0,3.20129,-0.0,0.0,12.41827,-1.9537,13.70944,27.56207,1.26922,-26.39332,-71.07806,-1.22069,0.00742,-40.18599,-2.90871,0.00011,84.05106,32.68151,5.66985,-7.87307,-30.60031,-6.3815,51.09655,26.95327,-21.57121,67.36404,-19.78614,41.99257,135.8439,0.00676,-81.94933,124.0519,0.00188,96.00426,-3.532,-15.89496,-0.00964,-4.61,11.49915,-0.00144,-6.87159,-14.13486,6.26113,-30.48544,-15.43287,0.15413,-18.32854,-16.2233,3.19204
2366,24.0575,0.0,0.0,3.64814,0.0,-0.0,11.60845,-1.56855,14.67755,27.45058,1.62371,-26.22711,-67.77259,-2.01731,0.00789,-40.11694,-2.9887,0.00018,83.65053,33.48164,5.25096,-8.51318,-31.69033,-6.45376,51.0395,26.84674,-21.5208,67.66213,-20.00262,42.39212,135.99641,0.00545,-83.5322,123.90787,0.00129,96.33938,-2.9106,-16.55136,-0.01237,-5.02842,11.39229,0.00146,-6.9383,-14.07032,6.36318,-30.54487,-15.41338,0.27502,-18.49725,-16.76729,3.1884
2367,24.43013,0.0,0.0,4.06659,0.0,-0.0,10.44388,-1.3934,15.39673,27.37607,2.03846,-26.05989,-64.43448,-2.7253,0.00464,-40.00684,-3.09544,0.00037,83.1118,34.34576,4.91167,-9.12993,-32.68678,-6.5265,51.05655,26.73811,-21.42537,67.98085,-20.25034,42.83924,136.1575,0.00207,-84.60269,123.76224,8e-05,96.48018,-2.41247,-17.32101,-0.01004,-5.78013,11.19712,0.0054,-7.00472,-13.94131,6.49415,-30.59675,-15.34603,0.44936,-18.5948,-17.2369,3.26907
2368,23.47075,0.0,-0.0,4.33561,0.0,0.0,8.91787,-1.63924,15.67087,27.35929,2.43753,-25.9208,-61.10222,-3.34704,0.00216,-39.84445,-3.19217,0.00065,82.43066,35.30552,4.63392,-9.7368,-33.57446,-6.53457,51.13066,26.67834,-21.28316,68.30343,-20.51716,43.30926,136.30829,-0.00126,-85.038,123.62629,-0.00113,96.33302,-2.11553,-18.08631,-0.00462,-6.80681,10.96469,0.00808,-7.06488,-13.78654,6.64309,-30.63939,-15.26204,0.65096,-18.63847,-17.62836,3.44878
2369,21.12812,-0.0,-0.0,4.39457,0.0,0.0,7.07226,-2.3396,15.36989,27.40022,2.76816,-25.81022,-57.83864,-3.87907,0.00271,-39.6244,-3.26988,0.00079,81.60967,36.38873,4.44275,-10.33352,-34.34815,-6.44171,51.21263,26.699,-21.10268,68.61152,-20.78304,43.76925,136.42401,-0.00294,-85.01892,123.51167,-0.0016,95.9094,-2.04193,-18.70767,0.00018,-7.94278,10.73402,0.00809,-7.12556,-13.6548,6.78367,-30.68499,-15.1959,0.83528,-18.63258,-17.93685,3.74086
2370,17.75946,-0.0,0.0,4.25601,0.0,0.0,5.03289,-3.33585,14.47441,27.4842,3.02822,-25.69344,-54.73695,-4.3182,0.00616,-39.34269,-3.3586,0.00054,80.66173,37.59919,4.39963,-10.9236,-35.01109,-6.28308,51.24376,26.80702,-20.8917,68.89264,-21.02714,44.19069,136.48222,-0.00324,-84.81232,123.42943,-0.00114,95.31932,-2.14928,-19.04973,0.00207,-8.97629,10.53452,0.00552,-7.20459,-13.58734,6.88775,-30.75605,-15.17448,0.95929,-18.57618,-18.15339,4.14045
2371,13.98791,-0.0,0.0,3.98199,0.0,0.0,3.00494,-4.36208,13.09643,27.5911,3.24726,-25.53605,-51.91183,-4.6692,0.01042,-38.99511,-3.49088,-1e-05,79.6123,38.90011,4.5639,-11.52739,-35.5713,-6.13249,51.18521,26.98461,-20.65244,69.14447,-21.24095,44.56068,136.47516,-0.00319,-84.65611,123.38935,-0.00025,94.70666,-2.32527,-19.04696,0.00199,-9.73045,10.3929,0.002,-7.325,-13.60343,6.93702,-30.87787,-15.20836,0.99812,-18.47288,-18.26531,4.61581
2372,10.45387,-0.0,0.0,3.65785,0.0,0.0,1.20405,-5.17752,11.45471,27.70072,3.45631,-25.33761,-49.47574,-4.95655,0.01283,-38.58031,-3.66467,-0.00052,78.5076,40.21564,4.93105,-12.17349,-36.03302,-6.04416,51.03514,27.19493,-20.38926,69.37655,-21.43982,44.88816,136.41919,-0.00316,-84.75449,123.39906,0.00025,94.20984,-2.42742,-18.76069,0.00214,-10.14244,10.32238,-0.00061,-7.50675,-13.69355,6.92595,-31.06952,-15.28667,0.95056,-18.33035,-18.25629,5.1166
2373,7.58266,-0.0,0.0,3.37023,0.0,-0.0,-0.24988,-5.66136,9.79913,27.79521,3.67833,-25.1178,-47.50634,-5.22392,0.01239,-38.10496,-3.85285,-0.00087,77.41266,41.45864,5.41099,-12.87377,-36.39315,-6.03909,50.82697,27.39689,-20.11695,69.60951,-21.66023,45.19988,136.35191,-0.00244,-85.1836,123.46272,-0.00031,93.93854,-2.3622,-18.36018,0.00257,-10.28366,10.31952,-0.00174,-7.75631,-13.82443,6.861,-31.33384,-15.38141,0.83634,-18.15298,-18.11269,5.59633
2374,5.46357,0.0,0.0,3.17493,0.0,-0.0,-1.39499,-5.81943,8.3193,27.86212,3.93254,-24.87325,-46.01601,-5.51436,0.00983,-37.5848,-4.04235,-0.00133,76.38448,42.56185,5.87811,-13.61017,-36.64909,-6.1395,50.61311,27.56191,-19.86199,69.86882,-21.93918,45.52654,136.31647,-0.00039,-85.88929,123.57858,-0.00187,93.95115,-2.11568,-18.03994,0.00171,-10.29739,10.38034,-0.00199,-8.05697,-13.95802,6.761,-31.64978,-15.465,0.6886,-17.94073,-17.83538,6.02768
2375,3.93383,-0.0,0.0,3.07856,0.0,-0.0,-2.39664,-5.73299,7.1035,27.89581,4.23308,-24.56787,-44.9349,-5.8519,0.00601,-37.04079,-4.24543,-0.00204,75.44359,43.48831,6.24036,-14.33983,-36.80949,-6.38342,50.441,27.68136,-19.65543,70.17262,-22.28989,45.88827,136.34146,0.00249,-86.79945,123.73605,-0.00348,94.22693,-1.7375,-17.92743,-0.0007,-10.3135,10.50569,-0.00204,-8.36801,-14.07417,6.6558,-31.97416,-15.53057,0.54328,-17.68879,-17.44609,6.39879
2376,2.76063,-0.0,-0.0,3.04757,0.0,-0.0,-3.43919,-5.5026,6.16712,27.89684,4.57974,-24.1688,-44.11774,-6.23333,0.0012,-36.49639,-4.47419,-0.00265,74.56312,44.22848,6.47851,-15.00563,-36.89954,-6.78497,50.32946,27.76272,-19.51711,70.51883,-22.69178,46.28637,136.42691,0.00475,-87.82622,123.91676,-0.00385,94.63108,-1.32179,-18.02587,-0.00295,-10.39985,10.68072,-0.00215,-8.63938,-14.17731,6.57741,-32.25732,-15.59463,0.42809,-17.38519,-16.98464,6.70745
2377,1.71624,0.0,0.0,3.02783,0.0,-0.0,-4.61432,-5.20788,5.50916,27.86971,4.94832,-23.68555,-43.37568,-6.62396,-0.00416,-35.97659,-4.71483,-0.00257,73.66689,44.79676,6.65044,-15.55597,-36.95613,-7.28349,50.25584,27.82039,-19.44175,70.87807,-23.09882,46.70483,136.54376,0.00521,-88.79207,124.10178,-0.00251,94.94763,-0.98307,-18.22073,-0.00394,-10.56971,10.87253,-0.00222,-8.83678,-14.2802,6.54798,-32.46633,-15.67746,0.35813,-17.01924,-16.50009,6.96544
2378,0.55537,-0.0,0.0,2.96917,0.0,-0.0,-5.89423,-4.89243,5.16301,27.82207,5.29785,-23.17787,-42.51961,-6.96394,-0.00864,-35.50406,-4.9266,-0.00164,72.65376,45.22311,6.85271,-15.96268,-37.01052,-7.74211,50.16303,27.86805,-19.40056,71.19891,-23.45649,47.11915,136.64658,0.00437,-89.45084,124.27808,-0.00022,94.98729,-0.83485,-18.34485,-0.00504,-10.80982,11.06032,-0.00208,-8.95755,-14.38228,6.57805,-32.59855,-15.78265,0.34335,-16.59075,-16.03403,7.20108
2379,-0.96677,0.0,0.0,2.84966,0.0,0.0,-7.20295,-4.57359,5.22063,27.76659,5.59778,-22.72487,-41.39434,-7.19206,-0.01029,-35.09316,-5.06513,-0.00025,71.44986,45.54073,7.15475,-16.2165,-37.06814,-8.00585,49.98567,27.91433,-19.3575,71.42663,-23.71714,47.50507,136.69145,0.0041,-89.63739,124.43509,0.00173,94.65199,-0.95845,-18.26481,-0.00845,-11.08511,11.23718,-0.00149,-9.02328,-14.46635,6.67834,-32.67359,-15.89862,0.40078,-16.1055,-15.60203,7.45058
2380,-2.99754,-0.0,-0.0,2.67882,0.0,0.0,-8.50934,-4.26197,5.79855,27.72018,5.84477,-22.37667,-39.89376,-7.27063,-0.0079,-34.74599,-5.11048,0.00093,70.0359,45.77725,7.55974,-16.31972,-37.10194,-7.9773,49.68044,27.95744,-19.28685,71.52583,-23.85187,47.84486,136.65129,0.00532,-89.38934,124.55838,0.00229,93.93488,-1.35898,-17.95185,-0.01351,-11.3461,11.38533,-0.00037,-9.05879,-14.51617,6.86688,-32.71418,-16.0175,0.55392,-15.57489,-15.18773,7.74379
2381,-5.47166,0.0,0.0,2.48095,0.0,0.0,-9.85721,-3.98222,6.94538,27.69638,6.04949,-22.12977,-37.96737,-7.1919,-0.00198,-34.45284,-5.07546,0.0015,68.43967,45.94978,8.00721,-16.29354,-37.0607,-7.65867,49.24198,27.97941,-19.18389,71.48939,-23.86025,48.13165,136.52464,0.00665,-88.91817,124.63359,0.0013,92.93212,-1.94986,-17.50992,-0.01651,-11.56844,11.47679,0.00103,-9.08153,-14.53403,7.15348,-32.73761,-16.14518,0.81093,-15.02483,-14.75057,8.09281
2382,-8.03209,-0.0,-0.0,2.28407,0.0,0.0,-11.30777,-3.78398,8.54659,27.69526,6.21519,-21.93928,-35.62522,-6.97178,0.00524,-34.19969,-4.99281,0.00145,66.72063,46.06519,8.39844,-16.17713,-36.88904,-7.14082,48.7014,27.94683,-19.06688,71.32913,-23.77551,48.36692,136.33609,0.00597,-88.53705,124.66128,-0.00034,91.84184,-2.56449,-17.141,-0.0155,-11.77729,11.49548,0.00235,-9.1091,-14.53751,7.51147,-32.76311,-16.2874,1.14004,-14.49163,-14.24311,8.49129
2383,-10.04725,0.0,0.0,2.115,0.0,-0.0,-12.84197,-3.71646,10.29231,27.70183,6.3374,-21.73848,-32.93207,-6.64137,0.01106,-33.97669,-4.90027,0.00098,64.94212,46.12123,8.64463,-16.01317,-36.5586,-6.56814,48.11848,27.8204,-18.97285,71.06103,-23.65672,48.55028,136.12541,0.00291,-88.59859,124.66769,-0.00167,90.88148,-2.99264,-17.04877,-0.01377,-12.00716,11.45837,0.00324,-9.16981,-14.5389,7.86799,-32.8207,-16.42713,1.46891,-14.00746,-13.63838,8.92114
2384,-10.81411,0.0,-0.0,1.99682,-0.0,-0.0,-14.30947,-3.76334,11.75001,27.6945,6.41664,-21.45814,-29.98662,-6.23796,0.01406,-33.77922,-4.82622,0.00041,63.14532,46.10016,8.70772,-15.83841,-36.08667,-6.09655,47.57394,27.56758,-18.951,70.69858,-23.56279,48.67217,135.92775,-0.00056,-89.33909,124.69537,-0.00281,90.21579,-3.06963,-17.31542,-0.01514,-12.23757,11.41778,0.00339,-9.3019,-14.52921,8.12858,-32.94871,-16.51944,1.71391,-13.59344,-12.94824,9.35486
2385,-9.93525,0.0,-0.0,1.95473,0.0,-0.0,-15.47783,-3.79262,12.52945,27.65361,6.46341,-21.05578,-26.89685,-5.79465,0.01525,-33.60295,-4.7749,-2e-05,61.35531,45.96624,8.59708,-15.67979,-35.5206,-5.84086,47.15441,27.17427,-19.05085,70.25524,-23.51922,48.71987,135.7571,-0.00215,-90.68625,124.77521,-0.00427,89.955,-2.77099,-17.831,-0.01735,-12.39095,11.41997,0.00284,-9.54174,-14.48166,8.22053,-33.18175,-16.51158,1.81886,-13.26064,-12.21479,9.75465
2386,-7.64882,-0.0,0.0,2.01352,0.0,0.0,-16.15224,-3.59952,12.45404,27.56614,6.50007,-20.53036,-23.76496,-5.32575,0.01745,-33.44017,-4.73152,-0.00021,59.59947,45.68277,8.35311,-15.55012,-34.90734,-5.84193,46.92399,26.65353,-19.30458,69.74945,-23.50237,48.69143,135.60646,-0.00124,-92.27953,124.90196,-0.00567,90.07763,-2.21686,-18.36146,-0.01542,-12.4111,11.44385,0.0019,-9.90939,-14.37128,8.12556,-33.53755,-16.37359,1.77715,-13.01173,-11.48822,10.07926
2387,-4.84283,0.0,0.0,2.18015,0.0,-0.0,-16.28177,-3.0611,11.64838,27.42887,6.55639,-19.91435,-20.68738,-4.81889,0.02231,-33.28244,-4.6854,-0.00024,57.91281,45.24342,8.04017,-15.436,-34.27668,-6.06463,46.89018,26.04914,-19.71011,69.20559,-23.45886,48.60147,135.46808,0.00135,-93.73045,125.03264,-0.00635,90.33016,-1.58495,-18.72196,-0.00933,-12.32867,11.3965,0.00119,-10.39768,-14.19552,7.88516,-34.00821,-16.1192,1.62816,-12.83377,-10.81126,10.30289
2388,-2.67087,0.0,0.0,2.4374,0.0,0.0,-15.99329,-2.29887,10.50967,27.25014,6.63966,-19.27753,-17.76569,-4.25369,0.02727,-33.12769,-4.63378,-0.00018,56.34121,44.69622,7.71524,-15.2867,-33.63824,-6.39395,46.98539,25.43347,-20.22161,68.64852,-23.3513,48.47123,135.35884,0.0038,-94.80987,125.10824,-0.00706,90.3348,-1.03298,-18.8847,-0.00291,-12.23942,11.17209,0.00189,-10.96875,-13.9809,7.58251,-34.55797,-15.80502,1.43775,-12.6841,-10.20969,10.43206
2389,-1.95642,-0.0,-0.0,2.75106,-0.0,0.0,-15.55122,-1.6871,9.56869,27.04887,6.70945,-18.72905,-15.11115,-3.64161,0.0267,-32.98177,-4.56873,-9e-05,54.93376,44.13992,7.38412,-15.03354,-32.98525,-6.65543,47.08475,24.89606,-20.75149,68.09727,-23.19543,48.3143,135.32561,0.00318,-95.37276,125.08645,-0.0088,89.85535,-0.6836,-18.93738,0.00155,-12.24171,10.71177,0.00471,-11.55972,-13.77046,7.31397,-35.12792,-15.50786,1.27703,-12.49547,-9.68699,10.50204
2390,-2.78558,0.0,0.0,3.06308,0.0,-0.0,-15.25093,-1.65987,9.2767,26.85161,6.71059,-18.36716,-12.82778,-3.05479,0.01702,-32.85103,-4.48622,-3e-05,53.71188,43.69002,7.01168,-14.6356,-32.30599,-6.70745,47.05733,24.51924,-21.18614,67.56257,-23.05559,48.13297,135.42221,-0.00343,-95.2414,124.97018,-0.01028,88.9727,-0.61726,-18.99154,0.00441,-12.386,10.05046,0.00827,-12.09604,-13.6002,7.15969,-35.64683,-15.29188,1.20509,-12.20937,-9.22842,10.55375
2391,-4.56404,-0.0,-0.0,3.28508,0.0,-0.0,-15.27961,-2.44571,9.80626,26.68562,6.62839,-18.21415,-10.98627,-2.61693,0.0007,-32.73405,-4.40426,-6e-05,52.64897,43.43198,6.58653,-14.10904,-31.5965,-6.53418,46.81993,24.34883,-21.41648,67.04716,-22.99909,47.9259,135.6745,-0.01522,-94.3047,124.81158,-0.00937,88.03403,-0.83906,-19.12052,0.00641,-12.64137,9.32101,0.00965,-12.50892,-13.47993,7.15976,-36.04663,-15.18165,1.25495,-11.80905,-8.81089,10.60857
2392,-6.42951,0.0,0.0,3.32705,0.0,-0.0,-15.63833,-3.91172,10.97982,26.56807,6.48964,-18.215,-9.61541,-2.45261,-0.01473,-32.62215,-4.34925,-0.00014,51.68462,43.38245,6.16944,-13.52169,-30.86717,-6.23548,46.36503,24.3769,-21.3788,66.54508,-23.04733,47.69794,136.05725,-0.02581,-92.68483,124.68233,-0.00672,87.44678,-1.27004,-19.3238,0.00708,-12.8979,8.67791,0.00753,-12.75489,-13.38912,7.30238,-36.28142,-15.15377,1.42429,-11.32915,-8.41414,10.65736
2393,-7.73825,-0.0,0.0,3.14623,0.0,0.0,-16.17234,-5.62636,12.39229,26.49868,6.31715,-18.29218,-8.71976,-2.61928,-0.02206,-32.50764,-4.32464,-0.00014,50.7536,43.47663,5.87399,-12.96507,-30.14387,-5.93576,45.75794,24.54812,-21.08755,66.04365,-23.16425,47.46063,136.49951,-0.02827,-90.70025,124.63331,-0.00495,87.46602,-1.78666,-19.5389,0.00575,-13.0191,8.21373,0.00363,-12.83224,-13.2887,7.53021,-36.34545,-15.15017,1.67639,-10.84117,-8.03384,10.67042
2394,-8.36759,0.0,0.0,2.77684,-0.0,0.0,-16.64728,-7.11177,13.67392,26.46296,6.10622,-18.39381,-8.30769,-3.06683,-0.01932,-32.392,-4.30502,-1e-05,49.81939,43.59572,5.78645,-12.50962,-29.45933,-5.70291,45.11074,24.78534,-20.63822,65.53399,-23.28902,47.22292,136.91658,-0.02146,-88.6851,124.67304,-0.00493,88.07502,-2.27515,-19.69918,0.00304,-12.91949,7.93763,0.00044,-12.78413,-13.14307,7.7632,-36.27867,-15.10708,1.95202,-10.41632,-7.68711,10.62513
2395,-8.63024,0.0,-0.0,2.30967,-0.0,-0.0,-16.81878,-8.0929,14.7071,26.44337,5.8474,-18.49831,-8.40522,-3.65858,-0.01075,-32.28502,-4.26506,0.00017,48.89826,43.62524,5.89098,-12.1699,-28.83379,-5.53417,44.54384,25.01801,-20.17445,65.02575,-23.38301,46.98444,137.24422,-0.00993,-86.87759,124.77453,-0.0051,89.0241,-2.67445,-19.77924,0.00039,-12.60917,7.79602,-0.0011,-12.68055,-12.94101,7.92675,-36.15107,-14.98524,2.18672,-10.09101,-7.39938,10.52936
2396,-8.87463,0.0,-0.0,1.83229,0.0,-0.0,-16.50918,-8.55313,15.62514,26.42735,5.55598,-18.58974,-9.04278,-4.24176,-0.00295,-32.19275,-4.21057,0.00025,48.04277,43.50296,6.07351,-11.92424,-28.25844,-5.40223,44.14859,25.19905,-19.83405,64.55213,-23.45142,46.74136,137.45303,0.00044,-85.44126,124.8994,-0.0041,89.99891,-2.98552,-19.79688,-0.00127,-12.17516,7.71974,-0.00134,-12.58718,-12.70261,7.97495,-36.03171,-14.78525,2.32953,-9.87304,-7.181,10.41305
2397,-9.16147,0.0,-0.0,1.39548,0.0,-0.0,-15.66894,-8.62319,16.62796,26.40442,5.28002,-18.64148,-10.2277,-4.7177,0.00029,-32.1078,-4.17915,0.00011,47.30569,43.2235,6.20419,-11.75402,-27.70058,-5.30655,43.96305,25.30971,-19.69921,64.15637,-23.52314,46.50182,137.54385,0.0058,-84.5276,125.0184,-0.00214,90.75722,-3.23832,-19.79101,-0.00185,-11.74184,7.66738,-0.00077,-12.54019,-12.46573,7.90324,-35.96124,-14.54007,2.36052,-9.76211,-7.01618,10.29385
2398,-9.27011,-0.0,0.0,1.02616,0.0,0.0,-14.37735,-8.45766,17.79808,26.35949,5.09083,-18.62177,-11.92359,-5.06926,0.0003,-32.01446,-4.21535,-0.00026,46.72396,42.80936,6.22588,-11.64226,-27.13232,-5.28935,43.96782,25.35669,-19.77293,63.8672,-23.61141,46.29445,137.5363,0.0054,-84.26583,125.11519,-0.00018,91.16269,-3.4512,-19.80246,-0.00167,-11.43576,7.62096,0.00012,-12.54085,-12.26237,7.74538,-35.9437,-14.29219,2.29784,-9.74247,-6.87587,10.1541
2399,-8.93519,-0.0,-0.0,0.74273,0.0,-0.0,-12.79132,-8.17844,19.04607,26.27237,5.05129,-18.51242,-14.04891,-5.33994,0.00096,-31.90027,-4.34227,-0.00076,46.31295,42.28389,6.17397,-11.55643,-26.55403,-5.40799,44.102,25.36354,-19.99111,63.68333,-23.69451,46.15689,137.4601,0.00143,-84.66899,125.18162,0.00094,91.20493,-3.6249,-19.86326,-0.00106,-11.33679,7.57349,0.00095,-12.56823,-12.10331,7.55237,-35.95815,-14.07129,2.1844,-9.7736,-6.73845,9.95238
2400,-8.07203,0.0,0.0,0.55496,-0.0,0.0,-11.08044,-7.8688,20.18184,26.12545,5.16912,-18.32847,-16.49734,-5.59143,0.00467,-31.76229,-4.54251,-0.00114,46.06331,41.66962,6.12112,-11.45145,-25.98693,-5.67792,44.29046,25.35834,-20.26152,63.57983,-23.73507,46.11042,137.35002,-0.00264,-85.54241,125.21734,0.0011,91.01525,-3.77051,-19.98849,-0.00021,-11.42806,7.55053,0.00157,-12.59677,-11.9795,7.36591,-35.97723,-13.88527,2.06255,-9.80344,-6.59594,9.6585
2401,-6.80872,-0.0,-0.0,0.45897,0.0,0.0,-9.38942,-7.57276,21.01262,25.91481,5.37839,-18.11633,-19.1695,-5.86634,0.01014,-31.60571,-4.76129,-0.00116,45.95519,40.99848,6.11429,-11.2825,-25.44739,-6.0419,44.47031,25.36258,-20.50578,63.52649,-23.71772,46.14015,137.24132,-0.00456,-86.48935,125.23248,0.00071,90.81592,-3.93619,-20.16892,0.00069,-11.59261,7.62676,0.00234,-12.60619,-11.87406,7.20549,-35.97862,-13.72621,1.95728,-9.78417,-6.44624,9.27976
2402,-5.34986,0.0,0.0,0.43311,0.0,0.0,-7.83922,-7.28612,21.39184,25.65623,5.57637,-17.92333,-21.99529,-6.16682,0.01347,-31.4376,-4.93551,-0.00082,45.97997,40.31033,6.16342,-11.01711,-24.92931,-6.40657,44.60962,25.38673,-20.68382,63.50156,-23.67062,46.19688,137.1606,-0.00451,-87.05472,125.24689,0.0002,90.80138,-4.2011,-20.3669,0.00118,-11.68755,7.89421,0.00415,-12.58246,-11.77483,7.07286,-35.9471,-13.58363,1.87515,-9.68006,-6.2837,8.85772
2403,-3.86204,0.0,0.0,0.44026,0.0,-0.0,-6.53092,-6.95947,21.24286,25.37889,5.68339,-17.76771,-24.93058,-6.45614,0.0115,-31.26076,-5.02678,-0.00032,46.13873,39.6404,6.26669,-10.64901,-24.40545,-6.70496,44.71249,25.42843,-20.79749,63.4944,-23.65385,46.22021,137.11436,-0.00376,-86.95172,125.28127,-0.0002,90.99557,-4.62958,-20.52202,0.00046,-11.64002,8.38742,0.00691,-12.51821,-11.68015,6.95857,-35.87529,-13.45234,1.8081,-9.47866,-6.09459,8.4468
2404,-2.47194,0.0,0.0,0.44001,0.0,0.0,-5.52405,-6.52799,20.59935,25.11145,5.67835,-17.63576,-27.93372,-6.68681,0.00474,-31.07211,-5.0333,8e-05,46.4163,39.00961,6.42251,-10.20292,-23.84387,-6.92104,44.8092,25.46889,-20.88121,63.49924,-23.72207,46.1698,137.08307,-0.00282,-86.22479,125.34222,-0.00031,91.21738,-5.20507,-20.57499,-0.0015,-11.47871,9.02391,0.0089,-12.41923,-11.59538,6.8406,-35.76977,-13.32871,1.7336,-9.19918,-5.85989,8.09559
2405,-1.29177,0.0,0.0,0.40538,-0.0,0.0,-4.8092,-5.95797,19.63106,24.8692,5.59524,-17.50217,-30.94558,-6.83579,-0.003,-30.86411,-4.97967,0.00025,46.76327,38.42153,6.61927,-9.7201,-23.22776,-7.07247,44.93629,25.47697,-20.98132,63.50873,-23.8875,46.04829,137.02864,-0.00182,-85.21137,125.41182,-0.0004,91.23119,-5.80021,-20.50363,-0.00324,-11.29665,9.62036,0.00899,-12.31255,-11.52409,6.68515,-35.65824,-13.2029,1.61897,-8.88142,-5.56422,7.83404
2406,-0.39169,0.0,0.0,0.33159,0.0,-0.0,-4.31081,-5.27969,18.59304,24.64729,5.49086,-17.35205,-33.89079,-6.91451,-0.00787,-30.6244,-4.89827,0.00023,47.10202,37.86225,6.83442,-9.24142,-22.56405,-7.18798,45.11542,25.42938,-21.12912,63.51435,-24.11098,45.9006,136.91591,-0.00149,-84.3189,125.45367,-0.00109,90.92941,-6.23937,-20.3449,-0.00339,-11.1945,9.97963,0.00824,-12.24391,-11.46246,6.46227,-35.58627,-13.05977,1.43813,-8.56389,-5.20403,7.66206
2407,0.24436,-0.0,0.0,0.2292,0.0,0.0,-3.92263,-4.58123,17.71656,24.42411,5.40428,-17.19117,-36.69463,-6.95232,-0.00835,-30.33811,-4.81189,0.0002,47.34843,37.30604,7.05134,-8.79842,-21.87699,-7.28992,45.34134,25.3321,-21.32174,63.51058,-24.32753,45.78558,136.7364,-0.00212,-83.78503,125.43607,-0.00235,90.38947,-6.41797,-20.18084,-0.00254,-11.22594,10.00002,0.00802,-12.25798,-11.40201,6.16815,-35.59752,-12.89005,1.19108,-8.26879,-4.78971,7.54797
2408,0.70792,0.0,0.0,0.10904,-0.0,-0.0,-3.54676,-3.9712,17.1317,24.17636,5.33714,-17.04279,-39.2984,-6.97967,-0.00529,-29.99799,-4.72348,0.00034,47.44097,36.72826,7.27043,-8.39804,-21.19627,-7.37516,45.58575,25.22076,-21.52388,63.49574,-24.48777,45.73527,136.51633,-0.00271,-83.57996,125.3571,-0.00313,89.82378,-6.36667,-20.09119,-0.0021,-11.34316,9.73804,0.0076,-12.37144,-11.33705,5.83289,-35.70758,-12.70019,0.90799,-7.99157,-4.34436,7.44863
2409,1.09822,-0.0,0.0,-0.02507,0.0,-0.0,-3.11387,-3.5377,16.85449,23.89402,5.26956,-16.92931,-41.66795,-7.01602,-0.0011,-29.6134,-4.62215,0.00066,47.36144,36.11608,7.5094,-8.01374,-20.54655,-7.4166,45.81335,25.13744,-21.69262,63.46929,-24.584,45.73215,136.30223,-0.0023,-83.48857,125.25019,-0.00282,89.47871,-6.21782,-20.10224,-0.00222,-11.40269,9.37262,0.006,-12.55858,-11.26816,5.50462,-35.89037,-12.50944,0.63308,-7.70276,-3.89977,7.33724
2410,1.45871,-0.0,0.0,-0.16866,0.0,-0.0,-2.58362,-3.32452,16.81024,23.58089,5.18772,-16.85159,-43.79799,-7.06014,0.00172,-29.20609,-4.50068,0.00096,47.12967,35.46916,7.79407,-7.60936,-19.93818,-7.39424,45.99683,25.10475,-21.80569,63.43122,-24.64273,45.72483,136.13666,-0.00135,-83.27905,125.16376,-0.00214,89.49288,-6.12667,-20.17363,-0.00217,-11.27624,9.09314,0.00449,-12.76027,-11.1991,5.22308,-36.08706,-12.33667,0.40144,-7.3747,-3.48628,7.21351
2411,1.76162,0.0,0.0,-0.30419,0.0,0.0,-1.93819,-3.3341,16.8767,23.24319,5.09398,-16.78499,-45.71006,-7.09206,0.002,-28.79767,-4.36803,0.00098,46.78315,34.79458,8.13931,-7.16906,-19.36375,-7.32257,46.12184,25.11871,-21.8653,63.38261,-24.69517,45.66487,136.04327,-0.00095,-82.83039,125.13106,-0.00182,89.78647,-6.20088,-20.24434,-0.00148,-10.95075,8.99055,0.00422,-12.91035,-11.13175,5.00502,-36.23181,-12.19011,0.22768,-7.00606,-3.12013,7.09303
2412,1.94181,-0.0,-0.0,-0.40335,0.0,0.0,-1.18381,-3.54602,16.93186,22.88015,4.99644,-16.69513,-47.44148,-7.08474,0.00018,-28.40116,-4.24765,0.00065,46.36378,34.10123,8.5337,-6.69913,-18.803,-7.24647,46.18496,25.16007,-21.87956,63.32513,-24.75231,45.53453,136.02711,-0.0014,-82.17336,125.15349,-0.00155,90.09241,-6.46352,-20.30114,1e-05,-10.51908,9.03056,0.00424,-12.96255,-11.06495,4.85152,-36.27851,-12.06915,0.11324,-6.61773,-2.79613,6.9897
2413,1.96174,-0.0,0.0,-0.4503,0.0,-0.0,-0.36406,-3.92475,16.89193,22.4872,4.88724,-16.56557,-49.03036,-7.02226,-0.00218,-28.0203,-4.15977,0.00018,45.91195,33.39568,8.92945,-6.21654,-18.23121,-7.20495,46.19318,25.20921,-21.84834,63.26252,-24.80257,45.35218,136.08066,-0.00199,-81.4537,125.20759,-0.00094,90.12523,-6.8543,-20.39651,0.00218,-10.11448,9.12016,0.00336,-12.90318,-10.9987,4.7666,-36.2136,-11.97532,0.0618,-6.23699,-2.4893,6.90266
2414,1.85639,-0.0,-0.0,-0.46041,-0.0,0.0,0.43136,-4.40837,16.72634,22.06709,4.73786,-16.41149,-50.50386,-6.91187,-0.00355,-27.65398,-4.10761,-0.00019,45.46513,32.68142,9.25241,-5.73541,-17.6262,-7.20062,46.1656,25.25467,-21.76727,63.20232,-24.82598,45.15585,136.1869,-0.00194,-80.83649,125.26612,-0.0003,89.78024,-7.25337,-20.58958,0.00384,-9.84303,9.1993,0.00171,-12.74739,-10.94097,4.76708,-36.05298,-11.92248,0.08558,-5.8834,-2.16693,6.8163
2415,1.71125,0.0,-0.0,-0.46757,0.0,0.0,1.07899,-4.90214,16.44278,21.63651,4.5262,-16.26222,-51.87217,-6.7745,-0.00341,-27.3024,-4.08415,-0.00036,45.05721,31.95783,9.44576,-5.25251,-16.97814,-7.21036,46.12917,25.2955,-21.63864,63.15313,-24.8091,44.97813,136.31981,-0.00117,-80.41792,125.31577,-9e-05,89.20277,-7.51797,-20.87294,0.00369,-9.74537,9.2764,-1e-05,-12.52758,-10.91028,4.87331,-35.8305,-11.93556,0.19591,-5.55702,-1.8081,6.71094
2416,1.5999,0.0,-0.0,-0.49727,0.0,-0.0,1.45245,-5.30466,16.06376,21.22205,4.25964,-16.13984,-53.12674,-6.63145,-0.00203,-26.9712,-4.0813,-0.00033,44.71,31.2166,9.50332,-4.74703,-16.29945,-7.21105,46.10495,25.34034,-21.47353,63.11796,-24.75184,44.83126,136.44841,-0.00023,-80.21066,125.36089,-0.0002,88.6414,-7.5346,-21.1684,0.00232,-9.80855,9.37921,-0.0012,-12.28223,-10.92698,5.0897,-35.58612,-12.03496,0.38863,-5.23933,-1.4179,6.5719
2417,1.53244,-0.0,0.0,-0.55465,-0.0,-0.0,1.45877,-5.55792,15.61105,20.84786,3.9714,-16.05357,-54.24652,-6.49849,-0.00021,-26.67089,-4.09155,-0.00017,44.42527,30.44708,9.46321,-4.19451,-15.61966,-7.18995,46.09493,25.40242,-21.28391,63.08936,-24.66526,44.70936,136.54781,0.00034,-80.17408,125.41428,-0.00032,88.24638,-7.27421,-21.39468,0.00146,-9.98893,9.48474,-0.00132,-12.04804,-10.99604,5.39273,-35.35672,-12.21609,0.64015,-4.90523,-1.02192,6.39256
2418,1.44116,0.0,0.0,-0.62852,0.0,0.0,1.0677,-5.67701,15.0953,20.52411,3.70788,-15.99952,-55.21199,-6.37413,0.00099,-26.41015,-4.11289,-1e-05,44.19078,29.64663,9.38943,-3.57855,-14.96629,-7.15078,46.08106,25.48981,-21.07595,63.05153,-24.56067,44.60169,136.61069,0.00035,-80.22835,125.48227,-0.00021,87.98394,-6.81576,-21.53024,0.00167,-10.22595,9.51607,-0.00032,-11.85375,-11.09577,5.73495,-35.1692,-12.4406,0.91549,-4.53137,-0.64705,6.17328
2419,1.22411,0.0,0.0,-0.69947,0.0,-0.0,0.31702,-5.72898,14.51806,20.24429,3.51621,-15.96294,-56.01585,-6.23212,0.00102,-26.18827,-4.15189,3e-05,43.99137,28.82046,9.35489,-2.89612,-14.35346,-7.11862,46.03826,25.59656,-20.85466,62.98846,-24.43821,44.50556,136.64902,-3e-05,-80.26535,125.55453,1e-05,87.6926,-6.32363,-21.61029,0.00211,-10.45907,9.40635,0.001,-11.71572,-11.18625,6.05911,-35.03679,-12.64958,1.17802,-4.09957,-0.30798,5.9186
2420,0.8326,0.0,-0.0,-0.74906,0.0,0.0,-0.7126,-5.78146,13.88668,19.99109,3.42887,-15.92721,-56.66405,-6.03752,0.00025,-25.99406,-4.21764,-8e-05,43.81232,27.97575,9.4167,-2.15946,-13.78269,-7.13128,45.95155,25.70282,-20.63304,62.89171,-24.28583,44.42727,136.68149,-0.00051,-80.17472,125.60777,-0.00012,87.25028,-5.99004,-21.67019,0.0018,-10.6351,9.16511,0.00158,-11.63683,-11.23343,6.31496,-34.95982,-12.79227,1.39513,-3.6028,-0.00525,5.63746
2421,0.32955,0.0,-0.0,-0.77148,0.0,0.0,-1.93475,-5.86636,13.21999,19.74603,3.45256,-15.88134,-57.17192,-5.77222,-0.00055,-25.81176,-4.31454,-0.0003,43.63848,27.12243,9.59273,-1.39366,-13.24408,-7.22043,45.82409,25.78681,-20.42918,62.76384,-24.09181,44.37126,136.7157,-0.0007,-79.86198,125.62237,-0.00064,86.68922,-5.95952,-21.69729,-0.00026,-10.71766,8.88747,0.00136,-11.60745,-11.22858,6.47539,-34.92837,-12.85011,1.54529,-3.05158,0.2722,5.34511
2422,-0.14236,0.0,-0.0,-0.78507,0.0,-0.0,-3.27556,-5.98111,12.53382,19.49837,3.56798,-15.81891,-57.55993,-5.44561,-0.00087,-25.62755,-4.43855,-0.00057,43.45668,26.2778,9.85664,-0.6289,-12.71638,-7.39837,45.67067,25.83788,-20.25159,62.61608,-23.86091,44.32898,136.74036,-9e-05,-79.26617,125.59935,-0.00111,86.14325,-6.27166,-21.63686,-0.00466,-10.71461,8.69531,0.00094,-11.60758,-11.18615,6.54659,-34.92389,-12.83879,1.62831,-2.4726,0.54353,5.06087
2423,-0.45606,0.0,-0.0,-0.82989,0.0,0.0,-4.66319,-6.11322,11.82438,19.24855,3.73681,-15.73168,-57.84843,-5.08777,-0.00061,-25.43281,-4.575,-0.00076,43.2571,25.46498,10.15458,0.10812,-12.17521,-7.65841,45.5039,25.85776,-20.08967,62.46212,-23.61983,44.27882,136.73332,0.00139,-78.39925,125.56162,-0.00121,85.74905,-6.84882,-21.43957,-0.00998,-10.68422,8.66639,0.00054,-11.61309,-11.12478,6.56279,-34.92369,-12.78872,1.66819,-1.8993,0.82994,4.80187
2424,-0.57684,0.0,-0.0,-0.93933,0.0,0.0,-6.01015,-6.25842,11.07041,19.00329,3.91159,-15.60782,-58.05068,-4.7373,4e-05,-25.22489,-4.6995,-0.00077,43.02838,24.70393,10.43014,0.79728,-11.60706,-7.98336,45.32647,25.85111,-19.92077,62.31184,-23.40629,44.19845,136.67868,0.00287,-77.39153,125.53743,-0.00111,85.61201,-7.52079,-21.10055,-0.01262,-10.70024,8.80757,-9e-05,-11.6052,-11.05148,6.56304,-34.90923,-12.7215,1.69815,-1.36298,1.14701,4.57755
2425,-0.56441,0.0,-0.0,-1.10136,-0.0,0.0,-7.21794,-6.41438,10.25335,18.76682,4.05467,-15.43834,-58.16752,-4.43089,0.00076,-25.00648,-4.78667,-0.00058,42.75413,24.00321,10.64338,1.42519,-11.01634,-8.35376,45.13595,25.81625,-19.72935,62.16853,-23.25037,44.08049,136.57974,0.00313,-76.49033,125.54057,-0.00102,85.77636,-8.07216,-20.65518,-0.00961,-10.81484,9.05717,-0.00076,-11.57492,-10.96289,6.5641,-34.87105,-12.64055,1.73504,-0.88693,1.49974,4.38871
2426,-0.51214,0.0,-0.0,-1.24786,-0.0,0.0,-8.20717,-6.56289,9.37755,18.53565,4.15959,-15.22844,-58.18797,-4.19424,0.00117,-24.78316,-4.82112,-0.00026,42.41747,23.35893,10.7818,1.98679,-10.42075,-8.74855,44.93451,25.74361,-19.52362,62.02944,-23.16112,43.9344,136.46178,0.00202,-75.96414,125.56499,-0.0009,86.179,-8.30608,-20.14457,-0.00125,-11.03398,9.30565,-0.00068,-11.51979,-10.85863,6.551,-34.80687,-12.5397,1.76519,-0.48298,1.88085,4.23072
2427,-0.48282,-0.0,-0.0,-1.30381,-0.0,-0.0,-8.94642,-6.67198,8.47976,18.30245,4.24268,-15.01264,-58.09499,-4.04205,0.00093,-24.56115,-4.79659,0.00011,42.00497,22.76017,10.85345,2.48272,-9.84053,-9.12835,44.73358,25.62144,-19.33653,61.88682,-23.12632,43.77058,136.36304,0.00089,-75.95335,125.59672,-0.00066,86.66735,-8.12004,-19.59371,0.00871,-11.29492,9.45161,0.00039,-11.44002,-10.75149,6.4934,-34.71843,-12.41892,1.75533,-0.1549,2.27175,4.09807
2428,-0.49201,0.0,0.0,-1.26511,0.0,-0.0,-9.45674,-6.72091,7.62498,18.06605,4.30531,-14.85913,-57.87403,-3.98798,-7e-05,-24.34538,-4.70662,0.0005,41.5069,22.19673,10.8617,2.91222,-9.28681,-9.42171,44.55078,25.44294,-19.20885,61.72912,-23.12458,43.58425,136.31665,0.00087,-76.38418,125.629,-0.00036,87.0769,-7.55989,-19.02804,0.0151,-11.47184,9.45745,0.00169,-11.34025,-10.66467,6.37128,-34.6126,-12.29175,1.6776,0.09508,2.64868,3.98731
2429,-0.53342,0.0,-0.0,-1.20512,0.0,0.0,-9.79783,-6.70496,6.87544,17.8313,4.32447,-14.8301,-57.52188,-4.03424,-0.00131,-24.13502,-4.55279,0.00075,40.92344,21.66396,10.80391,3.27322,-8.75472,-9.56505,44.40096,25.21156,-19.16285,61.54365,-23.13963,43.35748,136.33269,0.0015,-76.99835,125.66569,-0.00016,87.31172,-6.80423,-18.50421,0.01463,-11.42549,9.36057,0.00261,-11.23245,-10.61898,6.18849,-34.50292,-12.1788,1.52721,0.26942,2.99372,3.89529
2430,-0.60629,0.0,-0.0,-1.19388,0.0,0.0,-10.0505,-6.60944,6.24543,17.59653,4.28903,-14.92048,-57.04998,-4.14173,-0.00187,-23.91965,-4.36765,0.00069,40.27406,21.16015,10.70365,3.57187,-8.2272,-9.57347,44.28613,24.94552,-19.18465,61.31889,-23.1654,43.07822,136.39215,0.00169,-77.42746,125.7121,-0.00017,87.3915,-6.10229,-18.10358,0.00879,-11.07112,9.24028,0.00357,-11.13288,-10.62053,5.97044,-34.40563,-12.09555,1.32521,0.38578,3.30193,3.81434
2431,-0.73003,-0.0,0.0,-1.25605,0.0,0.0,-10.29411,-6.41176,5.69987,17.35453,4.21664,-15.06293,-56.47666,-4.24048,-0.0014,-23.68492,-4.20789,0.00032,39.59203,20.67885,10.61,3.82678,-7.68944,-9.53454,44.19176,24.6785,-19.23036,61.04554,-23.2013,42.75964,136.4568,0.00157,-77.30653,125.76374,-0.00031,87.43462,-5.6964,-17.88776,0.0029,-10.44404,9.15623,0.00468,-11.05299,-10.65771,5.75625,-34.3307,-12.04652,1.11243,0.47636,3.57718,3.73188
2432,-0.94968,0.0,0.0,-1.41337,0.0,-0.0,-10.58082,-6.12539,5.20534,17.11191,4.12214,-15.20487,-55.81239,-4.28785,-0.00072,-23.42537,-4.11061,-0.00015,38.90079,20.20603,10.5497,4.06057,-7.14397,-9.51453,44.09315,24.45006,-19.25277,60.71827,-23.24533,42.44124,136.48816,0.00223,-76.50866,125.80305,-0.00026,87.58231,-5.71073,-17.86967,0.00099,-9.72098,9.09044,0.00509,-10.99128,-10.70823,5.58965,-34.27443,-12.02823,0.93826,0.5709,3.82005,3.63957
2433,-1.32173,0.0,-0.0,-1.70536,-0.0,0.0,-10.92159,-5.81515,4.76252,16.8915,3.9922,-15.35399,-55.05241,-4.29916,-0.00093,-23.14913,-4.06691,-0.00038,38.19822,19.72837,10.50478,4.28886,-6.61111,-9.50326,43.96669,24.2905,-19.23017,60.33926,-23.28998,42.16671,136.4651,0.00349,-75.30053,125.80846,0.00036,87.92271,-6.08436,-18.00863,0.00209,-9.14481,8.95869,0.00493,-10.93369,-10.75019,5.50446,-34.22091,-12.03368,0.84268,0.68138,4.02233,3.54162
2434,-1.87673,-0.0,-0.0,-2.13406,-0.0,0.0,-11.29146,-5.55345,4.38329,16.70521,3.8023,-15.53916,-54.18506,-4.31304,-0.00207,-22.86882,-4.04534,-0.00033,37.46741,19.24518,10.44651,4.5175,-6.11111,-9.46324,43.7985,24.21172,-19.17668,59.91946,-23.32147,41.95749,136.39104,0.00383,-74.16427,125.76934,0.0015,88.48463,-6.6375,-18.21026,0.00258,-8.90036,8.70487,0.00543,-10.86353,-10.77013,5.5066,-34.15241,-12.05283,0.8366,0.80292,4.17531,3.45011
2435,-2.58581,0.0,0.0,-2.61335,0.0,-0.0,-11.64709,-5.37731,4.06546,16.5336,3.54833,-15.75407,-53.2053,-4.34452,-0.00307,-22.59175,-4.03007,-0.00023,36.69825,18.76971,10.37538,4.74838,-5.64889,-9.39773,43.58685,24.20704,-19.12583,59.4729,-23.32107,41.80447,136.28706,0.00263,-73.48688,125.69539,0.00252,89.2744,-7.18093,-18.35693,0.00083,-9.0408,8.37919,0.00582,-10.77405,-10.76453,5.56616,-34.0621,-12.07081,0.89382,0.92593,4.27909,3.37485
2436,-3.35372,-0.0,-0.0,-2.99942,0.0,-0.0,-11.94413,-5.29324,3.80202,16.33914,3.25638,-15.95818,-52.12104,-4.37646,-0.00263,-22.31751,-4.02856,-0.00028,35.89722,18.31859,10.32241,4.98365,-5.21603,-9.3523,43.33868,24.25571,-19.09935,59.00805,-23.27003,41.67591,136.17671,0.00097,-73.36415,125.61196,0.00265,90.27679,-7.58355,-18.36297,-0.00176,-9.47249,8.12,0.00415,-10.6734,-10.73748,5.63089,-33.95874,-12.07111,0.96449,1.04605,4.34351,3.31821
2437,-4.03543,0.0,-0.0,-3.1719,-0.0,-0.0,-12.1476,-5.29649,3.59247,16.09492,2.9719,-16.10991,-50.95116,-4.3747,-0.00017,-22.04013,-4.05467,-0.00051,35.08347,17.90057,10.33174,5.22442,-4.80301,-9.37866,43.06306,24.33029,-19.08373,58.52377,-23.15903,41.52837,136.07341,4e-05,-73.57493,125.54668,0.00165,91.41915,-7.80618,-18.21089,-0.0034,-9.97482,8.06243,0.0016,-10.57809,-10.70016,5.65561,-33.86012,-12.04642,1.00239,1.16612,4.38381,3.27722
2438,-4.48572,0.0,0.0,-3.1025,-0.0,0.0,-12.2332,-5.37102,3.4425,15.80456,2.74225,-16.18532,-49.71711,-4.30997,0.0035,-21.75394,-4.11281,-0.00077,34.27699,17.51311,10.4451,5.47173,-4.41096,-9.50371,42.76545,24.40504,-19.03207,58.01405,-22.99593,41.31734,135.97879,-0.00015,-73.81127,125.51669,0.0001,92.55653,-7.87305,-17.96716,-0.00374,-10.27653,8.24924,0.00197,-10.50094,-10.67287,5.62538,-33.78087,-12.00962,0.98551,1.29202,4.41346,3.25281
2439,-4.63459,0.0,-0.0,-2.87297,-0.0,-0.0,-12.18249,-5.48724,3.36818,15.50218,2.59506,-16.18552,-48.43219,-4.18314,0.00651,-21.46072,-4.19051,-0.00083,33.48706,17.1466,10.67848,5.7295,-4.05348,-9.70796,42.44698,24.46209,-18.88784,57.47815,-22.80379,41.01141,135.88637,-0.00025,-73.96001,125.52224,-0.00105,93.51775,-7.79691,-17.75886,-0.00352,-10.17163,8.61302,0.00589,-10.44313,-10.68179,5.55562,-33.72427,-11.99072,0.91753,1.42605,4.43853,3.25634
2440,-4.51662,-0.0,0.0,-2.619,0.0,-0.0,-11.98529,-5.6098,3.39732,15.22947,2.52579,-16.13201,-47.09562,-4.0311,0.00719,-21.17054,-4.26295,-0.00061,32.70887,16.78967,11.00508,6.00358,-3.74731,-9.93364,42.10732,24.4953,-18.61293,56.92548,-22.60879,40.60776,135.78491,-0.00058,-74.0854,125.54764,-0.00138,94.19099,-7.56183,-17.6802,-0.00322,-9.61028,9.02321,0.00909,-10.39587,-10.74586,5.47269,-33.6829,-12.01736,0.81512,1.56246,4.45806,3.30357
2441,-4.22605,-0.0,-0.0,-2.44131,0.0,-0.0,-11.65144,-5.70907,3.55973,15.00626,2.50969,-16.0498,-45.69572,-3.90351,0.0052,-20.89391,-4.30821,-0.00022,31.93054,16.43303,11.36304,6.29719,-3.49917,-10.12551,41.74515,24.51032,-18.20462,56.36746,-22.42669,40.13928,135.66475,-0.00104,-74.2308,125.57073,-0.00116,94.57872,-7.18919,-17.70889,-0.00238,-8.72106,9.35174,0.0077,-10.35122,-10.86272,5.39364,-33.64854,-12.094,0.69494,1.68986,4.4694,3.40105
2442,-3.87127,0.0,0.0,-2.3702,-0.0,0.0,-11.2106,-5.77499,3.87783,14.8214,2.52555,-15.96468,-44.22142,-3.83571,0.00136,-20.63313,-4.31762,0.00015,31.14519,16.07301,11.67307,6.60608,-3.29623,-10.25818,41.35438,24.51903,-17.69402,55.80412,-22.25764,39.66369,135.52873,-0.00142,-74.35545,125.57697,-0.00085,94.7813,-6.78763,-17.73493,-0.00093,-7.75699,9.52634,0.00269,-10.3158,-11.00711,5.31773,-33.62574,-12.19712,0.56649,1.79859,4.47462,3.53566
2443,-3.55624,0.0,-0.0,-2.38978,-0.0,-0.0,-10.6941,-5.82451,4.36147,14.64715,2.57169,-15.90985,-42.67272,-3.83752,-0.00291,-20.38107,-4.29522,0.00038,30.35538,15.71234,11.85951,6.91576,-3.10971,-10.33109,40.92155,24.5314,-17.13028,55.21985,-22.09153,39.23959,135.39769,-0.00162,-74.43039,125.56601,-0.00064,94.93264,-6.50973,-17.65856,-0.00043,-6.99729,9.54217,-0.00208,-10.31604,-11.1445,5.22892,-33.63808,-12.2888,0.42895,1.88636,4.48002,3.67641
2444,-3.35524,0.0,-0.0,-2.46321,0.0,0.0,-10.11749,-5.88743,5.00036,14.45629,2.66839,-15.91455,-41.06192,-3.89569,-0.00638,-20.12654,-4.25514,0.00038,29.5669,15.35622,11.88038,7.20464,-2.91159,-10.35814,40.42934,24.55073,-16.56524,54.59504,-21.91824,38.90165,135.30266,-0.00133,-74.52803,125.54588,-0.00049,95.13969,-6.46798,-17.44544,-0.00241,-6.64333,9.44078,-0.0042,-10.38495,-11.24975,5.10549,-33.71639,-12.33749,0.27249,1.958,4.48834,3.79009
2445,-3.30063,-0.0,0.0,-2.54854,-0.0,0.0,-9.47304,-5.97767,5.76126,14.23119,2.8417,-15.99087,-39.40864,-3.98537,-0.00849,-19.86142,-4.21525,0.00022,28.78324,15.00996,11.74284,7.452,-2.68772,-10.35897,39.86479,24.57495,-16.04635,53.92531,-21.73625,38.64678,135.27028,0.00035,-74.81166,125.52122,-0.00028,95.45511,-6.70038,-17.11042,-0.00653,-6.74289,9.28111,-0.00413,-10.53384,-11.31733,4.9352,-33.87135,-12.3334,0.08812,2.02036,4.49636,3.85719
2446,-3.39585,-0.0,-0.0,-2.61344,-0.0,0.0,-8.73745,-6.07369,6.59493,13.96564,3.09566,-16.13799,-37.73385,-4.08213,-0.00916,-19.58451,-4.18533,0.0,28.00602,14.68038,11.49133,7.64341,-2.43733,-10.3475,39.2258,24.60052,-15.60606,53.23175,-21.55477,38.43962,135.312,0.00407,-75.45229,125.48614,0.00014,95.87649,-7.16857,-16.68673,-0.01043,-7.19218,9.1039,-0.00322,-10.72965,-11.35722,4.73013,-34.07059,-12.29037,-0.11701,2.07441,4.50247,3.87463
2447,-3.62188,-0.0,-0.0,-2.63849,-0.0,0.0,-7.89769,-6.12269,7.44228,13.66162,3.40319,-16.34375,-36.05407,-4.16294,-0.00824,-19.30079,-4.16303,-0.00013,27.23715,14.37418,11.19204,7.77437,-2.16822,-10.33095,38.52353,24.62503,-15.24518,52.55149,-21.38675,38.23589,135.42003,0.00907,-76.54666,125.42645,0.00076,96.36617,-7.75439,-16.22552,-0.0114,-7.83069,8.90842,-0.00157,-10.90039,-11.3805,4.52844,-34.24303,-12.23339,-0.31224,2.11175,4.51091,3.85081
2448,-3.95074,-0.0,-0.0,-2.62852,-0.0,0.0,-6.9717,-6.07232,8.2427,13.33067,3.72474,-16.58265,-34.37909,-4.20191,-0.00553,-19.02048,-4.14084,-0.00014,26.48371,14.09118,10.92015,7.85804,-1.89528,-10.31403,37.7832,24.64709,-14.92959,51.91641,-21.23804,38.00578,135.56644,0.01294,-78.10609,125.32882,0.00123,96.87138,-8.28621,-15.79674,-0.00883,-8.56329,8.66478,0.00152,-10.97013,-11.38548,4.37929,-34.31281,-12.18003,-0.45161,2.12323,4.52564,3.80418
2449,-4.36446,0.0,-0.0,-2.62467,-0.0,0.0,-6.00596,-5.91179,8.94709,12.99831,4.02543,-16.82599,-32.71533,-4.17116,-0.00117,-18.7569,-4.11139,-5e-05,25.76202,13.81885,10.73868,7.92588,-1.63867,-10.29724,37.04358,24.6649,-14.60812,51.33594,-21.10312,37.73881,135.70645,0.01284,-80.10062,125.19036,0.00115,97.31955,-8.5881,-15.4625,-0.00473,-9.39469,8.34746,0.00602,-10.8989,-11.35355,4.32145,-34.23866,-12.12825,-0.49193,2.1102,4.54317,3.76022
2450,-4.83762,0.0,0.0,-2.67556,0.0,-0.0,-5.0625,-5.68561,9.52465,12.69752,4.27164,-17.05556,-31.07057,-4.04723,0.004,-18.52061,-4.06747,0.0001,25.09243,13.53448,10.67598,8.00951,-1.41792,-10.27983,36.35098,24.67621,-14.23775,50.79184,-20.96948,37.43104,135.78986,0.00747,-82.47433,125.02409,0.00044,97.62671,-8.52581,-15.25186,-0.00165,-10.34343,7.95591,0.01022,-10.69931,-11.2578,4.36933,-34.03109,-12.05893,-0.40905,2.08383,4.5531,3.73852
2451,-5.31728,0.0,0.0,-2.79979,0.0,-0.0,-4.20192,-5.46717,9.96873,12.45637,4.42455,-17.27172,-29.45687,-3.82548,0.00828,-18.31582,-4.0035,0.00023,24.49085,13.21826,10.71539,8.12408,-1.24292,-10.26187,35.74652,24.6812,-13.80142,50.24511,-20.82529,37.07316,135.77734,-0.00146,-85.10832,124.85929,-0.00025,97.73579,-8.0625,-15.15272,-0.00033,-11.35021,7.51627,0.01159,-10.42211,-11.07915,4.51029,-33.73915,-11.94963,-0.20691,2.05762,4.54447,3.74274
2452,-5.73073,0.0,0.0,-2.97909,-0.0,0.0,-3.46727,-5.3153,10.29675,12.28972,4.45339,-17.48722,-27.89213,-3.53035,0.01017,-18.14305,-3.92227,0.00028,23.96601,12.86777,10.81088,8.27075,-1.10938,-10.24101,35.25124,24.68637,-13.30963,49.65527,-20.66463,36.65048,135.65186,-0.00961,-87.77789,124.73547,-0.0001,97.61172,-7.29537,-15.11533,0.00029,-12.28419,7.07665,0.00893,-10.12579,-10.81828,4.70896,-33.42123,-11.78723,0.0816,2.04319,4.50988,3.76541
2453,-5.9927,0.0,-0.0,-3.16465,-0.0,-0.0,-2.88363,-5.2461,10.53065,12.19368,4.36356,-17.70936,-26.40087,-3.20242,0.00939,-18.00006,-3.83857,0.0002,23.52179,12.49621,10.92086,8.44421,-1.00569,-10.21803,34.85945,24.70354,-12.79068,49.00311,-20.48794,36.15006,135.42145,-0.01285,-90.1892,124.68829,0.00131,97.20692,-6.41864,-15.09017,0.0008,-13.00816,6.69736,0.00353,-9.85047,-10.49534,4.91553,-33.11918,-11.57082,0.40236,2.04693,4.44356,3.79458
2454,-6.03504,0.0,0.0,-3.30165,0.0,-0.0,-2.46189,-5.2367,10.68354,12.14757,4.20908,-17.9346,-25.01264,-2.87688,0.00678,-17.87988,-3.77283,6e-05,23.16112,12.11895,11.0254,8.63533,-0.92381,-10.20357,34.54583,24.74091,-12.28411,48.30033,-20.2975,35.5693,135.11365,-0.01053,-92.12324,124.7324,0.00329,96.52282,-5.63449,-15.07724,0.00082,-13.42847,6.43702,-0.00179,-9.60806,-10.14091,5.07957,-32.84783,-11.3089,0.69642,2.06726,4.33949,3.81544
2455,-5.86219,0.0,0.0,-3.36627,0.0,0.0,-2.19241,-5.24782,10.7711,12.12546,4.06773,-18.15689,-23.75664,-2.57759,0.00343,-17.77315,-3.74102,-0.0001,22.88643,11.74523,11.11569,8.83437,-0.86361,-10.21306,34.27942,24.79278,-11.8342,47.58133,-20.09123,34.92401,134.76167,-0.00554,-93.5388,124.85043,0.00422,95.7075,-5.07929,-15.10954,0.00061,-13.52479,6.33753,-0.00457,-9.38999,-9.78692,5.16925,-32.6017,-11.01843,0.92145,2.0948,4.19247,3.81679
2456,-5.55732,-0.0,0.0,-3.3672,0.0,-0.0,-2.04714,-5.24166,10.81839,12.10489,3.9938,-18.37218,-22.65354,-2.32059,0.00029,-17.67444,-3.74738,-0.00021,22.6927,11.37549,11.17922,9.03129,-0.8334,-10.25812,34.03288,24.83894,-11.4713,46.88726,-19.85952,34.2495,134.39154,-0.00143,-94.54597,124.99522,0.00328,95.01745,-4.78702,-15.19292,0.00078,-13.34935,6.41392,-0.00418,-9.18518,-9.46109,5.18682,-32.37213,-10.72578,1.06836,2.1124,3.99896,3.79696
2457,-5.23874,-0.0,0.0,-3.32251,-0.0,0.0,-1.99313,-5.19268,10.84925,12.06865,3.98788,-18.57829,-21.70887,-2.11405,-0.00195,-17.58614,-3.78202,-0.00023,22.56303,11.00296,11.20003,9.21538,-0.84682,-10.34128,33.78293,24.85697,-11.19093,46.25241,-19.58792,33.59073,134.02022,3e-05,-95.32921,125.10733,0.00186,94.701,-4.69269,-15.2853,0.00125,-12.98043,6.64754,-0.00175,-8.99539,-9.18439,5.16567,-32.16213,-10.4632,1.15963,2.09748,3.75855,3.76156
2458,-5.02854,-0.0,0.0,-3.26135,-0.0,-0.0,-1.99661,-5.09741,10.87449,12.00808,4.00747,-18.77442,-20.91489,-1.95651,-0.003,-17.51759,-3.8268,-0.00017,22.47693,10.62409,11.17143,9.38156,-0.91177,-10.45444,33.50812,24.83871,-10.9511,45.6959,-19.26651,32.99038,133.66197,-0.00033,-96.04286,125.14116,0.00211,94.93715,-4.68673,-15.31726,0.00159,-12.47868,6.9847,0.00127,-8.83669,-8.96997,5.14627,-31.98817,-10.25851,1.22745,2.03197,3.4794,3.71908
2459,-5.0127,-0.0,0.0,-3.22483,0.0,0.0,-2.02577,-4.97284,10.88448,11.92462,4.00448,-18.95737,-20.25679,-1.83671,-0.00298,-17.47882,-3.86582,-7e-05,22.41898,10.24776,11.10734,9.53244,-1.02144,-10.586,33.19189,24.79504,-10.6946,45.21827,-18.90093,32.4816,133.33351,-0.0006,-96.71873,125.08832,0.00437,95.82545,-4.68544,-15.22829,0.00163,-11.88369,7.37146,0.00432,-8.72718,-8.82262,5.14789,-31.86824,-10.12366,1.28779,1.90928,3.18114,3.67853
2460,-5.1871,0.0,-0.0,-3.24123,-0.0,0.0,-2.06203,-4.84149,10.85675,11.82623,3.9566,-19.12056,-19.71414,-1.73877,-0.0023,-17.47464,-3.89036,-2e-05,22.37447,9.89277,11.03622,9.66979,-1.15734,-10.72439,32.82964,24.74382,-10.38227,44.80485,-18.51627,32.0835,133.05118,0.00031,-97.27812,124.98233,0.00637,97.35641,-4.66728,-15.0008,0.00112,-11.22731,7.80441,0.0074,-8.67196,-8.73822,5.15759,-31.80703,-10.04981,1.33044,1.73008,2.88888,3.65194
2461,-5.46351,0.0,0.0,-3.31775,0.0,-0.0,-2.10116,-4.72355,10.78531,11.7255,3.87186,-19.26471,-19.26148,-1.65241,-0.00146,-17.50557,-3.89556,-3e-05,22.3259,9.58018,10.97409,9.79133,-1.29718,-10.84665,32.43254,24.6946,-10.01078,44.43663,-18.14876,31.79772,132.82201,0.00226,-97.61373,124.8755,0.00575,99.31164,-4.65992,-14.66215,-0.00015,-10.55138,8.30571,0.00947,-8.65722,-8.70432,5.14214,-31.79007,-10.01264,1.3297,1.49733,2.62399,3.65779
2462,-5.72717,0.0,-0.0,-3.44446,-0.0,0.0,-2.14408,-4.64067,10.69649,11.63383,3.77141,-19.40161,-18.8736,-1.57714,-0.0008,-17.56981,-3.87838,-9e-05,22.26047,9.32663,10.90781,9.89667,-1.42005,-10.91903,32.02455,24.64334,-9.60418,44.1003,-17.82903,31.60833,132.63713,0.00455,-97.65778,124.80521,0.00287,101.22015,-4.6955,-14.25527,-0.00192,-9.93118,8.84129,0.00898,-8.65692,-8.70295,5.07213,-31.7903,-9.98419,1.26562,1.21684,2.39852,3.71554
2463,-5.90088,-0.0,0.0,-3.59103,0.0,0.0,-2.18818,-4.61541,10.63186,11.55093,3.67034,-19.54376,-18.53199,-1.5168,-0.00042,-17.66103,-3.8405,-0.00018,22.17943,9.13827,10.80645,9.99221,-1.51083,-10.92022,31.63283,24.5767,-9.1934,43.78747,-17.56763,31.48528,132.4734,0.00645,-97.43275,124.77735,2e-05,102.52156,-4.77308,-13.81281,-0.00345,-9.47864,9.30247,0.00666,-8.64509,-8.71437,4.94194,-31.78033,-9.94413,1.14091,0.8999,2.21346,3.83282
2464,-5.99012,0.0,-0.0,-3.71535,0.0,-0.0,-2.22088,-4.65837,10.62157,11.46496,3.57275,-19.69839,-18.22782,-1.47477,-0.00029,-17.76635,-3.79055,-0.00021,22.09953,9.00851,10.64178,10.09002,-1.56355,-10.85559,31.27466,24.47983,-8.79899,43.48672,-17.35411,31.38767,132.30438,0.0071,-97.08189,124.77483,-0.00164,102.80839,-4.85144,-13.35834,-0.00403,-9.30036,9.55577,0.00571,-8.60472,-8.72051,4.77375,-31.74162,-9.88446,0.98327,0.56421,2.06062,3.99942
2465,-6.05366,0.0,0.0,-3.77619,-0.0,-0.0,-2.22652,-4.75375,10.66347,11.36429,3.48273,-19.8632,-17.96045,-1.45112,-0.00028,-17.86973,-3.74407,-0.00016,22.04357,8.92124,10.40893,10.20149,-1.58169,-10.75473,30.94769,24.34337,-8.42308,43.17993,-17.16931,31.27025,132.11337,0.00566,-96.84198,124.77522,-0.00266,101.99726,-4.87304,-12.91854,-0.00349,-9.42761,9.50089,0.00804,-8.53023,-8.70805,4.60523,-31.66733,-9.80754,0.83278,0.22989,1.9272,4.1941
2466,-6.13998,-0.0,0.0,-3.75438,0.0,-0.0,-2.19731,-4.86765,10.7238,11.25288,3.41586,-20.02641,-17.73271,-1.43872,-0.00027,-17.95931,-3.71854,-5e-05,22.02996,8.85548,10.13494,10.33269,-1.57629,-10.65827,30.62982,24.16649,-8.05425,42.84921,-16.99762,31.09821,131.90068,0.00191,-96.98092,124.76214,-0.00366,100.39964,-4.79421,-12.5208,-0.00204,-9.76703,9.12435,0.01094,-8.42529,-8.67065,4.47143,-31.56058,-9.72118,0.72427,-0.08513,1.80066,4.3956
2467,-6.26414,0.0,-0.0,-3.68,-0.0,-0.0,-2.13305,-4.97476,10.76464,11.15655,3.39577,-20.1782,-17.54442,-1.42379,-0.00018,-18.03192,-3.72491,4e-05,22.06746,8.78946,9.86285,10.4849,-1.56235,-10.59824,30.28974,23.95571,-7.67804,42.48817,-16.82808,30.86279,131.68007,-0.00295,-97.70901,124.72551,-0.00432,98.60588,-4.58486,-12.17287,0.00041,-10.12191,8.51399,0.00987,-8.29717,-8.60834,4.39297,-31.42867,-9.6334,0.67674,-0.36672,1.67116,4.58851
2468,-6.3968,-0.0,0.0,-3.6158,0.0,-0.0,-2.04037,-5.06941,10.76812,11.1062,3.43796,-20.3149,-17.38631,-1.39306,-4e-05,-18.08964,-3.7636,8e-05,22.14967,8.70621,9.62987,10.65267,-1.55347,-10.58899,29.90113,23.72497,-7.28172,42.10556,-16.64678,30.58567,131.46696,-0.00673,-99.03986,124.65762,-0.00374,97.20944,-4.21391,-11.84219,0.00406,-10.28293,7.81633,0.0042,-8.15016,-8.52421,4.37422,-31.27615,-9.54876,0.69297,-0.60702,1.53199,4.76315
2469,-6.45271,0.0,-0.0,-3.59873,0.0,-0.0,-1.93478,-5.15002,10.73971,11.10892,3.53449,-20.43043,-17.23956,-1.34199,0.0001,-18.13298,-3.82517,6e-05,22.24969,8.59906,9.45819,10.81848,-1.55794,-10.63097,29.45175,23.49715,-6.85663,41.71635,-16.43123,30.3079,131.26793,-0.00806,-100.7404,124.55337,-0.00143,96.5735,-3.66324,-11.47594,0.00808,-10.12235,7.18327,-0.00184,-7.9841,-8.4226,4.40747,-31.10325,-9.46823,0.76409,-0.80821,1.37978,4.91461
2470,-6.32469,0.0,0.0,-3.60932,0.0,-0.0,-1.8351,-5.19798,10.69743,11.1395,3.65161,-20.50954,-17.08397,-1.27683,0.0002,-18.15955,-3.89233,-0.0,22.32964,8.47126,9.35524,10.95771,-1.57984,-10.71844,28.94299,23.30026,-6.40381,41.32874,-16.15491,30.06982,131.08051,-0.00709,-102.479,124.41397,0.00202,96.76125,-2.9637,-11.06449,0.01014,-9.6398,6.73004,-0.00387,-7.80078,-8.31063,4.47806,-30.91223,-9.39266,0.87376,-0.9775,1.21392,5.04293
2471,-5.98504,0.0,0.0,-3.61554,0.0,-0.0,-1.7462,-5.1802,10.66351,11.16657,3.74174,-20.54407,-16.90985,-1.21013,0.0002,-18.16827,-3.93958,-4e-05,22.3677,8.32914,9.30665,11.05654,-1.62336,-10.83825,28.38379,23.1559,-5.93799,40.94039,-15.80219,29.8925,130.90091,-0.00454,-103.98445,124.24707,0.00525,97.61108,-2.2141,-10.67427,0.00836,-8.9488,6.50064,-0.00166,-7.61054,-8.19976,4.56738,-30.71424,-9.32538,1.00026,-1.11331,1.03654,5.14962
2472,-5.54905,-0.0,0.0,-3.62917,-0.0,0.0,-1.64917,-5.0799,10.663,11.18279,3.76803,-20.56267,-16.72198,-1.15534,8e-05,-18.16145,-3.93497,0.0,22.37198,8.17629,9.27016,11.11955,-1.69476,-10.95716,27.78785,23.0666,-5.48597,40.54687,-15.38364,29.76916,130.72876,-0.0011,-105.05656,124.06329,0.00714,98.87519,-1.55884,-10.4059,0.004,-8.2104,6.46482,0.00172,-7.43122,-8.10402,4.65415,-30.52815,-9.27102,1.11838,-1.20454,0.8524,5.23459
2473,-5.18218,-0.0,0.0,-3.68061,-0.0,-0.0,-1.52232,-4.91792,10.70609,11.20141,3.73181,-20.61851,-16.53196,-1.11954,-6e-05,-18.14172,-3.85608,0.00011,22.36488,8.01269,9.20431,11.1592,-1.80074,-11.03269,27.1764,23.01243,-5.08135,40.15173,-14.93759,29.67157,130.56544,0.00241,-105.55051,123.8738,0.0073,100.32436,-1.13688,-10.32688,0.00069,-7.56207,6.55357,0.0035,-7.28107,-8.03611,4.71749,-30.37314,-9.23315,1.20381,-1.24779,0.66498,5.3
2474,-4.97123,-0.0,-0.0,-3.76685,-0.0,0.0,-1.36558,-4.74155,10.76724,11.23348,3.67777,-20.74226,-16.35017,-1.09719,-0.00011,-18.11087,-3.70843,0.00022,22.36509,7.83668,9.1071,11.18789,-1.94539,-11.04551,26.5779,22.96356,-4.75598,39.76753,-14.51301,29.56943,130.41328,0.00499,-105.44218,123.68918,0.00597,101.77629,-1.03822,-10.44246,0.0008,-7.09131,6.70128,0.00311,-7.17315,-8.00452,4.74381,-30.263,-9.21431,1.24066,-1.25735,0.47169,5.35281
2475,-4.91932,-0.0,-0.0,-3.8655,-0.0,-0.0,-1.19287,-4.60058,10.80333,11.28028,3.66714,-20.92678,-16.18301,-1.07439,-5e-05,-18.07467,-3.5227,0.00026,22.38303,7.64678,9.01074,11.21947,-2.12761,-11.00403,26.01812,22.89955,-4.52985,39.40831,-14.1453,29.45043,130.27705,0.00597,-104.86427,123.5177,0.00374,103.08185,-1.28948,-10.70351,0.0033,-6.84253,6.8668,0.00142,-7.11488,-8.01106,4.73499,-30.20522,-9.21691,1.22992,-1.25755,0.26358,5.40043
2476,-4.99199,-0.0,0.0,-3.96427,0.0,-0.0,-1.01816,-4.52434,10.78647,11.33573,3.74041,-21.13874,-16.03163,-1.03935,8e-05,-18.047,-3.33794,0.00019,22.42253,7.44302,8.94933,11.27094,-2.34013,-10.93271,25.50587,22.81889,-4.40335,39.08094,-13.84237,29.32719,130.16254,0.00545,-104.03913,123.36317,0.00131,104.11671,-1.85713,-11.01897,0.00476,-6.82342,7.02767,-0.00036,-7.1093,-8.04806,4.71281,-30.20218,-9.24232,1.19474,-1.26901,0.03079,5.44459
2477,-5.11322,0.0,-0.0,-4.04072,0.0,-0.0,-0.86291,-4.50631,10.70846,11.38015,3.89484,-21.31951,-15.89243,-0.98877,0.00022,-18.0447,-3.19062,0.0001,22.48427,7.23008,8.94163,11.35933,-2.56862,-10.87873,25.02802,22.73271,-4.3563,38.78177,-13.58892,29.22645,130.06947,0.00404,-103.19843,123.22472,-0.00083,104.78618,-2.66134,-11.27674,0.00273,-7.00062,7.16166,-0.00131,-7.1532,-8.09885,4.71359,-30.24933,-9.28935,1.17529,-1.29968,-0.22896,5.47899
2478,-5.16006,0.0,0.0,-4.03837,0.0,0.0,-0.76176,-4.51187,10.57517,11.37679,4.08622,-21.39218,-15.76057,-0.93136,0.00025,-18.0759,-3.10821,0.0001,22.56645,7.02319,8.9864,11.49369,-2.79109,-10.90968,24.55913,22.64963,-4.35249,38.49943,-13.36306,29.17001,129.98495,0.00213,-102.56995,123.09946,-0.0024,105.03836,-3.59414,-11.3963,-0.00161,-7.29443,7.23811,-0.0012,-7.23205,-8.14546,4.77011,-30.33072,-9.35417,1.20891,-1.34663,-0.50456,5.49563
2479,-5.01317,0.0,0.0,-3.8911,-0.0,0.0,-0.74806,-4.50325,10.41138,11.28927,4.25133,-21.29359,-15.63299,-0.88769,0.00014,-18.13495,-3.0999,0.00018,22.66237,6.84655,9.06064,11.66967,-2.98492,-11.07862,24.07609,22.56347,-4.34336,38.22154,-13.15142,29.16316,129.88567,-0.00037,-102.36863,122.98597,-0.00323,104.88587,-4.52745,-11.38364,-0.00469,-7.58966,7.23113,-0.00057,-7.31868,-8.17807,4.88917,-30.41842,-9.4304,1.30582,-1.40402,-0.77612,5.49449
2480,-4.63438,0.0,0.0,-3.57827,-0.0,0.0,-0.83187,-4.45859,10.26089,11.1118,4.34144,-21.02103,-15.50914,-0.88147,-9e-05,-18.20965,-3.14793,0.00025,22.75936,6.71895,9.12534,11.86983,-3.1404,-11.37919,23.56682,22.45417,-4.2739,37.94218,-12.95351,29.19728,129.74672,-0.00333,-102.68921,122.88501,-0.0033,104.41956,-5.33273,-11.3061,-0.00474,-7.77607,7.1412,-0.00019,-7.38299,-8.19627,5.04435,-30.48246,-9.5074,1.44181,-1.47016,-1.02792,5.48402
2481,-4.11497,0.0,0.0,-3.16777,0.0,-0.0,-0.98264,-4.37873,10.17547,10.88577,4.34829,-20.66616,-15.39163,-0.92877,-0.00031,-18.2924,-3.20833,0.00016,22.84031,6.6419,9.13844,12.06806,-3.26551,-11.71959,23.0338,22.30118,-4.10119,37.66488,-12.77669,29.25862,129.54813,-0.00564,-103.39617,122.79678,-0.00275,103.78996,-5.92615,-11.18892,-0.00304,-7.80562,6.99768,-0.00011,-7.40885,-8.20066,5.19393,-30.50706,-9.56952,1.57816,-1.55035,-1.25775,5.47727
2482,-3.63587,0.0,0.0,-2.79329,0.0,-0.0,-1.13543,-4.28614,10.18788,10.68246,4.30782,-20.37938,-15.28781,-1.02803,-0.00043,-18.38568,-3.23108,-8e-05,22.89169,6.60067,9.07916,12.24063,-3.37778,-11.9602,22.494,22.09801,-3.82096,37.39843,-12.62877,29.33378,129.28085,-0.00593,-104.2028,122.71726,-0.00185,103.16846,-6.29362,-10.97446,-0.00119,-7.72272,6.83607,0.00018,-7.40428,-8.18458,5.31098,-30.50011,-9.60018,1.69264,-1.65198,-1.47581,5.49013
2483,-3.3376,0.0,-0.0,-2.5541,0.0,-0.0,-1.23141,-4.21593,10.27075,10.55793,4.28142,-20.25829,-15.21072,-1.14944,-0.00037,-18.49841,-3.1939,-0.00036,22.91694,6.57103,8.97751,12.38011,-3.49414,-12.02387,21.97191,21.858,-3.47922,37.14884,-12.51263,29.41002,128.95456,-0.00385,-104.86874,122.63848,-0.00079,102.71596,-6.48038,-10.61072,6e-05,-7.62385,6.67899,0.00091,-7.39385,-8.13566,5.39926,-30.48539,-9.58945,1.79362,-1.77448,-1.69534,5.53384
2484,-3.23615,-0.0,-0.0,-2.4458,0.0,-0.0,-1.25125,-4.20203,10.33946,10.52096,4.32053,-20.2815,-15.17603,-1.24226,-0.00024,-18.63727,-3.11543,-0.00053,22.9396,6.53003,8.90303,12.49802,-3.62263,-11.95892,21.48593,21.61113,-3.15372,36.91323,-12.42391,29.47393,128.59811,-0.00053,-105.29556,122.55399,0.00036,102.55173,-6.57656,-10.14121,0.00025,-7.56495,6.54467,0.00185,-7.39764,-8.04663,5.48164,-30.48224,-9.53955,1.9051,-1.90569,-1.92136,5.60575
2485,-3.26734,0.0,-0.0,-2.39855,-0.0,-0.0,-1.20826,-4.26047,10.31793,10.54122,4.43598,-20.35898,-15.19494,-1.26679,-0.00022,-18.79947,-3.03326,-0.00047,22.98878,6.46833,8.90691,12.6129,-3.75731,-11.87735,21.03732,21.39527,-2.91438,36.68082,-12.3533,29.51458,128.24947,0.00223,-105.50614,122.46424,0.00142,102.72257,-6.6896,-9.6937,-0.0001,-7.51456,6.46332,0.00267,-7.41522,-7.92624,5.57411,-30.49066,-9.46468,2.03838,-2.02812,-2.14715,5.69127
2486,-3.35556,0.0,0.0,-2.34669,0.0,0.0,-1.12939,-4.37214,10.18632,10.57838,4.6006,-20.40977,-15.26714,-1.21827,-0.00033,-18.96999,-2.97814,-0.00024,23.08242,6.39229,8.98816,12.73652,-3.88272,-11.86766,20.60868,21.24359,-2.79031,36.43934,-12.29192,29.5329,127.94536,0.00328,-105.60876,122.37547,0.00213,103.20736,-6.88977,-9.42185,0.00053,-7.4175,6.46519,0.0032,-7.42814,-7.79965,5.67007,-30.49396,-9.38548,2.17731,-2.1258,-2.36194,5.77224
2487,-3.44052,0.0,0.0,-2.26562,-0.0,0.0,-1.04413,-4.4871,9.97433,10.6068,4.77675,-20.40048,-15.37868,-1.12221,-0.00042,-19.12652,-2.96328,2e-05,23.22091,6.31383,9.11241,12.86901,-3.98546,-11.95718,20.1718,21.17181,-2.76461,36.18096,-12.23536,29.5462,127.71509,0.0028,-105.7511,122.29377,0.0023,103.93639,-7.1718,-9.45414,0.00258,-7.28083,6.54918,0.00317,-7.41621,-7.69607,5.74663,-30.47417,-9.31989,2.28917,-2.18678,-2.56239,5.8346
2488,-3.48734,0.0,0.0,-2.17553,-0.0,-0.0,-0.97507,-4.55565,9.73425,10.62499,4.93861,-20.34442,-15.50706,-1.01376,-0.00036,-19.25075,-2.98354,0.00017,23.39114,6.2396,9.2464,13.00435,-4.06405,-12.11609,19.70111,21.17307,-2.79372,35.9041,-12.18397,29.57645,127.57068,0.00182,-106.0368,122.22231,0.00186,104.78006,-7.472,-9.835,0.00427,-7.15869,6.67984,0.00254,-7.37214,-7.63184,5.78364,-30.4254,-9.27515,2.34886,-2.20315,-2.7572,5.87576
2489,-3.47664,0.0,-0.0,-2.1066,0.0,0.0,-0.93454,-4.55521,9.50938,10.64595,5.0789,-20.26306,-15.63093,-0.91716,-0.00018,-19.33644,-3.02335,0.00017,23.57541,6.16732,9.37807,13.13588,-4.13044,-12.30156,19.18818,21.22179,-2.83208,35.61097,-12.14046,29.63389,127.49654,0.00115,-106.45374,122.16299,0.001,105.57522,-7.7182,-10.48294,0.0037,-7.08228,6.81487,0.00173,-7.30356,-7.60344,5.77809,-30.35509,-9.24686,2.355,-2.17371,-2.95948,5.90462
2490,-3.39212,0.0,-0.0,-2.05915,0.0,0.0,-0.92559,-4.49373,9.3169,10.68015,5.20391,-20.15431,-15.73826,-0.83814,2e-05,-19.38861,-3.06636,8e-05,23.75657,6.08966,9.50854,13.25425,-4.20249,-12.49995,18.64949,21.28315,-2.84591,35.30486,-12.10772,29.71402,127.45077,0.00115,-106.86411,122.11864,5e-05,106.2231,-7.87229,-11.21555,0.0012,-7.04166,6.92209,0.00116,-7.22338,-7.59604,5.74568,-30.27497,-9.22748,2.32799,-2.11011,-3.17328,5.93216
2491,-3.23483,-0.0,-0.0,-2.0063,0.0,-0.0,-0.93976,-4.39689,9.16062,10.72785,5.32312,-20.0022,-15.82835,-0.7723,0.00014,-19.41826,-3.09972,-4e-05,23.9194,6.00199,9.63092,13.34694,-4.29282,-12.72078,18.12,21.32528,-2.813,34.99129,-12.08847,29.80495,127.38237,0.00229,-107.04835,122.09328,-0.00073,106.71471,-7.94668,-11.82473,-0.00136,-6.99643,6.97762,0.00095,-7.13914,-7.59911,5.71261,-30.19144,-9.21747,2.29622,-2.03695,-3.3889,5.96549
2492,-3.04525,0.0,-0.0,-1.93101,0.0,0.0,-0.95416,-4.29715,9.05381,10.78518,5.43886,-19.80694,-15.90997,-0.71577,0.00016,-19.43881,-3.11314,-0.00016,24.05338,5.90648,9.72222,13.40491,-4.40285,-12.96146,17.63507,21.32927,-2.71915,34.68161,-12.08505,29.89302,127.25469,0.00459,-106.82781,122.08949,-0.00127,107.04774,-7.98691,-12.16494,-0.00277,-6.87885,6.96176,0.00097,-7.0519,-7.61483,5.70289,-30.10535,-9.22816,2.281,-1.98107,-3.59157,6.00945
2493,-2.89574,-0.0,0.0,-1.85045,0.0,-0.0,-0.93542,-4.22959,9.02293,10.85288,5.54025,-19.599,-15.99979,-0.66598,4e-05,-19.46232,-3.09701,-0.00025,24.15704,5.80942,9.75347,13.42745,-4.52486,-13.19036,17.21496,21.29215,-2.56353,34.39266,-12.09763,29.96508,127.06191,0.00673,-106.21719,122.1041,-0.00156,107.21218,-8.03244,-12.21939,-0.00304,-6.61472,6.87621,0.0012,-6.96324,-7.65249,5.72507,-30.01875,-9.27142,2.28654,-1.95933,-3.77316,6.06767
2494,-2.83773,0.0,-0.0,-1.79233,0.0,-0.0,-0.85646,-4.21578,9.07959,10.93165,5.60783,-19.41031,-16.12057,-0.61603,-0.00019,-19.49162,-3.04981,-0.00026,24.2417,5.7167,9.7132,13.4215,-4.64725,-13.37913,16.86443,21.22475,-2.36709,34.14024,-12.12229,30.01162,126.82655,0.00711,-105.41857,122.12794,-0.00163,107.27708,-8.09452,-12.09008,-0.00253,-6.16673,6.76658,0.00179,-6.87904,-7.71386,5.76466,-29.93787,-9.34325,2.29877,-1.97188,-3.9367,6.14115
2495,-2.86467,-0.0,0.0,-1.75912,-0.0,0.0,-0.71055,-4.2474,9.20182,11.01328,5.6257,-19.24185,-16.29308,-0.55656,-0.00046,-19.51684,-2.98361,-0.0002,24.3273,5.63231,9.61791,13.39738,-4.75988,-13.53593,16.58207,21.14507,-2.16783,33.93323,-12.15161,30.03229,126.58,0.00566,-104.64996,122.14698,-0.00139,107.39736,-8.16333,-11.91958,-0.00157,-5.57484,6.68653,0.00246,-6.80579,-7.78236,5.79036,-29.86864,-9.41625,2.29533,-2.00438,-4.09265,6.22734
2496,-2.95064,0.0,-0.0,-1.73622,-0.0,-0.0,-0.50571,-4.3026,9.36409,11.08661,5.58976,-19.08772,-16.52242,-0.48921,-0.00059,-19.52349,-2.91072,-7e-05,24.42651,5.56016,9.4881,13.36133,-4.85715,-13.67496,16.36435,21.06816,-2.00242,33.77472,-12.17771,30.04159,126.34287,0.0035,-104.02878,122.14333,-0.00055,107.70791,-8.21788,-11.82607,-0.00051,-4.95194,6.64326,0.00257,-6.74828,-7.82754,5.77296,-29.81435,-9.45107,2.2613,-2.03989,-4.25112,6.31997
2497,-3.08526,-0.0,0.0,-1.71176,0.0,-0.0,-0.25864,-4.36838,9.55983,11.14682,5.51304,-18.96271,-16.79074,-0.43218,-0.00043,-19.50326,-2.83368,5e-05,24.53432,5.50579,9.33121,13.31306,-4.93751,-13.78375,16.19981,20.99892,-1.88868,33.6664,-12.19643,30.06892,126.11881,0.00163,-103.58961,122.10014,0.00095,108.24408,-8.2302,-11.883,0.00039,-4.43386,6.61077,0.0021,-6.71476,-7.8235,5.70287,-29.78164,-9.42014,2.19815,-2.06794,-4.41534,6.40941
2498,-3.2348,-0.0,0.0,-1.66438,0.0,-0.0,-0.0025,-4.43136,9.76833,11.19428,5.42912,-18.87217,-17.06425,-0.40441,-9e-05,-19.45804,-2.75774,0.0001,24.63646,5.47366,9.16546,13.25347,-5.00221,-13.8561,16.06457,20.93245,-1.82293,33.60863,-12.21135,30.14615,125.89908,0.00035,-103.33626,122.00938,0.00265,108.94727,-8.17684,-12.11197,0.00116,-4.11752,6.5733,0.00148,-6.72154,-7.76812,5.59287,-29.78647,-9.32649,2.11851,-2.08194,-4.58105,6.48564
2499,-3.3193,0.0,-0.0,-1.56159,0.0,0.0,0.21742,-4.46868,9.93324,11.23261,5.38006,-18.79212,-17.30787,-0.40902,0.0002,-19.39713,-2.69899,7e-05,24.72162,5.46399,9.03565,13.18934,-5.05316,-13.91856,15.92883,20.85977,-1.79197,33.59603,-12.23537,30.28577,125.6684,-0.00061,-103.26599,121.8783,0.0037,109.71535,-8.05029,-12.47912,0.00232,-4.00005,6.54164,0.00103,-6.78656,-7.68824,5.46681,-29.84818,-9.20406,2.03377,-2.07586,-4.74077,6.54471
2500,-3.26602,0.0,-0.0,-1.39467,-0.0,-0.0,0.36892,-4.46199,9.99765,11.27141,5.39149,-18.70213,-17.49858,-0.43454,0.0003,-19.3316,-2.67259,-3e-05,24.78442,5.47396,8.98681,13.12788,-5.08886,-13.99815,15.76854,20.77541,-1.78558,33.6147,-12.28748,30.46813,125.41285,-0.0016,-103.36613,121.73081,0.00353,110.43203,-7.85697,-12.90745,0.00433,-3.96707,6.54372,0.00101,-6.91459,-7.62562,5.34839,-29.97388,-9.10048,1.94924,-2.04802,-4.8887,6.59325
2501,-3.06323,0.0,-0.0,-1.20079,-0.0,0.0,0.44813,-4.40519,9.94251,11.32338,5.45887,-18.6095,-17.63222,-0.46434,0.00027,-19.26937,-2.68229,-0.00013,24.82607,5.49957,9.03428,13.07214,-5.10336,-14.09396,15.57166,20.68141,-1.79797,33.64499,-12.38379,30.65103,125.13202,-0.00286,-103.62611,121.59992,0.00238,110.9697,-7.60564,-13.3154,0.00667,-3.86231,6.60216,0.00173,-7.08822,-7.61222,5.25905,-30.14784,-9.05347,1.87204,-2.00345,-5.02349,6.64389
2502,-2.77152,0.0,-0.0,-1.04643,0.0,-0.0,0.47541,-4.30193,9.79558,11.39789,5.55158,-18.54915,-17.72011,-0.4839,0.00017,-19.21286,-2.71563,-0.00018,24.85388,5.53478,9.15168,13.02026,-5.09078,-14.17611,15.33683,20.58451,-1.82054,33.66774,-12.52558,30.79185,124.84977,-0.0041,-104.10454,121.51317,0.00122,111.22419,-7.28178,-13.68287,0.00709,-3.5597,6.71754,0.00314,-7.27545,-7.65217,5.21761,-30.33809,-9.07413,1.81793,-1.95121,-5.14702,6.70248
2503,-2.50246,-0.0,0.0,-0.99257,0.0,-0.0,0.48592,-4.16774,9.61765,11.49865,5.62728,-18.57366,-17.77941,-0.48516,7e-05,-19.16015,-2.744,-0.00014,24.87597,5.57133,9.27968,12.96562,-5.05083,-14.1969,15.06779,20.48764,-1.83649,33.66959,-12.69378,30.86527,124.61406,-0.00379,-104.96012,121.47873,0.00072,111.18057,-6.81725,-14.09677,0.00248,-2.99138,6.86661,0.00434,-7.44897,-7.72355,5.23099,-30.51592,-9.145,1.80196,-1.90023,-5.26114,6.76167
2504,-2.35175,-0.0,0.0,-1.06147,0.0,0.0,0.51185,-4.02686,9.45815,11.62177,5.6555,-18.70603,-17.82361,-0.46285,-0.0,-19.10801,-2.74242,-4e-05,24.8959,5.60109,9.36969,12.90086,-4.99019,-14.13511,14.76778,20.38418,-1.82579,33.64609,-12.85699,30.87054,124.47822,-0.0001,-106.32847,121.48013,0.00075,110.93632,-6.11723,-14.69596,-0.00811,-2.17362,7.00967,0.00406,-7.59963,-7.79686,5.2825,-30.67059,-9.23244,1.82043,-1.85429,-5.36623,6.80936
2505,-2.33681,0.0,-0.0,-1.22753,-0.0,-0.0,0.56279,-3.90708,9.32112,11.75575,5.63809,-18.90607,-17.85763,-0.40878,-4e-05,-19.05291,-2.70897,7e-05,24.91277,5.61805,9.41805,12.82275,-4.91965,-14.02756,14.43966,20.26264,-1.77943,33.60346,-12.98805,30.82775,124.47124,0.00612,-108.15389,121.48397,0.00081,110.6412,-5.14205,-15.54741,-0.02053,-1.21721,7.10683,0.0019,-7.7325,-7.8541,5.33528,-30.80646,-9.3056,1.84644,-1.8091,-5.46172,6.84096
2506,-2.41038,0.0,-0.0,-1.43856,-0.0,-0.0,0.62683,-3.8426,9.19016,11.88933,5.60723,-19.1141,-17.88025,-0.31843,-3e-05,-18.99167,-2.65691,0.00015,24.9255,5.62016,9.4431,12.73371,-4.84907,-13.92767,14.08867,20.1166,-1.70592,33.557,-13.07635,30.76396,124.58099,0.01106,-110.18914,121.45686,0.00065,110.40585,-3.93675,-16.59024,-0.02766,-0.27916,7.13625,-0.00119,-7.85145,-7.89636,5.35516,-30.92788,-9.35219,1.84802,-1.7554,-5.54705,6.86364
2507,-2.51056,0.0,-0.0,-1.63868,-0.0,0.0,0.68624,-3.86905,9.06678,12.01638,5.60521,-19.30079,-17.89031,-0.20054,0.0,-18.92358,-2.60106,0.00017,24.93647,5.61172,9.45112,12.64193,-4.78243,-13.85872,13.71921,19.95135,-1.61647,33.52454,-13.12859,30.69694,124.7657,0.01164,-112.13879,121.3826,0.00013,110.24065,-2.5799,-17.68492,-0.02497,0.5191,7.10384,-0.00384,-7.94866,-7.93857,5.33561,-31.02806,-9.38344,1.81319,-1.68529,-5.62324,6.89088
2508,-2.58505,-0.0,0.0,-1.77432,0.0,-0.0,0.72599,-4.00385,8.96678,12.13061,5.66188,-19.45789,-17.88965,-0.07367,4e-05,-18.85197,-2.55748,0.00013,24.95139,5.60169,9.43867,12.56006,-4.71815,-13.82545,13.32768,19.78434,-1.50075,33.51796,-13.1602,30.62775,124.98199,0.00825,-113.78389,121.27041,-0.00072,110.05565,-1.12295,-18.69283,-0.01366,1.15299,7.04164,-0.00533,-8.00793,-7.99817,5.30476,-31.09159,-9.42629,1.76102,-1.5965,-5.69454,6.93076
2509,-2.59397,0.0,-0.0,-1.79849,0.0,0.0,0.73411,-4.22837,8.89074,12.22021,5.77898,-19.56373,-17.88222,0.04542,7e-05,-18.78332,-2.54583,4e-05,24.97575,5.59826,9.4124,12.50094,-4.65355,-13.84581,12.90388,19.6373,-1.32189,33.53741,-13.18626,30.54825,125.20498,0.00352,-115.03477,121.14983,-0.00144,109.75368,0.43613,-19.53501,0.0009,1.69225,6.99238,-0.00547,-8.01659,-8.08462,5.31003,-31.10583,-9.50786,1.73151,-1.49257,-5.76793,6.97839
2510,-2.51677,0.0,-0.0,-1.69306,-0.0,0.0,0.70555,-4.48925,8.81411,12.27335,5.92694,-19.57975,-17.87389,0.14735,7e-05,-18.72476,-2.58362,-6e-05,25.01063,5.60711,9.39232,12.47057,-4.58571,-13.94994,12.44351,19.52258,-1.04118,33.57137,-13.21869,30.45857,125.42797,-4e-05,-115.92362,121.05694,-0.00143,109.34135,2.13355,-20.21094,0.01327,2.22139,7.00159,-0.00418,-7.97583,-8.19407,5.39121,-31.07134,-9.64006,1.76296,-1.3812,-5.84758,7.01906
2511,-2.36974,0.0,0.0,-1.49751,-0.0,0.0,0.65095,-4.72507,8.71382,12.29239,6.05724,-19.49217,-17.87109,0.22633,7e-05,-18.6818,-2.6714,-0.0001,25.05016,5.63283,9.38971,12.46287,-4.50946,-14.13907,11.95915,19.43504,-0.6534,33.60381,-13.26696,30.37705,125.651,-0.00122,-116.5748,121.01901,-0.00069,108.91082,3.99164,-20.77351,0.02024,2.75404,7.11813,-0.00178,-7.90402,-8.31117,5.55998,-31.0053,-9.8133,1.87221,-1.27251,-5.9289,7.03799
2512,-2.20751,0.0,-0.0,-1.30534,0.0,0.0,0.5966,-4.8983,8.59845,12.2994,6.12498,-19.34558,-17.8762,0.27502,6e-05,-18.65745,-2.78475,-0.00011,25.08305,5.67962,9.38873,12.46308,-4.4181,-14.35545,11.47975,19.35813,-0.20183,33.6247,-13.33603,30.32899,125.87257,-0.00033,-117.15961,121.04108,0.0002,108.5252,5.98173,-21.29729,0.02057,3.24455,7.35884,0.00045,-7.83233,-8.4178,5.79737,-30.93771,-10.00354,2.04904,-1.17558,-5.99959,7.03055
2513,-2.09171,0.0,-0.0,-1.21749,0.0,-0.0,0.56911,-5.00275,8.50352,12.32355,6.1072,-19.21968,-17.88414,0.2844,5e-05,-18.65203,-2.88603,-0.00012,25.09871,5.75179,9.3577,12.45801,-4.30617,-14.50849,11.04116,19.27915,0.23935,33.63551,-13.42266,30.328,126.08829,0.00107,-117.78801,121.10262,0.00075,108.1788,8.01673,-21.87573,0.0143,3.66061,7.67254,0.00139,-7.79414,-8.50344,6.06612,-30.90151,-10.18662,2.26324,-1.0941,-6.04628,7.0056
2514,-2.06426,-0.0,0.0,-1.29363,0.0,0.0,0.5794,-5.0503,8.46776,12.38676,6.00316,-19.18652,-17.8842,0.24753,-1e-05,-18.66468,-2.94081,-0.00018,25.09299,5.85096,9.26889,12.4429,-4.17393,-14.52263,10.67537,19.20037,0.59715,33.64632,-13.51441,30.372,126.29106,0.00121,-118.38667,121.16885,0.00078,107.86222,9.95753,-22.63539,0.0041,4.00285,7.97509,0.00105,-7.81235,-8.56903,6.32529,-30.92016,-10.34754,2.47666,-1.02572,-6.06229,6.97737
2515,-2.1496,0.0,-0.0,-1.53079,-0.0,-0.0,0.61967,-5.05976,8.5185,12.49865,5.8203,-19.2883,-17.86386,0.16437,-0.00014,-18.69491,-2.9259,-0.00028,25.06843,5.96942,9.10599,12.4203,-4.03178,-14.36434,10.40424,19.13615,0.82076,33.66806,-13.59342,30.45095,126.46968,-0.00024,-118.70412,121.2078,0.00043,107.60389,11.63472,-23.71784,-0.00394,4.27293,8.21037,8e-05,-7.89034,-8.62046,6.53976,-30.99807,-10.47807,2.65445,-0.96531,-6.05358,6.95494
2516,-2.34567,0.0,-0.0,-1.85906,-0.0,0.0,0.66798,-5.04747,8.65225,12.64879,5.56665,-19.51076,-17.81384,0.0474,-0.00029,-18.73874,-2.8417,-0.00033,25.031,6.09099,8.87563,12.3943,-3.89486,-14.06755,10.23771,19.09829,0.88681,33.7037,-13.64407,30.55156,126.60934,-0.00181,-118.49557,121.20328,8e-05,107.43914,12.926,-25.19981,-0.00449,4.45196,8.36851,-0.00087,-8.01105,-8.65763,6.68561,-31.11875,-10.56885,2.7745,-0.90782,-6.03611,6.93914
2517,-2.60863,0.0,0.0,-2.16659,-0.0,-0.0,0.69837,-5.02204,8.8235,12.80294,5.25986,-19.78084,-17.73415,-0.07877,-0.00037,-18.78277,-2.71924,-0.00027,24.98737,6.2032,8.61285,12.36401,-3.76771,-13.7328,10.17198,19.08491,0.79804,33.74259,-13.66024,30.65578,126.69811,-0.00191,-117.71234,121.16073,-0.0001,107.38019,13.84111,-27.01448,0.00094,4.50814,8.46717,-0.00147,-8.14414,-8.67054,6.75462,-31.25146,-10.60749,2.83319,-0.85022,-6.02298,6.92572
2518,-2.87257,0.0,-0.0,-2.35811,0.0,0.0,0.69551,-4.99038,8.96846,12.91992,4.94125,-20.02123,-17.63677,-0.18753,-0.00033,-18.80703,-2.60412,-0.00015,24.94394,6.30652,8.36223,12.32182,-3.63728,-13.46848,10.18738,19.08271,0.58201,33.76381,-13.64757,30.7402,126.73401,-0.00045,-116.52354,121.10327,-0.00011,107.42359,14.51993,-28.94729,0.00613,4.42564,8.52428,-0.00162,-8.2571,-8.64698,6.7581,-31.36262,-10.58718,2.84581,-0.79224,-6.01475,6.90944
2519,-3.07475,0.0,-0.0,-2.39539,0.0,-0.0,0.65759,-4.95957,9.031,12.97348,4.67787,-20.18657,-17.54107,-0.25896,-0.00018,-18.79669,-2.53748,-0.0001,24.90776,6.41062,8.16376,12.26074,-3.48349,-13.34298,10.25263,19.07716,0.2892,33.74901,-13.62016,30.78171,126.72221,0.00149,-115.23392,121.05817,-9e-05,107.56137,15.15658,-30.69489,0.00867,4.23051,8.54204,-0.00137,-8.32618,-8.5844,6.72856,-31.42771,-10.51816,2.84346,-0.73426,-6.0028,6.88796
2520,-3.16702,0.0,0.0,-2.29764,0.0,-0.0,0.5895,-4.93278,8.97454,12.95994,4.5413,-20.25819,-17.46472,-0.28353,-4e-05,-18.75049,-2.54595,-0.00021,24.88545,6.52512,8.04774,12.18237,-3.2944,-13.3777,10.33748,19.06193,-0.01489,33.69532,-13.59365,30.76892,126.66471,0.00276,-114.14593,121.04066,-2e-05,107.7645,15.89554,-31.98165,0.01229,3.98305,8.51596,-0.00094,-8.34456,-8.49476,6.71633,-31.43982,-10.43096,2.86791,-0.67524,-5.97864,6.86547
2521,-3.13873,0.0,-0.0,-2.12551,-0.0,0.0,0.50325,-4.91285,8.80033,12.89338,4.56904,-20.25139,-17.41586,-0.26663,3e-05,-18.6779,-2.62938,-0.00037,24.87814,6.65476,8.01697,12.09525,-3.07284,-13.53963,10.42343,19.04352,-0.26787,33.61744,-13.57761,30.71071,126.55939,0.00258,-113.42516,121.04485,0.00018,107.97556,16.75743,-32.69117,0.01909,3.74114,8.44887,-0.00053,-8.32464,-8.39858,6.77683,-31.41177,-10.36596,2.96223,-0.61337,-5.93888,6.85247
2522,-3.03964,-0.0,0.0,-1.95869,0.0,-0.0,0.42255,-4.91062,8.56059,12.795,4.73537,-20.22821,-17.39007,-0.22894,4e-05,-18.58964,-2.7538,-0.00043,24.87833,6.79871,8.03401,12.00733,-2.83404,-13.73836,10.50324,19.03757,-0.43614,33.5372,-13.57117,30.63278,126.41113,0.00086,-113.12875,121.0473,0.0005,108.15939,17.65915,-32.89804,0.02515,3.53718,8.3346,-0.0002,-8.29203,-8.31358,6.94715,-31.36947,-10.35382,3.1537,-0.54685,-5.8856,6.86136
2523,-2.96025,0.0,-0.0,-1.86425,0.0,0.0,0.3748,-4.94703,8.336,12.68087,4.95532,-20.26947,-17.3734,-0.19494,2e-05,-18.49028,-2.86619,-0.0003,24.87441,6.95076,8.04198,11.92215,-2.59886,-13.86716,10.57295,19.0591,-0.53066,33.47175,-13.56467,30.56384,126.2425,-0.00149,-113.3112,121.02261,0.00078,108.32944,18.48515,-32.78962,0.02613,3.38332,8.14366,-3e-05,-8.27241,-8.24756,7.22189,-31.33889,-10.39964,3.43429,-0.4729,-5.82494,6.90027
2524,-2.97135,0.0,0.0,-1.86537,0.0,-0.0,0.37092,-5.0426,8.18185,12.55237,5.11866,-20.414,-17.35082,-0.1751,2e-05,-18.37671,-2.92563,-2e-05,24.8606,7.0995,8.00601,11.83982,-2.38612,-13.87717,10.62553,19.11325,-0.5934,33.43118,-13.5472,30.52246,126.09077,-0.00271,-113.98734,120.95924,0.00081,108.48571,19.13176,-32.56392,0.02221,3.28121,7.85531,-0.00017,-8.27802,-8.20081,7.54741,-31.33306,-10.48281,3.75433,-0.38894,-5.76432,6.96563
2525,-3.0924,-0.0,0.0,-1.94116,0.0,-0.0,0.39517,-5.19969,8.09544,12.39888,5.13555,-20.63856,-17.3159,-0.16038,3e-05,-18.24272,-2.92219,0.00029,24.84282,7.23081,7.92906,11.75807,-2.20601,-13.80509,10.65149,19.19164,-0.66393,33.423,-13.51594,30.51166,125.99083,-0.00186,-114.99259,120.86369,0.00049,108.57404,19.5116,-32.36033,0.01668,3.22587,7.49399,-0.0006,-8.30207,-8.17244,7.84429,-31.34707,-10.57176,4.04065,-0.29782,-5.70906,7.03917
2526,-3.31765,0.0,0.0,-2.05915,0.0,-0.0,0.41696,-5.39357,8.03672,12.21349,4.97766,-20.90096,-17.27482,-0.13568,5e-05,-18.08534,-2.87185,0.00046,24.83426,7.33386,7.82914,11.67144,-2.05648,-13.72443,10.64487,19.27603,-0.75788,33.45235,-13.47993,30.52071,125.95567,-5e-05,-115.95021,120.75404,2e-05,108.53429,19.53824,-32.23425,0.0117,3.20736,7.12151,-0.00105,-8.32572,-8.16284,8.04589,-31.36427,-10.64104,4.23131,-0.21195,-5.66081,7.09611
2527,-3.63494,0.0,0.0,-2.19558,0.0,-0.0,0.40751,-5.58069,7.96745,12.00383,4.69064,-21.17189,-17.24171,-0.09408,3e-05,-17.90787,-2.80376,0.00041,24.84578,7.40552,7.71535,11.5722,-1.9259,-13.69598,10.6082,19.34798,-0.87164,33.51555,-13.45506,30.53122,125.96929,0.0012,-116.425,120.6526,-0.00024,108.36861,19.1227,-32.16075,0.00585,3.20945,6.79958,-0.00126,-8.3335,-8.17101,8.12817,-31.37023,-10.68043,4.30432,-0.14927,-5.61873,7.11818
2528,-4.00886,0.0,0.0,-2.33049,-0.0,-0.0,0.34777,-5.71875,7.87245,11.78964,4.3638,-21.42208,-17.2288,-0.03752,-2e-05,-17.72004,-2.74785,0.00015,24.8805,7.44834,7.58746,11.45617,-1.80285,-13.7587,10.55224,19.39882,-0.99859,33.5964,-13.45478,30.5257,125.99699,0.00182,-116.15774,120.58034,-0.00017,108.1434,18.209,-32.05806,-0.00436,3.2061,6.56466,-0.00111,-8.32579,-8.19306,8.1143,-31.36456,-10.69534,4.28268,-0.12216,-5.58149,7.10164
2529,-4.36875,-0.0,-0.0,-2.44474,0.0,0.0,0.2304,-5.7838,7.75763,11.59502,4.07875,-21.61223,-17.23911,0.03041,-8e-05,-17.5355,-2.72031,-0.00018,24.93637,7.46681,7.44967,11.32847,-1.68441,-13.92999,10.49172,19.43124,-1.13524,33.67038,-13.48379,30.49594,126.00557,0.0024,-115.23221,120.55157,-8e-05,107.95026,16.85057,-31.82362,-0.01925,3.16691,6.4239,-0.00078,-8.31975,-8.22447,8.05521,-31.36257,-10.70136,4.2154,-0.12728,-5.54621,7.05584
2530,-4.61802,0.0,0.0,-2.52127,-0.0,-0.0,0.05709,-5.77204,7.6286,11.43682,3.87261,-21.70366,-17.26628,0.10901,-0.00012,-17.36356,-2.71778,-0.0004,25.01161,7.46988,7.32467,11.20102,-1.57228,-14.20706,10.44052,19.44983,-1.27388,33.7131,-13.5379,30.44545,125.97978,0.00252,-114.08682,120.56938,-0.00027,107.89202,15.27865,-31.36974,-0.03149,3.07363,6.35585,-0.00049,-8.33946,-8.26145,7.99936,-31.38663,-10.71375,4.14891,-0.14528,-5.50358,6.99582
2531,-4.68284,0.0,-0.0,-2.55302,0.0,-0.0,-0.16173,-5.69286,7.48223,11.31637,3.73044,-21.68307,-17.29793,0.19633,-0.00012,-17.20278,-2.72326,-0.00042,25.10331,7.47597,7.24614,11.08353,-1.46224,-14.56218,10.4101,19.44975,-1.3958,33.70939,-13.6083,30.38453,125.92696,0.00151,-113.3316,120.62577,-0.00073,108.02871,13.87381,-30.65534,-0.02961,2.92424,6.33314,-0.0004,-8.4024,-8.29702,7.96895,-31.45308,-10.7347,4.10655,-0.15229,-5.43835,6.93908
2532,-4.58148,-0.0,-0.0,-2.5592,0.0,-0.0,-0.40134,-5.56525,7.32613,11.22544,3.60424,-21.58831,-17.32021,0.28126,-7e-05,-17.04362,-2.71423,-0.00024,25.20167,7.50928,7.22743,10.97673,-1.34184,-14.93063,10.41138,19.41753,-1.4763,33.65973,-13.683,30.32204,125.87103,5e-05,-113.41874,120.70406,-0.00105,108.29745,13.00776,-29.71027,-0.0098,2.72373,6.34997,-0.00057,-8.50919,-8.31733,7.95563,-31.56175,-10.74823,4.0861,-0.13525,-5.33984,6.90505
2533,-4.41982,0.0,0.0,-2.57921,-0.0,0.0,-0.62676,-5.4163,7.1849,11.15661,3.44671,-21.49658,-17.32342,0.3454,-2e-05,-16.87421,-2.67284,7e-05,25.29023,7.58813,7.24297,10.87119,-1.19706,-15.23025,10.45645,19.34492,-1.49751,33.58078,-13.74444,30.26009,125.84073,-0.00056,-114.36305,120.78049,-0.00106,108.53882,12.84946,-28.63945,0.017,2.48357,6.40758,-0.00091,-8.64153,-8.30732,7.93661,-31.69388,-10.73165,4.07247,-0.09957,-5.21091,6.90741
2534,-4.31028,-0.0,0.0,-2.64489,-0.0,0.0,-0.80887,-5.27821,7.08257,11.10736,3.23761,-21.47624,-17.30528,0.37329,-1e-05,-16.68542,-2.59644,0.00037,25.3532,7.7169,7.24429,10.7536,-1.0194,-15.40637,10.55561,19.23984,-1.45633,33.49997,-13.77159,30.19648,125.85625,-0.00062,-115.72254,120.82873,-0.00109,108.60191,13.28716,-27.58935,0.03418,2.21968,6.49498,-0.0013,-8.76981,-8.26418,7.89796,-31.82005,-10.67698,4.05384,-0.06272,-5.06588,6.9466
2535,-4.31404,0.0,0.0,-2.7682,0.0,0.0,-0.93343,-5.18478,7.03288,11.08016,2.98508,-21.55023,-17.2707,0.35757,-4e-05,-16.47754,-2.49883,0.00052,25.38277,7.88907,7.19307,10.61778,-0.8092,-15.45216,10.70838,19.12155,-1.36179,33.44526,-13.75087,30.13239,125.92262,-0.00151,-116.89138,120.82904,-0.00151,108.41985,14.03135,-26.68387,0.03468,1.9411,6.60103,-0.0017,-8.8663,-8.20496,7.84714,-31.9136,-10.60279,4.03035,-0.03986,-4.92135,7.01329
2536,-4.44977,0.0,-0.0,-2.94972,-0.0,0.0,-0.99678,-5.16603,7.04106,11.08127,2.71065,-21.7027,-17.23152,0.2979,-6e-05,-16.26253,-2.39858,0.0005,25.38102,8.09461,7.08045,10.46677,-0.57494,-15.39219,10.89578,19.00768,-1.23125,33.43287,-13.68878,30.07548,126.03434,-0.00311,-117.52201,120.77563,-0.00199,108.04029,14.79771,-25.9776,0.02379,1.65368,6.71557,-0.00192,-8.9184,-8.15901,7.80475,-31.96352,-10.54409,4.00936,-0.03626,-4.78658,7.09354
2537,-4.71476,-0.0,0.0,-3.17755,0.0,0.0,-1.00531,-5.23852,7.09458,11.11483,2.4397,-21.89857,-17.20389,0.20374,-4e-05,-16.05706,-2.3079,0.00035,25.35823,8.32213,6.92889,10.30553,-0.33028,-15.26801,11.08439,18.90874,-1.09089,33.45856,-13.61442,30.03498,126.18429,-0.00342,-117.72736,120.67789,-0.00174,107.63731,15.4083,-25.45588,0.01048,1.37828,6.8081,-0.00176,-8.93602,-8.15079,7.78213,-31.98116,-10.52775,3.99168,-0.04926,-4.65978,7.16851
2538,-5.06849,0.0,0.0,-3.40824,-0.0,0.0,-0.98635,-5.39154,7.1474,11.17097,2.20078,-22.08351,-17.19993,0.09823,1e-05,-15.87276,-2.23498,0.00017,25.32994,8.55866,6.79043,10.13814,-0.0891,-15.14297,11.24212,18.8318,-0.97089,33.49945,-13.56668,30.01505,126.36646,-0.0007,-117.92396,120.55824,-0.00051,107.46861,15.79163,-25.06119,0.0006,1.14819,6.83487,-0.00135,-8.94864,-8.18576,7.76525,-31.9968,-10.55339,3.96212,-0.07102,-4.53258,7.21826
2539,-5.43498,0.0,-0.0,-3.58204,-0.0,0.0,-0.98349,-5.58223,7.13981,11.22604,2.01775,-22.20592,-17.22127,0.00819,2e-05,-15.71232,-2.18649,2e-05,25.30989,8.79468,6.72422,9.96929,0.14244,-15.0744,11.35407,18.78393,-0.89213,33.527,-13.57384,30.01225,126.57264,0.00451,-118.53306,120.4476,0.0007,107.72939,15.96064,-24.72849,-0.00428,0.97571,6.7823,-0.00105,-8.99129,-8.24887,7.72151,-32.04525,-10.59451,3.89646,-0.09266,-4.39743,7.23329
2540,-5.74613,0.0,-0.0,-3.67644,0.0,0.0,-1.02911,-5.75287,7.04391,11.26052,1.89603,-22.26132,-17.26259,-0.05298,-3e-05,-15.57152,-2.1635,-6e-05,25.30389,9.02938,6.75693,9.80365,0.37014,-15.06476,11.42789,18.773,-0.85735,33.52349,-13.63969,30.01713,126.78848,0.0091,-119.73203,120.37459,0.00081,108.41043,15.96158,-24.42223,-0.00513,0.8301,6.68833,-0.00107,-9.08599,-8.31574,7.6247,-32.1474,-10.61851,3.78013,-0.1097,-4.25223,7.22214
2541,-5.93803,-0.0,0.0,-3.71014,0.0,0.0,-1.13235,-5.8609,6.86949,11.26788,1.82426,-22.27829,-17.31943,-0.08664,-0.00012,-15.44081,-2.16713,-0.00012,25.31229,9.26791,6.87494,9.64481,0.60797,-15.0825,11.48951,18.80845,-0.85721,33.49141,-13.74514,30.01721,126.9922,0.00979,-121.32872,120.35206,4e-05,109.30666,15.79733,-24.15735,-0.00318,0.65886,6.61012,-0.00132,-9.22889,-8.36885,7.47527,-32.29802,-10.60945,3.62056,-0.12337,-4.10042,7.20552
2542,-5.94128,-0.0,0.0,-3.70792,0.0,0.0,-1.28346,-5.90178,6.64285,11.25058,1.78598,-22.27395,-17.39026,-0.10101,-0.0002,-15.30805,-2.20537,-0.00022,25.33254,9.51562,7.04378,9.49448,0.86996,-15.11364,11.57415,18.89931,-0.88603,33.45082,-13.86098,30.00043,127.16051,0.00633,-122.88071,120.37238,-0.0006,110.14621,15.42644,-23.98626,0.00131,0.42982,6.5728,-0.00148,-9.39024,-8.40749,7.29922,-32.46648,-10.57675,3.44215,-0.13918,-3.94777,7.20491
2543,-5.74895,-0.0,-0.0,-3.70336,-0.0,0.0,-1.4492,-5.91015,6.40721,11.22044,1.76331,-22.25986,-17.47262,-0.11154,-0.00022,-15.16467,-2.28262,-0.00035,25.35688,9.77611,7.21384,9.35093,1.16361,-15.15441,11.7119,19.0447,-0.94921,33.42927,-13.95933,29.95913,127.27742,0.0015,-123.99328,120.41296,-0.00058,110.72178,14.83585,-23.94961,0.00772,0.15652,6.5459,-0.00121,-9.52851,-8.44522,7.12955,-32.61143,-10.54567,3.27003,-0.16476,-3.79864,7.23419
2544,-5.43842,0.0,0.0,-3.73759,-0.0,-0.0,-1.58281,-5.93111,6.21514,11.19504,1.74201,-22.25158,-17.56101,-0.13994,-0.00015,-15.00874,-2.39155,-0.00049,25.37591,10.05022,7.32723,9.21088,1.48659,-15.19861,11.912,19.22246,-1.0528,33.45032,-14.01778,29.89426,127.33709,-0.00178,-124.49374,120.4481,-0.00026,110.93563,14.06055,-24.028,0.01358,-0.1152,6.47397,-0.00066,-9.61292,-8.49777,6.9878,-32.7028,-10.53903,3.11789,-0.20389,-3.65412,7.29232
2545,-5.09444,-0.0,-0.0,-3.82656,-0.0,0.0,-1.65467,-5.98522,6.09952,11.18661,1.71997,-22.24542,-17.65035,-0.20384,-1e-05,-14.84337,-2.51972,-0.00057,25.38783,10.33426,7.34167,9.07404,1.82664,-15.25695,12.15797,19.39003,-1.18805,33.526,-14.01979,29.81759,127.33966,-0.00237,-124.3965,120.4608,-0.00018,110.76284,13.13067,-24.13808,0.01558,-0.34303,6.33668,-0.00042,-9.64132,-8.57132,6.87982,-32.73885,-10.5648,2.98862,-0.25159,-3.51286,7.36161
2546,-4.75959,-0.0,-0.0,-3.95238,0.0,0.0,-1.66652,-6.06346,6.06153,11.19827,1.70301,-22.21556,-17.74194,-0.3073,0.00018,-14.67488,-2.65463,-0.00056,25.40144,10.62076,7.24928,8.94449,2.16539,-15.35501,12.4207,19.50252,-1.32953,33.65697,-13.9575,29.74777,127.28559,-0.00083,-123.82384,120.44682,-0.00049,110.24152,12.03583,-24.16789,0.01159,-0.49811,6.16349,-0.00081,-9.63994,-8.65982,6.8054,-32.74547,-10.61734,2.88445,-0.29802,-3.37205,7.41821
2547,-4.45478,0.0,-0.0,-4.08756,0.0,0.0,-1.6406,-6.15133,6.08174,11.22918,1.69064,-22.14282,-17.84476,-0.43838,0.00034,-14.51236,-2.7815,-0.00043,25.43083,10.90105,7.0789,8.82882,2.48389,-15.50356,12.6799,19.53454,-1.44912,33.83717,-13.83769,29.70215,127.17477,0.00131,-122.96652,120.41017,-0.00085,109.50751,10.74994,-24.02042,0.00226,-0.54959,5.99174,-0.00158,-9.64355,-8.75222,6.76801,-32.75663,-10.68782,2.81295,-0.33657,-3.22766,7.44758
2548,-4.21016,0.0,0.0,-4.21334,0.0,-0.0,-1.60441,-6.2514,6.13398,11.27724,1.66954,-22.03865,-17.969,-0.57367,0.00038,-14.366,-2.88151,-0.00023,25.4864,11.16778,6.88338,8.73285,2.7675,-15.67772,12.93511,19.48774,-1.53086,34.05649,-13.68444,29.69257,127.01313,0.00238,-122.04155,120.35933,-0.00089,108.753,9.28744,-23.64592,-0.00817,-0.47682,5.84453,-0.00213,-9.67111,-8.84274,6.77252,-32.79084,-10.77282,2.78096,-0.36813,-3.07492,7.45306
2549,-4.05265,0.0,-0.0,-4.30792,0.0,0.0,-1.58458,-6.37847,6.18825,11.33451,1.62133,-21.93048,-18.11775,-0.68687,0.00023,-14.24405,-2.93835,-3e-05,25.57008,11.41647,6.72099,8.66047,3.00883,-15.83303,13.19549,19.38176,-1.57392,34.30311,-13.53257,29.72734,126.82436,0.00157,-121.1923,120.30666,-0.00057,108.10401,7.73066,-23.06237,-0.01365,-0.30907,5.7551,-0.00198,-9.71661,-8.93511,6.81526,-32.84246,-10.87435,2.78357,-0.39814,-2.9106,7.45286
