PaulMeinheit/Bachelor_Muay_Thai/Sub01_Teep/sliced/Sub01_Teep/JointAngles.txt/sliced6.csv
Unnamed: 0_level_0,L_MTP_ANGLE,L_MTP_ANGLE,L_MTP_ANGLE,R_MTP_ANGLE,R_MTP_ANGLE,R_MTP_ANGLE,L_ANKLE_ANGLE,L_ANKLE_ANGLE,L_ANKLE_ANGLE,R_ANKLE_ANGLE,R_ANKLE_ANGLE,R_ANKLE_ANGLE,L_KNEE_ANGLE,L_KNEE_ANGLE,L_KNEE_ANGLE,R_KNEE_ANGLE,R_KNEE_ANGLE,R_KNEE_ANGLE,L_HIP_ANGLE,L_HIP_ANGLE,L_HIP_ANGLE,R_HIP_ANGLE,R_HIP_ANGLE,R_HIP_ANGLE,L_SHOULDER_ANGLE,L_SHOULDER_ANGLE,L_SHOULDER_ANGLE,R_SHOULDER_ANGLE,R_SHOULDER_ANGLE,R_SHOULDER_ANGLE,L_ELBOW_ANGLE,L_ELBOW_ANGLE,L_ELBOW_ANGLE,R_ELBOW_ANGLE,R_ELBOW_ANGLE,R_ELBOW_ANGLE,L_WRIST_ANGLE,L_WRIST_ANGLE,L_WRIST_ANGLE,R_WRIST_ANGLE,R_WRIST_ANGLE,R_WRIST_ANGLE,NECK_ANGLE,NECK_ANGLE,NECK_ANGLE,NECK_ANGLE_SHADOW,NECK_ANGLE_SHADOW,NECK_ANGLE_SHADOW,Trunk_Joint_Angle,Trunk_Joint_Angle,Trunk_Joint_Angle
ITEM,X,Y,Z,X,Y,Z,X,Y,Z,X,Y,Z,X,Y,Z,X,Y,Z,X,Y,Z,X,Y,Z,X,Y,Z,X,Y,Z,X,Y,Z,X,Y,Z,X,Y,Z,X,Y,Z,X,Y,Z,X,Y,Z,X,Y,Z
2601,-4.71436,0.0,-0.0,-2.01598,0.0,0.0,-4.46826,-8.08599,8.6217,15.50223,-0.70843,-22.86245,-17.87648,0.02803,-0.00389,-22.4939,-3.56253,0.00109,24.51792,11.90736,8.31575,11.76072,3.47156,-13.37789,17.28863,18.24737,-4.79874,41.67742,-12.80828,32.02983,127.50876,0.005,-111.21677,120.17327,-0.00176,109.19646,-1.90866,-13.22609,-0.00083,-4.56951,6.08756,0.00423,-7.90955,-10.00978,8.37226,-31.08724,-12.46628,3.79402,1.22702,0.57033,6.0581
2602,-4.3265,-0.0,-0.0,-1.76823,-0.0,-0.0,-4.278,-8.28441,8.52509,15.74546,-0.74033,-22.85051,-18.40264,0.00387,-0.00357,-23.06285,-3.62995,0.00085,24.63322,11.89759,8.18226,11.96252,3.31932,-13.32118,18.05911,18.38333,-5.14067,42.5438,-12.77075,32.50792,127.5761,0.00419,-110.91567,120.07187,-0.00362,108.26759,-1.88196,-13.35006,-0.00185,-4.35023,6.30639,0.00403,-7.89428,-10.12463,8.53831,-31.07759,-12.63621,3.90169,1.2992,0.66964,6.01071
2603,-4.09551,-0.0,-0.0,-1.5758,0.0,-0.0,-4.14765,-8.42573,8.35964,15.94734,-0.76854,-22.85461,-19.17001,-0.09367,-0.00218,-23.56796,-3.68378,0.00042,24.84992,11.94772,8.0451,12.10537,3.15124,-13.23273,18.95926,18.5322,-5.55614,43.45893,-12.68274,33.0096,127.71706,0.00094,-110.24893,119.9668,-0.00502,107.04428,-1.94149,-13.54563,-0.00161,-4.17468,6.48455,0.00289,-7.85267,-10.26921,8.73981,-31.04331,-12.8472,4.03023,1.33481,0.73357,5.98293
2604,-3.95084,0.0,-0.0,-1.4468,0.0,-0.0,-4.13999,-8.47642,8.10694,16.09879,-0.79553,-22.83155,-20.21582,-0.25678,1e-05,-23.99214,-3.71983,1e-05,25.20246,12.06391,7.93481,12.18462,2.96447,-13.15245,19.95797,18.69804,-6.04021,44.40861,-12.56246,33.52686,127.94566,-0.00413,-109.17722,119.83724,-0.00503,105.83961,-2.17435,-13.82845,0.00042,-4.09739,6.56878,0.00146,-7.76567,-10.46218,8.95654,-30.96766,-13.10854,4.15332,1.33148,0.78157,5.97527
2605,-3.79591,0.0,-0.0,-1.40551,-0.0,-0.0,-4.34439,-8.44328,7.73555,16.20988,-0.83682,-22.73432,-21.56743,-0.46513,0.00255,-24.33072,-3.73884,-0.00027,25.7228,12.24879,7.89705,12.202,2.75085,-13.12928,21.02889,18.89956,-6.57642,45.38788,-12.41842,34.05348,128.2578,-0.0089,-107.76186,119.66807,-0.00284,105.01244,-2.65003,-14.17649,0.00344,-4.06724,6.53601,5e-05,-7.61849,-10.7021,9.16304,-30.83672,-13.40904,4.24784,1.28895,0.82846,5.98806
2606,-3.60584,0.0,-0.0,-1.48254,-0.0,-0.0,-4.85258,-8.38697,7.22182,16.3093,-0.91003,-22.54522,-23.23842,-0.69587,0.00515,-24.59208,-3.74159,-0.00043,26.4338,12.50222,7.96763,12.16289,2.50032,-13.1796,22.15482,19.15707,-7.13516,46.39619,-12.24897,34.58905,128.63736,-0.0109,-106.16375,119.45319,0.00109,104.76569,-3.36512,-14.5478,0.00594,-3.96364,6.40017,-0.00138,-7.41834,-10.97275,9.34092,-30.65705,-13.72666,4.30319,1.21018,0.87853,6.02098
2607,-3.48821,-0.0,0.0,-1.69906,0.0,-0.0,-5.73314,-8.38518,6.55934,16.43272,-1.01718,-22.28855,-25.23178,-0.93213,0.00771,-24.79322,-3.72783,-0.00051,27.35067,12.82218,8.14367,12.07544,2.20772,-13.27354,23.33319,19.47757,-7.68175,47.43456,-12.05053,35.13991,129.06459,-0.00915,-104.59037,119.19374,0.00517,105.04626,-4.23787,-14.91252,0.00693,-3.68846,6.21097,-0.0024,-7.19765,-11.2538,9.49086,-30.45926,-14.04296,4.32816,1.10103,0.92622,6.07509
2608,-3.65348,0.0,-0.0,-2.05129,-0.0,0.0,-7.01818,-8.46498,5.74372,16.60345,-1.13586,-22.01504,-27.54686,-1.16536,0.0099,-24.9534,-3.70129,-0.00054,28.48454,13.20393,8.37801,11.95082,1.87699,-13.35583,24.58228,19.84949,-8.18898,48.5038,-11.82794,35.71037,129.51863,-0.00499,-103.19232,118.89883,0.00796,105.66524,-5.14876,-15.26309,0.00631,-3.21183,6.04181,-0.00224,-6.99954,-11.52698,9.63166,-30.28419,-14.34845,4.34762,0.96674,0.95959,6.15919
2609,-4.30921,0.0,-0.0,-2.50359,0.0,0.0,-8.69661,-8.56492,4.75162,16.81635,-1.22858,-21.77578,-30.18355,-1.3886,0.01044,-25.08956,-3.67189,-0.00051,29.8433,13.63531,8.60148,11.80271,1.51752,-13.37826,25.93969,20.2506,-8.6455,49.60224,-11.59921,36.29403,129.9765,-0.00097,-101.98438,118.59065,0.00865,106.46214,-5.98349,-15.60102,0.00436,-2.58166,5.96184,-0.00101,-6.85831,-11.77551,9.78447,-30.16369,-14.6359,4.38808,0.80823,0.96391,6.28908
2610,-5.51416,-0.0,0.0,-2.98535,-0.0,-0.0,-10.70856,-8.56122,3.54179,17.03633,-1.26194,-21.59437,-33.13861,-1.58448,0.0075,-25.2165,-3.65367,-0.00038,31.42815,14.09073,8.76276,11.64765,1.13281,-13.3264,27.44557,20.66292,-9.05706,50.723,-11.39014,36.87637,130.4184,0.00122,-100.88228,118.30679,0.00697,107.33502,-6.64661,-15.92682,0.00157,-1.9332,6.00817,-0.00025,-6.78943,-11.98176,9.95293,-30.1111,-14.89056,4.46022,0.62334,0.92326,6.47739
2611,-7.09082,0.0,-0.0,-3.40695,0.0,0.0,-12.93111,-8.34428,2.09695,17.21799,-1.2242,-21.4581,-36.39885,-1.72627,0.00073,-25.35248,-3.65708,-0.00011,33.22724,14.53434,8.85377,11.50821,0.71059,-13.2161,29.1169,21.08411,-9.44372,51.8535,-11.22025,37.44417,130.83757,0.0013,-99.8026,118.08912,0.00352,108.1904,-7.06478,-16.23674,-0.00138,-1.44838,6.18078,-0.00147,-6.79045,-12.12795,10.11317,-30.12257,-15.08685,4.54926,0.41332,0.82028,6.72576
2612,-8.68602,-0.0,-0.0,-3.70581,-0.0,0.0,-15.16091,-7.88113,0.47666,17.33811,-1.12264,-21.33423,-39.94048,-1.79972,-0.00728,-25.52482,-3.68154,0.00036,35.21173,14.93493,8.89468,11.41138,0.22467,-13.07072,30.93209,21.52695,-9.83573,52.97769,-11.09085,37.98789,131.24304,9e-05,-98.72027,117.96404,-0.00022,108.92822,-7.20872,-16.5169,-0.00346,-1.24313,6.46065,-0.00387,-6.84406,-12.20059,10.22021,-30.18051,-15.195,4.61899,0.18571,0.63914,7.02283
2613,-9.87896,-0.0,-0.0,-3.85912,0.0,0.0,-17.1455,-7.22496,-1.17442,17.41073,-0.96429,-21.18151,-43.73187,-1.81772,-0.01297,-25.76677,-3.72006,0.00105,37.33591,15.27773,8.90616,11.37502,-0.35378,-12.92188,32.83853,22.0057,-10.26867,54.07706,-10.98775,38.49135,131.6481,-0.00125,-97.66681,117.93148,-0.00291,109.4824,-7.11989,-16.74232,-0.00381,-1.26317,6.83262,-0.00423,-6.91964,-12.19789,10.22818,-30.25554,-15.1956,4.62751,-0.05272,0.37183,7.34391
2614,-10.24341,0.0,-0.0,-3.83505,0.0,0.0,-18.67572,-6.49654,-2.66805,17.46801,-0.75359,-20.95496,-47.73014,-1.80672,-0.01424,-26.10682,-3.76654,0.00186,39.54089,15.56197,8.90331,11.3917,-1.04641,-12.82153,34.77482,22.51794,-10.77495,55.13171,-10.89807,38.92202,132.05467,-0.00189,-96.69338,117.97176,-0.00412,109.86551,-6.90185,-16.89571,-0.00246,-1.28885,7.29959,0.00047,-6.97927,-12.13551,10.11366,-30.31217,-15.09398,4.54662,-0.30619,0.02247,7.65462
2615,-9.51234,-0.0,0.0,-3.5844,0.0,-0.0,-19.64247,-5.83454,-3.82614,17.53874,-0.49481,-20.63098,-51.87614,-1.79152,-0.01027,-26.55854,-3.81337,0.0025,41.76395,15.7908,8.8928,11.42518,-1.86354,-12.82716,36.68934,23.0366,-11.37136,56.12452,-10.82694,39.24002,132.44839,-0.00172,-95.82657,118.06026,-0.00398,110.12348,-6.67447,-17.00488,-0.0003,-1.0924,7.88173,0.00957,-6.99219,-12.04351,9.88869,-30.32236,-14.92238,4.37522,-0.5915,-0.39308,7.91855
2616,-7.80952,0.0,0.0,-3.10578,-0.0,-0.0,-20.01116,-5.32472,-4.52168,17.6474,-0.18105,-20.23897,-56.09803,-1.79606,-0.00137,-27.11428,-3.84506,0.0025,43.954,15.9615,8.86128,11.42245,-2.80376,-12.96833,38.54446,23.52142,-12.0481,57.04441,-10.79879,39.42274,132.80679,-0.00103,-95.05861,118.1787,-0.00255,110.23054,-6.5298,-17.15522,0.00188,-0.62804,8.59415,0.01786,-6.9509,-11.95329,9.59794,-30.28029,-14.72691,4.14203,-0.92781,-0.8514,8.10185
2617,-5.61171,-0.0,0.0,-2.47341,0.0,0.0,-19.79646,-4.9809,-4.70347,17.81016,0.18926,-19.8605,-60.32264,-1.83752,0.00991,-27.74453,-3.83536,0.00147,46.08788,16.06304,8.78257,11.33562,-3.85448,-13.22286,40.31074,23.9427,-12.76602,57.88551,-10.84071,39.48171,133.11052,-1e-05,-94.37829,118.31703,5e-05,110.0621,-6.50515,-17.42711,0.00354,-0.06493,9.40649,0.0193,-6.87607,-11.88487,9.30477,-30.20663,-14.55049,3.89781,-1.32127,-1.32678,8.17449
2618,-3.43839,0.0,0.0,-1.79467,0.0,-0.0,-19.06874,-4.78615,-4.39761,18.02389,0.57393,-19.59457,-64.48587,-1.91388,0.0197,-28.40627,-3.75169,-0.00047,48.17506,16.08599,8.6447,11.14357,-4.9924,-13.51288,41.96307,24.3005,-13.46637,58.64709,-10.96134,39.4592,133.35016,0.00122,-93.80717,118.46516,0.00308,109.45096,-6.56568,-17.80906,0.00398,0.33412,10.21634,0.01289,-6.80474,-11.84612,9.07223,-30.13752,-14.42478,3.69784,-1.75641,-1.79821,8.11821
2619,-1.61416,-0.0,-0.0,-1.17015,0.0,-0.0,-17.93878,-4.73227,-3.68313,18.27055,0.88731,-19.52121,-68.53656,-2.0046,0.0247,-29.05677,-3.5668,-0.00266,50.24459,16.03715,8.46512,10.8597,-6.18556,-13.72137,43.48616,24.62518,-14.0941,59.33585,-11.14108,39.40883,133.52759,0.00244,-93.39581,118.60519,0.00504,108.27464,-6.62691,-18.19403,0.00309,0.36201,10.87673,0.0045,-6.76922,-11.84294,8.94139,-30.105,-14.37113,3.57774,-2.20283,-2.25716,7.93965
2620,-0.24219,0.0,-0.0,-0.66883,-0.0,-0.0,-16.51365,-4.81752,-2.66057,18.53046,1.05138,-19.67269,-72.4345,-2.07509,0.02258,-29.66331,-3.27707,-0.00407,52.32064,15.94534,8.28847,10.51527,-7.39637,-13.7403,44.88312,24.95773,-14.6257,59.96672,-11.33894,39.37264,133.65039,0.00349,-93.1571,118.71309,0.00463,106.5922,-6.62478,-18.45853,0.00205,-0.0226,11.27079,0.00077,-6.78019,-11.88717,8.9134,-30.12116,-14.40089,3.53368,-2.63761,-2.70896,7.67422
2621,0.71782,0.0,-0.0,-0.30214,0.0,-0.0,-14.86472,-5.01373,-1.42671,18.78886,1.05509,-20.01315,-76.14697,-2.07706,0.01284,-30.20718,-2.91909,-0.00399,54.40162,15.85719,8.17824,10.13025,-8.58618,-13.53356,46.17596,25.32257,-15.08194,60.55974,-11.51104,39.37103,133.72375,0.00443,-93.00774,118.76566,0.00245,104.76009,-6.54849,-18.54475,0.00187,-0.67653,11.37622,0.00203,-6.82395,-11.99176,8.94609,-30.17479,-14.50959,3.52121,-3.06863,-3.16501,7.37727
2622,1.35975,-0.0,-0.0,-0.03555,0.0,-0.0,-13.02406,-5.25994,-0.04912,19.04261,0.96524,-20.45623,-79.6472,-1.96017,-0.00178,-30.68867,-2.55905,-0.00257,56.46235,15.83025,8.19652,9.70328,-9.72099,-13.14709,47.39502,25.71496,-15.5155,61.13469,-11.62993,39.41126,133.75018,0.00534,-92.75465,118.74689,0.00126,103.3252,-6.4175,-18.49181,0.00233,-1.37211,11.27549,0.00387,-6.8731,-12.15662,8.97264,-30.24031,-14.67123,3.47829,-3.53391,-3.63088,7.10976
2623,1.76361,0.0,-0.0,0.16268,-0.0,0.0,-10.99881,-5.48569,1.44541,19.3081,0.88583,-20.91487,-82.91399,-1.69592,-0.016,-31.13013,-2.25931,-0.00058,58.47442,15.92298,8.37611,9.22595,-10.77839,-12.66185,48.56196,26.11359,-15.98331,61.7061,-11.69388,39.49988,133.74005,0.00555,-92.0959,118.65518,0.00311,102.72519,-6.27814,-18.40129,0.00268,-1.9287,11.10893,0.00351,-6.9012,-12.35931,8.93634,-30.29047,-14.84321,3.36146,-4.077,-4.1005,6.91994
2624,1.97163,0.0,-0.0,0.2953,0.0,0.0,-8.79783,-5.61527,3.04354,19.61657,0.91039,-21.33273,-85.92963,-1.29353,-0.02472,-31.56783,-2.05581,0.0012,60.42073,16.18189,8.70947,8.69657,-11.75436,-12.15423,49.67511,26.50313,-16.5216,62.27942,-11.7218,39.64275,133.72153,0.00323,-90.72375,118.51063,0.00655,103.10104,-6.21627,-18.35861,0.00234,-2.26148,10.99887,0.00173,-6.89105,-12.56173,8.82097,-30.30437,-14.98424,3.17126,-4.72346,-4.56202,6.82552
2625,2.02302,0.0,0.0,0.34955,-0.0,-0.0,-6.46603,-5.57665,4.69936,19.99409,1.07355,-21.6899,-88.67637,-0.79656,-0.02557,-32.03646,-1.95024,0.0022,62.30076,16.6352,9.16037,8.12775,-12.66419,-11.66996,50.70846,26.88501,-17.13477,62.85017,-11.74142,39.83518,133.73465,-0.00299,-88.52369,118.35667,0.00754,104.31485,-6.33303,-18.36329,0.00056,-2.35765,10.9919,0.00018,-6.83476,-12.73034,8.65436,-30.26966,-15.07432,2.94741,-5.46822,-5.00971,6.81295
2626,2.01305,-0.0,-0.0,0.32248,-0.0,0.0,-4.10349,-5.34018,6.31927,20.44041,1.31405,-22.00198,-91.13201,-0.2646,-0.01978,-32.55579,-1.90871,0.00199,64.13022,17.2898,9.68313,7.549,-13.53765,-11.20267,51.62822,27.2704,-17.79745,63.4091,-11.78322,40.05546,133.81085,-0.01115,-85.67519,118.25221,0.00365,106.01145,-6.68067,-18.32182,-0.00361,-2.26089,11.06123,-0.00068,-6.73045,-12.85676,8.4836,-30.18232,-15.12406,2.73707,-6.27643,-5.45282,6.85363
2627,2.08548,-0.0,-0.0,0.23145,0.0,0.0,-1.84307,-4.93178,7.79125,20.92567,1.50478,-22.30594,-93.26621,0.25387,-0.01116,-33.12339,-1.87791,0.00066,65.92623,18.12232,10.24018,6.98795,-14.4126,-10.71411,52.41671,27.66562,-18.46684,63.95138,-11.88122,40.26818,133.95409,-0.01602,-82.60217,118.25526,-0.00255,107.6774,-7.2052,-18.11159,-0.00926,-2.07366,11.16491,-0.00124,-6.57976,-12.96305,8.34292,-30.04571,-15.16698,2.56293,-7.10738,-5.91463,6.91691
2628,2.34842,-0.0,-0.0,0.10597,-0.0,-0.0,0.2048,-4.40036,9.028,21.40754,1.54259,-22.62982,-95.04444,0.74581,-0.00368,-33.71601,-1.81718,-0.00104,67.688,19.08157,10.81226,6.44254,-15.32091,-10.1842,53.08951,28.06362,-19.10422,64.48106,-12.06942,40.43367,134.13568,-0.01354,-79.8575,118.40539,-0.00536,108.81406,-7.75174,-17.6768,-0.0125,-1.91225,11.298,-0.00175,-6.3875,-13.08503,8.24061,-29.86843,-15.23915,2.41783,-7.94586,-6.41789,6.97851
2629,2.80221,0.0,0.0,-0.02196,0.0,0.0,1.99711,-3.78812,9.99301,21.85342,1.41783,-22.96709,-96.43733,1.23754,0.001,-34.30132,-1.7229,-0.00203,69.39642,20.11115,11.39585,5.87951,-16.27242,-9.63861,53.69522,28.447,-19.69606,65.00799,-12.36767,40.5186,134.30367,-0.0054,-77.96459,118.71174,-0.00162,109.17282,-8.13372,-17.08695,-0.01041,-1.82823,11.49256,-0.00212,-6.16341,-13.24462,8.17035,-29.66291,-15.35825,2.28683,-8.80793,-6.96804,7.02782
2630,3.33145,0.0,0.0,-0.1221,0.0,-0.0,3.56093,-3.13518,10.70199,22.25539,1.21548,-23.27595,-97.42546,1.77625,0.00397,-34.85442,-1.62749,-0.00161,71.03265,21.16852,11.99267,5.26013,-17.2546,-9.14125,54.29481,28.79928,-20.26011,65.54147,-12.76758,40.50741,134.40147,0.00184,-77.21222,119.1507,0.00674,108.7963,-8.21978,-16.49327,-0.00509,-1.80078,11.788,-0.002,-5.92604,-13.43222,8.12694,-29.44689,-15.51344,2.16901,-9.71824,-7.55039,7.06292
2631,3.75768,0.0,0.0,-0.16751,0.0,0.0,4.9588,-2.50241,11.20212,22.62891,1.0586,-23.49832,-98.00114,2.39878,0.00716,-35.36958,-1.58004,0.00014,72.59487,22.22981,12.59268,4.5636,-18.24381,-8.7714,54.93504,29.11445,-20.83285,66.08391,-13.23393,40.40891,134.38754,0.0028,-77.51965,119.67549,0.0153,107.85724,-7.98407,-16.01761,-0.001,-1.78678,12.20071,-0.00109,-5.70535,-13.61169,8.10292,-29.24654,-15.66866,2.0724,-10.68603,-8.13765,7.07805
2632,3.95672,0.0,-0.0,-0.13389,0.0,-0.0,6.23615,-1.97188,11.53585,22.99623,1.03338,-23.58508,-98.17069,3.09979,0.01092,-35.86165,-1.61761,0.00241,74.09879,23.28825,13.15721,3.79376,-19.21944,-8.58825,55.63381,29.39488,-21.44874,66.62821,-13.72334,40.25434,134.24742,-0.00262,-78.55242,120.23396,0.02011,106.54301,-7.48613,-15.69261,-6e-05,-1.74529,12.70523,0.0005,-5.53806,-13.74179,8.07139,-29.09434,-15.77568,1.98922,-11.6968,-8.70214,7.06215
2633,4.0096,-0.0,-0.0,-0.00217,-0.0,-0.0,7.37365,-1.61717,11.71264,23.37323,1.1456,-23.53179,-97.94995,3.81631,0.0129,-36.36025,-1.72888,0.00396,75.56775,24.34678,13.62247,2.98326,-20.18391,-8.57684,56.37874,29.64082,-22.12137,67.16297,-14.2061,40.09119,133.99687,-0.01079,-80.01378,120.78414,0.01944,105.05164,-6.8144,-15.49415,-0.00139,-1.65344,13.24006,0.00201,-5.45147,-13.79778,7.98531,-29.01525,-15.79358,1.88632,-12.71148,-9.23396,7.0076
2634,4.2193,0.0,-0.0,0.23578,0.0,-0.0,8.28838,-1.47646,11.70993,23.76998,1.34269,-23.39552,-97.35514,4.43351,0.00947,-36.89872,-1.84804,0.00378,77.0237,25.40529,13.90841,2.19124,-21.16935,-8.63579,57.13476,29.84508,-22.83291,67.68163,-14.67609,39.97188,133.67604,-0.01685,-81.74522,121.29897,0.01398,103.5934,-6.07025,-15.38218,-0.00321,-1.52845,13.73285,0.00255,-5.44277,-13.78164,7.80447,-29.00703,-15.70858,1.72576,-13.67379,-9.74806,6.91321
2635,4.92117,-0.0,-0.0,0.5738,0.0,-0.0,8.89511,-1.54374,11.49944,24.19335,1.57192,-23.25888,-96.39798,4.81677,-0.00042,-37.49833,-1.89896,0.00166,78.47707,26.44515,13.92742,1.47349,-22.21587,-8.6499,57.85972,29.99879,-23.53896,68.18607,-15.14526,39.93476,133.3378,-0.01676,-83.53717,121.76248,0.00623,102.35545,-5.39072,-15.2977,-0.00423,-1.42452,14.12668,0.00197,-5.4715,-13.71877,7.52487,-29.0319,-15.54238,1.49336,-14.53544,-10.26799,6.77466
2636,6.29478,0.0,-0.0,0.98984,0.0,-0.0,9.16499,-1.76815,11.08316,24.64228,1.80765,-23.18309,-95.08334,4.88638,-0.01099,-38.15692,-1.8364,-0.00172,79.91663,27.42014,13.63899,0.84711,-23.34589,-8.56343,58.52341,30.09943,-24.18876,68.6821,-15.63025,39.98878,133.03551,-0.01069,-85.03152,122.16479,-0.00081,101.44422,-4.91591,-15.17601,-0.00445,-1.40779,14.40006,0.00076,-5.4758,-13.64493,7.18249,-29.0313,-15.34174,1.20762,-15.28011,-10.80661,6.57485
2637,8.32198,-0.0,-0.0,1.44735,0.0,-0.0,9.13764,-2.06208,10.51626,25.10172,2.03404,-23.19385,-93.40992,4.69937,-0.01007,-38.84798,-1.64978,-0.00512,81.30812,28.26953,13.13024,0.2844,-24.55367,-8.38767,59.11883,30.15286,-24.74804,69.17485,-16.13942,40.11781,132.80956,-0.00323,-85.90131,122.4987,-0.00514,100.856,-4.69334,-15.0033,-0.00436,-1.5255,14.57553,-0.00064,-5.40521,-13.59193,6.83318,-28.95753,-15.15749,0.90701,-15.9236,-11.35811,6.2891
2638,10.79871,0.0,-0.0,1.89827,0.0,0.0,8.90952,-2.33437,9.89602,25.54434,2.22899,-23.28249,-91.37934,4.44591,0.01214,-39.52888,-1.35945,-0.00709,82.60018,28.95409,12.61409,-0.2683,-25.80532,-8.17776,59.65601,30.17316,-25.20769,69.66979,-16.66646,40.30301,132.67619,0.00111,-86.04899,122.75708,-0.00646,100.52061,-4.63665,-14.84816,-0.00401,-1.78305,14.70567,-0.00212,-5.25045,-13.57883,6.52731,-28.80301,-15.02668,0.63015,-16.49875,-11.89935,5.90469
2639,13.34931,-0.0,0.0,2.28923,0.0,0.0,8.61619,-2.54099,9.32266,25.94256,2.37836,-23.40679,-89.01094,4.32675,0.05131,-40.15497,-1.02313,-0.00672,83.72987,29.49248,12.30448,-0.86651,-27.04723,-8.00776,60.14185,30.1839,-25.57538,70.17603,-17.1933,40.54304,132.62854,0.00137,-85.6349,122.93267,-0.00558,100.36786,-4.5938,-14.82063,-0.00371,-2.14618,14.84038,-0.0035,-5.05132,-13.60901,6.29224,-28.60796,-14.96304,0.40083,-17.04206,-12.40095,5.44228
2640,15.56144,-0.0,0.0,2.58303,0.0,0.0,8.38424,-2.71013,8.86362,26.2823,2.49485,-23.51122,-86.35014,4.39905,0.08567,-40.69373,-0.72551,-0.00434,84.63121,29.96939,12.25988,-1.54743,-28.22133,-7.92867,60.56134,30.21633,-25.86304,70.70658,-17.69953,40.85602,132.6514,-0.00033,-84.98817,123.02049,-0.00351,100.35195,-4.45549,-14.99078,-0.00389,-2.56119,14.99474,-0.00407,-4.8766,-13.67119,6.12671,-28.44024,-14.95574,0.22249,-17.58387,-12.84397,4.96288
2641,17.24168,-0.0,-0.0,2.78525,0.0,-0.0,8.25439,-2.91857,8.54994,26.57002,2.61492,-23.56508,-83.45831,4.49994,0.08721,-41.13271,-0.54412,-0.00122,85.25261,30.501,12.31139,-2.31401,-29.28243,-7.93136,60.87659,30.30014,-26.0815,71.27489,-18.1725,41.26572,132.73624,-0.00116,-84.47731,123.02039,-0.00117,100.44608,-4.21275,-15.34138,-0.00412,-2.97844,15.13369,-0.00301,-4.78925,-13.7461,6.00753,-28.36103,-14.9781,0.08163,-18.13566,-13.23115,4.54571
2642,18.50842,-0.0,0.0,2.93601,0.0,0.0,8.14997,-3.24783,8.39884,26.82972,2.7802,-23.57863,-80.39314,4.30851,0.04238,-41.47864,-0.52566,0.00142,85.57651,31.18039,12.13397,-3.13226,-30.20987,-7.96412,61.04759,30.45089,-26.24127,71.89027,-18.61596,41.78649,132.88297,0.00063,-84.37602,122.94155,0.00059,100.62006,-3.9281,-15.79947,-0.00396,-3.38465,15.18905,-3e-05,-4.81982,-13.81789,5.90415,-28.3993,-15.00374,-0.04336,-18.68032,-13.58506,4.24844
2643,19.59116,0.0,0.0,3.06729,0.0,-0.0,7.93049,-3.74924,8.42416,27.08917,3.00764,-23.58515,-77.19918,3.53686,-0.03401,-41.74808,-0.67989,0.00296,85.62598,32.04621,11.43881,-3.95116,-31.00704,-7.97855,61.06033,30.6626,-26.35651,72.55445,-19.05419,42.41583,133.08917,0.00489,-84.79971,122.81027,0.00113,100.80897,-3.65858,-16.30886,-0.00424,-3.82533,15.10667,0.00424,-4.96124,-13.88157,5.79267,-28.54746,-15.0188,-0.17244,-19.17957,-13.93341,4.08511
2644,20.5647,0.0,0.0,3.17591,0.0,0.0,7.46908,-4.41632,8.616,27.36365,3.26183,-23.6172,-73.90811,2.123,-0.10624,-41.95693,-0.97369,0.00333,85.45052,33.08695,10.1647,-4.72873,-31.69577,-7.94217,60.93919,30.90941,-26.44916,73.25962,-19.52685,43.13641,133.33745,0.00962,-85.74163,122.6717,0.00046,100.93375,-3.40475,-16.85759,-0.00622,-4.36834,14.88957,0.00814,-5.18107,-13.94024,5.6618,-28.77337,-15.02173,-0.31729,-19.5934,-14.29393,4.03731
2645,21.24169,0.0,-0.0,3.23546,0.0,0.0,6.68727,-5.16958,8.91892,27.64993,3.46723,-23.69225,-70.54233,0.27443,-0.14086,-42.11492,-1.33484,0.00284,85.09786,34.25821,8.52642,-5.44796,-32.31356,-7.83029,60.73162,31.15612,-26.54343,73.99098,-20.0761,43.92771,133.59276,0.01202,-87.11279,122.57667,-0.00087,100.97356,-3.11161,-17.43659,-0.00976,-5.0279,14.6111,0.00931,-5.44054,-13.99828,5.51059,-29.03864,-15.01619,-0.48056,-19.89584,-14.66865,4.07887
2646,21.28849,0.0,-0.0,3.23102,0.0,-0.0,5.53595,-5.87005,9.23696,27.93132,3.55603,-23.8081,-67.1233,-1.65557,-0.12608,-42.22279,-1.67373,0.00195,84.58829,35.49869,6.89473,-6.12683,-32.90691,-7.62913,60.47625,31.37266,-26.65029,74.73579,-20.73408,44.78091,133.81383,0.01055,-88.71991,122.55974,-0.00236,100.98337,-2.71216,-17.99072,-0.01258,-5.73042,14.39447,0.00682,-5.71252,-14.06041,5.3442,-29.31664,-15.00849,-0.65947,-20.08311,-15.04409,4.19258
2647,20.43412,0.0,0.0,3.18163,0.0,0.0,3.96709,-6.36694,9.45997,28.18655,3.51239,-23.94013,-63.67861,-3.34815,-0.07509,-42.27131,-1.91907,0.00109,83.90539,36.74644,5.61289,-6.81688,-33.51914,-7.35478,60.18315,31.54384,-26.76197,75.49432,-21.51543,45.70238,133.97008,0.00631,-90.21577,122.62557,-0.00359,101.01461,-2.21352,-18.40658,-0.01204,-6.34474,14.35585,0.0028,-5.99263,-14.13583,5.17129,-29.60393,-15.01044,-0.84984,-20.1737,-15.39726,4.37401
2648,18.57792,0.0,0.0,3.12528,0.0,0.0,1.94457,-6.57014,9.49309,28.39971,3.39747,-24.03283,-60.23787,-4.63725,-0.01482,-42.24578,-2.06099,0.00034,83.00684,37.95306,4.87205,-7.57739,-34.18247,-7.08316,59.843,31.66861,-26.86607,76.2845,-22.41693,46.70277,134.05225,0.00222,-91.16022,122.7541,-0.00384,101.02319,-1.7451,-18.55514,-0.00926,-6.7509,14.53813,0.00044,-6.29666,-14.23751,5.00103,-29.91775,-15.03747,-1.04861,-20.19659,-15.70992,4.62604
2649,15.81268,0.0,0.0,3.08852,0.0,0.0,-0.52768,-6.50531,9.27694,28.56583,3.33119,-24.01063,-56.82145,-5.52566,0.02981,-42.13511,-2.15899,-0.00061,81.85074,39.09171,4.68068,-8.43935,-34.91151,-6.93948,59.45025,31.75332,-26.95878,77.13528,-23.42124,47.78751,134.07346,0.00028,-91.23904,122.91904,-0.00247,100.86896,-1.4719,-18.3877,-0.00831,-6.91397,14.8873,0.00047,-6.64378,-14.37288,4.83988,-30.27819,-15.09891,-1.25295,-20.17377,-15.97753,4.95087
2650,12.40098,-0.0,-0.0,3.06599,0.0,0.0,-3.38942,-6.30745,8.79902,28.68987,3.42618,-23.81735,-53.43493,-6.12425,0.04666,-41.93807,-2.29402,-0.00204,80.42184,40.15421,4.90242,-9.39256,-35.69454,-7.03278,59.01394,31.8066,-27.03865,78.07199,-24.49768,48.96056,134.0616,-7e-05,-90.40685,123.10228,0.00053,100.39126,-1.45881,-17.99578,-0.01016,-6.90466,15.28186,0.00125,-7.03515,-14.53663,4.69386,-30.68594,-15.19221,-1.45518,-20.11088,-16.19955,5.34051
2651,8.6658,-0.0,-0.0,3.01944,0.0,-0.0,-6.50963,-6.15498,8.10561,28.78479,3.73698,-23.44447,-50.07434,-6.56719,0.03782,-41.66351,-2.51358,-0.00359,78.7421,41.13676,5.33249,-10.39495,-36.49854,-7.40412,58.54758,31.83668,-27.09076,79.10552,-25.60029,50.23568,134.04655,-0.00061,-88.85974,123.29443,0.00441,99.4616,-1.62139,-17.56014,-0.01187,-6.85534,15.58915,0.00169,-7.44453,-14.71636,4.5757,-31.1137,-15.31095,-1.63847,-19.99294,-16.36613,5.76924
2652,4.91161,-0.0,-0.0,2.92169,-0.0,0.0,-9.684,-6.17538,7.30791,28.86298,4.24581,-22.93819,-46.73515,-6.95628,0.01421,-41.32755,-2.79638,-0.00422,76.86295,42.0318,5.76766,-11.38135,-37.2908,-7.99368,58.05418,31.8507,-27.08327,80.23531,-26.67381,51.64159,134.05264,-0.00213,-86.95822,123.48561,0.00753,98.01929,-1.78455,-17.24137,-0.01135,-6.89996,15.71783,0.00244,-7.8326,-14.90564,4.5057,-31.52184,-15.45712,-1.7816,-19.78127,-16.45842,6.20538
2653,1.43911,-0.0,-0.0,2.81128,0.0,0.0,-12.65614,-6.36791,6.5554,28.92178,4.86065,-22.38894,-43.42293,-7.33814,-0.0095,-40.94769,-3.0477,-0.00302,74.83873,42.8355,6.05637,-12.2793,-38.05642,-8.62723,57.52598,31.85737,-26.98241,81.46196,-27.67393,53.21242,134.09879,-0.00373,-85.10266,123.6599,0.00813,96.14175,-1.80198,-17.09332,-0.00896,-7.12428,15.64636,0.00409,-8.17784,-15.10865,4.50077,-31.88973,-15.64109,-1.87083,-19.42905,-16.45837,6.64156
2654,-1.4869,0.0,0.0,2.7637,0.0,-0.0,-15.15378,-6.60331,5.96775,28.94518,5.45963,-21.87823,-40.16528,-7.68428,-0.01969,-40.53365,-3.16542,-0.00033,72.69794,43.55269,6.15426,-13.03756,-38.80167,-9.10732,56.96038,31.87006,-26.77645,82.79514,-28.58985,54.96902,134.19763,-0.00354,-83.65584,123.80009,0.00583,94.08125,-1.63166,-17.04352,-0.00515,-7.5342,15.42612,0.00566,-8.50029,-15.33037,4.56133,-32.23816,-15.86759,-1.90793,-18.90893,-16.35918,7.11134
2655,-3.73201,0.0,-0.0,2.81187,-0.0,-0.0,-16.95378,-6.71598,5.5728,28.9181,5.97051,-21.42343,-37.01557,-7.89557,-0.01084,-40.082,-3.12616,0.00253,70.44631,44.18731,6.13691,-13.64447,-39.54044,-9.35473,56.37742,31.90362,-26.49373,84.24805,-29.44758,56.90506,134.34729,-0.00055,-82.94991,123.89603,0.00207,92.16566,-1.30885,-16.94504,0.00013,-8.05561,15.15214,0.00558,-8.85728,-15.56388,4.66775,-32.62352,-16.12263,-1.90811,-18.22192,-16.16506,7.67315
2656,-5.33674,0.0,-0.0,2.93519,0.0,-0.0,-17.96572,-6.62845,5.30847,28.82972,6.39274,-20.99566,-34.03809,-7.86515,0.01049,-39.58219,-2.9859,0.00439,68.10173,44.73626,6.11322,-14.11824,-40.26924,-9.42025,55.82227,31.96697,-26.20117,85.82404,-30.28729,58.98761,134.52464,0.00359,-83.18331,123.94739,-0.00116,90.61166,-0.89535,-16.66156,0.00574,-8.5628,14.91247,0.0037,-9.31164,-15.78859,4.79009,-33.10594,-16.37576,-1.89021,-17.38419,-15.87643,8.37817
2657,-6.47834,-0.0,0.0,3.10858,-0.0,0.0,-18.27081,-6.41299,5.08154,28.67124,6.75422,-20.58119,-31.28031,-7.55913,0.03086,-39.03063,-2.81647,0.00472,65.72379,45.2014,6.11901,-14.47578,-40.94905,-9.3779,55.34731,32.06227,-25.97843,87.50532,-31.13174,61.16893,134.69496,0.00581,-84.28468,123.96107,-0.00285,89.44267,-0.46931,-16.14536,0.00895,-8.92165,14.76204,0.00141,-9.89308,-15.97921,4.90625,-33.71169,-16.59526,-1.86385,-16.4088,-15.4766,9.2459
2658,-7.33043,-0.0,0.0,3.31745,0.0,0.0,-18.08639,-6.22759,4.8165,28.44292,7.07495,-20.20375,-28.74854,-7.04613,0.03965,-38.43773,-2.6728,0.00339,63.40728,45.60257,6.10713,-14.71628,-41.50724,-9.26579,54.98375,32.19624,-25.87739,89.25019,-31.97044,63.39836,134.83391,0.00475,-85.93105,123.94833,-0.00307,88.59534,-0.12136,-15.46775,0.00791,-9.04091,14.73179,0.00019,-10.57731,-16.11377,5.013,-34.41359,-16.75979,-1.82264,-15.30146,-14.93492,10.25207
2659,-7.87269,-0.0,-0.0,3.52518,0.0,-0.0,-17.68614,-6.172,4.45558,28.16307,7.36449,-19.89496,-26.39789,-6.45934,0.03435,-37.82122,-2.60504,0.0006,61.24279,45.96873,6.03112,-14.84434,-41.8596,-9.12708,54.72292,32.392,-25.89314,91.00111,-32.76941,65.62821,134.94203,0.00156,-87.66352,123.92369,-0.00245,88.04316,0.07638,-14.77763,0.00397,-8.91339,14.83448,0.00018,-11.29294,-16.17521,5.11708,-35.13805,-16.8564,-1.75305,-14.0771,-14.22382,11.32571
2660,-7.85898,0.0,-0.0,3.66676,0.0,0.0,-17.32027,-6.20418,3.95647,27.8638,7.62085,-19.6706,-24.13791,-5.93229,0.01878,-37.19741,-2.65646,-0.00269,59.27832,46.31714,5.92044,-14.89516,-41.94287,-9.03518,54.52072,32.68419,-25.97166,92.70255,-33.49544,67.81651,135.04086,-0.00187,-89.05269,123.90327,-0.00171,87.79764,0.10264,-14.22767,0.00029,-8.61295,15.04762,5e-05,-11.94805,-16.15332,5.21535,-35.79166,-16.87453,-1.65359,-12.77478,-13.33702,12.36349
2661,-7.072,0.0,-0.0,3.7018,-0.0,0.0,-17.16955,-6.20064,3.34828,27.57537,7.81457,-19.54787,-21.85132,-5.55461,-0.00098,-36.58183,-2.82653,-0.00489,57.50284,46.64702,5.87626,-14.91769,-41.7425,-9.02564,54.32167,33.09471,-26.04788,94.32013,-34.13462,69.93416,135.15675,-0.00426,-89.88795,123.89945,-0.00136,87.86054,-0.00508,-13.91923,-0.00126,-8.25726,15.28835,-0.00144,-12.46173,-16.05257,5.28631,-36.29382,-16.80993,-1.5459,-11.45037,-12.2989,13.26618
2662,-5.70286,0.0,0.0,3.66656,0.0,-0.0,-17.33799,-6.09904,2.8113,27.31257,7.89212,-19.56818,-19.42673,-5.35635,-0.01869,-35.99358,-3.0511,-0.00491,55.85775,46.94479,6.00182,-14.93602,-41.30051,-9.02864,54.08636,33.60759,-26.08229,95.84756,-34.69238,71.97082,135.30356,-0.00468,-90.27991,123.91438,-0.00138,88.1804,-0.15901,-13.8753,-0.00129,-7.96885,15.40564,-0.0032,-12.78966,-15.89923,5.30288,-36.6033,-16.67609,-1.466,-10.15396,-11.16116,13.97451
2663,-4.48305,0.0,0.0,3.65193,0.0,-0.0,-17.86911,-5.98383,2.66324,27.07491,7.82006,-19.77634,-16.80275,-5.30609,-0.0282,-35.45412,-3.24321,-0.00315,54.2739,47.18539,6.32982,-14.93813,-40.69692,-8.91672,53.8076,34.16901,-26.07132,97.29178,-35.17749,73.9236,135.47385,-0.00285,-90.59128,123.94089,-0.00141,88.6136,-0.24357,-14.03496,-0.00134,-7.84161,15.22633,-0.00174,-12.93464,-15.73553,5.25327,-36.72808,-16.50705,-1.44263,-8.91477,-9.98895,14.47746
2664,-4.36673,0.0,0.0,3.7294,-0.0,0.0,-18.75047,-6.03235,3.19477,26.85856,7.62533,-20.1732,-14.00573,-5.31962,-0.02537,-34.98084,-3.35778,-0.00105,52.71112,47.33577,6.80062,-14.89845,-40.01409,-8.61646,53.50661,34.71796,-26.03163,98.64342,-35.58675,75.77338,135.64334,-4e-05,-91.22697,123.97243,-0.00109,88.96252,-0.15292,-14.27518,-0.00146,-7.93299,14.65603,0.00539,-12.93819,-15.59988,5.14842,-36.71442,-16.34221,-1.4819,-7.74496,-8.84295,14.79656
2665,-6.01168,0.0,-0.0,3.92891,0.0,0.0,-19.87965,-6.37327,4.45782,26.66284,7.37253,-20.71376,-11.15629,-5.29186,-0.01165,-34.58204,-3.4014,0.00041,51.18047,47.37161,7.29217,-14.80542,-39.30236,-8.13797,53.21392,35.22148,-25.97917,99.85542,-35.90691,77.46927,135.78346,0.00132,-92.40494,124.01257,-0.00024,89.07462,0.17277,-14.4621,-0.00035,-8.27531,13.75381,0.01579,-12.86094,-15.50809,5.01014,-36.62488,-16.20451,-1.57036,-6.65162,-7.76219,14.96485
2666,-9.4371,0.0,-0.0,4.26077,0.0,-0.0,-21.04626,-6.9766,6.16645,26.48724,7.10848,-21.34436,-8.43407,-5.14802,0.0051,-34.25517,-3.393,0.0011,49.73771,47.29633,7.68119,-14.68166,-38.56697,-7.52782,52.95438,35.68258,-25.92515,100.84931,-36.13284,78.93255,135.87215,-0.00012,-94.03491,124.07656,0.00124,88.88999,0.72358,-14.50776,0.00241,-8.85416,12.71624,0.02259,-12.76667,-15.45197,4.85383,-36.52226,-16.09245,-1.69036,-5.64727,-6.75579,15.0097
2667,-14.02358,0.0,0.0,4.70021,0.0,-0.0,-21.9917,-7.66095,7.78975,26.33236,6.84188,-22.01122,-6.01462,-4.88591,0.01555,-33.99018,-3.34145,0.00124,48.44652,47.15046,7.9077,-14.5801,-37.78551,-6.83949,52.75224,36.1168,-25.89066,101.54736,-36.28455,80.07917,135.89597,-0.00311,-95.76458,124.18243,0.00299,88.44215,1.4134,-14.3964,0.00521,-9.55765,11.78905,0.02062,-12.71504,-15.41594,4.68123,-36.46431,-15.99246,-1.83371,-4.75358,-5.81116,14.9516
2668,-18.82471,-0.0,-0.0,5.17532,0.0,0.0,-22.49493,-8.22094,8.7881,26.20233,6.55269,-22.65162,-4.01851,-4.58066,0.01589,-33.77806,-3.24574,0.00109,47.34186,47.00772,7.9881,-14.54588,-36.93915,-6.11507,52.64655,36.52183,-25.91865,101.91057,-36.40733,80.8531,135.84575,-0.00476,-97.15755,124.33598,0.00409,87.85015,2.10548,-14.16809,0.0059,-10.18565,11.16287,0.01253,-12.75424,-15.3944,4.48418,-36.49837,-15.89624,-2.00553,-3.99383,-4.91028,14.82208
2669,-22.95697,-0.0,0.0,5.60169,0.0,0.0,-22.4166,-8.57332,8.83473,26.1021,6.21441,-23.20129,-2.50807,-4.34237,0.00992,-33.61656,-3.1037,0.00076,46.43026,46.9481,7.96228,-14.58167,-36.03083,-5.37808,52.69116,36.86818,-26.06292,101.96316,-36.55463,81.25383,135.71454,-0.00266,-97.89108,124.52045,0.00367,87.2879,2.6645,-13.88253,0.00393,-10.5496,10.9192,0.0062,-12.90611,-15.39198,4.25244,-36.64651,-15.80407,-2.21712,-3.38089,-4.04054,14.67289
2670,-25.79681,-0.0,0.0,5.90842,-0.0,-0.0,-21.72845,-8.79867,7.89676,26.03602,5.82376,-23.60958,-1.51967,-4.25246,0.00467,-33.50843,-2.92958,0.0003,45.71882,47.0135,7.83153,-14.64555,-35.08436,-4.66026,52.93032,37.11547,-26.35983,101.79317,-36.76781,81.33763,135.50339,0.00321,-97.85329,124.70084,0.00188,86.93637,3.00191,-13.59709,0.00066,-10.54866,11.04365,0.00637,-13.15211,-15.40693,3.98104,-36.88973,-15.71243,-2.47225,-2.90882,-3.20026,14.55914
2671,-27.02242,0.0,0.0,6.03582,0.0,0.0,-20.55085,-9.05277,6.19361,26.00981,5.40077,-23.85642,-1.08868,-4.32279,0.00426,-33.45844,-2.7586,-0.00016,45.22654,47.17923,7.54076,-14.67227,-34.13547,-4.01353,53.37033,37.23503,-26.80503,101.52759,-37.0643,81.19132,135.2305,0.01022,-97.10845,124.83835,-4e-05,86.88953,3.09511,-13.37167,-0.00172,-10.17884,11.44774,0.01094,-13.4362,-15.41795,3.67479,-37.16944,-15.60368,-2.75754,-2.55687,-2.40283,14.51727
2672,-26.71318,0.0,-0.0,5.9418,-0.0,0.0,-19.1496,-9.42066,4.10843,26.0289,4.96431,-23.95817,-1.24618,-4.49572,0.00678,-33.47034,-2.63194,-0.00038,44.96009,47.36118,7.00848,-14.61048,-33.22194,-3.4921,53.97171,37.22389,-27.34848,101.28856,-37.43411,80.89778,134.93362,0.01459,-95.81685,124.90502,-0.00123,87.0537,2.98001,-13.2802,-0.00167,-9.54106,11.98276,0.01393,-13.68812,-15.39258,3.34893,-37.41186,-15.45403,-3.04543,-2.31088,-1.67609,14.55479
2673,-25.49836,0.0,-0.0,5.63397,0.0,0.0,-17.84993,-9.82456,2.08248,26.09163,4.53303,-23.94715,-2.00356,-4.67155,0.0061,-33.54153,-2.58391,-0.00024,44.88667,47.44715,6.19061,-14.45862,-32.37611,-3.14458,54.66453,37.10799,-27.90773,101.14795,-37.84096,80.5121,134.66046,0.01371,-94.2295,124.89014,-0.00203,87.21538,2.7259,-13.39675,0.00064,-8.81949,12.47991,0.01184,-13.85193,-15.31276,3.02691,-37.55967,-15.25606,-3.30696,-2.18255,-1.05437,14.64814
2674,-24.42159,0.0,0.0,5.19027,-0.0,0.0,-16.91956,-10.05136,0.49816,26.18505,4.13775,-23.8519,-3.34333,-4.74823,-0.00312,-33.66064,-2.6292,0.00014,44.93633,47.33617,5.15,-14.2638,-31.62239,-3.00126,55.36933,36.93373,-28.39433,101.10614,-38.22927,80.05981,134.44862,0.00811,-92.75792,124.79577,-0.0029,87.23875,2.40946,-13.74894,0.00334,-8.20687,12.79847,0.00656,-13.90242,-15.19273,2.73577,-37.59013,-15.03326,-3.52344,-2.20001,-0.56596,14.74858
2675,-24.31655,0.0,-0.0,4.71555,-0.0,-0.0,-16.51636,-9.86105,-0.41916,26.29233,3.80504,-23.70127,-5.21831,-4.66282,-0.02051,-33.81158,-2.74697,0.00048,45.03638,46.9685,4.074,-14.0813,-30.97917,-3.04973,56.00945,36.74924,-28.74123,101.10864,-38.53902,79.5537,134.30792,0.00113,-91.92609,124.62806,-0.00352,87.14174,2.09605,-14.27435,0.00434,-7.83649,12.86077,0.00251,-13.84571,-15.07055,2.49803,-37.51432,-14.8292,-3.69018,-2.37167,-0.22304,14.79547
2676,-25.22357,0.0,0.0,4.27227,0.0,-0.0,-16.68918,-9.10591,-0.62668,26.40332,3.5366,-23.52841,-7.55546,-4.42126,-0.03877,-33.97712,-2.88768,0.00052,45.14557,46.33395,3.21151,-13.9398,-30.46068,-3.24616,56.51527,36.58354,-28.9178,101.08678,-38.72618,79.01002,134.21986,-0.00415,-92.09425,124.39371,-0.0031,87.02976,1.81761,-14.82939,0.00311,-7.75402,12.68544,0.00184,-13.71114,-14.98005,2.32318,-37.36559,-14.67854,-3.81258,-2.66181,-0.01921,14.73094
2677,-26.48942,-0.0,-0.0,3.86717,0.0,-0.0,-17.35873,-7.81272,-0.19582,26.51511,3.313,-23.36559,-10.26322,-4.1032,-0.04752,-34.14078,-3.00218,0.00027,45.26056,45.46754,2.75759,-13.83646,-30.07075,-3.54704,56.83,36.43494,-28.92871,100.99276,-38.77805,78.44962,134.15547,-0.00674,-93.18554,124.10171,-0.00124,87.02984,1.55395,-15.25703,0.00062,-7.93102,12.39603,0.00276,-13.5393,-14.92714,2.20723,-37.18508,-14.58512,-3.89669,-3.00257,0.07001,14.51603
2678,-27.33699,0.0,0.0,3.48806,-0.0,0.0,-18.29942,-6.19799,0.78503,26.62679,3.1189,-23.23767,-13.24031,-3.83509,-0.03996,-34.29164,-3.06709,-3e-05,45.40174,44.44036,2.74897,-13.74416,-29.79256,-3.92004,56.92585,36.27566,-28.80434,100.80988,-38.71345,77.88288,134.09451,-0.00687,-94.7101,123.76483,0.00145,87.22961,1.25629,-15.46347,-0.00203,-8.29531,12.16329,0.00238,-13.36596,-14.88743,2.14226,-37.00581,-14.52357,-3.93966,-3.32266,0.08464,14.14618
2679,-27.26197,-0.0,0.0,3.13298,0.0,0.0,-19.18993,-4.61921,2.2503,26.73729,2.96832,-23.15286,-16.38576,-3.73957,-0.01748,-34.42819,-3.09403,-0.00014,45.5848,43.33698,3.04789,-13.62698,-29.58989,-4.34244,56.82406,36.07033,-28.59277,100.53994,-38.57175,77.2936,134.03072,-0.0051,-96.04749,123.40015,0.00364,87.62572,0.90328,-15.45196,-0.0039,-8.75665,12.11017,0.00021,-13.20547,-14.82308,2.12449,-36.83817,-14.45774,-3.92926,-3.57426,0.06713,13.6556
2680,-26.05925,0.0,0.0,2.81143,0.0,0.0,-19.72503,-3.4608,4.1316,26.84615,2.89889,-23.10691,-19.61053,-3.88617,0.01115,-34.55456,-3.11653,0.0,45.80016,42.22518,3.43123,-13.4569,-29.42004,-4.79013,56.59675,35.79861,-28.35069,100.18459,-38.39945,76.63747,133.96663,-0.00231,-96.6963,123.03033,0.00444,88.14703,0.51939,-15.30222,-0.00426,-9.21594,12.26622,-0.00183,-13.04466,-14.70585,2.15158,-36.66603,-14.36084,-3.85597,-3.74368,0.04312,13.10444
2681,-23.75662,0.0,-0.0,2.53791,0.0,-0.0,-19.71726,-2.97086,6.31747,26.95336,2.94466,-23.10064,-22.84939,-4.26796,0.03519,-34.67154,-3.16882,0.00032,46.03078,41.14146,3.72116,-13.21137,-29.24251,-5.22704,56.33844,35.47119,-28.12436,99.73303,-38.23607,75.85719,133.90733,0.0004,-96.38455,122.68147,0.00381,88.71681,0.15072,-15.1128,-0.00324,-9.57239,12.5844,-0.00198,-12.85617,-14.53397,2.21556,-36.46169,-14.22815,-3.72638,-3.83373,0.01591,12.55429
2682,-20.63237,0.0,0.0,2.32956,0.0,0.0,-19.13549,-3.14036,8.63522,27.05535,3.10746,-23.15036,-26.06651,-4.81262,0.04759,-34.76928,-3.27236,0.00059,46.27617,40.09715,3.87193,-12.87111,-29.02115,-5.60868,56.12212,35.13262,-27.92618,99.16037,-38.09909,74.90881,133.85623,0.00215,-95.13808,122.37561,0.00244,89.28907,-0.15346,-14.93845,-0.00187,-9.77487,12.97535,-0.00064,-12.62253,-14.33405,2.3061,-36.21017,-14.08004,-3.56099,-3.84465,-0.02247,12.04215
2683,-17.18341,-0.0,-0.0,2.19715,0.0,0.0,-18.07942,-3.72187,10.86312,27.1423,3.34051,-23.28166,-29.25039,-5.41746,0.04743,-34.82827,-3.43001,0.00063,46.5463,39.08965,3.96176,-12.4333,-28.72882,-5.89303,55.9665,34.84943,-27.72408,98.43607,-37.97548,73.7829,133.81302,0.00272,-93.26241,122.12563,0.00106,89.8605,-0.36243,-14.76995,-0.00112,-9.85895,13.35604,0.00054,-12.34914,-14.14654,2.42575,-35.92096,-13.95457,-3.37413,-3.77562,-0.07655,11.56567
2684,-13.9517,0.0,0.0,2.13028,0.0,-0.0,-16.71463,-4.38522,12.77452,27.20231,3.5712,-23.50725,-32.40279,-5.98708,0.03852,-34.82919,-3.63385,0.0004,46.84802,38.11296,4.1129,-11.91165,-28.35125,-6.05613,55.83294,34.68449,-27.45563,97.54259,-37.83006,72.50689,133.77649,0.00231,-91.20582,121.93574,-3e-05,90.44736,-0.49051,-14.57995,-0.00125,-9.88573,13.69451,0.00079,-12.05507,-14.00428,2.59881,-35.61673,-13.8913,-3.15701,-3.62839,-0.13659,11.09294
2685,-11.33765,-0.0,-0.0,2.09101,0.0,-0.0,-15.19918,-4.8915,14.20425,27.22696,3.74015,-23.81157,-35.52548,-6.4589,0.02612,-34.76299,-3.87367,5e-05,47.17645,37.16769,4.4073,-11.32479,-27.88374,-6.09596,55.65497,34.66369,-27.06388,96.49586,-37.63277,71.13591,133.74883,0.00137,-89.45725,121.80247,-0.00079,91.03034,-0.57536,-14.38678,-0.00187,-9.86537,13.99208,0.00027,-11.75619,-13.9189,2.85381,-35.31479,-13.91195,-2.88816,-3.40963,-0.17559,10.59448
2686,-9.51365,-0.0,-0.0,2.02153,0.0,-0.0,-13.64417,-5.16657,15.09061,27.21282,3.81685,-24.15853,-38.60857,-6.80602,0.01341,-34.63231,-4.13292,-0.00021,47.51012,36.2588,4.85418,-10.696,-27.32681,-6.02396,55.38667,34.75355,-26.53673,95.3473,-37.387,69.73859,133.73589,0.00063,-88.46506,121.71373,-0.00115,91.54589,-0.62994,-14.27014,-0.00241,-9.76617,14.21748,-0.00088,-11.46111,-13.88133,3.18599,-35.0223,-14.0064,-2.56813,-3.13647,-0.16079,10.06944
2687,-8.39802,0.0,0.0,1.86001,0.0,0.0,-12.13556,-5.2657,15.44962,27.16262,3.8074,-24.50117,-41.62673,-7.01277,0.00033,-34.44576,-4.39063,-0.00029,47.82351,35.37885,5.42493,-10.05089,-26.68882,-5.87511,55.03889,34.87223,-25.92483,94.16121,-37.13293,68.37699,133.74309,0.00071,-88.4353,121.65134,-0.00106,91.93832,-0.65184,-14.32746,-0.00241,-9.57566,14.29493,-0.00247,-11.17701,-13.87066,3.53489,-34.743,-14.13202,-2.24365,-2.82981,-0.07524,9.54389
2688,-7.69103,-0.0,-0.0,1.56694,0.0,0.0,-10.77638,-5.29303,15.31676,27.08392,3.75767,-24.78616,-44.5447,-7.05439,-0.01366,-34.21185,-4.63461,-0.00026,48.10141,34.49975,6.10098,-9.4108,-25.98878,-5.71915,54.67465,34.93292,-25.32315,92.98749,-36.92206,67.08999,133.77171,0.00138,-89.17309,121.60103,-0.00063,92.19521,-0.67342,-14.6057,-0.00126,-9.34865,14.17702,-0.00344,-10.90723,-13.86272,3.80702,-34.47644,-14.23038,-1.9906,-2.50596,0.07113,9.0493
2689,-7.0282,0.0,0.0,1.16026,-0.0,-0.0,-9.68569,-5.33379,14.72502,26.98005,3.73338,-24.96951,-47.32676,-6.91239,-0.02666,-33.93623,-4.86613,-0.00027,48.33584,33.58841,6.87316,-8.79369,-25.24822,-5.63371,54.36734,34.88888,-24.82382,91.84866,-36.78562,65.88912,133.8172,0.00188,-90.20819,121.56113,-5e-05,92.33197,-0.76769,-15.05887,0.00115,-9.20063,13.90386,-0.00278,-10.6395,-13.83572,3.93354,-34.20768,-14.25475,-1.8633,-2.1814,0.25481,8.60307
2690,-6.17291,0.0,0.0,0.72535,0.0,-0.0,-8.96068,-5.42729,13.72511,26.84249,3.79123,-25.03586,-49.94205,-6.60107,-0.035,-33.62291,-5.09376,-0.00043,48.52065,32.6266,7.71546,-8.21155,-24.4802,-5.66584,54.15641,34.74847,-24.46826,90.74532,-36.71817,64.76473,133.8707,0.00185,-91.10642,121.53961,0.00054,92.33467,-0.99256,-15.56822,0.0035,-9.23772,13.58037,-0.00125,-10.3453,-13.7752,3.91663,-33.90713,-14.19271,-1.85387,-1.87274,0.46179,8.20063
2691,-5.1206,0.0,-0.0,0.37356,0.0,-0.0,-8.64564,-5.57653,12.40783,26.65449,3.95475,-25.00115,-52.36105,-6.17416,-0.03564,-33.27692,-5.32612,-0.00073,48.64712,31.61857,8.58098,-7.66185,-23.68923,-5.81583,54.03033,34.55813,-24.22751,89.67051,-36.6803,63.6994,133.92577,0.00157,-91.68646,121.54165,0.00097,92.1507,-1.32714,-16.01432,0.00401,-9.49368,13.31697,-0.00082,-9.99899,-13.67811,3.82432,-33.54984,-14.06787,-1.89862,-1.58814,0.69617,7.82245
2692,-4.07673,0.0,0.0,0.17819,0.0,-0.0,-8.72217,-5.7763,10.90146,26.40139,4.19622,-24.89722,-54.5518,-5.7177,-0.02784,-32.90687,-5.56605,-0.00102,48.69587,30.59168,9.41356,-7.12451,-22.87775,-6.03987,53.94064,34.37474,-24.02064,88.62044,-36.61565,62.68145,133.98553,0.00134,-91.99866,121.5595,0.00106,91.78301,-1.66534,-16.3463,0.00241,-9.93228,13.18795,-0.00212,-9.59887,-13.55073,3.7382,-33.13589,-13.91767,-1.92526,-1.32616,0.97227,7.45412
2693,-3.32881,0.0,-0.0,0.13872,0.0,0.0,-9.12425,-6.03765,9.33674,26.07958,4.44109,-24.75127,-56.48556,-5.33292,-0.01407,-32.52408,-5.80833,-0.00113,48.6393,29.58672,10.15361,-6.57257,-22.04997,-6.2739,53.83315,34.24369,-23.75844,87.59559,-36.47735,61.70567,134.06235,0.00092,-92.14725,121.57449,0.00075,91.32431,-1.87843,-16.5988,-0.00031,-10.4659,13.20745,-0.00372,-9.16855,-13.40005,3.69774,-32.6902,-13.7638,-1.90046,-1.08182,1.30145,7.10097
2694,-3.08932,-0.0,-0.0,0.1937,0.0,-0.0,-9.77902,-6.38665,7.79947,25.69974,4.59852,-24.57787,-58.14779,-5.10774,0.0008,-32.13724,-6.03849,-0.00096,48.45698,28.63431,10.74113,-5.99323,-21.21354,-6.46816,53.67628,34.18534,-23.38574,86.59656,-36.25285,60.7632,134.16989,-0.00025,-92.14322,121.56844,0.0003,90.88044,-1.88749,-16.85465,-0.00327,-10.9592,13.32839,-0.00375,-8.73983,-13.22816,3.68487,-32.24463,-13.60119,-1.8417,-0.85264,1.68166,6.78336
2695,-3.40253,0.0,0.0,0.26472,0.0,0.0,-10.65564,-6.83529,6.3042,25.28348,4.60215,-24.38515,-59.54411,-5.08319,0.01167,-31.7491,-6.23414,-0.0005,48.15171,27.73683,11.13368,-5.39641,-20.38037,-6.60435,53.4717,34.19088,-22.90001,85.62204,-35.9692,59.83892,134.31279,-0.00238,-91.89432,121.53199,1e-05,90.52952,-1.69848,-17.18327,-0.00554,-11.26511,13.48255,-0.00195,-8.3356,-13.03727,3.65925,-31.82178,-13.41618,-1.78697,-0.63847,2.09474,6.52179
2696,-4.14258,0.0,-0.0,0.29857,0.0,0.0,-11.79196,-7.34998,4.79952,24.85645,4.44593,-24.18047,-60.69743,-5.22579,0.01563,-31.35818,-6.37699,1e-05,47.75795,26.87208,11.34026,-4.7985,-19.56361,-6.69433,53.24578,34.231,-22.34352,84.67048,-35.67151,58.92058,134.4796,-0.00466,-91.30015,121.46335,4e-05,90.32465,-1.40328,-17.58815,-0.00589,-11.2972,13.62404,0.00039,-7.96603,-12.83677,3.61128,-31.43272,-13.21365,-1.74895,-0.43416,2.51373,6.32466
2697,-5.09876,-0.0,-0.0,0.2838,0.0,-0.0,-13.26498,-7.84924,3.20123,24.4423,4.19439,-23.9734,-61.63652,-5.43793,0.01337,-30.96271,-6.46715,0.00031,47.33435,26.01237,11.42799,-4.2005,-18.7704,-6.76732,53.02909,34.27399,-21.77925,83.73997,-35.39101,58.00529,134.6443,-0.00549,-90.35171,121.36387,0.0002,90.28275,-1.1509,-17.99199,-0.00435,-11.07435,13.72809,0.00183,-7.6351,-12.63858,3.58178,-31.08306,-13.02039,-1.69505,-0.22421,2.91506,6.18291
2698,-6.11524,0.0,0.0,0.23686,0.0,-0.0,-15.10621,-8.23564,1.445,24.06095,3.95455,-23.78062,-62.37993,-5.62098,0.00831,-30.56526,-6.52116,0.00028,46.93797,25.14176,11.47751,-3.58171,-17.99948,-6.84617,52.83614,34.30006,-21.26487,82.82491,-35.12933,57.09509,134.77498,-0.00382,-89.16375,121.24088,0.0001,90.36372,-1.08875,-18.27197,-0.00356,-10.70046,13.76483,0.00175,-7.34493,-12.44295,3.62901,-30.77555,-12.85924,-1.5718,0.01379,3.285,6.07283
2699,-7.1782,-0.0,0.0,0.1722,0.0,-0.0,-17.22338,-8.43087,-0.46996,23.72916,3.82421,-23.62266,-62.92305,-5.742,0.00376,-30.17522,-6.55502,6e-05,46.59187,24.25706,11.5347,-2.9111,-17.25348,-6.92979,52.65977,34.3042,-20.83707,81.91472,-34.86763,56.18952,134.84203,-0.00021,-87.93368,121.11476,-0.00043,90.48362,-1.30012,-18.32261,-0.00654,-10.30237,13.7001,0.00064,-7.09248,-12.23252,3.77894,-30.50562,-12.72437,-1.34821,0.29903,3.61342,5.96614
2700,-8.35596,0.0,-0.0,0.08366,0.0,0.0,-19.39531,-8.38518,-2.47708,23.45607,3.84722,-23.50647,-63.24134,-5.84302,0.00079,-29.80468,-6.57166,-0.00011,46.2663,23.35738,11.6088,-2.16997,-16.55266,-7.00031,52.48259,34.29032,-20.50756,80.99706,-34.58842,55.28351,134.82355,0.00336,-86.84739,121.01735,-0.001,90.5871,-1.77489,-18.10149,-0.01286,-9.9664,13.52744,-0.00046,-6.8663,-11.98454,4.00646,-30.25921,-12.58515,-1.03802,0.63448,3.88538,5.84302
2701,-9.64791,0.0,0.0,-0.04477,0.0,-0.0,-21.34434,-8.07285,-4.47033,23.23313,4.0013,-23.41105,-63.31145,-5.99296,-0.00153,-29.45844,-6.56354,-8e-05,45.89092,22.44007,11.70179,-1.37133,-15.92778,-7.04677,52.29263,34.26085,-20.26562,80.06001,-34.2932,54.36887,134.71214,0.00458,-86.02106,120.97861,-0.00106,90.66226,-2.41043,-17.64171,-0.01786,-9.71823,13.28336,-0.00091,-6.65168,-11.69172,4.25401,-30.02032,-12.41252,-0.69121,0.99987,4.08726,5.7024
2702,-10.90936,-0.0,-0.0,-0.21027,0.0,0.0,-22.83207,-7.50913,-6.32435,23.03005,4.21954,-23.29643,-63.1326,-6.23791,-0.00426,-29.12681,-6.52163,0.00021,45.39346,21.5061,11.82158,-0.55945,-15.39691,-7.0784,52.09123,34.2062,-20.08732,79.09134,-34.00601,53.4359,134.52309,0.00229,-85.5738,121.01243,-0.00013,90.63776,-3.01424,-17.0519,-0.01683,-9.55736,13.02202,-0.00065,-6.44118,-11.37402,4.45952,-29.7831,-12.20068,-0.37308,1.36158,4.22128,5.56308
2703,-11.90856,-0.0,0.0,-0.37406,-0.0,0.0,-23.72783,-6.78022,-7.89913,22.80446,4.42296,-23.12787,-62.73178,-6.58131,-0.0072,-28.78787,-6.44194,0.00072,44.73593,20.56426,11.97428,0.20939,-14.94971,-7.11809,51.8894,34.10337,-19.94967,78.08036,-33.76007,52.47696,134.29681,-0.00198,-85.6553,121.10983,0.00176,90.35534,-3.35528,-16.50096,-0.01092,-9.48853,12.77197,1e-05,-6.24064,-11.07135,4.57378,-29.55711,-11.96714,-0.14526,1.69248,4.30996,5.45243
2704,-12.43177,0.0,-0.0,-0.47705,0.0,-0.0,-24.03212,-6.03311,-9.05366,22.52023,4.54415,-22.89255,-62.15409,-6.98102,-0.00904,-28.41644,-6.33055,0.00127,43.92567,19.63012,12.1659,0.88876,-14.54885,-7.19101,51.69357,33.93076,-19.83946,77.0246,-33.5736,51.49284,134.08804,-0.00473,-86.27534,121.24164,0.00352,89.70973,-3.29381,-16.1633,-0.00633,-9.51341,12.51661,0.00076,-6.0662,-10.8219,4.57063,-29.36195,-11.73682,-0.04732,1.98384,4.38655,5.3874
2705,-12.38469,-0.0,-0.0,-0.48403,0.0,0.0,-23.85326,-5.41491,-9.67544,22.1638,4.54048,-22.60155,-61.44769,-7.36157,-0.00858,-27.9947,-6.20481,0.00159,43.00461,18.72304,12.4094,1.45768,-14.14276,-7.31409,51.49075,33.68905,-19.75019,75.93703,-33.42965,50.49842,133.94434,-0.00413,-87.19836,121.36958,0.0039,88.7575,-2.87791,-16.13847,-0.00612,-9.61479,12.22462,0.00126,-5.93502,-10.64007,4.45625,-29.21593,-11.52537,-0.07932,2.24417,4.48196,5.35987
2706,-11.84665,-0.0,0.0,-0.41986,0.0,0.0,-23.35754,-5.00564,-9.71286,21.74945,4.40513,-22.2824,-60.65,-7.64656,-0.00589,-27.52036,-6.08817,0.00144,42.02986,17.86224,12.71732,1.92725,-13.68294,-7.48675,51.24911,33.40917,-19.67426,74.84428,-33.27619,49.52103,133.88412,-0.00161,-88.07222,121.46117,0.00285,87.67462,-2.32453,-16.38996,-0.00712,-9.76038,11.89333,0.00123,-5.85385,-10.50755,4.27312,-29.124,-11.3325,-0.1946,2.49038,4.61578,5.33847
2707,-11.01081,0.0,-0.0,-0.35767,0.0,0.0,-22.72433,-4.78972,-9.19814,21.3097,4.1749,-21.96421,-59.7778,-7.79227,-0.00224,-27.00767,-6.00278,0.00076,41.05246,17.0597,13.08552,2.33334,-13.14077,-7.69254,50.93748,33.14132,-19.60079,73.77177,-33.04963,48.58862,133.88916,0.00065,-88.60129,121.50215,0.0016,86.67646,-1.92312,-16.74637,-0.00689,-9.92592,11.55425,0.00062,-5.8098,-10.38267,4.08918,-29.06982,-11.14632,-0.31374,2.73666,4.79135,5.28609
2708,-10.05161,0.0,-0.0,-0.36713,0.0,0.0,-22.11087,-4.6889,-8.24826,20.8748,3.92246,-21.65965,-58.82497,-7.79901,0.00083,-26.48087,-5.96404,-0.00025,40.10127,16.31254,13.48396,2.71784,-12.51707,-7.9167,50.5468,32.93268,-19.51934,72.72555,-32.70766,47.71431,133.91928,0.00213,-88.62397,121.50196,0.00126,85.97857,-1.9179,-16.97854,-0.00918,-10.11435,11.25986,-0.00037,-5.77134,-10.22315,3.97151,-29.01878,-10.95406,-0.35795,2.98738,4.99629,5.18009
2709,-9.04725,-0.0,0.0,-0.47194,0.0,0.0,-21.60942,-4.63082,-7.03502,20.45579,3.72403,-21.35711,-57.76955,-7.69831,0.00234,-25.96507,-5.97702,-0.00123,39.17754,15.60089,13.86358,3.1116,-11.84062,-8.16199,50.09382,32.80706,-19.42243,71.68678,-32.25048,46.88717,133.93895,0.00334,-88.13407,121.48957,0.00162,85.73999,-2.41369,-16.91221,-0.018,-10.3276,11.07517,-0.00141,-5.70433,-10.01013,3.95736,-28.93563,-10.75283,-0.28541,3.23936,5.20923,5.0233
2710,-8.01787,-0.0,0.0,-0.64821,0.0,0.0,-21.20102,-4.59419,-5.73203,20.04275,3.61493,-21.03467,-56.58701,-7.53189,0.00215,-25.47856,-6.03231,-0.00177,38.26102,14.89457,14.17355,3.52721,-11.15633,-8.43896,49.60658,32.75716,-19.30274,70.62162,-31.71685,46.07832,133.93681,0.00438,-87.30699,121.50014,0.00141,86.00185,-3.33585,-16.51161,-0.02915,-10.51326,11.05336,-0.00161,-5.59387,-9.75942,4.04128,-28.80669,-10.55502,-0.10752,3.48964,5.41006,4.84034
2711,-7.0175,0.0,0.0,-0.85423,-0.0,0.0,-20.74188,-4.60283,-4.46053,19.61792,3.56949,-20.6841,-55.26398,-7.33525,0.00094,-25.02914,-6.10303,-0.00168,37.32295,14.16695,14.37862,3.9606,-10.50839,-8.73728,49.10806,32.75102,-19.14822,69.4994,-31.15777,45.2618,133.92635,0.00483,-86.49751,121.55952,-0.00035,86.7194,-4.45684,-15.88996,-0.03291,-10.5742,11.21038,7e-05,-5.45271,-9.51268,4.18898,-28.64755,-10.38562,0.12745,3.73905,5.58871,4.66442
2712,-6.14676,-0.0,-0.0,-1.0538,-0.0,0.0,-20.01423,-4.68124,-3.2607,19.17245,3.53188,-20.31774,-53.80387,-7.12659,9e-05,-24.61516,-6.15406,-0.00111,36.33856,13.40705,14.47385,4.39776,-9.9265,-9.01884,48.61244,32.74525,-18.94357,68.30907,-30.60776,44.43285,133.9278,0.00454,-86.10594,121.67546,-0.00345,87.83593,-5.49143,-15.23399,-0.02534,-10.44377,11.52622,0.0035,-5.30817,-9.31416,4.36752,-28.48846,-10.27248,0.37148,3.98772,5.74697,4.52423
2713,-5.42934,-0.0,0.0,-1.20139,0.0,-0.0,-18.83148,-4.80294,-2.10962,18.70996,3.47934,-19.94751,-52.21969,-6.89773,0.00108,-24.22491,-6.16758,-0.00056,35.29454,12.6204,14.49075,4.82,-9.41816,-9.25891,48.13071,32.69944,-18.6786,67.06435,-30.07417,43.60638,133.94449,0.00337,-86.34641,121.83995,-0.0066,89.27594,-6.21862,-14.68706,-0.01202,-10.13387,11.95469,0.00699,-5.18051,-9.1887,4.56549,-28.3512,-10.23404,0.6042,4.2293,5.89336,4.43309
2714,-4.72414,-0.0,0.0,-1.23182,0.0,0.0,-17.12677,-4.88155,-0.96479,18.23882,3.45101,-19.56639,-50.52096,-6.6217,0.00386,-23.83753,-6.15832,-0.00042,34.19101,11.82097,14.47438,5.20577,-8.96785,-9.48341,47.67236,32.58784,-18.3565,65.79388,-29.54898,42.79803,133.95491,0.00089,-87.16894,122.03898,-0.00822,90.89725,-6.55372,-14.29161,-0.00054,-9.7112,12.42108,0.00849,-5.07174,-9.13412,4.78518,-28.23746,-10.26919,0.82866,4.44971,6.03717,4.38365
2715,-3.84931,0.0,0.0,-1.10871,0.0,0.0,-14.95885,-4.83101,0.21476,17.7711,3.50152,-19.16767,-48.70626,-6.2873,0.00607,-23.43563,-6.15294,-0.00059,33.03649,11.02501,14.43377,5.53418,-8.54574,-9.73421,47.23904,32.40534,-17.99471,64.52711,-29.02923,42.00721,133.92815,-0.00256,-88.39368,122.26091,-0.00723,92.48563,-6.54069,-14.01993,0.00577,-9.24843,12.80834,0.00704,-4.97061,-9.12817,5.01601,-28.13441,-10.35338,1.044,4.62886,6.18448,4.3553
2716,-2.76902,0.0,-0.0,-0.87914,-0.0,0.0,-12.4619,-4.64588,1.47403,17.32847,3.63669,-18.78285,-46.76686,-5.92501,0.00485,-23.02235,-6.15641,-0.00068,31.84072,10.24971,14.31867,5.79231,-8.12381,-9.99803,46.81979,32.16632,-17.61376,63.28883,-28.52638,41.21708,133.84782,-0.00519,-89.78101,122.49712,-0.00362,93.7968,-6.30516,-13.82043,0.00757,-8.80588,12.96389,0.00357,-4.86351,-9.14198,5.21885,-28.02674,-10.44485,1.22568,4.74405,6.33477,4.32995
2717,-1.6215,-0.0,0.0,-0.65925,0.0,-0.0,-9.80189,-4.41307,2.85622,16.94175,3.80556,-18.49035,-44.70108,-5.59006,-0.00027,-22.62547,-6.14255,-0.00039,30.61603,9.51313,14.05642,5.98296,-7.68972,-10.186,46.39509,31.89856,-17.22137,62.10059,-28.05575,40.40899,133.72638,-0.00521,-91.01477,122.73895,0.00119,94.65139,-6.00161,-13.64989,0.00681,-8.43811,12.75947,0.00067,-4.74081,-9.15409,5.34119,-27.90384,-10.5035,1.33376,4.77704,6.47947,4.29995
2718,-0.60256,0.0,0.0,-0.56291,0.0,0.0,-7.15524,-4.2327,4.36291,16.63904,3.94706,-18.37921,-42.53217,-5.31725,-0.00615,-22.28433,-6.07567,6e-05,29.38891,8.83231,13.6181,6.1276,-7.24936,-10.18959,45.94545,31.63421,-16.8055,60.97845,-27.61829,39.57631,133.6006,-0.00291,-91.82632,122.97727,0.00492,95.03053,-5.74278,-13.49326,0.00531,-8.18102,12.17474,0.00028,-4.5991,-9.16136,5.35104,-27.76257,-10.51401,1.33994,4.72499,6.60465,4.2621
2719,0.14832,0.0,-0.0,-0.63742,0.0,0.0,-4.69271,-4.14455,5.91841,16.43134,4.03426,-18.49994,-40.31633,-5.08881,-0.00812,-22.03099,-5.93939,0.00026,28.2066,8.21617,13.05723,6.25996,-6.82089,-9.95692,45.45581,31.40076,-16.34207,59.92577,-27.19357,38.72736,133.51334,-0.00027,-92.17389,123.20531,0.00567,95.10211,-5.54856,-13.34723,0.00423,-8.01599,11.34621,0.00197,-4.44507,-9.18031,5.25959,-27.61073,-10.49592,1.24794,4.6072,6.69413,4.20909
2720,0.57067,-0.0,0.0,-0.84292,0.0,-0.0,-2.55283,-4.12575,7.38312,16.3066,4.08465,-18.83538,-38.13356,-4.83981,-0.0037,-21.87791,-5.75243,7e-05,27.12804,7.65745,12.49357,6.41334,-6.42683,-9.53528,44.91722,31.21588,-15.81583,58.92979,-26.75229,37.8795,133.49506,0.00135,-92.23254,123.4208,0.00307,95.17995,-5.39242,-13.19646,0.00382,-7.86316,10.53717,0.00446,-4.29778,-9.23421,5.11447,-27.46854,-10.4891,1.09244,4.46133,6.73103,4.12973
2721,0.66746,0.0,0.0,-1.07641,0.0,-0.0,-0.8174,-4.12622,8.61079,16.23294,4.14047,-19.30419,-36.06418,-4.49784,0.00499,-21.81708,-5.56476,-0.00025,26.20404,7.13599,12.05567,6.61086,-6.08544,-9.05862,44.33333,31.08657,-15.24022,57.96814,-26.28082,37.04908,133.55222,0.00197,-92.21083,123.62641,-0.00111,95.54997,-5.29336,-13.0197,0.00351,-7.63958,10.01594,0.00773,-4.18076,-9.33144,4.97181,-27.35961,-10.52309,0.92189,4.32991,6.70067,4.0179
2722,0.50854,-0.0,0.0,-1.23159,-0.0,0.0,0.49538,-4.11162,9.52099,16.16927,4.2256,-19.80334,-34.16433,-4.0364,0.01261,-21.82951,-5.4297,-0.00037,25.45796,6.63684,11.81136,6.86182,-5.80301,-8.67087,43.7275,31.00874,-14.65583,57.02151,-25.79683,36.24296,133.66391,0.00198,-92.20489,123.83034,-0.004,96.22453,-5.32199,-12.7987,0.00257,-7.33605,9.91496,0.01131,-4.10622,-9.44991,4.87029,-27.29435,-10.59256,0.78079,4.24198,6.59593,3.88192
2723,0.21092,0.0,0.0,-1.25829,0.0,-0.0,1.42462,-4.0801,10.1311,16.08115,4.32244,-20.24958,-32.45818,-3.49874,0.01488,-21.89583,-5.3748,-0.00019,24.88061,6.16602,11.73498,7.16204,-5.5725,-8.45327,43.13849,30.96808,-14.10793,56.08296,-25.34002,35.45896,133.79071,0.00166,-92.19801,124.04405,-0.00365,96.91832,-5.52586,-12.51299,0.0006,-7.03291,10.16899,0.01291,-4.06593,-9.54074,4.824,-27.26101,-10.65808,0.7017,4.20129,6.42042,3.742
2724,-0.11933,0.0,0.0,-1.18195,-0.0,-0.0,2.04915,-4.03805,10.51996,15.95507,4.39775,-20.58523,-30.94681,-2.9712,0.0113,-22.00076,-5.39742,0.00016,24.44179,5.74556,11.73729,7.49935,-5.38278,-8.42043,42.60159,30.94319,-13.62462,55.15945,-24.94339,34.69708,133.89391,0.00127,-92.13168,124.27417,-9e-05,97.27628,-5.89359,-12.13714,-0.00235,-6.85909,10.55496,0.0115,-4.03804,-9.55309,4.83254,-27.23399,-10.67274,0.70463,4.19031,6.18524,3.6168
2725,-0.42802,0.0,-0.0,-1.08219,0.0,-0.0,2.46195,-3.982,10.7735,15.8023,4.43259,-20.78038,-29.61953,-2.5382,0.00433,-22.1328,-5.47318,0.00044,24.1069,5.39672,11.71913,7.86102,-5.22929,-8.54149,42.12578,30.90915,-13.21109,54.26652,-24.60705,33.97123,133.95392,0.00099,-91.97708,124.51421,0.00463,97.0822,-6.39167,-11.65846,-0.00564,-6.92782,10.8132,0.00968,-4.00319,-9.46423,4.89414,-27.19225,-10.61499,0.79705,4.18483,5.90345,3.51348
2726,-0.70866,-0.0,0.0,-1.04415,0.0,0.0,2.74575,-3.91058,10.95288,15.64938,4.42423,-20.84554,-28.45919,-2.25103,-0.00268,-22.28208,-5.56336,0.00046,23.84809,5.12864,11.61334,8.2381,-5.11655,-8.74818,41.68306,30.84186,-12.85254,53.41861,-24.29247,33.30878,133.97932,0.00082,-91.77362,124.74363,0.00751,96.34652,-6.99577,-11.10778,-0.00811,-7.2521,10.78332,0.00997,-3.95529,-9.29282,5.01179,-27.13105,-10.50311,0.97424,4.1673,5.58702,3.42827
2727,-0.97461,0.0,-0.0,-1.10529,-0.0,-0.0,2.95541,-3.83974,11.07942,15.5198,4.37992,-20.82427,-27.4429,-2.11536,-0.00723,-22.43748,-5.62657,0.00022,23.64802,4.93632,11.41124,8.62658,-5.05453,-8.95435,41.21989,30.72411,-12.5175,52.62061,-23.94044,32.73988,133.99803,0.00071,-91.57634,124.93338,0.00687,95.28773,-7.68223,-10.54768,-0.00907,-7.72045,10.44988,0.011,-3.8989,-9.08546,5.19258,-27.05826,-10.38268,1.22403,4.1326,5.24479,3.35403
2728,-1.2316,0.0,0.0,-1.23196,0.0,0.0,3.11273,-3.80023,11.12992,15.41799,4.31548,-20.76003,-26.54422,-2.09531,-0.00848,-22.58453,-5.63648,-0.00015,23.49714,4.80638,11.16597,9.02418,-5.05013,-9.09967,40.68613,30.55097,-12.16672,51.86361,-23.50177,32.28533,134.03535,0.00075,-91.38438,125.05702,0.00383,94.18188,-8.41132,-10.01704,-0.00864,-8.18707,9.88787,0.01026,-3.83876,-8.88807,5.44248,-26.98158,-10.29823,1.53363,4.08461,4.88358,3.28585
2729,-1.46839,-0.0,-0.0,-1.34733,0.0,0.0,3.21657,-3.82152,11.05751,15.32935,4.24861,-20.6716,-25.73782,-2.13428,-0.00712,-22.70795,-5.58987,-0.00046,23.38761,4.72522,10.96052,9.42382,-5.09936,-9.18067,40.06528,30.33174,-11.76955,51.12329,-22.96266,31.94411,134.09724,0.00108,-91.19771,125.10735,0.0008,93.22455,-9.11672,-9.52564,-0.00683,-8.56603,9.19764,0.00745,-3.77488,-8.72333,5.75796,-26.90224,-10.26924,1.89077,4.0282,4.51201,3.22092
2730,-1.66938,0.0,0.0,-1.39119,0.0,0.0,3.26088,-3.91541,10.83897,15.23694,4.1831,-20.56253,-25.00296,-2.1843,-0.00464,-22.79741,-5.49372,-0.00062,23.30895,4.68174,10.85347,9.80989,-5.18838,-9.23312,39.38756,30.08635,-11.32001,50.36325,-22.34942,31.6869,134.16782,0.00143,-91.13466,125.10719,-0.0008,92.5321,-9.71265,-9.10666,-0.0038,-8.84392,8.47703,0.004,-3.70917,-8.58832,6.12012,-26.82172,-10.28565,2.2793,3.96414,4.14074,3.15743
2731,-1.83288,0.0,0.0,-1.35743,0.0,0.0,3.24631,-4.06698,10.50679,15.1342,4.10369,-20.44409,-24.32429,-2.22333,-0.00241,-22.84939,-5.34888,-0.00062,23.24976,4.6644,10.84395,10.16106,-5.30084,-9.29085,38.71692,29.83459,-10.84116,49.54844,-21.71029,31.46521,134.21693,0.00069,-91.43003,125.10107,-0.00142,92.18102,-10.11812,-8.83062,-0.00089,-9.05024,7.81325,0.00124,-3.65283,-8.46876,6.49677,-26.75042,-10.32186,2.67521,3.88934,3.77877,3.09604
2732,-1.97945,-0.0,-0.0,-1.28359,0.0,0.0,3.18178,-4.24001,10.13782,15.02189,3.99168,-20.34522,-23.69024,-2.25146,-0.00109,-22.86406,-5.14795,-0.00043,23.20237,4.6585,10.88053,10.45834,-5.42331,-9.35942,38.12068,29.58451,-10.37512,48.66381,-21.08728,31.2327,134.21306,-0.00245,-92.29382,125.13005,-0.0023,92.23445,-10.28474,-8.75561,0.00025,-9.22168,7.28785,-0.00066,-3.6208,-8.35528,6.84982,-26.70331,-10.35443,3.04702,3.79928,3.43009,3.04329
2733,-2.14284,0.0,0.0,-1.21658,0.0,-0.0,3.08301,-4.39506,9.81472,14.89986,3.84389,-20.30469,-23.08993,-2.27584,-0.00063,-22.8417,-4.88329,-1e-05,23.16477,4.64751,10.90028,10.6931,-5.54705,-9.41459,37.64016,29.33064,-9.96864,47.72395,-20.50016,30.96321,134.13754,-0.00757,-93.7533,125.20947,-0.00392,92.74807,-10.22869,-8.87585,-0.00045,-9.38016,6.97317,-0.00206,-3.6163,-8.24859,7.14155,-26.68473,-10.36942,3.35951,3.69079,3.0939,3.01424
2734,-2.3484,-0.0,-0.0,-1.18695,0.0,-0.0,2.96868,-4.5035,9.58958,14.76477,3.67694,-20.3501,-22.51143,-2.29585,-0.00055,-22.78107,-4.55583,0.00057,23.13945,4.61674,10.86787,10.87036,-5.66743,-9.42517,37.27572,29.06447,-9.65928,46.76722,-19.95151,30.65534,133.99512,-0.01195,-95.61088,125.32517,-0.00532,93.70544,-10.04037,-9.12395,-0.00143,-9.54282,6.89229,-0.00303,-3.62276,-8.15294,7.33933,-26.6796,-10.3581,3.58071,3.56557,2.76891,3.02836
2735,-2.59935,0.0,0.0,-1.20402,0.0,-0.0,2.85392,-4.55142,9.47434,14.61218,3.51612,-20.48187,-21.94293,-2.29878,-0.00037,-22.68209,-4.18001,0.00114,23.13149,4.55606,10.78703,11.0076,-5.78247,-9.37932,36.99188,28.78665,-9.4632,45.84091,-19.44008,30.32675,133.81239,-0.01275,-97.53122,125.44734,-0.0052,94.94802,-9.84771,-9.41681,-0.00144,-9.73154,6.98496,-0.00316,-3.61411,-8.06653,7.42217,-26.66271,-10.31071,3.69181,3.43287,2.45754,3.09905
2736,-2.87525,0.0,0.0,-1.2604,-0.0,0.0,2.74374,-4.53614,9.45267,14.44086,3.38665,-20.66866,-21.37588,-2.26685,0.00016,-22.55086,-3.78588,0.00142,23.14666,4.45919,10.68487,11.12967,-5.89273,-9.30004,36.73872,28.50859,-9.37145,44.98797,-18.96714,30.00522,133.62241,-0.00949,-99.16045,125.54889,-0.00352,96.19243,-9.76437,-9.68171,-0.00068,-9.9597,7.12154,-0.00188,-3.57481,-7.97971,7.38898,-26.6181,-10.21796,3.69561,3.3072,2.16501,3.22322
2737,-3.13515,0.0,-0.0,-1.33375,0.0,-0.0,2.62849,-4.46058,9.4932,14.25763,3.31856,-20.85085,-20.80771,-2.18624,0.00095,-22.40061,-3.41677,0.00122,23.1893,4.3219,10.59134,11.26102,-6.00248,-9.24708,36.47493,28.24167,-9.35697,44.23975,-18.53334,29.71966,133.44722,-0.00397,-100.21906,125.61526,-0.00151,97.12263,-9.84753,-9.847,-0.00017,-10.22458,7.15365,0.00075,-3.512,-7.88316,7.26157,-26.55173,-10.07972,3.61603,3.20109,1.89347,3.38073
2738,-3.33593,0.0,0.0,-1.39586,0.0,0.0,2.48972,-4.33654,9.56443,14.07617,3.34334,-20.96384,-20.24257,-2.05448,0.00169,-22.24475,-3.11504,0.00062,23.25994,4.1456,10.52409,11.41695,-6.11645,-9.28922,36.17973,27.98374,-9.38613,43.61224,-18.13253,29.49076,133.2919,0.00165,-100.56581,125.64419,-0.00048,97.51075,-10.0665,-9.85016,-0.00039,-10.5079,6.98422,0.0036,-3.45083,-7.77736,7.07964,-26.48771,-9.91182,3.48966,3.119,1.63858,3.54681
2739,-3.45724,0.0,-0.0,-1.43022,-0.0,-0.0,2.31485,-4.19038,9.64766,13.90824,3.46887,-20.96989,-19.69084,-1.88384,0.00205,-22.08702,-2.90216,-0.00012,23.35373,3.94346,10.48137,11.5972,-6.23246,-9.46093,35.8502,27.71697,-9.43015,43.10294,-17.75094,29.32321,133.15004,0.00614,-100.22085,125.64144,-0.00072,97.33078,-10.32677,-9.67497,-0.0007,-10.76966,6.62446,0.00498,-3.41775,-7.67273,6.89196,-26.45196,-9.74276,3.35752,3.05642,1.3913,3.70606
2740,-3.49648,0.0,-0.0,-1.43656,0.0,-0.0,2.10262,-4.05161,9.72701,13.75422,3.66291,-20.86026,-19.1681,-1.69533,0.00189,-21.91693,-2.77379,-0.00078,23.46201,3.73946,10.45064,11.78469,-6.33868,-9.75491,35.49025,27.42226,-9.4707,42.6915,-17.37418,29.20702,133.01355,0.00898,-99.34195,125.61517,-0.0015,96.8047,-10.5525,-9.37111,-0.00043,-10.95946,6.19176,0.0043,-3.42407,-7.57921,6.74709,-26.45534,-9.60052,3.26059,3.00295,1.14179,3.8545
2741,-3.44421,-0.0,0.0,-1.41954,0.0,-0.0,1.85711,-3.932,9.76959,13.60098,3.86876,-20.63188,-18.69241,-1.50906,0.00132,-21.71523,-2.71252,-0.00125,23.57543,3.56068,10.42564,11.95237,-6.41855,-10.15137,35.1025,27.09741,-9.4951,42.34729,-16.99582,29.1301,132.87959,0.00984,-98.19002,125.57038,-0.00173,96.32528,-10.72417,-9.04091,0.00034,-11.05478,5.84504,0.00258,-3.46093,-7.49561,6.68157,-26.48816,-9.49817,3.23313,2.94589,0.88274,3.99256
2742,-3.2972,0.0,0.0,-1.38583,0.0,-0.0,1.58888,-3.82643,9.73627,13.43155,4.03135,-20.28895,-18.27912,-1.34056,0.00057,-21.46831,-2.69656,-0.00139,23.68591,3.42971,10.40833,12.07666,-6.45863,-10.62585,34.6893,26.75997,-9.49232,42.03868,-16.61958,29.08979,132.75334,0.00854,-97.13438,125.50862,-0.00075,96.29408,-10.83695,-8.8271,0.00076,-11.07897,5.7155,0.00103,-3.50779,-7.4094,6.70702,-26.52883,-9.42869,3.29086,2.87345,0.61142,4.12141
2743,-3.11239,0.0,-0.0,-1.35964,0.0,-0.0,1.32748,-3.74588,9.62367,13.24238,4.10674,-19.88423,-17.93617,-1.2012,-0.00013,-21.18089,-2.69276,-0.00101,23.78685,3.35904,10.3893,12.14796,-6.45373,-11.11543,34.25774,26.43264,-9.45987,41.73847,-16.25249,29.0926,132.64487,0.00563,-96.63747,125.43179,0.0013,96.96391,-10.86322,-8.89578,-0.00054,-11.07847,5.86312,-7e-05,-3.54613,-7.30715,6.80466,-26.5583,-9.37245,3.42172,2.77725,0.32998,4.24344
2744,-3.02197,0.0,-0.0,-1.39007,0.0,0.0,1.12346,-3.74383,9.48614,13.05205,4.06251,-19.54251,-17.66295,-1.09725,-0.0006,-20.87488,-2.65333,-0.00012,23.87277,3.34925,10.33307,12.16934,-6.40552,-11.50037,33.8202,26.12867,-9.4086,41.42805,-15.89632,29.14436,132.55963,0.00232,-97.06124,125.34176,0.0035,98.32581,-10.76096,-9.34637,-0.00425,-11.09549,6.23868,-0.00089,-3.5675,-7.18552,6.93416,-26.56873,-9.3107,3.58973,2.65325,0.04452,4.35933
2745,-3.13973,0.0,0.0,-1.51962,0.0,-0.0,1.01754,-3.87783,9.39437,12.88716,3.89365,-19.39619,-17.4508,-1.02627,-0.00077,-20.57662,-2.54246,0.00085,23.93972,3.39233,10.20031,12.14932,-6.31661,-11.66913,33.38766,25.85172,-9.35347,41.10322,-15.54588,29.23971,132.48912,-0.00058,-98.39298,125.23711,0.00463,100.08431,-10.50165,-10.09493,-0.00839,-11.15218,6.68085,-0.00128,-3.57189,-7.05302,7.05295,-26.56167,-9.23478,3.75213,2.50091,-0.23647,4.46294
2746,-3.44229,0.0,0.0,-1.74075,-0.0,-0.0,0.99868,-4.13557,9.37036,12.76055,3.64569,-19.47757,-17.28359,-0.97481,-0.00066,-20.30507,-2.3735,0.0013,23.98661,3.47615,9.98935,12.09826,-6.18751,-11.6191,32.96341,25.60686,-9.30138,40.77744,-15.193,29.36022,132.41324,-0.00291,-100.24091,125.11393,0.00387,101.78329,-10.09456,-10.89984,-0.0094,-11.23859,6.9928,-0.00102,-3.56156,-6.92277,7.13389,-26.541,-9.14624,3.87858,2.32125,-0.50499,4.54263
2747,-3.78809,-0.0,0.0,-2.00227,0.0,-0.0,1.00412,-4.42823,9.38389,12.66969,3.40469,-19.70155,-17.14142,-0.9251,-0.00041,-20.06872,-2.20567,0.00102,24.01701,3.58688,9.74039,12.02871,-6.01938,-11.4617,32.54467,25.40865,-9.24907,40.47728,-14.83219,29.48195,132.31351,-0.00422,-102.11742,124.97001,0.00135,103.04191,-9.59486,-11.5267,-0.00602,-11.31694,7.05204,-0.00048,-3.53867,-6.80363,7.17071,-26.50967,-9.05082,3.95976,2.11524,-0.75614,4.59052
2748,-4.04936,0.0,-0.0,-2.25518,0.0,0.0,0.96404,-4.65667,9.40456,12.60833,3.2501,-19.95057,-17.00765,-0.86847,-0.00015,-19.86756,-2.10105,0.0003,24.04022,3.71277,9.4981,11.95595,-5.81619,-11.3277,32.12822,25.27787,-9.19221,40.22915,-14.46617,29.5834,132.18521,-0.00394,-103.67878,124.80683,-0.00173,103.7251,-9.09478,-11.87402,-0.00071,-11.35362,6.85758,-0.00015,-3.50847,-6.69574,7.17072,-26.47281,-8.95149,4.00239,1.88579,-0.98755,4.61327
2749,-4.1918,0.0,-0.0,-2.47384,0.0,-0.0,0.84306,-4.76706,9.42962,12.56884,3.21012,-20.15043,-16.87423,-0.81044,1e-05,-19.69452,-2.08782,-0.00042,24.07111,3.84801,9.28427,11.89733,-5.58431,-11.28811,31.7104,25.23001,-9.13585,40.04318,-14.10811,29.64778,132.04167,-0.00218,-104.76904,124.63097,-0.00387,103.94324,-8.69732,-11.9745,0.00314,-11.35232,6.5011,-2e-05,-3.48234,-6.59217,7.14327,-26.4411,-8.84548,4.01788,1.64334,-1.19753,4.63403
2750,-4.25319,-0.0,-0.0,-2.64261,-0.0,-0.0,0.64941,-4.76064,9.46595,12.53844,3.25098,-20.2807,-16.74156,-0.7609,7e-05,-19.53925,-2.15109,-0.00082,24.12633,3.98964,9.10404,11.87024,-5.33551,-11.34468,31.28288,25.26241,-9.09166,39.90696,-13.77668,29.66623,131.90871,0.0,-105.354,124.45615,-0.00421,103.94919,-8.47067,-11.91804,0.00422,-11.35058,6.12382,6e-05,-3.47498,-6.48591,7.09428,-26.42868,-8.72866,4.01447,1.40769,-1.38624,4.68165
2751,-4.29376,0.0,-0.0,-2.75065,0.0,0.0,0.42166,-4.67958,9.51028,12.50141,3.29766,-20.35391,-16.61493,-0.72283,7e-05,-19.39665,-2.24381,-0.00082,24.21584,4.13227,8.96246,11.8882,-5.0901,-11.45288,30.83326,25.34277,-9.06213,39.79564,-13.48549,29.64644,131.81204,0.0014,-105.45731,124.30085,-0.00314,104.00597,-8.41274,-11.77324,0.0034,-11.39084,5.86504,-0.00019,-3.49702,-6.37909,7.03025,-26.44613,-8.60548,3.99733,1.19875,-1.55745,4.77689
2752,-4.36583,0.0,0.0,-2.80741,-0.0,-0.0,0.20941,-4.5849,9.55121,12.44595,3.2732,-20.39846,-16.50207,-0.69348,5e-05,-19.27288,-2.30963,-0.00055,24.3355,4.2725,8.86838,11.95618,-4.86949,-11.54389,30.3542,25.4057,-9.02906,39.69032,-13.23409,29.61806,131.76503,0.00149,-105.1543,124.17899,-0.0017,104.28461,-8.45495,-11.56283,0.0021,-11.49605,5.8054,-0.00102,-3.54798,-6.28721,6.9658,-26.49347,-8.4959,3.9739,1.02192,-1.71536,4.92727
2753,-4.49844,0.0,-0.0,-2.85074,-0.0,-0.0,0.05312,-4.52621,9.57835,12.36985,3.1452,-20.44496,-16.41256,-0.67353,1e-05,-19.18143,-2.31023,-0.00025,24.46935,4.4186,8.82753,12.0689,-4.68203,-11.55066,29.85417,25.36977,-8.96131,39.5898,-13.00577,29.62474,131.76506,0.00073,-104.59589,124.09154,-0.0007,104.84824,-8.50584,-11.29833,0.00122,-11.6506,5.95369,-0.00206,-3.61283,-6.23348,6.92533,-26.55629,-8.43074,3.95763,0.86328,-1.85926,5.13046
2754,-4.69773,0.0,-0.0,-2.93296,0.0,-0.0,-0.02947,-4.52198,9.59089,12.28254,2.94902,-20.51751,-16.3549,-0.67054,-1e-05,-19.13081,-2.24026,-0.00012,24.60055,4.58903,8.83161,12.21329,-4.51811,-11.43496,29.35828,25.17581,-8.83575,39.507,-12.77412,29.70321,131.79907,-0.00011,-103.97945,124.02437,-0.00037,105.65627,-8.50939,-11.02192,0.00079,-11.79238,6.25404,-0.00259,-3.66535,-6.2363,6.93457,-26.60873,-8.43691,3.96507,0.70155,-1.98435,5.37792
2755,-4.951,0.0,0.0,-3.0884,-0.0,-0.0,-0.04551,-4.56523,9.59971,12.19995,2.7657,-20.62482,-16.33169,-0.69223,0.0,-19.11418,-2.12474,-0.00012,24.72243,4.79733,8.85425,12.37342,-4.35915,-11.20845,28.8939,24.82426,-8.64695,39.45454,-12.51735,29.86213,131.85199,-0.00063,-103.43228,123.95262,-0.00087,106.52872,-8.46464,-10.79445,0.00049,-11.84015,6.57562,-0.0027,-3.68129,-6.29835,7.00731,-26.62629,-8.52224,4.00793,0.52752,-2.08893,5.65398
2756,-5.21164,0.0,-0.0,-3.2954,0.0,-0.0,-0.02413,-4.63339,9.61156,12.13142,2.67498,-20.73836,-16.33821,-0.73553,3e-05,-19.11074,-2.01022,-0.0002,24.84371,5.03818,8.86522,12.5373,-4.19037,-10.94942,28.47082,24.37927,-8.39961,39.4332,-12.23334,30.0787,131.91118,-0.00082,-102.94691,123.85039,-0.00241,107.18576,-8.39048,-10.64887,0.00019,-11.74626,6.74962,-0.0034,-3.65706,-6.40404,7.1376,-26.60468,-8.67005,4.08686,0.35595,-2.17907,5.93332
2757,-5.40204,0.0,0.0,-3.4747,0.0,0.0,-0.00753,-4.69037,9.61514,12.07127,2.71437,-20.78873,-16.36392,-0.7832,3e-05,-19.0981,-1.94862,-0.00029,24.98307,5.28651,8.84843,12.70171,-4.00855,-10.78508,28.07531,23.93273,-8.10462,39.43116,-11.94353,30.3168,131.96478,-0.00064,-102.4754,123.70336,-0.00454,107.4334,-8.29675,-10.57759,0.0,-11.53057,6.68725,-0.00473,-3.62005,-6.52652,7.3036,-26.57031,-8.84715,4.19222,0.22067,-2.26615,6.18362
2758,-5.47989,0.0,-0.0,-3.55225,0.0,-0.0,-0.02804,-4.69968,9.59877,12.00788,2.86014,-20.71705,-16.39446,-0.81423,1e-05,-19.06575,-1.96865,-0.00039,25.15425,5.50925,8.79963,12.86905,-3.82265,-10.81414,27.68515,23.5566,-7.78473,39.43108,-11.67942,30.54975,131.99817,-0.00011,-102.02692,123.51585,-0.00571,107.33331,-8.19441,-10.55689,9e-05,-11.2685,6.46806,-0.00535,-3.61911,-6.63988,7.47951,-26.5712,-9.01969,4.31036,0.15436,-2.36156,6.37641
2759,-5.50251,-0.0,-0.0,-3.52995,0.0,-0.0,-0.08639,-4.65428,9.57552,11.9413,3.04207,-20.53707,-16.41492,-0.81759,1e-05,-19.01934,-2.0546,-0.00042,25.35395,5.68278,8.71522,13.03927,-3.64726,-11.03071,27.28939,23.27519,-7.47749,39.4189,-11.45985,30.76843,131.99547,0.00048,-101.65201,123.30473,-0.00468,107.16429,-8.11136,-10.56899,0.00061,-11.05208,6.28455,-0.00481,-3.69848,-6.72792,7.64643,-26.65105,-9.1654,4.4302,0.16754,-2.47317,6.50068
2760,-5.58326,0.0,0.0,-3.47764,0.0,-0.0,-0.15963,-4.59411,9.56927,11.88564,3.19029,-20.33155,-16.41294,-0.7941,5e-05,-18.97209,-2.15841,-0.00034,25.56258,5.80548,8.59893,13.20454,-3.49205,-11.33581,26.89356,23.06695,-7.22744,39.38946,-11.27717,30.97202,131.94679,0.00076,-101.40614,123.08467,-0.00192,107.2019,-8.09622,-10.61053,0.00163,-10.95172,6.28539,-0.00409,-3.87164,-6.7851,7.79521,-26.82325,-9.27567,4.54544,0.24242,-2.60362,6.56931
2761,-5.77263,0.0,-0.0,-3.45568,0.0,0.0,-0.23185,-4.58759,9.58017,11.85184,3.27786,-20.19028,-16.3805,-0.74993,0.00013,-18.93036,-2.23531,-0.00018,25.75268,5.89823,8.47314,13.34761,-3.35371,-11.6204,26.5097,22.88545,-7.06734,39.34644,-11.10448,31.15408,131.85355,0.0005,-101.32429,122.85923,0.00091,107.5236,-8.20063,-10.68595,0.00296,-10.98492,6.46676,-0.0037,-4.1125,-6.81395,7.92141,-27.06198,-9.3511,4.65098,0.3411,-2.74886,6.61202
2762,-5.98665,0.0,-0.0,-3.45153,0.0,0.0,-0.31399,-4.68886,9.58172,11.831,3.32281,-20.15882,-16.31684,-0.6945,0.00019,-18.8868,-2.26746,-0.0,25.89466,5.99341,8.36501,13.44054,-3.21679,-11.82984,26.14295,22.68306,-6.9973,39.29924,-10.91695,31.30024,131.72623,-0.00025,-101.40865,122.62453,0.00261,108.01199,-8.44002,-10.7842,0.00394,-11.10653,6.70314,-0.003,-4.36916,-6.82558,8.01946,-27.31622,-9.39977,4.73724,0.4164,-2.89739,6.65836
2763,-6.04987,0.0,0.0,-3.38843,0.0,-0.0,-0.43537,-4.89981,9.54846,11.798,3.36181,-20.22688,-16.23159,-0.64212,0.00018,-18.82578,-2.26379,0.00012,25.96579,6.12006,8.28304,13.45366,-3.06221,-11.97287,25.78666,22.42919,-6.9805,39.25941,-10.70914,31.40015,131.57555,-0.00138,-101.6734,122.37856,0.00309,108.51762,-8.77721,-10.85693,0.00365,-11.24432,6.86233,-0.00168,-4.58955,-6.84171,8.08531,-27.53551,-9.44011,4.7919,0.42648,-3.03293,6.72311
2764,-5.84359,0.0,0.0,-3.20876,-0.0,-0.0,-0.60923,-5.16128,9.47747,11.73613,3.42943,-20.3473,-16.1455,-0.61067,0.00012,-18.73676,-2.24889,0.00017,25.9714,6.29545,8.21644,13.3841,-2.87508,-12.0929,25.42884,22.12207,-6.96024,39.23533,-10.4955,31.46038,131.40585,-0.00235,-102.13267,122.12711,0.0028,108.96957,-9.14968,-10.82265,0.00173,-11.35779,6.87082,-6e-05,-4.74267,-6.88999,8.12694,-27.69039,-9.50069,4.8114,0.35995,-3.14156,6.8051
2765,-5.41702,0.0,0.0,-2.94366,0.0,0.0,-0.80927,-5.38365,9.38575,11.65737,3.54526,-20.47344,-16.08438,-0.61547,6e-05,-18.62301,-2.2473,0.00014,25.94915,6.52204,8.15333,13.26764,-2.65019,-12.22313,25.06038,21.78781,-6.8876,39.22448,-10.2962,31.50423,131.21786,-0.00238,-102.70048,121.88232,0.00207,109.34773,-9.51047,-10.60232,-0.00128,-11.45962,6.69814,0.00157,-4.82714,-6.9898,8.1687,-27.78003,-9.60876,4.81064,0.2445,-3.22066,6.89613
2766,-4.92922,0.0,0.0,-2.68399,-0.0,-0.0,-0.99147,-5.49566,9.28965,11.59274,3.7027,-20.58794,-16.06604,-0.66004,8e-05,-18.49715,-2.26985,8e-05,25.93784,6.78499,8.09395,13.14772,-2.39563,-12.3592,24.67671,21.46146,-6.74703,39.20929,-10.12259,31.55876,131.01634,-0.00128,-103.20753,121.65747,0.00105,109.63165,-9.85087,-10.17296,-0.00417,-11.57976,6.34418,0.00288,-4.86758,-7.13807,8.23829,-27.82805,-9.77222,4.81649,0.12104,-3.28256,6.98835
2767,-4.53262,0.0,0.0,-2.51281,0.0,-0.0,-1.12657,-5.47335,9.19376,11.56759,3.87252,-20.70233,-16.0919,-0.73413,0.00014,-18.37144,-2.31388,6e-05,25.95181,7.05793,8.04514,13.04596,-2.12748,-12.46704,24.27644,21.16175,-6.56411,39.16317,-9.97548,31.63961,130.81415,0.00016,-103.55171,121.46095,-0.00017,109.78284,-10.19028,-9.60951,-0.00559,-11.71822,5.84363,0.00322,-4.90151,-7.30749,8.34655,-27.86988,-9.97012,4.84977,0.01912,-3.34646,7.07912
2768,-4.32483,0.0,-0.0,-2.47329,0.0,-0.0,-1.20542,-5.33802,9.10229,11.58796,4.02057,-20.83569,-16.15038,-0.8219,0.0002,-18.25184,-2.37341,5e-05,25.98764,7.31782,8.00294,12.96457,-1.85709,-12.51179,23.863,20.88081,-6.38819,39.06364,-9.85347,31.74481,130.62987,0.001,-103.76791,121.29314,-0.00145,109.74622,-10.54402,-9.06651,-0.00472,-11.83429,5.24809,0.00206,-4.9618,-7.45798,8.4805,-27.9361,-10.16052,4.91434,-0.04411,-3.42399,7.17163
2769,-4.33905,0.0,-0.0,-2.56048,-0.0,-0.0,-1.23298,-5.14348,9.03209,11.64053,4.12227,-20.99493,-16.22544,-0.90942,0.00021,-18.13339,-2.4447,-1e-05,26.03936,7.55474,7.943,12.89635,-1.58459,-12.48518,23.4481,20.59555,-6.26386,38.90319,-9.75743,31.85995,130.47787,0.00104,-103.9379,121.14986,-0.00253,109.47863,-10.90633,-8.68349,-0.00209,-11.87318,4.61635,-0.00018,-5.06351,-7.55205,8.61589,-28.03982,-10.29953,5.00261,-0.06015,-3.51074,7.26744
2770,-4.54235,0.0,-0.0,-2.72598,-0.0,0.0,-1.22814,-4.9597,9.00445,11.69898,4.1677,-21.16692,-16.30153,-0.98591,0.00015,-17.99798,-2.52499,-0.00014,26.10349,7.77096,7.83396,12.82757,-1.30269,-12.41498,23.05046,20.28852,-6.21201,38.69204,-9.68541,31.96642,130.3584,0.00055,-104.09808,121.03069,-0.00298,108.98646,-11.2644,-8.50774,0.00086,-11.79685,4.02818,-0.00212,-5.20192,-7.56622,8.73363,-28.17514,-10.35812,5.10621,-0.03016,-3.58959,7.35824
2771,-4.85205,0.0,0.0,-2.90213,-0.0,0.0,-1.21976,-4.84494,9.02134,11.73518,4.16113,-21.32106,-16.36516,-1.04293,6e-05,-17.82108,-2.61129,-0.00036,26.17618,7.97525,7.66573,12.74045,-1.004,-12.35493,22.68683,19.96201,-6.2275,38.45321,-9.62566,32.04597,130.25905,-0.00018,-104.25397,120.94301,-0.00256,108.35596,-11.6084,-8.5198,0.00298,-11.59578,3.58225,-0.0023,-5.36146,-7.4975,8.82406,-28.32657,-10.32984,5.21738,0.03478,-3.64066,7.42732
2772,-5.18131,-0.0,-0.0,-3.04217,0.0,-0.0,-1.22967,-4.82011,9.0562,11.73418,4.11622,-21.42613,-16.40833,-1.07515,-2e-05,-17.58627,-2.69952,-0.00053,26.25082,8.17797,7.46213,12.61962,-0.68526,-12.35756,22.36233,19.63768,-6.28552,38.21169,-9.55932,32.08431,130.1655,-0.00088,-104.39796,120.89704,-0.00153,107.75052,-11.91335,-8.6859,0.00354,-11.29001,3.35991,-0.00053,-5.52757,-7.36598,8.87947,-28.48137,-10.23017,5.32093,0.11703,-3.65019,7.46016
2773,-5.48855,0.0,0.0,-3.14928,0.0,0.0,-1.25695,-4.86916,9.07301,11.70359,4.049,-21.47534,-16.43154,-1.0823,-6e-05,-17.29566,-2.78187,-0.00053,26.31836,8.38646,7.26323,12.45737,-0.34904,-12.44281,22.0711,19.34383,-6.35259,37.98248,-9.47351,32.07711,130.07037,-0.00126,-104.48061,120.89621,-0.00053,107.32175,-12.12461,-8.96091,0.00232,-10.92861,3.36507,0.0017,-5.69339,-7.21078,8.8884,-28.63601,-10.09071,5.3907,0.19733,-3.61566,7.45478
2774,-5.77886,0.0,0.0,-3.26586,-0.0,0.0,-1.28384,-4.96428,9.05365,11.66834,3.9744,-21.49669,-16.43999,-1.06968,-6e-05,-16.96688,-2.84501,-0.00026,26.36623,8.60133,7.0959,12.2513,-0.00456,-12.58555,21.80678,19.10081,-6.40158,37.76679,-9.37252,32.03393,129.97495,-0.00119,-104.41576,120.9315,-2e-05,107.11662,-12.1855,-9.28145,0.00016,-10.58009,3.51266,0.00276,-5.85857,-7.07687,8.84068,-28.79374,-9.94894,5.39942,0.25709,-3.54738,7.42311
2775,-6.04307,0.0,-0.0,-3.42663,0.0,-0.0,-1.30019,-5.0901,9.00018,11.6501,3.90522,-21.52325,-16.43653,-1.04505,-3e-05,-16.62148,-2.87795,0.00011,26.38061,8.81844,6.96712,12.0024,0.33549,-12.74486,21.5713,18.9155,-6.42408,37.55795,-9.27483,31.97351,129.88286,-0.00072,-104.146,120.98757,-3e-05,107.11068,-12.08922,-9.57434,-0.00139,-10.30774,3.71245,0.00256,-6.02303,-6.99665,8.73829,-28.95653,-9.83546,5.33615,0.28171,-3.46504,7.38505
2776,-6.21628,0.0,-0.0,-3.62439,0.0,0.0,-1.31847,-5.24824,8.9138,11.64809,3.84605,-21.54662,-16.42128,-1.01316,-0.0,-16.27515,-2.88506,0.00034,26.35905,9.03464,6.8803,11.72293,0.66147,-12.91183,21.37326,18.78446,-6.43132,37.34966,-9.19805,31.91084,129.79146,0.00015,-103.68434,121.05129,-0.00034,107.28506,-11.89501,-9.76493,-0.00142,-10.13733,3.93341,0.00193,-6.18037,-6.97699,8.60231,-29.11748,-9.76475,5.21778,0.27002,-3.38969,7.35997
2777,-6.23205,0.0,0.0,-3.82495,0.0,-0.0,-1.35924,-5.44709,8.79237,11.64321,3.78492,-21.52045,-16.3962,-0.97561,3e-05,-15.93575,-2.88414,0.0003,26.31512,9.24956,6.83761,11.43788,0.96995,-13.10964,21.2171,18.69829,-6.44277,37.14038,-9.14618,31.84658,129.69012,0.00152,-103.06698,121.11179,-0.00064,107.6242,-11.68929,-9.78942,-0.00044,-10.03991,4.16925,0.00145,-6.31683,-7.00046,8.46912,-29.26022,-9.73485,5.08497,0.2365,-3.33576,7.3606
2778,-6.096,-0.0,0.0,-3.99939,-0.0,0.0,-1.42882,-5.68952,8.64631,11.61767,3.69405,-21.41112,-16.36591,-0.93442,4e-05,-15.60574,-2.89131,8e-05,26.26386,9.46322,6.82578,11.16839,1.26272,-13.35063,21.09188,18.64456,-6.47219,36.93192,-9.11122,31.76841,129.56773,0.00317,-102.30606,121.15741,-0.00077,108.06564,-11.54181,-9.62365,0.00038,-9.94993,4.38444,0.00093,-6.41951,-7.03852,8.37536,-29.36869,-9.73361,4.98298,0.19819,-3.30596,7.39062
2779,-5.89033,-0.0,0.0,-4.14445,0.0,-0.0,-1.51623,-5.97022,8.49929,11.56983,3.54242,-21.23036,-16.33601,-0.89085,3e-05,-15.28509,-2.91164,-0.00015,26.21166,9.67349,6.81614,10.92013,1.54467,-13.61399,20.96998,18.60972,-6.52179,36.7253,-9.08326,31.66273,129.42239,0.00428,-101.43737,121.17552,-0.0009,108.47353,-11.49591,-9.31547,0.00048,-9.80894,4.49499,-0.00037,-6.48903,-7.06581,8.3399,-29.44125,-9.74502,4.9393,0.16573,-3.29083,7.44393
2780,-5.71664,0.0,-0.0,-4.28105,-0.0,-0.0,-1.60746,-6.28127,8.36957,11.51644,3.31382,-21.02659,-16.31237,-0.84008,1e-05,-14.97426,-2.93957,-0.00024,26.16335,9.87492,6.78321,10.68905,1.82051,-13.86281,20.81996,18.58003,-6.58722,36.51884,-9.05648,31.52763,129.26389,0.00395,-100.59862,121.15644,-0.00137,108.67564,-11.57161,-8.98088,0.00043,-9.59846,4.39743,-0.00264,-6.54388,-7.0668,8.35689,-29.49559,-9.7525,4.95465,0.14626,-3.2746,7.50408
2781,-5.62821,0.0,-0.0,-4.42948,0.0,-0.0,-1.69905,-6.6118,8.2546,11.48269,3.02057,-20.85876,-16.30045,-0.77153,-4e-05,-14.67585,-2.96353,-0.00018,26.12749,10.06144,6.72084,10.46888,2.09307,-14.06915,20.62562,18.54414,-6.66467,36.31036,-9.02833,31.37798,129.10771,0.0022,-99.99787,121.10239,-0.00219,108.55806,-11.75167,-8.74769,0.00097,-9.33855,4.05671,-0.00468,-6.61057,-7.03534,8.40591,-29.55849,-9.7425,5.01256,0.14403,-3.24244,7.54746
2782,-5.60823,0.0,-0.0,-4.58923,0.0,0.0,-1.79702,-6.93816,8.13504,11.487,2.70589,-20.77223,-16.30323,-0.67892,-8e-05,-14.39392,-2.97315,-3e-05,26.11117,10.23308,6.64207,10.25339,2.36516,-14.22282,20.39748,18.49672,-6.75353,36.10214,-8.99986,31.24111,128.96593,-4e-05,-99.76278,121.0332,-0.0027,108.1576,-11.96303,-8.6879,0.00174,-9.07084,3.57959,-0.00487,-6.70804,-6.97434,8.46898,-29.6497,-9.71073,5.09517,0.15637,-3.18401,7.55668
2783,-5.60096,0.0,-0.0,-4.74033,0.0,0.0,-1.90652,-7.2171,7.9901,11.52924,2.43411,-20.78068,-16.31903,-0.57044,-0.00011,-14.13,-2.96755,5e-05,26.11419,10.40012,6.56694,10.03802,2.64232,-14.3299,20.16877,18.43826,-6.85657,35.90513,-8.98134,31.14659,128.83917,-0.00184,-99.85275,120.97835,-0.0024,107.66493,-12.09192,-8.79114,0.00164,-8.84893,3.17884,-0.00316,-6.83934,-6.8992,8.53934,-29.77351,-9.66875,5.19014,0.17399,-3.09262,7.53466
2784,-5.57129,0.0,-0.0,-4.8644,-0.0,-0.0,-2.02033,-7.39619,7.81406,11.59198,2.26924,-20.86394,-16.34163,-0.46824,-9e-05,-13.88039,-2.95602,-1e-05,26.13037,10.57852,6.50623,9.82258,2.93147,-14.40701,19.97689,18.37127,-6.97895,35.73733,-8.99416,31.11367,128.71649,-0.00294,-100.14745,120.95877,-0.00156,107.28674,-12.04212,-8.99263,0.0004,-8.72937,3.03643,-0.00151,-6.99455,-6.83843,8.61814,-29.92186,-9.64326,5.28724,0.18751,-2.96335,7.50438
2785,-5.54682,0.0,0.0,-4.96096,-0.0,-0.0,-2.11653,-7.43776,7.62527,11.65199,2.24458,-20.98106,-16.36302,-0.39723,-2e-05,-13.63842,-2.94875,-0.00016,26.15353,10.7797,6.45415,9.61355,3.23454,-14.47342,19.84075,18.29787,-7.12235,35.61514,-9.06083,31.14156,128.58896,-0.0033,-100.55617,120.97238,-0.00073,107.08632,-11.79255,-9.22306,-0.00102,-8.75161,3.1854,-0.00151,-7.15938,-6.82348,8.706,-30.08247,-9.66348,5.37465,0.1957,-2.7957,7.49492
2786,-5.58919,0.0,-0.0,-5.02851,0.0,0.0,-2.17456,-7.33921,7.45439,11.685,2.33838,-21.08116,-16.37635,-0.37063,4e-05,-13.39782,-2.94763,-0.00028,26.18049,11.00319,6.39983,9.42173,3.54288,-14.54972,19.75051,18.21951,-7.27604,35.54225,-9.18925,31.20875,128.46478,-0.00286,-101.02467,120.99673,-0.00019,106.99168,-11.39736,-9.4381,-0.00174,-8.91041,3.5244,-0.00253,-7.32163,-6.87119,8.79709,-30.24453,-9.74265,5.4403,0.20782,-2.5985,7.52535
2787,-5.72135,0.0,0.0,-5.03503,-0.0,-0.0,-2.19587,-7.13621,7.32345,11.6646,2.48002,-21.11413,-16.37691,-0.38349,6e-05,-13.15234,-2.94476,-0.00027,26.20617,11.23807,6.34309,9.25182,3.83901,-14.65542,19.67519,18.13715,-7.41555,35.50417,-9.36472,31.28456,128.36797,-0.00164,-101.5491,121.00501,-3e-05,106.91107,-10.93672,-9.6243,-0.00172,-9.14506,3.91452,-0.0029,-7.47264,-6.97423,8.87986,-30.39936,-9.86955,5.47637,0.23557,-2.38985,7.59703
2788,-5.9066,0.0,0.0,-4.94215,0.0,0.0,-2.20244,-6.88828,7.24622,11.57293,2.58993,-21.06166,-16.36224,-0.42157,5e-05,-12.89458,-2.92611,-8e-05,26.21614,11.47158,6.28971,9.09208,4.10561,-14.78792,19.57818,18.05356,-7.51352,35.47475,-9.55366,31.34562,128.32285,0.0003,-102.19621,120.98161,-0.00021,106.7738,-10.48057,-9.79221,-0.00132,-9.36488,4.24558,-0.00205,-7.6042,-7.10937,8.94538,-30.53769,-10.01935,5.48372,0.28052,-2.18965,7.69805
2789,-6.09766,-0.0,-0.0,-4.77031,0.0,0.0,-2.21594,-6.65811,7.24144,11.41992,2.62132,-20.96536,-16.33401,-0.47513,1e-05,-12.61883,-2.8786,0.00023,26.19164,11.69745,6.23567,8.91874,4.33569,-14.9042,19.4293,17.97853,-7.5518,35.43056,-9.71292,31.38518,128.34039,0.00271,-103.03046,120.92941,-0.00049,106.53176,-10.08091,-9.95604,-0.00078,-9.4961,4.46508,-0.00072,-7.70537,-7.25504,8.99853,-30.64696,-10.17405,5.47538,0.33092,-2.01017,7.81199
2790,-6.25035,0.0,-0.0,-4.59091,0.0,-0.0,-2.25214,-6.4869,7.31679,11.23874,2.57455,-20.89376,-16.29882,-0.54114,-5e-05,-12.32439,-2.80165,0.00043,26.1259,11.91755,6.17625,8.71406,4.5365,-14.95127,19.212,17.93168,-7.52602,35.36275,-9.80092,31.41053,128.41528,0.00481,-104.03359,120.86661,-0.00055,106.22818,-9.7687,-10.11487,-0.00019,-9.52165,4.5935,0.00014,-7.76408,-7.40108,9.06103,-30.71362,-10.33271,5.47553,0.3715,-1.85219,7.92363
2791,-6.30924,0.0,0.0,-4.45358,0.0,-0.0,-2.32821,-6.37474,7.44262,11.06081,2.48274,-20.88037,-16.26507,-0.6168,-8e-05,-12.01426,-2.71152,0.00039,26.03272,12.13696,6.12332,8.4788,4.72456,-14.9149,18.92834,17.93716,-7.44563,35.27832,-9.79235,31.4341,128.52956,0.00552,-105.08483,120.81572,-0.0004,106.06509,-9.5639,-10.25114,0.00034,-9.49185,4.71105,0.0002,-7.77488,-7.54372,9.16045,-30.73088,-10.50249,5.51126,0.39495,-1.70884,8.02073
2792,-6.24601,-0.0,-0.0,-4.36451,0.0,-0.0,-2.45607,-6.28581,7.56517,10.90497,2.38326,-20.91064,-16.24132,-0.69743,-6e-05,-11.69304,-2.62901,0.00012,25.94225,12.35801,6.09477,8.23096,4.91556,-14.82457,18.59969,18.01088,-7.3314,35.19107,-9.69284,31.46496,128.65733,0.00438,-105.9711,120.79301,-0.00055,106.31542,-9.49594,-10.34124,0.00056,-9.48837,4.90669,-0.00049,-7.74654,-7.67493,9.31265,-30.7063,-10.68215,5.60052,0.40793,-1.57251,8.09491
2793,-6.09219,0.0,0.0,-4.30908,-0.0,0.0,-2.63291,-6.17715,7.64282,10.78074,2.29592,-20.94749,-16.23734,-0.77673,-1e-05,-11.36703,-2.56415,-0.00021,25.88924,12.5772,6.09645,7.99667,5.11536,-14.72759,18.2585,18.14846,-7.2101,35.11053,-9.54248,31.50193,128.77229,0.00223,-106.4813,120.80524,-0.00119,107.07571,-9.59269,-10.36953,0.00036,-9.54799,5.21961,-0.00131,-7.70152,-7.78049,9.51178,-30.66133,-10.85633,5.74355,0.42985,-1.43991,8.14453
2794,-5.93321,0.0,-0.0,-4.28118,0.0,0.0,-2.8371,-6.03188,7.67438,10.69293,2.22104,-20.96178,-16.2621,-0.84788,6e-05,-11.0449,-2.51124,-0.0004,25.8959,12.78623,6.11627,7.79649,5.31727,-14.65636,17.93467,18.32264,-7.10659,35.03759,-9.40052,31.5319,128.85771,0.00044,-106.56136,120.85123,-0.00164,108.11829,-9.83765,-10.34203,-8e-05,-9.62055,5.61632,-0.00129,-7.66611,-7.84922,9.73325,-30.62219,-11.0052,5.92201,0.48152,-1.31292,8.17765
2795,-5.87391,0.0,-0.0,-4.29852,0.0,0.0,-3.03263,-5.87611,7.6975,10.64319,2.15164,-20.95035,-16.31748,-0.90496,0.0001,-10.73517,-2.45434,-0.00037,25.95808,12.97586,6.13064,7.63234,5.50691,-14.60786,17.64671,18.49184,-7.03484,34.9687,-9.31477,31.53925,128.91359,-0.00038,-106.3346,120.92137,-0.00114,109.04427,-10.1488,-10.28575,-0.00047,-9.61623,6.01449,-0.00037,-7.65835,-7.88234,9.9433,-30.60824,-11.11683,6.10408,0.56951,-1.19584,8.20904
2796,-5.96797,-0.0,0.0,-4.3753,-0.0,0.0,-3.1911,-5.76879,7.74913,10.62403,2.08463,-20.92395,-16.39452,-0.94161,0.0001,-10.4413,-2.37866,-0.00014,26.04933,13.14093,6.12526,7.48731,5.67177,-14.55946,17.40232,18.61605,-6.9932,34.90366,-9.293,31.51914,128.95424,-0.00056,-105.96336,120.99638,6e-05,109.56927,-10.40477,-10.23402,-0.00085,-9.48074,6.33388,0.00047,-7.68095,-7.89212,10.10781,-30.62459,-11.18937,6.25314,0.68098,-1.09083,8.25025
2797,-6.17879,-0.0,0.0,-4.49361,0.0,0.0,-3.31099,-5.76737,7.83432,10.61745,2.02469,-20.88943,-16.47603,-0.95365,8e-05,-10.16132,-2.27806,0.00014,26.13498,13.28444,6.10677,7.33611,5.80769,-14.49329,17.204,18.67323,-6.96908,34.85022,-9.29928,31.48337,128.99741,-0.00059,-105.54498,121.04953,0.00101,109.66996,-10.50242,-10.22241,-0.00154,-9.22959,6.53713,0.00055,-7.72173,-7.89159,10.20086,-30.66129,-11.22482,6.33988,0.78988,-0.99582,8.30459
2798,-6.40562,0.0,-0.0,-4.60771,0.0,-0.0,-3.4189,-5.88797,7.93093,10.60382,1.98051,-20.84709,-16.54387,-0.94414,8e-05,-9.89277,-2.15362,0.00041,26.18299,13.41542,6.09391,7.15566,5.91643,-14.40426,17.05306,18.66671,-6.94869,34.81971,-9.28263,31.45516,129.05296,-0.00072,-105.10349,121.05706,0.0012,109.51827,-10.40401,-10.28042,-0.00257,-8.93492,6.63235,5e-05,-7.76119,-7.88632,10.21408,-30.69975,-11.22506,6.35426,0.86668,-0.9076,8.3718
2799,-6.54122,0.0,0.0,-4.6742,0.0,-0.0,-3.5565,-6.09631,8.00552,10.57113,1.95108,-20.78867,-16.59018,-0.91958,0.0001,-9.63774,-2.01008,0.00056,26.18065,13.54122,6.10614,6.93941,6.00058,-14.30695,16.94853,18.61894,-6.91987,34.81828,-9.21524,31.456,129.11893,-0.00095,-104.60766,121.01224,0.00088,109.30122,-10.13266,-10.40086,-0.00329,-8.6765,6.64684,-0.00051,-7.78414,-7.87748,10.16074,-30.72436,-11.19632,6.30818,0.89466,-0.82417,8.45222
2800,-6.53482,-0.0,-0.0,-4.69038,0.0,-0.0,-3.75559,-6.3333,8.0298,10.51952,1.91318,-20.69854,-16.6262,-0.88408,7e-05,-9.40447,-1.85505,0.00055,26.14888,13.66374,6.15459,6.70818,6.0638,-14.23426,16.88318,18.55869,-6.86715,34.84337,-9.10815,31.49278,129.18559,-0.00105,-104.02307,120.93015,0.0005,109.10185,-9.73654,-10.52596,-0.00276,-8.48687,6.6081,-0.00085,-7.78723,-7.87305,10.06868,-30.73109,-11.1567,6.22433,0.88306,-0.74291,8.54607
2801,-6.42088,-0.0,0.0,-4.69752,0.0,-0.0,-4.01654,-6.54418,7.99626,10.46045,1.83023,-20.56802,-16.679,-0.84016,-7e-05,-9.20342,-1.69945,0.00039,26.12959,13.77968,6.23303,6.49762,6.11207,-14.21699,16.8406,18.51146,-6.76983,34.88773,-8.99452,31.55523,129.24323,-0.00077,-103.41047,120.83649,0.00032,108.93428,-9.26424,-10.57886,-0.00091,-8.33276,6.54452,-0.0009,-7.77579,-7.89427,9.96719,-30.72559,-11.13704,6.12155,0.85841,-0.6597,8.65033
2802,-6.28758,0.0,0.0,-4.73807,0.0,-0.0,-4.31027,-6.70093,7.91747,10.40837,1.683,-20.40385,-16.78015,-0.78947,-0.00035,-9.03847,-1.55804,0.00014,26.15914,13.8813,6.32035,6.3322,6.15227,-14.27119,16.796,18.49596,-6.60938,34.9457,-8.90117,31.62568,129.28873,-1e-05,-102.97208,120.75101,0.00034,108.81609,-8.76192,-10.51759,0.00108,-8.14601,6.48628,-0.00061,-7.75448,-7.96795,9.8786,-30.71365,-11.17067,6.00991,0.84304,-0.57066,8.75415
2803,-6.21249,0.0,-0.0,-4.81603,0.0,0.0,-4.60089,-6.81499,7.80977,10.37127,1.49462,-20.21395,-16.95559,-0.73218,-0.00068,-8.90241,-1.44872,-0.0001,26.25639,13.9622,6.39853,6.21429,6.19135,-14.40576,16.72264,18.52443,-6.37966,35.01757,-8.83573,31.69305,129.32729,0.00114,-102.95615,120.68119,0.0004,108.74681,-8.28387,-10.36483,0.00188,-7.87528,6.46037,0.00018,-7.72259,-8.10955,9.81837,-30.69521,-11.27779,5.8976,0.84451,-0.47214,8.83914
2804,-6.23224,0.0,-0.0,-4.91167,0.0,-0.0,-4.86434,-6.92392,7.68689,10.35108,1.32246,-19.9953,-17.21835,-0.67364,-0.00088,-8.78362,-1.38768,-0.0003,26.42421,14.02783,6.46495,6.1337,6.23645,-14.62142,16.6041,18.60198,-6.08885,35.11037,-8.7952,31.75969,129.36775,0.00239,-103.50139,120.6282,0.00039,108.6478,-7.87874,-10.19995,0.00123,-7.52052,6.48715,0.00143,-7.67713,-8.31046,9.79866,-30.6663,-11.45512,5.79927,0.85949,-0.36065,8.89167
2805,-6.36112,-0.0,-0.0,-5.02618,0.0,-0.0,-5.09106,-7.05717,7.56486,10.34852,1.21724,-19.74437,-17.56552,-0.6307,-0.00076,-8.67578,-1.38075,-0.00041,26.65481,14.09784,6.52573,6.0813,6.2929,-14.89472,16.44658,18.72468,-5.75292,35.23406,-8.77925,31.83619,129.41498,0.00309,-104.54391,120.59271,0.00036,108.37962,-7.55645,-10.11491,0.00017,-7.13292,6.5734,0.00268,-7.61734,-8.53958,9.8288,-30.62363,-11.67769,5.73591,0.88177,-0.23558,8.91538
2806,-6.59932,0.0,-0.0,-5.18346,0.0,0.0,-5.28706,-7.2112,7.45352,10.3586,1.18179,-19.46861,-17.98217,-0.62229,-0.00034,-8.5801,-1.4172,-0.00041,26.93709,14.19254,6.58615,6.05478,6.35982,-15.18027,16.28089,18.87938,-5.38988,35.39333,-8.79284,31.93,129.46022,0.00256,-105.78734,120.5742,0.00038,107.84655,-7.29718,-10.13332,-6e-05,-6.78616,6.70051,0.00337,-7.54534,-8.75975,9.91126,-30.56634,-11.9122,5.72464,0.90776,-0.10251,8.92704
2807,-6.91689,-0.0,-0.0,-5.39022,0.0,-0.0,-5.4767,-7.35457,7.34172,10.36446,1.16779,-19.18381,-18.44908,-0.65411,0.00013,-8.50092,-1.47251,-0.0003,27.26178,14.31573,6.65007,6.05566,6.42601,-15.43515,16.14972,19.04735,-5.02217,35.58212,-8.8387,32.03973,129.47917,0.00134,-106.79636,120.56763,0.00043,107.10667,-7.09344,-10.18171,0.00067,-6.53087,6.8361,0.00336,-7.46358,-8.9491,10.03766,-30.49533,-12.13532,5.76643,0.93709,0.02578,8.94201
2808,-7.25915,0.0,0.0,-5.61581,0.0,-0.0,-5.69457,-7.45502,7.207,10.34478,1.1156,-18.9143,-18.94875,-0.71767,0.00044,-8.44068,-1.51785,-0.00015,27.61586,14.45213,6.71555,6.07899,6.47201,-15.63023,16.08624,19.21118,-4.68225,35.78897,-8.90981,32.16117,129.44414,0.00113,-107.24211,120.56197,0.00043,106.3717,-6.9706,-10.17163,0.00126,-6.36952,6.96289,0.00285,-7.37249,-9.11373,10.18981,-30.4121,-12.34562,5.84201,0.96506,0.13305,8.96609
2809,-7.57876,0.0,0.0,-5.81479,-0.0,-0.0,-5.9701,-7.50088,7.03925,10.28969,0.99918,-18.69488,-19.46848,-0.80085,0.00054,-8.39842,-1.5313,-2e-05,27.97665,14.58034,6.76925,6.10665,6.48003,-15.74514,16.09633,19.36159,-4.40675,36.00846,-8.98886,32.29881,129.34216,0.00279,-107.05158,120.541,0.00045,105.85348,-6.9782,-10.07261,0.00036,-6.29422,7.06679,0.00212,-7.26973,-9.2826,10.34643,-30.31755,-12.56154,5.92,0.97544,0.20779,8.99537
2810,-7.85998,-0.0,0.0,-5.97058,0.0,-0.0,-6.31876,-7.49973,6.84053,10.21028,0.83748,-18.55196,-20.00202,-0.89433,0.00054,-8.37321,-1.50871,3e-05,28.32403,14.68804,6.79883,6.12069,6.44494,-15.77667,16.15656,19.50112,-4.21819,36.24667,-9.05402,32.4694,129.18462,0.00533,-106.32949,120.48906,0.00053,105.60983,-7.16589,-9.89056,-0.00268,-6.33619,7.11159,0.00171,-7.15145,-9.48774,10.49167,-30.21137,-12.8064,5.97282,0.95013,0.24924,9.01907
2811,-8.11089,0.0,0.0,-6.11109,0.0,-0.0,-6.74248,-7.4642,6.60833,10.13436,0.6738,-18.48493,-20.54862,-0.99269,0.00057,-8.36822,-1.46694,1e-05,28.65397,14.77841,6.80977,6.11938,6.37718,-15.74846,16.2314,19.64508,-4.11288,36.51681,-9.08688,32.6921,129.00145,0.00692,-105.23711,120.40067,0.00048,105.54819,-7.56151,-9.62388,-0.0074,-6.54798,7.06629,0.00215,-7.01604,-9.74242,10.6202,-30.09356,-13.09038,5.99006,0.88347,0.26504,9.02485
2812,-8.35067,0.0,-0.0,-6.28578,-0.0,0.0,-7.2304,-7.40505,6.33707,10.09453,0.54911,-18.4784,-21.10875,-1.09575,0.00074,-8.39012,-1.43241,-2e-05,28.97348,14.86508,6.81812,6.11349,6.29546,-15.69421,16.29635,19.81598,-4.06717,36.82872,-9.07898,32.97309,128.82748,0.00644,-103.97736,120.28456,6e-05,105.52702,-8.15768,-9.27721,-0.0117,-6.94864,6.94113,0.00308,-6.86892,-10.03172,10.735,-29.96837,-13.40085,5.98038,0.78183,0.26409,9.00453
2813,-8.6255,-0.0,0.0,-6.54976,0.0,0.0,-7.75722,-7.33888,6.0346,10.11901,0.48748,-18.52338,-21.67897,-1.20747,0.00098,-8.44497,-1.42381,-1e-05,29.2914,14.96138,6.831,6.11611,6.21611,-15.63372,16.34857,20.02696,-4.05141,37.17876,-9.03325,33.29526,128.69505,0.00441,-102.8243,120.1572,-0.0006,105.43945,-8.88956,-8.91458,-0.01264,-7.49634,6.77821,0.0036,-6.72373,-10.32069,10.83813,-29.84623,-13.70648,5.95975,0.65801,0.25217,8.95719
2814,-8.98097,-0.0,0.0,-6.9348,-0.0,0.0,-8.29872,-7.29353,5.71835,10.21918,0.4951,-18.61215,-22.24743,-1.32741,0.00103,-8.53367,-1.44481,4e-05,29.61464,15.07067,6.84945,6.13928,6.1449,-15.57369,16.39892,20.26612,-4.03816,37.54719,-8.9591,33.61932,128.63493,0.00283,-102.05203,120.03155,-0.00115,105.24731,-9.62556,-8.66103,-0.00966,-8.0996,6.61788,0.00331,-6.5962,-10.5729,10.92128,-29.73967,-13.97053,5.93514,0.52843,0.23117,8.89092
2815,-9.37231,-0.0,-0.0,-7.39229,-0.0,0.0,-8.85975,-7.29527,5.39442,10.3744,0.56587,-18.71969,-22.79246,-1.4429,0.00064,-8.64999,-1.48917,0.0001,29.94073,15.18339,6.88998,6.18931,6.07473,-15.52211,16.45816,20.49966,-4.00697,37.90528,-8.86563,33.89849,128.67192,0.00337,-101.80141,119.91095,-0.00118,104.99291,-10.21345,-8.63247,-0.00578,-8.64812,6.47948,0.00251,-6.49446,-10.76562,10.9652,-29.6551,-14.1647,5.89794,0.40526,0.19948,8.82433
2816,-9.64938,-0.0,0.0,-7.79232,0.0,0.0,-9.47362,-7.34845,5.05635,10.53633,0.68777,-18.80654,-23.28965,-1.53624,-9e-05,-8.78305,-1.5494,0.00015,30.24973,15.28415,6.9871,6.25885,5.99101,-15.4869,16.53084,20.69193,-3.95045,38.22717,-8.75934,34.10071,128.81027,0.00527,-102.01487,119.7932,-0.00051,104.80531,-10.56113,-8.85901,-0.00406,-9.04423,6.372,0.00163,-6.41321,-10.89391,10.95041,-29.58725,-14.27693,5.8321,0.28589,0.15358,8.78457
2817,-9.67974,-0.0,-0.0,-8.01903,-0.0,0.0,-10.16453,-7.42834,4.70392,10.65921,0.84772,-18.84176,-23.72542,-1.60074,-0.00079,-8.92216,-1.62137,0.00019,30.51535,15.36129,7.16576,6.33041,5.88141,-15.46798,16.6173,20.82231,-3.87509,38.49954,-8.64738,34.22328,129.02271,0.00593,-102.44491,119.67912,0.00056,104.83334,-10.68554,-9.246,-0.00433,-9.23613,6.3024,0.00102,-6.33653,-10.96666,10.87094,-29.52108,-14.3131,5.72852,0.15675,0.0911,8.79561
2818,-9.47659,-0.0,0.0,-8.06497,0.0,0.0,-10.91393,-7.49092,4.35112,10.72722,1.03021,-18.81815,-24.1051,-1.6468,-0.00117,-9.05936,-1.70296,0.00022,30.72986,15.41038,7.41417,6.39137,5.74349,-15.46224,16.71725,20.88287,-3.7916,38.72463,-8.53926,34.28925,129.25928,0.00402,-102.76192,119.57497,0.00139,105.11922,-10.68145,-9.61532,-0.00467,-9.24655,6.25375,0.00075,-6.24707,-11.00183,10.7414,-29.44027,-14.29535,5.5936,0.01041,0.0139,8.86157
2819,-9.17961,0.0,0.0,-8.01389,0.0,0.0,-11.66672,-7.49198,4.01761,10.75104,1.21369,-18.74904,-24.44651,-1.69518,-0.00113,-9.18927,-1.79063,0.00022,30.90694,15.4351,7.68632,6.43871,5.58643,-15.46861,16.83024,20.86521,-3.70296,38.91629,-8.44268,34.32926,129.47443,0.00088,-102.74477,119.48815,0.00158,105.55304,-10.6332,-9.8212,-0.0042,-9.16313,6.177,0.00077,-6.13545,-11.0233,10.59369,-29.33649,-14.25797,5.44736,-0.14995,-0.07152,8.96495
2820,-8.94389,-0.0,0.0,-7.96275,0.0,-0.0,-12.36192,-7.41296,3.72523,10.7502,1.37291,-18.66139,-24.76693,-1.76843,-0.00072,-9.31018,-1.87736,0.0002,31.06062,15.44727,7.92664,6.47126,5.42562,-15.4791,16.95307,20.75941,-3.60167,39.09214,-8.35987,34.36399,129.64867,-0.00149,-102.39329,119.4247,0.00126,105.93586,-10.55496,-9.82994,-0.00298,-9.08292,6.02798,0.00112,-6.00428,-11.05573,10.46453,-29.21342,-14.23783,5.31396,-0.32179,-0.15787,9.08217
2821,-8.8796,-0.0,0.0,-7.99244,0.0,0.0,-12.95356,-7.2749,3.49929,10.7463,1.47989,-18.5857,-25.07868,-1.88262,-0.0001,-9.42608,-1.95253,0.00014,31.20414,15.46118,8.09105,6.49516,5.27435,-15.4782,17.0799,20.57025,-3.47723,39.26499,-8.29036,34.39861,129.78596,-0.00226,-101.886,119.39012,0.00094,106.087,-10.40409,-9.69283,-0.00121,-9.05567,5.80607,0.00164,-5.86604,-11.11478,10.37894,-29.08424,-14.259,5.21031,-0.50066,-0.24005,9.19392
2822,-9.0318,0.0,0.0,-8.1562,0.0,0.0,-13.41832,-7.12371,3.36012,10.75808,1.50912,-18.54031,-25.39364,-2.03987,0.00056,-9.54527,-2.00461,5e-05,31.3629,15.48696,8.15905,6.53238,5.13947,-15.45833,17.20552,20.32856,-3.32542,39.43881,-8.23456,34.42932,129.89594,-0.00172,-101.45934,119.38697,0.00089,105.95461,-10.13229,-9.47386,0.00081,-9.06939,5.5587,0.00195,-5.73779,-11.19845,10.33836,-28.96587,-14.32018,5.13851,-0.66973,-0.31352,9.28393
2823,-9.35892,0.0,-0.0,-8.44477,0.0,-0.0,-13.75616,-7.00789,3.31583,10.79243,1.4585,-18.52987,-25.72335,-2.22888,0.00107,-9.67422,-2.02462,-7e-05,31.55705,15.52904,8.13836,6.59961,5.02128,-15.42097,17.32564,20.08067,-3.15209,39.61153,-8.19177,34.4533,129.98366,-0.00061,-101.30083,119.40911,0.00098,105.65791,-9.72511,-9.21572,0.00258,-9.0807,5.35318,0.00181,-5.63609,-11.28845,10.32107,-28.87386,-14.3962,5.08577,-0.81377,-0.37315,9.34001
2824,-9.76489,0.0,-0.0,-8.79653,0.0,0.0,-13.98082,-6.96694,3.36306,10.84424,1.35641,-18.5516,-26.07437,-2.43005,0.00129,-9.81223,-2.00904,-0.00021,31.78467,15.58575,8.05673,6.69144,4.91553,-15.3692,17.43353,19.86405,-2.9717,39.77925,-8.15543,34.47342,130.05147,0.00037,-101.48951,119.44032,0.00091,105.41187,-9.20824,-8.94466,0.00361,-9.06258,5.23203,0.00136,-5.57217,-11.3621,10.29642,-28.81829,-14.45434,5.03283,-0.93161,-0.41476,9.3568
