PaulMeinheit/Bachelor_Muay_Thai/Sub01_Teep/sliced/Sub01_Teep/JointAngles.txt/sliced0.csv
Unnamed: 0_level_0,L_MTP_ANGLE,L_MTP_ANGLE,L_MTP_ANGLE,R_MTP_ANGLE,R_MTP_ANGLE,R_MTP_ANGLE,L_ANKLE_ANGLE,L_ANKLE_ANGLE,L_ANKLE_ANGLE,R_ANKLE_ANGLE,R_ANKLE_ANGLE,R_ANKLE_ANGLE,L_KNEE_ANGLE,L_KNEE_ANGLE,L_KNEE_ANGLE,R_KNEE_ANGLE,R_KNEE_ANGLE,R_KNEE_ANGLE,L_HIP_ANGLE,L_HIP_ANGLE,L_HIP_ANGLE,R_HIP_ANGLE,R_HIP_ANGLE,R_HIP_ANGLE,L_SHOULDER_ANGLE,L_SHOULDER_ANGLE,L_SHOULDER_ANGLE,R_SHOULDER_ANGLE,R_SHOULDER_ANGLE,R_SHOULDER_ANGLE,L_ELBOW_ANGLE,L_ELBOW_ANGLE,L_ELBOW_ANGLE,R_ELBOW_ANGLE,R_ELBOW_ANGLE,R_ELBOW_ANGLE,L_WRIST_ANGLE,L_WRIST_ANGLE,L_WRIST_ANGLE,R_WRIST_ANGLE,R_WRIST_ANGLE,R_WRIST_ANGLE,NECK_ANGLE,NECK_ANGLE,NECK_ANGLE,NECK_ANGLE_SHADOW,NECK_ANGLE_SHADOW,NECK_ANGLE_SHADOW,Trunk_Joint_Angle,Trunk_Joint_Angle,Trunk_Joint_Angle
ITEM,X,Y,Z,X,Y,Z,X,Y,Z,X,Y,Z,X,Y,Z,X,Y,Z,X,Y,Z,X,Y,Z,X,Y,Z,X,Y,Z,X,Y,Z,X,Y,Z,X,Y,Z,X,Y,Z,X,Y,Z,X,Y,Z,X,Y,Z
521,-5.17583,-0.0,0.0,-4.10641,0.0,0.0,0.2778,-5.12142,6.9976,13.6058,2.72261,-17.93522,-19.5085,-1.40404,-8e-05,-16.88053,-2.51026,0.00104,25.72031,9.1666,8.84707,10.15294,0.52539,-14.67498,28.94222,22.42472,-6.75663,46.39248,-8.63128,37.02851,131.93173,0.00107,-111.90149,117.53474,-0.00164,102.09851,-7.81081,-15.05751,-0.00124,-7.62182,6.11105,0.00035,-8.13373,-9.82074,8.72047,-31.28536,-12.42741,4.19313,-0.64132,-5.91338,8.22888
522,-4.97545,0.0,-0.0,-4.06661,-0.0,0.0,0.09239,-5.17656,7.00382,13.45935,2.67499,-17.94226,-19.53605,-1.33523,-6e-05,-16.46542,-2.42781,0.00082,25.767,9.34117,8.8063,9.91437,0.75712,-14.69643,28.49896,22.27582,-6.19293,46.13143,-8.75558,37.07877,131.94574,0.00064,-110.72897,117.54876,-0.00147,102.6058,-7.70149,-14.63915,0.00146,-7.50852,6.29648,0.00011,-8.21778,-10.00452,9.28241,-31.36836,-12.81402,4.64066,-0.57661,-5.92364,8.26375
523,-4.72681,-0.0,-0.0,-3.91233,-0.0,0.0,-0.08352,-5.2705,7.08691,13.28377,2.59302,-17.88615,-19.58124,-1.2945,3e-05,-16.05877,-2.35558,0.0005,25.82155,9.54418,8.71057,9.69194,1.00057,-14.756,28.04733,22.16094,-5.61681,45.84469,-8.89537,37.11314,131.9805,0.00031,-109.92962,117.61752,-0.00156,103.22004,-7.37186,-14.26993,0.00217,-7.44155,6.59693,-0.00037,-8.25429,-10.16033,9.83924,-31.40017,-13.17281,5.09514,-0.48675,-5.90779,8.34675
524,-4.51741,-0.0,0.0,-3.75857,-0.0,-0.0,-0.23832,-5.36912,7.22796,13.12308,2.49172,-17.80945,-19.6554,-1.29736,0.00018,-15.66068,-2.29674,0.00021,25.88843,9.78054,8.56886,9.48445,1.25796,-14.83182,27.60811,22.09112,-5.07196,45.55075,-9.06809,37.12525,132.03883,0.00027,-109.54045,117.71828,-0.0012,103.77586,-6.93593,-14.04284,0.0002,-7.40241,6.93528,-0.00048,-8.23851,-10.29344,10.30339,-31.37971,-13.47474,5.47301,-0.38558,-5.86641,8.47585
525,-4.43056,0.0,-0.0,-3.7262,-0.0,0.0,-0.36565,-5.45702,7.4027,13.02483,2.41997,-17.76043,-19.76084,-1.3439,0.00036,-15.26797,-2.25319,-4e-05,25.96968,10.04153,8.38804,9.28516,1.5261,-14.89914,27.19709,22.06432,-4.58806,45.26323,-9.27311,37.10303,132.12309,0.00035,-109.44573,117.83579,-0.00028,104.13922,-6.51706,-14.04743,-0.00264,-7.3237,7.23727,-6e-05,-8.18285,-10.41076,10.61282,-31.32314,-13.70224,5.71353,-0.28706,-5.80427,8.63244
526,-4.522,0.0,0.0,-3.88704,0.0,0.0,-0.4646,-5.53824,7.5916,13.01133,2.42634,-17.76689,-19.88597,-1.42114,0.00043,-14.88367,-2.22638,-0.00024,26.06215,10.31178,8.1763,9.09158,1.79801,-14.93855,26.82438,22.06654,-4.17215,44.99011,-9.49142,37.03878,132.23207,0.00039,-109.49097,117.95811,0.00076,104.2398,-6.20538,-14.33547,-0.00352,-7.16102,7.45213,0.00037,-8.11042,-10.51523,10.75261,-31.25518,-13.85233,5.80141,-0.19939,-5.7265,8.79294
527,-4.78658,-0.0,0.0,-4.22258,0.0,0.0,-0.54566,-5.61905,7.76902,13.06317,2.52622,-17.81038,-20.01277,-1.50408,0.00031,-14.51754,-2.21767,-0.00041,26.1633,10.57654,7.95841,8.91167,2.06482,-14.95561,26.49532,22.07933,-3.81493,44.73626,-9.69674,36.93575,132.35278,0.00038,-109.58509,118.06911,0.00132,104.10265,-6.0591,-14.8826,-0.001,-6.92131,7.56065,0.00047,-8.04587,-10.60616,10.75577,-31.19934,-13.93716,5.76752,-0.12099,-5.63664,8.93926
528,-5.15143,-0.0,0.0,-4.63481,0.0,-0.0,-0.63252,-5.69998,7.89685,13.12833,2.68694,-17.82963,-20.1286,-1.5617,1e-05,-14.17743,-2.22614,-0.00047,26.27408,10.82543,7.77688,8.75625,2.31847,-14.98673,26.21001,22.08848,-3.50269,44.50648,-9.87136,36.80736,132.45737,0.00038,-109.69826,118.14695,0.00118,103.83176,-6.1156,-15.57553,0.00331,-6.63883,7.56814,0.0004,-8.00849,-10.68174,10.68233,-31.17228,-13.97826,5.66852,-0.04524,-5.53638,9.06034
529,-5.52445,-0.0,0.0,-5.01688,0.0,-0.0,-0.74647,-5.78564,7.94964,13.15347,2.83809,-17.76723,-20.23079,-1.57453,-0.00032,-13.86336,-2.24325,-0.00039,26.39057,11.05435,7.66466,8.62439,2.55362,-15.06559,25.96298,22.08894,-3.22295,44.30814,-10.0164,36.67397,132.51173,0.00046,-109.79477,118.16975,0.00074,103.56296,-6.37529,-16.25136,0.00571,-6.36207,7.48463,0.00047,-8.00779,-10.73897,10.59294,-31.18068,-13.99633,5.5621,0.0285,-5.42773,9.15139
530,-5.84033,0.0,-0.0,-5.30993,0.0,-0.0,-0.88973,-5.89145,7.93804,13.11058,2.91208,-17.61091,-20.32331,-1.54989,-0.00055,-13.5694,-2.25553,-0.00019,26.49763,11.26723,7.62117,8.49995,2.76943,-15.19132,25.74285,22.08505,-2.96485,44.15057,-10.14856,36.55658,132.49161,0.00075,-109.81078,118.12654,0.00067,103.41841,-6.79534,-16.76199,0.00382,-6.13914,7.31962,0.00087,-8.04049,-10.77261,10.53434,-31.21895,-14.00459,5.49391,0.09064,-5.31541,9.2145
531,-6.07907,-0.0,0.0,-5.51292,0.0,-0.0,-1.04299,-6.03634,7.90281,13.00378,2.88466,-17.39919,-20.41319,-1.52071,-0.00059,-13.28996,-2.25449,2e-05,26.57853,11.47759,7.61345,8.36585,2.97277,-15.3269,25.53118,22.08652,-2.71802,44.03886,-10.28513,36.46646,132.39632,0.00119,-109.71213,118.02534,0.00114,103.46964,-7.29251,-17.01688,-0.00114,-5.98524,7.09065,0.00146,-8.09148,-10.77834,10.53961,-31.2703,-14.0119,5.4965,0.13138,-5.20525,9.25758
532,-6.26159,0.0,0.0,-5.65791,0.0,-0.0,-1.17906,-6.22975,7.89123,12.85796,2.77494,-17.19756,-20.50907,-1.52848,-0.00037,-13.02377,-2.24118,0.00014,26.63018,11.70487,7.59445,8.21947,3.17756,-15.42095,25.30537,22.10203,-2.47113,43.96594,-10.42966,36.39875,132.25127,0.00137,-109.52837,117.89052,0.00165,103.70401,-7.73137,-17.00551,-0.00525,-5.88143,6.81948,0.00187,-8.13921,-10.76084,10.63243,-31.31272,-14.03169,5.58999,0.15268,-5.10039,9.29018
533,-6.41205,0.0,0.0,-5.76081,0.0,-0.0,-1.28456,-6.46001,7.93128,12.69701,2.61264,-17.05592,-20.62133,-1.60113,7e-05,-12.77225,-2.22247,0.00015,26.66607,11.96503,7.52752,8.07125,3.39807,-15.44322,25.04859,22.13517,-2.21522,43.91203,-10.56941,36.33525,132.09447,0.00109,-109.30679,117.75174,0.00159,104.026,-7.94373,-16.79838,-0.00539,-5.79275,6.53143,0.00174,-8.16229,-10.73836,10.82645,-31.32589,-14.08603,5.77977,0.16675,-4.99884,9.31858
534,-6.53406,0.0,-0.0,-5.8031,0.0,0.0,-1.36775,-6.69048,8.01938,12.53098,2.4155,-16.97774,-20.763,-1.74069,0.00065,-12.5362,-2.2058,9e-05,26.70898,12.26286,7.40406,7.93371,3.6417,-15.40924,24.76034,22.18399,-1.95094,43.85548,-10.68517,36.25335,131.95503,0.00039,-109.08118,117.63314,0.00095,104.30387,-7.79854,-16.50084,-0.00202,-5.65935,6.2614,0.00088,-8.14519,-10.73625,11.1202,-31.29645,-14.19758,6.05427,0.1857,-4.89365,9.34266
535,-6.62417,0.0,-0.0,-5.75823,-0.0,0.0,-1.45028,-6.86923,8.12933,12.35938,2.19627,-16.92906,-20.94521,-1.9256,0.00114,-12.31484,-2.19471,2e-05,26.77714,12.58795,7.247,7.81146,3.90366,-15.36752,24.45906,22.24138,-1.69218,43.78567,-10.76533,36.13605,131.84154,-0.00059,-108.91435,117.54836,0.0002,104.4125,-7.26989,-16.19442,0.002,-5.40016,6.03622,-0.00048,-8.08352,-10.774,11.49183,-31.22242,-14.3758,6.38538,0.21181,-4.77843,9.35895
536,-6.67178,-0.0,0.0,-5.60496,0.0,-0.0,-1.56093,-6.94796,8.2228,12.17877,1.97845,-16.86692,-21.16906,-2.11888,0.00126,-12.10677,-2.18658,-0.0,26.87197,12.9151,7.10497,7.69697,4.16498,-15.36684,24.17404,22.29668,-1.45833,43.70597,-10.81208,35.97903,131.75154,-0.00153,-108.91102,117.50308,-0.00016,104.28979,-6.44826,-15.91924,0.00429,-4.962,5.85532,-0.00175,-7.98739,-10.85819,11.89874,-31.11619,-14.61025,6.73084,0.23425,-4.65487,9.36765
537,-6.66549,-0.0,0.0,-5.34321,0.0,-0.0,-1.72496,-6.90223,8.25326,11.99347,1.7958,-16.75977,-21.42728,-2.27922,0.00089,-11.91177,-2.17511,3e-05,26.98733,13.21323,7.03217,7.5812,4.40044,-15.43642,23.93202,22.34068,-1.25696,43.6267,-10.83605,35.79246,131.69106,-0.00206,-109.10417,117.49961,-0.00011,104.00079,-5.48335,-15.68883,0.00426,-4.37172,5.7061,-0.00225,-7.8785,-10.98459,12.28572,-31.00173,-14.87573,7.04084,0.24007,-4.53181,9.37354
538,-6.62695,0.0,0.0,-5.02893,0.0,-0.0,-1.94677,-6.74757,8.18205,11.82482,1.67447,-16.59957,-21.71215,-2.37709,0.00019,-11.73199,-2.15609,6e-05,27.12464,13.46021,7.05826,7.46536,4.5931,-15.57831,23.74863,22.37078,-1.07344,43.55726,-10.84721,35.59806,131.68094,-0.0023,-109.35262,117.53803,-4e-05,103.70529,-4.50855,-15.5112,0.00255,-3.73617,5.58994,-0.00174,-7.78112,-11.14285,12.60042,-30.90525,-15.14256,7.27056,0.22628,-4.41634,9.38169
539,-6.60897,-0.0,0.0,-4.76569,0.0,0.0,-2.20922,-6.5391,7.9982,11.70557,1.61852,-16.40084,-22.01777,-2.40595,-0.00054,-11.57206,-2.13349,4e-05,27.2905,13.65232,7.17556,7.35883,4.74296,-15.7719,23.62766,22.39059,-0.88265,43.50178,-10.85,35.42111,131.7413,-0.00286,-109.43676,117.61292,-0.00028,103.54579,-3.60691,-15.40234,0.00027,-3.1744,5.51846,-0.00075,-7.71247,-11.32073,12.80969,-30.84491,-15.38677,7.39381,0.19865,-4.30704,9.39481
540,-6.6518,-0.0,0.0,-4.65089,-0.0,0.0,-2.48929,-6.34732,7.72335,11.6648,1.61445,-16.18929,-22.33742,-2.37972,-0.00102,-11.43945,-2.12101,-3e-05,27.4886,13.80145,7.34806,7.27329,4.8646,-15.99149,23.56259,22.40309,-0.67374,43.45904,-10.84566,35.27951,131.87027,-0.00376,-109.24753,117.71036,-0.00072,103.57679,-2.83496,-15.37626,-0.00124,-2.73367,5.4836,-0.00022,-7.67787,-11.50955,12.90976,-30.82569,-15.59895,7.41041,0.1666,-4.19424,9.4111
541,-6.74869,0.0,-0.0,-4.72569,0.0,0.0,-2.77072,-6.22634,7.40826,11.715,1.64423,-15.99633,-22.6588,-2.32378,-0.0011,-11.34516,-2.13389,-0.0001,27.71157,13.92332,7.52557,7.21676,4.97538,-16.21388,23.5395,22.40573,-0.46551,43.42622,-10.84093,35.17584,132.03609,-0.0041,-108.83356,117.81067,-0.00097,103.76306,-2.26721,-15.41911,-0.0011,-2.36686,5.44288,-0.00067,-7.67191,-11.70753,12.92672,-30.84072,-15.78751,7.3454,0.13806,-4.06758,9.42469
542,-6.83698,-0.0,-0.0,-4.94544,0.0,-0.0,-3.04834,-6.19613,7.1196,11.84296,1.69171,-15.85632,-22.96234,-2.26619,-0.0008,-11.3013,-2.17779,-7e-05,27.93478,14.02827,7.66067,7.18679,5.08442,-16.41355,23.54167,22.3935,-0.29676,43.40276,-10.85257,35.09859,132.19034,-0.00322,-108.29143,117.89534,-0.00086,104.01013,-1.99444,-15.48094,7e-05,-1.99597,5.34512,-0.00184,-7.68321,-11.91666,12.90771,-30.87642,-15.97243,7.24203,0.11408,-3.92441,9.43005
543,-6.8084,0.0,-0.0,-5.17645,0.0,-0.0,-3.32859,-6.245,6.90689,12.0058,1.74197,-15.79248,-23.22873,-2.22722,-0.00034,-11.31399,-2.24678,4e-05,28.12381,14.12162,7.73035,7.17016,5.19277,-16.56822,23.55159,22.36604,-0.196,43.39138,-10.89694,35.03328,132.2928,-0.0013,-107.6534,117.95096,-0.00053,104.20722,-2.06039,-15.49244,0.0004,-1.59781,5.16938,-0.00284,-7.69924,-12.13509,12.90588,-30.91734,-16.17249,7.15074,0.08932,-3.76917,9.42347
544,-6.56862,-0.0,-0.0,-5.25647,0.0,0.0,-3.62077,-6.3487,6.7774,12.14496,1.77849,-15.80182,-23.4498,-2.2112,5e-05,-11.37862,-2.32914,0.00016,28.25701,14.20838,7.7453,7.15551,5.30003,-16.67094,23.5508,22.33161,-0.1561,43.39615,-10.97248,34.97465,132.32919,0.00105,-106.88033,117.96955,-0.0003,104.27789,-2.41161,-15.38682,-0.00142,-1.22101,4.93976,-0.0028,-7.70958,-12.35151,12.96249,-30.94977,-16.39318,7.11478,0.06287,-3.60675,9.40121
545,-6.15015,0.0,-0.0,-5.12186,0.0,0.0,-3.91498,-6.49607,6.71136,12.22147,1.7826,-15.86247,-23.63284,-2.21054,0.00028,-11.48333,-2.41301,0.00023,28.3455,14.29604,7.73017,7.15008,5.40899,-16.72584,23.52505,22.30508,-0.13889,43.41823,-11.05534,34.92881,132.31001,0.00312,-105.94561,117.95135,-0.00027,104.21824,-2.92782,-15.11827,-0.00478,-0.92756,4.70955,-0.00177,-7.70912,-12.54586,13.09161,-30.96553,-16.62152,7.1556,0.05049,-3.43776,9.36067
546,-5.74234,0.0,-0.0,-4.87109,0.0,0.0,-4.17373,-6.6997,6.6929,12.23783,1.7409,-15.9602,-23.79476,-2.21667,0.00035,-11.61502,-2.4889,0.00022,28.42315,14.39333,7.69718,7.1732,5.52593,-16.73316,23.47359,22.30101,-0.10619,43.45245,-11.11572,34.90512,132.25822,0.00425,-104.91878,117.90884,-0.00036,104.09143,-3.49313,-14.68097,-0.0077,-0.73581,4.52991,-0.0005,-7.70044,-12.6964,13.2736,-30.96546,-16.82995,7.26389,0.07493,-3.25926,9.30339
547,-5.55399,0.0,0.0,-4.67069,0.0,-0.0,-4.3579,-6.97709,6.71687,12.22155,1.6554,-16.09999,-23.9497,-2.22333,0.00032,-11.76166,-2.55017,0.00014,28.51105,14.50416,7.64706,7.22848,5.65515,-16.68721,23.41461,22.3255,-0.05065,43.48966,-11.13964,34.90588,132.19748,0.00422,-103.97552,117.86344,-0.00046,103.99544,-4.02684,-14.13056,-0.00838,-0.616,4.42367,0.00044,-7.69225,-12.78915,13.45976,-30.95876,-16.98688,7.39995,0.13816,-3.07021,9.23676
548,-5.64989,-0.0,-0.0,-4.61283,0.0,-0.0,-4.46164,-7.31702,6.77121,12.19571,1.54119,-16.28411,-24.10078,-2.22113,0.00018,-11.91156,-2.5934,2e-05,28.60208,14.62133,7.59057,7.29458,5.79197,-16.59437,23.38272,22.3721,-0.00323,43.52408,-11.13696,34.92218,132.14326,0.00332,-103.34093,117.83523,-0.00062,104.03555,-4.45892,-13.59434,-0.00674,-0.52498,4.38428,0.00092,-7.69353,-12.82454,13.58601,-30.95767,-17.06802,7.50361,0.21381,-2.87665,9.17235
549,-5.92066,-0.0,0.0,-4.66629,0.0,-0.0,-4.52269,-7.66303,6.8234,12.1688,1.41244,-16.48793,-24.24245,-2.19562,-2e-05,-12.05361,-2.61877,-9e-05,28.67854,14.72631,7.55662,7.34361,5.92155,-16.48797,23.4193,22.42369,-0.01546,43.55906,-11.13162,34.94035,132.09669,0.00182,-103.21725,117.83363,-0.00086,104.27292,-4.69908,-13.24369,-0.00539,-0.45088,4.39809,0.001,-7.70875,-12.81805,13.59355,-30.9717,-17.06496,7.51336,0.26715,-2.69067,9.11861
550,-6.17255,0.0,-0.0,-4.72551,0.0,0.0,-4.6036,-7.93178,6.83131,12.1426,1.27716,-16.66514,-24.36592,-2.1345,-0.00018,-12.18164,-2.62985,-0.00016,28.72742,14.79505,7.57664,7.35709,6.02392,-16.41451,23.55761,22.45805,-0.13384,43.60636,-11.14389,34.95398,132.04524,-0.00034,-103.7184,117.85387,-0.00099,104.66059,-4.65807,-13.22089,-0.00766,-0.43885,4.46092,0.00061,-7.73747,-12.79476,13.45292,-31.00502,-16.9894,7.39122,0.27308,-2.52503,9.07656
551,-6.2509,0.0,0.0,-4.69615,0.0,0.0,-4.75557,-8.05382,6.77147,12.12436,1.14526,-16.77201,-24.46115,-2.03804,-0.00022,-12.30048,-2.6342,-0.00017,28.74007,14.80803,7.66174,7.33069,6.08205,-16.40426,23.80735,22.45564,-0.38042,43.67866,-11.17894,34.96913,131.9716,-0.00309,-104.8081,117.88164,-0.00087,105.06738,-4.319,-13.55811,-0.01307,-0.57564,4.56919,-0.00029,-7.77681,-12.77875,13.18063,-31.05642,-16.86977,7.14285,0.22326,-2.38819,9.0453
552,-6.13471,0.0,-0.0,-4.56761,0.0,-0.0,-4.98455,-8.00851,6.66128,12.13337,1.03156,-16.79267,-24.5197,-1.92394,-0.00014,-12.42567,-2.64179,-0.00013,28.71528,14.7596,7.78616,7.27712,6.09041,-16.4575,24.14784,22.40957,-0.74152,43.7799,-11.22858,34.9976,131.86502,-0.0056,-106.28456,117.90408,-0.0006,105.39331,-3.7801,-14.15306,-0.01662,-0.94028,4.70413,-0.0013,-7.82398,-12.78216,12.83604,-31.12099,-16.74005,6.81899,0.13101,-2.28055,9.02568
553,-5.92124,0.0,-0.0,-4.40205,0.0,0.0,-5.25246,-7.8319,6.5495,12.18871,0.944,-16.74858,-24.53926,-1.81892,-2e-05,-12.57437,-2.65892,-7e-05,28.66107,14.65999,7.89807,7.21877,6.05776,-16.55276,24.53535,22.3324,-1.16717,43.90183,-11.28043,35.04562,131.72754,-0.00668,-107.86336,117.91819,-0.00039,105.64561,-3.21248,-14.8283,-0.01446,-1.54801,4.83777,-0.00181,-7.87743,-12.80176,12.49775,-31.19267,-16.62753,6.49462,0.02496,-2.1938,9.01535
554,-5.71415,0.0,0.0,-4.24655,0.0,-0.0,-5.5122,-7.59563,6.48058,12.28645,0.87428,-16.68205,-24.52497,-1.74203,8e-05,-12.75488,-2.68505,-0.0,28.58726,14.53049,7.95849,7.17379,6.00167,-16.66172,24.92001,22.25253,-1.58652,44.02879,-11.32591,35.10748,131.57173,-0.00576,-109.29458,117.9308,-0.00034,105.89948,-2.7673,-15.42215,-0.00809,-2.31908,4.95303,-0.0015,-7.9359,-12.82584,12.23227,-31.26591,-16.54715,6.23663,-0.06783,-2.11489,9.00821
555,-5.56526,0.0,-0.0,-4.09585,-0.0,0.0,-5.73086,-7.37323,6.47171,12.40138,0.80785,-16.63254,-24.4902,-1.69638,0.00012,-12.96584,-2.71861,8e-05,28.50938,14.39811,7.96327,7.15955,5.94342,-16.75929,25.26319,22.20126,-1.93323,44.14612,-11.36424,35.16791,131.41304,-0.00318,-110.40008,117.95184,-0.00033,106.1841,-2.50569,-15.83939,-0.00173,-3.10197,5.04575,-0.00052,-7.99524,-12.84506,12.07137,-31.33449,-16.50266,6.07844,-0.1259,-2.02944,9.00157
556,-5.50982,-0.0,0.0,-3.94331,0.0,-0.0,-5.88639,-7.22069,6.5213,12.51474,0.73932,-16.63248,-24.45633,-1.67487,0.00015,-13.20357,-2.76149,0.00016,28.45405,14.28974,7.92401,7.19823,5.90527,-16.82194,25.54884,22.19981,-2.16828,44.24706,-11.40172,35.21096,131.26205,0.00013,-111.04079,117.98817,-0.00024,106.42851,-2.39946,-16.05025,0.00195,-3.74194,5.11375,0.00059,-8.04615,-12.85708,12.00833,-31.3895,-16.48934,6.01462,-0.1329,-1.92254,8.99723
557,-5.59655,-0.0,0.0,-3.82813,0.0,-0.0,-5.96345,-7.1735,6.62857,12.63191,0.67138,-16.71517,-24.44433,-1.67024,0.0002,-13.4665,-2.81279,0.00021,28.43888,14.2226,7.84106,7.2979,5.90281,-16.81821,25.78431,22.25362,-2.29166,44.33442,-11.44553,35.23072,131.12346,0.00299,-111.11627,118.0433,-6e-05,106.5608,-2.38593,-16.07215,0.00291,-4.14989,5.16574,0.00111,-8.0761,-12.86269,12.01276,-31.41993,-16.4962,6.01643,-0.09148,-1.78373,8.99491
558,-5.84652,-0.0,-0.0,-3.81031,0.0,-0.0,-5.96511,-7.23185,6.78747,12.77125,0.60403,-16.89779,-24.46347,-1.677,0.00023,-13.754,-2.86437,0.00018,28.45351,14.19636,7.71063,7.43837,5.93516,-16.72264,25.99024,22.35302,-2.33803,44.41786,-11.4951,35.23891,131.00244,0.00427,-110.61449,118.11949,-2e-05,106.61365,-2.41128,-15.95731,0.00236,-4.3514,5.2372,0.00051,-8.07433,-12.85973,12.05381,-31.41606,-16.50934,6.05597,-0.02729,-1.61539,8.98832
559,-6.17834,0.0,0.0,-3.89664,0.0,0.0,-5.92845,-7.34157,6.95651,12.93923,0.53224,-17.14813,-24.51,-1.68238,0.00019,-14.0634,-2.90827,0.00011,28.46992,14.19427,7.55761,7.58497,5.98415,-16.55317,26.18721,22.47865,-2.35841,44.51079,-11.53841,35.26268,130.91133,0.00331,-109.62792,118.21487,-0.00021,106.68355,-2.43702,-15.78067,0.00141,-4.48058,5.37817,-0.00138,-8.03558,-12.84226,12.11712,-31.37253,-16.51776,6.12231,0.03022,-1.43414,8.96651
560,-6.42859,0.0,-0.0,-4.02179,0.0,0.0,-5.91074,-7.416,7.06645,13.12489,0.45247,-17.39744,-24.57703,-1.66603,0.0,-14.38985,-2.94282,7e-05,28.46381,14.19153,7.43374,7.70798,6.02352,-16.37107,26.38753,22.61059,-2.39934,44.62734,-11.55729,35.3297,130.86681,0.00062,-108.32817,118.32035,-0.00046,106.83517,-2.43844,-15.61788,0.00059,-4.67561,5.6242,-0.00405,-7.96125,-12.80656,12.2041,-31.29022,-16.51856,6.21828,0.06496,-1.26249,8.91686
561,-6.49343,-0.0,-0.0,-4.12457,0.0,0.0,-5.94362,-7.39265,7.08136,13.32186,0.37061,-17.59833,-24.66566,-1.61735,-0.00034,-14.73059,-2.96977,9e-05,28.4311,14.16629,7.36788,7.79618,6.03158,-16.23088,26.59516,22.73634,-2.49135,44.77844,-11.538,35.44997,130.87852,-0.00205,-106.97234,118.42218,-0.00047,107.05688,-2.40863,-15.51808,2e-05,-4.95928,5.97738,-0.00597,-7.85967,-12.75913,12.3143,-31.1782,-16.51756,6.34081,0.07929,-1.11755,8.83118
562,-6.42281,-0.0,0.0,-4.21444,0.0,0.0,-6.0091,-7.27297,7.03836,13.54399,0.3041,-17.75846,-24.78782,-1.54848,-0.00079,-15.0871,-2.99015,0.00018,28.39165,14.10781,7.33326,7.85948,5.99944,-16.14186,26.81152,22.85291,-2.64679,44.97005,-11.47841,35.6077,130.94063,-0.0029,-105.88433,118.50542,-0.00014,107.27763,-2.36274,-15.48782,-0.00024,-5.23038,6.39319,-0.0057,-7.74422,-12.71944,12.42795,-31.05294,-16.52498,6.46338,0.08812,-1.00449,8.71202
563,-6.36321,0.0,-0.0,-4.34822,-0.0,-0.0,-6.06756,-7.11753,7.01866,13.81058,0.27404,-17.92122,-24.96094,-1.48702,-0.00124,-15.46182,-3.00399,0.00031,28.375,14.01865,7.27361,7.91587,5.93104,-16.07604,27.04251,22.96412,-2.86281,45.20527,-11.38553,35.76812,131.03676,-0.0016,-105.31232,118.55426,0.0003,107.43362,-2.34529,-15.49971,-0.00012,-5.35136,6.7785,-0.0037,-7.62596,-12.71298,12.50815,-30.93025,-16.55,6.541,0.1027,-0.9172,8.57292
564,-6.42957,-0.0,0.0,-4.55973,0.0,0.0,-6.09988,-7.00101,7.08289,14.12086,0.29255,-18.11936,-25.20373,-1.45807,-0.00159,-15.85455,-3.01206,0.00045,28.40883,13.91411,7.15842,7.98112,5.8384,-16.00535,27.30115,23.07574,-3.12832,45.48689,-11.26709,35.89581,131.15369,0.00064,-105.28523,118.55614,0.00059,107.51148,-2.41566,-15.5216,0.00031,-5.24169,7.03243,-0.00201,-7.50516,-12.75791,12.52325,-30.81405,-16.5971,6.53656,0.1231,-0.84196,8.43238
565,-6.61653,-0.0,0.0,-4.81245,0.0,-0.0,-6.12314,-6.96378,7.23278,14.44603,0.34987,-18.34823,-25.53659,-1.47139,-0.00176,-16.26154,-3.01264,0.00047,28.51137,13.81837,7.01408,8.061,5.73413,-15.92437,27.60325,23.19079,-3.42908,45.81599,-11.12869,35.97147,131.29118,0.00238,-105.63481,118.51257,0.00062,107.51157,-2.58734,-15.54414,0.00075,-4.91897,7.11077,-0.00182,-7.37289,-12.85328,12.46661,-30.69565,-16.66281,6.44422,0.13832,-0.76278,8.30754
566,-6.80744,-0.0,-0.0,-5.01402,0.0,-0.0,-6.17707,-7.0001,7.42875,14.74346,0.40829,-18.58008,-25.98213,-1.52295,-0.00158,-16.67555,-2.99488,0.00027,28.6804,13.75639,6.9076,8.13965,5.62333,-15.83562,27.96066,23.30795,-3.74838,46.18775,-10.9805,35.99245,131.45894,0.00261,-106.12079,118.44298,0.00057,107.4029,-2.77919,-15.59002,0.00062,-4.46696,7.03774,-0.00248,-7.22439,-12.9764,12.35387,-30.56684,-16.73234,6.28797,0.12425,-0.6694,8.21256
567,-6.87674,-0.0,-0.0,-5.08887,0.0,0.0,-6.29393,-7.07745,7.6318,14.98065,0.41688,-18.78631,-26.56728,-1.60511,-0.00075,-17.08823,-2.94442,-8e-05,28.91059,13.74787,6.90367,8.19632,5.50383,-15.73624,28.37941,23.42369,-4.06804,46.59092,-10.84472,35.96181,131.66348,0.00091,-106.52399,118.37477,0.00074,107.15413,-2.84639,-15.70406,-0.00091,-3.97893,6.86519,-0.00281,-7.06897,-13.09147,12.2036,-30.43173,-16.77996,6.09997,0.06275,-0.56075,8.15741
568,-6.78345,0.0,-0.0,-5.03324,0.0,-0.0,-6.47283,-7.15928,7.82573,15.15195,0.34131,-18.94176,-27.32737,-1.71225,0.00111,-17.49388,-2.85939,-0.00036,29.2258,13.80327,7.03032,8.23645,5.37288,-15.63361,28.86154,23.53517,-4.37493,47.01309,-10.75284,35.88547,131.89693,-0.00217,-106.69527,118.32939,0.00126,106.81086,-2.67548,-15.92912,-0.0041,-3.54522,6.63784,-0.00212,-6.92389,-13.1643,12.02311,-30.30302,-16.77708,5.90127,-0.03255,-0.44079,8.1417
569,-6.57958,-0.0,0.0,-4.90519,0.0,-0.0,-6.67183,-7.22493,8.02294,15.28061,0.18059,-19.03596,-28.30552,-1.84254,0.00416,-17.89135,-2.75118,-0.00049,29.66718,13.91965,7.26282,8.2796,5.22878,-15.54913,29.40482,23.63983,-4.66935,47.4454,-10.73054,35.77997,132.13747,-0.00491,-106.6069,118.31478,0.0018,106.53953,-2.26876,-16.27909,-0.00756,-3.25328,6.38114,-0.00054,-6.79973,-13.17627,11.81186,-30.18895,-16.70644,5.69915,-0.13274,-0.31319,8.1494
570,-6.36878,-0.0,0.0,-4.78935,0.0,-0.0,-6.81661,-7.28169,8.26277,15.40936,-0.0362,-19.08797,-29.54576,-1.99953,0.00775,-18.28497,-2.62953,-0.00053,30.25821,14.08134,7.53088,8.32885,5.0664,-15.49541,29.99989,23.73224,-4.96599,47.88144,-10.78364,35.67601,132.35941,-0.00555,-106.41067,118.32744,0.0018,106.58929,-1.73768,-16.72743,-0.00906,-3.14807,6.11235,0.00117,-6.69359,-13.13233,11.57418,-30.08699,-16.57422,5.49566,-0.22679,-0.17938,8.15536
571,-6.20226,0.0,0.0,-4.72165,0.0,0.0,-6.83958,-7.34889,8.57114,15.57299,-0.25592,-19.11933,-31.08187,-2.17791,0.00971,-18.68322,-2.49899,-0.0005,30.99427,14.26568,7.77535,8.36833,4.87277,-15.47839,30.62936,23.80288,-5.28443,48.31408,-10.89966,35.60864,132.54576,-0.00367,-106.41782,118.36224,0.00099,107.16287,-1.21551,-17.21809,-0.00764,-3.19656,5.85935,0.0021,-6.59429,-13.05965,11.32531,-29.98863,-16.41127,5.29373,-0.32633,-0.04231,8.14101
572,-5.97111,-0.0,0.0,-4.60969,0.0,-0.0,-6.72798,-7.42703,8.90789,15.767,-0.41147,-19.1171,-32.92579,-2.34318,0.00718,-19.09225,-2.36682,-0.00036,31.84666,14.45002,8.01217,8.37187,4.62861,-15.51738,31.27115,23.84315,-5.63587,48.73739,-11.06113,35.59991,132.69653,-0.00034,-106.8973,118.42136,-0.00039,108.23502,-0.7909,-17.68749,-0.00415,-3.31234,5.65803,0.00208,-6.491,-12.99683,11.08469,-29.88684,-16.26054,5.09552,-0.4561,0.08787,8.10262
573,-5.49347,0.0,-0.0,-4.30785,0.0,-0.0,-6.51441,-7.48821,9.18848,15.95628,-0.44512,-19.05345,-35.06411,-2.44526,-0.00058,-19.51226,-2.24154,-0.00016,32.78273,14.61962,8.30953,8.32077,4.31831,-15.62899,31.90326,23.85426,-6.01374,49.15231,-11.25432,35.6485,132.82916,0.00312,-107.84991,118.51552,-0.00149,109.49367,-0.48895,-18.08718,-0.00044,-3.40731,5.54208,0.00173,-6.37684,-12.9784,10.86483,-29.7783,-16.15854,4.89839,-0.63399,0.19433,8.04476
574,-4.71871,0.0,-0.0,-3.78762,0.0,0.0,-6.22235,-7.48478,9.35645,16.1166,-0.3324,-18.92267,-37.46457,-2.45589,-0.01093,-19.94252,-2.12685,6e-05,33.79852,14.76998,8.70696,8.23129,3.93768,-15.8056,32.50837,23.85199,-6.39615,49.56876,-11.46753,35.73335,132.97018,0.00579,-109.03909,118.6557,-0.00157,110.5556,-0.26953,-18.39639,0.00205,-3.41413,5.54237,0.00181,-6.24641,-13.02238,10.66695,-29.65963,-16.12231,4.69599,-0.84411,0.25913,7.96841
575,-3.76711,0.0,-0.0,-3.16976,0.0,-0.0,-5.84253,-7.36607,9.41388,16.25375,-0.09221,-18.7353,-40.08446,-2.38569,-0.0191,-20.38895,-2.02522,0.00021,34.91431,14.90385,9.18543,8.14986,3.49081,-16.0277,33.07846,23.86304,-6.75938,50.00059,-11.68817,35.82654,133.14024,0.0066,-110.17223,118.84074,-0.00069,111.23885,-0.07279,-18.613,0.00307,-3.29308,5.67064,0.00249,-6.09218,-13.12588,10.4855,-29.52317,-16.14702,4.48433,-1.04396,0.26635,7.87026
576,-2.80853,0.0,-0.0,-2.61901,0.0,0.0,-5.35078,-7.11299,9.40781,16.391,0.2156,-18.50257,-42.87647,-2.27775,-0.02041,-20.8667,-1.94111,0.00021,36.13292,15.02897,9.69351,8.11299,2.98206,-16.27225,33.61727,23.915,-7.09314,50.45701,-11.90734,35.90516,133.34203,0.0047,-110.98611,119.05192,0.00038,111.58449,0.09758,-18.73595,0.00271,-3.04658,5.88962,0.00304,-5.90647,-13.26786,10.31437,-29.35913,-16.211,4.26636,-1.20478,0.20313,7.75471
577,-1.96661,0.0,0.0,-2.26175,0.0,-0.0,-4.7305,-6.77077,9.41404,16.55684,0.50494,-18.25464,-45.79455,-2.19612,-0.01246,-21.39482,-1.87009,-9e-05,37.42067,15.15504,10.16603,8.12047,2.4123,-16.49359,34.13717,24.02534,-7.40806,50.9379,-12.12778,35.95873,133.56053,0.00054,-111.25861,119.25889,0.00101,111.69415,0.1423,-18.7617,0.00056,-2.73139,6.11586,0.00252,-5.69065,-13.41649,10.14799,-29.16543,-16.28289,4.05004,-1.33445,0.06375,7.64007
578,-1.28837,-0.0,0.0,-2.15222,0.0,-0.0,-3.98724,-6.42384,9.50674,16.77802,0.69759,-18.04853,-48.80162,-2.20507,0.00259,-21.98697,-1.79502,-0.00055,38.73332,15.29108,10.53818,8.14818,1.78214,-16.62908,34.65469,24.19448,-7.73095,51.43668,-12.36448,35.99286,133.77228,-0.0039,-110.82938,119.43049,0.00093,111.61527,-0.07774,-18.69238,-0.00385,-2.4576,6.26316,0.00106,-5.46338,-13.53845,9.97941,-28.95707,-16.32941,3.84274,-1.4612,-0.14478,7.55218
579,-0.73636,-0.0,0.0,-2.2366,0.0,-0.0,-3.15442,-6.11168,9.70204,17.06429,0.76876,-17.92079,-51.87513,-2.33187,0.0179,-22.64503,-1.70917,-0.00062,40.05524,15.44655,10.78372,8.18118,1.09869,-16.65855,35.19019,24.40675,-8.09068,51.94733,-12.63364,36.02552,133.95335,-0.00615,-109.6394,119.54568,0.00012,111.34702,-0.6528,-18.54215,-0.00959,-2.34841,6.28852,-0.00022,-5.2575,-13.60846,9.8025,-28.76405,-16.32503,3.64931,-1.60146,-0.40182,7.51285
580,-0.22211,-0.0,0.0,-2.36649,0.0,-0.0,-2.27705,-5.79367,9.93379,17.40054,0.76132,-17.85063,-55.00474,-2.54382,0.026,-23.3577,-1.63178,0.00016,41.41099,15.631,10.93606,8.22697,0.37775,-16.63682,35.76751,24.63791,-8.50269,52.4702,-12.93748,36.07382,134.08533,-0.00492,-107.78868,119.60272,-0.00106,110.89835,-1.55775,-18.34545,-0.01388,-2.45133,6.21391,-0.0005,-5.10362,-13.61706,9.62006,-28.61576,-16.2622,3.47634,-1.74784,-0.67921,7.52633
581,0.32032,0.0,0.0,-2.404,0.0,0.0,-1.37948,-5.42164,10.10461,17.76325,0.74508,-17.79394,-58.18219,-2.76864,0.02342,-24.10418,-1.58553,0.00139,42.83972,15.84897,11.05388,8.29572,-0.36155,-16.64066,36.40844,24.86486,-8.9608,53.01338,-13.25566,36.13871,134.16151,-0.00121,-105.52701,119.62203,-0.00188,110.31939,-2.64628,-18.16471,-0.01402,-2.66563,6.12196,0.00065,-5.01063,-13.5734,9.4485,-28.52184,-16.15564,3.33524,-1.88781,-0.94978,7.57118
582,0.89701,0.0,0.0,-2.31342,0.0,-0.0,-0.45402,-5.01635,10.15256,18.13921,0.7675,-17.72981,-61.39169,-2.93254,0.01188,-24.86044,-1.5691,0.00222,44.36313,16.09651,11.1769,8.37718,-1.10328,-16.70462,37.12534,25.07268,-9.44431,53.59068,-13.54923,36.20146,134.18886,0.00263,-103.11612,119.63922,-0.00171,109.68449,-3.73783,-18.07659,-0.0103,-2.77308,6.13497,0.00483,-4.95797,-13.50103,9.30875,-28.46408,-16.03508,3.23561,-2.02689,-1.19336,7.60769
583,1.48897,0.0,-0.0,-2.15814,0.0,-0.0,0.5139,-4.65404,10.07479,18.52789,0.83886,-17.66741,-64.60738,-2.9868,-0.00276,-25.60491,-1.55628,0.00194,45.97478,16.3645,11.31488,8.43912,-1.83791,-16.8092,37.91731,25.25576,-9.93391,54.21669,-13.77571,36.2362,134.18359,0.00473,-100.76671,119.68974,-0.00049,109.04659,-4.695,-18.14257,-0.00565,-2.57561,6.37821,0.01365,-4.90569,-13.42735,9.20964,-28.40562,-15.92907,3.17423,-2.1918,-1.39961,7.59822
584,2.10784,-0.0,0.0,-2.04989,0.0,-0.0,1.512,-4.39796,9.92338,18.93683,0.93742,-17.63584,-67.79548,-2.9288,-0.01287,-26.32336,-1.50831,0.00047,47.64648,16.64675,11.45476,8.44339,-2.56498,-16.89358,38.77028,25.4133,-10.41971,54.89862,-13.90976,36.22953,134.16588,0.00454,-98.68976,119.79463,0.00133,108.4063,-5.41854,-18.37459,-0.00284,-2.03764,6.92475,0.02431,-4.81425,-13.37061,9.14175,-28.30925,-15.85071,3.13479,-2.41633,-1.57117,7.52812
585,2.79051,-0.0,0.0,-2.0834,0.0,-0.0,2.49793,-4.24413,9.78911,19.37395,1.02262,-17.6645,-70.91515,-2.80505,-0.01377,-27.01245,-1.39284,-0.00149,49.336,16.94472,11.57922,8.36408,-3.29703,-16.88106,39.65845,25.54483,-10.9008,55.62853,-13.95909,36.1923,134.15565,0.00277,-97.00647,119.95498,0.00296,107.74419,-5.88455,-18.69575,-0.00236,-1.32026,7.74438,0.02909,-4.66095,-13.33256,9.0882,-28.15283,-15.79504,3.10089,-2.72499,-1.728,7.41514
586,3.51743,0.0,0.0,-2.26037,0.0,-0.0,3.43553,-4.11672,9.7645,19.83501,1.06408,-17.7511,-73.92156,-2.67375,-0.00692,-27.67722,-1.20992,-0.00283,50.99564,17.26631,11.696,8.19419,-4.05599,-16.73062,40.54882,25.64862,-11.38248,56.38429,-13.96455,36.15658,134.16791,0.00067,-95.67112,120.15449,0.00352,107.08567,-6.18523,-18.94965,-0.00322,-0.68737,8.69937,0.02303,-4.44818,-13.30386,9.03914,-27.93789,-15.74968,3.06727,-3.1249,-1.90324,7.29755
587,4.173,0.0,0.0,-2.46928,0.0,0.0,4.32881,-3.92078,9.90556,20.29882,1.06136,-17.85547,-76.77541,-2.5636,0.00242,-28.32419,-0.99831,-0.00283,52.58975,17.62383,11.83862,7.94076,-4.85696,-16.47025,41.41044,25.72182,-11.86953,57.14185,-13.98342,36.16193,134.20775,-0.0007,-94.60987,120.36526,0.00272,106.50824,-6.43792,-18.98088,-0.00491,-0.36151,9.60365,0.01006,-4.20363,-13.27901,8.99507,-27.69149,-15.7098,3.0367,-3.60553,-2.1243,7.2084
588,4.61416,0.0,-0.0,-2.55644,0.0,-0.0,5.21731,-3.61094,10.22007,20.73805,1.03534,-17.93041,-79.45121,-2.46774,0.00917,-28.9576,-0.80882,-0.00163,54.10993,18.03125,12.03622,7.6171,-5.69674,-16.17086,42.22458,25.76363,-12.35972,57.88889,-14.06659,36.23877,134.26782,-0.00104,-93.79621,120.55626,0.00112,106.08038,-6.68702,-18.7159,-0.0066,-0.42201,10.30997,-0.00116,-3.97033,-13.26586,8.96052,-27.45747,-15.68434,3.0101,-4.14443,-2.39646,7.15945
589,4.7528,0.0,-0.0,-2.42017,-0.0,-0.0,6.14785,-3.20986,10.67371,21.1342,1.01597,-17.95176,-81.93648,-2.3502,0.01009,-29.57759,-0.67317,1e-05,55.56941,18.49809,12.30275,7.23098,-6.55775,-15.8981,42.98997,25.77895,-12.84493,58.62665,-14.24103,36.39488,134.33154,-0.00068,-93.17255,120.70455,-0.00036,105.8064,-6.90346,-18.19727,-0.0068,-0.79307,10.76651,-0.0058,-3.78649,-13.27871,8.93962,-27.2755,-15.68802,2.98541,-4.72117,-2.70366,7.14385
590,4.57917,0.0,0.0,-2.06061,0.0,-0.0,7.15055,-2.77625,11.2049,21.48558,1.03545,-17.92908,-84.22651,-2.15513,0.00495,-30.17846,-0.59159,0.00126,56.98615,19.02511,12.6441,6.77458,-7.417,-15.68135,43.71936,25.77789,-13.32006,59.35971,-14.50179,36.61036,134.38246,-0.0002,-92.64922,120.80212,-0.00124,105.6515,-7.02426,-17.57039,-0.00526,-1.30354,11.01039,-0.00517,-3.66569,-13.32114,8.93687,-27.15952,-15.72587,2.96529,-5.33148,-3.0196,7.14728
591,4.15232,0.0,0.0,-1.56969,0.0,0.0,8.22634,-2.37109,11.75207,21.80718,1.11396,-17.90096,-86.32012,-1.83437,-0.00344,-30.75199,-0.53783,0.00167,58.3737,19.60688,13.05306,6.23121,-8.2535,-15.50078,44.42783,25.77237,-13.79119,60.087,-14.81669,36.84658,134.41583,0.0,-92.20216,120.85185,-0.00147,105.61555,-7.00397,-17.02456,-0.00373,-1.77006,11.11856,-0.0028,-3.59352,-13.37699,8.95391,-27.09327,-15.78369,2.95795,-5.98644,-3.32066,7.16047
592,3.57723,0.0,-0.0,-1.07743,0.0,0.0,9.34501,-2.03855,12.27837,22.12517,1.25859,-17.91219,-88.21716,-1.37336,-0.01143,-31.29457,-0.47982,0.00141,59.7408,20.23878,13.50599,5.59314,-9.05621,-15.30335,45.12016,25.77521,-14.27279,60.80309,-15.14332,37.06866,134.44247,-0.00011,-91.89088,120.85755,-0.00112,105.71592,-6.86325,-16.69872,-0.00372,-2.08644,11.16323,-0.00102,-3.54569,-13.4196,8.98008,-27.04971,-15.83292,2.96456,-6.69804,-3.59702,7.18581
593,2.96246,0.0,-0.0,-0.68657,-0.0,-0.0,10.4553,-1.79383,12.77494,22.46565,1.48283,-17.98117,-89.91837,-0.788,-0.01652,-31.8105,-0.40538,0.00095,61.09043,20.92253,13.97633,4.8672,-9.82784,-15.04737,45.78841,25.80053,-14.77656,61.50392,-15.4487,37.26706,134.47937,-0.0002,-91.75433,120.81904,-0.00037,105.91583,-6.7062,-16.60315,-0.00472,-2.2726,11.18997,-0.00035,-3.5139,-13.42942,8.98879,-27.01884,-15.8453,2.96856,-7.46892,-3.85536,7.23202
594,2.42843,0.0,-0.0,-0.44234,-0.0,0.0,11.49385,-1.62924,13.24611,22.84031,1.78742,-18.09627,-91.42461,-0.11589,-0.01735,-32.30938,-0.31906,0.00046,62.41699,21.66689,14.43791,4.06569,-10.58159,-14.71644,46.42104,25.86021,-15.30369,62.18775,-15.72103,37.45915,134.53685,0.00016,-91.7589,120.73672,0.00051,106.16782,-6.67626,-16.63563,-0.00551,-2.42098,11.21146,-0.0004,-3.51687,-13.40217,8.94917,-27.01956,-15.80494,2.94312,-8.29393,-4.11271,7.3046
595,2.14345,0.0,0.0,-0.34396,0.0,-0.0,12.39439,-1.53805,13.69154,23.24101,2.12075,-18.24263,-92.72983,0.57811,-0.01353,-32.80378,-0.21763,-0.00013,63.71177,22.47838,14.85296,3.20743,-11.34155,-14.29873,47.01414,25.95744,-15.8442,62.85171,-15.97317,37.67029,134.61444,0.00143,-91.8904,120.62096,0.00112,106.47432,-6.85699,-16.68713,-0.00571,-2.60986,11.21277,-0.00053,-3.5856,-13.34306,8.84529,-27.08377,-15.71044,2.87132,-9.15869,-4.3928,7.40139
596,2.24527,0.0,-0.0,-0.35074,0.0,0.0,13.11693,-1.52244,14.09161,23.64705,2.41051,-18.41026,-93.8132,1.21282,-0.0064,-33.30653,-0.09303,-0.00074,64.982,23.34682,15.17941,2.33443,-12.14421,-13.80081,47.57466,26.086,-16.38073,63.49185,-16.23886,37.91318,134.70677,0.00367,-92.23849,120.49607,0.00108,106.81592,-7.20629,-16.73352,-0.0052,-2.88199,11.16758,-0.00026,-3.73461,-13.25904,8.68663,-27.22654,-15.57183,2.75905,-10.02748,-4.72544,7.51169
597,2.74314,0.0,0.0,-0.38597,0.0,-0.0,13.67062,-1.57562,14.39913,24.03671,2.6219,-18.58211,-94.64468,1.72676,0.0014,-33.8246,0.04963,-0.00111,66.26226,24.24754,15.39271,1.51119,-13.02351,-13.26728,48.11497,26.23791,-16.89241,64.10883,-16.55775,38.18188,134.81134,0.00608,-92.88966,120.39201,0.00049,107.08132,-7.59636,-16.83138,-0.00401,-3.25672,11.05714,0.00071,-3.94435,-13.161,8.50135,-27.42896,-15.41002,2.62792,-10.84417,-5.13531,7.62152
598,3.56493,0.0,-0.0,-0.37189,-0.0,-0.0,14.09417,-1.66402,14.54561,24.39806,2.75892,-18.73704,-95.20065,2.1052,0.00763,-34.35536,0.19746,-0.00114,67.59328,25.16036,15.49571,0.79099,-13.99074,-12.74823,48.64674,26.41073,-17.35701,64.7141,-16.95695,38.46217,134.92935,0.00691,-93.69195,120.33027,0.00012,107.09502,-7.91539,-17.03725,-0.00272,-3.73065,10.87308,0.00244,-4.16935,-13.07241,8.31664,-27.64761,-15.25709,2.49344,-11.5635,-5.62746,7.72341
599,4.64658,-0.0,0.0,-0.27076,-0.0,-0.0,14.42078,-1.73282,14.46679,24.7335,2.84351,-18.85925,-95.47261,2.37277,0.01169,-34.89087,0.34134,-0.00081,68.98464,26.07744,15.50965,0.181,-15.03499,-12.26845,49.17707,26.60566,-17.75549,65.33043,-17.44282,38.74752,135.06226,0.00472,-94.22929,120.31656,0.00071,106.67464,-8.13338,-17.34791,-0.00168,-4.28477,10.60993,0.00464,-4.36403,-13.02807,8.14018,-27.84049,-15.14794,2.34836,-12.18477,-6.18852,7.81574
600,5.92129,0.0,0.0,-0.09049,0.0,0.0,14.67115,-1.73554,14.13715,25.05419,2.91701,-18.92945,-95.46428,2.55412,0.01391,-35.42532,0.46799,-7e-05,70.40388,26.99265,15.44769,-0.35488,-16.14165,-11.84949,49.70346,26.82037,-18.08018,65.98282,-18.00237,39.04697,135.21204,-0.00052,-94.09257,120.34377,0.00212,105.71598,-8.30249,-17.71395,-0.00055,-4.89224,10.2742,0.0064,-4.50533,-13.05641,7.95962,-27.9877,-15.10384,2.16954,-12.74701,-6.80226,7.89068
601,7.295,0.0,-0.0,0.1405,-0.0,0.0,14.85992,-1.66296,13.58738,25.37041,3.03486,-18.92197,-95.18354,2.63811,0.01428,-35.95942,0.55739,0.00084,71.79971,27.8905,15.29136,-0.86157,-17.30685,-11.52621,50.21082,27.04783,-18.33843,66.68326,-18.60471,39.38002,135.38411,-0.00726,-93.11946,120.39822,0.00336,104.29166,-8.52169,-18.07614,0.00077,-5.51429,9.9034,0.00657,-4.59925,-13.15977,7.76478,-28.09556,-15.12301,1.94659,-13.29095,-7.46238,7.92743
602,8.7215,-0.0,-0.0,0.40257,-0.0,-0.0,14.98307,-1.5495,12.88605,25.68319,3.23122,-18.83255,-94.63607,2.5839,0.01223,-36.49846,0.60667,0.00133,73.13078,28.74837,14.99625,-1.36529,-18.53323,-11.30791,50.67938,27.28173,-18.54809,67.42056,-19.20441,39.76367,135.58336,-0.01264,-91.45134,120.46424,0.00338,102.68143,-8.87248,-18.3818,0.00147,-6.09771,9.56754,0.00483,-4.66941,-13.31223,7.57362,-28.18465,-15.1886,1.7068,-13.83185,-8.16879,7.89969
603,10.2489,-0.0,-0.0,0.70461,0.0,-0.0,15.01261,-1.45775,12.09824,25.98064,3.49455,-18.69585,-93.82507,2.35826,0.0074,-37.04607,0.6432,0.00101,74.37741,29.54497,14.52289,-1.87182,-19.81598,-11.15235,51.1017,27.51839,-18.7317,68.16486,-19.75571,40.1996,135.80406,-0.01375,-89.47785,120.52955,0.00215,101.28324,-9.34894,-18.59444,0.00074,-6.57983,9.34357,0.00218,-4.73363,-13.47631,7.43576,-28.26826,-15.28552,1.51148,-14.36402,-8.91383,7.78869
604,11.93554,-0.0,-0.0,1.08527,-0.0,-0.0,14.9256,-1.45161,11.25804,26.24378,3.78446,-18.56068,-92.75556,1.95739,0.00017,-37.59896,0.70187,4e-05,75.53691,30.26436,13.86143,-2.38009,-21.13757,-11.00696,51.49388,27.75258,-18.91232,68.88773,-20.23771,40.67112,136.02519,-0.00997,-87.66532,120.58996,0.00057,100.38605,-9.84729,-18.69727,-0.00117,-6.90967,9.27911,0.00028,-4.78311,-13.62346,7.40531,-28.33418,-15.4086,1.42239,-14.87973,-9.67543,7.58933
605,13.76186,-0.0,0.0,1.58879,0.0,0.0,14.73458,-1.56676,10.37974,26.45737,4.0604,-18.45528,-91.43989,1.39821,-0.0084,-38.14588,0.79785,-0.001,76.61532,30.90096,13.02719,-2.89487,-22.46861,-10.85843,51.88611,27.97342,-19.10625,69.58582,-20.67447,41.15572,136.2189,-0.00377,-86.33955,120.64735,-0.00044,99.96114,-10.22558,-18.68716,-0.00312,-7.07718,9.37332,-5e-05,-4.78349,-13.74348,7.50001,-28.34689,-15.55538,1.46013,-15.38096,-10.4182,7.31279
606,15.61838,0.0,-0.0,2.22395,0.0,0.0,14.49015,-1.79256,9.49527,26.61768,4.29555,-18.37595,-89.90324,0.70913,-0.01636,-38.66967,0.92041,-0.00155,77.61947,31.46798,12.04364,-3.43442,-23.76854,-10.73446,52.2971,28.16506,-19.31445,70.28816,-21.12998,41.64357,136.36462,0.00137,-85.61005,120.70231,-0.00064,99.73214,-10.36687,-18.57726,-0.00408,-7.11832,9.58556,0.00064,-4.7011,-13.84033,7.67763,-28.27344,-15.71312,1.58411,-15.88186,-11.09781,6.98897
607,17.34247,-0.0,0.0,2.93229,-0.0,-0.0,14.2597,-2.08015,8.68286,26.73756,4.48063,-18.29989,-88.18448,-0.06388,-0.02138,-39.15255,1.04295,-0.00145,78.5508,31.99732,10.94164,-4.02586,-24.99525,-10.67053,52.71676,28.31322,-19.52322,71.03819,-21.67524,42.14398,136.45277,0.00336,-85.49633,120.75012,-0.00043,99.45189,-10.20132,-18.39971,-0.00386,-7.10833,9.85665,0.00114,-4.53347,-13.92223,7.8526,-28.11303,-15.85612,1.71185,-16.40111,-11.67461,6.66113
608,18.79421,-0.0,0.0,3.59619,0.0,0.0,14.09253,-2.3699,8.06185,26.84761,4.62011,-18.21148,-86.32502,-0.86105,-0.02216,-39.58619,1.14042,-0.00094,79.40523,32.5255,9.77085,-4.67936,-26.12655,-10.67111,53.11332,28.41763,-19.71594,71.86465,-22.34971,42.67134,136.47743,0.00177,-86.04584,120.78556,-0.00035,99.08344,-9.7205,-18.18296,-0.00282,-7.15679,10.12551,0.00077,-4.31856,-13.99373,7.94501,-27.90515,-15.95753,1.76757,-16.94138,-12.1374,6.36894
609,19.95238,0.0,0.0,4.09011,0.0,-0.0,13.98773,-2.61478,7.75355,26.98635,4.72136,-18.12095,-84.3521,-1.62752,-0.01869,-39.97699,1.2016,-0.00032,80.16948,33.07729,8.60742,-5.37212,-27.17541,-10.69672,53.45582,28.50304,-19.88128,72.7625,-23.14589,43.2201,136.43112,-0.002,-87.21255,120.8127,-0.00078,98.76131,-9.01135,-17.91049,-0.00133,-7.36157,10.33963,-0.0002,-4.1165,-14.05254,7.9257,-27.71006,-16.00393,1.72523,-17.47969,-12.51843,6.1298
610,20.96406,-0.0,0.0,4.3365,-0.0,-0.0,13.8873,-2.78857,7.83155,27.18206,4.79425,-18.05351,-82.27557,-2.31782,-0.01122,-40.33677,1.22254,0.0003,80.8144,33.65988,7.55235,-6.07143,-28.18092,-10.70125,53.72961,28.61331,-20.01073,73.69479,-24.0295,43.75292,136.3084,-0.00467,-88.6596,120.85162,-0.00187,98.61562,-8.25397,-17.50701,-0.0004,-7.7397,10.47439,-0.00148,-3.97862,-14.09174,7.82448,-27.57788,-16.00055,1.6153,-17.98463,-12.87848,5.93412
611,22.05834,0.0,0.0,4.32137,0.0,0.0,13.70887,-2.88171,8.29185,27.44238,4.86034,-18.02414,-80.10178,-2.89213,-0.00057,-40.6714,1.19679,0.00086,81.30647,34.2703,6.70624,-6.76165,-29.18237,-10.67328,53.93443,28.78694,-20.09496,74.6105,-24.9784,44.21677,136.11472,-0.0032,-89.83949,120.93562,-0.00342,98.65311,-7.63575,-16.90423,-0.00173,-8.21275,10.55475,-0.00325,-3.92609,-14.10785,7.70034,-27.52855,-15.96711,1.49383,-18.43394,-13.27102,5.76146
612,23.39777,0.0,0.0,4.08062,0.0,0.0,13.39071,-2.88769,9.05888,27.75713,4.94914,-18.03368,-77.8482,-3.32982,0.01071,-40.98113,1.12468,0.00122,81.6361,34.90841,6.11849,-7.43893,-30.19548,-10.61942,54.07423,29.03548,-20.12733,75.46289,-26.00539,44.5738,135.87317,0.00169,-90.33736,121.09682,-0.00463,98.78436,-7.23758,-16.14545,-0.00509,-8.66345,10.62804,-0.0051,-3.95118,-14.10996,7.59929,-27.55491,-15.9298,1.39955,-18.81169,-13.71351,5.60632
613,25.05971,0.0,0.0,3.69593,0.0,0.0,12.9017,-2.78839,10.02184,28.10438,5.08655,-18.08001,-75.54399,-3.64828,0.01884,-41.2661,1.02487,0.00124,81.83023,35.58184,5.75047,-8.09493,-31.20585,-10.52724,54.15123,29.34354,-20.1127,76.2192,-27.14454,44.82253,135.61998,0.00591,-90.13134,121.34774,-0.00427,98.87968,-6.99442,-15.4021,-0.00798,-9.02733,10.6988,-0.00551,-4.03705,-14.11941,7.53016,-27.64254,-15.91162,1.33173,-19.09996,-14.18371,5.48821
614,27.08192,-0.0,0.0,3.28631,0.0,0.0,12.22864,-2.54973,11.07681,28.45602,5.2856,-18.15826,-73.21807,-3.90155,0.0208,-41.52588,0.92717,0.00092,81.92358,36.2981,5.4959,-8.72353,-32.18656,-10.37201,54.16828,29.6854,-20.07533,76.86378,-28.41464,44.99883,135.38794,0.00644,-89.53535,121.67242,-0.00166,98.79774,-6.77172,-14.8627,-0.0091,-9.35127,10.70964,-0.00232,-4.17725,-14.15463,7.47175,-27.78729,-15.92121,1.26309,-19.2856,-14.64167,5.43446
615,29.38041,-0.0,0.0,2.9684,0.0,0.0,11.3793,-2.12925,12.14623,28.78589,5.52802,-18.25871,-70.88811,-4.15881,0.0159,-41.75524,0.86374,0.00035,81.91264,37.05893,5.24389,-9.33993,-33.12462,-10.13831,54.13405,30.04113,-20.05782,77.40193,-29.79516,45.16204,135.19205,0.00375,-88.91241,122.03383,0.00249,98.41774,-6.48879,-14.60682,-0.00901,-9.76391,10.56849,0.00651,-4.37706,-14.21256,7.40074,-27.99433,-15.94671,1.17336,-19.37695,-15.05872,5.45573
616,31.63677,-0.0,0.0,2.81338,0.0,0.0,10.38289,-1.5054,13.17039,29.07631,5.7596,-18.36845,-68.5572,-4.48044,0.00589,-41.94455,0.86319,-0.00021,81.74551,37.86427,4.93262,-9.97316,-34.03485,-9.82423,54.06216,30.4023,-20.10478,77.86889,-31.23687,45.37958,135.03279,7e-05,-88.45361,122.39206,0.00631,97.67641,-6.17776,-14.58857,-0.00786,-10.38683,10.18471,0.02052,-4.63812,-14.26654,7.31751,-28.26223,-15.96384,1.07399,-19.40222,-15.43172,5.53777
617,33.34809,0.0,-0.0,2.83823,0.0,0.0,9.2608,-0.72595,14.08665,29.31621,5.93342,-18.46012,-66.21522,-4.89785,-0.00568,-42.08527,0.92767,-0.0005,81.35316,38.71471,4.57184,-10.63546,-34.95745,-9.45849,53.96175,30.76851,-20.23833,78.33676,-32.69351,45.71973,134.912,-0.00264,-88.19642,122.72349,0.00763,96.63818,-5.94319,-14.71962,-0.00531,-11.24795,9.54034,0.03383,-4.9474,-14.28657,7.25372,-28.57429,-15.95742,1.00673,-19.38576,-15.77921,5.65027
618,34.00466,-0.0,0.0,3.02921,0.0,0.0,7.99232,0.0814,14.81059,29.49307,6.04933,-18.48972,-63.8447,-5.39939,-0.01493,-42.17299,1.02275,-0.00044,80.68114,39.60778,4.23587,-11.31105,-35.94144,-9.10388,53.82827,31.14237,-20.441,78.90617,-34.14398,46.2491,134.84352,-0.00287,-88.17906,123.02924,0.00534,95.54221,-5.88133,-14.94481,-0.00157,-12.23406,8.7612,0.03804,-5.28434,-14.26476,7.25854,-28.90869,-15.93931,1.02027,-19.33274,-16.12517,5.76482
619,33.2844,-0.0,0.0,3.37211,0.0,0.0,6.50929,0.77022,15.23885,29.58862,6.13396,-18.43011,-61.43095,-5.93829,-0.01968,-42.20548,1.11385,-0.00017,79.70957,40.53499,4.01729,-11.96618,-37.01785,-8.80082,53.64238,31.52665,-20.65614,79.68143,-35.59283,47.02676,134.85225,0.00074,-88.53271,123.32579,0.00018,94.70658,-6.02354,-15.25089,0.00237,-13.09965,8.08191,0.03108,-5.63379,-14.2244,7.37172,-29.25266,-15.94628,1.14162,-19.2302,-16.47557,5.87444
620,31.2017,-0.0,0.0,3.86043,0.0,-0.0,4.73557,1.24029,15.28662,29.58411,6.21239,-18.29281,-58.97051,-6.4625,-0.0201,-42.17958,1.19625,0.00016,78.46368,41.48055,3.9621,-12.56021,-38.18159,-8.52878,53.37693,31.92292,-20.80599,80.74348,-37.05793,48.09774,134.96452,0.00826,-89.40897,123.62619,-0.00551,94.32574,-6.32909,-15.62711,0.005,-13.55414,7.70443,0.02059,-5.98912,-14.20702,7.60078,-29.60397,-16.01931,1.36049,-19.05269,-16.80358,5.99923
621,28.11464,0.0,-0.0,4.46563,0.0,-0.0,2.66758,1.44805,14.93359,29.47321,6.32103,-18.09923,-56.47611,-6.93507,-0.01722,-42.08796,1.27232,0.00042,77.0022,42.41803,4.04333,-13.06469,-39.39523,-8.25982,53.00647,32.33041,-20.81989,82.13545,-38.55597,49.49538,135.19167,0.01637,-90.7939,123.92616,-0.00906,94.33846,-6.72455,-16.02116,0.00494,-13.4337,7.6684,0.01424,-6.3495,-14.25065,7.91683,-29.96605,-16.18202,1.63446,-18.77339,-17.0567,6.16853
622,24.56782,-0.0,0.0,5.10034,0.0,-0.0,0.44704,1.39628,14.24223,29.27261,6.51837,-17.84852,-53.98051,-7.32937,-0.01167,-41.9173,1.32539,0.00048,75.39317,43.30928,4.18999,-13.48247,-40.60906,-8.02144,52.51619,32.74398,-20.66111,83.86473,-40.09225,51.24768,135.51512,0.01933,-92.39823,124.20669,-0.0095,94.51156,-7.15917,-16.33113,0.00209,-12.83796,7.84864,0.01127,-6.71869,-14.37692,8.27146,-30.34561,-16.4354,1.90977,-18.37349,-17.18071,6.39721
623,21.13206,-0.0,0.0,5.63802,0.0,0.0,-1.64597,1.12935,13.34545,29.01849,6.85777,-17.52568,-51.53566,-7.61667,-0.00414,-41.65231,1.33242,0.00034,73.70168,44.11277,4.3345,-13.83865,-41.77965,-7.87805,51.91107,33.15221,-20.34036,85.91534,-41.66031,53.37197,135.88683,0.01435,-93.77751,124.45311,-0.00758,94.62553,-7.6211,-16.45116,-0.00214,-12.07684,8.06092,0.00768,-7.10024,-14.59124,8.62317,-30.74774,-16.76827,2.14563,-17.83809,-17.1429,6.68193
624,18.33665,0.0,0.0,5.99427,0.0,0.0,-3.2955,0.7166,12.41314,28.74793,7.34847,-17.13178,-49.20162,-7.76792,0.00343,-41.2833,1.28722,0.00024,71.98992,44.80115,4.43979,-14.1489,-42.87208,-7.86438,51.22087,33.54145,-19.90919,88.26302,-43.24851,55.86065,136.24973,0.00496,-94.60598,124.673,-0.00421,94.5369,-8.08883,-16.33883,-0.00532,-11.47462,8.16069,0.0036,-7.48872,-14.88418,8.95452,-31.16684,-17.1652,2.32957,-17.14889,-16.94076,7.01686
625,16.59075,-0.0,0.0,6.19316,0.0,-0.0,-4.28781,0.23099,11.60257,28.48038,7.93518,-16.70524,-47.02626,-7.77285,0.0079,-40.81183,1.20657,0.00047,70.31052,45.37552,4.49974,-14.40092,-43.85013,-7.942,50.49672,33.90728,-19.43952,90.88771,-44.84446,58.67838,136.56285,-0.00273,-94.87318,124.89397,0.00018,94.14914,-8.48203,-16.04561,-0.0054,-11.21244,8.08516,0.00176,-7.86948,-15.2261,9.26771,-31.58526,-17.59983,2.47578,-16.29056,-16.59602,7.40525
626,16.06468,-0.0,0.0,6.35696,-0.0,0.0,-4.60792,-0.26774,11.00958,28.21365,8.51531,-16.31862,-45.02329,-7.65589,0.0071,-40.25158,1.1175,0.00107,68.69576,45.86045,4.52752,-14.56317,-44.67017,-8.015,49.8028,34.26135,-19.00541,93.7784,-46.43486,61.77898,136.81024,-0.00559,-94.85696,125.14307,0.00493,93.42189,-8.68532,-15.69094,-0.00304,-11.29552,7.84527,0.00275,-8.22935,-15.56368,9.56799,-31.98336,-18.02539,2.61142,-15.2649,-16.14155,7.85196
627,16.62869,0.0,0.0,6.6292,0.0,-0.0,-4.44039,-0.75797,10.63975,27.93669,8.99542,-16.05055,-43.16014,-7.4627,0.00193,-39.62657,1.03114,0.00144,67.16316,46.28442,4.54668,-14.60092,-45.28118,-7.99086,49.20883,34.62182,-18.6757,96.92981,-48.00444,65.13284,136.99095,-0.00463,-94.92408,125.42754,0.0087,92.40959,-8.61614,-15.41187,-0.00144,-11.60851,7.48457,0.00461,-8.56454,-15.83109,9.85566,-32.34847,-18.38174,2.76477,-14.09294,-15.60498,8.34988
628,17.90364,0.0,0.0,7.09323,0.0,0.0,-4.07237,-1.27615,10.41087,27.6449,9.34116,-15.95288,-41.36157,-7.22534,-0.00407,-38.96642,0.927,0.00088,65.72575,46.66247,4.59239,-14.49031,-45.63166,-7.8308,48.77869,34.99496,-18.51071,100.33288,-49.53513,68.74308,137.10539,-0.00252,-95.32706,125.73469,0.01037,91.25932,-8.25891,-15.31435,-0.00317,-11.9915,7.03989,0.0053,-8.87812,-15.97378,10.13137,-32.67568,-18.61927,2.95991,-12.80768,-14.99769,8.87681
629,19.38888,0.0,-0.0,7.73401,0.0,0.0,-3.76528,-1.88946,10.18969,27.34534,9.57687,-16.03335,-39.52356,-6.94015,-0.00708,-38.29873,0.76571,-0.00071,64.37907,46.98647,4.72138,-14.23863,-45.68892,-7.56083,48.54974,35.3691,-18.55107,103.96098,-51.00616,72.63168,137.15469,-0.00102,-96.10282,126.05032,0.01002,90.14336,-7.65042,-15.42931,-0.00729,-12.30064,6.53599,0.00418,-9.17521,-15.9705,10.39917,-32.96642,-18.72014,3.20998,-11.45246,-14.32115,9.4003
630,20.58593,-0.0,0.0,8.43918,0.0,0.0,-3.67759,-2.60921,9.85472,27.05483,9.7396,-16.25706,-37.5296,-6.57904,-0.00549,-37.64412,0.51866,-0.00266,63.07254,47.22725,5.01315,-13.8976,-45.46138,-7.24632,48.51257,35.73051,-18.79537,107.7618,-52.396,76.8045,137.1528,-0.00037,-97.04705,126.37785,0.00823,89.19321,-6.85449,-15.69265,-0.01013,-12.45358,6.02234,0.002,-9.46089,-15.84116,10.65871,-33.2282,-18.70243,3.50619,-10.08498,-13.58542,9.8859
631,21.0772,-0.0,0.0,9.0346,0.0,0.0,-3.86739,-3.31745,9.37165,26.79465,9.83038,-16.56366,-35.26588,-6.12716,-0.00095,-37.01632,0.1945,-0.00395,61.70116,47.35128,5.53431,-13.54739,-45.00551,-6.94177,48.60919,36.08847,-19.1802,111.66615,-53.68368,81.22594,137.13628,-0.00095,-97.75122,126.73699,0.00482,88.50409,-5.95994,-15.9735,-0.00873,-12.46067,5.60208,-0.00025,-9.73644,-15.63757,10.8976,-33.4698,-18.60868,3.81487,-8.77606,-12.81938,10.30748
632,20.50698,-0.0,-0.0,9.34723,0.0,0.0,-4.32646,-3.80144,8.84677,26.58126,9.81858,-16.88157,-32.63944,-5.60786,0.0033,-36.42137,-0.16347,-0.00408,60.13893,47.33392,6.28055,-13.26765,-44.41214,-6.6764,48.75238,36.48856,-19.58235,115.60826,-54.84684,85.82324,137.15794,-0.00455,-97.76432,127.14217,-0.00085,88.1727,-5.0972,-16.14242,-0.00385,-12.43442,5.39708,-0.00304,-9.9929,-15.42187,11.09758,-33.6915,-18.48869,4.09245,-7.59835,-12.06206,10.64887
633,18.45117,0.0,0.0,9.2701,0.0,0.0,-4.99369,-3.88586,8.51999,26.41838,9.68962,-17.14144,-29.60098,-5.06869,0.00559,-35.8538,-0.50447,-0.00322,58.29668,47.16094,7.1387,-13.11918,-43.77612,-6.47805,48.85273,36.99999,-19.84898,119.53808,-55.85925,90.50838,137.26733,-0.01202,-96.86171,127.58396,-0.00795,88.28272,-4.42194,-16.14298,0.00072,-12.55039,5.47942,-0.00824,-10.20895,-15.24428,11.25007,-33.8792,-18.38514,4.30961,-6.60921,-11.34077,10.89783
634,14.42066,0.0,0.0,8.82888,0.0,0.0,-5.77715,-3.5569,8.68877,26.28952,9.47224,-17.30743,-26.16212,-4.54687,0.00807,-35.29591,-0.78637,-0.00172,56.16356,46.83543,7.90069,-13.13301,-43.15982,-6.36458,48.83938,37.67968,-19.84341,123.4114,-56.6936,95.18981,137.49138,-0.01961,-95.23835,128.03204,-0.01378,88.84508,-4.03931,-16.0262,0.00238,-12.94831,5.83017,-0.01564,-10.35738,-15.13244,11.36504,-34.00914,-18.32723,4.46397,-5.83467,-10.65082,11.04786
635,8.22389,0.0,0.0,8.22453,0.0,0.0,-6.62902,-2.9948,9.58553,26.15143,9.23057,-17.39813,-22.39831,-4.04023,0.01535,-34.72609,-0.97979,0.00013,53.8026,46.3892,8.34883,-13.30403,-42.57616,-6.31504,48.67227,38.53508,-19.48592,127.16643,-57.32908,99.76571,137.82321,-0.02071,-93.443,128.45113,-0.01525,89.73993,-3.92216,-15.92651,0.00145,-13.6363,6.33849,-0.02092,-10.41351,-15.09319,11.46055,-34.05698,-18.32827,4.56954,-5.262,-9.95664,11.10548
636,0.41164,-0.0,0.0,7.75054,0.0,0.0,-7.61322,-2.51169,11.27301,25.95146,9.02961,-17.47362,-18.44102,-3.50809,0.02872,-34.13476,-1.07102,0.00198,51.3208,45.88441,8.36187,-13.58722,-41.99993,-6.26256,48.34923,39.51471,-18.77293,130.71194,-57.76001,104.11655,138.22282,-0.01281,-92.07407,128.81178,-0.01127,90.66205,-3.90925,-15.98914,-0.00127,-14.47322,6.83903,-0.01987,-10.35658,-15.1151,11.53689,-34.00046,-18.37789,4.63141,-4.8414,-9.21528,11.09038
637,-7.68664,0.0,0.0,7.56966,0.0,-0.0,-8.8751,-2.44162,13.61243,25.67282,8.88847,-17.59735,-14.46434,-2.91248,0.04179,-33.53555,-1.06589,0.0033,48.84562,45.40291,7.96392,-13.90466,-41.38955,-6.12369,47.90451,40.53297,-17.77166,133.94405,-58.00316,108.1233,138.63248,-0.00082,-91.46037,129.09131,-0.00447,91.17994,-3.80377,-16.2855,-0.00573,-15.25307,7.19413,-0.01385,-10.1666,-15.16596,11.55858,-33.81654,-18.43288,4.63012,-4.49916,-8.40103,11.02562
638,-14.45536,0.0,-0.0,7.57627,0.0,-0.0,-10.52704,-3.03553,16.30569,25.35935,8.76723,-17.79717,-10.66453,-2.2687,0.04395,-32.95964,-0.99439,0.00357,46.50494,45.02414,7.30022,-14.17996,-40.7053,-5.85735,47.39299,41.50605,-16.5973,136.79007,-58.1012,111.71288,139.00214,0.00794,-91.54349,129.27199,0.00038,90.99551,-3.49356,-16.77132,-0.0103,-15.83288,7.38647,-0.00785,-9.8309,-15.19808,11.47063,-33.48802,-18.42825,4.53459,-4.16881,-7.51757,10.925
639,-18.7643,0.0,0.0,7.53248,-0.0,0.0,-12.53184,-4.3809,18.98844,25.08364,8.60758,-18.05945,-7.23923,-1.65982,0.0296,-32.43851,-0.90415,0.00273,44.40938,44.79891,6.56454,-14.37422,-39.92404,-5.49414,46.86909,42.37075,-15.38493,139.25372,-58.11721,114.89287,139.30769,0.0101,-91.98949,129.34637,0.00107,90.16532,-3.00611,-17.32231,-0.01172,-16.18386,7.53971,-0.00398,-9.36442,-15.17086,11.24504,-33.02505,-18.31594,4.33597,-3.82009,-6.59625,10.79037
640,-20.55316,-0.0,-0.0,7.31305,0.0,-0.0,-14.67173,-6.35409,21.3307,24.89525,8.38132,-18.35759,-4.37689,-1.19909,0.00395,-31.99197,-0.84028,0.00135,42.64685,44.73513,5.92298,-14.48671,-39.04894,-5.10192,46.37544,43.08052,-14.26633,141.42361,-58.12064,117.7388,139.54839,0.00722,-92.39977,129.32768,-0.0004,89.03122,-2.4804,-17.81751,-0.00868,-16.33401,7.83996,-0.00011,-8.82441,-15.07565,10.91527,-32.48236,-18.10099,4.06923,-3.46016,-5.68331,10.62388
641,-20.75934,0.0,-0.0,6.98514,0.0,-0.0,-16.65318,-8.64249,23.08844,24.80096,8.10061,-18.68162,-2.25032,-0.96843,-0.02065,-31.62997,-0.82823,0.0001,41.28174,44.8008,5.4753,-14.53071,-38.10955,-4.73107,45.94347,43.59393,-13.35304,143.42728,-58.17244,120.3415,139.73006,0.00286,-92.49843,129.25066,-0.00099,87.9873,-2.08368,-18.20248,-0.00319,-16.29119,8.42558,0.00666,-8.29941,-14.93886,10.55825,-31.94954,-17.83733,3.79486,-3.11405,-4.8232,10.44227
642,-20.61147,0.0,-0.0,6.6867,0.0,-0.0,-18.27874,-10.84175,24.08058,24.78276,7.79691,-19.03565,-1.00258,-0.97978,-0.03414,-31.36198,-0.87269,-0.00059,40.35141,44.93753,5.25498,-14.51179,-37.15288,-4.39934,45.59576,43.87405,-12.72104,145.35173,-58.31424,122.74889,139.85207,-0.00024,-92.25001,129.15251,5e-05,87.2999,-1.9133,-18.4942,0.0018,-16.03018,9.30964,0.01596,-7.87652,-14.79965,10.23457,-31.51729,-17.58433,3.55264,-2.80286,-4.04778,10.27804
643,-20.84894,0.0,0.0,6.46986,0.0,-0.0,-19.54248,-12.5743,24.14099,24.82474,7.48927,-19.41152,-0.72552,-1.18221,-0.03475,-31.20122,-0.96462,-0.00066,39.85702,45.07809,5.24993,-14.42225,-36.23146,-4.10863,45.33797,43.90259,-12.39377,147.17467,-58.56288,124.92561,139.91019,-0.00151,-91.87232,129.04343,0.00102,86.9857,-1.93548,-18.74157,0.00459,-15.54001,10.35338,0.02273,-7.60905,-14.68006,9.94448,-31.24182,-17.3623,3.33347,-2.53387,-3.37581,10.1651
644,-21.46407,0.0,-0.0,6.27401,0.0,-0.0,-20.56881,-13.58009,23.14589,24.92175,7.16132,-19.77871,-1.43873,-1.50174,-0.02698,-31.1585,-1.08112,-0.00037,39.75136,45.16287,5.42285,-14.2525,-35.39296,-3.85049,45.14519,43.6997,-12.33138,148.7438,-58.91336,126.74,139.90913,-0.00187,-91.71133,128.89378,-0.00044,86.81165,-2.01095,-18.97945,0.00507,-14.86931,11.31994,0.02133,-7.50011,-14.56921,9.64175,-31.12599,-17.14333,3.09898,-2.30736,-2.8187,10.11764
645,-22.04977,0.0,0.0,6.02196,0.0,-0.0,-21.45933,-13.75503,21.13239,25.06934,6.77537,-20.1006,-3.07684,-1.88591,-0.01554,-31.23191,-1.18488,-0.00017,39.94103,45.15292,5.72056,-14.00616,-34.67131,-3.60462,44.96554,43.33449,-12.44213,149.81589,-59.35184,127.98614,139.86925,-0.00193,-92.03008,128.65161,-0.00555,86.4977,-1.99903,-19.21009,0.00412,-14.12391,11.99546,0.01141,-7.50554,-14.43293,9.28747,-31.12215,-16.88104,2.82746,-2.12739,-2.38409,10.11503
646,-22.25197,0.0,0.0,5.69418,0.0,0.0,-22.20505,-13.15488,18.38644,25.25647,6.32234,-20.34896,-5.49435,-2.32727,-0.00199,-31.40069,-1.24079,-0.00026,40.31359,45.03805,6.08625,-13.70479,-34.07722,-3.35913,44.7509,42.91262,-12.61982,150.14012,-59.86966,128.44312,139.81963,-0.00131,-92.86124,128.27556,-0.01288,85.9196,-1.85504,-19.42737,0.00278,-13.41827,12.26672,-0.00196,-7.55301,-14.24129,8.89078,-31.1541,-16.55151,2.53989,-2.00248,-2.07304,10.10473
647,-21.94988,0.0,-0.0,5.32789,0.0,0.0,-22.71636,-11.99125,15.40298,25.4668,5.86148,-20.50295,-8.49646,-2.85173,0.0133,-31.62712,-1.2419,-0.00048,40.77607,44.83456,6.47456,-13.38107,-33.59182,-3.14008,44.494,42.54137,-12.78622,149.54329,-60.46677,127.94826,139.78406,0.00011,-94.0411,127.75924,-0.01812,85.1416,-1.63813,-19.6634,0.00136,-12.82143,12.11701,-0.01269,-7.56808,-13.99004,8.50371,-31.14625,-16.17104,2.28614,-1.93826,-1.87512,10.02398
648,-21.23322,-0.0,-0.0,4.98642,0.0,0.0,-22.89254,-10.58634,12.73897,25.68091,5.49646,-20.55214,-11.88649,-3.48261,0.0279,-31.8668,-1.21377,-0.00052,41.27384,44.57024,6.85438,-13.06795,-33.17247,-3.00271,44.23895,42.29075,-12.90992,147.96725,-61.14553,126.44552,139.76907,0.00155,-95.37503,127.13408,-0.01657,84.36317,-1.43154,-20.00148,-0.00045,-12.35558,11.61659,-0.01696,-7.49445,-13.69826,8.1824,-31.04421,-15.77887,2.11003,-1.93437,-1.76895,9.82887
649,-20.27955,0.0,0.0,4.71306,0.0,-0.0,-22.67078,-9.26056,10.83609,25.88021,5.29793,-20.51031,-15.50534,-4.20893,0.03752,-32.08242,-1.19084,-0.00032,41.78433,44.26302,7.20284,-12.79039,-32.76934,-2.98628,44.05162,42.17258,-12.99312,145.45044,-61.9024,123.98668,139.76096,0.0019,-96.76169,126.45477,-0.00727,83.84581,-1.25778,-20.51842,-0.00287,-12.048,10.91325,-0.014,-7.30442,-13.38943,7.95124,-30.82314,-15.40599,2.02414,-1.98626,-1.72864,9.51122
650,-19.20486,0.0,-0.0,4.49689,0.0,-0.0,-22.04353,-8.21256,9.89886,26.0525,5.25382,-20.42231,-19.24615,-4.98114,0.03933,-32.25176,-1.19242,-1e-05,42.30695,43.90683,7.5028,-12.55924,-32.34151,-3.08593,43.97031,42.14673,-13.04512,142.08734,-62.72321,120.69662,139.73135,0.00085,-98.1563,125.78043,0.00495,83.78775,-1.07651,-21.19485,-0.00517,-11.9571,10.16807,-0.00602,-7.00478,-13.07761,7.79488,-30.49184,-15.05934,2.00835,-2.08156,-1.73041,9.09305
651,-18.00663,0.0,0.0,4.28162,0.0,0.0,-21.05177,-7.4647,9.87646,26.19369,5.28208,-20.35157,-23.04452,-5.73682,0.03463,-32.36681,-1.21601,0.00028,42.84835,43.4776,7.75122,-12.3679,-31.86578,-3.25806,43.97688,42.14618,-13.06689,137.99898,-63.58224,116.72932,139.64865,-0.00067,-99.45664,125.16412,0.01286,84.17879,-0.85385,-21.8873,-0.00565,-12.1389,9.4759,0.00308,-6.63778,-12.76922,7.67456,-30.09388,-14.72976,2.02415,-2.19612,-1.75594,8.61188
652,-16.61548,0.0,0.0,4.00365,0.0,0.0,-19.76824,-6.89431,10.53247,26.30283,5.2738,-20.35257,-26.85952,-6.43314,0.02742,-32.42859,-1.24679,0.00051,43.40089,42.95423,7.96969,-12.19727,-31.33695,-3.44439,44.01231,42.10525,-13.05486,133.31744,-64.44359,112.23276,139.49109,-0.00114,-100.50551,124.64914,0.01321,84.80272,-0.60003,-22.41771,-0.00374,-12.59798,8.85825,0.00978,-6.26993,-12.47267,7.55014,-29.69713,-14.40938,2.03095,-2.30198,-1.79188,8.11039
653,-14.96755,0.0,0.0,3.63224,-0.0,0.0,-18.27683,-6.33627,11.55385,26.37488,5.14329,-20.44485,-30.66131,-7.05447,0.02029,-32.44111,-1.27787,0.00068,43.93869,42.33243,8.19984,-12.02361,-30.75803,-3.6056,44.01977,41.97998,-13.01133,128.16965,-65.26155,107.32404,139.25584,0.00018,-101.19643,124.26173,0.00872,85.44077,-0.34374,-22.69998,-0.001,-13.25286,8.3151,0.01187,-5.96855,-12.20309,7.39619,-29.3707,-14.10224,1.99908,-2.37827,-1.82521,7.62764
654,-13.03829,0.0,-0.0,3.18865,0.0,-0.0,-16.65147,-5.70337,12.64929,26.39827,4.86601,-20.60624,-34.42476,-7.59208,0.01233,-32.40841,-1.32737,0.00071,44.43636,41.62154,8.48658,-11.81661,-30.12866,-3.74255,43.9757,41.75669,-12.94773,122.66043,-65.9798,102.08086,138.95906,0.00223,-101.53563,124.0013,0.00368,86.03837,-0.1128,-22.7694,0.00074,-13.94464,7.85961,0.00935,-5.77906,-11.97748,7.21018,-29.16149,-13.82297,1.91936,-2.41014,-1.83919,7.19094
655,-10.84663,0.0,-0.0,2.73375,0.0,0.0,-14.94956,-5.04527,13.59982,26.36035,4.48329,-20.79053,-38.12344,-8.02308,0.00119,-32.3343,-1.43551,0.00049,44.88429,40.83095,8.86005,-11.53996,-29.442,-3.8887,43.89107,41.44871,-12.8805,116.87394,-66.53555,96.56064,138.62886,0.00305,-101.64774,123.84266,0.00032,86.67622,0.06122,-22.72748,0.00079,-14.50491,7.50992,0.00447,-5.71706,-11.80622,7.01168,-29.08549,-13.58869,1.80577,-2.38266,-1.81543,6.81011
656,-8.45774,0.0,-0.0,2.33033,0.0,-0.0,-13.2328,-4.50364,14.25467,26.25745,4.07436,-20.95723,-41.72362,-8.31354,-0.01295,-32.22106,-1.64036,-0.0,45.27992,39.9588,9.3231,-11.17237,-28.69167,-4.07998,43.79303,41.08478,-12.82345,110.89449,-66.87502,90.83752,138.29756,0.00168,-101.73341,123.75173,-0.00131,87.47197,0.16218,-22.6952,-0.0003,-14.82753,7.25334,-0.0001,-5.77496,-11.68878,6.83043,-29.13442,-13.4105,1.68614,-2.28743,-1.74138,6.47657
657,-6.005,0.0,0.0,2.00856,-0.0,-0.0,-11.59282,-4.20823,14.50902,26.10234,3.7204,-21.09406,-45.18178,-8.44666,-0.02564,-32.06933,-1.95081,-0.00056,45.61078,38.99619,9.84781,-10.72164,-27.88134,-4.31553,43.70308,40.69728,-12.78034,104.82352,-66.97164,85.02538,137.99484,-0.00087,-101.96722,123.703,-0.00211,88.5126,0.21566,-22.77255,-0.0013,-14.89617,7.03202,-0.00314,-5.92954,-11.61581,6.68716,-29.28376,-13.28789,1.58348,-2.13126,-1.61658,6.17536
658,-3.71396,0.0,0.0,1.76646,0.0,-0.0,-10.1484,-4.20441,14.30307,25.92143,3.48088,-21.22527,-48.44999,-8.44985,-0.03114,-31.88083,-2.33604,-0.00085,45.85933,37.94236,10.37992,-10.20758,-27.02602,-4.53696,43.62316,40.31462,-12.74492,98.77326,-66.83217,79.26435,137.7421,-0.00263,-102.37536,123.68754,-0.00295,89.78842,0.25264,-22.99164,-0.00093,-14.76843,6.77936,-0.00479,-6.14217,-11.5743,6.57809,-29.4937,-13.20743,1.49961,-1.92827,-1.45122,5.90159
659,-1.86096,0.0,0.0,1.59153,0.0,-0.0,-9.01805,-4.44636,13.63424,25.74103,3.37498,-21.39959,-51.48576,-8.39093,-0.02706,-31.65893,-2.73894,-0.00068,46.01493,36.81206,10.859,-9.64574,-26.14384,-4.65305,43.53959,39.95497,-12.7091,92.84522,-66.48741,73.68153,137.54883,-0.00255,-102.76952,123.71136,-0.00375,91.13317,0.23309,-23.31111,0.00169,-14.52558,6.45577,-0.00545,-6.35953,-11.5523,6.4749,-29.71006,-13.14715,1.41324,-1.69082,-1.25996,5.66437
660,-0.65829,0.0,-0.0,1.47261,0.0,0.0,-8.28747,-4.83258,12.55782,25.57197,3.37633,-21.65082,-54.25841,-8.34553,-0.01605,-31.40644,-3.10996,-0.00019,46.07042,35.63234,11.25187,-9.04802,-25.24763,-4.60067,43.44075,39.61965,-12.66952,87.11911,-65.97567,68.36425,137.41182,-0.00138,-102.82103,123.78826,-0.0033,92.24197,0.04138,-23.65515,0.00585,-14.24014,6.05241,-0.00505,-6.52448,-11.54131,6.34101,-29.87525,-13.08507,1.29405,-1.43159,-1.05557,5.48205
661,-0.15974,0.0,-0.0,1.39942,0.0,0.0,-7.98255,-5.25564,11.17286,25.40447,3.43577,-21.95802,-56.75276,-8.36357,-0.00356,-31.12445,-3.43704,0.0002,46.01913,34.43492,11.56806,-8.4249,-24.34179,-4.39772,43.32802,39.29192,-12.6249,81.65948,-65.32954,63.36606,137.32011,-0.00057,-102.21816,123.93037,-0.00045,92.81315,-0.43184,-23.9474,0.0089,-13.99238,5.58936,-0.00348,-6.59412,-11.53481,6.15338,-29.94587,-13.00623,1.12344,-1.16496,-0.84298,5.37344
662,-0.24549,-0.0,-0.0,1.35979,0.0,-0.0,-8.06601,-5.6379,9.59482,25.21536,3.50743,-22.24926,-58.9714,-8.455,0.00555,-30.81221,-3.7426,0.00016,45.85927,33.24431,11.84211,-7.79075,-23.42457,-4.14065,43.20929,38.9456,-12.57186,76.52096,-64.57147,58.72328,137.26407,-0.00101,-100.75912,124.14142,0.00422,92.73817,-1.22822,-24.12613,0.00796,-13.86465,5.12358,-0.00142,-6.55292,-11.52368,5.91661,-29.90533,-12.90407,0.90942,-0.90732,-0.61646,5.34241
663,-0.67097,0.0,0.0,1.33954,-0.0,-0.0,-8.46875,-5.9388,7.9175,24.98305,3.56184,-22.44839,-60.93092,-8.59414,0.00905,-30.46812,-4.0559,-0.00031,45.59821,32.06842,12.10791,-7.16621,-22.49211,-3.94761,43.08884,38.56012,-12.50942,71.74273,-63.71498,54.46059,137.23842,-0.00238,-98.38695,124.41673,0.00845,92.17551,-2.32618,-24.1552,0.00195,-13.88827,4.753,-0.00027,-6.41351,-11.49405,5.66319,-29.76465,-12.77843,0.68764,-0.67471,-0.36406,5.36573
664,-1.15646,0.0,0.0,1.32628,0.0,0.0,-9.13526,-6.14424,6.18552,24.70055,3.59173,-22.52376,-62.65029,-8.73726,0.00766,-30.09118,-4.38818,-0.00091,45.25362,30.89747,12.38515,-6.56839,-21.54304,-3.89562,42.96655,38.13209,-12.44626,67.3404,-62.7649,50.58765,137.23466,-0.00314,-95.25502,124.74667,0.01031,91.41783,-3.65188,-24.02589,-0.00797,-14.01227,4.57607,-0.0004,-6.20835,-11.43198,5.44091,-29.55487,-12.63511,0.50782,-0.47345,-0.077,5.39758
665,-1.48394,0.0,0.0,1.31183,-0.0,-0.0,-10.04975,-6.2512,4.402,24.37738,3.60373,-22.50407,-64.13626,-8.84978,0.00392,-29.68105,-4.72338,-0.00125,44.84267,29.7101,12.67219,-6.00476,-20.58357,-3.99085,42.84192,37.67756,-12.39424,63.30411,-61.7152,47.09544,137.23656,-0.00193,-91.72596,125.11607,0.00931,90.70248,-5.07835,-23.74153,-0.01943,-14.12382,4.62177,-0.00054,-5.97966,-11.3333,5.29288,-29.31794,-12.487,0.41137,-0.29698,0.24313,5.39033
666,-1.55379,0.0,-0.0,1.28227,-0.0,0.0,-11.22328,-6.25202,2.56279,24.0333,3.60975,-22.44673,-65.37621,-8.92039,0.00018,-29.23666,-5.03189,-0.00124,44.36543,28.48364,12.95168,-5.47973,-19.6285,-4.19301,42.71238,37.22565,-12.3461,59.60455,-60.55128,43.96024,137.22887,0.0006,-88.15026,125.50116,0.00588,90.1773,-6.46665,-23.28489,-0.02986,-14.1005,4.83415,0.00035,-5.7694,-11.21062,5.2388,-29.09713,-12.35335,0.41126,-0.13435,0.58563,5.31838
667,-1.38516,0.0,-0.0,1.20562,-0.0,-0.0,-12.64233,-6.12873,0.69265,23.69254,3.62861,-22.38675,-66.34502,-8.95366,-0.00235,-28.75675,-5.29467,-0.00105,43.8058,27.20481,13.20536,-4.99749,-18.69601,-4.46513,42.56672,36.80525,-12.25966,56.20364,-59.26233,41.15038,137.21028,0.00233,-84.68932,125.87228,0.00129,89.94465,-7.70943,-22.61561,-0.03467,-13.86197,5.11263,0.00152,-5.60729,-11.0891,5.2672,-28.92445,-12.25279,0.48669,0.02315,0.93929,5.18873
668,-1.08357,0.0,0.0,1.04443,0.0,-0.0,-14.21032,-5.8687,-1.13032,23.37812,3.67712,-22.31823,-67.02178,-8.96446,-0.0034,-28.24437,-5.50727,-0.00089,43.15287,25.87708,13.41374,-4.55245,-17.80053,-4.78721,42.38326,36.43212,-12.06996,53.06622,-57.85511,38.62869,137.19298,0.00197,-81.48918,126.20432,-0.0028,90.04644,-8.69631,-21.72853,-0.02827,-13.39742,5.35229,0.00145,-5.49997,-10.9893,5.34299,-28.80828,-12.19058,0.59701,0.18478,1.30037,5.03253
669,-0.79081,-0.0,0.0,0.78498,-0.0,0.0,-15.73622,-5.49276,-2.78237,23.106,3.76066,-22.20416,-67.40388,-8.96348,-0.00327,-27.71017,-5.67259,-0.00088,42.42035,24.51996,13.56352,-4.11777,-16.94912,-5.14682,42.13526,36.10715,-11.7216,50.17092,-56.35604,36.35616,137.18686,0.00026,-78.83753,126.48739,-0.00551,90.46232,-9.30388,-20.68239,-0.01132,-12.77841,5.48446,-6e-05,-5.43038,-10.90887,5.42441,-28.73146,-12.14833,0.70466,0.36752,1.67171,4.88461
670,-0.62188,0.0,-0.0,0.45511,0.0,-0.0,-16.99352,-5.06663,-4.13514,22.8802,3.88205,-21.99031,-67.50636,-8.93128,-0.00218,-27.17066,-5.80037,-0.00107,41.64546,23.16046,13.6733,-3.64636,-16.14294,-5.54131,41.79976,35.82495,-11.20015,47.51398,-54.79957,34.30018,137.18903,-0.00124,-77.03793,126.72865,-0.00671,91.13396,-9.48616,-19.57789,0.00733,-12.14017,5.50971,-0.00165,-5.37101,-10.82167,5.47796,-28.66441,-12.08904,0.78933,0.59762,2.0554,4.76468
671,-0.6156,0.0,0.0,0.12105,-0.0,0.0,-17.81357,-4.67763,-5.09173,22.68959,4.04292,-21.63636,-67.34559,-8.82972,-0.00016,-26.64285,-5.89679,-0.00114,40.86578,21.82323,13.7857,-3.09135,-15.38251,-5.9632,41.36934,35.5799,-10.54374,45.10345,-53.21076,32.44212,137.1924,-0.0017,-76.28274,126.94148,-0.00639,91.94147,-9.32743,-18.55378,0.0182,-11.61758,5.48629,-0.00227,-5.30175,-10.69893,5.48756,-28.58475,-11.98003,0.84781,0.89996,2.44812,4.67207
672,-0.7264,0.0,-0.0,-0.14137,0.0,0.0,-18.15456,-4.3939,-5.59791,22.51275,4.2316,-21.14849,-66.92104,-8.64668,0.00212,-26.13856,-5.94703,-0.00067,40.09102,20.52294,13.92632,-2.43354,-14.67562,-6.37559,40.864,35.36541,-9.82289,42.95134,-51.59346,30.78387,137.20041,-0.00068,-76.58789,127.1291,-0.00466,92.68302,-8.98408,-17.7703,0.0181,-11.29894,5.47448,-0.00227,-5.2191,-10.53591,5.46189,-28.48868,-11.82031,0.88996,1.28213,2.84073,4.59456
673,-0.85522,-0.0,-0.0,-0.29083,0.0,0.0,-18.10192,-4.24151,-5.64263,22.33118,4.41944,-20.57491,-66.21262,-8.41707,0.00306,-25.6623,-5.91743,0.00047,39.29468,19.26173,14.07991,-1.69371,-14.03926,-6.72155,40.33452,35.17152,-9.10298,41.06861,-49.93332,29.34911,137.22874,0.00186,-77.74968,127.27664,-0.00238,93.14512,-8.5949,-17.3593,0.0107,-11.22184,5.48474,-0.00227,-5.13277,-10.36177,5.43654,-28.38822,-11.65048,0.9368,1.72615,3.2222,4.52044
674,-0.89269,-0.0,0.0,-0.3468,0.0,0.0,-17.79187,-4.20881,-5.25894,22.13747,4.56551,-19.97405,-65.19717,-8.20534,0.00112,-25.21434,-5.77775,0.00191,38.42934,18.03638,14.1962,-0.92277,-13.48645,-6.95743,39.84874,34.9856,-8.42153,39.45889,-48.21381,28.16925,137.29085,0.00473,-79.41113,127.36092,-0.00072,93.24926,-8.23796,-17.36942,0.00209,-11.36895,5.4814,-0.00234,-5.05583,-10.22484,5.45796,-28.30005,-11.53299,1.01175,2.19175,3.58814,4.44383
675,-0.74367,0.0,0.0,-0.37258,0.0,0.0,-17.30293,-4.25894,-4.52296,21.93073,4.63563,-19.38297,-63.87005,-8.0609,-0.00335,-24.79484,-5.52829,0.00297,37.45399,16.84936,14.22598,-0.17479,-13.00934,-7.08423,39.46333,34.79531,-7.79125,38.10975,-46.43443,27.26024,137.3812,0.00596,-81.2,127.37105,0.00017,93.15675,-7.94274,-17.72606,-0.00351,-11.68854,5.43969,-0.00254,-4.99673,-10.16403,5.54903,-28.23538,-11.51248,1.12029,2.63314,3.94528,4.36299
676,-0.33275,-0.0,0.0,-0.43582,0.0,0.0,-16.59046,-4.34651,-3.53001,21.70872,4.62415,-18.81251,-62.25553,-7.98401,-0.00822,-24.40641,-5.20884,0.00312,36.35757,15.71198,14.15783,0.52105,-12.57707,-7.14599,39.19816,34.59152,-7.21544,36.98797,-44.61921,26.60482,137.47348,0.00462,-82.87701,127.3213,0.00101,93.19683,-7.70709,-18.25631,-0.0053,-12.14529,5.38811,-0.00303,-4.95729,-10.18517,5.6823,-28.19657,-11.58367,1.2348,3.02157,4.30479,4.27729
677,0.38773,-0.0,0.0,-0.58719,0.0,-0.0,-15.50842,-4.43734,-2.34504,21.46647,4.54462,-18.27929,-60.3999,-7.94267,-0.0112,-24.05613,-4.87607,0.00232,35.1629,14.64005,14.00859,1.16792,-12.14804,-7.17886,39.03108,34.37004,-6.6999,36.04478,-42.81003,26.14692,137.53435,0.00151,-84.40433,127.24481,0.00179,93.62861,-7.50465,-18.76926,-0.00457,-12.72395,5.37209,-0.00327,-4.93463,-10.25542,5.79169,-28.17866,-11.69069,1.3075,3.35438,4.67087,4.18765
678,1.41851,-0.0,-0.0,-0.8476,0.0,-0.0,-13.89804,-4.50203,-0.97877,21.19897,4.41937,-17.82046,-58.35727,-7.89827,-0.01032,-23.75435,-4.58149,0.00094,33.91647,13.64572,13.80806,1.79045,-11.68721,-7.18546,38.91648,34.13098,-6.25705,35.2281,-41.04866,25.80433,137.54167,-0.00179,-85.84145,127.17453,0.00187,94.45053,-7.31638,-19.12155,-0.00276,-13.39169,5.37842,-0.00202,-4.92238,-10.31809,5.82045,-28.17128,-11.75945,1.30878,3.65041,5.03245,4.09689
679,2.69382,0.0,0.0,-1.19289,0.0,0.0,-11.6874,-4.49563,0.58434,20.90434,4.28575,-17.47273,-56.18167,-7.80516,-0.00465,-23.51111,-4.36714,-0.00052,32.67724,12.72829,13.60534,2.41624,-11.17994,-7.16568,38.81345,33.87291,-5.90498,34.49495,-39.36023,25.4975,137.49678,-0.00374,-87.19473,127.12892,0.00116,95.43177,-7.16229,-19.2478,-0.00099,-14.08568,5.32673,0.00089,-4.9112,-10.31966,5.7659,-28.16071,-11.7397,1.25779,3.93837,5.36314,4.00457
680,4.06962,0.0,-0.0,-1.56149,0.0,0.0,-8.94718,-4.37438,2.34306,20.58637,4.17857,-17.26457,-53.92905,-7.6238,0.00425,-23.33711,-4.25627,-0.0015,31.50238,11.87556,13.4509,3.05665,-10.63334,-7.12732,38.70729,33.58586,-5.66295,33.82014,-37.7514,25.17245,137.41951,-0.00374,-88.40005,127.11009,0.00024,96.29892,-7.07682,-19.15897,-0.00013,-14.72484,5.14683,0.0037,-4.89203,-10.23149,5.68242,-28.13506,-11.62627,1.21625,4.23735,5.63108,3.90514
681,5.31246,0.0,0.0,-1.87131,0.0,0.0,-5.87376,-4.13068,4.24496,20.2528,4.10875,-17.21143,-51.664,-7.34086,0.01313,-23.2482,-4.24829,-0.0017,30.43348,11.07798,13.37433,3.70281,-10.06787,-7.07674,38.61264,33.25492,-5.54352,33.20021,-36.22322,24.80538,137.3278,-0.00228,-89.3853,127.10919,-0.00038,96.92135,-7.07126,-18.90488,-0.00061,-15.23675,4.85572,0.00437,-4.8598,-10.0539,5.64371,-28.08886,-11.44805,1.25202,4.54155,5.81066,3.7982
682,6.16541,-0.0,-0.0,-2.03794,0.0,0.0,-2.72901,-3.79763,6.17337,19.91292,4.06898,-17.29895,-49.46415,-6.96812,0.01867,-23.2663,-4.32951,-0.00106,29.49662,10.34196,13.38528,4.34147,-9.50617,-7.02373,38.55408,32.87784,-5.54287,32.65328,-34.78312,24.39746,137.22388,-1e-05,-90.08479,127.11329,-0.00058,97.36884,-7.14919,-18.53252,-0.00247,-15.59254,4.56699,0.00272,-4.81231,-9.80503,5.69855,-28.02118,-11.24064,1.40273,4.82245,5.89035,3.69646
683,6.54547,0.0,-0.0,-2.01942,0.0,0.0,0.20911,-3.42764,7.9773,19.5825,4.03984,-17.49453,-47.41373,-6.54353,0.01844,-23.41398,-4.47659,0.00011,28.71493,9.69302,13.4598,4.973,-8.96258,-6.96919,38.53831,32.48337,-5.63239,32.21205,-33.44443,23.96916,137.10184,0.00259,-90.44911,127.11221,-0.00045,97.80748,-7.32197,-18.08182,-0.00505,-15.81469,4.43091,0.00011,-4.74528,-9.50781,5.84904,-27.92951,-11.02588,1.66102,5.04527,5.87756,3.6169
684,6.62435,0.0,-0.0,-1.8366,-0.0,0.0,2.69828,-3.07453,9.52268,19.28317,3.99178,-17.7672,-45.58842,-6.13038,0.01257,-23.70339,-4.65606,0.00128,28.11376,9.16682,13.53079,5.61468,-8.44148,-6.89393,38.54492,32.13148,-5.76044,31.90886,-32.21721,23.55489,136.9642,0.00488,-90.50687,127.10114,-7e-05,98.35399,-7.57479,-17.60662,-0.007,-15.9584,4.53368,-0.00213,-4.65045,-9.1843,6.05554,-27.80754,-10.80864,1.98145,5.18459,5.79517,3.5676
685,6.6333,-0.0,0.0,-1.53248,-0.0,-0.0,4.6019,-2.78845,10.72343,19.02891,3.89782,-18.07908,-44.04257,-5.79099,0.00416,-24.12391,-4.83475,0.0019,27.71077,8.79128,13.52112,6.28657,-7.94679,-6.78525,38.54532,31.88865,-5.8721,31.75912,-31.09994,23.19384,136.82631,0.00594,-90.43755,127.07738,0.00045,99.00983,-7.83224,-17.18767,-0.00741,-16.09043,4.81933,-0.00331,-4.51895,-8.857,6.25755,-27.64876,-10.58609,2.29905,5.22826,5.66824,3.54466
686,6.65769,-0.0,0.0,-1.14624,0.0,-0.0,5.92345,-2.60709,11.54534,18.81918,3.75061,-18.38189,-42.80348,-5.55672,-0.003,-24.63718,-4.98763,0.00173,27.50403,8.56961,13.38225,6.99073,-7.49111,-6.66297,38.53028,31.79338,-5.93698,31.75521,-30.07614,22.91833,136.70526,0.00538,-90.57751,127.03593,0.00094,99.68062,-7.9749,-16.92663,-0.00691,-16.27383,5.11282,-0.00293,-4.34449,-8.55093,6.39955,-27.44971,-10.35971,2.55253,5.17232,5.51117,3.53395
687,6.61298,-0.0,-0.0,-0.72896,-0.0,0.0,6.77772,-2.54054,11.99116,18.64636,3.57479,-18.63031,-41.87109,-5.41911,-0.00676,-25.18498,-5.10023,0.00099,27.46718,8.47866,13.11116,7.70013,-7.09385,-6.57553,38.52198,31.83776,-5.96086,31.87535,-29.11529,22.74698,136.60428,0.00376,-91.23756,126.96847,0.00113,100.23763,-7.90705,-16.89568,-0.00686,-16.55345,5.24037,-0.00066,-4.12261,-8.29049,6.4539,-27.20837,-10.14124,2.70662,5.01443,5.32448,3.51587
688,6.35438,0.0,-0.0,-0.34836,-0.0,0.0,7.32391,-2.56479,12.08296,18.50283,3.42568,-18.79069,-41.22084,-5.34213,-0.00717,-25.70665,-5.17201,0.00014,27.5515,8.48505,12.75338,8.36721,-6.77025,-6.57513,38.56252,31.97571,-5.9723,32.09955,-28.17767,22.68732,136.50638,0.00203,-92.4286,126.86337,0.00091,100.6061,-7.62478,-17.06536,-0.0069,-16.93982,5.13509,0.00293,-3.84906,-8.09068,6.43157,-26.92137,-9.94875,2.76551,4.7518,5.10245,3.47719
689,5.8118,0.0,-0.0,-0.06511,0.0,-0.0,7.69708,-2.63851,11.86221,18.37702,3.35131,-18.84702,-40.80814,-5.2871,-0.00564,-26.15583,-5.2109,-0.00052,27.69683,8.56431,12.38391,8.94395,-6.52107,-6.68131,38.68978,32.14393,-6.00332,32.42011,-27.22405,22.74548,136.38486,0.00106,-93.82938,126.7043,0.00021,100.81319,-7.21641,-17.316,-0.00554,-17.421,4.83593,0.00652,-3.52368,-7.9478,6.37179,-26.58739,-9.7941,2.76706,4.38558,4.84483,3.42084
690,5.03773,-0.0,0.0,0.09889,0.0,-0.0,7.97554,-2.73695,11.40186,18.24437,3.34147,-18.80762,-40.57726,-5.23326,-0.00362,-26.50702,-5.21921,-0.00093,27.85108,8.70648,12.06972,9.40008,-6.3312,-6.86057,38.92099,32.28045,-6.08337,32.83987,-26.22979,22.93035,136.2195,0.00106,-95.0686,126.47403,-0.00116,100.90517,-6.80179,-17.53163,-0.00261,-17.99153,4.41667,0.00868,-3.15989,-7.83801,6.31431,-26.21731,-9.67078,2.75754,3.92852,4.56355,3.3636
691,4.2019,-0.0,0.0,0.17285,0.0,-0.0,8.17886,-2.86144,10.80218,18.07578,3.34322,-18.70789,-40.4732,-5.1811,-0.00192,-26.75429,-5.18691,-0.00115,27.99072,8.90744,11.84086,9.73412,-6.17922,-7.04666,39.25182,32.33813,-6.24157,33.35796,-25.19571,23.24076,136.00076,0.00099,-96.00606,126.16795,-0.00308,100.86826,-6.4856,-17.65544,0.00048,-18.62515,3.94127,0.00804,-2.79009,-7.72865,6.27355,-25.84103,-9.55434,2.76328,3.4106,4.27965,3.3252
692,3.53855,0.0,0.0,0.21288,0.0,-0.0,8.28772,-3.01379,10.16065,17.8609,3.32623,-18.59384,-40.45131,-5.13944,-0.00078,-26.9056,-5.10008,-0.00114,28.1264,9.15604,11.69343,9.97098,-6.05148,-7.18975,39.66376,32.29308,-6.50064,33.95417,-24.14899,23.64701,135.72441,-0.00056,-96.74104,125.80679,-0.00453,100.69603,-6.34927,-17.67796,0.00222,-19.21547,3.46576,0.00423,-2.4583,-7.59821,6.23363,-25.50147,-9.41882,2.77815,2.87538,4.01345,3.31733
693,3.19795,0.0,-0.0,0.25906,-0.0,0.0,8.28899,-3.17323,9.5399,17.61719,3.30147,-18.48905,-40.48169,-5.10911,-0.00021,-26.97328,-4.95374,-0.00089,28.28558,9.42917,11.61611,10.14264,-5.94889,-7.29486,40.13274,32.1447,-6.86398,34.58699,-23.13584,24.08872,135.38776,-0.00399,-97.4313,125.43535,-0.00437,100.4661,-6.44587,-17.6102,0.00186,-19.59508,3.05167,-0.00064,-2.20254,-7.45075,6.16279,-25.23756,-9.25564,2.77114,2.36557,3.7769,3.33834
694,3.15879,0.0,-0.0,0.31306,-0.0,-0.0,8.20518,-3.29404,8.96779,17.38102,3.29328,-18.38603,-40.54547,-5.0836,-6e-05,-26.96708,-4.75264,-0.00041,28.48831,9.69635,11.60195,10.26841,-5.88342,-7.41002,40.63542,31.90861,-7.31195,35.20664,-22.20841,24.49382,134.99118,-0.00817,-98.15506,125.10754,-0.00277,100.29848,-6.78194,-17.45939,-0.00029,-19.62199,2.77486,-0.00246,-2.03906,-7.31175,6.03277,-25.06776,-9.07728,2.70602,1.9106,3.57209,3.37624
695,3.29995,0.0,0.0,0.35261,0.0,-0.0,8.08123,-3.32129,8.46736,17.19608,3.32163,-18.26901,-40.62527,-5.06283,-0.0002,-26.89565,-4.50111,0.00024,28.73611,9.9239,11.63703,10.35236,-5.87404,-7.57859,41.15205,31.60795,-7.81302,35.77274,-21.40512,24.80554,134.54451,-0.01102,-98.88522,124.86401,-0.00095,100.27415,-7.30506,-17.22489,-0.00289,-19.23067,2.71093,0.00188,-1.95788,-7.20844,5.83393,-24.98378,-8.90504,2.56315,1.52669,3.38986,3.41741
696,3.50538,-0.0,0.0,0.36031,0.0,0.0,7.95804,-3.22035,8.07828,17.10143,3.39767,-18.13015,-40.69815,-5.05551,-0.00048,-26.77106,-4.19873,0.00094,29.0153,10.0767,11.69644,10.39487,-5.94374,-7.80781,41.66781,31.26781,-8.33942,36.26838,-20.73012,25.00482,134.07236,-0.01073,-99.51521,124.7122,0.00025,100.40685,-7.91559,-16.9216,-0.00425,-18.44062,2.89245,0.01084,-1.92994,-7.15137,5.58442,-24.95657,-8.75569,2.35518,1.2233,3.20778,3.4546
697,3.70254,0.0,-0.0,0.33741,0.0,-0.0,7.86158,-3.00423,7.84605,17.11446,3.51744,-17.96605,-40.73562,-5.0643,-0.00074,-26.60844,-3.8482,0.0015,29.30421,10.12614,11.75929,10.40317,-6.10831,-8.0736,42.17282,30.91209,-8.87322,36.7064,-20.14695,25.11926,133.60883,-0.00685,-99.8867,124.62222,0.00083,100.64149,-8.5046,-16.58132,-0.00386,-17.36624,3.26593,0.01804,-1.92115,-7.13169,5.32975,-24.95052,-8.63873,2.1277,1.00469,2.99674,3.48969
698,3.83399,0.0,0.0,0.29671,-0.0,-0.0,7.80923,-2.73763,7.79128,17.21688,3.66726,-17.76633,-40.70963,-5.06782,-0.00076,-26.42178,-3.46943,0.00171,29.57886,10.06185,11.828,10.39277,-6.3609,-8.3512,42.65983,30.56012,-9.40263,37.12358,-19.59363,25.21509,133.18132,-0.00073,-99.84167,124.54287,0.00105,100.86823,-9.00066,-16.21591,-0.00272,-16.22091,3.6952,0.01784,-1.90718,-7.13366,5.12682,-24.9395,-8.56176,1.93951,0.86545,2.73667,3.52907
699,3.82819,0.0,-0.0,0.25095,0.0,-0.0,7.817,-2.51007,7.8929,17.35725,3.84431,-17.50977,-40.59913,-5.02075,-0.00024,-26.22342,-3.10539,0.00144,29.81713,9.89498,11.93046,10.38379,-6.66956,-8.64234,43.12057,30.22461,-9.91642,37.56581,-19.01015,25.3759,132.79723,0.00548,-99.30803,124.42434,0.00094,100.99178,-9.38809,-15.79527,-0.0019,-15.28174,4.03341,0.01129,-1.88232,-7.14952,5.01563,-24.91701,-8.53319,1.83056,0.78709,2.42661,3.57757
700,3.64189,0.0,-0.0,0.21083,0.0,-0.0,7.89336,-2.39383,8.10904,17.46854,4.05088,-17.18196,-40.39325,-4.88402,0.00082,-26.02939,-2.80326,0.00076,30.00237,9.65324,12.09002,10.39798,-6.98959,-8.95932,43.54387,29.91372,-10.39814,38.07208,-18.3617,25.6733,132.44611,0.01036,-98.3309,124.23264,0.0004,100.9956,-9.68304,-15.27276,-0.00148,-14.78781,4.19963,0.00431,-1.85712,-7.18324,4.99687,-24.89403,-8.55693,1.79989,0.74104,2.08227,3.63957
701,3.32556,0.0,-0.0,0.18584,-0.0,0.0,8.02837,-2.41063,8.41324,17.49024,4.25726,-16.79802,-40.09293,-4.66076,0.00192,-25.86183,-2.58207,0.0,30.12637,9.37449,12.28746,10.45603,-7.27891,-9.28117,43.91791,29.63215,-10.825,38.66344,-17.64716,26.13983,132.11287,0.01311,-97.03379,123.95383,-0.0007,100.92485,-9.90011,-14.64001,-0.00081,-14.8176,4.19351,0.00077,-1.84595,-7.24077,5.03335,-24.8858,-8.62404,1.81081,0.6971,1.72793,3.72558
702,2.99975,-0.0,-0.0,0.17813,0.0,-0.0,8.19762,-2.52305,8.80075,17.39046,4.4013,-16.39574,-39.71254,-4.39601,0.00242,-25.74184,-2.42445,-0.00053,30.191,9.09664,12.46514,10.57259,-7.51036,-9.55132,44.23495,29.37779,-11.17704,39.34062,-16.89218,26.75767,131.78764,0.01288,-95.59979,123.59308,-0.00266,100.8201,-10.03934,-13.96182,0.00042,-15.23634,4.05884,-0.00028,-1.85374,-7.31798,5.07279,-24.89771,-8.7104,1.81665,0.63362,1.38651,3.85351
703,2.75462,0.0,-0.0,0.17704,0.0,-0.0,8.37905,-2.6562,9.26148,17.1795,4.44624,-16.00636,-39.27835,-4.14051,0.00211,-25.67809,-2.30192,-0.00074,30.20692,8.84536,12.57247,10.75011,-7.67781,-9.72777,44.49479,29.13988,-11.45117,40.09259,-16.13431,27.47047,131.46432,0.00901,-94.28639,123.16966,-0.00559,100.68055,-10.10126,-13.35203,0.00156,-15.74817,3.84431,-0.00164,-1.87166,-7.39978,5.07483,-24.92053,-8.78646,1.78613,0.54351,1.07025,4.04093
704,2.59615,0.0,-0.0,0.16542,0.0,0.0,8.56241,-2.74029,9.76059,16.90169,4.42212,-15.64332,-38.82213,-3.92249,0.00124,-25.66142,-2.20115,-0.0007,30.1909,8.63104,12.595,10.97738,-7.78923,-9.81533,44.70228,28.90496,-11.66613,40.91187,-15.40637,28.21646,131.13383,0.00195,-93.39017,122.70781,-0.00872,100.48663,-10.11175,-12.90621,0.00172,-16.04314,3.59922,-0.00413,-1.88225,-7.47258,5.03,-24.93608,-8.83605,1.7159,0.43291,0.77933,4.29444
705,2.48227,0.0,0.0,0.13459,0.0,0.0,8.74286,-2.74782,10.24797,16.60946,4.39926,-15.31566,-38.37188,-3.74743,0.00029,-25.66774,-2.12627,-0.00053,30.16324,8.45542,12.54422,11.23483,-7.85314,-9.84875,44.85822,28.66712,-11.84907,41.8049,-14.72032,28.96304,130.78401,-0.00615,-93.11894,122.22573,-0.00999,100.25964,-10.11605,-12.64295,0.0008,-15.96509,3.39386,-0.00573,-1.86759,-7.53759,4.96564,-24.92612,-8.87088,1.63071,0.31554,0.50824,4.60184
706,2.37738,-0.0,0.0,0.09352,0.0,0.0,8.91134,-2.70095,10.67771,16.33948,4.43038,-15.03692,-37.94471,-3.6084,-0.00038,-25.665,-2.08568,-0.00035,30.14441,8.31714,12.44048,11.50199,-7.87273,-9.86287,44.95357,28.43272,-12.01523,42.78608,-14.06029,29.71224,130.4053,-0.01173,-93.45127,121.72878,-0.00692,100.12466,-10.1473,-12.48318,-0.0006,-15.57386,3.32292,-0.0044,-1.81572,-7.61156,4.93411,-24.87913,-8.92669,1.57228,0.20695,0.25144,4.93191
707,2.27163,0.0,0.0,0.06113,0.0,-0.0,9.05334,-2.64744,11.01952,16.10617,4.51997,-14.81888,-37.54642,-3.49297,-0.00062,-25.62234,-2.08039,-0.00026,30.15078,8.21354,12.3094,11.7627,-7.8494,-9.87761,44.97797,28.21254,-12.16154,43.85519,-13.3969,30.46982,129.99458,-0.0118,-94.11534,121.21422,0.00115,100.29872,-10.20548,-12.2774,-0.00163,-15.05848,3.46918,-0.00114,-1.72465,-7.71546,4.98376,-24.79397,-9.04156,1.5769,0.11968,0.00378,5.24801
708,2.16798,0.0,-0.0,0.04516,0.0,-0.0,9.15532,-2.6248,11.25911,15.91196,4.6413,-14.6638,-37.17801,-3.38535,-0.00047,-25.51903,-2.10294,-0.00024,30.19168,8.13954,12.18094,12.00446,-7.78778,-9.90489,44.93734,28.0053,-12.27772,44.97514,-12.71614,31.20798,129.55489,-0.00659,-94.7382,120.68504,0.01137,100.96492,-10.24782,-11.88842,-0.00127,-14.59324,3.85325,0.00125,-1.6052,-7.86128,5.12753,-24.68211,-9.23155,1.65175,0.05942,-0.24104,5.52599
709,2.07031,0.0,-0.0,0.02652,0.0,-0.0,9.20977,-2.63901,11.39698,15.7608,4.76589,-14.57012,-36.84425,-3.26933,-0.00014,-25.34958,-2.14028,-0.00019,30.27148,8.0855,12.07448,12.21339,-7.69631,-9.96155,44.86125,27.78775,-12.36187,46.07377,-12.03875,31.86169,129.09528,-0.00013,-95.09313,120.15887,0.0184,102.13062,-10.20158,-11.29132,0.00085,-14.25879,4.4116,0.00142,-1.48191,-8.04265,5.33104,-24.56815,-9.47741,1.76761,0.02344,-0.48906,5.75904
710,1.99123,0.0,-0.0,-0.03361,0.0,0.0,9.21408,-2.67023,11.45191,15.66186,4.87179,-14.54559,-36.55764,-3.13599,9e-05,-25.124,-2.17461,-1e-05,30.39376,8.03921,11.98015,12.37398,-7.58328,-10.06542,44.78926,27.52428,-12.42349,47.07516,-11.41041,32.36801,128.63145,0.00296,-95.25214,119.66202,0.01812,103.58259,-10.00721,-10.60581,0.00314,-14.05648,5.01675,0.00026,-1.38986,-8.23083,5.5292,-24.4861,-9.72746,1.87577,0.00252,-0.74235,5.95073
711,1.95265,-0.0,-0.0,-0.16635,0.0,-0.0,9.16892,-2.69536,11.45593,15.62018,4.94141,-14.60341,-36.33465,-2.98791,6e-05,-24.86318,-2.19004,0.00025,30.56153,7.9936,11.86637,12.47645,-7.45179,-10.22505,44.74737,27.19182,-12.47123,47.93876,-10.86763,32.71485,128.18611,0.00191,-95.4598,119.21373,0.01096,104.98956,-9.66542,-10.02289,0.00327,-13.96152,5.54547,-0.00074,-1.36537,-8.38176,5.65967,-24.47015,-9.91692,1.93618,-0.01485,-0.99689,6.10785
712,1.96012,0.0,0.0,-0.3681,0.0,-0.0,9.08089,-2.70757,11.43028,15.62275,4.96579,-14.73764,-36.18739,-2.83151,-0.00018,-24.58992,-2.18639,0.00038,30.77384,7.95414,11.71477,12.5239,-7.29649,-10.44556,44.73338,26.79946,-12.50237,48.67665,-10.40799,32.95522,127.78656,-0.00042,-95.86822,118.81326,0.0009,106.07146,-9.26023,-9.69546,0.0013,-13.96023,5.9427,-0.00095,-1.43239,-8.4576,5.69146,-24.54198,-9.99903,1.93532,-0.03786,-1.24248,6.23623
713,1.98014,0.0,-0.0,-0.59684,0.0,0.0,8.9655,-2.71863,11.36522,15.63662,4.95151,-14.90607,-36.1154,-2.66619,-0.00046,-24.32047,-2.18539,0.00023,31.02324,7.93789,11.54647,12.53288,-7.10631,-10.74142,44.72044,26.38676,-12.50636,49.3373,-9.98974,33.17444,127.45892,-0.0014,-96.45636,118.43808,-0.00753,106.68864,-8.93444,-9.69038,0.00027,-14.05172,6.20769,-0.00059,-1.59099,-8.45155,5.63341,-24.70092,-9.97092,1.88411,-0.06932,-1.46571,6.34008
714,1.96008,-0.0,-0.0,-0.79666,0.0,-0.0,8.84342,-2.74518,11.23601,15.6265,4.91576,-15.0473,-36.10046,-2.48836,-0.00061,-24.0635,-2.21551,-0.00014,31.29647,7.96276,11.40701,12.52971,-6.87486,-11.12444,44.67414,26.00227,-12.47635,49.97229,-9.55702,33.4402,127.21967,-0.00061,-97.14357,118.05564,-0.01076,106.89175,-8.82474,-9.99824,0.00274,-14.2306,6.37703,-0.00045,-1.81629,-8.39499,5.52292,-24.92374,-9.87601,1.8046,-0.10362,-1.65752,6.42571
715,1.86457,-0.0,-0.0,-0.92842,0.0,-0.0,8.73306,-2.79136,11.03766,15.57609,4.87781,-15.11324,-36.10938,-2.30458,-0.00055,-23.82409,-2.29103,-0.00054,31.57686,8.0356,11.32744,12.54208,-6.6096,-11.58436,44.57187,25.6782,-12.4163,50.61261,-9.0686,33.77365,127.06528,0.00105,-97.85184,117.64206,-0.00711,106.94724,-9.00245,-10.53183,0.00731,-14.47066,6.55338,-0.00121,-2.07004,-8.33861,5.40932,-25.17503,-9.78004,1.72214,-0.13081,-1.81933,6.50291
716,1.68963,0.0,0.0,-0.98475,-0.0,-0.0,8.646,-2.84433,10.79887,15.49419,4.85413,-15.09095,-36.10603,-2.13558,-0.00036,-23.60442,-2.4048,-0.00075,31.84629,8.1495,11.29955,12.58571,-6.32933,-12.08794,44.41359,25.41952,-12.33778,51.26704,-8.51482,34.15345,126.96963,0.0026,-98.45123,117.19343,0.00126,107.18041,-9.44569,-11.11917,0.00929,-14.71883,6.85923,-0.00236,-2.31703,-8.32043,5.34223,-25.42158,-9.73727,1.66743,-0.14716,-1.96012,6.57883
717,1.4655,0.0,0.0,-0.98716,-0.0,-0.0,8.58295,-2.88835,10.57268,15.40571,4.84631,-15.01188,-36.06362,-2.00956,-0.00023,-23.403,-2.52796,-0.00066,32.08692,8.2884,11.27884,12.65655,-6.05635,-12.5772,44.21996,25.21126,-12.25038,51.93376,-7.9187,34.5393,126.89677,0.00359,-98.78432,116.72363,0.00875,107.71223,-10.03768,-11.56404,0.00596,-14.90729,7.3081,-0.00278,-2.53628,-8.34461,5.36195,-25.64223,-9.76717,1.676,-0.16247,-2.09088,6.65321
718,1.23392,-0.0,0.0,-0.96453,0.0,-0.0,8.53309,-2.91764,10.40771,15.3368,4.84223,-14.92809,-35.96907,-1.94379,-0.00025,-23.21646,-2.62245,-0.00031,32.28419,8.43091,11.22033,12.73666,-5.81283,-12.98619,44.02031,25.03331,-12.15624,52.60819,-7.32258,34.89479,126.82227,0.004,-98.81789,116.25574,0.0105,108.36854,-10.5945,-11.75745,-0.00031,-14.97806,7.75906,-0.00253,-2.7228,-8.38373,5.4856,-25.82994,-9.85116,1.77461,-0.19549,-2.22494,6.72117
719,1.01387,-0.0,0.0,-0.93173,0.0,-0.0,8.47989,-2.93548,10.31676,15.30189,4.83149,-14.87113,-35.8231,-1.9289,-0.00036,-23.04131,-2.66317,0.00012,32.43123,8.55699,11.11666,12.806,-5.61524,-13.27831,43.83588,24.87107,-12.05251,53.27971,-6.76756,35.19918,126.74398,0.00387,-98.70469,115.81297,0.00609,108.83623,-10.92122,-11.72807,-0.00557,-14.90978,8.02193,-0.0028,-2.88323,-8.39938,5.69518,-25.98875,-9.94692,1.96197,-0.26116,-2.37767,6.77826
720,0.8081,0.0,0.0,-0.89095,0.0,-0.0,8.40625,-2.95036,10.27536,15.2993,4.80782,-14.84232,-35.63815,-1.93788,-0.00042,-22.87383,-2.64692,0.00045,32.5311,8.6578,10.99337,12.84984,-5.46585,-13.45816,43.66745,24.71711,-11.93762,53.9258,-6.27748,35.44887,126.67442,0.00336,-98.70103,115.41001,-0.00099,108.89305,-10.86607,-11.60066,-0.00883,-14.74165,7.99145,-0.00359,-3.03002,-8.36637,5.93852,-26.12977,-10.01102,2.19995,-0.36035,-2.5601,6.82229
721,0.62123,0.0,-0.0,-0.83955,0.0,-0.0,8.29921,-2.97528,10.24254,15.31608,4.77377,-14.81963,-35.43227,-1.94365,-0.00035,-22.71002,-2.5914,0.00057,32.59412,8.73601,10.87936,12.8598,-5.35235,-13.56872,43.49551,24.56609,-11.81339,54.51451,-5.8563,35.65314,126.62373,0.00271,-99.03299,115.04755,-0.00664,108.52789,-10.35451,-11.51193,-0.01097,-14.57277,7.68071,-0.00323,-3.17535,-8.28667,6.14591,-26.26629,-10.0182,2.42338,-0.47948,-2.77378,6.85244
722,0.45779,-0.0,-0.0,-0.77201,-0.0,-0.0,8.15602,-3.02801,10.18342,15.33691,4.74704,-14.76356,-35.22103,-1.92568,-0.00017,-22.5471,-2.5294,0.00045,32.6328,8.79712,10.78748,12.83301,-5.25614,-13.68324,43.29182,24.41001,-11.67957,55.01588,-5.49838,35.82781,126.58788,0.00202,-99.73531,114.71617,-0.00862,107.9169,-9.40986,-11.50942,-0.01067,-14.51471,7.17625,-0.0008,-3.32568,-8.18648,6.25606,-26.40779,-9.96879,2.5651,-0.59937,-3.01006,6.86824
723,0.32398,0.0,0.0,-0.68793,0.0,-0.0,7.98547,-3.12771,10.08848,15.35062,4.74458,-14.63829,-35.01187,-1.87351,3e-05,-22.38547,-2.49076,0.0002,32.65814,8.84504,10.70872,12.77291,-5.15962,-13.86616,43.03359,24.2407,-11.52913,55.41429,-5.20072,35.98943,126.55154,0.00126,-100.62646,114.40599,-0.00697,107.31068,-8.15874,-11.51146,-0.00563,-14.62654,6.58769,0.00241,-3.47968,-8.0989,6.24173,-26.55605,-9.88265,2.58671,-0.70575,-3.25242,6.87179
724,0.2321,0.0,-0.0,-0.60151,0.0,0.0,7.80433,-3.28415,9.97511,15.35015,4.76596,-14.43593,-34.8047,-1.78967,0.00017,-22.22823,-2.48732,-5e-05,32.67778,8.88736,10.62226,12.69033,-5.04676,-14.12981,42.71241,24.05821,-11.35133,55.71486,-4.9661,36.15154,126.50234,0.00058,-101.51919,114.11281,-0.00316,106.91805,-6.80273,-11.40327,0.0021,-14.88795,6.01252,0.00417,-3.63225,-8.04301,6.12464,-26.70687,-9.7858,2.50069,-0.79454,-3.48074,6.87069
725,0.19347,-0.0,0.0,-0.53924,0.0,-0.0,7.63168,-3.48594,9.868,15.33071,4.79649,-14.18527,-34.59771,-1.68624,0.00019,-22.07753,-2.51215,-0.0002,32.69609,8.94003,10.51373,12.6002,-4.90163,-14.42869,42.33385,23.87704,-11.13651,55.94133,-4.79648,36.32281,126.44158,0.00025,-102.36383,113.83776,0.00089,106.85114,-5.56,-11.15857,0.00701,-15.22086,5.51788,0.00355,-3.78135,-8.0134,5.96928,-26.85658,-9.69826,2.36887,-0.87062,-3.6765,6.87297
726,0.20149,-0.0,-0.0,-0.524,0.0,0.0,7.4814,-3.6966,9.77808,15.29243,4.82326,-13.93754,-34.38984,-1.57526,0.00015,-21.93226,-2.54827,-0.00023,32.71398,9.01896,10.38907,12.51506,-4.71545,-14.69571,41.91066,23.72044,-10.87941,56.12507,-4.68593,36.50513,126.37871,0.0003,-103.1556,113.58685,0.00354,107.1031,-4.61073,-10.84161,0.00653,-15.53031,5.12855,0.00151,-3.93147,-7.9875,5.85358,-27.00681,-9.62952,2.27224,-0.94249,-3.83153,6.87847
727,0.22343,0.0,-0.0,-0.55693,-0.0,0.0,7.35676,-3.86832,9.69796,15.24321,4.84876,-13.73449,-34.17824,-1.46023,0.00016,-21.78986,-2.58146,-0.00018,32.72686,9.12677,10.27525,12.44105,-4.49586,-14.89121,41.45766,23.60436,-10.5833,56.28968,-4.62061,36.69272,126.31683,0.00041,-103.88059,113.37345,0.00415,107.59089,-4.04758,-10.53267,0.00278,-15.74246,4.85426,-0.0004,-4.09025,-7.94482,5.83009,-27.16313,-9.58115,2.2675,-1.01686,-3.95551,6.88108
728,0.22261,0.0,0.0,-0.61849,0.0,0.0,7.25054,-3.97419,9.62047,15.19548,4.87832,-13.59367,-33.95746,-1.34032,0.00026,-21.64826,-2.60483,-0.00011,32.72701,9.25318,10.19751,12.37899,-4.26154,-15.01391,40.99166,23.52525,-10.26101,56.44177,-4.58444,36.87439,126.24524,0.00025,-104.57607,113.21788,0.00308,108.26408,-3.83375,-10.28067,-0.0009,-15.82866,4.74831,-0.00112,-4.26161,-7.88138,5.901,-27.32917,-9.55029,2.35824,-1.09495,-4.06972,6.87942
729,0.1819,0.0,0.0,-0.67727,-0.0,0.0,7.14985,-4.02556,9.55014,15.15725,4.90515,-13.50708,-33.72137,-1.21665,0.00044,-21.50465,-2.61823,-7e-05,32.70808,9.3852,10.16203,12.32618,-4.02815,-15.08627,40.53234,23.46407,-9.92958,56.57316,-4.56555,37.03687,126.1447,-7e-05,-105.26912,113.13849,0.00096,109.08164,-3.83059,-10.0906,-0.00302,-15.80272,4.86564,-0.00057,-4.44184,-7.80804,6.02172,-27.50256,-9.52967,2.49895,-1.17289,-4.19253,6.88198
730,0.0979,0.0,0.0,-0.69589,-0.0,0.0,7.04332,-4.05398,9.4883,15.12701,4.92333,-13.43989,-33.46487,-1.08915,0.00063,-21.35479,-2.63102,-6e-05,32.66584,9.5126,10.16574,12.27709,-3.80249,-15.1483,40.09875,23.40022,-9.60386,56.6689,-4.55886,37.1687,126.00108,-0.00016,-105.87395,113.14102,-0.00117,109.90455,-3.89878,-9.93575,-0.00389,-15.69776,5.15056,0.00026,-4.62228,-7.73828,6.12995,-27.67651,-9.50749,2.62669,-1.24622,-4.33187,6.90127
731,-0.01784,0.0,0.0,-0.66223,0.0,0.0,6.92517,-4.08939,9.4341,15.10137,4.92828,-13.36686,-33.18579,-0.96402,0.00065,-21.19581,-2.65059,-4e-05,32.60007,9.6312,10.19294,12.22778,-3.58326,-15.22284,39.70046,23.32114,-9.29568,56.71783,-4.56364,37.26683,125.81774,-0.00014,-106.30596,113.21387,-0.00235,110.55339,-3.98286,-9.79925,-0.00406,-15.5484,5.44848,0.00036,-4.79674,-7.67987,6.18228,-27.84619,-9.47404,2.69827,-1.31168,-4.48538,6.94491
732,-0.12955,0.0,-0.0,-0.61414,0.0,-0.0,6.79401,-4.14974,9.39672,15.08288,4.90529,-13.30984,-32.88657,-0.86313,0.00037,-21.02841,-2.66937,4e-05,32.5189,9.74534,10.20699,12.18107,-3.36359,-15.28463,39.33027,23.2237,-9.01492,56.72372,-4.57906,37.34167,125.61804,-0.00051,-106.64806,113.32953,-0.00254,110.94595,-4.1173,-9.70692,-0.00331,-15.38555,5.63434,-0.00034,-4.9666,-7.63694,6.17612,-28.01336,-9.43215,2.7096,-1.36543,-4.6441,7.01024
733,-0.19753,-0.0,0.0,-0.60183,0.0,0.0,6.64937,-4.22829,9.37479,15.07447,4.84906,-13.30114,-32.5736,-0.80556,-5e-05,-20.85423,-2.67962,0.0001,32.43716,9.86293,10.18106,12.1443,-3.13652,-15.3068,38.96628,23.11242,-8.76678,56.70713,-4.59943,37.41285,125.43796,-0.00091,-107.03632,113.45168,-0.00238,111.10013,-4.37057,-9.71903,-0.00071,-15.23189,5.68735,-0.00122,-5.13736,-7.61599,6.14164,-28.1834,-9.39949,2.68604,-1.40429,-4.79837,7.0838
734,-0.20574,0.0,-0.0,-0.64152,0.0,-0.0,6.48844,-4.29607,9.34302,15.07226,4.78292,-13.33239,-32.25495,-0.78794,-0.0004,-20.67297,-2.69111,5e-05,32.36984,9.9885,10.12232,12.12339,-2.89895,-15.31221,38.58504,22.99668,-8.54905,56.69311,-4.61211,37.4964,125.3144,-0.00086,-107.41663,113.54732,-0.00235,111.01179,-4.78197,-9.89971,0.00408,-15.09661,5.64101,-0.00179,-5.30965,-7.62603,6.11121,-28.3569,-9.39693,2.65393,-1.42905,-4.94177,7.14749
735,-0.16697,0.0,-0.0,-0.72191,0.0,-0.0,6.30739,-4.33566,9.28873,15.06975,4.73937,-13.37229,-31.93833,-0.79584,-0.00059,-20.48393,-2.71951,-0.00011,32.32783,10.12231,10.04295,12.12075,-2.6507,-15.34295,38.17889,22.88694,-8.35575,56.69434,-4.60187,37.59518,125.27066,-0.00112,-107.54855,113.59896,-0.00251,110.64269,-5.3329,-10.28123,0.00948,-14.97882,5.5308,-0.00186,-5.47462,-7.67162,6.09462,-28.52513,-9.43244,2.62051,-1.44421,-5.07065,7.18799
736,-0.11426,0.0,-0.0,-0.82004,-0.0,-0.0,6.10529,-4.36094,9.23275,15.06083,4.73761,-13.39879,-31.62927,-0.81843,-0.00063,-20.289,-2.77045,-0.00033,32.3144,10.2628,9.93812,12.1342,-2.39291,-15.41821,37.76637,22.7914,-8.1833,56.70272,-4.55987,37.70104,125.30307,-0.00237,-107.18518,113.61118,-0.00255,110.10285,-5.96057,-10.82269,0.01231,-14.88152,5.43919,-0.00141,-5.61985,-7.74611,6.08102,-28.67547,-9.4957,2.57836,-1.45635,-5.18271,7.2015
737,-0.08247,0.0,-0.0,-0.89538,0.0,0.0,5.88431,-4.39248,9.1944,15.03326,4.7859,-13.38991,-31.32866,-0.84223,-0.00049,-20.09249,-2.84358,-0.00053,32.3202,10.40938,9.81213,12.15494,-2.12705,-15.54455,37.38565,22.71413,-8.03113,56.69584,-4.49062,37.80247,125.37882,-0.00366,-106.20213,113.6025,-0.00215,109.68715,-6.59301,-11.39197,0.01042,-14.82136,5.49059,-0.0008,-5.74006,-7.83174,6.05999,-28.80168,-9.56633,2.52491,-1.47442,-5.27641,7.19406
738,-0.08192,0.0,-0.0,-0.90467,-0.0,0.0,5.64911,-4.43757,9.17328,14.96992,4.88038,-13.33026,-31.03218,-0.85024,-0.00025,-19.89959,-2.93413,-0.00063,32.32526,10.56531,9.68849,12.16999,-1.85301,-15.71571,37.07013,22.65503,-7.89545,56.65421,-4.41145,37.8897,125.45187,-0.00348,-104.68527,113.58568,-0.00146,109.6332,-7.17498,-11.81279,0.00477,-14.821,5.72567,-0.00036,-5.84211,-7.90635,6.03762,-28.90906,-9.6263,2.47459,-1.50732,-5.35009,7.1792
739,-0.08897,-0.0,0.0,-0.83448,0.0,-0.0,5.40809,-4.49881,9.17151,14.86386,4.99431,-13.24102,-30.73295,-0.83392,-6e-05,-19.7165,-3.02534,-0.00052,32.30875,10.73581,9.58535,12.16905,-1.57034,-15.89178,36.82053,22.61299,-7.76077,56.57439,-4.34295,37.95869,125.49089,-0.00204,-102.94453,113.55532,-0.00093,109.92564,-7.67569,-11.9626,-0.00108,-14.89148,6.03363,0.00016,-5.94199,-7.95326,6.03469,-29.01211,-9.66832,2.45323,-1.55842,-5.40416,7.1715
740,-0.06907,0.0,-0.0,-0.71097,-0.0,-0.0,5.17175,-4.58407,9.20682,14.73155,5.08125,-13.17616,-30.42447,-0.79818,-2e-05,-19.55068,-3.09144,-0.00025,32.25702,10.92188,9.5027,12.14968,-1.2841,-16.01071,36.59359,22.5909,-7.59705,56.46592,-4.29594,38.01347,125.50086,-0.00081,-101.40064,113.49454,-0.00111,110.31169,-8.08575,-11.85766,-0.00379,-15.01575,6.22795,0.00102,-6.05923,-7.96994,6.07342,-29.1298,-9.69869,2.48241,-1.62116,-5.44605,7.17902
741,-0.00691,0.0,0.0,-0.58478,0.0,0.0,4.94858,-4.7076,9.30129,14.60836,5.09286,-13.18476,-30.10214,-0.75685,-0.0001,-19.40815,-3.11099,6e-05,32.16701,11.11877,9.42774,12.11744,-1.00531,-16.02553,36.31796,22.59502,-7.36773,56.33551,-4.26548,38.06341,125.52161,0.0003,-100.42373,113.393,-0.00219,110.47305,-8.40799,-11.65854,-0.00266,-15.14208,6.17061,0.00149,-6.21187,-7.96938,6.16679,-29.28079,-9.73441,2.56894,-1.67829,-5.48807,7.20006
742,0.07837,0.0,-0.0,-0.49404,0.0,-0.0,4.74247,-4.87501,9.44513,14.5217,5.00568,-13.26215,-29.76487,-0.71778,-0.0001,-19.28744,-3.08461,0.00023,32.04522,11.32098,9.35814,12.08012,-0.74265,-15.94841,35.92991,22.62499,-7.04568,56.17524,-4.23823,38.11615,125.60282,0.00318,-100.21646,113.26147,-0.0033,110.25154,-8.64334,-11.58032,0.00016,-15.19763,5.84717,0.00041,-6.40844,-7.97114,6.31537,-29.47479,-9.79368,2.7056,-1.70791,-5.53701,7.2269
743,0.13488,-0.0,0.0,-0.43594,0.0,0.0,4.55273,-5.06249,9.57046,14.46578,4.84164,-13.33089,-29.41674,-0.66918,0.00017,-19.1766,-3.04329,0.0002,31.90265,11.52582,9.32434,12.04061,-0.49516,-15.86589,35.40825,22.66325,-6.62642,55.96811,-4.20798,38.17297,125.77362,0.00833,-100.78338,113.13236,-0.00311,109.71832,-8.7708,-11.77612,0.00145,-15.12082,5.35801,-0.002,-6.63801,-7.98814,6.50713,-29.70182,-9.88373,2.87617,-1.69563,-5.58687,7.25338
744,0.10833,-0.0,0.0,-0.3859,0.0,-0.0,4.37346,-5.22391,9.59203,14.40862,4.65456,-13.29989,-29.06787,-0.59162,0.00064,-19.05828,-3.02667,-0.0,31.75147,11.73209,9.36427,11.99555,-0.25412,-15.8772,34.78482,22.67747,-6.12875,55.70617,-4.1848,38.23258,126.0271,0.01311,-101.94011,113.04454,-0.00144,109.03055,-8.73963,-12.27,-0.0007,-14.89526,4.85074,-0.00393,-6.8681,-8.02084,6.7188,-29.92984,-9.99593,3.05896,-1.64322,-5.62251,7.27856
