PaulMeinheit/Bachelor_Muay_Thai/processed_Data/E2/teep/sliced/JointMoments/sliced1.csv
Unnamed: 0_level_0,R_KNEE_MOMENT,R_KNEE_MOMENT,R_KNEE_MOMENT,L_KNEE_MOMENT,L_KNEE_MOMENT,L_KNEE_MOMENT,R_HIP_MOMENT,R_HIP_MOMENT,R_HIP_MOMENT,L_HIP_MOMENT,L_HIP_MOMENT,L_HIP_MOMENT,R_ANKLE_MOMENT,R_ANKLE_MOMENT,R_ANKLE_MOMENT,L_ANKLE_MOMENT,L_ANKLE_MOMENT,L_ANKLE_MOMENT,WAIST_JOINT_MOMENT,WAIST_JOINT_MOMENT,WAIST_JOINT_MOMENT,NECK_MOMENT,NECK_MOMENT,NECK_MOMENT,L_SHOULDER_MOMENT,L_SHOULDER_MOMENT,L_SHOULDER_MOMENT,R_SHOULDER_MOMENT,R_SHOULDER_MOMENT,R_SHOULDER_MOMENT,L_ELBOW_MOMENT,L_ELBOW_MOMENT,L_ELBOW_MOMENT,R_ELBOW_MOMENT,R_ELBOW_MOMENT,R_ELBOW_MOMENT,L_WRIST_MOMENT,L_WRIST_MOMENT,L_WRIST_MOMENT,R_WRIST_MOMENT,R_WRIST_MOMENT,R_WRIST_MOMENT
ITEM,X,Y,Z,X,Y,Z,X,Y,Z,X,Y,Z,X,Y,Z,X,Y,Z,X,Y,Z,X,Y,Z,X,Y,Z,X,Y,Z,X,Y,Z,X,Y,Z,X,Y,Z,X,Y,Z
665,21.62733,-32.81068,5.07643,-10.97607,7.38939,2.96887,-3.9444,-48.25929,5.28157,-10.68373,12.79683,6.20859,-23.48869,6.53688,-1.46292,-8.91667,3.21891,1.77933,-5.77915,10.91392,1.9524,8.1565,-8.57337,-0.73757,6.83359,0.47819,0.73194,6.20784,-2.93779,-0.13613,0.16057,-1.21385,0.42936,2.43968,1.84414,0.31562,0.06467,-0.05514,0.00639,0.28368,0.21189,0.06396
666,20.41703,-32.03774,5.07345,-12.14964,8.46827,3.21227,-17.53726,-41.75809,5.34402,-11.08801,14.32253,5.84161,-22.928,6.55874,-1.46774,-8.63135,3.00738,1.77307,-21.01511,15.26709,-4.46009,11.18783,-7.29437,-1.12619,8.45396,-0.09258,0.0466,7.44787,-3.24341,-0.00685,0.05072,-0.91646,0.31916,2.56732,2.07144,0.01271,0.09604,0.04207,-0.07236,0.42906,0.28279,0.00704
667,20.30697,-31.51353,4.98401,-13.25727,8.15132,3.01803,-21.08737,-41.10246,5.56177,-8.74935,12.84882,3.86356,-22.56186,6.5335,-1.52431,-8.62307,2.73973,1.73166,-20.46982,10.83642,-10.27545,4.90073,-9.15032,1.75299,8.55613,-0.1724,0.34486,8.62457,-3.8215,0.32499,0.62088,-1.46473,0.35317,1.79856,1.95219,-0.61936,0.17559,-0.07525,-0.01877,0.34218,0.2215,-0.07495
668,23.48128,-32.8067,5.08479,-13.45275,6.98957,2.65808,-2.74405,-58.73188,5.50152,-6.45428,9.91375,2.24275,-22.20829,6.41518,-1.50556,-8.637,2.60084,1.68949,6.22396,-7.59778,-6.86088,0.6251,-18.59296,3.67602,8.19489,-0.61623,0.69712,9.08252,-4.35878,0.84292,0.86163,-2.13496,0.59029,1.06904,1.52665,-0.78215,0.1741,-0.27892,0.1108,0.16978,0.09703,-0.07267
669,27.28651,-34.42762,5.29602,-12.5294,5.79975,2.32959,19.38349,-79.5357,5.61622,-8.31431,6.89386,1.44834,-21.85076,6.23984,-1.39892,-8.37196,2.54985,1.63134,28.93848,-26.40526,2.30313,10.97847,-22.43611,0.52244,7.84934,-1.41195,0.10378,8.24583,-4.33739,0.78439,0.53554,-1.94713,0.57177,1.41977,1.28373,-0.27716,0.08781,-0.31176,0.1266,0.17158,0.07156,-0.00925
670,26.94697,-33.14805,5.06725,-11.1957,5.20026,2.09586,14.70193,-70.04895,6.18397,-12.53987,5.08853,0.96858,-21.63876,6.06468,-1.35391,-7.99983,2.38538,1.51051,11.09918,-18.12541,3.50114,28.08667,-11.28703,-2.32789,6.75562,-0.82901,-0.413,6.59937,-3.53807,0.14639,0.40313,-1.1441,0.09349,2.29935,1.40167,0.26454,0.01097,-0.11646,-0.01664,0.30376,0.15342,0.02733
671,22.27992,-29.56123,4.43221,-10.22401,5.49171,2.12954,-17.34029,-29.0612,6.85138,-10.83742,5.58765,1.30897,-21.7951,6.02769,-1.52175,-7.97038,2.08755,1.38399,-31.98643,20.13441,-7.51099,31.17428,0.22751,-1.65859,6.14895,0.60763,-0.1204,5.69675,-2.63571,-0.27818,0.71454,-0.70709,-0.24303,2.4017,1.64068,0.12521,-0.00281,0.05753,-0.10394,0.32955,0.23616,-0.03919
672,18.35155,-27.74913,4.09941,-9.54828,5.82044,2.35136,-43.50241,1.15048,7.12146,0.37727,6.96569,2.73631,-22.32609,6.2671,-1.81883,-8.3049,1.81373,1.33762,-47.95853,51.33956,-19.07298,11.72762,-3.65607,-2.81927,8.24692,-0.15333,-0.10443,6.82778,-3.08782,-0.10642,0.93079,-1.11318,0.14301,1.6665,1.76042,-0.52431,0.06362,-0.04378,0.02899,0.22567,0.2366,-0.1383
673,18.90709,-30.15709,4.52785,-9.05762,4.9525,2.30821,-38.60361,-13.81254,6.94208,11.666,6.79167,3.88333,-22.85272,6.57596,-2.04799,-8.55266,1.60819,1.31888,-19.5516,40.45801,-18.45694,-14.85176,-12.52137,-6.01778,10.89246,-2.89903,-0.90538,9.43243,-5.02175,0.45356,0.80908,-1.74775,0.73101,0.85859,1.74157,-1.04313,0.18078,-0.26893,0.18569,0.11221,0.15596,-0.14474
674,22.44532,-35.03402,5.41186,-9.36181,2.99792,1.79519,-11.67107,-60.30412,6.77875,11.07826,4.60132,3.3468,-23.14035,6.58721,-2.18494,-8.4765,1.36,1.20805,19.03212,-2.68563,-6.13857,-24.31998,-5.70825,-2.71489,9.70194,-3.28787,-1.03064,11.36084,-6.41673,1.02582,0.67484,-1.7427,0.63305,0.33244,1.69091,-1.24745,0.24301,-0.24904,0.09482,0.03929,0.05893,-0.07139
675,24.85211,-38.24745,5.94994,-10.12942,1.73988,1.31333,9.48325,-96.49773,7.02572,2.65176,2.67342,1.85701,-23.41034,6.31833,-2.31949,-8.25149,1.08793,1.06538,35.58317,-36.72622,5.36231,-11.01499,14.9774,8.15224,5.93527,0.15864,0.57611,11.24051,-5.83735,1.32248,0.83474,-1.35732,0.07681,0.36023,1.62752,-1.13156,0.2129,-0.01859,-0.12363,0.06717,-0.00389,0.01313
676,24.49968,-37.83806,5.74529,-10.71149,1.39796,1.1054,9.90601,-98.03863,7.62129,-1.65954,1.05325,0.41562,-23.94178,6.16249,-2.48491,-8.14257,0.86982,0.97655,29.9466,-36.92137,5.84606,8.43846,26.27492,14.63276,5.39809,3.18241,2.10723,9.55162,-4.38624,0.97339,1.39783,-1.37281,-0.16864,1.07055,1.6156,-0.7153,0.23292,0.05704,-0.1683,0.19152,0.00517,0.05408
677,22.60633,-35.39751,5.12839,-10.67188,0.44664,0.85755,-6.18425,-71.2409,8.30949,1.20947,-2.04901,-0.86249,-24.68258,6.34557,-2.68283,-8.14085,0.66838,0.8933,12.72652,-10.40692,-3.18949,16.00635,16.88519,8.78975,9.4246,2.22573,1.35464,7.85755,-3.73856,0.37646,1.77792,-1.56287,0.00543,1.79886,1.56679,-0.20047,0.29983,-0.05774,-0.04177,0.26293,0.05691,0.05319
678,20.58561,-33.73883,4.64898,-9.73758,-0.87677,0.60137,-26.32267,-39.73447,8.71801,6.24275,-4.66496,-1.14312,-25.33119,6.65238,-2.94781,-7.99466,0.45867,0.79491,-8.07931,21.19646,-12.29656,8.20934,-0.17143,-1.53614,13.17095,-0.87316,-0.7817,7.86313,-3.91943,0.92213,1.4333,-1.50899,0.23322,1.83321,1.26109,0.19868,0.27812,-0.13824,0.03908,0.25558,0.0618,0.09578
679,19.47596,-34.5121,4.63495,-8.32378,-0.94529,0.69375,-35.86261,-28.79128,8.5477,9.68381,-2.89756,0.87293,-25.69589,6.84313,-3.25762,-7.57559,0.28106,0.72961,-17.78475,37.83707,-12.64927,-2.29106,-17.49831,-5.20195,13.30669,-2.16533,-1.587,9.40627,-3.69234,2.72017,0.68999,-1.51276,0.37405,1.43886,0.92741,0.34831,0.16754,-0.14438,0.01005,0.28281,0.04648,0.17168
680,19.23541,-37.171,5.09907,-7.30942,-0.1969,0.96444,-30.8954,-44.44452,8.29838,11.21305,2.35433,4.59162,-25.86371,7.01988,-3.52749,-7.02757,0.10559,0.65698,-8.96491,33.16199,-4.01558,0.22441,-42.4327,-2.55103,11.71428,-0.38796,-0.23214,9.75961,-2.37767,3.7526,0.22408,-1.71211,0.48932,1.32241,0.92025,0.26936,0.07703,-0.1336,-0.0291,0.31465,0.09161,0.14179
681,18.30279,-39.78199,5.8234,-6.94614,-1.07799,0.73198,-24.89633,-67.35152,8.89239,11.45575,4.8151,6.69558,-26.01477,7.38632,-3.71997,-6.44069,-0.17128,0.44232,2.69893,16.4888,4.02344,14.93398,-63.83707,0.24156,10.75876,2.58917,1.9156,7.80009,-1.21115,2.57255,0.48168,-1.88711,0.58178,1.45991,1.15498,-0.03123,0.09043,-0.10591,0.00307,0.22126,0.14105,-0.02846
682,16.66503,-41.12703,6.41918,-6.4653,-3.84949,-0.1237,-26.47768,-77.59246,9.95089,11.80463,0.74332,4.21053,-26.16807,7.85863,-3.83474,-5.66591,-0.48998,0.12292,5.138,0.30279,3.18261,24.56929,-55.14505,1.87531,10.36931,4.11239,3.31292,6.88929,-2.25076,0.24091,1.09929,-2.07244,0.71742,1.4554,1.58979,-0.6879,0.16113,-0.09878,0.10147,0.08545,0.13996,-0.20867
683,16.68079,-41.24077,6.43834,-5.21425,-5.29681,-0.81193,-26.71837,-72.75394,9.80836,14.32941,-5.01056,-1.37948,-26.23429,8.11573,-3.86755,-4.65516,-0.61579,-0.0361,8.93652,-4.68257,-4.2336,18.44202,-20.72395,4.08117,10.18247,2.74459,2.79468,9.74538,-5.27372,-1.28515,1.22408,-2.22479,0.874,1.5103,2.36753,-1.4748,0.18648,-0.15006,0.17515,0.12809,0.17191,-0.27488
684,18.65575,-40.25598,5.78091,-3.79272,-3.53508,-0.7566,-20.25455,-60.12492,7.95758,18.48512,-5.93959,-5.50922,-26.17374,7.98499,-3.84014,-3.67482,-0.49496,0.07977,20.33752,7.62763,-11.01443,3.92376,0.65435,7.12927,10.17301,-0.21303,0.75615,13.04954,-7.18804,-1.31994,0.7043,-2.19586,0.89038,1.96354,3.04142,-1.61987,0.1374,-0.22602,0.15323,0.32076,0.24984,-0.19439
685,19.55369,-39.30399,5.18632,-3.43649,-1.05389,-0.31248,-16.31857,-51.9642,6.27689,18.94213,-3.71358,-5.98443,-26.05932,7.62388,-3.86846,-3.02275,-0.3506,0.26123,23.96603,22.24382,-13.24076,-6.77695,-11.65232,10.44112,9.96579,-1.45688,0.00732,11.98255,-5.89936,-0.51664,0.32542,-2.46015,0.82764,2.39474,2.7758,-0.81027,0.07301,-0.32219,0.09851,0.39025,0.2443,-0.04703
686,17.76903,-39.65454,5.35349,2.20152,1.88685,-0.01837,-22.42456,-57.41644,6.55885,23.36053,2.01997,-2.53957,-25.97791,7.34288,-4.00682,0.49853,0.11242,0.07559,20.32649,25.86973,-9.28413,-12.38079,-31.3409,11.97091,10.06563,0.0948,1.90138,8.26519,-3.46002,-0.06831,0.75862,-3.36783,0.81826,2.44743,1.97076,0.01774,0.09318,-0.43349,0.08604,0.30124,0.15894,0.01341
687,15.50409,-40.32872,5.85744,1.16633,1.22357,0.03445,-33.47107,-68.63348,8.06249,12.12314,5.09349,2.13575,-25.91782,7.27029,-4.11783,0.38309,0.01202,-0.06597,-6.34452,17.66769,-1.70468,-17.54151,-26.41338,10.02422,11.05145,1.94077,3.7654,7.76896,-3.15202,-0.32591,1.76946,-4.03017,0.67481,2.62078,1.89202,0.015,0.24173,-0.43368,0.05985,0.29844,0.13393,-0.03277
688,14.9329,-39.41291,5.86986,2.17075,0.89355,-0.06687,-40.59392,-69.48672,8.95226,8.49049,9.79799,6.39115,-25.80045,7.24672,-4.06863,0.65647,-0.07528,-0.26124,-19.39242,23.72313,4.55702,-17.30615,-8.15688,7.82196,12.09658,2.13977,3.29646,11.54469,-4.73711,0.2922,2.63861,-3.63369,0.2962,2.95194,2.42785,-0.36162,0.44619,-0.26597,-0.02527,0.40579,0.19176,-0.06798
689,15.46858,-37.09071,5.38661,4.35051,0.2232,-0.323,-40.50779,-58.2693,8.80984,13.44301,9.2492,6.13286,-25.55998,7.13723,-3.90735,1.10376,-0.15232,-0.41842,-14.60686,34.39518,3.37807,-4.08779,-6.06868,7.80927,12.75605,1.0843,1.40336,15.14439,-5.29551,3.24451,2.68609,-2.73775,0.1466,2.76584,2.35869,-0.26116,0.53478,-0.11169,-0.05378,0.44637,0.23072,-0.0167
690,15.82655,-35.4316,5.07932,5.98856,-1.15698,-0.53287,-34.63522,-48.70237,8.38834,20.39119,0.71729,0.83255,-25.25076,7.11506,-3.75928,1.3935,-0.19357,-0.42725,-0.84504,28.43172,-4.45714,12.11273,-17.68927,6.2399,13.51919,-0.58773,-0.47943,15.05699,-3.74485,6.68989,1.71105,-2.29112,0.64239,1.99097,1.56298,0.25116,0.38376,-0.16982,0.09561,0.37737,0.20967,0.08637
691,15.72904,-35.18249,5.20241,6.5435,-1.6315,-0.41045,-26.50027,-49.25908,8.23727,25.21663,-7.14953,-4.32267,-25.04004,7.37677,-3.67546,1.37583,-0.1326,-0.21069,14.37708,11.11455,-11.44126,15.83418,-25.48851,1.42952,14.13679,-2.36809,-1.94112,12.02405,-1.85319,7.30909,0.78145,-2.52208,1.21861,1.25058,1.04249,0.44847,0.18006,-0.41408,0.30394,0.24454,0.18152,0.12211
692,15.36258,-35.01628,5.34111,6.74182,-0.36755,-0.03907,-20.62294,-54.4536,8.41963,27.90293,-5.29315,-4.21149,-25.00182,7.71247,-3.65458,1.23376,-0.03035,0.11256,25.16738,5.83294,-11.00879,7.80843,-29.13354,-2.71418,14.0789,-3.29145,-3.07861,9.29793,-1.5005,5.07728,1.07802,-2.74973,0.90627,0.93683,1.13724,0.10086,0.23202,-0.58638,0.29014,0.08164,0.15191,0.03161
693,14.7786,-34.28079,5.23285,7.23623,1.10614,0.24419,-20.24279,-57.31713,8.73759,28.05086,2.95784,0.09122,-25.01966,7.74002,-3.70016,1.2287,0.03608,0.31823,25.33305,16.24532,-4.72568,0.20698,-28.39634,-3.29003,13.32622,-2.86178,-3.93961,9.40286,-2.82654,3.05487,1.89776,-2.22853,-0.10497,1.15219,1.34095,-0.22487,0.45533,-0.47802,0.02182,0.00879,0.05363,-0.03556
694,13.80358,-33.56176,5.0931,7.44812,1.34444,0.25636,-24.75544,-57.67875,9.18224,23.32091,8.34747,3.59697,-24.8962,7.44337,-3.77041,1.33498,0.07876,0.30313,11.80515,24.84254,1.2767,7.55835,-13.88373,-0.19116,11.7538,-1.53085,-3.81028,11.72446,-4.44769,2.69213,1.95331,-1.30634,-0.75116,1.82472,1.54239,-0.15428,0.51318,-0.2081,-0.21513,0.13724,-0.06214,0.0481
695,12.0893,-32.82729,5.11499,6.63401,1.30311,0.1483,-30.55497,-57.41895,10.04289,14.97218,9.57794,4.26535,-24.53665,7.13263,-3.78199,1.37412,0.11278,0.19318,-9.36514,23.89035,4.85815,31.8321,8.96867,6.14483,9.42916,-0.00311,-2.06963,13.19413,-4.90126,2.68556,1.51508,-0.87873,-0.73076,2.40789,1.94196,-0.00937,0.3611,-0.04389,-0.2345,0.35506,-0.03152,0.15633
696,9.58168,-31.4338,5.09287,5.13153,1.7113,0.20826,-33.72063,-55.93995,10.66253,11.53971,7.52095,2.80657,-24.11759,7.02855,-3.73462,1.24339,0.12252,0.18171,-19.71762,18.21314,4.21545,46.04944,17.30997,14.09087,7.65532,1.14094,0.494,11.94292,-3.99572,2.2629,1.33254,-1.21717,-0.4195,2.35642,2.16114,-0.00891,0.20663,-0.07861,-0.11413,0.46385,0.14485,0.135
697,7.28252,-29.55872,4.74666,4.11401,1.23516,0.47653,-31.61079,-52.65994,9.73441,19.34161,-0.48562,-0.30856,-23.91253,7.09199,-3.71119,0.98388,0.12512,0.29846,-4.59351,9.67294,-3.48032,21.88249,1.31345,19.09282,7.56545,1.59568,2.54062,9.47482,-2.91109,1.94866,1.08528,-1.88688,0.06818,2.05154,1.80753,0.12365,0.09372,-0.17665,0.00876,0.47307,0.26786,0.05197
698,6.41922,-28.30911,4.26668,4.69659,-0.43362,0.64171,-25.03945,-50.36627,7.84547,32.3701,-10.19441,-3.55962,-23.94734,7.18656,-3.75686,0.7747,0.14687,0.39531,24.37865,0.13634,-12.80154,-21.72717,-20.32587,15.05278,8.14782,1.4017,3.13358,8.3095,-2.69085,1.08015,0.56294,-2.17877,0.50657,2.48853,1.55533,0.50493,-0.04407,-0.15261,0.06337,0.54571,0.26701,0.02945
699,6.05058,-27.59911,3.93818,5.01673,-1.90684,0.39995,-19.69477,-49.56047,6.71969,36.8536,-13.56991,-5.13144,-24.1152,7.33365,-3.85465,0.56347,0.12995,0.30065,38.02766,-2.70969,-15.74956,-33.95205,-24.75929,0.77287,8.08988,0.63592,1.4632,8.25144,-2.5688,-0.98999,0.60672,-1.66184,0.31922,3.56659,2.11464,0.78861,-0.09683,-0.01913,0.05137,0.67297,0.29435,0.02687
700,4.36235,-26.03321,3.61054,2.39631,-1.81924,-0.00778,-20.31103,-46.03912,6.38703,27.42285,-9.47373,-4.16916,-24.39597,7.6361,-3.97176,0.20749,0.0625,0.06804,24.64614,7.64772,-12.7147,-0.48335,-13.8151,-15.43775,7.76663,-0.41824,-1.68523,7.11451,-1.33303,-1.98432,1.57337,-0.84447,-0.4238,3.78118,2.64524,0.77798,0.0514,0.01709,0.03757,0.62302,0.37803,-0.0127
701,1.8708,-23.36968,3.09594,-1.58809,-0.15542,-0.12254,-24.22956,-39.34833,5.83615,13.23791,-2.06496,-1.04268,-24.76754,8.05592,-4.0601,-0.10374,0.02219,-0.08816,1.70595,25.27329,-8.35159,33.40707,-5.93007,-21.72227,7.43351,-0.94112,-2.90191,4.75191,0.12581,-0.28952,2.41657,-0.74343,-0.86056,2.51296,2.07576,0.64455,0.23736,-0.10311,0.04794,0.32029,0.34173,-0.0321
702,0.07657,-21.66112,2.77391,-2.55114,2.10747,0.0764,-25.76801,-36.6762,5.36185,9.42459,5.49945,2.31117,-25.19226,8.45984,-4.13536,-0.07943,0.07087,-0.08052,-4.02039,34.84571,-4.94166,22.18922,-9.7678,-14.33897,6.42318,-0.36446,-0.47258,3.62034,-0.10528,1.54924,2.11999,-1.31676,-0.61635,1.17212,0.97463,0.62339,0.23391,-0.1645,0.0172,0.01287,0.12264,0.02334
703,-1.32023,-22.38967,3.06565,0.03684,3.222,0.17721,-25.01775,-42.65396,6.09105,18.50308,9.54849,3.14165,-25.71553,8.80819,-4.28855,0.20511,0.131,-0.03488,9.64632,27.69168,-3.63335,-20.1074,-14.40311,-0.25004,5.29793,0.62706,2.23075,5.1985,-1.85526,1.38937,0.93964,-1.48668,-0.14456,1.13522,0.54962,0.7852,0.06837,-0.05243,-0.06481,-0.05268,-0.10715,0.11686
704,-3.35826,-23.91369,3.63409,1.96592,2.25183,0.0378,-25.97293,-51.71968,8.01818,26.3027,7.25032,1.32896,-26.43381,9.1618,-4.53725,0.38153,0.10399,-0.02943,18.27634,12.71114,-3.88792,-40.29665,-5.55957,11.66752,5.27259,0.71007,1.12456,7.58735,-3.12849,1.0993,0.24031,-0.84865,-0.07297,1.61989,0.72841,0.80371,0.01435,0.05944,-0.12265,0.01913,-0.195,0.14893
705,-5.68854,-23.69975,3.76817,0.34247,0.28803,-0.06885,-27.71977,-55.07512,9.77577,22.78094,1.16626,-0.43618,-27.39504,9.53383,-4.79741,0.23777,0.00543,0.00299,10.54209,5.71073,-3.21597,-14.07542,8.62904,17.50192,5.23209,-0.28879,-2.40382,7.49615,-2.70154,2.55865,0.80822,-0.19614,-0.5049,1.2282,0.56147,0.47207,0.17078,0.01304,-0.11466,0.02588,-0.14105,0.0735
706,-7.376,-21.30727,3.19721,-3.05522,-0.94671,-0.01373,-26.45261,-49.52818,9.72929,14.31973,-2.53608,-0.27337,-28.57697,9.89587,-5.00292,-0.06601,-0.0777,0.08579,1.11399,13.06634,-1.30759,28.06641,6.3929,16.48678,3.22169,-1.0398,-3.18038,4.64562,-1.03332,4.10657,1.92909,-0.25506,-1.04092,0.61743,0.08397,0.26266,0.33254,-0.10033,-0.09472,0.10185,0.04142,-0.02964
707,-8.9466,-18.09297,2.23375,-4.97673,-0.77566,0.07303,-24.86174,-38.6856,7.37235,10.70944,-0.993,1.16355,-30.00406,10.37503,-5.17435,-0.23892,-0.05412,0.14844,-0.54838,29.04835,-1.97616,44.85085,-9.70102,7.7054,0.81793,-0.53527,-0.09137,2.22946,0.43645,3.20182,2.60481,-0.67017,-1.36753,1.25424,0.17486,0.63054,0.40281,-0.11136,-0.1437,0.40636,0.28916,-0.04483
708,-11.73173,-15.19435,1.34569,-4.49365,0.24009,0.06219,-28.31494,-28.88003,4.17615,12.34704,3.37877,2.36719,-31.80914,11.24404,-5.38587,-0.15365,0.05434,0.12694,-2.06386,44.1449,-7.01407,31.73246,-18.59692,-5.85375,1.81952,0.64361,2.55783,2.6644,0.44641,-0.11315,2.64907,-0.79754,-1.38999,2.59119,1.00885,1.10244,0.49135,-0.02491,-0.23933,0.66303,0.41186,0.01722
709,-15.38221,-13.08957,0.8194,-2.79486,0.63696,-0.14304,-32.48503,-25.27531,2.57993,16.47496,5.71038,2.05074,-34.0994,12.59621,-5.73085,0.11216,0.08273,0.00394,-1.72491,49.3224,-11.98088,6.11928,-21.46129,-14.09081,5.98206,1.42418,1.88322,4.87456,-0.93795,-2.54876,2.14963,-0.51414,-1.04505,2.83364,1.5729,1.09125,0.52709,0.06827,-0.25301,0.52271,0.26043,0.08492
710,-18.32534,-12.44452,0.81905,-1.59657,-0.52286,-0.51579,-30.21387,-29.52654,3.94476,21.28117,2.52072,-0.54473,-36.85646,14.25749,-6.27344,0.33167,-0.03327,-0.16278,7.67906,38.1992,-12.59132,-20.96532,-32.07731,-9.97954,8.34428,1.54448,-0.1704,6.49809,-2.44582,-0.79827,0.86839,-0.01486,-0.26252,1.71226,0.96176,0.81327,0.24864,0.12961,-0.08624,0.13217,-0.06763,0.1342
711,-20.25445,-13.1865,1.24709,-2.00198,-2.47642,-0.80146,-24.00567,-38.47461,7.13874,21.54509,-5.63319,-4.54049,-40.06646,16.13824,-6.95331,0.28841,-0.17188,-0.28068,16.51762,13.03601,-9.30101,-36.68377,-38.09624,1.21071,6.21942,1.17727,-0.70235,6.54604,-2.99796,4.0841,-0.69956,0.24778,0.64909,0.45905,-0.43304,0.5919,-0.20784,0.09681,0.16612,-0.07805,-0.31731,0.13911
712,-22.3802,-13.50025,1.50296,-3.02357,-4.71593,-0.8331,-19.34774,-47.48726,9.29191,15.90905,-17.86253,-8.7808,-43.81908,18.32269,-7.63002,0.06422,-0.29551,-0.35439,18.79286,-20.51078,-5.6456,-30.53354,-17.67813,8.83717,1.77078,0.43616,-0.17229,5.05776,-2.34284,7.07708,-1.24795,0.19111,0.95594,-0.25506,-1.23071,0.16324,-0.35171,-0.03014,0.26884,-0.01949,-0.29334,0.05616
713,-25.23201,-11.80219,1.03111,-2.75393,-6.52641,-0.58753,-19.68727,-51.92703,8.49756,12.29549,-28.34873,-10.76683,-48.09181,20.74393,-8.22712,0.00616,-0.40373,-0.37271,20.33164,-44.8468,-5.13625,-10.17262,12.06165,8.33128,-1.89722,-0.30909,-0.58414,3.02256,-0.89261,4.71208,-0.27422,0.29747,0.30635,-0.03847,-0.48361,-0.12791,-0.05766,-0.0902,0.13501,0.14142,-0.0287,-0.01497
714,-28.29844,-8.62404,0.08006,-1.62135,-5.52769,-0.11939,-28.86556,-46.28745,5.61118,15.1052,-23.86413,-6.45198,-52.71413,23.20837,-8.77971,0.25621,-0.34517,-0.21911,13.67743,-28.03012,-7.71425,6.8443,11.22075,4.07128,-2.87223,-0.63958,-1.18801,1.44846,0.19712,-0.56651,1.29572,0.37456,-0.71755,0.9971,0.71418,0.58969,0.29727,-0.03202,-0.07242,0.24056,0.14371,0.1116
715,-30.53159,-5.16405,-0.74196,-1.95626,-1.44678,0.30056,-40.35253,-32.21892,3.17876,16.82933,-4.64088,2.05497,-57.66565,25.78566,-9.31864,0.52224,-0.05152,0.10205,-7.44324,25.77163,-8.9026,12.7756,-18.43086,2.47591,-1.22472,-0.65328,-0.14264,0.57519,-0.11406,-3.67373,2.10491,-0.2353,-1.24349,1.48875,0.68702,1.71764,0.36901,-0.01429,-0.1769,0.13808,-0.02028,0.36204
716,-31.60559,-2.72264,-1.00567,-3.84703,2.00998,0.40539,-41.09655,-22.95739,3.32591,12.2041,10.08176,6.64084,-63.0498,28.61818,-9.88408,0.57778,0.26272,0.37353,-25.48118,63.28305,-4.87181,17.15589,-39.80207,5.38819,0.91401,-0.80175,1.7521,1.42447,-1.2513,-2.86792,1.73233,-1.34605,-1.01719,1.22332,0.01334,2.01315,0.20758,-0.153,-0.15356,0.02739,-0.24608,0.46889
717,-32.5354,-1.41894,-0.86366,-4.61582,1.46026,0.103,-31.1182,-23.12508,5.25739,8.69465,8.90802,4.27919,-68.74406,31.59265,-10.51298,0.57497,0.26554,0.33475,-21.89304,59.76763,0.9031,20.69078,-35.70988,9.81682,1.27193,-1.06587,2.04268,3.26533,-1.60779,-0.16118,0.80076,-1.79754,-0.45053,0.80628,0.0274,1.13433,0.03448,-0.31232,-0.06162,0.10655,-0.15026,0.29734
718,-34.07574,0.15662,-0.84511,-2.55639,-0.64326,-0.31987,-21.06122,-23.79405,6.67491,14.94844,3.98472,1.09105,-74.45361,34.52117,-11.15922,0.64581,-0.00565,0.04694,1.05757,47.69072,4.16664,8.75762,-15.69328,10.09625,-0.57922,-0.88428,0.4049,3.00645,-0.77899,1.16051,-0.04237,-0.87053,-0.00039,-0.20873,0.59058,-0.51602,-0.09398,-0.27388,0.04322,0.09265,0.17896,-0.05793
719,-36.35787,2.35911,-1.0427,-9.69928,-6.4476,-1.19329,-17.94893,-21.31337,7.00702,8.28623,-4.37804,-2.08155,-79.99368,37.2449,-11.76438,-5.44637,-1.60734,-0.65504,4.73241,35.32909,0.60561,-10.06768,0.63301,5.86037,-2.79324,-0.02381,-0.48741,0.81567,-0.02901,-0.11067,-0.34048,0.54207,0.04683,-1.6545,0.92828,-1.9375,-0.1897,-0.05175,0.09202,-0.20538,0.36756,-0.37152
720,-38.66724,4.19979,-1.2256,-6.7683,-5.78274,-0.91265,-20.97422,-19.95325,6.42223,18.18629,-4.93372,-0.77129,-85.28056,39.57421,-12.27206,-6.36742,-1.73555,-0.74963,18.86442,33.32379,-3.32302,-11.47521,-6.42236,5.25222,-3.11068,0.9562,1.35146,0.61547,-0.59879,-1.53488,0.15934,0.92646,-0.32861,-2.19839,0.79318,-2.30241,-0.18144,0.1218,0.04365,-0.47987,0.28489,-0.50063
721,-39.25445,5.24802,-1.30287,-5.26127,-5.91132,-0.44742,-24.96379,-21.76096,5.35078,19.24884,-9.30213,-0.06224,-90.24562,41.37474,-12.61821,-7.17874,-1.73809,-0.73195,18.71819,26.40721,-7.10081,2.48693,-29.95992,11.58634,-0.79917,1.16501,4.24644,4.40963,-2.36576,-1.03854,1.34649,-0.14258,-0.8072,-1.04255,0.47859,-1.51069,0.03638,0.07074,-0.04574,-0.3486,0.09302,-0.41071
722,-37.24771,6.64269,-1.46241,-6.80019,-7.58501,-0.39814,-26.51115,-21.90223,4.89762,7.71078,-12.58965,-0.77115,-94.78288,42.67636,-12.767,-7.92745,-1.8769,-0.8023,2.25219,26.82458,-8.64085,10.29771,-39.61571,17.77085,3.01841,0.41746,5.1396,9.41195,-4.03104,0.95791,2.5392,-1.67036,-0.9398,0.80133,0.25921,-0.13543,0.40054,-0.13915,-0.07242,0.09771,-0.06473,-0.11997
723,-34.0201,8.34235,-1.53881,-10.59397,-8.88077,-0.80204,-24.886,-18.47631,5.69986,-12.19194,-11.16421,-2.72607,-98.60897,43.46977,-12.75516,-8.66004,-2.08694,-0.92023,-24.19366,36.75547,-8.25894,1.9633,-29.51156,16.80044,6.17918,-0.24272,2.87433,11.25027,-4.3993,4.02075,2.41524,-1.99409,-0.48612,1.5201,-0.14348,0.96357,0.55921,-0.21721,-0.01807,0.39272,-0.23168,0.23523
724,-30.72787,9.1116,-1.26758,-13.2392,-7.16717,-1.13515,-16.7196,-16.63053,6.42498,-30.05467,-6.30053,-3.98537,-101.22929,43.62814,-12.55163,-9.24474,-2.08718,-0.93669,-40.31055,42.07716,-5.78125,-11.78514,-22.02557,6.76419,7.58954,-0.01937,-0.713,9.44769,-3.07525,5.76245,0.34997,-0.84013,0.39992,1.12811,-0.12055,1.23132,0.24648,-0.04642,0.0509,0.32456,-0.30904,0.39032
725,-27.08385,10.3634,-1.47966,-11.76757,-4.22132,-1.15776,-2.26936,-15.39533,4.76959,-38.15005,-4.29059,-4.55975,-102.26183,43.12755,-12.02587,-9.51327,-1.95363,-1.0018,-35.02459,33.30285,-4.38716,-14.12295,-24.65782,-6.93389,7.50405,0.493,-1.64776,7.34445,-0.88749,2.83166,-2.29792,-0.14634,1.26386,1.2443,1.35596,1.01857,-0.32972,0.05475,0.11115,0.13085,-0.10481,0.25282
726,-23.43278,12.0509,-2.07809,-5.06931,-3.12586,-0.96441,10.08756,-14.60321,2.7871,-34.82875,-6.00219,-4.98835,-101.66972,41.91067,-11.31398,-9.33119,-1.85674,-1.27672,-17.74703,16.3377,-4.04165,-7.07134,-22.13669,-12.48279,5.66668,0.69021,1.33886,6.4105,0.6482,-2.96239,-3.40961,-0.88786,1.52526,1.79514,3.35879,0.69334,-0.70685,-0.09851,0.15125,-0.01438,0.24345,0.00451
727,-18.68222,11.85395,-1.84936,4.22007,-4.31537,-0.69915,21.64552,-18.25525,3.85477,-28.00069,-7.82526,-5.2739,-99.36632,39.90121,-10.56876,-8.79218,-1.69072,-1.6594,2.65849,3.88879,-0.41185,-1.51074,-10.15564,-4.99711,3.3007,0.55903,4.90119,5.93984,0.75113,-5.85322,-2.4567,-2.08013,1.10322,1.45983,4.08465,0.05728,-0.65211,-0.32584,0.15451,-0.07742,0.48488,-0.16557
728,-11.25187,9.78092,-0.81672,13.0274,-5.68645,-0.40704,37.90108,-23.58771,6.63468,-27.80571,-8.74007,-5.94076,-94.98969,37.08327,-9.63783,-8.08541,-1.25154,-1.96477,19.77361,0.65739,4.99042,6.52213,-2.79301,7.00844,4.20595,0.42021,5.73224,5.9616,-0.46117,-3.41664,-0.42888,-2.7589,0.36457,-0.01767,3.03343,-0.98756,-0.24854,-0.4037,0.10081,-0.08583,0.5313,-0.2526
729,-3.70151,7.60074,-0.00743,20.29165,-3.99029,-0.21951,50.21517,-21.15011,6.77121,-38.24355,-7.27182,-6.58788,-88.26073,33.39649,-8.39906,-7.28726,-0.45927,-2.10526,18.23317,1.99951,7.26357,16.6852,-4.02255,11.47587,8.66029,0.86466,3.9137,6.48818,-2.0598,-0.08398,1.34394,-2.40592,-0.37278,-1.56928,1.54962,-2.0208,0.20424,-0.19292,-0.02128,-0.14435,0.42954,-0.33467
730,0.69517,7.12499,-0.46513,26.81881,1.12748,-0.33532,49.37882,-3.88613,1.59098,-53.32229,-2.57049,-6.47514,-79.37403,29.0894,-6.89353,-6.27829,0.55114,-2.22537,-3.52971,6.70305,4.56281,12.64784,-4.70917,4.54435,11.45147,1.60907,1.39806,6.40596,-2.71117,-0.73561,1.75794,-1.20892,-0.75333,-1.60843,1.0649,-2.03306,0.33581,0.17859,-0.13385,-0.16196,0.24836,-0.33304
731,3.89678,8.514,-2.20984,34.73071,6.1875,-0.69582,41.82954,19.26407,-5.19751,-63.56379,3.59626,-5.9897,-68.96244,24.76467,-5.23739,-4.97712,1.5695,-2.55925,-26.51934,13.7328,0.46466,-4.45333,-1.51697,-5.08456,9.97899,1.54888,0.0609,5.30884,-2.10375,-3.32008,0.68928,-0.48228,-0.44395,-0.30138,1.37265,-1.0083,0.07547,0.31161,-0.11323,-0.06524,0.06647,-0.20652
732,9.50127,8.07455,-2.7692,45.02835,9.10915,-1.06917,42.72575,25.56591,-5.63652,-69.3594,11.6891,-5.02945,-57.58191,20.39259,-3.66482,-3.65615,2.5731,-3.07335,-36.19293,11.06439,5.73795,-7.61227,0.83079,-4.62597,7.89786,1.0097,1.25844,4.74213,-1.31499,-2.78279,-0.69027,-1.19301,0.34949,0.58652,1.43522,-0.13355,-0.22336,0.07322,0.02944,-0.0012,-0.03504,-0.08413
733,17.96739,3.88952,-0.55459,57.53263,11.97564,-1.35834,60.83904,9.23428,1.59545,-73.1936,24.71062,-2.05835,-45.54062,15.66293,-2.23814,-2.61292,3.65415,-3.50352,-25.70269,-4.80054,25.39812,10.59345,-5.84025,5.18354,8.68038,1.42698,4.36677,6.34326,-1.40196,0.11456,-1.20159,-2.58018,0.98353,0.49441,1.3852,0.12297,-0.25329,-0.20351,0.14654,-0.04122,0.00579,-0.01735
734,26.84366,0.68216,1.07032,71.37754,16.78989,-1.63844,88.47708,-5.28876,8.55374,-68.6643,40.43231,2.37855,-33.40916,11.2822,-0.87919,-1.81806,4.72799,-3.73442,5.50219,-14.69362,44.34072,20.89633,-21.06685,8.27718,12.13952,2.39993,6.16154,9.12995,-2.28785,0.01952,-1.02677,-3.51152,1.23033,-0.05952,2.27481,-0.0208,-0.09502,-0.2928,0.15902,-0.16342,0.19418,0.01773
735,31.42874,2.53141,-1.46933,85.31094,23.25397,-1.97619,106.53973,3.3448,9.02825,-51.19252,52.84916,5.16144,-22.2652,8.13122,0.22864,-1.03895,5.69364,-3.81281,42.45423,-5.21166,43.31915,3.97463,-23.08949,-3.83429,16.42258,2.07701,4.20973,10.2261,-2.8187,-3.71704,-1.15396,-3.86521,1.45947,-0.64255,3.92563,-0.46399,0.00372,-0.34035,0.13716,-0.27434,0.43935,0.00456
736,28.08671,7.66428,-7.15449,97.88356,29.64686,-2.28377,101.70554,26.64506,3.67714,-30.46771,58.54041,4.1621,-13.22771,6.15408,0.79133,-0.05955,6.6237,-3.79138,59.10471,8.51087,21.37054,-17.91517,2.04931,-17.95419,18.0943,0.1437,-0.03354,8.50223,-2.10029,-5.35679,-1.61215,-3.75272,1.694,-0.75019,4.45677,-0.88693,-0.02457,-0.45686,0.14053,-0.19141,0.57045,-0.05628
737,18.96402,11.78439,-12.2883,108.11945,34.03428,-2.46105,77.19494,40.48611,-3.61318,-22.95136,60.51155,0.89226,-6.88494,4.81805,0.70447,1.00225,7.50566,-3.76027,37.24812,7.00749,-4.1437,-13.99325,30.04781,-19.19551,14.59315,-1.81556,-3.12415,6.30413,-1.07637,-2.15089,-1.57691,-3.00882,1.44298,-0.16354,2.93943,-0.81033,-0.08888,-0.50576,0.12824,0.06224,0.44988,-0.10097
738,9.64892,12.66594,-14.61299,116.66193,37.7494,-2.82799,50.8324,36.81057,-8.87162,-34.45488,71.10527,0.90036,-3.14378,3.6153,0.14724,1.67176,8.13312,-3.76837,-12.35041,4.72692,-12.04475,10.80712,32.59734,-12.12796,9.19674,-2.49699,-3.58672,6.22676,-1.70193,1.07076,-0.99717,-2.13604,0.78418,0.68559,0.85827,-0.13344,-0.15667,-0.43045,0.09203,0.21519,0.10682,-0.05468
739,2.20175,11.58332,-15.10359,124.88826,43.5658,-3.69807,40.85258,29.19032,-10.07311,-50.86672,95.07078,7.12695,-1.31943,2.25784,-0.46116,1.98812,8.31531,-3.79299,-48.15647,23.35098,1.40242,24.50624,19.4339,-10.1466,7.67044,-2.09481,-2.95951,7.93491,-3.95548,-0.86416,-0.47707,-1.88743,0.32915,1.27888,0.45042,0.62526,-0.20997,-0.3461,0.07266,0.14875,-0.17318,0.05917
740,-3.5666,7.45291,-11.92758,132.59155,49.97511,-4.51824,56.86842,15.38092,-5.79794,-50.91047,114.76369,13.63257,2.18877,-0.29512,-0.48473,2.47528,8.1211,-3.79597,-27.82254,26.82662,19.7013,14.57843,19.30593,-15.8286,10.5737,-1.50561,-3.46384,9.95692,-5.8615,-6.81623,-0.30099,-1.76389,0.25215,1.46606,2.38908,0.67441,-0.17356,-0.23761,0.04915,0.03416,-0.09161,0.10083
741,-6.05797,2.46261,-5.18742,138.53697,54.75768,-4.66785,74.31176,-8.37667,-1.15649,-30.78759,117.05957,14.1709,2.29249,-1.28686,-0.19529,3.05848,7.94906,-3.5839,22.02627,-7.10565,21.42477,6.30049,38.84417,-21.79548,14.37444,-0.96528,-5.04695,11.89822,-6.47252,-11.95052,-0.61688,-1.0298,0.48679,1.5014,5.14637,-0.13304,-0.07983,-0.03693,0.01668,0.07359,0.30685,-0.01982
742,-8.11347,-2.6766,3.39444,142.12212,57.64693,-4.28954,76.08794,-34.80188,2.2165,-10.01041,110.09367,10.40582,2.46349,-1.7846,0.27415,3.31147,7.99092,-3.09182,50.71313,-50.97168,13.8498,22.9143,54.09437,-22.05926,16.76291,-0.19226,-5.67285,12.95904,-6.29468,-12.38235,-1.50879,-0.27242,1.08468,1.41488,6.24665,-1.0211,-0.09166,0.13428,0.04864,0.20125,0.67757,-0.20593
743,-9.74899,-1.86846,4.04758,144.9061,59.07448,-3.79419,54.17353,-32.02205,2.56384,-6.07156,106.51899,7.39716,2.06979,-0.95722,0.41987,3.22346,8.04017,-2.55797,24.37002,-45.72847,7.08476,42.71826,38.84658,-15.74636,17.02523,0.24913,-4.68879,12.23459,-5.51906,-6.62174,-2.40382,-0.45192,1.73601,0.99958,4.47666,-0.99325,-0.2262,0.08384,0.1452,0.25042,0.69236,-0.21288
744,-12.22328,4.42443,-3.60991,148.39256,60.33199,-3.41425,25.41732,-6.61082,0.42027,-16.00582,109.19279,6.75965,1.35033,0.71046,0.2393,2.91775,7.98631,-2.10163,-28.47361,-11.178,1.04902,27.82139,0.7053,-5.88525,14.33681,-0.35442,-3.20517,10.47809,-4.02759,1.80806,-2.44333,-1.32517,1.85665,0.29223,1.59042,-0.17941,-0.31016,-0.1765,0.21016,0.15352,0.36794,-0.00197
745,-15.91636,8.56368,-8.38962,150.92906,61.40212,-2.92632,13.6713,2.68681,-5.37801,-27.27348,110.23239,6.03259,0.9,1.65601,0.19745,2.26285,7.89095,-1.60328,-56.7895,-12.50578,-11.37481,-13.09478,-22.10424,2.06728,8.72464,-1.01568,-2.02655,8.69034,-2.66305,5.40584,-1.73441,-1.38655,1.35954,-0.50115,0.43293,0.05568,-0.30375,-0.29768,0.20637,-0.13816,0.01459,0.10119
746,-19.63965,7.74773,-5.95984,150.28845,61.82474,-2.1321,25.63944,-10.8228,-13.7626,-32.09266,104.49545,3.65863,0.86722,1.43245,0.39648,1.04715,7.58265,-0.95543,-42.47522,-50.9804,-27.73521,-34.57884,-7.09317,2.98977,3.2184,-0.42524,-1.64369,7.93293,-2.70078,1.05396,-1.3951,0.20253,0.7891,-0.21021,1.7489,-0.48412,-0.3797,0.02486,0.16869,-0.31528,-0.12032,-0.02428
747,-22.95593,6.35548,-2.79511,146.54765,63.91312,-1.60828,47.92891,-18.70258,-15.56509,-27.63134,100.04459,2.70876,0.92755,0.90387,0.49747,-0.26083,6.76823,-0.13214,-2.56963,-67.1228,-31.06132,-23.59493,25.21709,-3.93365,1.84791,0.7079,-2.61956,8.65294,-4.06036,-5.99315,-1.82553,2.21647,0.49295,1.41279,3.8179,-0.92695,-0.53663,0.55405,0.08706,-0.08478,-0.02379,-0.18927
748,-25.4861,5.5046,-0.83486,140.33263,68.32099,-1.64569,59.02958,-11.77542,-5.71,-16.57789,103.20937,6.14789,0.75776,0.33106,0.36489,-0.74323,5.62893,0.816,32.12123,-39.02882,-14.24318,-4.52315,40.38886,-14.05879,4.96721,0.64824,-4.34251,9.74539,-5.32486,-8.96853,-1.74096,2.58738,0.18829,2.28625,4.87501,-1.24931,-0.45667,0.72563,-0.0506,0.19252,0.23308,-0.28216
749,-24.47476,1.79711,3.38811,132.34882,70.52676,-1.42825,49.79858,-7.66507,5.47141,-9.84353,104.88408,10.02323,0.44371,-0.649,0.11759,-0.58794,4.65452,1.67617,35.42533,-10.52856,3.00587,12.94064,29.62756,-20.41026,8.9852,-0.51898,-4.73171,10.79228,-5.76909,-6.89515,-0.05711,0.77134,-0.372,1.6998,4.96105,-1.37983,-0.00416,0.38472,-0.17562,0.21787,0.52218,-0.2398
750,-19.98717,-3.47803,7.68533,125.33866,67.15519,-0.20501,32.48053,-11.66149,8.57472,-12.69257,94.08849,8.26432,0.21641,-1.74192,-0.18232,-0.88374,3.87146,2.25489,11.55957,-18.06496,2.08062,31.18276,7.43328,-16.88887,9.62514,-0.80094,-1.8706,12.34615,-5.74662,-3.13098,1.85084,-1.77849,-0.65283,1.24516,4.93791,-0.99327,0.38588,-0.08786,-0.17257,0.1913,0.67647,-0.07132
751,-17.3059,-4.17066,6.63442,121.31145,62.86425,1.31398,21.09501,-9.60203,10.15488,-16.48631,79.2496,3.1022,0.0676,-2.1478,-0.46228,-1.90802,2.97198,2.78584,-10.92876,-35.83196,-5.72416,35.11124,-9.18265,-3.40558,5.38418,0.44555,2.71642,13.93161,-5.43103,0.06169,1.85974,-2.93387,-0.11882,1.56985,4.77497,-0.62214,0.26618,-0.30396,0.00178,0.26727,0.6215,0.02829
752,-18.13386,0.92319,1.20319,117.66891,62.42923,2.05275,14.86794,2.18083,15.49639,-13.44186,72.71758,0.52733,-0.02263,-1.55755,-0.51614,-3.08945,1.72377,3.52783,-18.18629,-30.95013,-6.56398,17.62598,-5.14413,10.7181,0.17986,1.31663,4.6789,14.5867,-4.97303,2.01557,0.19418,-2.07288,0.83339,2.02527,4.28508,-0.76315,-0.16389,-0.2382,0.24449,0.37256,0.46327,-0.04074
753,-18.67599,5.8742,-2.5761,112.00736,63.21529,2.24597,9.60033,9.16867,14.17827,-5.41635,70.36327,1.1904,0.08408,-0.53424,-0.27993,-4.12971,0.16323,4.27167,-16.71304,-21.21842,-12.89515,6.46763,23.92559,17.27487,-0.25166,0.49733,2.39806,13.7125,-4.9873,2.28846,-0.83253,-0.65308,1.25703,1.82191,3.66367,-1.11226,-0.31226,-0.10923,0.36487,0.30579,0.3294,-0.13844
754,-16.93897,5.90092,-2.10247,105.73508,61.90503,2.64547,7.6112,3.77925,2.36288,1.3739,64.81672,2.59526,0.43227,0.03247,-0.03089,-5.15233,-1.25634,4.81985,-12.42141,-29.9014,-31.38881,25.20935,57.30095,18.45272,4.28426,-0.69445,-0.79891,11.39106,-5.63928,1.43624,0.24172,-0.34384,0.71798,0.93848,2.81628,-1.08858,0.05558,-0.10368,0.2641,0.05367,0.20694,-0.11609
755,-14.28944,3.98837,-1.14699,99.67956,57.76781,3.44763,13.04249,-3.27711,-0.08204,0.9199,54.54148,2.78935,0.91418,-0.07435,-0.026,-6.3354,-2.2,5.19456,-5.33493,-42.61362,-35.20648,52.64006,68.35851,16.00767,9.29013,-0.56196,-1.36567,8.16947,-5.99361,0.33967,2.21414,-1.36109,-0.14829,0.26313,1.6056,-0.54104,0.53795,-0.22469,0.04882,-0.13274,0.05599,-0.02463
756,-10.77509,4.85863,-2.63685,93.0784,52.41561,4.14542,26.96086,-3.53953,19.57674,-6.00809,45.68301,2.38938,1.56609,-0.39104,-0.13119,-7.67868,-2.7857,5.4998,7.78123,-35.4341,-5.49239,52.94672,54.7906,3.84893,12.71131,0.25921,-0.42442,4.9777,-5.25933,-1.24635,2.74709,-2.52339,-0.413,0.42931,0.654,0.00147,0.59942,-0.32639,-0.10332,-0.10841,-0.0396,-0.02438
757,-7.24363,7.32529,-4.29504,87.28477,49.08758,4.28376,42.84378,-1.28306,43.23487,-6.55879,47.44389,4.0231,2.2439,-0.56569,-0.12265,-8.83835,-3.23975,5.87448,31.46566,-9.56164,32.58298,24.67722,32.34458,-15.18113,14.70842,0.05916,-1.02126,3.32971,-4.18786,-3.0869,1.57451,-2.69404,-0.13186,1.00853,0.66206,0.00038,0.24931,-0.32044,-0.13325,0.02015,-0.02347,-0.10712
758,-7.27494,7.82195,-3.78972,82.90094,48.38313,4.00717,51.75722,-1.93,48.24069,4.834,57.2362,7.43676,2.44429,-0.56378,-0.03714,-9.63716,-3.67373,6.33501,60.02537,11.4701,46.2276,-1.71223,13.60901,-22.3298,12.82158,-0.75723,-2.5349,4.22141,-4.02577,-3.28661,1.12688,-1.92654,-0.47964,1.23924,1.37273,-0.39317,0.04348,-0.23026,-0.15737,0.10231,0.02872,-0.10931
759,-10.11243,5.27694,-1.90654,77.4337,47.51649,3.71387,50.22993,-4.72287,31.13488,14.81841,60.76999,8.82678,2.07691,-0.48074,0.0196,-10.49479,-4.11424,6.73907,75.18399,9.15964,31.35165,2.55854,4.26551,-8.85633,6.36771,-0.20361,-1.93174,6.78866,-4.79943,-1.16855,2.70909,-1.13049,-1.80213,1.22494,2.04327,-0.53975,0.27092,-0.10605,-0.26087,0.12449,0.04894,0.01732
760,-11.52625,1.27014,-0.3494,70.13603,44.46307,3.69239,37.46623,-5.36509,2.51716,10.83218,50.63913,6.79188,1.67039,-0.42257,0.07293,-11.8935,-4.57145,6.94849,58.64589,-7.59688,0.71467,33.68497,7.96719,8.38164,1.90534,1.9537,0.82676,8.62941,-5.27217,1.19612,4.34622,-1.01136,-2.60812,1.42006,2.29765,-0.28239,0.57477,0.00018,-0.335,0.1423,0.09003,0.10672
761,-10.51036,-0.76967,0.00673,64.45255,39.25446,4.32796,13.78731,-1.03743,-21.88174,-4.48636,30.64356,3.43596,1.56898,-0.30614,0.21583,-13.84462,-5.12546,6.91377,5.30403,-19.90239,-33.22111,56.69566,18.33056,10.76744,4.74312,3.35911,2.6074,8.13467,-4.5084,2.14642,4.01692,-1.49996,-1.73263,1.56677,2.09544,-0.10359,0.60017,0.01527,-0.25531,0.15351,0.20147,0.01991
762,-7.46638,1.69256,-0.34166,63.26522,33.77539,5.57751,-13.63111,6.07812,-28.86289,-20.33156,8.74033,0.35562,1.53441,0.07663,0.56829,-15.94397,-5.81695,6.76606,-63.37815,-26.27161,-55.19973,48.79043,12.52349,1.18302,11.06961,1.94727,1.52944,6.70009,-3.73933,2.03897,2.54354,-2.1415,-0.00971,1.44251,1.68807,-0.10233,0.48715,-0.1126,-0.05692,0.15461,0.3041,-0.11503
763,-0.97427,6.04398,0.11162,64.03138,31.95984,6.07542,-25.58247,10.13844,-18.95056,-27.147,-1.27528,-0.85493,1.67117,0.48713,1.15551,-17.65986,-6.44572,6.81264,-96.99795,-30.12447,-50.9464,30.81028,-19.06503,-5.09062,14.7719,-1.06221,-0.88272,6.71984,-5.16582,1.11416,2.0828,-2.73566,0.89828,1.46987,1.45485,0.1705,0.51727,-0.29849,0.08678,0.17276,0.2583,-0.05755
764,6.60612,7.24745,1.54093,61.52599,31.7143,5.55649,-10.68802,9.4041,-5.81864,-21.64976,1.26667,0.54479,2.38275,0.38332,1.66438,-18.92354,-7.05234,6.90082,-67.49253,-30.45342,-29.11299,34.7919,-43.36687,-0.7466,14.16666,-2.24627,-1.27875,7.73104,-7.95355,-0.92932,3.14899,-3.39289,0.43902,1.70972,1.49856,0.48773,0.63432,-0.39303,0.05434,0.1636,0.0673,0.12981
765,8.9373,5.60762,2.44124,54.91253,25.70209,5.82005,8.7542,9.01017,0.42625,-10.07467,-1.17798,1.9161,3.09965,-0.1126,1.64145,-20.38034,-8.07549,6.47348,-20.58432,-25.38499,-13.0222,59.91035,-24.43894,6.70732,10.46461,-0.13114,1.54713,7.41592,-8.52838,-3.18855,4.58186,-3.92364,-0.71149,1.91516,1.58944,0.36429,0.65279,-0.36719,-0.08913,0.11597,-0.07665,0.16063
766,6.2235,5.16729,2.56751,52.14293,19.01111,6.54836,0.81768,12.91345,0.72443,6.84328,-1.56799,2.44507,2.99325,-0.35326,1.10043,-22.23133,-9.249,5.80496,-9.62452,1.80351,-8.40656,80.49378,20.56397,5.42837,7.16749,3.19669,4.98354,5.3348,-6.12661,-4.4284,5.51555,-4.06213,-1.64691,2.08014,1.37525,0.26797,0.64772,-0.3169,-0.20316,0.06737,-0.10135,0.01768
767,5.43265,7.6261,3.47427,57.53298,20.21975,6.15553,-32.20325,17.62252,2.45805,27.80104,11.36688,3.93466,2.40925,-0.14983,0.67056,-24.0154,-9.86153,5.54346,-31.41739,43.32891,-1.29438,79.34796,50.45202,-5.39795,8.48604,4.92354,5.68594,3.44686,-4.05677,-5.2342,5.68326,-3.82307,-1.83845,2.09707,1.09027,0.36439,0.68855,-0.24506,-0.23995,0.00907,-0.06086,-0.13207
768,10.3043,11.55438,6.37534,62.7313,22.13289,5.96335,-60.95884,16.91755,8.84095,35.14388,13.66272,6.12492,2.18074,0.11646,1.0229,-25.69363,-10.05069,5.43075,-62.016,47.9936,17.48142,65.0117,51.65232,-14.08914,13.17422,4.20398,3.13072,3.33033,-4.5065,-6.39985,5.10942,-3.23676,-1.47714,1.9213,1.27024,0.06678,0.68938,-0.08986,-0.24835,-0.036,0.02318,-0.22188
769,17.20811,11.72736,8.8544,65.0063,18.13528,7.40796,-69.41915,9.50168,9.36293,30.7946,-2.14634,7.71809,2.20459,-0.0285,1.79426,-27.15283,-10.22282,5.06726,-73.84466,8.14,35.92474,68.4891,32.75332,-10.70488,15.23376,2.29921,0.74885,3.84786,-5.57774,-7.62613,4.73825,-3.05509,-1.08796,1.78087,1.72737,-0.44453,0.73394,-0.07057,-0.21943,-0.03638,0.13073,-0.27342
770,19.58311,4.84526,6.10471,67.22916,11.94224,9.12692,-72.73999,-0.29104,-5.24125,25.20452,-17.27994,7.69912,1.58785,-0.54216,1.82423,-28.32776,-10.51877,4.477,-73.95362,-35.17507,39.36636,103.69062,19.58082,-2.0961,11.94001,1.34958,2.12052,3.17251,-4.65058,-9.43054,5.37232,-4.03252,-1.0153,2.21011,1.9698,-0.12281,0.89977,-0.39928,-0.1282,0.08407,0.25588,-0.27721
771,15.87417,-0.75081,1.9728,71.05437,7.82891,9.88953,-92.00376,-7.12788,-18.113,24.38848,-24.35397,6.32875,0.09115,-0.94464,1.42791,-29.44062,-11.00339,3.78882,-84.92875,-56.7724,41.85191,136.436,43.24149,-6.66883,6.95879,2.04333,4.93292,1.41659,-2.10668,-12.79713,6.01212,-4.77998,-1.51095,3.27792,1.85209,1.32582,0.96081,-0.69131,-0.11032,0.3593,0.34241,-0.13878
772,4.77631,4.70823,8.42546,75.67937,6.19455,9.85871,-136.01613,-14.06067,-0.0781,32.17287,-26.06062,5.34836,-1.71351,-1.109,1.97112,-30.53959,-11.63665,3.15553,-115.04781,-60.93806,75.8346,138.31264,77.68556,-25.99008,5.43085,3.08733,4.6848,-0.33923,-0.02069,-16.97051,5.20904,-3.80807,-1.98947,4.19437,1.43729,3.06285,0.74476,-0.54652,-0.182,0.63488,0.30102,0.19849
773,-22.09608,13.3299,21.84048,79.69052,6.41169,9.24975,-193.58049,-27.55257,38.96409,45.58901,-20.02138,6.27409,-3.20523,-1.02657,2.65948,-31.38614,-12.21013,2.7102,-158.00589,-57.44718,127.11342,131.46144,51.48735,-36.4437,8.13208,3.72792,2.51187,-1.71573,1.04486,-20.38722,3.59607,-2.38994,-1.5406,4.36945,0.96418,4.13893,0.49095,-0.23703,-0.18067,0.75046,0.19976,0.547
774,-68.81506,10.09058,19.07411,83.57555,8.45118,7.99803,-228.35767,-38.42804,48.60779,57.37994,-2.96058,9.00252,-4.44261,-0.35472,1.35094,-31.94927,-12.54933,2.44155,-189.33878,-39.61579,125.17402,138.22008,-36.32335,-23.48977,11.42314,4.1434,1.78758,-2.70196,2.03966,-23.28168,2.78678,-2.15687,-0.62736,4.04273,1.05166,3.61468,0.42399,-0.11161,-0.1096,0.72972,0.26333,0.45231
775,-117.88003,-3.98498,-8.93932,88.81438,10.86225,6.73007,-207.03783,-29.96921,5.64361,65.49454,17.49001,11.85313,-5.84664,0.88747,-1.761,-32.42983,-12.77636,2.20759,-178.76422,-1.47426,34.45026,147.80603,-101.99338,-3.26988,12.32877,3.62211,1.85713,-3.30017,3.38108,-25.79655,3.03855,-2.73394,-0.37606,3.6142,1.73916,1.69415,0.40892,-0.08563,-0.07733,0.66074,0.50383,-0.15276
776,-138.56956,-16.27596,-43.23317,96.1531,12.13369,6.18818,-132.68102,-2.93418,-59.60981,76.07345,29.28511,12.67387,-6.80164,2.25018,-4.53398,-32.88053,-13.00746,1.99343,-110.35658,37.15723,-97.02538,143.36131,-94.80198,1.82654,11.1597,1.58971,0.64731,-3.43707,4.08093,-24.97015,3.55081,-3.15197,-0.84163,3.17101,1.87641,0.87979,0.30766,-0.05942,-0.05334,0.55754,0.60257,-0.50511
777,-121.2721,-19.20582,-58.79271,104.10548,12.63228,6.24407,-50.47443,20.998,-97.29365,90.31902,29.37939,10.56754,-6.63672,2.91157,-5.37557,-33.30153,-13.03962,1.98082,-16.49625,47.49374,-181.92868,125.91618,-47.14799,-10.02657,9.63212,-0.52687,-1.00918,-2.86447,3.31779,-19.19161,3.73484,-3.26669,-1.26281,2.78654,0.89009,2.60934,0.21402,-0.12591,0.01353,0.42486,0.36864,-0.094
778,-80.31033,-14.56572,-48.3343,110.85572,13.13942,6.58624,5.10043,26.47664,-85.26474,101.19292,24.48471,7.30941,-5.05816,2.13954,-4.1568,-33.6503,-12.62941,2.30858,56.97057,28.44344,-175.92043,116.46341,-2.50638,-24.5854,8.52803,-1.38461,-2.47908,-1.419,1.70673,-12.20432,3.38281,-2.84409,-1.59263,2.82826,-0.13515,4.82983,0.21318,-0.19748,-0.01579,0.34566,0.03689,0.53153
779,-34.34015,-7.32489,-23.46868,117.01942,13.04227,7.68653,35.93595,19.0821,-43.11637,106.29139,19.60664,6.00985,-2.06966,0.42325,-1.75035,-33.74366,-11.82884,2.8977,98.13436,4.16928,-108.42265,123.25566,50.41391,-30.87564,8.72559,-1.94857,-6.30975,0.19378,0.33945,-7.44292,2.47738,-1.42192,-2.26958,3.03738,-0.32812,5.11173,0.23781,-0.05037,-0.27774,0.2997,-0.09845,0.66161
780,2.77224,-1.768,-1.36004,124.13277,12.40844,9.7115,59.75688,12.65779,-7.10305,110.26983,13.76556,7.30391,1.10369,-1.07556,0.6925,-33.40737,-10.81514,3.63201,125.36726,-10.76468,-43.9727,124.13519,126.04523,-27.80546,11.14392,-3.0758,-12.75499,1.02752,-0.75824,-3.8172,1.34505,0.33328,-2.82285,2.52643,-0.10567,3.66905,0.24351,0.20988,-0.60956,0.1896,-0.05168,0.39002
781,24.02964,0.46768,9.67221,131.86197,13.21009,11.66269,89.74039,12.58793,8.30083,118.2921,4.07916,8.83937,2.81,-1.78014,2.27286,-32.53205,-9.74163,4.47559,164.44336,-29.24288,-18.43318,110.80347,161.30762,-19.41726,12.85444,-3.44783,-15.62047,0.79467,-2.01754,-1.34965,0.49409,0.99824,-2.23367,1.41936,0.05501,2.20345,0.25826,0.21686,-0.63564,0.10142,0.02928,0.23726
782,29.6367,1.64571,14.86412,138.25076,16.56249,12.61463,114.74451,13.12205,19.42643,131.70209,-8.31176,9.16804,2.85052,-1.74193,2.68233,-31.16835,-8.81519,5.35384,211.52731,-61.31422,-10.89031,100.99569,95.73425,-9.73907,9.04857,-1.92901,-10.11572,-0.00616,-2.81803,-1.84766,-0.02469,0.61886,-0.59132,0.92034,0.17541,1.78701,0.18908,-0.00718,-0.23656,0.18585,0.10265,0.31993
783,25.37752,4.47608,22.27946,142.7468,21.17992,12.67339,108.5203,7.28027,44.03678,144.29649,-14.98163,8.86287,2.30432,-1.24393,2.25476,-29.52126,-8.17552,6.13938,225.99193,-83.89788,18.534,91.55008,0.55021,0.81834,1.78612,0.45237,-0.52716,0.10073,-2.75024,-2.10978,-0.0329,0.10066,0.47537,1.49682,0.18576,2.37467,0.03431,-0.11768,0.17588,0.34098,0.14655,0.32784
784,18.15453,7.21396,27.95348,145.9521,25.38198,12.19007,73.50687,-2.0422,70.04695,145.70071,-6.84394,8.46623,2.11031,-0.51193,1.50639,-27.68207,-7.72545,6.75504,187.1012,-67.44736,62.63101,58.52126,-19.31177,10.16078,-1.41863,2.11852,5.85779,2.32344,-3.70295,3.16955,0.6874,-0.92052,0.07271,2.49271,-0.09036,3.48445,-0.0642,-0.13487,0.24895,0.30976,0.08326,0.2169
785,12.05659,5.59251,18.77823,148.56467,28.90065,11.3696,47.56518,-2.58432,59.10615,137.7282,12.87246,8.46379,2.47667,0.27072,0.65495,-25.47087,-7.22093,7.21849,139.3167,-22.66575,59.97242,9.81877,4.77438,11.28539,0.87318,2.51946,7.13169,5.51209,-7.16087,11.15483,1.40624,-2.51605,-0.71379,3.58291,-0.47598,4.61398,-0.1133,-0.26871,0.13916,0.17741,-0.07846,0.33434
786,7.05369,-0.38536,-8.23004,150.19856,31.59645,10.71613,52.38235,11.82686,-9.02688,131.75436,28.95279,9.55361,2.77527,0.993,-0.49814,-22.60336,-6.44974,7.59857,136.31319,10.18641,-25.44415,-8.10682,-8.24444,5.24634,2.85965,1.67877,5.15098,6.67864,-10.42486,13.13136,1.30999,-3.07394,-0.82283,4.39564,-0.54633,4.4779,-0.16848,-0.41431,0.11065,0.22194,-0.17802,0.57287
787,-0.35095,-4.90579,-31.84905,151.24644,33.0056,10.65382,62.49535,26.82448,-82.59612,134.22839,33.35354,11.28873,2.13378,1.36172,-1.48189,-19.13991,-5.36138,7.8948,165.79773,9.10495,-121.66341,18.24758,-37.75638,5.29833,1.00286,-0.16353,1.68546,5.49615,-11.31807,9.14539,0.29514,-1.67253,-0.08116,4.31864,-0.19532,2.33342,-0.2619,-0.35168,0.23974,0.34356,-0.12535,0.41414
788,-10.50208,-4.69629,-32.05329,151.97336,32.68257,10.99798,55.75246,26.72688,-92.14178,138.60252,31.03592,12.35927,0.44059,1.18687,-1.55589,-15.70406,-4.20396,7.96236,185.91394,-15.31232,-132.54747,39.12651,-30.74602,19.06684,-1.98838,-2.19596,-1.96117,5.51568,-12.78158,8.66785,-1.00064,0.36103,1.00627,4.32802,0.11971,0.31329,-0.37077,-0.12626,0.38724,0.45282,-0.04512,0.03149
789,-18.58241,-2.24415,-17.26607,150.62277,31.65238,10.96928,44.18236,16.45424,-44.83224,133.64651,31.78201,12.25011,-1.41418,0.83201,-1.0495,-12.72087,-3.26526,7.77089,182.55963,-34.45271,-66.8356,23.35461,0.9163,39.07987,-1.915,-2.99703,-4.7198,8.24281,-16.5542,15.14675,-1.53954,1.35507,1.29579,5.69128,-0.14002,1.42611,-0.38087,0.11245,0.31784,0.72164,-0.06561,0.1989
790,-21.64665,-0.61348,-7.40881,146.02696,31.61071,10.11236,39.9336,9.21781,-3.12075,119.77001,39.75687,11.45379,-2.24637,0.71442,-0.67158,-9.80381,-2.56885,7.47907,163.14941,-29.40476,-7.98626,3.37405,21.16069,52.187,0.99532,-1.8855,-5.45793,10.4941,-19.3707,20.9818,-0.88207,1.12645,0.24025,7.51907,-0.80988,5.04295,-0.24065,0.30577,0.02133,1.08565,-0.13692,1.01566
791,-24.33306,-0.88554,-9.60189,138.74974,32.62515,8.75903,34.8009,8.47479,-4.62912,106.88805,49.51871,10.27418,-2.15375,0.81459,-0.7374,-6.54328,-1.93596,7.17932,136.57138,-12.03317,-8.92842,5.62421,12.9465,53.86825,2.50165,-0.15805,-3.07743,10.10128,-19.30959,20.43413,0.31546,0.16936,-1.07658,8.19587,-1.15621,6.9548,-0.0456,0.29952,-0.21349,1.24923,-0.153,1.57363
792,-32.73453,-2.47301,-16.1176,130.81528,33.69084,7.5659,19.15848,8.59229,-29.99357,102.469,53.70513,8.94976,-2.55189,0.8406,-1.11508,-3.27662,-1.15499,6.84483,113.18375,-7.86181,-45.64521,12.96231,-24.76934,49.50395,1.50649,0.84765,1.39713,9.09848,-18.43124,17.07503,1.03041,-1.1303,-1.1353,7.70597,-0.91412,5.06315,0.0736,0.00629,-0.15461,1.17587,-0.11719,1.23551
793,-44.9438,-3.65709,-16.58886,124.05822,33.49597,7.13242,-2.25809,5.08805,-37.55373,103.55721,49.06506,8.30142,-3.94924,0.63701,-1.35455,-0.59072,-0.19371,6.41997,95.9289,-21.29185,-60.42152,8.24077,-60.79716,42.51687,2.14317,1.71601,4.79664,8.78631,-18.20535,15.07242,0.88477,-2.2213,0.31843,6.82417,-0.49795,1.93855,0.04957,-0.31265,0.15649,1.02705,-0.08139,0.49346
794,-53.68828,-3.26226,-10.78117,117.87666,31.45944,7.34098,-21.97397,0.01481,-18.93872,99.76795,39.30396,8.37466,-4.99099,0.4221,-1.2328,1.36361,0.71541,5.86345,69.10347,-28.46353,-38.83609,-5.59212,-39.10304,34.15245,5.96272,3.03703,5.84969,7.95543,-18.67125,13.66858,0.27217,-2.86057,2.26944,6.23495,-0.31205,0.57221,-0.11893,-0.42864,0.54848,0.92232,-0.06017,0.1507
795,-56.31863,-1.87303,-4.47456,110.11495,28.35898,7.43836,-43.65731,-2.81663,2.05585,87.9321,30.67392,8.06687,-4.57295,0.31993,-0.78391,2.64406,1.26394,5.17894,20.78135,-14.36583,-11.66875,-19.75333,44.11966,29.45045,8.27743,3.66766,5.75124,6.84185,-19.79292,12.42134,-0.00161,-3.14586,3.03737,6.27056,-0.40058,0.81897,-0.2597,-0.43084,0.73144,0.88287,-0.07057,0.30497
796,-53.00897,-1.01028,-1.5677,101.23776,26.18969,7.03776,-61.57002,-1.68902,3.69796,80.1965,24.96098,7.19516,-3.11768,0.14359,-0.2101,3.41426,1.44546,4.53173,-14.37748,1.78896,-9.71932,-20.14071,109.90096,28.5872,5.6036,2.80865,4.76383,6.99472,-20.5974,12.13513,0.62952,-2.71848,1.44362,6.73049,-0.59559,0.94659,-0.12478,-0.37098,0.44273,0.8886,-0.13035,0.49361
797,-42.00428,-1.37593,-1.87038,93.07547,27.17353,6.18122,-54.08191,1.41186,-9.8761,80.71569,23.23687,6.52526,-1.27082,-0.15989,0.19536,3.9868,1.57019,4.21572,3.66317,-2.19323,-28.31232,-1.22241,89.18536,24.13552,1.96061,1.50287,2.88907,7.68102,-19.43076,11.18062,1.87611,-1.9852,-1.27017,7.04512,-0.68675,0.34925,0.2396,-0.26656,-0.09719,0.90006,-0.19205,0.41313
798,-26.06079,-1.77977,-1.95519,86.58631,31.76957,4.89514,-23.78781,2.12369,-16.59519,76.87707,30.73729,5.84837,0.54979,-0.39079,0.31103,4.53366,1.83144,4.31653,46.84868,-13.04997,-34.74772,13.40306,8.4132,13.71093,3.11696,1.04443,0.98188,7.03014,-16.28718,7.6472,2.74422,-2.05796,-2.4194,6.7888,-0.49915,-0.59602,0.50345,-0.24945,-0.38127,0.86093,-0.17786,0.10751
799,-13.46556,-1.62802,-1.76803,79.58482,34.79195,3.75195,-0.47068,-0.08913,-12.53762,57.50656,39.64623,4.39814,1.75094,-0.31303,0.03963,5.07851,1.94487,4.36841,53.03627,-13.36785,-20.95967,0.9162,-52.03609,3.69329,8.14771,1.6181,-0.61186,5.46715,-13.1264,3.37556,2.20436,-2.42561,-1.07375,6.24296,-0.12347,-1.37445,0.39928,-0.23916,-0.25992,0.79781,-0.09633,-0.17932
800,-8.72248,-1.32889,-2.06316,71.4397,33.58741,3.18873,2.24933,-1.29511,-7.51679,36.75238,40.44081,3.27167,2.03975,-0.05674,-0.39081,5.73066,1.78878,4.05598,26.15467,-4.28473,-5.55446,-21.10863,-54.47874,1.46316,11.10834,2.30719,-1.41627,4.7375,-11.21507,2.31107,0.66564,-2.1027,0.96242,5.69936,0.07176,-1.12984,0.05015,-0.12062,-0.01242,0.7592,-0.03237,-0.1625
801,-9.20616,0.93859,0.1636,65.17666,32.84885,2.87252,-4.12242,1.33203,0.3656,35.05322,37.82413,3.43332,1.70823,0.06834,-0.28428,6.29986,1.76384,3.6973,15.72898,7.66512,3.98998,-21.85409,-26.26061,7.63938,8.47389,2.1907,-0.46188,5.22165,-10.27529,5.53381,0.05671,-1.6331,1.20992,5.01097,-0.08596,0.44178,-0.12579,-0.05959,0.06736,0.72102,-0.01992,0.18271
802,-11.50997,6.13093,5.04006,61.96076,34.04622,2.69877,-10.24663,6.03905,13.2173,45.74581,33.20728,3.24065,1.25251,0.04989,0.45865,6.42086,2.06958,3.51534,24.68391,11.51989,8.29915,1.41358,-6.5353,15.05298,2.78443,1.74214,2.3594,5.67459,-9.33045,9.11476,1.49544,-2.0792,-0.80519,4.24111,-0.29968,2.16892,0.13087,-0.23535,-0.08852,0.70038,-0.00872,0.56515
803,-13.36348,10.15147,7.61622,59.86516,33.97443,2.7806,-12.87757,8.17953,21.25298,48.81507,26.33353,1.85082,1.14764,-0.00772,0.9732,6.35966,2.53425,3.3776,24.12899,4.62651,4.99705,33.29954,-2.77656,17.21179,-0.46837,2.19536,5.50931,5.10953,-8.00592,8.42786,3.84858,-3.37501,-3.11179,4.03056,-0.25279,2.6742,0.63092,-0.54288,-0.33849,0.81645,0.03489,0.68953
804,-12.85592,7.89613,4.94288,57.00465,32.9546,2.74652,-7.60039,5.13456,15.5816,39.36379,27.49481,1.0459,1.46595,-0.17974,0.60511,6.7785,3.11152,3.25847,14.5046,2.10134,-3.36066,54.51411,-0.29563,13.64705,1.4507,3.04315,6.01327,4.19383,-7.27221,4.17622,5.0375,-4.3524,-3.65977,4.6578,-0.01383,1.7694,0.92783,-0.71104,-0.47482,1.01363,0.07405,0.42265
805,-11.16433,1.7552,0.76587,54.31927,33.22794,2.4294,2.89376,0.47272,4.05615,29.72933,39.75822,1.91627,1.67753,-0.42752,-0.07591,7.74247,3.81149,3.17358,17.99967,11.90888,-4.50532,43.74788,3.681,6.75494,6.45534,2.66529,2.60858,3.70849,-7.37455,0.82913,4.08803,-4.10968,-2.20149,4.92091,0.18535,0.15376,0.73186,-0.59054,-0.36671,0.9226,0.06723,-0.18075
806,-11.00578,-1.24832,-0.64434,53.77932,34.75214,2.1473,8.13713,-0.07778,-1.45063,28.95734,51.09879,3.23966,1.45881,-0.45216,-0.22647,8.66961,4.53908,3.02497,34.08646,23.13523,4.15051,5.31561,-2.75513,1.16451,9.79217,1.54907,-1.11133,3.2254,-7.3362,0.47983,1.97233,-2.99292,-0.01769,3.83868,0.22899,-0.96637,0.19962,-0.30133,-0.0614,0.4211,0.03487,-0.69799
807,-11.98921,1.30696,0.36383,54.72417,36.02492,2.05528,4.39371,3.89038,-1.19256,31.44767,51.45566,3.24751,1.23467,-0.14052,0.15395,9.2697,5.18873,2.73913,39.1392,22.9377,6.79023,-17.80589,-14.00366,1.31258,8.55735,1.50348,-1.30903,2.37685,-7.19822,1.40358,0.75798,-1.97527,0.85588,2.48232,0.16294,-0.71088,-0.1206,-0.0892,0.12084,-0.0271,0.01695,-0.61846
808,-9.34395,7.03268,1.45439,54.33478,35.25626,1.97531,4.44892,8.8548,-0.54811,26.53031,40.77615,1.07259,1.69084,0.27525,0.60121,9.91912,5.66856,2.29615,27.98981,6.94954,-5.42772,0.89096,-6.76077,4.26849,5.75851,2.20809,0.37502,1.65572,-7.30511,1.66338,1.43144,-1.82697,-0.12547,1.94132,0.11297,0.08886,0.08975,-0.0998,-0.01737,-0.06126,0.00488,-0.0861
809,-1.53942,12.4203,1.14808,51.38847,32.12921,1.71975,16.63112,12.40232,-1.26815,12.0899,27.44781,-2.22469,2.78779,0.5045,0.73249,11.08273,5.96884,1.74972,16.26888,-14.68429,-18.94059,28.62263,18.27942,2.13644,6.8617,1.76118,-0.65685,1.54089,-6.61454,1.59459,2.63729,-2.32829,-1.10923,1.67648,0.11349,0.04561,0.43888,-0.21953,-0.20659,0.10453,-0.02132,0.22673
810,5.55413,14.34873,-0.44754,47.98722,29.39922,1.3687,28.42387,13.22622,-0.11999,-2.41309,23.51638,-3.74518,3.64699,0.36566,0.43446,12.64161,6.26843,1.2996,10.76115,-21.92093,-16.19805,24.81522,29.51702,-4.37471,10.97195,0.16567,-4.31868,1.86065,-4.54046,2.12894,2.51786,-2.4677,-0.64685,1.2945,0.02128,-0.26064,0.3857,-0.22709,-0.13467,0.19348,-0.05033,0.11757
811,6.96167,10.52493,-1.73533,46.49328,30.2665,1.16134,27.96902,8.6005,4.61467,-6.63449,33.70594,-1.60284,3.67887,-0.19625,-0.00463,14.00121,6.77483,1.15714,8.02237,-9.8102,-0.66032,2.33494,12.95739,-4.45413,10.71704,-0.59274,-4.67209,2.18901,-2.45315,2.49279,1.38647,-2.10558,0.45216,1.61807,-0.22237,0.77543,0.03148,-0.17221,0.14701,0.30594,-0.05878,0.06494
812,2.92988,2.20038,-0.90532,46.98915,33.81514,1.19499,19.9604,-2.77257,5.78472,0.77673,48.67749,2.5056,3.01418,-0.85154,-0.10102,14.86249,7.35175,1.22142,9.31815,2.09437,5.32765,-7.82729,-7.11041,3.71717,3.89661,0.16816,0.2904,2.0489,-1.43084,1.2385,1.009,-1.94648,0.55377,2.67207,-0.37585,2.68771,-0.0723,-0.23243,0.27813,0.51999,-0.029,0.31891
813,-4.47918,-3.30502,1.25349,48.67479,36.56578,1.29605,15.29866,-14.3751,-3.14013,12.33558,56.4215,5.15629,1.9298,-0.85368,0.28221,15.42846,7.62506,1.14795,17.30555,-2.3543,-10.92841,-8.69701,-9.81987,7.27819,-0.88087,1.137,4.0905,1.21832,-1.10202,-1.06554,1.75908,-2.21877,-0.26541,2.93682,-0.20272,3.14414,0.23022,-0.3579,0.05114,0.56421,0.03036,0.46536
814,-11.70135,0.19903,1.14094,50.5189,36.7449,1.24388,20.19201,-15.95252,-14.07299,17.20829,53.84925,4.72889,0.82845,0.025,0.66363,15.97011,7.51282,0.76045,26.88266,-18.49919,-33.83833,-9.34936,-3.3669,-1.24939,3.47617,1.44813,1.59232,0.47206,-1.76071,-2.48419,2.54942,-2.58526,-0.70769,2.08468,0.20278,1.41344,0.57211,-0.40332,-0.3013,0.33862,0.08291,0.19516
815,-13.0312,8.9158,-2.81882,51.21102,35.83315,0.97615,34.03011,-5.20621,-9.76962,12.24732,47.75947,2.60335,0.47687,0.83306,0.52209,16.67654,7.39793,0.25742,35.84023,-29.08904,-33.0349,-0.19865,-2.67239,-12.2255,11.78951,1.72074,-3.09005,0.51704,-3.60019,-1.78196,2.85684,-2.90854,-0.21184,1.22812,0.38139,-0.15717,0.67144,-0.41034,-0.32554,0.07096,0.07046,-0.08987
816,-6.80488,14.05885,-7.57646,50.35036,36.00819,0.5392,46.41711,10.72174,12.39865,3.79402,47.51295,1.00815,1.21953,0.59645,0.00096,17.68223,7.64961,-0.08415,41.88295,-19.14269,-1.86878,11.91563,-10.18668,-13.4669,14.73228,2.26854,-3.81855,0.93852,-4.72364,1.04979,2.8891,-3.10278,0.74102,0.72402,0.00526,0.48801,0.56795,-0.44761,0.0941,-0.10423,-0.02472,0.04388
817,2.30376,12.25182,-9.28886,48.65296,36.81601,0.02911,45.38868,20.74274,29.4338,-4.40648,53.30212,0.17951,2.50261,-0.30127,-0.30494,18.86423,8.21286,-0.27082,32.10022,2.66593,25.24114,5.19452,-16.18013,-3.96498,10.01338,2.42771,-1.07927,1.50858,-3.9666,4.70644,2.62336,-2.6634,0.83531,0.48846,-0.53384,2.30329,0.36401,-0.37116,0.42057,-0.14843,-0.11278,0.405
818,9.66557,8.73541,-9.0087,47.95026,38.22952,-0.35166,30.8068,21.94606,26.56337,-12.04762,60.51477,-0.39971,3.51981,-0.59402,-0.17461,19.77658,8.92366,-0.36626,2.66784,21.26028,23.81539,-8.44432,-6.56354,10.00697,1.97946,1.91845,1.61237,2.37847,-2.92971,6.64223,2.13911,-1.69649,-0.54778,0.78566,-0.51403,2.98516,0.13415,-0.1316,0.23596,-0.01445,-0.08236,0.57513
819,14.05152,7.58821,-9.48717,49.76523,40.99621,-0.41015,18.01229,20.7581,17.84099,-16.15867,65.41459,-0.58323,3.85945,-0.06671,0.12442,20.17553,9.68368,-0.40819,-20.96927,31.88957,13.07283,6.37119,17.13893,21.3667,-4.28736,1.22685,3.11693,2.99204,-3.26358,4.95144,1.88023,-1.08967,-2.24306,1.49408,0.18849,1.92257,0.00896,0.04847,-0.17785,0.18928,0.05598,0.4585
820,14.57819,6.08535,-8.66797,53.29009,43.69127,-0.24255,24.10837,18.58886,18.19849,-14.70577,65.67458,-0.35741,3.63391,0.21624,0.49736,20.37847,10.31631,-0.56424,-10.79272,27.49078,16.21684,45.56898,27.06707,24.50009,-5.46785,0.78299,3.39495,2.87905,-4.93191,1.00399,2.4841,-1.55984,-3.06356,2.20103,0.83368,0.6909,0.21254,-0.06924,-0.45541,0.28601,0.14208,0.29611
821,9.99834,2.66785,-4.30817,55.44219,45.81209,-0.26473,44.02026,10.76246,21.09123,-13.76633,66.35189,0.05963,3.13435,-0.20765,0.93112,20.60448,10.76661,-0.86668,16.46667,6.11102,23.85949,60.75655,5.81514,16.17063,-0.43792,0.33825,1.21151,2.88843,-7.076,-1.66201,3.41481,-2.50517,-2.73231,3.07973,0.69595,0.88168,0.59383,-0.34268,-0.5142,0.34292,0.04787,0.2861
822,2.44678,0.21689,0.5665,53.58631,48.08828,-0.74784,55.46002,-3.98215,12.40137,-22.07046,70.26986,-0.20087,2.6259,-0.60225,1.12387,20.85245,11.18915,-1.16416,17.43533,-28.11056,11.32022,30.66512,-15.34692,-1.35974,8.5734,-0.59693,-3.51689,3.4286,-8.09976,-1.72282,3.42347,-2.85028,-1.45002,3.93245,0.01331,1.93786,0.68429,-0.44709,-0.34789,0.45658,-0.11969,0.30072
823,-2.41079,1.79594,0.24476,49.90776,50.0243,-1.34058,48.63855,-15.29556,-4.79068,-34.63968,70.67278,-1.76235,2.40046,-0.22041,0.81975,21.47961,11.77099,-1.37776,-11.25296,-61.62652,-19.94562,-3.19906,-0.2721,-17.05356,14.89702,-1.21796,-6.90121,3.32785,-6.79405,-0.79872,2.57974,-2.51865,-0.05651,3.65816,-0.4032,2.11063,0.41179,-0.33394,-0.04832,0.46844,-0.15604,0.13351
824,-1.09728,6.40402,-6.40989,48.75236,50.23282,-1.64469,38.37677,-11.48269,-13.95492,-40.16994,62.61004,-4.61678,2.60924,0.59297,0.27502,22.46987,12.44478,-1.62473,-31.8935,-74.08323,-41.21839,5.86264,32.40028,-18.96234,12.7959,-0.20501,-5.40587,2.3189,-4.35276,0.21135,2.02918,-2.07743,0.21482,2.12103,-0.25435,1.133,0.14448,-0.18501,0.1096,0.29182,-0.04158,-0.10403
825,4.2326,9.00335,-12.62164,49.52105,48.64192,-1.92206,42.79772,0.82384,-8.14068,-41.17652,52.82253,-8.31782,3.0217,0.79986,0.04217,22.87717,12.88887,-2.0169,-26.05512,-62.43896,-34.52733,45.0315,42.08056,-8.71046,5.62418,1.5513,-1.5255,2.20549,-3.53648,1.57504,2.28875,-1.80949,-0.86061,1.0558,0.27286,0.25511,0.12504,-0.0943,-0.03227,0.1597,0.1053,-0.13524
826,9.85948,7.16635,-13.1747,49.46722,47.7685,-2.39812,59.20144,9.96636,5.14583,-42.36166,53.74278,-10.27959,3.22946,0.22838,0.23038,22.2815,12.99006,-2.39191,-5.20795,-33.37213,-8.89686,60.24917,23.09228,1.65129,1.69038,1.75529,-0.06311,3.82658,-5.0955,2.409,2.6682,-1.61633,-1.89512,1.70604,0.9533,0.19744,0.21669,-0.03216,-0.2562,0.25549,0.19636,0.06402
827,13.50974,3.98991,-10.72487,48.21762,49.60151,-2.80297,70.17596,16.82773,15.0636,-40.40976,67.03408,-8.42891,3.05496,-0.26603,0.45044,21.41079,12.94196,-2.51967,15.0974,6.4445,14.22463,29.91463,-0.48952,4.8503,3.21665,-0.10303,-1.34181,5.24615,-6.79781,1.31714,2.55822,-1.60784,-1.61757,2.94245,1.43832,0.34631,0.27008,-0.06104,-0.27231,0.39864,0.19918,0.19782
828,12.05156,2.61399,-8.10853,46.66684,52.10326,-2.94498,64.3066,20.53069,16.4774,-36.21501,79.88673,-5.00834,2.55933,-0.26204,0.48568,20.86255,12.85578,-2.52462,18.87037,32.27076,20.17468,-10.08375,-4.84118,1.21522,5.95168,-2.38683,-2.29442,4.33299,-6.73974,-1.4769,2.39934,-2.11228,-0.43822,3.06936,1.28421,0.30333,0.33439,-0.257,-0.06861,0.33642,0.10658,0.12193
829,5.07265,3.06113,-5.35746,44.96199,52.02946,-2.97328,49.45571,15.84228,13.00949,-38.77844,82.22881,-3.02429,2.04618,-0.16267,0.50032,20.52729,12.68259,-2.71919,-1.19518,23.60666,15.54622,-17.61676,14.88086,-6.71733,6.91044,-3.28338,-1.77639,2.011,-5.84428,-4.50588,2.74686,-2.90377,0.35885,2.40071,0.74642,0.39626,0.43034,-0.47079,0.13662,0.16316,-5e-05,0.00592
830,-1.5729,4.39678,-3.8093,43.29652,50.27848,-2.97183,42.78529,7.70572,10.34329,-48.10269,79.62654,-1.64828,1.8918,-0.25509,0.66551,20.14226,12.44376,-3.08594,-26.61605,0.28165,16.07847,5.48645,39.93007,-15.30865,7.32423,-2.22551,-1.43438,1.11335,-5.74636,-6.20308,3.1495,-3.10962,0.32002,2.3009,0.71189,0.54839,0.47404,-0.46759,0.15223,0.13551,0.01566,-0.02753
831,-2.53772,5.57674,-4.27992,42.63977,48.93683,-2.90531,51.1132,2.34229,9.4951,-50.12609,78.03997,0.22253,2.13803,-0.44485,0.94439,19.55415,12.16633,-3.43572,-27.0172,-15.3495,22.00736,30.93981,43.78349,-19.61763,8.62478,-0.22223,-2.30309,2.29852,-6.08078,-5.41187,2.89581,-2.37355,-0.01881,2.76211,1.18602,0.55842,0.46129,-0.26426,-0.01492,0.24012,0.10105,0.02487
832,1.01454,5.8029,-5.33849,42.14903,47.52781,-2.98069,69.19406,-1.98193,9.38488,-42.03957,75.43534,1.00624,2.46608,-0.57186,1.15639,18.68727,11.84338,-3.74464,1.36977,-26.83819,25.06379,47.29029,18.72807,-17.81245,9.02134,0.84098,-3.27547,3.50606,-5.78785,-3.01668,2.14636,-1.31992,-0.33887,2.76606,1.28471,0.54576,0.43963,-0.07768,-0.20869,0.26467,0.07599,0.11439
833,4.39233,5.90579,-6.21399,39.97274,45.1818,-3.41691,84.84483,-3.32805,8.84569,-40.79708,73.18404,-0.2232,2.56915,-0.51829,1.13345,17.62921,11.53415,-4.0562,23.32598,-31.90626,25.50967,57.14492,-11.82496,-14.49788,6.21013,0.11638,-3.0832,3.18915,-5.02289,-2.09712,1.51781,-0.54761,-0.84257,2.12778,0.97485,0.22928,0.37571,-0.01338,-0.28402,0.16378,-0.0039,0.05163
834,3.89279,6.65055,-6.54648,36.37293,42.42445,-4.02574,81.58946,1.80035,6.3407,-55.13054,75.39828,-2.19016,2.37351,-0.44679,0.88824,16.54623,11.30993,-4.29829,2.33822,-21.73779,24.97028,56.41605,-12.92421,-13.89212,1.4366,-0.9016,-1.70684,1.89284,-4.36296,-4.52687,1.37795,-0.227,-1.3771,1.66326,1.20044,-0.73688,0.27493,-0.03531,-0.19162,0.12227,0.11451,-0.28125
835,-0.39242,7.70468,-6.20448,32.8743,40.27719,-4.42722,58.17542,10.90482,2.28921,-70.02411,79.03667,-3.57574,2.05516,-0.67679,0.59876,15.53177,11.16159,-4.34954,-46.83689,-2.88074,20.04428,47.16876,18.68214,-12.25237,-1.85351,-0.22474,0.00042,1.06159,-3.97818,-8.1239,1.87423,-0.45853,-1.57983,2.05511,2.11641,-1.42066,0.26606,-0.09814,-0.05481,0.28981,0.43753,-0.55897
836,-4.34684,8.29879,-5.69465,30.22561,38.25992,-4.50366,38.50662,17.08883,-0.56447,-70.19332,75.00175,-4.6,1.81699,-1.15916,0.42173,14.60757,10.961,-4.30617,-72.13449,5.3339,12.02481,42.38436,41.808,-5.54768,-1.59744,1.55168,0.6293,1.62098,-4.22707,-9.02339,2.67579,-1.00921,-1.5958,2.98345,2.73497,-0.78833,0.38405,-0.1529,-0.06604,0.53193,0.62886,-0.40566
837,-5.43282,7.1358,-4.54216,28.70521,35.23683,-4.41226,38.12953,11.74605,-0.07641,-59.82885,61.07443,-5.66283,1.50218,-1.45385,0.31988,13.76341,10.55651,-4.42735,-57.01912,-10.4697,8.45686,40.73903,27.39573,0.5536,1.43046,1.92022,-0.47817,2.94692,-5.03175,-6.61197,2.93817,-1.28535,-1.58166,3.39317,2.38578,0.45433,0.44139,-0.1356,-0.19463,0.57201,0.44609,0.0194
838,-5.31791,5.44866,-2.52007,27.8071,31.81122,-4.36456,42.4041,-1.88214,2.40435,-52.53945,46.41994,-6.13498,-2.26305,0.71656,0.25873,12.90585,9.93217,-4.77229,-37.69936,-35.8001,10.45357,28.10778,4.11474,-1.69949,4.13932,0.4126,-1.79062,3.22488,-5.29685,-3.90461,2.40052,-1.15757,-1.27986,2.73751,1.44584,1.14613,0.2886,-0.05043,-0.22862,0.32971,0.05761,0.33313
839,-7.96319,3.28024,-0.44783,26.51652,30.00292,-4.44652,35.05395,-17.04074,5.22996,-53.82756,42.29588,-5.10025,-4.79645,2.13429,-0.14144,11.84391,9.23479,-5.10753,-43.21388,-53.91831,15.56409,5.66799,9.15707,-10.97067,4.76274,-0.78361,-1.81444,1.79341,-4.22976,-3.45458,1.742,-1.04384,-0.66942,1.40005,0.9294,0.67102,0.05662,0.01891,-0.12557,-0.03929,-0.13489,0.27509
840,-7.31617,4.02616,-0.79404,24.92452,30.15644,-4.60052,33.19076,-21.04174,5.32368,-58.3549,49.57549,-3.01619,-7.21923,3.85694,-0.51507,10.48665,8.60561,-5.21847,-47.52625,-45.5578,20.33502,-7.57876,28.19994,-19.83201,5.20384,-0.40157,-1.36413,0.40759,-2.56116,-4.42846,1.34087,-1.12354,-0.03009,0.48964,1.3287,-0.52259,-0.05716,0.00995,-0.01431,-0.23607,0.03375,-0.08393
841,0.44337,7.23774,-3.25155,23.32813,29.60518,-4.7607,53.4213,-16.08954,2.21272,-60.22902,56.05383,-2.16952,-9.33729,5.8699,-0.67749,8.97411,8.0298,-5.15735,-22.70696,-23.57479,23.08545,0.53414,28.41251,-23.04775,6.69173,0.35005,-1.33419,0.57841,-2.10177,-4.77073,0.78979,-1.16796,0.65388,0.68902,1.79667,-0.99685,-0.08592,-0.06447,0.093,-0.14844,0.24935,-0.33727
842,11.03564,11.31381,-6.06657,20.91416,26.01341,-4.90377,82.82485,-5.46957,-3.54363,-59.89132,51.03316,-3.9035,-11.76125,8.22535,-0.73277,7.4633,7.40364,-5.11881,15.78857,-4.37604,19.59149,24.05533,12.25,-20.75888,6.86316,0.12302,-1.20504,1.95903,-3.81951,-4.46617,-0.09141,-0.85642,1.20424,1.66093,1.65926,-0.25117,-0.16288,-0.09175,0.19446,0.07746,0.22216,-0.24024
843,16.913,14.41441,-7.49247,17.32377,20.65923,-5.03463,93.47425,6.6506,-9.00591,-60.39827,39.52542,-6.1947,-15.0461,10.92439,-0.9272,5.97459,6.65276,-5.20597,29.28241,9.23828,9.46,50.24821,0.93797,-16.80087,4.25702,-0.74804,-0.88929,3.61519,-6.11154,-4.40426,-0.43231,-0.24886,0.79203,2.77572,1.56932,0.67399,-0.17838,0.00971,0.1064,0.33807,0.12622,0.02649
844,14.19749,13.31144,-5.773,13.52266,16.83613,-5.1987,74.81534,6.07845,-7.26987,-63.08392,35.51395,-6.04147,-19.24546,13.84245,-1.455,4.528,5.77207,-5.35241,2.25556,14.58985,4.46268,66.5311,0.19204,-13.66396,1.16995,-0.77842,-0.84916,4.27619,-6.17959,-4.31218,0.53245,0.03573,-0.58245,3.22039,1.89511,0.76489,0.01851,0.13757,-0.17967,0.51003,0.18047,0.14013
845,4.52883,8.11562,-1.53903,9.97084,15.29873,-5.39297,42.00304,-12.70572,3.39759,-67.4845,41.52832,-3.63357,-24.10983,17.05064,-2.36239,3.13219,4.83756,-5.4386,-44.2795,8.61116,13.61906,67.55669,4.14766,-9.85941,-0.27674,0.58716,-0.85441,3.02255,-3.4653,-3.57974,2.01778,-0.30908,-1.63797,2.6085,1.95582,0.35505,0.24495,0.15066,-0.35168,0.46172,0.29312,0.05134
846,-6.92421,5.01762,1.48964,6.6974,13.78664,-5.42536,15.90737,-29.95322,13.17899,-70.27622,45.26836,-1.59081,-29.22141,20.92056,-3.49752,1.69454,3.98562,-5.41561,-77.16474,-0.35046,25.44661,60.71065,7.71725,-4.65554,-0.20473,2.15529,-0.56409,0.93884,-0.45761,-2.54683,2.69757,-0.87347,-1.54023,1.60061,1.52598,0.21964,0.28336,0.04287,-0.24739,0.24524,0.32202,-0.06303
847,-15.03323,7.84436,1.20695,4.70025,11.38497,-5.12169,4.95911,-28.32241,13.74896,-66.06075,40.46271,-0.45226,-34.13792,25.50157,-4.67183,0.11884,3.27826,-5.29272,-79.05769,-1.1317,25.27585,51.09073,6.23323,-2.97692,1.54733,2.6813,-0.36214,0.23328,0.12979,-1.92893,2.23628,-1.1913,-0.60358,1.10067,1.19372,0.36901,0.20086,-0.08213,-0.03374,0.03822,0.25773,-0.10333
848,-17.57905,13.45441,-0.89759,4.38251,9.69553,-4.6309,6.15592,-15.12184,8.39381,-52.84792,35.70357,1.74971,-38.64316,30.38558,-5.8164,-1.5817,2.64706,-5.08915,-54.50364,9.84944,15.98861,35.20978,-0.94515,-10.1193,5.3611,2.27982,-0.56832,1.28028,-2.00417,-2.27749,1.29587,-1.26613,0.55773,1.17791,1.20519,0.24228,0.1361,-0.1323,0.10214,-0.04647,0.14298,-0.13366
849,-16.55865,17.76938,-2.81407,3.97425,9.15647,-4.24186,12.51875,-4.77202,3.54407,-37.70729,36.59011,5.01659,-42.8381,35.19707,-6.95622,-3.26965,2.05613,-4.84772,-23.89716,27.38344,8.29035,19.15335,-5.86428,-21.9193,8.62141,1.80562,-0.77017,2.41167,-4.73463,-3.7498,0.76289,-1.27684,1.29791,1.40259,1.40854,-0.39468,0.10642,-0.08104,0.10681,0.01771,0.08888,-0.2363
850,-16.25308,19.16621,-3.64955,1.48027,8.00774,-4.0622,16.32306,-4.57901,2.03682,-32.96556,35.75432,5.83654,-46.96028,39.68071,-8.15931,-4.75778,1.57964,-4.61212,-12.89825,33.82658,6.74385,18.06501,-3.5392,-26.02553,7.37206,1.58722,-0.58528,2.34401,-5.33606,-5.10528,1.32979,-1.26911,0.89056,1.56787,1.67877,-0.95338,0.16456,0.01806,-0.00946,0.16212,0.18129,-0.34369
851,-18.63576,17.77684,-3.3577,-3.22795,5.01511,-4.06641,13.41306,-15.05711,4.49359,-41.40298,25.7569,1.69524,-51.11512,43.59978,-9.41913,-6.03012,1.21557,-4.38656,-27.90509,15.48113,8.63863,31.2468,-5.29199,-16.23546,2.39214,1.36733,-0.18403,1.38655,-3.35691,-4.9319,2.81918,-1.36327,-0.37451,1.74034,1.86359,-0.64669,0.37283,0.0428,-0.13227,0.23058,0.29951,-0.28195
852,-21.94835,15.65084,-2.71321,-7.65296,1.3275,-4.13695,6.05337,-27.91909,8.87886,-48.39323,11.11036,-4.46109,-55.20016,46.87443,-10.596,-7.22889,0.85623,-4.13872,-43.52345,-10.81759,7.91963,37.37321,-18.66186,-0.86121,-0.67243,1.48268,0.23723,0.80863,-1.51213,-4.12919,3.79844,-1.75695,-0.8762,1.89564,2.10777,0.02608,0.54801,-0.07557,-0.09646,0.15455,0.33694,-0.1198
853,-24.11542,15.19566,-2.71271,-8.82825,-0.92109,-4.0207,-2.00488,-31.5703,10.9951,-40.39015,2.23192,-7.09827,-59.02438,49.62574,-11.57736,-8.38289,0.49343,-3.82678,-37.35765,-14.18524,2.00133,23.58992,-24.81411,7.0413,2.19836,2.54622,0.54927,1.86562,-2.08491,-3.52203,3.06696,-2.3449,0.35214,2.10417,2.49272,0.21614,0.41525,-0.22608,0.07264,0.12669,0.36243,-0.02528
854,-24.9931,16.40507,-3.55453,-7.62834,-1.41785,-3.59014,-7.95929,-23.90861,8.46237,-25.47971,1.82874,-4.85423,-62.39048,51.98513,-12.37369,-9.40447,0.20629,-3.45554,-20.52741,8.46955,-5.19932,4.45657,-7.47949,2.70244,9.40747,3.37466,0.39202,4.24005,-3.87904,-2.15634,1.35727,-2.69727,2.20364,2.41665,2.58391,0.14207,0.04307,-0.23302,0.16753,0.26909,0.39776,0.00124
855,-25.04703,17.30707,-4.64013,-7.36599,-1.15772,-2.9642,-7.81911,-12.87212,2.63095,-19.35496,4.21689,-1.10383,-65.16638,53.96586,-13.02977,-10.28183,-0.00232,-3.05068,-10.66849,32.78785,-9.09005,-1.49682,14.57274,-7.56203,14.89239,1.94864,-0.40029,5.66739,-4.48353,-0.42526,0.71726,-2.5448,2.6662,2.4942,2.11917,0.17652,-0.13846,-0.09837,0.08518,0.35859,0.35168,-0.02629
856,-24.50474,16.54261,-5.30495,-8.96692,0.00711,-2.29571,-1.32288,-6.46133,-2.40901,-24.5024,6.70492,1.21445,-67.40443,55.4594,-13.59133,-11.14819,-0.23282,-2.59532,-9.02753,42.69983,-7.98878,1.87576,12.77254,-10.94378,12.72136,-0.15386,-1.11147,5.08597,-3.93104,0.03654,2.11871,-2.19338,1.16254,2.20065,1.50485,0.18309,0.14667,-0.02071,-0.04439,0.25556,0.19843,-0.06999
857,-23.8585,14.76123,-5.44434,-10.85537,1.7025,-1.77818,5.21075,-5.8877,-3.48785,-32.91944,9.45796,1.30982,-69.24369,56.37093,-14.10971,-12.07417,-0.59406,-2.1274,-11.46427,42.37314,-3.70406,0.2114,-12.06091,-1.33674,4.05566,0.87269,-1.02606,4.13005,-4.06809,-0.86212,4.20971,-2.0771,-0.84659,1.69838,1.36173,-0.24395,0.63863,-0.10622,-0.09762,0.10065,0.07293,-0.10386
858,-23.77469,13.16753,-5.38266,-11.83854,1.57174,-1.58262,5.83571,-7.48881,-1.74485,-35.58088,7.99524,-0.82197,-70.62902,56.80969,-14.58867,-12.87604,-1.02227,-1.75478,-12.49234,38.98252,-2.51203,-4.9822,-35.52469,9.87946,-2.40789,4.27312,-0.6784,4.10724,-5.41731,-2.00749,4.96454,-2.05077,-1.7645,1.43759,1.72024,-0.82244,0.88996,-0.19214,-0.14366,0.04266,0.07341,-0.13096
859,-24.6471,10.8194,-4.99592,-11.9611,-0.91872,-1.57229,-0.75494,-11.901,0.33968,-28.74505,0.27949,-3.54332,-71.32289,57.00148,-14.99491,-13.34748,-1.28957,-1.49853,-7.71299,31.98417,-7.4628,-1.91002,-40.5979,9.72468,-1.35101,6.03148,-0.46324,4.64686,-6.21124,-1.91874,3.79244,-1.82848,-1.09831,1.75842,1.88415,-0.67313,0.70864,-0.12655,-0.1853,0.10074,0.12201,-0.09941
860,-25.75707,5.88999,-3.86352,-11.8112,-2.89159,-1.38684,-11.55354,-23.94324,2.59364,-17.94536,-7.06167,-4.35502,-71.24978,57.05552,-15.2889,-13.54753,-1.28111,-1.25025,-2.70018,19.57774,-12.96857,10.30696,-28.9334,3.04522,3.23703,5.27802,0.16167,5.65837,-4.92259,0.27671,2.17674,-1.83381,0.54331,2.19183,1.56703,0.08454,0.31057,-0.02008,-0.09745,0.22927,0.16912,-0.00429
861,-25.95192,-0.1367,-2.45732,-11.75594,-2.49849,-0.95617,-21.47173,-39.66972,5.04486,-10.37378,-8.2244,-3.14967,-70.66628,56.83608,-15.41832,-13.63426,-1.16715,-0.95164,-4.51592,8.71584,-14.3637,18.20452,-11.62234,0.68083,6.80164,3.78136,1.23444,7.37981,-3.13348,2.98458,1.78387,-2.72045,2.17917,2.05935,1.38166,0.30107,0.07884,-0.07241,0.12089,0.32912,0.24666,0.04533
862,-25.55525,-3.07341,-1.94978,-11.60404,-1.42567,-0.66385,-27.37101,-46.7058,6.18302,-5.67301,-5.1874,-1.93268,-69.90956,56.04052,-15.35037,-13.59921,-1.23282,-0.72103,-8.35346,9.89626,-14.0128,12.54771,0.82468,2.00598,9.77279,2.3367,1.99254,8.75886,-4.20168,3.33258,2.45641,-4.18714,3.26812,1.55119,1.66519,-0.34573,0.15287,-0.29191,0.32179,0.28164,0.27112,0.00948
863,-25.24995,-1.54701,-2.68209,-11.15594,-1.73141,-0.76098,-29.68064,-41.1263,5.10903,-2.19511,-3.60724,-2.15167,-69.0526,54.6149,-15.07343,-13.32189,-1.50166,-0.6685,-8.56584,20.14961,-15.68677,5.01371,1.51202,1.82685,12.01565,1.13312,1.94001,8.30937,-8.39649,0.78852,3.14294,-5.02369,3.48031,1.50005,1.99998,-0.94844,0.42736,-0.48877,0.37616,0.11208,0.15628,-0.03303
864,-24.71373,0.84735,-3.62823,-11.06317,-3.02208,-1.02317,-31.15291,-32.87281,3.36584,-4.1365,-5.49402,-3.46981,-67.95002,52.88074,-14.65498,-12.78721,-1.74663,-0.72756,-12.53236,25.50116,-18.39812,10.6556,-10.99575,2.42557,10.67645,1.31374,1.55334,6.4394,-11.12349,-1.7919,3.33723,-4.55477,2.84465,2.17745,1.95181,-0.78749,0.69685,-0.51986,0.32861,0.01201,0.00614,-0.03008
865,-23.66135,0.10495,-3.68161,-11.2983,-3.89158,-1.12807,-33.32727,-32.22811,3.20641,-10.21234,-7.57071,-4.0649,-66.62012,51.14558,-14.26692,-12.03413,-1.85856,-0.76596,-21.91312,21.43219,-17.76631,22.54979,-26.84747,7.70178,5.26332,3.63272,1.44267,5.4042,-8.42739,-1.37703,3.11281,-3.35465,1.84064,2.91046,1.54867,-0.13454,0.71522,-0.3911,0.27676,0.12425,-0.02217,-0.00103
866,-22.3073,-3.81711,-2.90101,-10.34107,-3.80124,-0.90435,-34.17202,-39.44965,4.65442,-9.38151,-6.83492,-2.31131,-65.3251,49.45661,-14.0043,-11.06946,-1.85589,-0.68888,-20.6582,15.19656,-12.38403,22.71152,-28.65354,13.31406,0.02475,6.30357,1.54322,6.58023,-3.15138,1.26745,2.67635,-2.5516,1.0724,3.02036,1.2948,0.0962,0.44108,-0.23726,0.23058,0.38365,0.10856,-0.01428
867,-20.77913,-8.0925,-2.13006,-8.02882,-3.03545,-0.40456,-31.24552,-47.92813,5.81119,1.84651,-4.30266,0.96963,-64.20633,47.6869,-13.76056,-9.9899,-1.72158,-0.46729,-0.62114,12.83517,-5.96645,8.14858,-12.4871,11.72917,-0.12743,6.2336,1.35612,8.97785,-1.86985,2.7669,2.25725,-2.63543,0.88653,2.55573,1.66294,-0.68177,0.17687,-0.21827,0.17496,0.55276,0.29142,-0.1227
868,-19.13133,-10.5955,-1.85545,-6.59404,-2.26843,-0.03275,-25.98816,-51.83049,5.73428,13.46327,-2.68255,2.42713,-63.08648,45.68068,-13.37299,-8.91681,-1.50475,-0.18852,23.99878,14.74313,-3.62924,-8.86842,3.68665,3.16178,5.11345,3.01773,0.46618,10.83626,-5.98346,2.0824,1.99234,-2.89765,1.00809,2.12253,2.35338,-1.77859,0.18417,-0.27833,0.08837,0.47048,0.35012,-0.22243
869,-18.15331,-11.59787,-1.82673,-7.27516,-2.3972,-0.23622,-23.52156,-51.00098,5.29931,16.98441,-3.44958,-0.01786,-61.74343,43.36684,-12.84952,-7.79712,-1.37302,-0.03636,35.26419,17.04753,-6.77162,-22.41133,4.09374,-3.1838,10.82274,0.07933,-0.2531,11.35821,-10.39873,1.15187,1.791,-2.91089,1.48138,2.14885,2.60092,-2.0006,0.31331,-0.31517,0.11356,0.23783,0.23125,-0.16475
870,-18.48528,-12.05237,-1.7697,-8.89286,-3.68613,-0.881,-26.23487,-47.59512,4.86141,12.18028,-5.68727,-3.70751,-60.17365,40.92886,-12.29004,-6.58058,-1.37539,-0.10044,27.77852,18.40709,-11.13863,-34.94293,-6.02285,0.28776,12.05786,0.00593,0.24674,10.95648,-11.41258,1.26593,1.76092,-3.10122,2.24859,2.49029,2.28572,-1.31964,0.3475,-0.3622,0.32635,0.09237,0.09115,-0.01317
871,-19.51866,-12.60748,-1.62407,-9.85933,-5.01951,-1.31462,-31.10098,-43.20302,3.96079,3.42169,-6.95809,-4.39877,-58.48708,38.68587,-11.73427,-5.4134,-1.34163,-0.25358,9.21599,22.27056,-11.81899,-36.23797,-16.06432,10.60348,9.83786,1.07637,1.10619,10.90821,-10.41095,1.96646,2.38774,-3.6793,2.38028,2.80646,2.00962,-0.79565,0.44124,-0.4091,0.40333,0.16466,0.10699,0.0299
872,-20.0339,-14.20129,-1.27137,-9.4016,-5.54531,-1.27921,-33.43722,-41.26321,2.96045,-2.57663,-8.4116,-2.97569,-56.75307,36.73214,-11.22377,-4.39988,-1.17227,-0.34749,-4.98163,24.12906,-10.77183,-12.29483,-22.03723,17.53445,8.31817,1.02383,1.04156,11.70994,-9.7087,2.3006,3.36835,-4.1805,1.58503,3.04536,2.15668,-1.11089,0.68362,-0.35757,0.12908,0.37033,0.25016,-0.1117
873,-19.40706,-16.52059,-0.89631,-7.73409,-4.78508,-0.92156,-31.54231,-42.85469,2.22649,-1.66397,-10.64499,-2.51132,-55.06547,34.96978,-10.81487,-3.48619,-0.93426,-0.31174,-4.51712,19.6063,-12.25668,21.52765,-19.58298,15.01096,7.50037,0.78914,0.46704,11.83285,-9.26249,1.78023,3.42081,-3.93094,0.74453,3.28256,2.3559,-1.70428,0.6977,-0.20688,-0.16977,0.50955,0.31812,-0.27238
874,-18.48262,-17.64472,-0.85025,0.87173,0.84848,0.21138,-28.92092,-43.92249,1.6891,16.8765,-4.08946,-0.19314,-53.53237,33.42268,-10.49255,0.53851,0.26094,-0.10053,21.2635,24.99675,-11.92196,34.68618,-9.41943,8.49725,4.96139,1.37033,0.32293,10.65508,-7.9912,1.44511,2.24187,-2.88231,0.38047,3.28016,2.04378,-1.54682,0.27141,-0.0874,-0.14507,0.4771,0.20588,-0.2221
875,-19.28675,-17.27106,-0.77347,-0.08779,2.00062,0.45012,-31.44855,-43.8588,2.55933,19.69439,-0.83274,0.85874,-52.12455,32.22423,-10.22067,0.42378,0.1503,-0.00424,26.65863,26.39186,-9.16493,23.88374,-3.07257,7.35458,1.92873,1.35415,0.2676,10.01033,-5.93443,2.65534,1.13889,-1.6623,0.11936,2.76237,1.34777,-0.66956,-0.17008,-0.01479,0.04278,0.33979,0.05111,-0.00547
876,-22.21159,-17.17026,-0.07294,-1.93343,0.82909,0.11329,-41.13712,-45.86473,5.89667,18.77518,0.68794,1.29942,-50.68284,31.38114,-9.98343,0.38245,-0.10831,-0.04575,17.73643,22.98447,-2.43311,8.43612,-9.669,12.2764,1.59584,0.53347,-0.32742,10.68177,-4.14663,4.55754,1.39443,-1.0364,-0.38152,2.36972,0.86398,0.15958,-0.11728,0.06564,0.06332,0.29733,0.02147,0.14613
877,-24.56561,-18.367,0.93321,-2.34338,-1.77366,-0.67375,-52.39235,-48.96367,9.43514,16.13977,-0.98583,-0.51049,-49.15164,30.73656,-9.74937,0.57462,-0.32648,-0.22403,-0.94619,14.55448,0.60033,-0.00569,-23.22677,16.07756,3.98449,0.54937,-0.99074,10.97363,-3.28433,4.85024,2.49545,-1.22794,-0.81819,2.9221,0.95436,0.45779,0.32097,0.11569,-0.11408,0.46704,0.12183,0.1325
878,-23.97775,-19.86474,1.33697,-0.48791,-3.11075,-1.17127,-56.44898,-49.60718,9.62716,16.01257,-2.8786,-2.88174,-47.709,30.14401,-9.48596,0.77788,-0.30092,-0.33846,-10.22365,11.4307,-3.51504,-2.19026,-26.8148,13.08632,6.18918,0.8314,-1.21843,9.63264,-3.18865,3.0715,2.55417,-1.49948,-0.74598,3.72856,1.44866,0.13557,0.53869,0.11274,-0.29543,0.68504,0.25248,0.02477
879,-21.01467,-20.47108,0.89345,1.09588,-2.21989,-0.93807,-50.27987,-48.32656,6.53873,17.10242,-2.51064,-2.87035,-46.55251,29.51297,-9.20378,0.62133,-0.09949,-0.27017,-2.25563,16.30474,-8.20293,-3.24177,-12.16845,4.30831,6.18973,-0.42367,-1.23997,7.73696,-3.91388,1.11896,0.86017,-1.18146,-0.1497,3.70786,1.86197,-0.42414,0.23294,0.05024,-0.29303,0.75011,0.3225,-0.0461
880,-18.11814,-20.34598,0.22682,-0.02271,-0.4711,-0.27458,-40.04289,-47.45213,3.38155,14.73919,-0.50344,-0.15302,-45.70651,28.79542,-8.96296,0.16357,0.04279,-0.1118,9.47403,21.93365,-7.13175,-5.77508,4.47884,-2.65714,5.06786,-1.92465,-0.87944,6.83197,-5.57189,0.53311,-0.75841,-1.1162,0.69577,3.08939,1.83803,-0.60151,-0.14612,-0.16712,-0.05343,0.63597,0.28068,-0.00879
881,-16.81282,-19.936,-0.1362,-2.3799,0.5111,0.27606,-33.09383,-46.23912,1.97621,10.99646,-0.38199,2.22171,-44.99092,28.08611,-8.75805,-0.19143,0.04139,0.00856,15.60011,22.03288,-3.95907,-6.00207,3.03353,-1.15255,5.07591,-1.34463,0.18705,6.76692,-6.97121,1.09683,-0.42675,-2.18007,1.38755,2.58044,1.2979,-0.19796,-0.08838,-0.49061,0.25217,0.40941,0.11276,0.09687
882,-17.06654,-19.39973,-0.09606,-2.65892,-0.05591,0.3424,-32.94525,-44.67058,2.18475,12.75157,-4.57782,1.16902,-44.12331,27.50153,-8.51697,-0.16003,-0.02209,0.04748,19.23237,14.82368,-5.16321,-0.57533,-9.56027,6.17873,5.79426,0.52338,1.48268,6.42677,-6.68018,1.7167,1.41794,-3.63386,1.53596,2.20043,0.54605,0.2743,0.27434,-0.67016,0.41617,0.17058,-0.10608,0.17126
883,-18.23853,-18.34291,0.10828,-0.5405,-1.55707,-0.03147,-39.07231,-42.64706,3.35699,19.5798,-9.85344,-2.43082,-43.00307,26.99718,-8.22851,0.16539,-0.06324,0.03208,19.69365,6.40847,-10.07409,6.26646,-15.77085,12.52168,4.17809,1.98988,2.35181,5.67141,-4.98616,1.90472,3.20895,-4.20628,0.76441,1.688,0.07977,0.29999,0.547,-0.57494,0.33054,0.03069,-0.22461,0.15457
884,-18.79762,-16.51181,0.08169,1.67142,-2.13552,-0.34633,-44.28008,-38.04523,4.37089,24.58438,-10.13669,-4.23903,-41.80402,26.45799,-7.94034,0.4481,-0.07863,-0.00243,16.62009,8.14542,-12.58562,6.8793,-15.9233,15.03335,0.33629,2.76027,2.48365,5.38537,-3.50271,1.94266,3.62912,-3.47385,-0.48608,1.2364,0.1316,-0.03752,0.51062,-0.32185,0.07637,0.03443,-0.1637,0.06114
885,-17.89365,-15.25185,-0.07517,2.34282,-0.49679,-0.1563,-42.8269,-34.00211,4.76996,23.42576,-3.42622,-1.68213,-40.69936,25.87219,-7.69538,0.46384,-0.04977,-0.00113,13.65436,20.38725,-8.26967,1.99158,-16.35356,12.45759,-0.56124,1.93414,1.34654,5.79386,-3.38766,1.8177,2.23491,-1.99417,-0.83912,1.42517,0.53402,-0.28879,0.20417,-0.10197,-0.0753,0.15859,-0.00493,-0.03468
886,-16.97667,-16.16224,0.14264,1.58213,2.54978,0.41348,-39.77908,-37.62842,5.28448,17.37136,6.07118,2.84665,-39.67946,25.30668,-7.52785,0.31893,0.09461,0.10429,8.78928,28.75763,0.71919,0.66848,-15.44364,5.18758,3.62759,-0.95923,-1.0705,6.00244,-4.10617,1.39791,0.14428,-0.64246,0.05371,2.3012,0.84154,-0.05743,-0.10323,0.0032,0.00319,0.32728,0.09927,-0.03497
887,-17.12381,-18.01186,0.54811,0.54349,4.7192,0.86794,-41.06517,-45.46871,5.51108,12.1527,11.11333,5.09635,-38.71509,24.80709,-7.41815,0.23046,0.31239,0.26614,1.24607,25.12041,5.44228,2.95668,-14.58089,-0.87108,7.95207,-3.46855,-3.04855,5.66248,-4.40899,1.19044,-0.77775,-0.12092,0.85443,3.10239,0.76318,0.59295,-0.16,-0.0064,0.13515,0.44334,0.08183,0.0881
888,-17.25738,-17.99968,0.43634,0.72751,4.12581,0.82478,-43.17482,-46.18979,4.17449,13.07717,7.7975,3.73822,-37.87027,24.36048,-7.27442,0.28184,0.3868,0.30355,-0.64865,17.64343,0.41025,1.14412,-19.90588,-0.25173,7.65996,-3.08937,-2.78995,5.28353,-4.0094,1.30539,0.13756,-0.74589,0.48798,3.08735,0.61741,0.89752,0.05071,-0.14569,0.1154,0.43784,0.03508,0.18815
889,-16.58578,-16.19963,-0.04898,2.31344,1.5533,0.3397,-41.95847,-39.86554,2.5098,17.23019,1.45805,1.15592,-37.18138,23.87465,-7.04852,0.45674,0.19693,0.15782,4.11163,16.33122,-6.95858,-0.10819,-27.0664,3.85783,2.99087,-0.91662,-0.97279,4.70849,-3.27862,0.8472,1.62956,-1.51321,-0.73074,2.43872,0.84945,0.33925,0.29287,-0.26632,-0.06603,0.33582,0.08184,0.10318
890,-15.75743,-15.08301,-0.17134,3.64144,0.04946,-0.07361,-40.80682,-36.78942,2.80221,18.13846,-0.34021,-0.2143,-36.63609,23.29645,-6.79308,0.65902,-0.06144,0.01844,5.09913,18.97032,-8.44738,6.09257,-23.01965,5.19464,-2.17235,0.54295,0.69978,3.52383,-2.08045,0.04592,2.17412,-1.51974,-1.51019,1.80693,1.0629,-0.29131,0.33413,-0.21864,-0.20997,0.22622,0.16904,-0.07106
891,-15.18554,-15.45626,0.06255,3.38473,0.70198,-0.0204,-42.05416,-39.36193,3.99016,16.7232,0.44424,-0.47549,-36.26232,22.74191,-6.58338,0.74666,-0.12686,0.03401,2.1214,17.00557,-7.47428,5.60337,-9.25045,3.45826,-3.72228,0.78135,1.55812,2.80866,-0.57525,0.71037,1.60488,-1.2041,-1.05809,1.3213,0.55851,-0.01727,0.1817,-0.07681,-0.15127,0.13512,0.13471,-0.10441
892,-14.56366,-15.84235,0.05745,1.94109,1.60709,0.29978,-41.57756,-38.87708,3.38435,17.54266,-0.81318,-0.08737,-36.06969,22.37591,-6.44952,0.67536,-0.02466,0.11026,5.85719,15.54626,-8.47576,-12.92667,-7.27182,2.35895,-1.49081,0.6775,1.42192,3.76949,-0.29476,2.7668,0.66382,-0.81609,-0.08857,0.91476,-0.24704,0.71402,-0.02984,0.07582,0.00811,0.01654,-0.02044,0.01785
893,-13.85986,-15.25858,-0.25481,0.70986,1.27749,0.38849,-37.57481,-31.0109,1.53399,19.95055,-2.00343,0.84882,-35.9499,22.22091,-6.37031,0.53489,0.00903,0.09741,15.97582,24.94413,-9.01852,-26.06193,-25.08345,3.33027,1.33603,0.6078,0.62375,5.27078,-2.01844,3.5477,-0.02988,-0.40138,0.4382,0.87992,-0.28824,0.82594,-0.18583,0.15304,0.10814,-0.09506,-0.10574,0.10035
894,-13.18174,-14.98543,-0.29294,1.24767,0.20007,0.09135,-32.702,-26.0998,1.32184,21.36105,-0.87488,1.16626,-35.75511,22.16947,-6.29897,0.49247,-0.10964,0.00848,24.18782,32.68715,-6.46074,-9.15489,-34.75282,4.76375,3.01857,0.25975,-0.14856,5.35802,-3.64298,2.15231,-0.06074,-0.48521,0.40629,1.23941,0.39395,0.28092,-0.15191,0.02065,0.13007,-0.05859,-0.0207,0.04459
895,-12.21091,-16.44991,0.23621,3.41114,-0.60606,-0.27408,-29.19677,-33.62239,3.32438,21.51619,0.13296,0.25511,-35.42872,22.14145,-6.17631,0.60413,-0.2361,-0.0546,27.82448,22.1658,-2.34622,16.1221,-14.16379,4.56831,4.36005,-0.52198,-0.87144,3.96285,-3.01812,0.75502,0.42515,-0.96301,0.16932,1.34311,0.73166,-0.12667,0.04978,-0.21505,0.10936,0.11792,0.09591,-0.04034
896,-11.67042,-18.50474,0.93453,5.16919,-0.85025,-0.37234,-31.51332,-44.98017,5.3439,21.86814,-1.01432,-0.59444,-35.0539,22.12149,-5.99495,0.74646,-0.24628,-0.04932,25.33974,6.68006,-0.84643,15.07068,11.96061,2.01024,5.43024,-0.91937,-1.48701,2.32587,-1.37222,0.63347,0.72899,-1.04832,-0.06322,0.94556,0.33771,0.01329,0.16766,-0.25046,0.04362,0.24144,0.09035,-0.02283
897,-12.69195,-18.97606,1.28591,5.32461,-0.95148,-0.20485,-41.17793,-45.99876,5.72169,23.66427,-3.65838,-0.54362,-34.74405,22.01407,-5.81257,0.83561,-0.17362,0.01982,17.01105,7.57318,-3.97555,-2.26276,7.82266,-0.49827,4.64264,0.23964,-0.95622,1.70449,-1.26357,0.79725,0.61016,-0.74027,-0.24845,0.86228,-0.04076,0.41094,0.07386,-0.04319,-0.05328,0.25254,0.01316,0.07557
898,-14.321,-17.87296,1.22358,3.5552,-1.29269,-0.00021,-49.41657,-36.81647,4.92167,23.45711,-6.10251,-0.39042,-34.54263,21.68371,-5.67916,0.80425,-0.12876,0.10348,7.4999,20.80561,-8.17152,-5.83737,-21.23894,0.96756,1.37062,2.21987,0.91692,2.70351,-2.82573,0.60266,0.33698,-0.55761,-0.26374,1.37595,0.2298,0.47514,-0.09875,0.13167,-0.08421,0.2138,0.00301,0.1131
899,-14.65277,-17.08935,1.07099,0.03365,-1.29467,0.12606,-48.18221,-28.77811,4.22218,16.75776,-5.47573,-0.34002,-34.46751,21.26163,-5.60308,0.56936,-0.13417,0.13664,0.03934,30.73446,-8.34826,4.0553,-38.72618,5.91285,-1.698,2.49051,2.0049,4.3062,-4.20094,0.59444,0.27632,-0.54907,-0.17285,1.56149,0.73325,0.09449,-0.12817,0.09371,-0.02787,0.10442,0.05532,0.03824
900,-13.68378,-17.64294,1.11099,-2.86126,-0.22023,0.19189,-40.93832,-29.66912,4.22664,8.07562,-0.13264,0.52715,-34.5077,21.0571,-5.55737,0.27676,-0.1276,0.11714,-2.39457,32.86848,-3.75481,9.30538,-23.60019,8.54733,-0.98649,0.43241,0.80289,4.77635,-4.15891,1.04672,0.63748,-0.63433,-0.18851,0.9203,0.71844,-0.25337,0.06935,-0.0786,0.0126,-0.07364,0.06112,-0.06433
901,-13.43333,-18.87114,1.41581,-2.06801,1.08939,0.16311,-37.45552,-38.25473,4.98563,7.97042,5.2926,1.83713,-34.58377,21.08613,-5.51307,0.22019,-0.11619,0.08185,2.59461,26.70448,1.14896,6.97119,4.10102,5.59287,2.85385,-1.25172,-0.9234,4.18597,-3.3547,1.38009,1.22619,-0.9523,-0.29268,0.38275,0.30881,-0.27869,0.33218,-0.21792,-0.01586,-0.14513,0.00722,-0.11042
902,-14.98042,-19.73542,1.86296,2.25459,1.19001,0.07824,-42.16478,-46.92067,6.25803,19.89283,3.84751,2.098,-34.612,21.06788,-5.45193,0.48378,-0.15094,0.07226,12.59145,11.69305,1.00069,3.46154,8.97221,0.28999,5.47808,-0.65983,-1.06026,4.10607,-2.82206,1.18639,1.37651,-1.22509,-0.24921,0.92761,0.24276,-0.17183,0.38172,-0.20704,-0.04358,0.05538,-0.01121,-0.08315
903,-16.66535,-19.38619,2.06249,7.1898,0.51291,0.11407,-47.78535,-46.83101,6.93091,36.18291,-2.19255,1.82682,-34.58431,20.85347,-5.35282,0.95476,-0.20125,0.14628,26.46115,1.99538,-3.36135,-1.46685,-13.56545,-1.54475,4.61244,0.74479,-0.17263,4.92792,-2.24796,1.12722,0.80397,-0.9579,-0.04854,1.97612,0.57998,-0.05072,0.15097,-0.0597,-0.01308,0.38444,0.02972,0.00437
904,-16.5358,-17.92215,1.74043,9.85944,0.21124,0.21653,-44.10837,-38.23474,5.87569,43.84163,-4.55386,2.17931,-34.54715,20.52753,-5.23657,1.38678,-0.22457,0.26272,41.5135,11.71832,-6.00039,-8.71226,-34.67725,2.21864,2.42829,0.91323,0.09926,5.34462,-1.55931,1.61229,0.30071,-0.45315,-0.02259,2.3462,0.68957,0.26318,-0.07887,0.06793,0.02148,0.50957,0.04927,0.12446
905,-15.51093,-16.94737,1.26002,9.64675,-0.42119,0.04769,-33.99852,-32.73557,3.87374,37.42947,-3.8553,1.39757,-34.54473,20.19313,-5.18707,1.51223,-0.2641,0.2644,46.36116,25.36591,-6.09707,-11.28561,-29.8277,6.03914,2.28165,-0.62681,-0.89984,4.46975,-1.80591,1.60686,0.41351,-0.31674,-0.2109,2.08206,0.4726,0.67206,-0.05811,0.0289,0.01246,0.36025,0.04478,0.1764
906,-15.8454,-17.70357,1.24301,8.66722,-1.96713,-0.41924,-30.07725,-38.15664,3.20361,27.79007,-5.79429,-1.72453,-34.5671,19.92996,-5.23033,1.38114,-0.33128,0.14084,37.74408,21.0019,-7.54745,-5.55656,-5.70769,3.60729,4.24466,-2.74719,-2.36244,3.18239,-2.91827,0.54188,0.47759,-0.41691,-0.19412,1.90722,0.42883,0.68988,0.06497,-0.11262,0.01383,0.15956,0.08766,0.0711
907,-17.70398,-19.27546,1.77775,-0.15034,-2.79059,-0.47971,-36.73774,-47.6194,4.90831,11.56193,-8.1856,-4.2056,-34.52875,19.8299,-5.27368,-3.1314,0.57363,0.17166,9.25529,5.43216,-9.34855,-2.78058,10.94892,-1.96141,5.21824,-2.98352,-2.31824,2.87067,-3.69113,-0.45603,0.11362,-0.54271,0.13372,1.82799,0.70417,0.16942,0.04436,-0.16413,0.0558,0.06607,0.15594,-0.10464
908,-19.29405,-19.64031,2.31133,-0.22372,-2.4982,-0.44737,-45.06321,-49.14262,7.20462,19.45026,-7.58218,-3.18212,-34.3535,19.91308,-5.22381,-3.87646,0.82273,0.17519,8.8148,2.11486,-8.72434,-10.52122,6.12524,-3.1624,4.00134,-0.44352,-0.12472,3.77514,-3.78845,-0.31301,-0.09883,-1.00956,0.44398,1.55428,0.9555,-0.39515,-0.05895,-0.09555,0.07192,0.0872,0.1674,-0.17231
909,-19.62173,-18.20577,2.37821,-0.83216,-1.10456,-0.12013,-46.24465,-41.98464,7.89605,24.69989,-3.35215,0.2988,-34.09566,20.07293,-5.09258,-4.62397,1.11444,0.2216,14.57051,13.56948,-4.58847,-12.94167,-11.98404,1.39922,3.04688,2.13429,1.95393,5.04206,-3.62629,0.81486,-0.01834,-1.6387,0.60163,1.20642,0.8621,-0.46583,-0.08355,-0.02923,0.03605,0.16509,0.10261,-0.08042
910,-19.54038,-16.64715,2.22137,-2.82994,0.37023,0.18229,-43.11772,-36.89744,7.466,20.10543,0.23501,2.33073,-33.89376,20.15749,-4.96344,-5.45786,1.38579,0.24775,13.73465,22.51038,-1.56971,0.55712,-30.84675,8.36191,3.90452,2.3571,1.9447,5.78353,-3.68107,1.84325,0.04466,-1.7256,0.59605,1.05849,0.55444,-0.13349,-0.0193,-0.03218,-0.00305,0.20532,0.01988,0.05001
911,-20.18804,-16.68684,2.31814,-5.70798,1.00013,0.24982,-43.5934,-40.33829,7.50544,10.34256,-0.28101,1.04556,-33.82086,20.13071,-4.90477,-6.31853,1.60941,0.24585,2.06812,16.28402,-3.30846,10.94615,-41.56114,14.10759,4.94627,1.48748,0.94166,5.78517,-4.56973,1.59382,0.21332,-1.43535,0.4007,1.21596,0.56186,0.03066,0.07248,-0.10473,-0.00794,0.15601,0.00742,0.08017
912,-21.18513,-17.83161,2.58628,-7.99158,0.69968,0.17918,-46.83316,-46.87101,7.66878,4.36267,-4.36057,-1.59491,-33.85065,20.07631,-4.90037,-7.04237,1.87055,0.24694,-9.42012,1.61115,-7.61891,4.67279,-34.65934,13.88263,4.88319,1.17422,0.67533,5.49815,-6.51481,-0.01639,0.57407,-1.58164,0.24654,1.60545,1.13945,-0.28012,0.12665,-0.23739,0.0405,0.08306,0.09533,-0.00123
913,-20.94051,-17.8357,2.49919,-8.92518,0.4051,0.18062,-43.70966,-47.19431,6.53997,4.51241,-7.26245,-2.47335,-33.91811,19.97088,-4.83069,-7.51765,2.20139,0.26182,-6.35904,-3.69393,-9.18119,-3.50648,-11.24878,4.96909,4.83511,0.76557,0.83058,5.32011,-8.75278,-1.97503,0.79558,-2.0868,0.35185,2.06327,1.89938,-0.85339,0.11085,-0.35756,0.12809,0.09109,0.20442,-0.11113
914,-19.23329,-15.83276,1.99143,-8.85169,0.72529,0.23134,-33.27283,-39.42744,4.55626,5.70916,-4.78323,-0.79834,-33.95168,19.65312,-4.60868,-7.74818,2.42558,0.24413,7.39231,8.67236,-6.39034,-1.88557,8.38245,-6.058,5.523,-0.20503,0.47493,5.00433,-9.35211,-2.76685,0.81998,-2.13738,0.46474,2.17148,2.02467,-1.1668,0.0797,-0.32295,0.16182,0.1532,0.18886,-0.1538
915,-17.87738,-13.54906,1.62804,-7.96675,1.34483,0.20891,-26.08891,-30.26273,3.50359,3.20636,2.27111,1.98714,-33.91777,19.19961,-4.31099,-7.75346,2.43761,0.19781,12.66598,29.72337,-2.24876,0.05358,8.33212,-7.92114,5.67322,-0.4764,0.07511,4.69051,-6.87157,-1.17144,0.95345,-1.66837,0.28762,1.62323,1.11091,-0.81892,0.09243,-0.11893,0.07916,0.17037,2e-05,-0.0716
916,-18.15773,-12.5655,1.7717,-6.16119,1.49433,0.12339,-27.43862,-26.37715,4.14015,-2.29193,7.35066,3.34186,-33.86189,18.93985,-4.09036,-7.55913,2.42623,0.2306,2.58155,41.40756,-0.3294,-4.65449,-2.86844,0.21354,4.81144,0.42409,0.41686,5.40795,-3.14855,1.88656,0.99468,-1.41308,0.12864,0.91747,0.09608,-0.20969,0.09407,0.04029,-0.0232,0.13628,-0.1678,0.04843
917,-19.10975,-12.35594,2.1992,-3.86533,0.45688,-0.09564,-30.97766,-28.14668,6.1928,-6.47185,4.55826,0.88198,-33.81966,18.9397,-3.98319,-7.21137,2.50079,0.34314,-10.14619,32.18795,-1.94328,-3.30229,-8.87295,7.51634,4.85941,0.83845,0.91102,6.96233,-1.16868,3.89599,0.46659,-1.6255,0.39887,0.7602,0.08068,-0.01439,0.02804,-0.01482,-0.03199,0.10203,-0.10522,0.05649
918,-18.62473,-11.94125,2.5096,-2.16941,-1.29996,-0.51177,-29.24685,-32.20902,8.54576,-7.37215,-2.67888,-4.09585,-33.77537,18.9769,-3.87594,-6.7489,2.52445,0.37295,-13.17568,9.66697,-4.84804,12.46952,-6.03676,6.92642,7.34485,-0.29222,0.66359,7.50413,-0.78219,3.86797,-0.30509,-1.91093,0.8969,1.22346,0.66499,-0.03863,-0.01993,-0.18719,0.02489,0.12097,0.0982,-0.01742
919,-16.17471,-11.72677,2.55023,-1.48793,-1.79354,-0.72878,-22.40432,-36.88083,9.0902,-5.35699,-5.25857,-6.03333,-33.82265,19.07794,-3.70872,-6.18849,2.52408,0.29541,-4.77198,-6.9384,-5.27857,24.72447,-1.89557,2.5137,10.58247,-1.44276,0.20498,6.42389,-0.95341,2.47776,-0.41174,-2.16216,1.19544,1.93319,1.09964,0.03589,0.06447,-0.305,0.07441,0.19602,0.24238,-0.06359
920,-13.53836,-11.72988,2.36647,-0.68181,-0.37637,-0.37039,-17.67078,-40.05518,6.86345,-1.02455,-1.73854,-2.18706,-34.08704,19.55512,-3.524,-5.43856,2.65081,0.24305,6.37125,-8.29978,-3.31105,16.27972,-1.6076,0.22592,11.68116,-1.17428,0.42712,5.52469,-3.02039,0.51251,0.43849,-2.55902,1.19276,2.54166,1.51568,-0.13743,0.25568,-0.32101,0.10541,0.27655,0.28988,-0.08141
921,-12.28658,-11.21142,2.18701,1.24182,1.22803,0.20494,-20.74176,-39.17148,4.15046,2.78509,2.4248,3.62322,-34.48977,20.41049,-3.36195,-4.38428,2.80209,0.23253,7.16985,-0.93418,-1.22496,-0.81801,-1.31649,0.2288,10.21793,-0.6006,0.8656,6.12191,-7.15242,-0.9283,1.50115,-2.82154,0.99623,2.52926,1.90865,-0.71116,0.38108,-0.24647,0.12811,0.29444,0.25883,-0.0983
922,-11.98025,-9.63239,2.10252,3.41675,1.71656,0.38916,-27.05679,-32.25463,3.22748,3.44445,4.61281,6.37842,-34.86252,21.27273,-3.23823,-3.19475,2.79932,0.17761,-1.38808,9.63301,-0.54896,-6.76568,-0.32268,0.84069,7.85964,-0.70807,0.94192,6.96774,-9.97881,-1.10571,1.84852,-2.67373,0.80392,1.80527,1.85488,-1.17973,0.29955,-0.13068,0.14177,0.24426,0.1621,-0.0965
923,-10.81037,-7.08386,1.85925,5.05911,1.52606,0.11714,-25.15845,-20.66451,3.17917,2.1247,6.12712,5.31322,-35.09513,21.93366,-3.13664,-2.1433,2.70049,0.10328,-3.52886,22.79,-1.63092,-2.04888,-5.33209,2.1698,6.23441,-0.25847,1.23045,6.50308,-9.23916,-0.64686,1.42793,-2.54502,0.83234,1.42328,1.39604,-1.00437,0.10508,-0.09238,0.14646,0.22859,0.0703,-0.05347
924,-9.07739,-4.9193,1.56846,6.92018,2.00584,-0.17167,-15.94956,-12.9866,3.13367,1.12495,10.06506,3.53144,-35.23438,22.54013,-3.09206,-1.23865,2.7198,0.169,2.10812,32.69032,-2.28464,4.91763,-13.68095,3.38755,6.4888,0.93521,1.60385,5.50717,-6.78278,-0.16639,0.90985,-2.58128,0.92234,2.03546,0.89688,-0.26617,0.01395,-0.13878,0.11376,0.30447,0.03231,0.00886
925,-9.06006,-3.92311,1.60986,9.22772,2.98247,-0.27029,-13.14497,-13.89724,4.02911,-0.00059,15.88268,2.87965,-35.49375,23.29848,-3.17177,-0.36806,2.92934,0.37625,-1.04565,33.1033,-1.80327,16.91766,-16.27006,2.61834,8.50902,0.70739,0.85321,5.55554,-5.29631,0.281,0.75816,-2.25148,0.68958,2.85704,0.6958,0.24567,0.08873,-0.13691,0.01539,0.40421,0.04245,0.02057
926,-10.52487,-3.14663,1.82396,10.98329,2.50586,-0.37423,-19.8331,-17.16667,5.72033,-3.27332,17.67014,2.26103,-35.99321,24.19244,-3.3281,0.44697,3.24056,0.50057,-17.62396,24.97265,-2.37471,33.14382,-16.96594,1.41211,9.79481,-0.72557,-0.59528,6.22637,-4.94141,0.33099,1.04849,-1.59619,0.1089,3.00067,0.99624,-0.02866,0.23665,-0.05367,-0.11945,0.43978,0.09172,-0.03529
927,-10.98527,-1.65478,1.70891,12.14586,0.42817,-0.54243,-25.32092,-16.82892,6.29662,-7.87274,13.65819,1.29666,-36.62466,25.04941,-3.43315,1.15049,3.5885,0.43589,-33.36117,14.2238,-3.82203,38.48449,-22.06067,2.85781,7.74087,0.18843,-0.66173,6.25055,-4.60587,-0.1297,1.82879,-1.45984,-0.49565,2.6203,1.53559,-0.61876,0.38211,-0.00694,-0.21928,0.38474,0.15526,-0.08626
928,-9.83548,0.26731,1.18465,14.06785,-0.81408,-0.60578,-24.02426,-14.29129,4.97891,-11.04487,9.99844,1.09121,-37.21735,25.76455,-3.45667,1.83227,3.92323,0.34596,-39.04399,6.33664,-3.85983,27.44919,-19.82818,4.07771,3.92272,3.58207,0.83787,5.62199,-4.36213,-0.58582,2.75059,-2.02941,-0.80169,2.39719,1.7644,-0.72725,0.49579,-0.08754,-0.21921,0.28348,0.18294,-0.07881
929,-8.36086,2.09853,0.57714,17.0985,0.26387,-0.43207,-18.74856,-12.81118,3.0275,-12.06806,11.50962,2.07526,-37.66987,26.4214,-3.45386,2.52789,4.26778,0.44792,-36.73495,2.84174,-2.32103,14.56222,-0.50231,-0.03553,3.40819,4.51416,1.64086,5.16111,-4.94582,-0.60962,2.85732,-2.52665,-0.53255,2.50241,1.50142,-0.27707,0.52135,-0.24447,-0.10899,0.20964,0.14932,-0.02544
930,-7.19231,3.80319,0.11294,20.41365,2.31008,-0.11013,-10.73941,-13.0746,1.86354,-11.47548,16.62394,3.87642,-37.93378,27.09235,-3.45774,3.08898,4.74205,0.7465,-26.98816,2.80586,0.87602,12.66305,17.69808,-5.85964,7.29574,0.84199,0.7679,5.2994,-5.97892,-0.09896,1.84892,-2.56058,0.30813,2.38783,1.04762,0.12732,0.41394,-0.35168,0.05248,0.17401,0.07839,0.03182
931,-5.67976,5.0754,-0.16986,23.79795,3.61586,0.0795,0.70611,-13.71693,1.66054,-9.10593,22.0263,5.71298,-37.94387,27.601,-3.46322,3.417,5.34403,1.0302,-9.44036,6.04715,6.15709,21.48379,11.95799,-4.35248,10.06636,-3.15782,-0.03057,5.85138,-5.9062,1.10038,0.82563,-2.58356,1.14577,1.7136,0.62359,0.16213,0.24414,-0.35701,0.17648,0.14686,0.00608,0.06251
932,-3.78701,5.39126,-0.25486,27.31251,4.21236,-0.04195,11.11043,-12.63076,1.55461,-4.30817,25.59365,6.51456,-37.66126,27.74669,-3.45632,3.55972,5.89439,1.10356,8.39328,12.18969,9.36599,32.83496,-12.45366,5.03689,7.54026,-3.02291,0.82764,6.23484,-3.72299,2.79675,0.74682,-2.94504,1.40802,1.06198,0.21757,0.17606,0.11278,-0.32944,0.2344,0.17266,-0.02141,0.06326
933,-3.1695,4.92958,-0.12247,29.82584,4.76647,-0.30388,12.44681,-10.59132,1.11829,0.00124,26.83284,6.11134,-37.13612,27.57074,-3.4453,3.56102,6.32401,0.99847,11.24315,17.40675,6.53862,36.64551,-31.78379,11.49024,2.69431,-0.17164,2.23558,5.68071,-0.95396,3.39434,1.20172,-3.19483,1.10323,1.3207,0.1006,0.40312,0.03038,-0.32213,0.24803,0.31941,0.05218,0.03686
934,-4.75787,4.20338,0.2212,30.41846,5.36569,-0.40265,3.67028,-12.98149,1.37491,-0.7454,26.85103,5.25269,-36.41522,27.18465,-3.46159,3.47261,6.79971,0.9397,-6.65089,14.07937,1.82585,30.56547,-32.98447,6.74848,1.66919,0.63801,1.8832,4.05281,-0.55846,1.36985,1.38416,-2.7604,0.57503,2.45378,0.56751,0.5472,-0.0231,-0.27071,0.20344,0.49278,0.17742,0.00077
935,-7.08762,3.546,0.62838,30.6258,6.07343,-0.28857,-7.66481,-21.69315,3.23353,-4.35325,27.08164,4.45523,-35.46313,26.55403,-3.52301,3.43714,7.43002,1.07286,-30.38568,-0.60159,1.30241,24.5484,-21.98799,-3.20375,6.02644,-1.43469,-0.25183,2.54913,-3.04062,-1.86909,1.26098,-1.91124,0.1545,3.43623,1.2036,0.40757,-0.00093,-0.13448,0.09064,0.49553,0.20114,-0.01201
