PaulMeinheit/Bachelor_Muay_Thai/processed_Data/E2/teep/sliced/JointMoments/sliced4.csv
Unnamed: 0_level_0,R_KNEE_MOMENT,R_KNEE_MOMENT,R_KNEE_MOMENT,L_KNEE_MOMENT,L_KNEE_MOMENT,L_KNEE_MOMENT,R_HIP_MOMENT,R_HIP_MOMENT,R_HIP_MOMENT,L_HIP_MOMENT,L_HIP_MOMENT,L_HIP_MOMENT,R_ANKLE_MOMENT,R_ANKLE_MOMENT,R_ANKLE_MOMENT,L_ANKLE_MOMENT,L_ANKLE_MOMENT,L_ANKLE_MOMENT,WAIST_JOINT_MOMENT,WAIST_JOINT_MOMENT,WAIST_JOINT_MOMENT,NECK_MOMENT,NECK_MOMENT,NECK_MOMENT,L_SHOULDER_MOMENT,L_SHOULDER_MOMENT,L_SHOULDER_MOMENT,R_SHOULDER_MOMENT,R_SHOULDER_MOMENT,R_SHOULDER_MOMENT,L_ELBOW_MOMENT,L_ELBOW_MOMENT,L_ELBOW_MOMENT,R_ELBOW_MOMENT,R_ELBOW_MOMENT,R_ELBOW_MOMENT,L_WRIST_MOMENT,L_WRIST_MOMENT,L_WRIST_MOMENT,R_WRIST_MOMENT,R_WRIST_MOMENT,R_WRIST_MOMENT
ITEM,X,Y,Z,X,Y,Z,X,Y,Z,X,Y,Z,X,Y,Z,X,Y,Z,X,Y,Z,X,Y,Z,X,Y,Z,X,Y,Z,X,Y,Z,X,Y,Z,X,Y,Z,X,Y,Z
1808,-14.458,-26.46727,3.24196,-5.14959,-3.36185,-0.11481,-34.78293,-58.56389,5.52824,10.39878,-4.46405,-0.00963,-58.31636,30.00561,-7.94649,-3.80923,0.07021,0.22755,-2.28681,7.43666,-3.83135,16.27273,-20.46321,10.63387,7.91807,2.30244,2.68782,8.26081,-3.16402,3.63925,1.21329,-3.04771,0.59777,1.63882,0.84983,0.13186,0.13338,-0.5428,0.2583,0.45669,0.03477,0.12471
1809,-13.61887,-25.66641,3.21487,-5.82113,-1.95965,0.15174,-38.56986,-50.49708,5.59035,11.83533,-1.17137,-0.41138,-58.82314,30.36674,-7.80659,-3.82382,0.10151,0.33972,-2.57702,20.25632,-6.72009,10.63305,-9.27621,-4.42843,9.60983,0.87546,0.19291,7.53029,-4.27789,-1.62276,0.90172,-2.23158,0.41812,3.17679,2.90996,0.05277,0.11134,-0.42974,0.19356,0.51543,0.34689,0.06785
1810,-14.09228,-25.66348,3.48919,-6.5826,-1.89667,0.39457,-44.66355,-47.45238,6.57353,14.59734,-2.05492,-1.30939,-59.39917,30.63342,-7.75488,-3.56218,0.0661,0.5319,-3.41845,22.16103,-9.78028,-4.7222,8.34962,-11.22924,11.4308,-0.75628,-2.50614,8.11684,-5.39518,-4.7982,0.45551,-1.51588,0.24388,3.95863,4.25669,-0.51709,0.13215,-0.24006,0.02328,0.54395,0.55649,-0.10241
1811,-14.86962,-26.60225,3.83783,1.71203,0.22227,0.34826,-46.51577,-52.09986,7.25465,29.70751,2.03291,0.01338,-59.91874,30.79934,-7.80519,0.2974,-0.01165,0.31379,12.56582,23.13317,-6.91661,-19.89631,17.02337,-5.43388,11.34634,-1.08595,-2.84389,9.38828,-5.6574,-3.59553,-0.0909,-1.34535,0.46778,3.4416,3.97482,-1.07444,0.08751,-0.0688,-0.05299,0.49351,0.49888,-0.22211
1812,-14.40757,-27.5895,4.03096,0.94328,-0.18469,0.29219,-41.7087,-58.50637,7.61902,24.56699,5.47563,2.26493,-60.26139,30.87058,-7.84456,0.56326,-0.13957,0.16935,11.36605,22.25703,1.08909,-28.86414,4.95697,3.35855,10.80385,-0.16222,-1.13987,9.43034,-5.22214,0.03152,-0.41741,-1.72894,1.07846,2.00907,2.45392,-0.82056,0.02904,-0.03751,0.05959,0.25342,0.18977,-0.08158
1813,-13.26901,-27.39353,3.98352,2.36074,0.50416,-0.09771,-36.56599,-60.06268,8.26904,24.70975,11.26395,2.57666,-60.52799,30.86354,-7.80046,0.91679,-0.33828,-0.07035,16.26376,28.01916,4.45818,-24.86347,-14.4698,5.69519,11.80618,0.65011,0.21336,8.40782,-5.21402,3.07779,-0.27168,-2.40322,1.58934,0.49809,0.83008,0.06334,0.04452,-0.1629,0.23921,-0.11551,-0.16222,0.22583
1814,-13.07383,-25.92207,3.68504,4.66566,1.80541,-0.33121,-38.14682,-55.47667,8.28093,31.24135,11.51332,0.23072,-60.92741,30.8804,-7.71411,1.07504,-0.39234,-0.17325,21.17961,31.66087,-2.69243,-4.54366,-22.38931,3.33522,12.49809,0.61028,0.48414,7.9764,-5.7426,4.4449,0.30426,-3.0733,1.47411,-0.10832,-0.07381,0.72123,0.11918,-0.34575,0.29258,-0.29566,-0.33892,0.38702
1815,-13.46596,-24.26789,3.18419,5.17279,2.57418,-0.09547,-42.60175,-47.33481,6.49848,33.1121,5.16697,-1.67149,-61.49129,31.06623,-7.66378,0.92864,-0.18613,-0.12108,17.37296,33.67558,-12.34272,16.65635,-24.20488,2.82198,10.1257,0.40015,0.65243,8.95099,-5.9356,4.44526,1.06111,-3.2144,0.58089,0.7854,0.00568,0.77003,0.22616,-0.43583,0.123,-0.03663,-0.27399,0.28145
1816,-12.89736,-23.31685,2.69963,2.28879,2.30068,0.2985,-41.02452,-39.92478,4.18241,22.05986,1.05777,-0.51501,-62.05131,31.48318,-7.69147,0.58005,0.07165,-0.07151,6.22608,41.82541,-12.35749,14.61346,-38.71973,4.24116,7.14297,0.96586,0.41489,10.85206,-5.66503,3.55345,1.16432,-2.25307,-0.42448,2.38221,0.98201,0.22922,0.27462,-0.30302,-0.17169,0.41769,-0.03196,0.02044
1817,-11.77683,-23.1376,2.58993,-1.9521,1.40226,0.34827,-36.3866,-37.2058,3.81176,8.39697,4.86554,1.83358,-62.45861,32.05987,-7.79009,0.19856,0.0925,-0.08071,-3.14258,54.08368,-4.91555,-7.23992,-66.57821,3.10687,8.33235,2.0653,-1.10054,12.44284,-5.39824,2.51793,0.29426,-0.84301,-0.61825,3.22183,2.20873,-0.5742,0.17771,-0.04597,-0.33446,0.60295,0.20775,-0.21003
1818,-10.87446,-23.77842,2.9716,-3.07586,0.47446,0.03151,-36.25554,-42.06512,5.50928,8.49533,9.40944,1.47585,-62.7293,32.70031,-7.90048,0.06379,-0.08734,-0.02671,-2.11751,53.36386,-1.40489,-19.59918,-80.20494,0.64636,12.60729,2.73152,-1.98898,12.18415,-4.94587,1.76072,-0.27418,-0.72111,0.03897,2.75429,2.88091,-1.17527,0.02355,0.05877,-0.18795,0.41457,0.3162,-0.30419
1819,-9.65551,-25.26646,3.52145,-0.89624,0.45342,0.02131,-38.68857,-54.44392,6.93703,21.01845,6.31051,-1.30361,-63.05321,33.39911,-7.99137,0.21051,-0.10732,0.18216,9.66296,29.35094,-4.17849,-10.92361,-53.6082,2.50691,13.55076,2.58279,0.1781,9.92775,-3.94241,0.75642,0.44247,-2.06426,0.68158,1.919,2.96896,-1.2871,-0.0432,-0.04641,0.12033,0.19686,0.36713,-0.27924
1820,-8.74033,-26.47184,3.84668,0.94258,0.82174,0.41322,-41.32746,-66.40819,7.02296,31.86892,-2.2243,-3.26264,-63.56188,34.11609,-8.10729,0.40687,0.03974,0.32085,19.73347,-1.39583,-7.81208,1.2301,-3.66448,9.06931,8.60325,1.93445,3.6217,7.38038,-2.81207,-0.15808,1.47052,-2.97654,0.68707,1.7485,2.67276,-0.72571,0.00707,-0.19472,0.29764,0.22033,0.40301,-0.15449
1821,-9.47005,-26.1321,3.87033,1.06161,0.36432,0.51272,-46.49328,-67.7713,6.96897,32.41234,-5.93862,-2.30206,-64.10546,34.67656,-8.26514,0.53544,-0.01326,0.15448,14.48601,-9.73658,-7.26753,0.38369,26.67161,14.64413,3.63398,1.21169,3.99633,6.39795,-2.4915,0.75257,1.59789,-2.32614,0.25182,1.89941,1.86158,0.21211,0.14407,-0.25183,0.2164,0.32123,0.30787,0.029
1822,-10.5439,-24.29863,3.54312,0.82358,0.26403,0.32251,-50.26561,-58.01746,6.88332,25.38817,-0.39285,1.04344,-64.40742,34.99736,-8.36001,0.58307,-0.18604,-0.05124,1.25821,9.79695,-2.39509,-12.54761,24.59461,15.14009,4.93484,0.66781,0.23788,7.47784,-3.42127,4.07413,0.90217,-1.12089,-0.05041,1.55064,0.63304,0.80749,0.27322,-0.1876,-0.00944,0.26101,0.03248,0.17286
1823,-9.87615,-22.05749,2.80974,1.34228,0.71093,0.21739,-44.50905,-46.41322,5.4426,19.1964,4.30966,3.04505,-64.39861,35.19348,-8.33985,0.57602,-0.1919,-0.02731,0.82522,29.81772,1.21129,-23.80255,8.18466,12.54725,10.05736,0.18713,-3.67353,9.94824,-4.91431,7.70142,0.05233,-0.92606,0.20529,0.93889,-0.10659,0.56692,0.19007,-0.10928,-0.09746,0.12204,-0.19175,0.15721
1824,-8.3565,-20.88048,2.14782,2.27,-0.2679,0.08698,-31.83246,-42.3289,3.3806,19.88677,0.15801,1.22188,-64.28677,35.42769,-8.33975,0.56666,-0.14712,0.03042,17.69961,28.71606,-0.1127,-17.814,-12.00042,9.93328,12.63708,-0.41969,-3.8788,12.41022,-5.65546,8.50536,-0.30221,-2.00653,0.83471,0.95557,0.61979,-0.39712,-0.09223,-0.15962,0.07304,0.12635,-0.06509,-0.06794
1825,-8.13086,-21.08526,2.11822,3.09143,-1.99979,-0.20006,-25.78811,-45.78355,3.11218,26.48494,-5.37122,-2.08116,-64.27004,35.75576,-8.44262,0.61635,-0.20678,-0.0369,33.34447,17.89643,-5.08756,3.69975,-33.82315,4.08042,11.83644,-0.8008,-1.55775,13.24582,-5.24903,4.77682,0.27113,-3.14786,1.05894,2.02304,2.49687,-1.17161,-0.18792,-0.30385,0.25997,0.33005,0.33646,-0.31298
1826,-9.6319,-21.41937,2.55514,3.82866,-1.99094,-0.48123,-34.20764,-48.32838,4.97602,30.91437,-2.94756,-3.08003,-64.32632,36.01001,-8.55453,0.7479,-0.26339,-0.08883,26.28948,19.09583,-10.04674,18.72356,-43.43613,-8.80463,11.11449,-0.55292,-0.50455,11.87873,-4.47277,-1.92894,1.42647,-3.23936,0.49117,3.5893,4.08533,-0.84239,0.11931,-0.38414,0.20681,0.58517,0.64233,-0.30435
1827,-11.75195,-20.94274,2.86283,4.39192,-0.06754,-0.54051,-49.04989,-44.63505,6.63578,26.70287,6.06932,-0.28802,-64.35081,36.00113,-8.58896,0.91933,-0.18889,-0.02131,-2.53056,35.99767,-9.74774,14.67187,-30.27259,-19.11402,11.0604,0.12794,-1.08628,9.19026,-3.86406,-5.743,2.24757,-2.51782,-0.37036,4.00695,3.98567,0.25959,0.50565,-0.32537,-0.02699,0.61847,0.62273,-0.05727
1828,-12.87614,-19.78388,2.67693,4.24416,1.84422,-0.33131,-54.91863,-39.31551,6.15377,17.14465,13.29096,4.25181,-64.31325,35.84204,-8.54748,1.00646,-0.02744,0.06991,-26.49273,50.76241,-2.87027,1.95561,-8.20019,-12.86855,8.5348,0.78772,-0.45981,6.18102,-3.34273,-1.90038,2.01135,-1.61739,-0.80977,2.04338,1.90905,0.98958,0.49198,-0.13593,-0.19143,0.26234,0.29505,0.19698
1829,-11.60834,-18.4397,2.03845,3.41807,1.66506,-0.06986,-44.20365,-40.43401,4.23626,11.83435,10.14861,5.25917,-64.20715,35.74502,-8.48187,0.90642,0.01057,0.03042,-18.63432,39.22884,3.13606,-9.64331,9.84607,3.75272,3.69333,1.18708,1.66627,3.96659,-2.97246,4.93376,0.80088,-0.82033,-0.57144,-0.66774,-0.32088,0.85578,0.07742,0.07732,-0.1713,-0.21791,-0.101,0.32032
1830,-8.96963,-17.66426,1.41506,3.3569,-0.94947,-0.05173,-26.1834,-49.20095,3.19414,17.3308,-3.90543,-0.58878,-63.99192,35.67682,-8.5087,0.74025,-0.1931,-0.13866,17.67738,-0.32612,-0.04216,-18.48812,31.32982,11.31889,1.76268,1.33813,2.21762,4.05919,-3.02685,6.2274,-0.10719,-0.3697,-0.2415,-1.16099,-0.51898,0.46114,-0.20602,0.16805,-0.11044,-0.33149,-0.24788,0.332
1831,-8.23395,-17.86597,1.34065,4.88341,-3.85348,-0.31835,-18.81886,-56.33418,4.15995,28.69178,-17.03387,-8.7559,-63.58693,35.50011,-8.68185,0.75917,-0.44981,-0.27558,45.83885,-32.31645,-9.98123,-15.67913,45.31621,4.13675,5.02023,1.35602,-0.17822,6.70599,-3.61712,1.78087,0.20635,-0.33062,-0.4251,0.82008,1.03773,0.38143,-0.06714,0.1172,-0.14831,0.00322,-0.08075,0.25309
1832,-10.75589,-18.05543,1.69016,7.15714,-3.86702,-0.65053,-27.87366,-51.5382,5.84198,36.94801,-14.83764,-10.56761,-62.93436,35.18435,-8.85366,1.06168,-0.44081,-0.24569,40.82976,-16.56651,-16.52213,5.86282,14.40679,-8.3794,9.93709,1.36679,-3.18773,10.29092,-4.30583,-2.63576,0.91731,-0.53936,-0.6921,3.30204,2.64925,0.48886,0.1786,0.02463,-0.1965,0.43916,0.19992,0.0673
1833,-14.1481,-16.96648,1.74873,8.84784,-0.40157,-0.84494,-39.72844,-39.1165,6.03043,40.69343,1.14619,-4.63656,-62.09687,34.74329,-8.85707,1.4272,-0.10672,-0.10331,22.2185,34.61351,-15.4938,28.69432,-52.30318,-15.95132,13.09181,1.42792,-4.13619,12.37648,-4.12093,-4.16899,0.95592,-0.93406,-0.32062,4.74134,3.52964,0.41672,0.19734,-0.03627,-0.10337,0.65961,0.41403,-0.17412
1834,-16.33785,-15.29119,1.32259,8.58952,3.3825,-0.85131,-42.31569,-33.62875,4.41862,38.96902,14.8528,1.95003,-61.27197,34.22192,-8.78008,1.50532,0.26412,-0.03329,11.78951,68.33678,-10.95772,28.85061,-87.32363,-11.62732,13.76875,1.38196,-2.33296,11.09176,-2.78433,-2.60088,0.74368,-1.60648,0.4451,4.25426,3.3892,0.0095,0.10169,-0.11685,0.10564,0.56207,0.46536,-0.32091
1835,-17.13856,-14.45347,0.89937,5.96425,4.99474,-0.77915,-39.70724,-36.59808,2.92236,27.64729,19.8184,5.48417,-60.57105,33.76667,-8.77602,1.2457,0.39906,-0.09764,-0.97815,71.72344,-5.39887,12.14353,-69.39599,4.65596,11.76934,0.9163,1.6921,7.63076,-1.8803,1.81701,1.09905,-2.5518,0.92673,1.87574,2.11743,-0.65178,0.12774,-0.31538,0.30416,0.23137,0.3287,-0.29944
1836,-16.74269,-14.4481,0.77298,3.37224,5.10733,-0.77749,-39.42478,-37.1205,2.93569,13.50259,22.6613,7.97934,-59.89426,33.41007,-8.84022,1.01666,0.30691,-0.17023,-20.11098,75.70976,0.21517,1.82266,-51.6849,20.41479,8.10413,0.27305,5.43018,5.75464,-3.2577,7.09012,1.56341,-3.13138,0.93562,-0.649,0.30983,-0.86031,0.21695,-0.52097,0.38226,-0.09974,0.06158,-0.12525
1837,-16.6401,-14.32654,0.77742,3.61761,4.30136,-0.79805,-41.08101,-33.96662,4.11422,10.13241,22.7398,8.50956,-59.13277,32.92347,-8.95714,1.07091,0.09511,-0.16927,-25.70712,79.68153,1.85552,0.49757,-53.1984,20.11529,5.83645,0.23186,4.87817,6.37305,-5.76496,9.47468,1.31062,-2.47058,0.48987,-1.32979,-1.13524,0.0875,0.18944,-0.46704,0.2493,-0.20687,-0.22732,0.15973
1838,-18.12419,-13.34984,0.60058,5.45017,2.13451,-0.61824,-39.27506,-35.33335,5.36584,17.02804,13.53835,4.57391,-58.29124,32.19127,-9.10359,1.12958,-0.16146,-0.1337,-9.48383,54.37916,-0.99499,-6.93901,-33.26559,5.43586,6.1603,0.65491,0.37556,6.78981,-6.18773,6.68701,0.61999,-1.14846,-0.19263,-0.02668,-1.4416,1.42367,0.07423,-0.20212,-0.02502,-0.03022,-0.37403,0.38912
1839,-20.08495,-11.92999,0.20298,5.72796,-0.26052,-0.16945,-32.6799,-41.88943,5.67476,23.58077,-0.09477,-0.56201,-57.43048,31.42737,-9.19162,0.90788,-0.29565,-0.06713,13.12829,8.92322,-3.16171,-20.0544,3.07015,-4.34696,6.58946,0.55109,-2.22808,5.98886,-3.90656,1.39682,0.52759,-0.73137,-0.6877,1.7742,-0.42971,1.76504,0.09489,-0.06116,-0.23507,0.28868,-0.24901,0.37415
1840,-21.06643,-11.00983,-0.21914,4.12491,-1.2763,0.33475,-26.3197,-45.39053,4.43156,24.41457,-7.29132,-1.78176,-56.62283,30.87838,-9.19809,0.62622,-0.16733,0.04876,24.13576,-14.83185,-2.30431,-22.79646,1.08294,2.10237,5.50749,-0.08459,0.28983,5.09317,-1.4404,-1.16637,1.24941,-1.40919,-0.80623,2.38061,0.90906,0.97808,0.31663,-0.11594,-0.29413,0.42393,0.0272,0.16016
1841,-21.3008,-10.81969,-0.49856,2.79019,-1.2319,0.58426,-23.1741,-43.78051,2.59803,20.66371,-7.05329,-0.31567,-55.91252,30.52626,-9.21298,0.5935,0.11082,0.17398,20.91372,-8.00179,-0.46897,-13.77803,-31.20294,13.91238,4.40963,-0.38035,3.56003,4.50953,-0.72221,0.5478,1.77631,-1.87894,-0.62216,1.39536,1.4311,0.02119,0.48463,-0.13821,-0.25376,0.20743,0.18851,-0.0242
1842,-22.30364,-10.65138,-0.57183,2.85682,-0.94465,0.4295,-24.11616,-42.90932,2.46203,17.0646,-5.72239,-1.13885,-55.25233,30.14013,-9.29337,0.67371,0.27404,0.23057,12.08762,0.37537,-1.07035,-5.16743,-28.43477,16.52485,4.37861,-0.03822,1.9456,4.15388,-1.37864,3.44404,1.65319,-1.17206,-0.51266,0.06805,1.10533,-0.38336,0.43298,-0.02108,-0.17654,-0.09017,0.15823,-0.05258
1843,-24.62469,-9.3993,-0.62397,3.56376,0.07218,0.02951,-30.48243,-42.19804,4.235,19.27931,-4.47924,-4.26126,-54.58958,29.62673,-9.36365,0.60132,0.20712,0.17346,6.67424,1.37384,-6.43508,-0.69701,13.44629,11.05573,4.31379,0.47138,-2.66264,4.62946,-2.20314,4.30793,1.35725,0.10704,-0.61228,-0.11835,0.73808,-0.23907,0.26343,0.0839,-0.06143,-0.11048,0.09827,-0.01464
1844,-26.48367,-7.24798,-0.89477,3.8957,2.01061,-0.26323,-37.1789,-36.08226,5.31325,26.94391,0.15305,-4.82941,-53.99762,29.15186,-9.36538,0.4627,0.06541,0.06192,10.52379,15.0047,-12.83082,1.19553,30.2478,5.19999,3.50797,0.93511,-3.97409,5.99903,-2.45911,2.74142,0.89379,0.80677,-0.49682,0.99741,0.84379,0.14034,0.05939,0.0774,0.07894,0.13785,0.14824,-0.04657
1845,-26.6966,-6.08799,-1.20285,3.38706,3.20189,-0.25101,-37.42538,-28.77518,4.51494,32.12457,5.46872,-2.01272,-53.55838,28.82205,-9.3846,0.48466,0.03803,-0.00722,18.76965,37.70726,-14.63138,0.51229,-1.00144,-0.16849,3.2174,1.39534,-0.50397,6.94639,-2.10055,0.09422,0.15989,0.52206,-0.04416,2.37945,1.08992,0.6461,-0.13965,0.04016,0.15107,0.40701,0.22977,-0.08719
1846,-26.60645,-6.24545,-1.39316,2.05969,2.12304,-0.05429,-34.08783,-28.20677,3.21667,29.29771,3.80472,-0.63768,-53.27137,28.613,-9.48369,0.61746,0.0982,-0.01416,18.24752,40.35054,-14.02237,0.01079,-31.83688,-6.5241,3.93104,1.37415,3.41923,6.18129,-1.42897,-2.36652,-0.30066,-0.37083,0.27668,2.90403,1.00378,1.16388,-0.24084,0.02839,0.09841,0.52523,0.20587,0.02239
1847,-28.04977,-5.6819,-1.76769,0.81723,0.34861,0.15731,-34.47014,-31.13376,2.19604,22.89064,-2.71519,-2.03476,-53.19793,28.52016,-9.65862,0.69732,0.15383,0.04855,6.17323,23.13109,-14.91729,0.64426,-26.14025,-10.74747,4.48432,0.57587,3.64968,4.04667,-0.83102,-3.49076,-0.17477,-1.14723,0.25514,2.29393,0.59463,1.47696,-0.19669,8e-05,0.00624,0.45842,0.06697,0.27671
1848,-30.2159,-3.66891,-2.43476,-0.04098,-0.20972,0.29732,-35.80961,-30.18618,1.24262,18.17448,-4.8343,-2.49384,-53.37825,28.5484,-9.889,0.65113,0.13622,0.15355,-4.22617,14.1168,-13.53924,-4.10093,-4.29884,-7.57628,4.65148,-0.23979,0.76964,2.69944,-0.72381,-2.24032,0.31707,-1.32977,0.10189,1.4071,0.27892,1.54122,-0.02946,-0.05624,-0.02691,0.31512,-0.06523,0.48449
1849,-31.28147,-2.1277,-2.82354,-1.52772,-0.3069,0.2928,-31.57395,-27.70468,1.25739,14.89223,-1.40013,-0.74557,-53.73682,28.72377,-10.11498,0.43444,0.01771,0.19816,-1.62831,20.62777,-6.21851,-18.80631,1.49515,3.64522,4.56774,-0.22631,-1.36305,3.68097,-1.42419,1.10394,0.87233,-0.90206,-0.11193,0.87274,0.36982,1.18017,0.16181,-0.07672,-0.01541,0.1674,-0.06739,0.42217
1850,-31.84724,-2.01711,-2.60475,-3.65546,-1.0625,0.1755,-26.12044,-28.95199,2.9227,12.29955,1.10284,0.70281,-54.25458,29.11831,-10.28042,0.10656,-0.09245,0.1405,7.44723,27.42192,1.84946,-31.94333,-13.62344,15.19276,3.53009,0.31453,-0.58633,5.3591,-2.51882,3.998,1.35066,-0.25757,-0.5385,0.27357,0.60274,0.20935,0.26506,-0.0449,-0.03943,-0.05366,0.01812,0.07487
1851,-32.93393,-1.87035,-2.3108,-4.82046,-2.15259,0.07226,-26.86906,-32.1376,4.97005,11.42449,-0.53571,0.37938,-54.99534,29.70352,-10.40042,-0.16331,-0.10798,0.05571,9.10045,26.61478,3.71734,-25.51883,-31.75787,17.60817,1.77404,0.32745,1.58311,5.05791,-2.68316,3.37498,1.72375,-0.09517,-1.05198,-0.32422,0.60542,-0.76907,0.29839,-0.04765,-0.12613,-0.23278,0.05629,-0.2581
1852,-33.69085,-0.62041,-2.51694,-4.28544,-2.71923,0.02957,-31.03312,-32.78038,5.77566,12.80874,-3.3462,-0.78063,-55.99808,30.35035,-10.57403,-0.29859,-0.10664,0.01942,2.43383,23.65699,-0.79037,-3.99807,-30.77364,10.72344,0.5327,-0.40098,1.55704,2.81795,-1.3808,-0.07862,1.73585,-0.41444,-1.20932,-0.23124,0.4744,-0.94571,0.34699,-0.12296,-0.21243,-0.13932,0.02404,-0.28145
1853,-33.69845,1.38802,-3.22508,-4.01658,-2.08259,0.02235,-30.89437,-28.77505,4.61752,12.36087,-3.688,-1.66497,-57.27842,31.08894,-10.90226,-0.42908,-0.12812,0.02885,-5.11879,25.91931,-6.87508,8.13074,-10.17548,3.88816,0.76038,-1.04074,-1.74576,1.05675,-0.19824,-1.75102,1.30875,-0.64712,-0.8615,0.24684,0.31359,-0.45902,0.4191,-0.229,-0.21888,0.10948,-0.0309,-0.05276
1854,-34.40245,3.28934,-3.96411,-5.87777,-0.18873,0.06584,-26.1116,-22.82346,2.28716,6.81355,-1.15823,-1.62244,-58.86202,32.13018,-11.35872,-0.64512,-0.08341,0.03315,-9.75634,33.22647,-9.64283,0.90625,1.23523,4.74757,2.31335,-1.03478,-3.51727,1.61056,-0.58751,0.16172,0.72061,-0.91367,-0.24074,0.49156,0.1446,0.10036,0.35642,-0.33511,-0.09855,0.24683,-0.06567,0.16931
1855,-36.54355,4.20026,-4.15896,-8.40172,1.62662,0.11347,-22.7454,-21.686,1.2348,2.89158,2.09807,-0.28004,-60.77356,33.55841,-11.78728,-0.78949,0.00052,-0.05195,-6.97887,37.43756,-7.3354,-11.82852,-16.92046,10.55194,3.43159,-0.55618,0.81454,3.4581,-1.53084,1.73762,0.31663,-1.4504,0.22084,0.61627,0.2636,0.35654,0.07251,-0.36373,0.07631,0.23482,-0.00111,0.18933
1856,-38.52385,4.24116,-3.77548,-9.14315,1.28533,0.00917,-23.3904,-27.1172,2.80543,7.87536,2.68911,1.09169,-63.03791,35.1941,-12.08211,-0.63158,-0.05019,-0.26428,5.99277,33.26131,-3.50666,-17.12156,-44.17604,11.08686,1.92078,-0.02869,7.24519,3.62897,-1.33533,-0.40429,0.36859,-1.49158,0.09718,0.5285,0.65042,0.05315,-0.17058,-0.2172,0.12622,0.11916,0.14854,-0.01572
1857,-38.83473,4.8126,-3.49566,-7.30807,-1.72138,-0.23093,-25.3701,-32.22086,5.00362,18.46205,-2.20211,0.05282,-65.73868,36.84167,-12.32947,-0.04467,-0.23857,-0.45818,22.06376,24.9494,-4.4393,-15.63077,-45.4146,3.1572,-1.46759,0.38289,8.18897,1.56984,-0.15852,-3.75625,0.65611,-0.3571,-0.4756,0.02555,0.89151,-0.5677,-0.1381,0.07123,0.00449,-0.03902,0.24568,-0.23144
1858,-37.98639,6.98305,-3.95237,-3.71272,-4.83237,-0.2954,-25.56629,-30.8232,4.89668,25.92283,-9.05976,-2.58486,-68.95293,38.52277,-12.67723,0.81037,-0.31635,-0.40195,29.9401,22.52919,-9.75398,-5.32299,-15.28802,-2.19547,-2.06322,0.82712,3.78113,0.24728,0.72447,-3.71063,0.70601,0.84659,-0.84274,-0.18628,0.9902,-0.60555,0.01576,0.29716,-0.13603,-0.06325,0.24981,-0.18343
1859,-37.4313,10.05818,-4.88407,-0.46789,-5.0697,-0.07892,-24.11005,-24.21722,2.54983,25.01499,-9.67977,-3.18666,-72.58144,40.36494,-13.13465,1.39413,-0.17941,-0.09919,24.0641,31.60561,-11.95071,21.51461,19.86838,0.89778,2.16828,1.31241,-0.50288,1.77351,0.89621,-0.73366,0.38484,0.83399,-0.62998,0.74332,1.32723,0.4033,0.05059,0.31117,-0.15794,0.1451,0.25464,0.09649
1860,-37.80343,11.81395,-5.23801,1.06342,-3.03613,0.11521,-23.65385,-19.79201,1.42742,19.03176,-3.66014,-1.39186,-76.42895,42.41513,-13.63365,1.30236,-0.06018,0.17646,11.27952,41.36649,-8.29042,53.81903,33.305,-0.68166,5.76807,1.34838,-3.63481,4.98815,0.59878,0.65889,-0.34777,0.41089,-0.00279,2.46892,1.84245,1.783,-0.05536,0.21319,-0.06846,0.42758,0.28143,0.31095
1861,-38.62497,11.2842,-4.52894,2.01325,-1.43151,0.18325,-25.10833,-22.36244,3.53271,17.9151,1.02991,0.35558,-80.40396,44.60946,-14.13823,0.81706,-0.10173,0.2566,8.27389,38.64931,-3.79756,60.0655,22.37942,-13.13583,3.66236,0.64117,-6.90224,6.91899,-0.42899,-0.50178,-1.24151,0.82591,0.56227,3.16709,1.70036,2.15954,-0.19822,0.17451,0.04096,0.45375,0.17478,0.26057
1862,-39.4304,10.61881,-3.66471,3.37084,-1.22699,0.27461,-27.16958,-25.84931,6.11989,25.49837,0.94329,1.50322,-84.49059,46.72285,-14.61462,0.54444,-0.18375,0.19151,19.40941,33.65891,-2.25524,24.96192,0.55283,-17.11302,-0.73415,-0.28109,-7.24786,5.11076,-2.10861,-1.01338,-1.31215,1.21146,0.60879,1.1187,0.32354,0.57805,-0.23544,0.11268,0.10858,0.03961,-0.13855,-0.01238
1863,-39.886,11.802,-3.6124,-8.94911,-8.60219,0.08681,-28.49781,-22.75153,6.06153,8.23405,-11.95095,-0.56386,-88.64778,48.4338,-15.01785,-4.97647,-1.85105,-0.38904,-0.32319,28.27745,-4.87754,-26.63214,-26.51049,0.7289,-2.15512,-0.70685,-1.93054,-0.1621,-2.72001,-0.62445,-0.09797,0.25633,0.2338,-2.72224,-1.15325,-2.26127,-0.08365,-0.15134,0.15536,-0.57135,-0.37853,-0.34787
1864,-38.56839,13.88002,-4.14109,-12.04408,-9.06934,0.03777,-25.42452,-16.81636,3.99344,-0.30613,-13.50049,-0.71388,-92.73566,49.66346,-15.27219,-5.61415,-1.90838,-0.46872,-12.48711,41.43364,-5.95778,-53.40778,-57.95187,23.0285,-1.66139,-0.41462,5.64403,-5.24405,-1.00606,-1.93171,1.41974,-1.20107,-0.0655,-4.76056,-1.18853,-3.77265,0.16659,-0.4685,0.21039,-0.82804,-0.2625,-0.49456
1865,-34.34428,15.22912,-4.49918,-14.5357,-9.33257,-0.05982,-13.16363,-15.86029,2.48055,-12.41053,-16.47285,-2.90655,-96.46088,50.59367,-15.30507,-6.3899,-1.88042,-0.49095,-17.50808,40.0875,-8.11595,-41.16165,-77.5509,27.23456,-2.28383,0.47815,9.32681,-5.37593,1.3543,-4.04549,2.08955,-1.27527,-0.26081,-2.65046,0.15908,-2.02457,0.33516,-0.45389,0.19497,-0.39077,0.11265,-0.21457
1866,-29.55056,15.62073,-4.28501,-14.47961,-9.61312,-0.16041,3.60057,-19.3882,3.15103,-18.34867,-19.07214,-5.82609,-99.50447,51.25356,-15.17941,-7.52617,-1.92479,-0.5358,-2.78705,26.21417,-8.79886,-16.65855,-67.24525,14.04952,-2.33903,1.48253,6.84568,0.35216,1.98025,-3.39811,1.45872,0.01752,-0.50027,1.46801,1.94086,1.14074,0.25687,-0.05173,0.03386,0.40432,0.51922,0.26777
1867,-27.16499,15.71606,-3.68136,-13.3014,-8.6073,-0.32113,13.73205,-19.44312,4.80566,-18.90254,-14.64477,-5.82448,-101.58637,51.38054,-14.98498,-8.83639,-2.11155,-0.55684,15.12173,24.38207,-4.65508,-15.76902,-37.82461,-0.72795,1.27462,1.71545,2.27074,6.89085,0.9098,0.36391,-0.50993,0.41285,-0.18316,3.13827,3.29684,1.73534,-0.152,0.26772,-0.11929,0.75082,0.81966,0.27324
1868,-25.91076,16.03984,-3.28513,-12.4515,-5.91765,-0.45631,15.40798,-11.63804,4.37389,-20.08475,-2.59905,-1.12251,-102.4071,50.6827,-14.64994,-9.6829,-2.3188,-0.47211,18.82697,44.74356,3.10464,-37.05347,-19.87598,-6.96605,6.79181,0.98365,0.70665,8.65672,-0.73187,4.1918,-1.9887,-1.15273,0.55197,1.02145,2.89977,-0.72892,-0.49556,0.15087,-0.13449,0.276,0.73284,-0.29641
1869,-21.97505,16.16247,-3.27956,-10.42091,-3.28012,-0.40278,16.87948,-2.77278,1.72043,-25.04789,9.34771,5.35462,-101.72757,49.08324,-14.03996,-9.78812,-2.37722,-0.36595,9.53296,65.74557,10.2725,-39.73019,-22.23044,-6.27015,8.73938,0.46435,2.28912,6.45485,-2.28405,4.82565,-0.88025,-2.56128,0.39244,-1.3526,0.87134,-2.34071,-0.31014,-0.08808,-0.10034,-0.36217,0.20823,-0.62522
1870,-14.31784,14.86674,-2.95552,-4.99221,-2.96248,-0.09551,24.0814,-3.16631,0.38657,-30.55929,11.53728,7.82906,-99.43364,46.65255,-13.16179,-9.63997,-2.24914,-0.41073,1.82102,60.01062,12.23876,-2.93509,-24.71628,-3.79611,6.42273,0.93573,3.88802,4.2877,-3.22589,1.88602,1.73365,-2.22897,-0.79657,-1.38301,-0.53579,-1.25692,0.14286,-0.08837,-0.10295,-0.48903,-0.29152,-0.31305
1871,-5.77239,12.51967,-2.04004,3.39633,-5.08172,0.45236,35.10804,-11.21717,1.59914,-30.24039,1.00316,3.7551,-95.44661,43.54638,-12.10476,-9.83607,-1.93595,-0.60846,8.90495,29.16265,6.71442,42.1054,-13.67162,-2.54785,5.16365,1.56648,3.16359,3.00585,-3.38642,-0.35656,2.90614,-1.25945,-1.50923,-0.28749,-0.98169,0.64899,0.28386,0.04387,-0.0959,-0.24164,-0.54805,0.19973
1872,-0.16132,12.08713,-1.85358,12.27655,-7.04651,1.02629,41.90949,-13.1025,2.19482,-27.17244,-13.06498,-2.74552,-89.61227,39.97607,-10.86948,-10.31368,-1.40837,-0.83284,19.48405,2.18559,-1.70157,58.28333,7.57321,-5.26536,6.95951,1.02354,0.13407,1.72798,-2.37426,-0.20923,1.67251,-0.84705,-0.87819,0.64866,-0.97915,1.59602,0.02872,0.08275,-0.01727,0.0301,-0.48674,0.39271
1873,2.13972,13.27951,-2.52119,19.36229,-6.01229,1.23599,42.45575,-5.57764,1.64422,-35.55868,-16.83135,-5.4166,-81.85841,35.85287,-9.46097,-10.58738,-0.63915,-0.99785,9.85081,-4.64399,-0.58955,43.55434,31.813,-10.61238,8.01023,-0.57065,-3.00268,1.04174,-1.03288,-0.54575,-0.11233,-0.69339,0.21439,1.16191,-0.26989,1.32059,-0.213,0.03675,0.08362,0.07338,-0.13609,0.14147
1874,6.49315,11.62472,-1.94576,25.84333,-1.45943,0.96765,51.81561,-0.24443,3.06435,-54.83194,-7.60397,-3.184,-72.43049,30.92971,-7.89893,-10.47413,0.3943,-1.1272,-3.10523,-3.64223,15.78622,17.77416,49.85479,-10.56919,6.50006,-1.5749,-3.78069,3.55955,-1.52479,-1.61522,-0.70219,-0.42391,0.74019,1.23667,1.07591,0.449,-0.17744,0.01426,0.13326,-0.11159,0.21442,-0.25164
1875,16.7292,7.38509,-0.40097,34.86165,4.36631,0.49889,78.08955,1.40671,5.57981,-65.89317,2.92963,-1.20863,-61.72888,25.55542,-6.13948,-10.20665,1.58549,-1.3712,13.46493,-8.19856,32.28087,0.53204,47.39638,-0.73914,5.08697,-0.95147,-2.24761,9.47381,-3.89739,-1.12134,-0.11571,-0.29214,0.55777,0.86032,2.53377,-0.45103,0.00029,0.01703,0.12334,-0.24471,0.37497,-0.4068
1876,27.4413,5.01733,-0.34111,45.84961,9.64169,-0.02844,100.005,7.94882,5.53142,-61.73898,6.44694,-3.22939,-50.26424,20.47752,-4.31083,-10.01558,2.75103,-1.81248,39.93993,-15.58161,30.82138,2.37066,14.51794,9.7946,6.56433,0.83671,-0.13305,14.39081,-5.88287,0.23683,0.95639,-0.74087,-0.0582,0.17326,3.58773,-1.03282,0.11153,-0.01344,0.06343,-0.19105,0.3558,-0.23199
1877,30.86736,6.13265,-2.37548,56.28304,15.07744,-0.7443,97.97225,19.78743,2.38721,-51.81746,8.34032,-6.86671,-38.76613,16.18789,-2.69717,-9.77387,3.86731,-2.31067,41.76036,-17.34548,14.37261,15.02628,-32.29487,8.11342,11.34523,2.58802,1.73117,14.56116,-5.99496,-0.30544,2.09014,-2.30762,-0.58348,-0.15992,4.21118,-0.98939,0.16486,-0.17862,-0.01162,-0.09317,0.31461,0.02812
1878,27.0636,9.79457,-6.05498,66.8973,21.27597,-1.57808,82.41203,33.07456,-2.2312,-41.49201,15.59869,-8.2414,-27.99291,12.93307,-1.49422,-9.15596,5.02434,-2.72345,29.84746,-9.03884,-1.17651,17.33532,-58.82085,-3.76502,16.86422,3.19377,3.02799,11.13592,-4.86778,-2.57661,2.98623,-4.61401,-0.53799,0.37909,4.42249,-0.38139,0.26714,-0.50338,-0.03482,-0.03869,0.37789,0.11858
1879,20.33654,13.65989,-10.2467,79.06712,27.76756,-2.31789,67.17941,46.66929,-6.35105,-33.49732,29.98638,-5.46836,-18.7452,10.44921,-0.78228,-8.16721,6.28882,-3.03221,18.04343,12.28698,-5.15825,1.05808,-52.74982,-11.25639,20.30008,3.03705,4.03164,8.48069,-4.23253,-3.50153,3.04257,-6.4501,0.21669,1.15541,3.82781,0.13697,0.35173,-0.81142,0.0292,-0.00447,0.3511,0.05318
1880,12.90221,15.32759,-13.17079,91.46902,33.81396,-2.90674,49.16296,55.55756,-8.68952,-34.44624,48.70237,0.56962,-11.71095,8.13547,-0.51179,-7.12094,7.60695,-3.28104,-9.50173,37.35392,0.43561,-18.72641,-24.69695,-9.49045,22.88249,3.3934,4.90951,9.91039,-4.8682,-1.79421,1.62003,-7.14986,1.61435,1.70361,2.92469,0.21273,0.23135,-0.87821,0.14524,0.09079,0.12929,-0.00779
1881,5.40258,14.4247,-14.13903,102.50166,38.17892,-3.28975,28.79599,49.5122,-9.90067,-42.56708,63.184,5.46954,-7.03166,5.82157,-0.59399,-6.28768,8.74102,-3.56349,-48.71,36.80444,3.60045,-22.51328,15.61281,-8.36128,27.40443,3.48796,4.33579,14.53382,-6.23489,0.06643,-0.81643,-6.93841,3.2243,2.519,3.11137,0.10107,-0.09086,-0.69641,0.24036,0.31144,0.01848,-0.02174
1882,-1.33743,11.03105,-12.29098,112.14894,41.11404,-3.53209,20.73367,25.23925,-9.92837,-43.69069,68.67805,5.78864,-4.15425,3.57098,-0.79268,-5.7873,9.49608,-3.88516,-58.68559,-3.40888,-1.90988,-14.97842,53.12571,-13.36995,32.41184,1.56417,1.67382,18.50781,-7.84367,-0.26668,-2.40044,-6.46155,4.16821,3.4517,4.39126,-0.04118,-0.33502,-0.49498,0.27571,0.54235,0.17085,-0.02553
1883,-5.88072,5.53645,-6.96722,120.31269,45.43106,-4.03951,35.33488,-4.08073,-6.85559,-31.97365,73.03884,3.74528,-2.10345,1.39918,-0.70283,-5.52858,9.9232,-4.08487,-21.11283,-51.24871,-5.97657,-21.03062,63.49182,-16.93767,33.66248,-1.36109,-1.46309,19.93713,-8.92294,-1.25851,-1.81623,-5.88665,3.80114,3.69556,5.47812,-0.24095,-0.26795,-0.40831,0.25574,0.65675,0.37442,0.01639
1884,-5.66117,-1.49469,0.85325,126.78352,52.79076,-5.02744,67.81858,-21.90161,1.67586,-18.83292,85.55723,3.51883,2.21862,-1.60134,0.21883,-5.14676,10.20724,-4.01857,36.4223,-65.52344,5.75121,-40.01588,41.43241,-12.03293,30.04214,-2.44873,-3.0211,19.66322,-8.42952,-0.72054,0.11885,-5.01106,2.46734,3.09386,5.7616,-0.59529,-0.00183,-0.36078,0.20353,0.62903,0.48216,0.06476
1885,-2.74902,-2.93187,3.01528,132.28787,59.89594,-5.91453,81.96253,-11.12097,10.01984,-14.61392,99.81575,4.53465,2.82338,-1.89241,0.56437,-4.1879,10.46843,-3.79832,56.03815,-29.98655,20.91214,-32.66589,16.16261,-3.00005,24.49491,-0.98467,-2.52802,18.27907,-7.3296,-0.168,1.84639,-4.19162,1.08438,2.44493,5.59647,-1.00772,0.2027,-0.30511,0.14013,0.51685,0.5638,-0.01292
1886,-0.93968,-0.02258,-1.24664,137.40738,62.43443,-5.93671,65.43697,13.50922,14.55023,-16.35182,102.80118,3.75911,2.91624,-1.25672,0.47528,-2.4994,10.79273,-3.63102,30.6318,11.40255,22.08171,12.06483,16.67188,3.07475,20.22548,1.29637,-0.81946,16.87011,-8.00432,-1.21129,2.89159,-4.22371,0.20625,2.31018,5.28945,-1.17284,0.31123,-0.31232,0.05006,0.39524,0.59501,-0.16218
1887,-2.2771,4.37263,-7.71029,141.49249,60.7348,-5.03397,30.00854,28.27427,10.62854,-17.9549,94.55645,1.63445,2.51206,-0.12147,0.08709,-0.56274,11.29776,-3.46592,-15.14261,19.43107,2.76404,39.65621,34.41089,5.10526,17.83311,2.80825,0.74804,17.8754,-9.96189,-1.16191,3.30428,-4.70354,-0.1956,2.35202,4.82763,-1.01007,0.4321,-0.3184,-0.09852,0.31704,0.43173,-0.15476
1888,-7.36564,6.05994,-9.17614,143.59909,58.47675,-3.81391,10.26331,16.89122,-1.10612,-18.74048,85.93089,0.7887,2.00912,0.67708,-0.08926,0.82225,11.94837,-3.09426,-37.91459,-15.23184,-22.72912,10.75919,42.69024,3.26828,17.06991,2.8651,0.671,21.15023,-10.37211,2.08824,2.77427,-4.34815,-0.15774,2.17884,4.36393,-0.77856,0.52944,-0.19077,-0.24926,0.32291,0.14296,0.05183
1889,-14.28296,4.97843,-5.74144,143.65466,58.21485,-2.9332,23.11911,-5.44715,-12.50417,-19.08129,83.38499,1.41392,1.54456,0.87519,0.0632,1.42479,12.46136,-2.50188,-18.27464,-60.72735,-36.39369,-33.04958,36.2957,-1.68979,18.23142,1.45784,-1.15325,23.00492,-9.33964,5.10174,1.32221,-3.37424,0.52325,1.82824,4.1647,-0.76893,0.45335,-0.08603,-0.24041,0.35909,-0.02524,0.23432
1890,-19.63594,2.97511,-1.39644,142.50133,60.07085,-2.59872,50.37227,-17.61852,-14.21611,-16.6454,86.00912,2.20118,1.00449,0.63844,0.29508,1.70443,12.62756,-1.82479,21.80891,-83.44448,-30.92416,-35.16625,28.62407,-3.81857,19.12543,-0.30743,-2.75717,21.2954,-9.40657,3.78551,-0.15938,-2.96384,1.54072,1.5105,4.26,-1.05466,0.17717,-0.21138,-0.01168,0.33062,0.02796,0.19971
1891,-21.05435,-0.09313,3.3121,140.92223,62.70211,-2.51203,64.33846,-19.52936,-6.19606,-11.485,91.22936,3.23444,0.50326,0.0156,0.4437,2.12991,12.46373,-1.12561,47.45757,-76.93025,-11.69226,-3.08397,24.25554,1.597,15.80094,-1.33335,-2.61712,17.29926,-10.17319,-0.44325,-0.60537,-2.96681,1.866,1.32099,4.37363,-1.51223,-0.07919,-0.41117,0.22987,0.24598,0.19033,-0.02587
1892,-18.80468,-2.30253,5.42979,137.75395,64.86156,-2.37323,59.69954,-11.81988,7.33606,-10.91993,95.93735,4.81815,0.35899,-0.58579,0.41771,2.94888,12.04617,-0.36733,46.43779,-45.43126,13.66354,19.4843,16.30312,9.36763,9.02529,-1.53393,-1.61337,12.87187,-8.67573,-2.87411,0.01954,-2.31013,1.07267,1.21403,4.13076,-1.76261,-0.09073,-0.36848,0.2401,0.21116,0.34443,-0.23873
1893,-15.69388,-0.55282,1.72966,131.1324,65.29358,-2.02418,51.2001,4.79262,20.84685,-20.84561,94.31567,5.5354,0.56819,-0.6595,0.19127,4.1242,11.4599,0.42832,29.79463,-10.46138,32.06773,17.79453,6.55128,11.75835,4.65194,-1.08603,-1.10984,8.97803,-4.75902,-1.56928,1.07901,-1.39881,-0.10204,0.88514,3.28851,-1.55028,0.14118,-0.13682,0.03864,0.20273,0.40516,-0.26697
1894,-14.86224,2.0774,-2.24865,122.99919,62.76594,-1.22591,42.02624,12.76021,19.05329,-33.96945,84.31905,4.52478,0.66594,-0.49204,-0.14512,5.0895,10.81204,1.12556,4.07486,-5.71814,18.03322,9.45091,9.58997,8.0823,5.62048,-0.23587,-1.04606,5.95965,-1.70664,0.50558,2.25863,-1.62873,-0.98144,0.19426,2.212,-1.22961,0.46071,-0.06288,-0.18841,0.08939,0.33223,-0.18311
1895,-14.75903,1.12739,-1.40846,117.91558,58.98258,-0.0178,22.97582,4.10814,-2.4101,-35.57589,75.17159,4.35087,0.593,-0.52945,-0.42905,5.30203,10.22613,1.74358,-27.33904,-22.1755,-27.67139,8.09347,27.76855,2.44219,8.87832,0.90557,-0.69141,3.94467,-1.32161,-0.13758,3.15042,-2.78236,-1.46955,-0.22711,1.83717,-1.11002,0.65218,-0.20792,-0.31483,-0.05702,0.26157,-0.14953
1896,-11.57529,-1.0767,0.42984,116.6784,56.92489,1.22825,1.18325,-5.59187,-18.80684,-20.91563,73.71181,6.87789,0.93181,-0.62485,-0.48379,4.83409,9.65463,2.44846,-44.10835,-24.39753,-59.64906,14.02067,39.27527,-0.15173,10.44054,2.61029,0.43199,3.15928,-2.21302,-2.27241,3.1641,-3.38914,-1.56048,0.03482,2.15998,-0.90289,0.55559,-0.30533,-0.29972,-0.09553,0.27892,-0.15566
1897,-7.76866,-0.09601,-1.03595,114.77357,56.42591,2.20839,-3.40368,-5.21035,-9.67642,-0.51688,72.81908,8.9824,1.61614,-0.50319,-0.29332,4.09839,8.83968,3.26635,-25.64287,-13.50487,-46.74788,27.96653,32.39883,3.28116,8.9843,4.13566,2.07208,4.19585,-3.25292,-2.48812,2.34766,-2.99348,-1.2175,0.41691,2.29661,-0.58094,0.21882,-0.25918,-0.12701,-0.06956,0.28135,-0.14128
1898,-6.70049,3.36103,-4.00556,108.61885,55.70777,2.71783,14.48572,-0.55603,11.71509,10.86481,65.51646,7.40332,2.08714,-0.27969,-0.05413,3.50632,7.71434,4.07739,17.77972,-13.65689,-11.6589,47.44833,25.62317,8.41844,5.45929,3.61766,2.76138,7.10457,-4.58421,-0.93805,1.33013,-2.16135,-0.59863,0.65065,2.40645,-0.54136,-0.11643,-0.2176,0.13075,3e-05,0.28403,-0.13026
1899,-5.76447,5.3324,-4.89816,99.93606,52.99147,3.01519,36.29368,1.66516,22.51417,6.76232,51.17887,2.56923,2.39699,-0.23847,0.04803,3.05673,6.41547,4.69018,46.29312,-31.04786,6.81377,56.23549,25.93274,7.9951,1.62117,1.01923,1.57585,9.78041,-5.28136,-0.4798,0.49286,-1.18187,0.05701,1.14297,3.31477,-0.79984,-0.25733,-0.22528,0.3231,0.17484,0.44979,-0.15313
1900,-3.74925,4.73453,-3.67328,91.59737,48.19929,3.46555,42.40096,2.79991,25.69279,-6.05837,35.74158,-2.07041,2.74199,-0.43496,0.0217,2.29347,5.06968,5.10132,37.41669,-44.61566,8.93003,43.25977,12.77054,2.81142,-1.14858,-1.12669,0.21111,9.44755,-4.21145,-2.08523,-0.11399,-0.34163,0.53835,1.73815,4.47664,-0.96044,-0.24048,-0.21603,0.36364,0.34987,0.7043,-0.18675
1901,-5.65683,3.27959,-2.31008,84.49483,43.99749,3.84855,34.04168,3.4133,35.33012,-11.6382,32.15198,-2.08333,2.79773,-0.70774,-0.04389,1.25632,3.83827,5.57555,17.84328,-31.00589,20.74193,18.42486,-12.68683,-3.16813,-1.32625,-1.26089,-0.33533,6.03437,-2.65768,-4.16456,-0.55495,-0.07231,0.63699,1.46892,4.281,-0.96032,-0.23927,-0.1455,0.26056,0.23956,0.70386,-0.2288
1902,-11.89887,2.04132,-1.70151,78.48661,42.50709,3.75646,27.23686,1.64698,42.26497,-5.38448,44.96909,3.18945,2.43745,-0.78256,-0.05869,0.33943,2.81931,6.21155,20.19122,3.06502,39.72914,-1.8726,-15.56464,-15.00133,3.16462,-0.9287,-3.9199,2.25967,-2.71494,-5.31381,-1.03833,0.16811,0.48806,0.26085,2.40791,-0.92234,-0.3156,0.04046,0.0901,-0.16953,0.30676,-0.26976
1903,-12.8776,1.2708,-1.35247,72.92025,41.86387,3.4664,30.65117,0.48952,26.0629,-1.95323,56.74425,8.17648,2.18089,-0.45612,0.16494,-0.74681,1.88422,6.75135,33.15918,24.22875,33.88412,-0.44533,20.1224,-36.33362,11.43694,-1.7494,-12.49914,0.33037,-3.87173,-5.70944,-1.20743,0.86614,0.28902,-0.37053,0.45536,-0.43871,-0.26355,0.26132,-0.07542,-0.40268,-0.19322,-0.17816
1904,-5.08493,1.26413,-0.59431,68.31077,38.58316,3.94249,34.4441,4.20131,-8.80395,-9.74787,45.23355,7.10628,2.25439,0.07529,0.64944,-2.35651,0.9236,6.98872,25.93807,8.29923,-7.49219,34.11219,61.70074,-49.609,15.88446,-2.07763,-16.80324,-0.02079,-3.87009,-6.00384,-0.28764,0.93989,-0.25213,0.29318,-0.06577,0.41256,0.05262,0.27821,-0.21669,-0.17297,-0.39503,0.05443
1905,2.69928,2.17193,0.29458,65.90334,32.45518,5.55258,26.27477,9.94225,-34.15007,-17.79455,12.7477,1.341,2.36453,0.37044,1.11128,-4.15718,-0.00646,7.0201,-0.63289,-34.0544,-51.01343,83.4004,58.30411,-32.15093,9.16207,0.33642,-6.53496,0.13509,-2.43107,-6.16905,1.20616,-0.42421,-1.16705,1.01289,0.65004,0.52207,0.31419,0.03173,-0.27102,0.16408,-0.2169,0.16703
1906,4.44224,4.46594,0.95516,64.43965,25.96235,7.36306,9.33344,12.14614,-32.29264,-17.49477,-15.71519,-2.89431,2.42997,0.28959,1.50706,-5.85312,-0.97117,6.99583,-23.44785,-67.2096,-58.61731,108.62418,1.39547,5.87629,-3.18264,3.84241,11.31286,0.75666,-1.54171,-5.98977,1.95117,-2.28159,-1.85691,0.96475,1.52675,-0.25221,0.23588,-0.24523,-0.20189,0.22907,0.09885,0.02981
1907,2.29942,7.49387,1.87961,61.60578,21.85102,8.06959,-4.55181,10.81956,-13.63245,-14.78066,-18.80887,-1.74803,2.50912,-0.00147,1.9104,-7.51319,-2.03773,7.06416,-36.65858,-60.76031,-32.62216,96.18208,-51.05271,25.56083,-7.22678,4.73801,18.14916,1.49675,-2.27473,-6.32377,1.70432,-3.14246,-1.76921,0.58819,1.9148,-0.72926,0.03944,-0.31906,-0.09325,0.02929,0.28253,-0.17567
1908,-1.28862,7.80709,2.52465,58.43608,21.71299,7.45751,-8.28498,9.73456,0.56428,-12.56829,2.5042,3.89794,2.44563,-0.29409,1.86667,-9.03748,-3.012,7.38138,-42.72013,-16.20969,-5.12297,69.76873,-39.7985,6.63462,1.62029,2.46678,6.70337,1.13807,-3.54557,-8.35429,1.4759,-2.41803,-1.21356,0.28868,1.75245,-0.32105,0.11329,-0.12847,-0.06217,-0.25849,0.25842,-0.26292
1909,-4.99051,5.22708,1.80126,55.60033,22.98117,6.56674,-6.33531,10.75825,4.50866,-10.42513,24.7856,9.7503,2.15488,-0.29164,1.139,-10.39151,-3.8891,7.75217,-45.33705,30.24763,7.92994,57.41378,16.99255,-26.21845,12.91683,0.15158,-9.48577,0.34584,-3.96291,-11.26342,1.85431,-0.9106,-0.8468,0.54553,1.64599,0.57642,0.41736,0.16634,-0.0735,-0.36254,0.18796,-0.22674
1910,-4.31223,4.6392,1.52172,51.83535,22.3804,6.08474,-14.6938,12.12874,6.27948,-13.18737,29.13465,11.76954,1.90357,0.07448,0.46091,-11.88833,-4.89406,7.82447,-60.67654,46.13264,19.24236,64.47791,53.57385,-34.63837,13.94905,0.4593,-11.45117,1.075,-3.21944,-12.82668,2.37839,-0.15625,-0.85759,1.9892,2.20719,1.64961,0.56526,0.25207,0.00591,-0.04666,0.24329,-0.10659
1911,3.73773,7.02836,3.82263,49.68099,21.26323,5.82029,-44.20063,11.203,6.2032,-17.6235,22.43053,10.49982,1.7945,0.39961,0.52409,-13.67589,-5.89157,7.67128,-94.686,37.12218,35.1249,73.86324,44.7032,-16.69128,5.00243,2.4606,1.57469,2.4444,-1.87565,-13.17095,2.44347,-0.60719,-1.20838,3.73738,2.97303,2.27897,0.37548,0.10503,0.12959,0.46359,0.39238,-0.01651
1912,13.65397,7.68684,6.42906,52.31369,20.14224,6.31418,-82.99798,7.42422,-3.37764,-13.8333,14.19227,9.50144,1.49574,0.29096,1.07271,-15.70336,-6.62975,7.50742,-127.58474,20.61831,40.62116,78.02621,10.08529,-1.55369,-2.96383,3.53528,14.41305,1.85733,-0.71543,-14.1666,1.92384,-1.88568,-1.75211,3.99284,2.96759,1.90554,-0.01335,-0.12783,0.15822,0.64737,0.47993,-0.08445
1913,17.10607,6.29416,7.477,58.5409,17.52719,8.0799,-107.14126,1.46177,-14.98906,2.00718,5.20756,10.4292,0.881,-0.2054,1.6384,-17.93853,-7.11758,7.35283,-129.8423,1.73554,36.54199,94.50826,-29.61655,-4.30001,-3.74672,2.85105,17.53135,-0.77675,0.13526,-15.41931,1.69667,-3.51577,-2.68854,2.75599,2.08622,1.49716,-0.19725,-0.46056,-0.01727,0.42613,0.45965,-0.17994
1914,12.23478,6.262,8.96056,65.31102,14.65954,9.98566,-107.1421,-5.34267,-12.71872,23.6545,-0.15231,11.73979,0.37824,-0.71144,1.91408,-20.27762,-7.4923,7.17741,-95.60704,-15.02965,42.29097,122.71818,-50.76405,-16.65989,0.02518,1.59815,12.50056,-3.3212,1.01391,-15.53489,2.63199,-4.2183,-4.08299,1.76025,1.00222,2.587,0.20254,-0.71054,-0.45553,0.20479,0.39343,-0.04313
1915,3.05344,4.82931,7.86866,70.92032,14.19459,10.4825,-96.88707,-9.7356,-5.71123,39.19466,3.99574,11.74211,0.45882,-0.71938,1.22611,-22.47576,-7.90735,6.97599,-58.67007,-18.3024,51.83354,129.24275,-43.11717,-28.12887,4.2431,0.84424,3.67712,-3.67139,1.33524,-15.02741,3.31918,-3.13923,-4.12874,2.19899,0.48533,4.98723,0.82,-0.65962,-0.8161,0.26027,0.34038,0.29771
1916,-6.14521,-2.3609,-3.96532,75.19956,17.20392,9.21936,-95.35235,-8.66882,-20.07003,44.43321,17.29833,10.73793,1.11675,-0.00304,-0.67648,-24.22818,-8.3747,6.78717,-52.7206,-0.48975,38.7555,101.61679,-42.18309,-32.5609,5.83735,0.92661,-4.90353,-1.50063,0.29834,-13.91277,1.99314,-0.48808,-1.84278,3.62326,0.66036,7.09109,0.89762,-0.28331,-0.72622,0.51952,0.2937,0.62149
1917,-20.73566,-10.75455,-23.07696,78.18303,20.78326,7.70966,-107.86382,-3.8796,-51.43304,47.94178,27.89595,9.64438,1.26562,0.95457,-2.56062,-25.43632,-8.8299,6.59899,-73.02923,22.51895,3.07756,67.8301,-73.36879,-25.41634,3.88638,1.29308,-7.35065,0.7271,-0.8882,-11.07847,-0.5162,1.45403,0.92638,4.53238,0.64472,7.73491,0.27086,0.10035,-0.24321,0.76775,0.15928,0.85348
1918,-52.68537,-12.27812,-28.53691,79.27864,20.99307,7.63441,-129.30167,-4.47783,-53.61953,54.23978,24.75751,8.92497,-0.83875,1.26212,-2.71055,-26.47528,-9.28417,6.40696,-103.8615,22.95324,-15.99007,60.69144,-93.411,-11.30307,1.32496,0.74575,-2.19875,0.85572,-0.42685,-8.28791,-2.01382,0.16428,2.15471,4.17888,0.0919,6.79199,-0.45003,-0.01598,0.28111,0.87338,-0.03483,0.96126
1919,-96.2645,-9.25956,-12.03668,79.70963,18.62589,8.80235,-153.43288,-13.8983,-10.65912,59.78314,16.56544,9.51281,-5.11214,0.50867,-1.33632,-27.95075,-9.77084,6.3247,-140.97572,6.38389,-1.37783,87.02408,-59.42583,-2.46957,0.62161,-0.15686,2.74966,0.22591,0.7042,-8.22411,-1.49428,-1.87844,1.21297,3.46799,0.02168,5.00156,-0.58374,-0.24896,0.34925,0.81448,-0.08325,0.81661
1920,-125.90046,-8.84083,3.39611,83.22566,17.50308,10.18272,-168.50833,-19.61618,24.23816,68.74889,18.63776,12.01705,-8.90628,-0.40548,-0.45018,-30.06917,-10.29652,6.4051,-165.08064,7.30497,5.07232,118.6928,-2.28085,-2.51355,0.42538,-0.49213,2.00858,1.03661,0.4836,-8.93945,-0.13153,-1.39442,-0.40182,3.46304,1.13708,3.33216,-0.18955,-0.05039,0.01188,0.6565,0.14799,0.39417
1921,-120.11734,-10.10235,-0.70562,92.0458,19.54228,11.23834,-142.58028,-12.15622,11.20054,92.96074,29.17043,14.44145,-9.30375,-0.27475,-0.72349,-32.18717,-10.87587,6.52205,-119.96807,27.57587,-28.67875,129.27867,30.40607,-6.74411,-1.05851,-0.91343,-1.36991,2.26268,-0.63829,-7.52381,0.24508,0.37843,-0.60477,3.49263,2.2959,2.22647,0.05875,0.22668,-0.14688,0.39614,0.45101,-0.0946
1922,-80.67297,-8.84771,-13.22539,102.86161,24.26396,11.52051,-61.18395,-1.47298,-20.37971,129.98834,35.87524,13.62107,-6.00518,0.43609,-1.18999,-33.49934,-11.59138,6.53167,16.70995,31.46669,-71.43247,124.12811,34.26027,-13.06172,-2.66545,-1.54554,-3.64546,1.93915,-1.87617,-5.90224,-0.43607,1.20274,0.35283,2.65024,2.19258,1.69749,-0.11121,0.19323,0.05983,-0.00354,0.45487,-0.38764
1923,-32.31738,-4.97785,-14.41519,109.20123,29.21779,10.96124,30.18001,-2.27857,-21.35565,156.46037,31.87341,9.63659,-1.55542,0.60951,-1.12639,-34.28709,-12.63803,6.36536,164.17091,-0.32664,-71.03603,107.84194,23.16778,-19.80037,-2.80971,-1.45351,-4.62104,0.40558,-3.35686,-5.53074,-0.69503,1.36884,0.57842,1.52837,0.8329,2.16685,-0.26725,0.04017,0.24496,-0.33388,0.08048,-0.27233
1924,2.31614,-0.88114,0.1894,109.98002,33.30075,9.88978,82.82672,-13.50589,16.13445,158.35725,24.29224,5.78252,1.65189,0.10225,-0.33168,-35.40869,-14.00934,6.12546,235.90732,-43.09594,-22.56883,73.6958,4.5707,-22.70974,-2.62841,-0.5222,-4.38442,-0.38126,-4.23034,-4.35299,-0.14808,2.06233,-0.15229,1.25182,-0.50101,3.2872,-0.14831,0.12273,0.1971,-0.21612,-0.25549,0.17345
1925,19.63217,1.84951,19.38107,110.87931,37.61747,8.95243,98.47192,-22.15845,59.90134,150.55798,23.04001,4.64023,3.22754,-0.68048,0.94678,-36.95009,-15.3941,5.96945,241.78902,-64.53188,31.42148,34.96574,-9.33773,-17.58763,-2.95035,0.1856,-2.91985,0.75106,-4.2377,-1.54431,0.3732,2.69871,-0.79774,2.0897,-0.47165,3.49971,0.03824,0.38017,0.03628,0.36181,-0.17544,0.56867
1926,25.95108,2.80783,29.59015,115.63779,41.26922,9.08757,101.51128,-21.21128,79.22999,150.06578,23.86563,6.2678,3.7603,-1.24029,1.92377,-38.4356,-16.59741,5.89273,234.97444,-65.82774,56.35459,9.27791,0.61808,-1.1337,-2.04945,0.06459,-1.75126,3.17191,-5.27769,2.44992,0.5031,1.95063,-0.83215,3.46601,0.58141,2.92621,0.10387,0.45614,-0.05939,0.89552,0.10892,0.78728
1927,24.11728,2.25971,24.79832,122.11061,42.75661,10.25362,99.63045,-12.57098,64.5861,154.21771,21.62566,8.46351,3.61485,-1.11354,1.82966,-39.77885,-17.65863,5.92151,228.96091,-57.47752,43.93962,-8.60999,37.82665,22.32858,1.75811,-0.59225,-2.07924,5.92401,-8.7147,7.1059,0.49933,-0.57086,-0.08011,5.08336,1.56417,2.56214,0.10596,0.09031,0.02766,1.04486,0.28243,0.77702
1928,13.32184,0.93628,10.44791,127.38631,43.24626,11.38942,84.1349,-0.31806,25.98868,157.71118,22.13367,9.26453,2.94227,-0.42828,0.90229,-41.22141,-18.71498,6.16028,210.62985,-36.88223,1.27099,-28.64519,80.18544,36.17283,7.40019,-0.83553,-4.52179,8.19394,-12.94626,11.8269,0.2087,-3.31414,1.37612,6.60109,1.8308,2.80272,0.07327,-0.47459,0.22563,0.95569,0.28505,0.61696
1929,-2.36559,-0.33669,-1.27854,130.40425,45.14371,11.47488,55.87919,10.47902,-10.69954,162.70169,31.61915,8.59763,1.8123,0.0828,0.15458,-42.75757,-19.92161,6.54961,187.65146,-5.77084,-43.58609,-51.06431,100.82951,27.06073,12.38374,-0.00709,-9.91232,8.93209,-14.80177,15.9852,-0.60174,-4.14855,2.50162,6.71415,1.30293,3.24317,-0.05281,-0.67981,0.25494,0.79843,0.19025,0.50947
1930,-13.91043,-1.15343,-2.39196,131.74329,48.39551,10.54352,33.59987,14.56479,-18.53064,171.59784,46.93644,7.14587,0.23196,-0.08904,0.17699,-44.0555,-21.39528,6.7948,187.22977,21.60781,-51.34669,-70.15541,82.19371,3.95005,13.3256,0.92148,-15.69774,8.02551,-13.26743,18.41866,-1.56672,-2.53594,2.43442,4.90023,0.52236,2.96805,-0.2574,-0.37551,0.06412,0.59413,0.0938,0.40136
1931,-17.02762,-1.53835,3.68748,133.33913,51.28056,9.44901,30.27075,12.78022,0.07759,182.53357,60.25798,5.42298,-1.52949,-0.67318,0.64525,-44.88949,-23.01559,6.72904,215.7926,33.81534,-21.5418,-69.41404,29.30587,-8.03686,7.90022,0.61638,-14.78687,6.52123,-10.64661,17.16989,-2.08638,-0.09895,1.89236,3.04755,0.2327,1.74671,-0.41983,-0.01466,0.00226,0.47256,0.07798,0.18695
1932,-18.39452,-1.91988,6.93015,135.33217,53.04559,8.75807,29.76005,10.66155,11.82895,188.62688,65.6424,4.18943,-2.90077,-1.01263,0.92205,-45.5012,-24.4481,6.56432,237.47513,28.71367,-1.35626,-42.71037,-14.92976,6.03725,0.10496,-0.26663,-5.0107,5.60803,-10.15591,13.01748,-1.67419,0.78365,1.5257,3.08402,0.68431,-0.16117,-0.38071,-0.01514,0.17719,0.60277,0.15017,-0.09
1933,-25.90658,-3.01468,3.30406,136.14935,54.67101,8.26607,10.29462,9.51537,-1.91319,186.18037,64.90839,3.59125,-3.42533,-0.89361,0.80167,-46.1279,-25.37718,6.62765,222.0013,13.56517,-18.63367,-21.30205,-9.43756,32.92935,-2.64168,-0.37837,3.76292,6.41756,-12.64595,12.61082,-0.57462,-0.14509,1.07405,4.34721,1.19298,-1.43435,-0.17126,-0.20795,0.32406,0.86163,0.20837,-0.19927
1934,-34.77486,-4.54131,-1.39013,134.82878,56.83747,7.65647,-15.98051,6.74383,-19.51264,177.38887,65.38026,3.23812,-3.04228,-0.61676,0.52129,-46.47626,-25.65641,6.98183,188.47424,1.40352,-42.62151,-29.18679,31.37109,45.85057,2.3787,-0.31761,0.93817,8.88964,-15.67066,19.62632,0.60925,-1.44876,0.13331,5.06753,0.82274,-0.06533,0.06731,-0.28714,0.21934,0.9403,0.14736,0.10961
1935,-35.69316,-5.01585,-0.95998,131.69028,58.79981,7.24786,-23.62107,1.29388,-11.08951,165.42007,70.55296,4.4158,-2.17224,-0.29749,0.23945,-46.07548,-25.26249,7.48211,164.86514,-0.70671,-29.72197,-41.95242,53.90995,36.94115,10.37028,-0.86405,-8.27824,10.20296,-16.57215,25.44001,1.35389,-2.41078,-0.82867,4.84446,-0.18499,2.89719,0.20002,-0.28446,-0.00802,0.72199,-0.02306,0.65303
1936,-30.66252,-3.94429,4.93503,128.25679,59.77114,7.61347,-13.90496,-5.9115,26.64247,153.33107,74.62479,8.50454,-1.64056,0.08064,-0.05896,-44.70332,-24.22282,7.98267,148.04579,-2.8443,23.63644,-35.44212,23.96179,24.52245,13.34477,-0.31875,-8.80324,7.63017,-15.47584,20.21227,1.49353,-2.90345,-1.17765,4.41113,-0.67759,3.78484,0.18361,-0.28921,-0.12207,0.40129,-0.16826,0.94054
1937,-29.11103,-2.8135,10.58619,124.93698,59.75148,8.33209,-4.01065,-10.46771,61.06063,141.49113,68.10899,12.06747,-1.92836,0.32286,-0.3595,-42.34768,-22.63357,8.33883,128.08647,-20.89384,66.20572,-26.14398,-31.61125,25.87528,9.6166,2.3718,1.63632,3.30181,-14.25738,9.18539,1.58838,-2.95376,-1.23962,4.26536,-0.39078,2.20716,0.16513,-0.28901,-0.10924,0.25861,-0.18146,0.81178
1938,-33.22867,-3.71052,7.09417,120.14296,57.98151,8.6148,-1.80263,-7.33858,47.75904,128.29655,48.47173,10.29286,-2.47841,0.37757,-0.68713,-39.27927,-20.6927,8.40217,111.36792,-50.87701,37.64596,-27.70291,-48.42918,36.99184,6.81874,4.72215,9.83274,2.25585,-14.22986,5.12562,2.49259,-3.36368,-1.92495,4.87989,-0.15724,1.36463,0.30967,-0.34813,-0.12397,0.49783,-0.10857,0.52417
1939,-34.67566,-6.94116,-5.4301,114.56382,53.33557,9.03211,-5.84621,-0.55206,-8.19176,117.84209,23.86621,5.53781,-2.43602,0.30264,-0.95947,-36.19871,-18.64041,8.20958,106.71741,-69.53938,-38.87925,-27.37811,-2.01877,42.2922,10.54888,4.64382,7.78749,5.14623,-15.17967,9.21038,3.8125,-4.42629,-3.0492,6.15719,-0.24633,1.81902,0.462,-0.41135,-0.19867,1.02067,-0.01956,0.22613
1940,-26.39101,-9.41171,-14.03273,110.05112,48.19665,9.94124,-9.95449,1.43108,-48.01253,111.10937,11.84414,4.0582,-1.65743,-0.08043,-0.76044,-33.72491,-16.61811,8.05927,105.36727,-58.42554,-73.89117,-19.94624,62.33241,32.78456,16.90022,3.04927,1.20054,6.99823,-15.79203,11.54426,4.18139,-5.31241,-3.30198,6.50344,-0.02163,1.04581,0.36039,-0.35402,-0.20655,1.2677,0.04676,-0.02795
1941,-14.56008,-8.50503,-11.95097,105.00513,45.72046,10.34648,-11.47388,-1.45435,-43.31688,98.91479,18.77025,6.66002,-0.58405,-0.57613,-0.10541,-31.5798,-14.67723,8.14928,85.4528,-31.95084,-46.11285,-17.64596,84.29994,14.90567,19.09799,1.43025,-2.23662,4.66532,-15.52327,7.52597,3.64673,-5.54415,-2.78225,5.01512,0.60026,-1.07166,0.18414,-0.28686,-0.22687,0.89594,0.05462,-0.03235
1942,-9.87232,-7.20033,-8.46164,99.19385,45.53347,9.89346,-11.93937,-3.68937,-30.10115,85.54972,30.43976,9.03686,0.43524,-0.49604,-0.00521,-28.72144,-12.91301,8.31995,58.109,-23.15403,-26.93427,-28.84158,50.80395,2.39836,15.8653,0.48399,-1.43605,1.40183,-15.09829,3.39633,3.43098,-5.42106,-2.77222,3.29112,0.7849,-1.62209,0.27225,-0.37078,-0.42631,0.34207,0.004,0.24949
1943,-11.16109,-8.93883,-10.84781,93.49571,45.78722,8.9356,-7.36987,-3.60092,-36.82621,79.17023,38.47382,8.8703,1.35657,0.21461,-0.99887,-24.82151,-11.4712,8.3189,53.77967,-28.37314,-49.05436,-44.74631,1.43609,-1.96337,11.42051,0.48399,1.0752,1.07454,-14.1314,4.2559,3.41924,-5.14919,-2.68592,3.03591,0.11134,0.65858,0.4921,-0.58137,-0.56614,0.13413,-0.08572,0.55909
1944,-10.09348,-10.7699,-13.64043,87.76413,45.02996,7.8786,2.46247,-3.29823,-41.79668,75.13968,50.71444,7.88734,2.06182,0.84507,-2.14372,-20.66263,-10.31158,8.09271,67.46715,-7.39943,-58.70712,-42.44134,-17.16701,-1.93618,8.89849,1.29568,3.96614,2.51772,-11.30244,6.99599,2.8268,-4.80369,-1.29156,3.22554,-0.65609,3.11114,0.5529,-0.81971,-0.33791,0.11784,-0.13693,0.58424
1945,-5.27582,-8.92685,-11.26745,82.11826,40.91479,7.62291,11.08173,-2.3986,-26.75961,66.3347,62.08377,8.50575,2.27361,0.90027,-2.31247,-16.93205,-9.21913,7.70233,73.0105,34.21454,-26.18053,-11.84624,3.78376,6.15787,7.97605,2.56446,7.04152,3.30428,-7.87635,7.53379,2.24615,-4.78346,0.29199,2.65536,-0.66903,2.92669,0.49915,-0.98424,0.02848,0.06152,-0.09684,0.29807
1946,-2.67969,-4.97588,-5.51124,76.43759,34.40652,8.44187,18.17811,1.90339,-8.62333,53.96169,56.25774,10.71678,1.97014,0.48978,-1.34221,-13.80379,-7.93669,7.40729,71.01257,38.36854,4.38006,15.34854,30.80897,21.40584,8.70213,3.75339,8.55222,3.53921,-6.90871,6.53539,2.42449,-5.10101,0.44717,2.26298,-0.11113,1.05533,0.4453,-0.90933,0.10958,0.12826,-0.01883,0.06419
1947,-4.05863,-1.45959,0.05353,72.56889,32.16059,9.24293,29.42913,9.02646,-2.273,49.76398,43.93257,12.90458,1.68326,0.07767,0.09403,-11.42846,-6.32723,7.55876,85.62267,-1.13003,0.25591,2.28807,30.26666,32.12729,11.35789,4.55149,7.32282,3.61424,-8.38723,5.83408,2.72601,-5.01125,-0.21744,2.5452,0.33673,0.0323,0.32995,-0.53063,-0.03461,0.29649,0.01915,0.14512
1948,-4.71371,0.23487,2.57027,69.48219,33.1734,9.43186,42.32131,12.94977,-3.99826,49.38531,38.89493,13.87179,1.93486,-0.05826,0.92105,-9.82473,-4.76366,7.82575,103.46783,-38.84777,-17.01432,-30.56626,15.10299,35.04586,13.12391,5.21792,5.80034,3.44516,-9.55968,5.48954,2.7789,-4.44331,-0.68448,2.74518,0.44573,0.09841,0.22716,-0.17818,-0.13206,0.34183,0.02939,0.22749
1949,-3.41279,-3.36531,-0.03053,62.86635,29.37541,9.40627,42.60521,6.82479,-14.75582,34.47825,31.91507,13.24131,2.42544,-0.13082,0.39139,-8.39344,-3.63638,7.51833,80.50629,-54.90522,-30.43619,-33.9152,16.23048,34.49095,11.55058,5.15372,5.42203,3.52952,-8.86054,4.97777,2.85858,-4.08557,-0.87624,2.84663,0.4419,0.17213,0.2786,-0.22941,-0.11508,0.32865,0.07223,-0.03192
1950,-2.70951,-11.39039,-4.73086,56.06779,22.61847,9.31104,24.8152,-6.49457,-34.24022,13.89707,23.05461,12.11935,2.48856,-0.34806,-0.86545,-6.54823,-2.69536,6.75597,25.33237,-50.09843,-42.36735,-6.65824,28.92163,27.58294,9.31638,3.16229,4.24584,3.69707,-6.74321,3.41777,2.38521,-4.04754,-0.31361,3.29562,0.50769,0.25032,0.28047,-0.5171,0.01376,0.42487,0.14278,-0.33782
1951,-2.08661,-13.78595,-5.58423,54.05665,19.6719,8.961,6.90746,-11.81913,-39.80056,7.33317,22.70588,10.88554,2.1484,-0.38956,-1.37441,-4.73233,-1.74378,6.13193,-7.54338,-21.86295,-34.78633,10.5069,29.8364,11.89779,9.93797,0.67567,2.2992,3.08542,-4.93637,0.56061,0.98781,-3.95016,1.32739,3.77946,0.62376,0.66491,-0.00712,-0.56418,0.24034,0.56006,0.17005,-0.22251
1952,0.33274,-6.07429,-2.62003,55.41339,20.55409,8.54654,7.86896,-0.67205,-17.16245,18.20508,30.67805,9.47623,1.93175,0.00215,-0.8189,-3.62064,-0.98774,5.84143,12.72273,24.07675,3.43142,-3.12287,8.42092,-6.61578,12.66372,0.52496,1.54075,2.16871,-5.01178,-0.95478,-0.2036,-3.50458,2.78515,3.54935,0.67136,0.9726,-0.36551,-0.22231,0.402,0.54647,0.11081,0.22654
1953,1.50163,3.71754,0.02011,54.79054,21.25051,8.42302,21.97765,15.91148,13.97789,31.93536,34.8837,8.65822,1.85409,0.4951,-0.07122,-3.10314,-0.52207,5.7781,57.69758,54.10386,41.89569,-30.09157,-23.69101,-19.50609,13.56658,2.3145,1.40404,2.21262,-6.10515,0.96089,0.29069,-2.66582,2.01731,2.61207,0.64972,0.61763,-0.27021,0.15051,0.22622,0.3923,0.03749,0.49748
1954,-0.71544,6.85287,0.52845,50.50565,22.42243,8.49258,37.19996,22.42514,24.33717,35.22085,28.67999,8.31012,1.79038,0.63902,0.13017,-2.62127,-0.00735,6.04788,91.33176,30.78948,41.12947,-39.51724,-31.97915,-16.61033,9.71405,3.58792,1.9961,3.08273,-6.20741,3.53573,2.13519,-2.2693,-0.35884,1.88312,0.78557,-0.41443,0.29248,0.06147,-0.12753,0.26757,0.06706,0.24395
1955,-2.84671,2.40767,0.01456,46.0435,25.40539,8.77729,48.7059,14.6638,8.87652,29.21105,15.32503,7.62552,1.99704,0.29328,-0.25484,-1.95791,0.76841,6.6574,103.6467,-40.46197,2.92372,-18.21917,1.71089,5.69369,3.94266,3.88007,4.66804,3.76342,-5.56204,3.63529,3.60963,-3.21093,-1.71685,1.94053,1.14388,-1.54468,0.76742,-0.45483,-0.28091,0.2365,0.18586,-0.32757
1956,-4.07189,-4.63186,0.0182,42.58698,27.43871,9.30493,46.32234,-0.48772,-13.02993,16.9671,1.6186,7.06177,2.29257,-0.30269,-0.70563,-1.19057,1.629,7.26875,82.80172,-106.56904,-34.36007,7.56403,46.67157,29.74923,2.81842,4.20126,7.43341,3.77197,-5.42832,2.69406,3.57363,-4.66918,-0.96655,2.15846,1.22941,-1.74803,0.76157,-0.81773,-0.19453,0.22186,0.2224,-0.61355
1957,-4.94243,-8.20366,0.68619,38.36208,28.76892,9.46699,30.54589,-10.78904,-23.4831,0.12593,0.08935,7.51562,2.31814,-0.58494,-0.65695,-0.25876,2.46172,7.73156,36.78675,-112.7352,-41.94598,0.57273,58.03542,31.61709,6.76655,4.56675,7.6009,3.25165,-5.28093,2.56106,2.16278,-4.98693,1.05492,2.09319,0.71818,-0.51607,0.34704,-0.70131,0.04352,0.25836,0.10134,-0.30366
1958,-2.40646,-3.72312,0.67427,34.71652,31.72438,8.97654,21.18772,-4.68093,-15.64443,-10.7463,16.85932,8.35298,2.31923,-0.02273,0.00918,0.7126,3.1274,8.06681,10.2598,-52.52017,-18.53922,-29.27601,29.94355,11.97344,8.27485,4.26526,5.78702,2.5016,-4.01413,1.63105,0.60779,-3.61227,2.32495,2.26874,0.20114,1.19593,-0.06945,-0.33008,0.27627,0.42161,-0.0156,0.23201
1959,1.71051,5.59522,-1.05862,34.7577,34.76503,8.52564,25.02281,14.51291,2.65472,-3.52586,38.37187,8.26164,2.33451,1.03647,0.73003,1.2098,3.44674,8.19405,27.054,21.77483,10.41148,-39.59327,2.23051,-6.54081,4.42972,3.10002,4.12085,1.72542,-2.39439,-1.0622,-0.02753,-1.88001,1.94977,2.60581,0.3359,1.75125,-0.1828,-0.12844,0.35871,0.50117,0.00148,0.44269
1960,0.64683,9.9633,-2.96736,36.42648,36.12492,8.57944,31.6773,27.93289,11.99285,12.23676,48.53648,7.53912,2.05419,1.51431,0.82371,1.08047,3.62745,8.18452,59.59485,48.75202,14.58274,-18.05831,9.20581,-9.97613,1.34867,1.39426,2.58538,1.68217,-2.48129,-2.76319,0.27965,-1.33967,0.89461,2.57973,1.0159,0.65803,-0.03917,-0.23171,0.27224,0.35255,0.10141,0.25874
1961,-5.21139,5.7777,-2.65005,35.99514,37.59492,8.92692,41.40779,25.15127,2.99238,18.72487,48.62231,7.61341,1.78618,1.01998,0.342,1.02923,4.10567,8.35312,84.8362,22.07874,-7.21482,8.63022,31.24171,-4.44513,2.70928,-0.30912,-0.20393,2.69087,-4.30585,-0.70194,0.8093,-1.48509,-0.13062,2.15522,1.40763,-0.43463,0.10555,-0.31889,0.05435,0.16589,0.1454,0.07935
1962,-8.33065,-0.28632,-0.74646,33.3681,41.23862,9.2497,55.19595,14.4594,-12.29157,12.54215,49.96862,8.31782,1.94801,0.28455,-0.12679,1.58232,4.92483,8.90777,98.36369,-11.43425,-28.68103,13.20551,21.1237,-1.79831,5.51562,-1.41101,-3.51629,3.36613,-5.255,3.60471,1.05182,-1.1984,-0.9943,1.39685,0.82865,0.08332,0.10402,-0.17315,-0.13885,0.07771,0.06215,0.1321
1963,-4.41296,-1.30843,-0.19928,29.69647,45.21144,9.3575,53.74128,6.09869,-17.74842,-1.76971,54.1353,8.13501,2.20537,0.0405,-0.29119,2.41711,5.70663,9.61564,78.37143,-14.4383,-29.97488,-3.66461,-25.16935,-5.77787,6.67185,-1.24359,-4.87023,2.7772,-3.90676,5.9159,1.33981,-0.79633,-1.58521,0.58257,-0.11535,1.01041,0.09516,-0.00796,-0.17989,0.04779,-0.04434,0.15813
1964,2.5905,1.49244,-1.62799,25.7611,46.57935,9.31822,26.77985,0.92221,-12.58878,-19.32895,52.89854,7.02748,2.12762,0.18018,-0.28581,3.19439,6.2369,10.06158,18.09002,2.18489,-16.5425,-19.98004,-54.1856,-9.69066,6.1887,0.3079,-3.33966,2.20719,-2.43184,4.95593,1.98974,-1.05727,-1.80001,0.31532,-0.26975,0.42836,0.20242,-0.02405,-0.1302,0.05167,-0.05896,-0.034
1965,5.02916,1.88799,-1.94251,22.12448,47.44654,9.2693,3.19013,-2.06336,-5.9948,-36.54592,46.63129,6.41745,1.92185,0.0514,-0.25347,3.86253,6.68089,10.21649,-35.34029,2.40041,-4.49271,-18.50777,-24.10771,-5.93562,5.92052,2.06026,-0.48149,3.02303,-3.33871,2.74589,2.69935,-2.14218,-1.38847,0.97758,0.53218,-1.05314,0.3427,-0.17753,-0.07923,0.11697,0.01393,-0.26072
1966,0.40142,-0.98248,0.10178,20.92702,51.12541,9.37756,11.875,2.89489,0.75444,-45.09593,43.80856,6.48501,1.9254,-0.50153,-0.15471,4.3875,7.17548,10.28158,-30.9412,-25.33564,0.40471,0.49566,38.43223,4.46161,5.94112,3.22293,2.90195,4.00542,-5.16388,0.1115,2.87269,-3.56327,0.09741,2.10738,1.4551,-1.42641,0.37246,-0.37753,0.07803,0.2167,0.12695,-0.31824
1967,-6.32388,-0.45457,-0.21718,23.12844,55.20599,9.68519,32.39077,21.16567,12.41446,-41.75206,46.86588,6.68238,1.87091,-0.5998,0.01693,4.63488,7.63454,10.25144,4.89428,-45.68014,6.05522,26.3915,73.19296,16.01017,2.62858,4.29957,7.20889,3.15375,-4.67029,-2.54937,2.21888,-4.1504,1.81696,2.52601,1.65849,-0.31766,0.23419,-0.51245,0.34933,0.25,0.2212,-0.20497
1968,-8.97304,5.90396,-5.94521,26.20947,55.82279,10.07621,36.66391,43.71869,22.45828,-36.92484,50.96255,7.67604,1.44643,0.40581,0.12709,4.61015,8.04649,10.07345,18.36333,-28.05414,17.6498,40.18482,56.09152,24.08739,-4.21216,4.65996,9.94342,0.99691,-1.99957,-2.43497,1.13552,-3.04994,1.85324,1.58585,0.89852,1.08558,0.01824,-0.4338,0.42871,0.168,0.20773,0.03072
1969,-8.4128,10.88754,-11.18334,28.25889,55.30019,10.51305,31.3208,49.20893,19.03241,-37.06576,55.41196,10.35024,0.74899,1.57253,0.12502,4.61948,8.56147,9.92775,11.37726,2.78398,25.40016,25.827,14.51163,22.93764,-6.96977,2.75716,7.1867,-0.18027,-0.32397,1.23435,0.41153,-1.16769,0.33023,0.28411,-0.24712,2.13059,-0.08517,-0.17708,0.19699,0.0822,0.09024,0.34012
1970,-7.5535,9.38105,-10.18019,28.19217,57.99004,10.65979,31.59275,33.11776,5.58262,-41.77317,63.7065,13.0662,0.36306,1.71163,0.11662,4.80518,9.19502,9.96895,5.67825,13.47391,21.08525,-3.46602,-6.35335,10.38243,-1.23454,-0.27416,0.20477,0.41844,-1.47367,3.64138,0.64412,-0.2217,-0.98959,0.1911,-0.81482,2.852,0.02759,0.0352,-0.10442,0.12158,-0.0196,0.57034
1971,-5.2434,5.80533,-6.76671,26.90272,61.46216,10.2476,39.47621,17.5734,-4.48835,-45.75175,70.25787,12.60815,0.88809,1.17916,0.14586,5.08669,9.69077,9.89389,8.58336,7.64874,9.90077,-16.35686,8.64841,-6.54274,6.66879,-1.33634,-5.13298,1.83983,-4.28022,0.86274,1.68334,-0.61838,-1.59189,1.46819,-0.27335,2.73024,0.23721,0.0831,-0.29023,0.25962,-0.03583,0.51816
1972,-2.6106,4.72684,-6.00021,26.5516,60.35407,9.52985,44.85574,14.02312,-8.26823,-45.54311,65.49202,8.64384,1.77905,0.8956,0.10562,5.344,9.78656,9.31146,12.31655,-7.68032,-2.17739,-7.36138,23.44665,-19.06289,9.24318,0.0751,-6.01798,3.00138,-5.948,-3.93095,2.58841,-1.21405,-2.1246,2.70455,0.92401,1.42793,0.35629,0.04315,-0.37526,0.35269,0.04575,0.18664
1973,-1.49611,5.24784,-7.0278,27.23469,55.7565,8.9883,42.91658,13.80852,-9.30143,-44.42115,52.97979,4.60633,2.23523,0.90432,0.00581,5.46562,9.61396,8.47203,9.87509,-31.386,-9.78115,1.46549,3.72947,-22.2126,6.05761,1.77758,-4.06023,3.30518,-4.75795,-5.34873,2.65673,-1.17502,-2.68834,2.79366,1.7707,-0.10506,0.34928,-0.02596,-0.36001,0.31126,0.16715,-0.18804
1974,0.31216,6.1932,-8.6306,26.09454,54.41576,8.73092,40.24296,18.6366,-5.39126,-50.5292,48.73933,3.4148,2.4227,0.77332,0.01379,5.35611,9.59194,8.11065,-1.65484,-37.67938,-4.22419,2.17173,-22.94401,-13.49206,0.30849,2.5404,-0.62708,3.02016,-2.27109,-2.94958,2.26826,-1.073,-2.82449,2.1878,1.79767,-0.50484,0.31431,-0.18452,-0.21598,0.20377,0.23457,-0.32707
1975,4.82007,6.70746,-9.80546,21.81875,57.731,8.46243,46.67451,29.86804,1.74885,-67.64408,56.06173,4.03496,2.74154,0.40291,0.17243,5.26891,9.69442,8.32032,-17.26572,-19.94328,11.16354,9.9994,-11.8572,0.77639,-4.62416,2.70271,3.10131,2.82876,-1.6154,-0.44572,1.95516,-1.4201,-2.32119,1.76538,1.29072,0.34441,0.27495,-0.38054,-0.01191,0.12452,0.16262,-0.13339
1976,7.67975,5.64711,-8.66288,17.74802,60.88977,8.06884,57.21919,33.31546,3.64168,-85.17495,64.07808,4.90881,2.751,0.15175,0.2865,5.83074,9.46537,8.40526,-26.63013,-7.35851,20.36489,31.80409,21.88669,6.639,-5.45457,2.51468,4.89638,3.45465,-3.95925,-0.16735,1.6248,-1.77064,-1.00533,1.80113,0.91437,1.16748,0.16247,-0.42933,0.22608,0.11029,0.01328,0.15831
1977,4.16948,4.62766,-6.88199,17.51449,62.90383,7.7786,54.21366,28.23959,-0.96529,-87.87696,72.46849,7.04126,2.00027,0.41692,0.19788,6.91352,8.81238,8.01738,-29.61001,1.29278,17.22069,50.01944,32.84703,1.36359,-1.9512,1.68012,3.96441,5.09842,-7.14583,-0.29436,1.38717,-1.79148,0.70845,2.02492,1.00522,1.14853,0.0464,-0.30257,0.42717,0.16135,-0.03189,0.25171
1978,-2.08977,4.94933,-6.26698,20.27134,64.228,7.69878,34.79297,25.4007,-4.75688,-75.05196,81.12885,9.47948,1.09817,0.92721,0.09948,7.47898,8.10712,7.38438,-34.34338,17.43986,9.48219,45.74418,17.27212,-3.52282,2.32954,-0.01477,1.63735,6.44861,-7.65795,1.81612,1.57382,-1.70555,1.44165,1.92954,1.106,0.8679,0.07464,-0.13823,0.32388,0.23335,0.07815,0.16561
1979,-5.0919,5.9038,-6.51945,22.5365,61.96714,7.63099,16.80252,28.43135,-3.39239,-60.56963,78.25349,9.2228,0.8216,1.1049,0.21773,7.223,7.68713,6.70246,-41.54844,24.88023,6.66928,24.15185,2.88563,-2.86305,4.97647,-2.16513,-1.36651,5.48528,-4.39193,4.93712,1.84686,-1.43747,0.34611,1.33506,0.64568,1.11899,0.17226,0.04399,-0.22055,0.25327,0.19363,0.11466
1980,-2.69,6.14617,-6.61304,21.88714,56.83656,7.33287,21.39651,31.28253,0.28837,-55.92221,64.9221,7.05361,1.27562,0.75239,0.49023,6.83701,7.56845,6.06057,-36.44935,12.88051,12.94173,4.66049,-2.29154,-2.83913,6.6772,-4.08806,-5.503,2.67064,-0.50982,5.05523,1.83291,-0.67517,-2.32773,0.84395,0.10066,1.60368,0.18573,0.31161,-0.99506,0.19351,0.19547,0.12976
1981,2.83231,5.42922,-6.25921,19.4665,53.66351,6.83781,45.51173,27.72027,2.11661,-54.82652,57.58648,6.08061,1.97924,0.27701,0.66163,6.77326,7.49379,5.52385,-9.13185,-3.24914,21.19896,-5.79471,-10.50268,-3.71159,7.53045,-4.35379,-8.23815,1.3683,0.0711,1.07596,1.89544,-0.16249,-4.39679,1.2387,0.57554,1.50229,0.13157,0.4534,-1.31244,0.13215,0.16189,0.09304
1982,7.56349,4.76594,-6.09073,18.4232,53.56887,6.32978,66.40881,20.76637,0.9649,-47.25972,61.43949,6.58063,2.38692,0.14553,0.60649,6.87476,7.26591,5.00654,26.14338,-6.84627,21.25292,-9.79027,-21.46751,1.00555,5.06283,-2.10936,-5.44058,2.69937,-2.31033,-3.78069,2.44562,-0.85526,-3.61804,2.1346,1.87983,0.73954,0.14912,0.17775,-0.67934,0.11815,0.18485,-0.02689
1983,9.77098,4.53747,-6.25503,18.49352,53.42753,5.73573,72.71377,18.58878,-1.86825,-43.44483,65.80663,6.43743,2.3879,0.21507,0.45629,6.90172,6.98569,4.38743,39.77779,0.27862,15.54149,-2.29145,-18.92985,6.93552,-0.48999,0.5375,0.99725,3.74332,-4.14266,-6.09193,3.7971,-2.4411,-1.63757,2.47974,2.4676,0.29325,0.45856,-0.38376,0.22538,0.1203,0.20687,-0.11238
1984,9.83811,3.61502,-5.57713,16.58813,52.13073,4.88721,67.84689,22.35095,-4.32177,-57.95207,65.46703,5.14846,2.23043,-0.01903,0.3926,6.87546,6.88155,3.73025,15.7066,7.98695,13.14584,16.12982,3.0558,2.52276,-4.51485,1.05165,4.55402,3.08445,-4.02211,-5.05327,4.72069,-3.15777,-1.15652,2.26786,1.80898,0.98487,0.76074,-0.66637,0.50254,0.16226,0.17616,-0.00573
1985,7.6637,2.28944,-4.22867,12.6019,50.86441,3.90371,55.10582,29.06647,-6.06193,-81.65907,64.78546,3.9937,2.02815,-0.57589,0.40663,6.95202,6.9945,3.12961,-30.53826,14.318,12.97305,29.51589,28.09365,-10.06952,-2.78561,-0.01534,2.59971,3.04625,-3.49102,-1.92104,3.96971,-2.19688,-1.49463,2.18082,1.05782,2.15543,0.60856,-0.39714,0.31633,0.27317,0.15571,0.26694
1986,3.74718,2.57297,-3.93418,9.97396,49.00097,3.09913,41.05368,35.45916,-8.11515,-93.51045,63.37319,3.34723,1.73615,-0.96506,0.3953,7.07241,7.14057,2.51258,-64.8884,17.93188,9.63571,31.83923,34.74543,-16.72916,3.91014,-0.59066,-2.33322,4.82265,-3.5344,1.42449,2.63879,-0.86938,-1.36732,2.23957,1.00498,2.60778,0.2275,0.03224,0.07948,0.35823,0.17498,0.47343
1987,0.93194,3.35614,-3.81537,10.2162,45.85007,2.64188,37.88952,31.05969,-7.93245,-88.3935,58.53442,2.95909,1.47545,-1.03261,0.3726,6.87364,7.1343,1.85019,-66.05672,8.0007,9.11601,34.80424,23.80654,-11.13238,9.96905,0.53789,-5.85623,6.42826,-3.54181,3.18982,2.3014,-0.62573,-0.72527,2.15789,1.2329,2.26,0.14018,0.12459,-0.142,0.32321,0.1839,0.42802
1988,0.8894,1.69423,-1.77356,11.1313,43.40442,2.38113,46.16872,10.05125,-2.25675,-76.24133,54.29956,2.80592,1.38728,-1.02147,0.37113,6.21087,6.92992,1.28853,-42.79052,-17.28693,17.36639,42.40335,16.92868,-1.46645,10.00152,2.34429,-5.28538,6.39335,-3.2615,2.3556,3.00344,-1.36395,-0.19811,2.20211,1.41588,1.83916,0.43169,-0.11931,-0.36026,0.2418,0.1833,0.18795
1989,1.58015,-0.86824,0.6369,10.82543,42.7196,2.0066,52.09212,-10.70481,4.31722,-65.49899,53.45753,2.01671,1.36079,-0.94948,0.33776,5.48379,6.62066,0.87087,-19.10077,-37.74269,24.20094,42.93981,18.90599,0.21856,4.60731,2.44682,-2.09276,5.54538,-3.21157,-0.5713,3.71722,-2.02737,-0.57532,2.64976,1.85463,1.66892,0.69644,-0.34012,-0.49304,0.23364,0.21667,-0.00573
1990,0.58107,-0.85453,0.78239,9.87085,40.97903,1.33997,47.12416,-11.65097,4.2821,-59.44602,50.67344,-0.38249,1.19176,-0.78282,0.23651,5.05314,6.33566,0.3812,-10.69771,-38.81221,18.43276,31.48329,11.00214,-9.11707,0.41389,0.05985,-0.35285,4.35688,-3.28284,-3.99774,4.12015,-2.15041,-2.00237,2.96636,2.43981,1.41842,0.70046,-0.33886,-0.49084,0.26121,0.24039,-0.01746
1991,-1.86767,0.43518,-0.18319,8.29038,36.81893,0.46296,33.55885,-0.18464,-0.65485,-61.8269,45.2023,-2.83116,0.88814,-0.78823,0.09079,4.7161,6.06786,-0.28874,-24.51814,-30.43777,6.54678,21.79876,-8.19408,-20.54422,1.4547,-3.47898,-1.87667,2.48732,-2.99468,-6.23714,4.19944,-1.84621,-3.89748,2.55014,2.45297,0.84376,0.49733,-0.152,-0.51084,0.2234,0.16112,0.04784
1992,-1.24353,-1.13295,0.06759,4.85837,33.69778,-0.30052,22.13267,3.29363,-3.16339,-71.75572,45.70917,-2.28679,-2.25289,-0.22674,-0.1275,4.14444,5.70254,-0.91239,-50.52839,-21.77925,1.11576,30.90777,-12.47015,-23.33983,4.52542,-5.3795,-3.60285,1.12566,-2.75839,-6.6119,3.95675,-1.41234,-4.50416,1.96935,1.97101,0.44948,0.29246,0.03399,-0.5081,0.1863,0.06426,0.08003
1993,-2.26578,-2.27775,0.75924,0.77279,33.89325,-0.62818,10.7876,0.73959,-2.35906,-77.72604,54.94038,1.6706,-4.30545,0.48064,-0.38022,3.38181,5.26096,-1.28083,-74.25007,-7.86537,2.98998,53.71729,10.32988,-19.52338,5.98849,-3.39956,-2.80933,1.84818,-3.45328,-6.43938,3.80219,-1.15063,-2.4214,2.18897,2.06772,0.75333,0.30402,0.03917,-0.22797,0.26566,0.14837,0.09748
1994,-2.82444,-2.54513,1.09206,-0.80893,35.12999,-0.54441,8.50673,-2.7805,-0.76288,-71.42119,64.28249,5.97301,-7.0422,1.83528,-0.64633,2.68079,4.9251,-1.4571,-73.82758,8.04831,7.67359,64.34126,38.54517,-19.72627,6.6987,1.07835,-1.70996,3.7667,-4.65383,-7.0652,3.86038,-1.11764,0.60486,3.14719,3.08606,1.5384,0.46006,-0.08777,0.15844,0.41188,0.39569,0.14276
1995,-1.62197,-2.14163,0.79393,-0.02758,34.04825,-0.51856,13.48234,-5.48335,0.16427,-61.47202,62.68876,6.53531,-10.37113,3.68347,-0.94963,2.19053,4.65016,-1.66855,-62.54998,10.25052,9.70554,49.54227,50.54588,-25.14215,7.91816,4.50485,-2.99437,4.77575,-4.97821,-7.68718,3.8284,-1.17511,1.50284,3.75135,4.00084,1.93005,0.49592,-0.1647,0.17559,0.44344,0.54612,0.1454
1996,1.16884,-2.28922,0.49923,-0.31515,30.63314,-0.88628,18.46503,-9.31519,1.55528,-59.88868,50.666,2.98292,-14.0648,5.6602,-1.30131,1.76028,4.16185,-1.99,-60.6183,-4.84423,7.45286,26.43522,44.52113,-27.56512,8.92858,5.63111,-5.47086,4.46537,-4.44237,-7.49812,3.78721,-1.19773,0.21919,3.27961,3.95146,1.31427,0.39023,-0.13283,-0.19109,0.29861,0.44648,0.04993
1997,2.39803,-2.60793,0.51071,-2.29448,27.17582,-1.37845,20.05445,-13.58344,3.77936,-63.38257,40.01732,-0.64215,-18.33206,7.79552,-1.74928,1.03464,3.46267,-2.26484,-62.12398,-20.57736,5.18868,17.39161,21.16183,-22.0692,8.87417,5.11456,-6.26782,3.95978,-4.11232,-7.14289,4.4698,-1.2943,-1.045,2.38539,3.40934,0.2595,0.49635,-0.106,-0.49807,0.17357,0.27556,-0.02438
1998,0.25526,-2.07789,0.49495,-3.19097,24.44456,-1.59721,21.624,-17.77111,5.47049,-62.69791,37.76275,-1.09275,-23.36923,10.35705,-2.33434,-0.0066,2.92242,-2.38657,-52.15319,-24.23285,8.39106,25.17646,-11.93899,-11.09675,7.37269,3.00377,-4.15778,3.8034,-3.73844,-6.57539,6.05458,-1.62574,-1.21025,1.8816,3.1341,-0.38633,0.99458,-0.18634,-0.40338,0.20084,0.27737,-0.03103
1999,-4.15434,-1.17173,0.26658,-2.42048,22.05583,-1.5498,24.61378,-22.61132,5.3702,-58.8671,39.98022,1.09094,-28.93775,13.27546,-3.10482,-1.01091,2.75514,-2.43813,-36.8409,-17.56028,15.75714,41.47043,-26.59688,-2.34576,4.75389,-0.46631,-0.73675,3.46606,-2.48255,-5.0838,7.28078,-2.01972,-0.99458,1.74786,3.05185,-0.389,1.45788,-0.30933,-0.05327,0.26098,0.41005,-0.04683
2000,-9.13706,-0.43021,-0.16595,-2.79189,20.35975,-1.4367,25.73678,-25.34929,3.53936,-57.33936,39.74285,3.39971,-34.73527,16.35672,-4.07118,-1.89543,2.7175,-2.48251,-30.07169,-7.13207,19.41739,55.97532,-5.47184,-2.48158,2.64781,-3.43664,0.88627,2.73138,-1.06093,-3.22335,6.33315,-1.94075,-1.31088,1.87659,2.80496,0.27048,1.24835,-0.30362,0.1011,0.25866,0.45444,-0.03095
2001,-13.99457,0.95448,-0.76751,-5.33314,19.57355,-1.36187,21.67622,-22.07181,1.76133,-57.14108,35.75139,4.1774,-40.67433,19.63939,-5.10037,-2.88229,2.43699,-2.48439,-33.17137,4.66113,16.00628,54.01687,28.37553,-9.3516,2.72887,-3.27648,-0.65805,2.62976,-0.84562,-2.27249,3.46899,-1.23422,-1.85839,2.40854,2.65137,1.24835,0.41767,-0.134,-0.13221,0.26477,0.3799,0.06635
2002,-18.06384,2.80307,-1.18365,-8.08605,18.58382,-1.48041,14.5506,-17.07885,2.60767,-57.03078,31.63804,2.99728,-46.69999,23.1459,-6.03766,-4.10418,1.81503,-2.46675,-41.39917,14.21076,11.02879,32.05673,40.05404,-15.33374,4.54309,0.23414,-3.24293,3.89692,-1.86593,-2.90563,1.9766,-0.67654,-1.69771,3.01368,3.10553,1.47029,-0.06969,-0.00086,-0.47363,0.32773,0.38818,0.08868
2003,-20.28158,4.2608,-1.47479,-9.52508,16.31087,-1.87265,11.24972,-16.78388,5.12141,-58.71151,28.35391,-0.07211,-52.62284,26.81553,-6.85276,-5.4196,1.08592,-2.50079,-48.59781,14.92069,7.27107,9.11178,20.97072,-17.94868,6.19322,3.88799,-3.83074,5.44266,-3.01044,-4.57863,3.59389,-0.83449,-0.48054,2.99879,3.95456,0.41907,0.35762,-0.03005,-0.48523,0.38067,0.58133,-0.0797
2004,-22.12774,5.96812,-2.20998,-10.13556,13.38317,-2.25138,11.77957,-18.10129,5.032,-61.43696,23.36235,-3.84541,-58.24947,30.65974,-7.65057,-6.56856,0.54377,-2.53439,-52.49855,9.32286,1.19877,5.81628,-10.7902,-19.60674,6.81204,5.03309,-2.5005,6.22839,-3.47955,-5.52717,5.45601,-1.14052,0.99487,2.49696,4.48268,-0.68061,0.9564,-0.10497,-0.1692,0.39327,0.78871,-0.21187
2005,-26.38719,7.40508,-2.95803,-11.00925,10.9939,-2.27666,8.91134,-18.35674,2.41382,-62.17395,17.11637,-5.86856,-63.47087,34.57941,-8.59532,-7.46818,0.21845,-2.45807,-57.46277,5.69834,-5.3509,20.03631,-31.38972,-20.16542,6.62033,5.29325,-1.43436,6.57734,-3.66958,-5.11758,4.68607,-0.85972,2.16262,2.11414,4.38818,-0.77587,0.85926,-0.07896,0.17608,0.33751,0.75434,-0.12545
2006,-32.37156,6.74211,-2.79454,-11.37206,9.20661,-1.99013,1.22528,-23.12461,2.28182,-57.61421,13.67708,-4.58729,-68.24613,38.35608,-9.69157,-8.2278,-0.11927,-2.32006,-61.90703,4.25774,-5.33523,31.77032,-28.41885,-18.17256,6.28074,6.21554,-1.4478,6.47517,-4.32746,-5.20517,2.70173,-0.3045,2.81983,1.67231,3.98193,-0.88205,0.31911,0.02369,0.36244,0.12805,0.46493,-0.10451
2007,-36.58358,4.68315,-2.11707,-10.37069,7.90876,-1.63491,-3.57422,-33.45562,5.62124,-47.28143,15.63495,-0.74295,-72.62266,41.87734,-10.72344,-8.99081,-0.60795,-2.20716,-54.76793,4.80839,1.90783,28.42616,-6.29413,-14.72228,6.25014,5.06577,-1.74592,5.18365,-4.68335,-6.09701,2.49841,-0.31319,1.98777,0.78836,3.32854,-1.87488,0.11036,0.06412,0.26684,-0.15959,0.17007,-0.37559
2008,-37.71965,3.72148,-2.0065,-9.4105,7.80658,-1.25915,-0.43143,-41.09811,7.82298,-34.79379,21.40862,3.82315,-76.66084,45.12802,-11.51618,-9.73204,-1.10174,-2.04671,-31.85785,14.15705,9.23336,18.35415,18.84443,-10.65866,5.71321,0.97069,-1.55709,3.16397,-3.08455,-4.52571,4.56879,-1.07441,-0.20673,-0.14474,1.86534,-2.36694,0.46376,-0.03523,-0.0342,-0.28801,0.00164,-0.59706
2009,-38.43492,4.7072,-2.52191,-10.35282,8.40802,-0.88105,2.83958,-41.97398,7.33719,-25.8399,24.59572,6.4296,-80.22955,48.07145,-12.0739,-10.30968,-1.42634,-1.75971,-10.9928,28.3765,9.77319,16.50804,28.92412,-5.63645,3.80378,-0.7379,-0.80079,2.57341,-0.22368,0.01097,7.13206,-2.07276,-1.06255,-0.17624,0.30891,-1.0828,1.02793,-0.23794,-0.15025,-0.14164,-0.04012,-0.37267
2010,-41.34239,6.09737,-2.83074,-13.03441,7.45385,-0.77657,-4.4144,-42.29335,7.84517,-22.89104,19.14762,4.71069,-83.12437,50.61094,-12.52413,-10.67865,-1.66235,-1.466,-13.15038,30.83902,3.34919,21.18019,14.62884,-2.33817,2.44715,3.77038,-0.23442,4.59111,0.69597,2.58614,8.19702,-2.65535,1.08926,1.06137,0.5903,0.62638,1.32033,-0.3997,0.11512,0.16458,0.08043,0.08167
2011,-44.71295,5.84707,-2.59163,-15.31143,3.70798,-1.18679,-16.20952,-47.7511,10.65596,-22.18015,7.37192,-0.05877,-85.47287,52.6895,-13.00136,-10.84163,-2.05051,-1.39496,-28.38865,17.68544,-3.51683,19.73586,-15.11961,-2.63235,3.60219,9.82231,-0.90481,8.05914,-1.3329,0.68887,6.66697,-2.35617,3.52457,2.44693,2.65149,0.55494,1.05947,-0.36201,0.36603,0.3887,0.32169,0.18185
2012,-44.73091,3.48719,-2.23906,-14.59295,-0.64297,-1.69012,-15.57941,-55.45893,12.22777,-17.79836,-0.75144,-2.77076,-87.61446,54.35323,-13.47347,-10.73066,-2.54005,-1.52362,-24.65772,4.64575,-3.26565,11.47922,-35.7367,-1.42339,4.46698,10.144,-2.62984,10.65168,-3.44107,-1.92377,3.35763,-1.18265,2.44568,2.60083,4.11273,-0.98058,0.45267,-0.12296,0.13094,0.38493,0.50208,-0.13096
2013,-41.98373,1.51747,-2.37037,-10.96167,-2.05812,-1.53983,-3.17349,-55.94041,9.75384,-8.99365,0.71178,-0.40629,-89.55059,55.62101,-13.74494,-10.36411,-2.74092,-1.51589,2.71418,8.35651,2.70965,4.21576,-29.00364,4.07539,2.4651,4.80945,-3.81431,10.62418,-3.60461,-2.1834,0.7563,0.1143,-1.21637,1.82869,3.76494,-1.87049,0.04501,0.12394,-0.38509,0.27533,0.50478,-0.36741
2014,-41.6867,2.61582,-3.02617,-9.08591,-0.59747,-0.86332,-0.55233,-45.23333,5.47839,-4.51449,5.02323,2.99165,-90.95009,56.36909,-13.77825,-9.97682,-2.5284,-1.19722,14.61642,24.94523,3.69925,0.20738,-0.30007,5.53165,1.09031,0.38633,-3.47266,9.51586,-3.45233,-1.85759,0.33207,0.54036,-3.00242,1.89891,3.33476,-1.47157,0.0268,0.19065,-0.59206,0.34802,0.47942,-0.26568
2015,-45.65205,4.3877,-3.34472,-12.24846,0.00996,-0.54474,-15.92568,-36.19404,4.16532,-12.04286,2.13793,1.91335,-91.73264,56.57061,-13.82813,-9.6774,-2.23636,-0.80482,-13.92433,30.3503,-3.77195,-2.32172,26.03166,-3.94717,4.55456,1.17225,-2.13448,10.26918,-4.59908,-2.3037,1.37698,-0.16929,-0.82826,3.28316,4.06786,-0.68813,0.09482,0.09271,-0.27889,0.61277,0.52454,-0.00656
2016,-48.44016,2.74913,-2.8488,-16.58066,-1.81812,-0.80277,-28.2485,-40.97337,6.05422,-21.89427,-5.78449,-1.51946,-92.20695,56.58847,-13.9922,-9.20501,-2.13051,-0.6145,-44.86388,18.16273,-10.07203,-2.63804,25.68307,-17.11439,10.91414,5.12564,-0.6712,12.48492,-5.86163,-2.07447,3.16269,-1.56922,3.07903,4.09337,4.60938,-0.28721,0.1348,-0.06314,0.25118,0.67737,0.47601,0.15661
2017,-45.99869,-1.26311,-2.13117,-16.63641,-3.29576,-0.97631,-21.74623,-51.5984,7.34298,-17.70738,-7.91445,-1.26115,-92.58421,56.75155,-14.03504,-8.34894,-2.12246,-0.60489,-33.10916,11.51179,-8.36699,1.80349,-1.19306,-20.5621,13.71746,7.37523,0.19331,13.33212,-5.62159,-0.47657,5.34406,-2.89877,4.84279,2.7733,3.60196,-0.43074,0.3883,-0.21136,0.51248,0.30324,0.2153,0.15718
2018,-42.74439,-3.7275,-1.6155,-13.46133,-2.65399,-0.85276,-12.33937,-56.32752,7.84417,-3.35938,-2.55002,1.74606,-92.74388,56.82767,-13.83462,-7.35489,-2.07832,-0.62123,-0.99591,19.14524,-3.91589,7.71692,-25.90848,-10.38639,9.53278,5.5325,-0.19716,12.03503,-3.91951,1.2949,6.73598,-3.21092,2.5998,0.55551,1.8579,-0.81136,0.85279,-0.28442,0.23771,-0.16316,-0.07122,0.07048
2019,-44.00961,-3.75757,-1.14786,-11.27013,-1.79473,-0.86114,-18.42176,-57.22382,9.82478,4.62053,1.38743,1.92795,-92.55756,56.40368,-13.5751,-6.52289,-1.99789,-0.59216,5.22945,24.36202,-3.81698,3.85072,-24.0899,2.9993,2.89066,1.8241,-1.68798,10.06628,-1.81745,1.99196,6.56498,-2.34746,-1.47676,-0.26859,0.96404,-1.07335,1.15507,-0.23456,-0.3473,-0.26006,-0.11132,-0.08428
2020,-46.87413,-3.74748,-0.71671,-11.05493,-2.23931,-1.09199,-31.22324,-60.09219,12.0696,3.47325,-0.54371,-1.07965,-92.14702,55.5955,-13.39083,-5.8042,-1.86772,-0.49872,-11.15873,22.39581,-7.35742,-11.16221,-5.44857,6.88575,0.78967,0.25232,-2.46971,8.84271,-1.02698,1.04452,5.62164,-1.58709,-3.04733,0.69572,1.47362,-1.28911,1.08332,-0.15496,-0.59161,-0.01037,0.11183,-0.30695
2021,-45.88048,-5.62784,-0.32335,-11.73295,-3.61684,-1.37319,-36.88156,-62.35435,12.56608,2.15537,-4.7355,-3.7262,-91.71572,54.90664,-13.22191,-5.06347,-1.68751,-0.37664,-24.02398,26.71551,-11.55734,-15.71363,0.41744,1.56627,3.32844,1.65875,-0.84378,9.06434,-2.2059,-0.81572,5.08063,-2.1303,-0.60791,2.20247,2.90257,-1.51937,0.796,-0.2073,-0.15132,0.27533,0.39496,-0.42315
2022,-42.17867,-9.03662,0.2722,-12.18471,-4.92225,-1.59143,-38.19887,-60.10509,12.08699,4.94907,-7.1206,-4.44962,-91.32934,54.49911,-13.05498,-4.30878,-1.4879,-0.2834,-28.26434,39.66574,-15.91118,6.66341,-19.54137,-1.21171,4.45761,4.07173,2.32845,10.79604,-2.751,-1.07551,4.93695,-3.39824,2.998,2.97973,4.00905,-1.42261,0.48936,-0.36314,0.53628,0.39491,0.52698,-0.2797
2023,-39.18638,-12.21733,0.89747,-1.02552,-1.42522,-0.72642,-35.42193,-58.16272,11.31239,25.89097,-1.83965,-1.72004,-90.86543,54.09398,-12.89302,0.4818,0.09728,-0.10235,-2.27971,50.08924,-15.6417,33.51485,-43.60785,5.3495,0.85211,5.95334,4.62172,13.47661,-0.37166,1.77668,4.21368,-3.77703,4.47408,2.57126,3.65171,-0.87457,0.21465,-0.40329,0.84711,0.33111,0.4194,-0.00753
2024,-36.74175,-13.87405,1.08186,0.24133,-0.75035,-0.42753,-22.1635,-64.31243,10.16727,21.84839,-2.57551,-1.81873,-90.15234,53.46964,-12.63821,0.45583,0.18105,-0.07225,15.26062,26.66722,-10.21178,28.41359,-37.01189,14.22343,-4.07421,5.92789,4.6564,15.7501,2.28748,5.20026,2.62782,-2.67954,3.34824,1.86965,2.42242,-0.28505,0.01783,-0.26384,0.67614,0.2907,0.2192,0.18821
2025,-34.72302,-13.3996,0.77049,1.52331,-0.48565,-0.21017,-7.45105,-73.48532,9.32548,16.63474,-3.42912,-1.98554,-89.16613,52.67646,-12.25917,0.52431,0.18111,-0.06394,34.50929,-3.44134,-0.14908,-7.22169,-0.82704,15.36562,-4.80874,3.68814,2.74743,15.5207,1.26188,5.40246,1.24685,-1.19947,1.32571,1.58682,1.64012,-0.19451,-0.00512,-0.12322,0.33104,0.36905,0.10475,0.24179
2026,-34.94397,-11.11595,0.3677,1.14598,-1.40561,-0.40978,-9.16235,-72.24923,9.39499,13.88672,-2.69582,-1.41633,-88.01921,51.83387,-11.89356,0.64653,0.00627,-0.13817,31.08464,-8.81478,6.2995,-35.12233,24.79758,8.40199,-0.18808,1.74199,0.16645,12.44118,-2.43024,2.48569,1.14353,-0.69732,-0.02065,1.65997,1.70042,-0.49582,0.12162,-0.10504,0.06411,0.44547,0.13494,0.18089
2027,-36.87374,-8.93855,0.2204,-0.11674,-2.41102,-0.72654,-25.67129,-60.70322,9.80598,16.14198,-1.84875,-0.90402,-86.80435,51.05908,-11.64039,0.70375,-0.18779,-0.21841,10.22083,8.96318,3.57591,-31.81575,19.79957,0.04385,6.20698,1.33131,-1.68451,8.8017,-4.53752,-0.06125,1.98706,-1.31931,-0.32241,2.2355,2.12993,-0.37285,0.20353,-0.1616,-0.05482,0.49205,0.27355,0.08951
2028,-37.34249,-8.87106,0.32804,-0.69008,-1.9522,-0.64228,-37.90977,-52.62192,9.30061,21.04839,-3.52964,-1.67942,-85.55886,50.49493,-11.43868,0.63428,-0.15851,-0.17768,-2.41796,21.63749,-4.99778,-10.95896,3.90492,-4.12595,10.63728,0.0756,-2.17179,6.64496,-3.85155,-0.57292,2.54718,-2.22509,0.09845,3.18201,2.45348,0.24942,0.13503,-0.22498,-0.04297,0.53682,0.4217,0.00873
2029,-35.27107,-10.58596,0.4717,-0.63743,0.18111,-0.08276,-36.09117,-53.9604,7.52571,21.94843,-4.73214,-1.94805,-84.34651,50.16139,-11.21009,0.47092,0.08932,-0.02574,-0.2929,19.64139,-9.91359,7.31083,-5.61363,-1.42755,11.40496,-2.39457,-1.64233,6.25055,-2.51001,-0.14698,2.19373,-2.53509,0.71959,3.56237,2.49203,0.51749,0.02603,-0.21937,-0.00345,0.48704,0.45374,-0.07664
2030,-32.86369,-11.13698,0.28211,-0.6684,2.38437,0.54716,-27.17781,-55.44168,5.19116,19.32933,-1.38611,0.80618,-83.28449,49.91047,-10.95198,0.28387,0.32336,0.12693,8.65871,19.01281,-7.27752,16.57011,-10.52913,5.70157,8.73432,-2.55058,-0.91055,7.22879,-1.85821,0.50349,1.56444,-1.88643,0.81302,2.8981,2.24337,0.18995,0.05441,-0.07995,-0.03637,0.30324,0.33646,-0.11154
2031,-32.16836,-8.96365,-0.28316,-0.86777,2.74481,0.7959,-22.02946,-51.24297,3.92515,18.1199,3.34832,4.59927,-82.46759,49.57705,-10.72511,0.14761,0.36792,0.20889,15.8626,25.19123,-2.06694,11.59466,-12.43001,9.3828,4.69374,0.91306,-0.40144,8.94442,-1.68727,1.43112,1.545,-0.81099,0.2101,1.76474,1.8971,-0.24103,0.22429,0.06834,-0.04744,0.11241,0.17502,-0.03453
2032,-32.59523,-6.18796,-0.70056,-1.15076,1.22866,0.5327,-25.00646,-48.29848,5.44404,15.8611,3.39472,4.52083,-81.85424,49.15531,-10.56187,0.11166,0.2497,0.21601,9.72393,23.76748,0.20552,-9.67154,-10.18292,7.01165,1.3407,4.59425,0.10532,10.2722,-1.62146,2.44926,2.33409,-0.41943,-0.53851,0.72009,1.42829,-0.45823,0.40455,0.02234,0.04259,0.00023,0.03035,0.09424
2033,-32.56117,-5.48715,-0.48263,-1.21051,-0.05345,0.10254,-32.34581,-52.07687,9.24786,10.7408,-0.80369,-0.01172,-81.31672,48.80354,-10.41308,0.17446,0.14323,0.19588,-8.23446,9.77017,-0.96657,-27.72437,-7.96596,6.53805,-1.34998,5.14652,0.6819,10.34542,-1.36016,3.22858,3.96654,-1.20209,-1.42128,-0.00565,0.71323,-0.47312,0.63158,-0.20094,0.02874,-0.05804,-0.11022,0.15221
2034,-31.8119,-6.60139,0.13403,-0.63848,0.41919,-0.06519,-36.97909,-56.9753,12.1662,8.76914,-3.55193,-4.01183,-80.81439,48.67249,-10.20811,0.25874,0.14717,0.17613,-18.62626,-1.66308,-2.72913,-19.64432,-8.36752,12.16937,-4.08524,2.92092,1.14366,9.44765,-0.98693,3.04657,5.07525,-2.02051,-2.25589,0.13399,0.47823,-0.47768,0.76678,-0.30318,-0.17002,8e-05,-0.11983,0.08025
2035,-31.02998,-7.1507,0.33286,0.44857,1.4799,0.01293,-34.88959,-55.53252,11.29036,13.4959,-2.61019,-3.88529,-80.42347,48.69671,-9.96615,0.27675,0.15972,0.11239,-9.37826,1.65455,-3.3533,5.12113,-5.00163,14.85377,-5.08877,0.25249,1.25609,8.58978,-0.91626,1.37403,3.91793,-1.74112,-1.99344,1.4741,1.64507,-0.66854,0.53468,-0.14833,-0.27995,0.24974,0.16827,-0.08924
2036,-30.31949,-5.80917,-0.41754,1.83463,1.32748,0.08557,-26.68032,-48.69688,6.57957,22.72892,-0.92963,-0.94256,-80.22435,48.62442,-9.79167,0.27192,0.08652,-0.00994,16.23802,14.16014,-4.00183,15.76481,9.29367,6.17114,-1.93573,-1.14289,0.85993,7.82536,-1.19085,-0.94859,1.37091,-1.07972,-0.42625,3.04371,3.44741,-0.97493,0.07328,0.00626,-0.12349,0.50758,0.5846,-0.2777
2037,-29.59318,-3.24712,-1.75223,2.8553,0.06158,0.05735,-17.79938,-42.25739,1.12328,30.93578,-0.79573,1.73309,-80.18779,48.29363,-9.72728,0.3323,-0.02374,-0.11817,42.20699,24.60666,-5.60751,1.41536,24.93462,-6.77488,4.0868,-0.85429,0.23804,6.2525,-1.47233,-2.26804,-0.44422,-1.1874,1.2913,3.27759,3.88266,-1.1046,-0.26122,-0.05221,0.15038,0.48861,0.69781,-0.38594
2038,-29.27015,-1.13016,-2.6748,2.33802,-1.37452,-0.14107,-15.49618,-39.5555,-0.90636,30.30266,-1.48123,2.07119,-80.11762,47.74129,-9.71276,0.42355,-0.15996,-0.18625,45.64951,28.90999,-6.68109,-20.40013,17.2406,-9.1862,8.40819,0.03174,-0.3314,4.58359,-1.37514,-1.55243,-0.38511,-1.8847,1.73744,2.12116,2.45564,-0.82209,-0.23442,-0.23808,0.25965,0.25494,0.39165,-0.3043
2039,-29.37372,-1.05411,-2.54446,0.70531,-2.04473,-0.40772,-20.62012,-41.07577,1.57843,20.33005,-1.57934,0.3076,-79.8065,47.12463,-9.69644,0.47835,-0.2795,-0.21006,23.8094,27.69507,-6.04746,-27.80003,-14.87963,0.59809,7.69157,-0.01165,-0.84196,4.65932,-0.96943,0.58484,1.1395,-2.15145,0.5486,1.06743,0.79973,-0.17401,0.08503,-0.33577,0.11999,0.13247,0.01535,-0.02963
2040,-29.63894,-2.64377,-1.80757,0.16481,-1.24455,-0.40045,-27.88941,-44.05164,5.08076,11.20355,-1.44667,-1.48532,-79.27999,46.66049,-9.66759,0.54069,-0.21564,-0.13634,-0.42035,22.51464,-5.28757,-15.73536,-38.10738,8.82585,3.67068,-0.85681,-0.98706,5.96866,-1.00925,1.99577,2.56372,-1.80798,-0.92422,0.73607,0.36037,0.22738,0.34135,-0.28867,-0.05099,0.17003,-0.09873,0.20036
2041,-30.11311,-3.6939,-1.36486,1.59108,0.0903,-0.1278,-32.59228,-43.89295,6.12514,10.2594,-2.40982,-2.09959,-78.72657,46.46556,-9.6137,0.6748,-0.01374,-0.01134,-8.94266,17.25921,-5.60007,-2.28733,-36.11453,7.27291,0.91069,-1.23658,-0.52466,6.64609,-1.45476,1.86087,2.35609,-1.39648,-1.06726,0.62787,0.81969,0.07208,0.23079,-0.18124,-0.04575,0.1893,0.02691,0.1981
2042,-30.44026,-3.30213,-1.45122,3.31179,0.63939,0.07586,-32.3983,-40.38602,5.15069,14.1404,-3.59165,-1.90177,-78.23358,46.40353,-9.53019,0.83168,0.08414,0.06833,-3.59502,15.92992,-5.64624,-5.31394,-28.18353,2.45551,0.75804,-1.06332,-0.10108,6.11356,-1.13785,1.73417,0.68688,-0.91333,-0.13023,0.57258,0.9393,0.00289,-0.13083,-0.04058,0.05346,0.14861,0.1236,0.10196
2043,-30.22719,-2.48634,-1.70725,3.65714,0.77,0.17401,-28.55237,-36.92552,4.15296,16.74538,-3.03948,-1.09111,-77.73994,46.23098,-9.43957,0.89923,0.05368,0.13221,5.21629,19.23654,-4.67023,-12.80474,-25.44846,1.24302,1.29602,-1.03547,-0.56781,4.91058,-0.12291,2.22958,-0.55451,-0.09523,0.27897,0.84121,0.42762,0.42541,-0.31363,0.13167,0.0393,0.12352,0.04681,0.08786
2044,-29.50151,-2.3353,-1.90079,3.41351,1.4538,0.37633,-23.63038,-35.70689,3.38092,18.61967,-0.55375,0.86784,-77.14427,45.82683,-9.38099,0.85516,0.07004,0.2524,15.34421,25.37617,-3.01049,-6.98471,-17.80903,2.57075,2.20951,-1.10991,-1.68468,4.17742,0.09879,2.17544,-0.18782,0.4992,-0.28434,1.30578,0.11401,0.71246,-0.12071,0.21541,-0.09166,0.12692,-0.06438,0.08384
2045,-28.59756,-3.06618,-2.02543,3.96591,2.13866,0.55735,-18.46371,-36.96073,2.25633,23.18188,1.8652,3.0862,-76.39742,45.22497,-9.38793,0.74941,0.12595,0.35091,30.31755,30.22558,-1.66558,-0.77362,-4.89878,3.83588,4.33595,-0.92404,-2.1823,4.93624,-0.96884,1.33574,0.85888,-0.00279,-0.63547,1.43964,0.44575,0.29906,0.20541,0.06795,-0.14571,0.10141,-0.05908,-0.01816
2046,-28.34562,-4.09364,-2.01294,4.78394,1.35215,0.33774,-16.00117,-39.18495,1.63189,27.99678,1.53401,2.87093,-75.54836,44.51397,-9.45956,0.64878,0.01471,0.26501,41.43367,28.56936,-2.71855,-11.56737,0.54115,4.47559,5.85309,-0.19524,-0.99726,6.86697,-2.29832,0.90713,1.18679,-1.32909,-0.05518,1.15467,0.90903,-0.33071,0.33316,-0.20757,-0.03131,0.04878,0.00273,-0.11977
2047,-29.25697,-4.48633,-1.83335,4.49009,-0.83971,-0.20911,-21.06355,-40.28264,2.76222,27.47641,-3.05605,-0.81657,-74.70895,43.78699,-9.52471,0.60827,-0.25446,0.01567,33.5848,18.3147,-6.90417,-24.20145,-2.98939,4.3641,4.12002,1.21769,1.40649,8.38619,-2.8881,1.45256,0.61698,-2.16462,0.75032,0.86608,0.97362,-0.38124,0.16197,-0.3225,0.12713,0.04718,0.01533,-0.06211
2048,-30.64181,-4.27621,-1.56906,3.02136,-2.41312,-0.53416,-32.94671,-41.05489,5.21984,21.96807,-9.2371,-4.95307,-73.98367,43.09441,-9.51064,0.63529,-0.39324,-0.17369,9.30264,4.19189,-11.30603,-17.30186,-4.37648,3.39538,0.23051,2.30912,2.87193,8.10439,-2.67011,2.07421,-0.10376,-1.68352,0.84603,0.8246,0.78907,0.14842,-0.11258,-0.1862,0.16442,0.11436,0.00553,0.12417
2049,-31.12275,-4.21226,-1.41294,1.92295,-2.25367,-0.46108,-42.43375,-42.40713,6.87234,17.37162,-10.2146,-5.33919,-73.39452,42.41112,-9.42496,0.76998,-0.33635,-0.18722,-9.54329,-0.47243,-11.17383,-1.48633,-0.59318,2.96322,-1.6133,1.84367,1.97832,5.93995,-2.1703,1.57703,-0.24963,-0.63842,0.26371,0.70596,0.77481,0.45539,-0.19433,-0.02605,0.06793,0.12233,0.04705,0.21958
2050,-29.81656,-4.22656,-1.66198,3.07773,-1.42103,-0.33339,-39.87936,-41.67955,5.64883,18.9565,-3.75159,-1.65252,-72.85684,41.72847,-9.3142,1.07749,-0.3027,-0.08505,-3.00715,12.68099,-5.84462,-0.41746,1.38,5.02443,0.93296,0.39732,0.03195,3.2504,-1.82181,-0.04109,0.21987,-0.45616,-0.17,0.12909,1.05677,-0.06154,-0.04524,-0.06096,-0.01022,-0.01168,0.15745,0.07843
2051,-27.65145,-4.10066,-2.2371,6.15996,-0.93456,-0.26579,-28.6655,-38.49974,2.26583,26.03656,1.9042,1.98241,-72.33112,41.12777,-9.24251,1.39694,-0.31794,0.08692,22.61029,28.81174,-1.67829,-13.64182,0.75066,8.52067,5.30374,-0.72891,-0.93213,1.94866,-1.6277,-1.0295,0.70177,-1.29405,0.06634,-0.60781,1.12623,-0.85034,0.1091,-0.23474,0.05213,-0.1608,0.22977,-0.14706
2052,-26.21049,-4.48448,-2.54128,8.2314,-0.57364,-0.05395,-21.20941,-37.37003,0.2479,31.23251,-0.07051,2.63008,-71.8539,40.68337,-9.25357,1.40637,-0.23563,0.28063,40.06337,28.86665,-2.70981,-20.25961,0.43073,9.617,6.68189,-1.14215,-0.85075,2.92826,-1.40188,0.01725,0.86384,-1.7083,0.39127,-0.70165,0.56524,-0.93263,0.14833,-0.29429,0.14665,-0.15214,0.15042,-0.22183
2053,-25.63222,-5.68758,-2.2503,7.65247,-0.24065,0.19376,-21.47757,-39.55344,1.6054,30.08534,-4.80107,1.63697,-71.3624,40.31131,-9.31456,1.09093,-0.12178,0.36715,38.27522,19.07466,-4.64974,-11.10876,-4.78984,5.75779,4.06283,-0.73423,-0.78151,5.07471,-1.1952,1.72744,0.76515,-0.72592,0.12192,0.25801,0.0597,-0.30984,0.09661,-0.09951,0.11091,0.02564,0.0036,-0.13526
2054,-25.23296,-6.84133,-1.78753,5.71033,-0.86961,0.10588,-23.63711,-40.21669,4.03402,26.4835,-6.51903,0.73301,-70.73496,39.86634,-9.35725,0.75885,-0.17785,0.23288,31.49936,16.48855,-4.69921,-0.64032,-17.17124,-1.41572,1.49761,0.24769,-0.90182,6.63407,-1.21085,1.95959,0.36692,0.53734,-0.32043,1.60944,0.50397,0.21,-0.02958,0.1568,-0.00414,0.2353,-0.02695,-0.01812
2055,-24.98123,-7.39404,-1.6154,-2.2675,-2.99963,-0.07707,-24.76953,-38.00566,4.39055,12.6623,-7.63794,-0.37436,-69.98109,39.37372,-9.34325,-3.09937,0.48358,0.00336,15.23947,18.15648,-5.84695,-1.71361,-25.70728,-5.70978,1.57419,0.77693,-0.66867,7.47902,-1.42892,1.23068,-0.09441,0.48445,-0.30036,2.14333,1.49502,0.18844,-0.13575,0.18659,-0.06095,0.33104,0.08333,0.0569
2056,-25.0398,-7.79354,-1.62674,-3.72169,-4.52028,-0.30231,-26.51602,-38.19846,3.09785,13.38438,-10.62298,-1.64886,-69.15064,38.90147,-9.26629,-3.50269,0.58861,-0.17227,14.25742,15.03894,-8.87821,-7.43746,-21.69179,-2.1651,2.32235,0.15009,-0.15087,8.21251,-1.69072,1.19413,-0.19057,-0.60614,0.02891,1.48042,1.9238,-0.17885,-0.10778,-0.00261,-0.03448,0.25197,0.17867,0.06654
2057,-25.35726,-8.21636,-1.50303,-5.19555,-4.10607,-0.189,-29.17769,-42.97485,3.11527,14.09793,-12.29748,-2.54484,-68.21393,38.30082,-9.16592,-3.91773,0.82193,-0.1307,11.1919,5.12081,-9.11825,-10.13701,-10.65619,6.43898,1.99831,-1.04732,0.07357,8.05204,-1.88194,1.49547,0.01239,-1.38234,0.26326,0.32672,1.52623,-0.63635,-0.01158,-0.19755,0.03048,0.03286,0.14931,-0.01584
2058,-25.65866,-7.89278,-1.35088,-6.25278,-2.31962,-0.0614,-30.62912,-45.94662,5.02546,13.3881,-9.34726,-2.6708,-67.1823,37.44762,-9.07953,-4.48573,1.02455,-0.00826,9.1237,2.25881,-6.50541,-10.82396,-3.7417,13.60035,1.1172,-1.09038,0.45024,6.31143,-1.94813,0.90987,0.1825,-1.50085,0.30588,-0.27491,0.98354,-0.93133,-0.02095,-0.24926,0.09252,-0.15198,0.06961,-0.14023
2059,-25.56647,-6.50814,-1.53095,-6.96018,-0.71704,-0.01148,-28.80418,-41.44421,5.91781,9.13396,-3.85774,-1.76274,-66.18739,36.54402,-9.00282,-5.13367,1.19622,0.07788,8.23756,14.67538,-5.0165,-4.08951,-5.42909,15.28949,0.64039,0.83365,1.62898,4.06075,-2.04692,-0.41497,0.18234,-1.41976,0.24131,0.26073,0.83441,-0.70768,-0.15826,-0.11266,0.10181,-0.12142,0.03999,-0.176
2060,-25.44264,-5.59398,-1.80913,-7.47682,-0.28439,0.12883,-26.43322,-35.22096,4.68136,2.42563,-0.74807,0.0773,-65.34732,35.88185,-8.94888,-5.64241,1.40165,0.12542,3.48622,29.41584,-5.50001,12.83079,-6.89227,9.01433,1.59883,2.6631,2.24711,2.42959,-2.45144,-1.77585,-0.00537,-1.0919,0.13676,1.56794,1.04467,0.02542,-0.24135,0.15044,0.01737,0.05666,0.03408,-0.07172
2061,-25.67701,-6.46555,-1.63296,-6.92756,-0.96767,0.28109,-27.76188,-35.8389,3.80751,-1.16299,-1.47333,2.03757,-64.64973,35.53416,-8.91858,-5.87011,1.53688,0.13163,-5.33943,29.57459,-5.28765,22.19238,2.90744,-3.76958,4.01083,1.79534,0.62152,1.68637,-3.01213,-2.97352,-0.2884,-0.30483,0.00496,2.60708,1.54423,0.57088,-0.1468,0.33822,-0.11315,0.17787,0.05634,0.04818
2062,-25.47541,-7.65908,-1.25656,-4.7266,-2.08533,0.17489,-28.60968,-39.86065,4.0485,0.82332,-3.06941,3.11895,-64.04621,35.37572,-8.85253,-5.88362,1.52099,0.07772,-6.67462,20.72022,-3.2971,7.60866,14.27062,-12.86614,5.89802,-1.26489,-2.13568,2.94553,-3.42576,-2.97799,-0.50936,0.34793,-0.07407,2.48363,2.02448,0.38361,-0.03659,0.24461,-0.14999,0.17332,0.10694,0.08788
2063,-24.18659,-7.38586,-1.33013,-1.9628,-3.0489,-0.25242,-22.83814,-39.69656,3.4264,4.75781,-3.38715,2.42762,-63.56499,35.22371,-8.74799,-5.87659,1.49424,-0.01003,6.39131,17.14488,-2.68609,-16.62285,8.46299,-8.33184,5.35815,-3.12489,-2.81443,6.7959,-3.69524,-0.53973,-0.44032,-0.13155,0.02336,1.25105,1.77483,-0.10887,-0.09607,-0.09789,-0.01806,0.0964,0.0546,0.12427
2064,-23.58671,-6.62954,-1.59233,-0.57658,-3.37038,-0.75228,-17.48839,-38.42394,2.38531,5.44018,-2.28486,0.09662,-63.31168,34.99756,-8.75143,-6.00173,1.61904,-0.07154,16.95542,17.13905,-5.12797,-22.56884,-8.92281,5.57685,2.95434,-1.22635,0.07051,10.30573,-3.59526,2.69906,0.12606,-1.75679,0.28689,0.12262,0.89856,-0.26254,-0.18811,-0.41782,0.17623,0.04652,-0.0702,0.16643
2065,-24.74873,-6.72649,-1.50912,-1.22308,-2.76439,-0.98875,-19.43142,-41.0783,2.58778,2.25751,0.5763,-1.64904,-63.32563,34.85026,-8.90817,-6.2151,1.85877,-0.06883,12.03708,15.63039,-6.31689,-7.5753,-17.36796,15.08775,1.48763,2.61342,4.03689,10.09071,-2.7288,3.51475,0.87996,-3.34507,0.62461,0.05335,0.47364,-0.30452,-0.07561,-0.53212,0.27985,0.09109,-0.02367,0.05837
2066,-25.14856,-6.78156,-1.38622,-2.18218,-1.64411,-0.81316,-21.28261,-42.58706,2.87623,1.35508,3.08935,-1.06777,-63.48149,34.98921,-8.99741,-6.27955,2.08567,0.01458,7.21282,15.50598,-4.59731,5.69467,-11.97077,13.17463,2.89839,3.7676,5.21131,7.13351,-1.64456,1.49874,1.16229,-3.83756,0.89722,0.62608,0.98376,-0.7091,0.19112,-0.5002,0.25369,0.18236,0.22206,-0.19954
2067,-23.30916,-5.78657,-1.53665,-1.68041,-1.37515,-0.46158,-18.59147,-37.17181,2.4169,5.56446,0.19635,-0.21927,-63.64431,35.3595,-8.87551,-6.04946,2.21997,0.14272,11.78752,14.36546,-4.8819,3.23932,0.10823,4.25773,5.97622,0.6858,2.50289,4.98065,-1.55943,-0.8766,0.74339,-2.94421,0.83361,1.34812,1.71407,-0.98002,0.32417,-0.33712,0.122,0.28311,0.37941,-0.32495
2068,-21.33337,-4.53603,-1.60005,-0.21211,-2.63453,-0.29269,-17.0962,-29.0736,2.72821,8.64935,-7.23032,-1.40395,-63.83662,35.76312,-8.71482,-5.65587,2.2795,0.25643,13.23085,8.04207,-7.92273,-6.13876,10.1347,-2.39387,8.51103,-2.93103,-1.18319,5.1295,-2.59247,-1.4417,0.07163,-1.39026,0.38979,1.96774,1.75028,-0.50803,0.1863,-0.03431,-0.05348,0.32186,0.23914,-0.16259
2069,-20.72911,-4.0808,-1.36819,0.80073,-3.77129,-0.2632,-19.50798,-26.07321,3.90882,5.60277,-10.03365,-2.38209,-64.1494,36.17265,-8.69035,-5.34803,2.3918,0.37591,4.90994,2.91176,-8.51088,-6.94618,5.61582,-0.77518,9.60615,-2.86709,-2.09154,6.49953,-3.36368,0.17598,-0.21552,-0.61207,0.01844,1.94352,0.95261,0.34471,-0.01916,0.18089,-0.14505,0.21156,-0.06139,0.10355
2070,-20.48914,-4.06928,-1.16617,1.94958,-2.71778,-0.14245,-23.83121,-28.4699,4.3421,1.2964,-1.59426,0.46699,-64.56477,36.60444,-8.70325,-5.16794,2.61798,0.54406,-6.15913,9.35719,-4.95161,2.2781,-15.55033,5.40459,8.81907,0.21634,-0.20278,7.40343,-3.07466,2.26546,-0.0184,-0.87831,0.03221,1.39306,0.14265,0.88767,-0.06461,0.12594,-0.0935,0.07349,-0.21896,0.25246
2071,-18.95366,-3.49279,-1.28577,3.93981,-0.43373,0.01261,-26.02416,-29.48752,3.60687,0.1502,11.48894,5.38394,-64.91428,36.89602,-8.55113,-4.98948,2.87019,0.70259,-12.38644,25.65092,-1.18462,6.48621,-32.9635,6.8978,6.27305,2.14016,1.33154,6.97477,-2.68764,2.17296,0.20292,-1.13714,0.20892,1.00663,0.35369,0.67108,-0.0071,-0.06808,0.02241,0.04619,-0.10164,0.20778
2072,-16.32182,-2.40196,-1.52844,5.62033,0.16856,0.05165,-22.76886,-26.3394,2.60821,-1.25137,15.41366,6.72106,-65.04482,36.88386,-8.21449,-4.74986,3.12926,0.79744,-12.36407,34.0759,-1.1659,-2.62408,-28.7852,2.14841,3.64876,1.07434,0.97481,6.16605,-2.91336,-0.1335,0.43713,-1.11498,0.20945,0.99734,1.57175,-0.27647,0.03284,-0.2209,0.10247,0.1004,0.16436,0.00898
2073,-14.57146,-1.8748,-1.45735,6.10672,-1.35869,0.04211,-17.00238,-24.38035,2.02111,-6.09224,8.21125,3.56934,-64.94903,36.60632,-7.84624,-4.49904,3.48045,0.87752,-11.56687,22.70891,-3.80762,-11.10123,-11.5997,-1.73284,2.97654,-0.65716,0.3953,6.62092,-3.02832,-1.60377,1.02762,-1.67562,0.07508,1.20297,2.58473,-1.16918,0.0739,-0.33656,0.12709,0.20049,0.35648,-0.18732
2074,-14.85205,-1.86394,-1.08832,6.23505,-2.29135,0.20477,-16.38615,-26.61797,1.91155,-11.42659,1.99142,1.03971,-64.68861,36.25179,-7.55129,-4.24162,3.9617,1.05291,-17.50641,4.40967,-4.82554,-3.36101,2.32923,-1.4083,4.73718,-0.07493,1.30091,8.12337,-2.8056,-1.01345,1.74085,-2.88702,0.01974,1.65736,2.7092,-1.24775,0.18121,-0.39732,0.0843,0.34647,0.39605,-0.23254
2075,-15.90811,-1.09387,-0.88692,7.43302,-0.9925,0.55794,-21.62039,-28.26835,2.24306,-12.10053,4.56966,2.34047,-64.27918,35.9682,-7.31519,-3.90531,4.47369,1.34219,-26.2823,-0.80021,-2.12964,13.40738,9.83359,0.21263,7.49112,2.54641,2.769,8.70037,-3.08526,-0.33279,1.70354,-3.33368,0.082,2.19088,2.35287,-0.69463,0.26243,-0.24434,-0.04072,0.42568,0.33958,-0.14993
2076,-15.17685,-0.0153,-0.92451,9.91258,0.79506,0.76272,-22.42466,-25.66663,2.8337,-6.50803,10.69437,4.8135,-63.68926,35.70398,-7.10676,-3.55666,4.83477,1.5767,-22.19947,7.49402,1.67805,22.34297,9.76804,2.20244,9.37712,3.74444,2.67567,7.50676,-3.78042,-0.4779,0.56084,-2.17217,0.21178,2.11246,1.7651,-0.19385,0.15132,0.10609,-0.16466,0.27236,0.19962,-0.06336
2077,-12.23784,-0.32821,-0.7966,12.55143,1.11874,0.64623,-14.63211,-21.1404,3.07812,1.78499,12.37591,4.93902,-62.93812,35.34738,-6.91177,-3.30219,5.02354,1.65293,-4.47531,14.76104,1.56772,22.56993,-1.71754,6.13207,9.79384,1.74146,1.02928,5.9523,-3.81557,0.02479,-0.61179,-0.71456,0.40104,1.19975,0.76226,0.05734,-0.03354,0.31142,-0.15797,-0.04365,-0.02897,-0.00958
