PaulMeinheit/Bachelor_Muay_Thai/processed_Data/E2/teep/sliced/JointMoments/sliced0.csv
Unnamed: 0_level_0,R_KNEE_MOMENT,R_KNEE_MOMENT,R_KNEE_MOMENT,L_KNEE_MOMENT,L_KNEE_MOMENT,L_KNEE_MOMENT,R_HIP_MOMENT,R_HIP_MOMENT,R_HIP_MOMENT,L_HIP_MOMENT,L_HIP_MOMENT,L_HIP_MOMENT,R_ANKLE_MOMENT,R_ANKLE_MOMENT,R_ANKLE_MOMENT,L_ANKLE_MOMENT,L_ANKLE_MOMENT,L_ANKLE_MOMENT,WAIST_JOINT_MOMENT,WAIST_JOINT_MOMENT,WAIST_JOINT_MOMENT,NECK_MOMENT,NECK_MOMENT,NECK_MOMENT,L_SHOULDER_MOMENT,L_SHOULDER_MOMENT,L_SHOULDER_MOMENT,R_SHOULDER_MOMENT,R_SHOULDER_MOMENT,R_SHOULDER_MOMENT,L_ELBOW_MOMENT,L_ELBOW_MOMENT,L_ELBOW_MOMENT,R_ELBOW_MOMENT,R_ELBOW_MOMENT,R_ELBOW_MOMENT,L_WRIST_MOMENT,L_WRIST_MOMENT,L_WRIST_MOMENT,R_WRIST_MOMENT,R_WRIST_MOMENT,R_WRIST_MOMENT
ITEM,X,Y,Z,X,Y,Z,X,Y,Z,X,Y,Z,X,Y,Z,X,Y,Z,X,Y,Z,X,Y,Z,X,Y,Z,X,Y,Z,X,Y,Z,X,Y,Z,X,Y,Z,X,Y,Z
266,-24.83739,-10.08168,-0.82096,-1.21401,-5.81285,-0.55917,-41.90472,-34.72836,1.83439,14.71191,-14.55505,-3.03319,-78.59539,36.23571,-8.22438,-4.54684,-0.23714,0.06869,-3.70103,14.67418,-11.71302,17.89436,-12.25349,-8.23967,9.26708,2.40152,2.10836,4.26947,-2.87969,-0.91008,1.32212,-2.59463,1.27903,2.36225,1.07574,-0.31127,0.16324,-0.30752,0.26498,0.4223,0.25105,-0.22459
267,-23.57221,-10.36238,-0.89843,-3.16415,-3.68378,0.0801,-41.78349,-31.21938,1.80986,13.98641,-13.69656,-2.9618,-78.68716,36.42615,-8.28489,-5.59034,0.07309,0.41876,-5.37489,20.18309,-15.51843,8.99069,-20.58645,-4.77445,9.22215,2.0646,2.59734,5.73548,-2.11078,0.78155,1.49359,-3.15119,1.59203,1.6142,0.91645,-0.24121,0.22372,-0.39473,0.32258,0.34866,0.28097,-0.19678
268,-21.41631,-11.67879,-0.77025,-6.95332,-0.4651,0.68408,-36.56525,-35.23978,2.173,11.4059,-6.32025,-2.32741,-78.88355,36.71982,-8.36598,-6.59338,0.31907,0.67281,-1.40664,24.06772,-14.87299,-6.50585,-27.1211,8.90211,8.80806,3.33015,2.54672,9.76103,-1.81592,4.56533,1.52531,-2.646,1.21086,0.27667,-0.05925,0.17765,0.29872,-0.24361,0.15959,0.16166,0.07899,-0.03009
269,-21.24273,-12.76568,-0.51966,-10.12328,0.94333,0.65803,-34.74268,-41.99225,3.20519,10.01127,2.05105,-2.45775,-79.06772,36.90285,-8.52462,-7.4644,0.29972,0.68862,1.53917,26.1781,-11.69038,-13.61234,-27.60026,18.11169,7.00507,5.26742,2.48954,12.24337,-3.37213,4.12255,1.17967,-1.76006,0.63484,0.96778,0.48714,-0.13835,0.24995,-0.04342,-0.04038,0.24533,0.04133,0.0075
270,-22.72286,-12.7656,-0.51447,-10.9455,-0.08984,0.24739,-36.74628,-45.57552,3.48449,11.17231,5.61109,-2.45862,-79.14773,36.95822,-8.71659,-8.29807,0.12569,0.57634,2.65266,26.75947,-8.86574,-6.07894,-18.00803,10.14052,7.03197,4.42632,1.69757,10.27063,-6.08796,-1.51482,0.51991,-1.26867,0.51598,3.32924,2.55677,-1.2219,0.1206,0.02158,-0.08509,0.49628,0.21554,-0.12441
271,-22.78267,-12.133,-0.95092,-11.01138,-1.85173,0.0468,-34.64352,-43.63329,1.90005,9.96929,4.73826,-0.91509,-79.17714,37.06643,-8.86362,-9.10442,-0.03342,0.48226,4.03768,30.21717,-6.91648,8.7443,-3.50224,-7.15518,10.77741,0.56399,-0.08512,6.37786,-7.72346,-5.35773,0.32367,-1.42193,0.7615,4.35795,3.20429,-1.39719,0.1251,-0.06365,-0.00451,0.47621,0.17641,-0.0871
272,-20.48792,-11.88687,-1.42585,-11.78851,-3.09698,0.02069,-27.23655,-39.33053,0.00966,2.91553,2.67056,0.83245,-79.20014,37.40269,-8.94468,-9.50291,-0.20493,0.37634,2.51729,36.17984,-5.32559,15.44577,-0.18659,-13.32201,14.00747,-1.83243,-0.86861,6.02781,-7.30469,-2.65002,0.98302,-2.19508,1.03087,3.10579,1.49114,-0.12959,0.26829,-0.20589,0.08552,0.19306,-0.18924,0.251
273,-18.70833,-12.68179,-1.31057,-12.29293,-3.33589,-0.00328,-24.41911,-39.8125,0.09699,-4.2473,0.5481,1.14585,-79.17119,37.9688,-9.01547,-9.37147,-0.33752,0.25141,-5.61296,33.45802,-4.44122,8.19827,-14.60183,-3.98777,12.70469,-0.01354,0.66897,8.73702,-5.55293,2.40255,1.74957,-3.04587,1.22256,1.34991,-0.2189,0.98402,0.32517,-0.28659,0.14551,-0.00873,-0.43527,0.5115
274,-19.5433,-14.45095,-0.53594,-11.14163,-3.09376,0.00597,-31.86739,-48.08983,2.02376,-2.43096,-2.79963,0.54707,-78.98368,38.53104,-9.13232,-9.11153,-0.32418,0.15281,-13.9058,15.43598,-5.18577,-3.6929,-28.92598,6.42546,9.00623,3.1194,2.40656,9.53768,-3.92894,3.57989,1.85198,-3.00202,1.1284,0.83194,-0.15645,0.71463,0.22912,-0.21122,0.13328,0.03513,-0.27419,0.36565
275,-21.38712,-16.0371,0.21754,-8.68671,-3.29857,-0.05278,-42.52869,-56.56844,3.79297,8.25916,-4.83152,0.57674,-78.53835,38.76436,-9.27664,-8.89523,-0.28955,0.04906,-13.03121,-0.36965,-6.14702,-9.13355,-27.08224,10.53392,6.91202,3.6231,1.94647,8.70576,-3.62257,1.30995,1.40621,-1.95872,0.66653,1.34951,1.02132,-0.50233,0.14563,-0.04602,0.03579,0.19649,0.06896,-0.03453
276,-21.93637,-16.35057,0.37263,-6.95649,-3.25114,-0.20754,-48.16833,-56.21809,4.51972,17.45237,0.31477,1.90598,-77.87023,38.5423,-9.42141,-8.48912,-0.39551,-0.04982,-6.47508,8.89806,-4.83858,-2.25722,-18.40523,12.19682,7.81841,1.44057,0.04945,10.20505,-4.59196,-0.04459,0.97735,-1.13327,0.34039,1.86027,1.99583,-1.54893,0.19958,-0.00622,-0.03185,0.31902,0.29468,-0.33284
277,-21.21815,-15.4248,-0.00084,-6.84654,-2.47005,-0.37601,-49.57678,-47.97218,4.67458,17.90474,8.64045,2.55565,-77.14758,38.09449,-9.56493,-7.69485,-0.5596,-0.07532,-5.9851,34.14942,-3.99433,12.59466,-17.97396,10.3056,11.1908,-0.60774,-1.26147,12.73561,-5.83314,0.41355,1.09311,-1.44293,0.48734,2.28985,2.17076,-1.64172,0.35477,-0.15247,0.0125,0.40371,0.31679,-0.36192
278,-20.32558,-14.22327,-0.51469,-7.41123,-2.11675,-0.4608,-49.69993,-40.25566,4.15595,12.49555,8.87463,0.7305,-76.46281,37.77321,-9.66549,-6.68365,-0.58012,-0.02665,-12.63253,45.57231,-7.24473,19.0794,-23.06743,1.01439,14.91435,-0.75564,-1.64653,11.36317,-6.32115,0.07123,1.77518,-2.12525,0.59566,2.98549,1.72028,-0.89225,0.47566,-0.25158,0.05101,0.48572,0.19367,-0.20792
279,-19.04937,-14.17674,-0.82116,-7.66975,-2.57697,-0.33684,-45.67817,-38.72195,2.42981,8.3647,1.00518,-1.23496,-75.70091,37.66895,-9.67019,-5.86029,-0.47585,-0.00924,-12.86807,36.0449,-11.09891,8.27371,-21.11369,-9.16322,16.21121,0.03333,-1.91107,7.02791,-5.52578,-1.11126,2.33306,-2.04705,0.24824,3.63781,1.11058,0.07138,0.47124,-0.14313,-0.0244,0.55007,0.03215,-0.00016
280,-16.93283,-15.8481,-0.73263,-6.96901,-3.28671,-0.17859,-36.92032,-42.06424,0.35295,9.12167,-6.15265,-1.25129,-74.67405,37.58633,-9.59265,-5.22879,-0.45858,-0.12521,-1.79993,22.4104,-11.73641,-9.7996,-9.03548,-8.93322,14.47421,-0.05087,-2.20965,6.01931,-3.88596,-0.01271,1.94161,-1.42216,0.01336,3.47337,0.65332,0.73282,0.34913,-0.0185,-0.07782,0.53711,-0.06445,0.18487
281,-15.68339,-17.97843,-0.2105,-5.2081,-4.03109,-0.31955,-32.36208,-47.58003,0.3724,13.51176,-9.12204,-1.69647,-73.3408,37.32478,-9.51472,-4.35351,-0.57564,-0.29015,5.76441,14.4895,-11.4482,-19.45886,2.37655,2.99511,11.50906,-0.80975,-1.90898,10.34331,-2.61323,3.93311,0.62148,-1.13366,0.46211,2.39709,0.42354,0.8115,0.1548,-0.07279,0.02534,0.40746,-0.05444,0.24363
282,-17.36315,-18.88446,0.59542,-3.00632,-4.81381,-0.76972,-39.09548,-54.77611,3.99071,19.87303,-9.81272,-4.76469,-71.83266,36.82444,-9.52136,-3.08849,-0.75276,-0.36908,0.4511,7.10318,-12.126,-11.31188,-0.3732,18.08905,8.82796,-0.53974,-0.80979,15.77356,-2.71182,7.47307,-0.47107,-1.31707,0.98803,1.24468,0.37322,0.31437,-0.00248,-0.19045,0.12855,0.21244,0.00515,0.11013
283,-20.39077,-18.3734,1.18312,4.62814,-1.19913,-0.72591,-49.80786,-60.40152,8.59409,37.85704,-0.75538,-5.6299,-70.29645,36.1491,-9.60846,1.21201,-0.2795,-0.17046,7.36815,11.77402,-9.50134,7.28497,-18.18071,26.85963,7.44423,0.61573,0.0295,18.232,-4.2377,7.91319,-0.27841,-1.57399,0.72508,0.79759,0.46368,-0.39562,0.01947,-0.22801,0.03525,0.07415,0.02959,-0.10411
284,-21.40271,-17.18438,0.94353,3.34821,1.13041,-0.30322,-52.11425,-57.20118,8.96699,38.10965,8.16545,-1.88731,-68.80991,35.4682,-9.68184,1.00043,-0.16399,-0.00894,10.21054,28.2844,-4.62092,13.96416,-34.30502,23.2857,8.86397,0.92795,-0.5376,16.55595,-6.259,5.14692,1.02821,-1.8294,-0.111,1.3222,0.70626,-0.73153,0.25369,-0.25438,-0.16382,0.11535,0.00322,-0.18822
285,-19.77533,-16.07861,-0.03106,0.39298,3.77021,0.36286,-44.99279,-44.84256,4.00145,29.63727,16.62376,4.80543,-67.32362,34.88821,-9.66913,0.4278,0.14178,0.10461,15.16025,58.91029,-1.2173,3.92488,-34.16048,11.68303,11.38872,0.98707,-0.87478,11.49398,-7.31986,0.91129,2.62785,-2.41607,-0.59544,2.40458,0.94891,-0.28649,0.54131,-0.36111,-0.20945,0.29525,-0.06972,-0.01911
286,-18.26569,-15.82634,-0.75582,-1.36075,2.98354,0.45584,-38.91833,-33.87329,-1.14226,18.47988,12.45239,6.13913,-65.75301,34.30203,-9.60914,0.10652,0.24045,-0.00157,10.04964,67.54961,-4.38988,0.45891,-27.09752,7.10891,9.78161,3.36326,2.73221,6.222,-6.76851,-2.1796,3.7977,-3.58261,-0.10489,2.86964,1.13071,0.41694,0.61873,-0.49763,0.04275,0.34542,-0.15007,0.2686
287,-19.22415,-16.84572,-0.37142,0.22115,-1.21111,-0.04757,-41.58595,-34.9007,-1.16512,16.60798,-3.48097,-0.13946,-64.15848,33.55481,-9.56185,0.18125,-0.04108,-0.23454,1.31431,38.10082,-12.14748,13.62852,-31.5539,15.26787,4.53922,7.28343,9.19481,4.93682,-5.35867,-2.02789,3.98967,-4.76344,1.03403,2.1061,1.30977,0.45472,0.41411,-0.55435,0.43814,0.15545,-0.13585,0.37189
288,-19.70132,-17.9023,0.54942,3.68242,-4.82093,-0.60067,-45.70193,-45.18752,3.06306,24.6521,-16.27479,-8.01508,-62.55773,32.67227,-9.40761,0.53792,-0.40591,-0.34765,3.26455,-0.83849,-17.82027,20.06737,-45.47975,21.21863,3.54196,7.47778,10.47795,8.51357,-4.00407,1.73716,3.10614,-4.68598,1.67075,1.13318,1.12504,0.09138,0.16719,-0.47722,0.60053,0.01324,-0.03966,0.21438
289,-17.17586,-17.87362,0.97527,6.10315,-3.95596,-0.70254,-44.84314,-53.19624,6.89204,30.7233,-13.67992,-10.1247,-60.91557,31.7184,-9.13314,1.08487,-0.38976,-0.15084,9.87397,-11.91726,-16.66109,0.85197,-48.74724,9.52309,9.04081,1.21738,1.50105,12.91171,-3.05378,6.70195,1.49576,-2.53964,0.94614,0.89704,0.34131,0.23513,0.06198,-0.20919,0.29273,0.08199,0.01139,0.03795
290,-14.66241,-16.76654,0.68009,6.04671,0.58545,-0.30193,-43.32702,-50.48023,7.34305,26.77021,0.79152,-4.59294,-59.28265,30.74184,-8.93793,1.45753,0.04021,0.23524,5.46746,12.88726,-9.71951,-25.55828,-30.17105,-14.53864,13.79487,-6.12001,-10.54874,13.83505,-3.10695,7.88474,-0.37417,0.52397,-0.44791,1.72215,0.03107,0.81887,-0.0241,0.20249,-0.25648,0.27887,0.02941,0.04259
291,-15.02683,-14.65328,-0.04948,4.63816,4.00533,0.14902,-43.4278,-38.52368,4.77909,17.02972,13.17162,3.589,-57.69664,29.89639,-8.88254,1.38283,0.39215,0.44026,-7.32828,49.78546,-2.48866,-29.36377,-4.83798,-30.80253,13.99136,-6.8646,-13.32476,10.98453,-4.40176,2.47207,-1.34468,1.49038,-0.85026,3.35539,1.35544,0.92035,-0.08104,0.36922,-0.52435,0.48454,0.13715,0.12448
292,-17.32295,-12.80386,-0.60493,4.98038,4.15073,0.28152,-42.87406,-30.42493,2.08578,13.33039,16.76874,8.92394,-56.13101,29.28931,-8.89724,1.17476,0.36449,0.36053,-11.5369,67.27574,1.70911,-9.2684,0.8072,-25.01345,13.83753,-0.84343,-5.20265,7.99942,-5.48491,-4.61783,-0.39741,-0.80007,0.09921,4.6148,3.38085,0.23954,0.10632,0.01613,-0.27404,0.60289,0.31941,0.08977
293,-18.98347,-12.75092,-0.50543,7.90686,2.33991,0.15373,-40.66567,-35.26619,2.0068,20.52641,13.4375,9.3346,-54.51342,28.84535,-8.91695,1.21127,0.10741,0.21105,-0.58139,54.39048,2.76888,14.15212,-18.22207,0.48907,15.07874,5.85099,5.1135,8.4081,-4.7885,-4.86807,1.39213,-3.93147,1.27816,4.52771,3.83542,-0.20216,0.35779,-0.51187,0.21123,0.62031,0.38024,0.019
294,-18.49299,-14.18969,0.12508,10.57015,0.36965,-0.01838,-37.87177,-45.74332,4.65141,30.62684,7.54001,5.92744,-52.78011,28.37936,-8.87481,1.41501,-0.12179,0.1587,13.78599,29.16825,1.5242,26.14299,-36.38726,27.42961,14.01294,8.35952,10.00558,10.44522,-3.27376,1.51639,3.02797,-5.10185,1.09729,3.10579,2.14592,0.19048,0.48229,-0.64933,0.35023,0.49483,0.22541,0.04396
295,-16.79768,-15.22406,0.66924,10.34727,-0.27087,-0.15445,-36.6727,-48.83239,7.29971,33.13906,4.41611,2.02987,-51.01481,27.78629,-8.7381,1.46308,-0.1757,0.17985,15.72001,16.74441,-0.74436,25.1897,-28.01871,32.42587,8.78685,5.44818,6.64709,10.10308,-3.1801,5.37648,3.81561,-3.2634,-0.53903,1.49749,0.24086,0.56999,0.50017,-0.28636,0.02573,0.28153,0.00325,0.07861
296,-16.00022,-14.53056,0.60351,7.61046,0.82523,-0.25378,-37.75375,-42.94318,7.24654,25.87586,5.8228,0.20041,-49.42397,27.11664,-8.56509,1.23406,-0.04911,0.18346,2.29938,20.79373,-2.49698,20.7045,-1.15505,12.65613,3.43733,-0.16525,-1.56636,8.02822,-4.45038,2.66712,2.97896,-0.25028,-1.59756,0.94203,-0.03501,0.09946,0.43984,0.10593,-0.24178,0.18772,-0.08121,-0.01061
297,-16.71957,-12.50352,-0.01873,4.30422,1.9182,-0.29058,-38.93909,-35.74842,4.86022,16.37178,6.72898,-0.47064,-48.10395,26.41988,-8.4459,0.88147,0.09896,0.12061,-12.32671,27.94944,-4.55917,20.76921,12.51555,-7.59386,2.97662,-3.46699,-6.06355,8.01724,-5.0257,-0.94945,1.46602,0.37572,-0.80571,1.48228,1.18588,-0.85331,0.38592,0.04305,-0.14025,0.30517,0.06491,-0.20185
298,-18.47855,-10.47494,-0.70054,2.03128,0.92315,-0.24446,-39.82212,-31.67125,2.5959,14.04672,1.94872,-2.06983,-47.01979,25.64137,-8.44043,0.58945,0.0974,0.01446,-13.57087,30.60835,-9.76162,17.61475,-0.69239,-7.48465,6.61914,-2.33752,-2.81711,10.37924,-3.98379,0.49918,0.81356,-1.8773,0.51438,2.04068,2.1852,-1.13647,0.3516,-0.33864,0.06581,0.44115,0.27391,-0.27735
299,-20.19953,-9.03004,-1.22279,1.78738,-1.45788,-0.12028,-40.70668,-29.08658,1.2123,20.70581,-5.76542,-3.95384,-46.10593,24.78933,-8.49848,0.44486,-0.003,-0.04799,-1.181,31.636,-17.38713,0.48435,-26.29519,6.11631,10.05123,0.54765,2.5982,11.57191,-2.31945,5.86478,1.20939,-3.92806,0.70927,1.69133,1.63817,-0.30513,0.2951,-0.56393,0.08237,0.35967,0.27161,-0.10551
300,-20.22591,-7.92077,-1.726,3.29633,-3.00054,-0.00169,-38.91838,-26.36946,-0.20155,28.7343,-9.97172,-4.35854,-45.26486,24.02287,-8.50453,0.50188,-0.07586,-0.04057,12.86053,32.56337,-22.45842,-24.76999,-44.61703,10.82645,11.60943,1.49875,2.35179,9.75038,-1.24785,9.23435,1.27613,-3.53026,0.34048,0.78438,0.34497,0.63108,0.15528,-0.49186,0.07559,0.13425,0.09497,0.10919
301,-18.96907,-7.53558,-1.98132,4.40478,-2.8168,0.01297,-34.55785,-26.72247,-0.68041,28.0495,-8.38554,-3.20969,-44.46669,23.50383,-8.48886,0.71979,-0.11493,-0.02051,13.08814,28.88511,-19.87362,-39.05273,-41.79616,-0.95988,12.22285,0.00827,-4.25687,7.89391,-1.15528,7.8602,0.24484,-1.47441,0.51983,0.60617,0.20004,0.6615,-0.04869,-0.31883,0.23033,0.10295,0.04223,0.14911
302,-19.01256,-8.56835,-1.56175,3.61502,-1.59862,-0.0072,-32.08662,-33.73134,1.74853,18.89404,-4.32244,-1.92186,-43.82644,23.2416,-8.59378,0.88287,-0.12586,0.01017,-1.15293,16.82164,-10.40853,-30.42772,-15.90275,-11.06793,11.38332,-1.29299,-9.64334,8.82543,-1.6955,5.20545,-0.64595,0.17291,0.74976,1.2402,1.33586,0.09053,-0.13534,-0.19584,0.32041,0.29629,0.16723,0.09543
303,-21.15171,-9.93552,-0.82771,1.64282,-0.82054,0.0444,-33.56246,-41.89848,5.63031,12.48494,-2.83383,-2.01819,-43.46303,23.09867,-8.79988,0.79056,-0.09084,0.07703,-12.30388,3.48685,-2.74518,-6.2762,10.96192,0.05232,7.8034,-0.43657,-6.66588,9.90433,-2.13058,4.49067,0.19054,0.27198,-0.09067,1.45386,1.94576,-0.11128,0.0298,-0.06194,0.06044,0.34893,0.22238,0.10993
304,-23.27713,-9.4747,-0.73274,-0.5025,-0.93712,0.12557,-36.52027,-40.4178,6.92215,13.69766,-3.23382,-2.40734,-43.37074,22.90375,-8.95485,0.4978,-0.03594,0.13521,-11.27863,5.73996,-2.3417,14.58917,10.04933,24.38678,1.80978,1.62779,2.2795,7.84501,-1.9857,3.88961,1.90574,-0.23401,-1.61576,1.1846,1.28162,0.40903,0.21389,0.19895,-0.37102,0.17776,0.11717,0.15331
305,-23.66344,-7.37844,-1.47242,-1.90428,-0.84837,0.19589,-37.46469,-30.15073,4.65709,17.43361,-1.20094,-0.60403,-43.47113,22.6135,-9.05782,0.23718,-0.02018,0.11972,-4.29278,24.50562,-5.00685,23.64636,-11.99991,35.49318,-2.61509,2.82296,8.23223,4.96541,-1.55262,1.30167,2.66719,-0.20087,-2.32909,1.54982,0.7222,1.01226,0.25639,0.39553,-0.54999,0.09967,0.04505,0.10574
306,-23.34344,-6.31973,-2.12587,-1.55603,0.46971,0.34606,-36.58029,-24.38864,2.25929,21.60128,3.29654,2.79915,-43.73615,22.42982,-9.24198,0.15505,-0.02245,0.07781,4.52114,39.33388,-6.23828,28.41602,-17.38827,22.21646,-0.22387,2.63859,6.51148,4.21187,-1.03153,-1.42328,2.35299,-0.06639,-1.68005,2.25451,1.19273,0.86839,0.2812,0.30279,-0.35098,0.19132,0.14422,-0.0425
307,-24.42889,-7.65214,-1.8963,-0.39243,2.03528,0.49162,-38.289,-29.32647,2.84386,25.90397,5.95376,3.97457,-44.23259,22.59321,-9.54258,0.19297,0.01728,0.09788,9.76108,38.38154,-7.32853,31.26848,1.14106,-0.37952,6.86602,2.05094,1.20352,3.78115,-0.42529,-2.01496,1.80384,-0.4137,-0.53785,1.84235,1.61039,0.06592,0.27091,0.0433,-0.00231,0.18495,0.25527,-0.18069
308,-27.30604,-8.81306,-1.36549,-0.96602,1.73402,0.32199,-43.72004,-34.48989,4.96316,25.22924,4.06168,0.85814,-45.11561,23.12705,-9.85157,0.15876,0.06286,0.1521,2.27904,32.86468,-10.82777,21.63763,5.48762,-13.14684,10.73512,1.34754,-1.51799,2.49722,-0.39049,-0.87098,1.65375,-1.13248,-0.03082,0.62668,0.99153,-0.40661,0.21412,-0.192,0.18806,0.03662,0.16235,-0.17723
309,-30.05105,-7.48181,-1.54886,-2.97696,0.02036,-0.09115,-45.2243,-32.13461,5.08062,19.38187,1.26127,-3.01099,-46.53316,23.88372,-10.10339,0.03262,0.09133,0.17387,-9.09557,34.23931,-14.35286,-6.89558,-20.58023,-12.36716,8.06962,0.20862,-0.9767,3.12878,-1.41006,0.59002,1.24013,-1.64026,-0.03327,0.35115,0.21806,-0.06764,0.1086,-0.3212,0.15126,0.0022,-0.02993,-0.05238
310,-30.54016,-5.0795,-2.40305,-3.99741,-1.20449,-0.35992,-36.21595,-27.87628,2.48892,14.45108,0.85132,-3.45425,-48.44581,24.78426,-10.33821,-0.04224,0.08552,0.09423,-6.4823,37.81543,-13.92289,-36.00601,-45.3449,-3.26733,2.45586,-0.69641,0.27145,6.72448,-2.87139,1.29285,0.10922,-1.39184,0.01366,1.26888,0.45558,0.53562,-0.03057,-0.28083,0.0016,0.14472,-0.05409,0.05745
311,-29.71259,-3.85039,-3.08362,-2.72656,-1.54383,-0.35889,-24.71104,-26.42546,-0.22532,14.90036,1.02739,-0.80994,-50.70119,25.85224,-10.64549,0.01175,-0.0142,-0.12244,7.67696,38.16826,-10.23424,-34.62057,-45.90279,8.93311,-1.61674,-0.82764,1.29461,8.99562,-3.66763,0.82314,-0.26063,-0.69665,-0.22566,1.80883,0.98069,0.92159,0.00474,-0.14728,-0.1626,0.20744,0.06836,0.10552
312,-30.15,-3.69793,-3.17716,-0.32614,-1.36015,-0.18485,-23.14303,-25.57899,-0.73613,19.34713,-0.29539,1.81917,-53.2976,27.12616,-11.08038,0.09985,-0.1445,-0.3457,16.57856,37.3561,-7.57405,-1.93504,-35.22429,16.97735,-2.43847,-0.83106,1.58127,5.89987,-2.97268,0.3025,1.04044,-0.35253,-0.9535,1.11375,0.37208,1.20194,0.27867,-0.12674,-0.23851,0.05968,0.10163,0.13941
313,-32.05287,-3.57086,-2.97246,-0.02896,-0.82747,-0.01978,-30.523,-25.95471,0.98422,20.21205,-2.23032,2.05226,-56.35622,28.59345,-11.62066,0.05913,-0.16761,-0.3952,10.2965,33.59212,-7.87116,23.75811,-27.80314,14.4036,-0.00794,-0.80442,0.33798,-0.088,-0.96655,0.77309,2.30335,-0.51448,-1.38894,0.14078,-0.83927,1.28415,0.45107,-0.21098,-0.1778,-0.10237,0.03196,0.13275
314,-33.75066,-3.20718,-2.82416,-3.16286,-0.51464,-0.11555,-36.95845,-31.51808,3.73659,11.97913,-3.59809,-0.59669,-59.82894,30.1436,-12.17006,-0.11619,-0.10061,-0.28612,-8.78743,21.47271,-9.23552,16.48612,-21.52349,1.90324,3.64473,-0.10476,-1.29376,-2.86977,1.02741,0.96358,1.87621,-0.58193,-1.00474,0.24929,-0.85492,0.90688,0.28879,-0.17675,-0.07048,-0.02068,0.04456,0.02826
315,-34.58946,-1.95773,-2.96576,-6.79194,-1.09012,-0.4738,-36.9521,-38.51821,5.91561,2.12657,-5.87203,-5.35854,-63.50484,31.69608,-12.58462,-0.28983,-0.04955,-0.16754,-23.73344,6.0087,-11.5477,-3.59232,-11.99589,-11.05492,4.76504,0.76945,-1.03071,-0.55994,1.7066,0.18165,0.71478,-0.31643,-0.35599,1.33875,0.41593,0.36223,0.04199,0.00202,-0.01166,0.29192,0.14057,-0.07367
316,-35.32167,0.50898,-3.34634,-7.6086,-2.16393,-0.8125,-32.74538,-39.84344,6.81085,3.80906,-8.35032,-9.22828,-67.28969,33.28641,-12.83851,-0.33788,-0.08037,-0.15871,-16.36375,1.91015,-14.38535,-8.59737,-2.96806,-12.45577,2.74162,0.81888,1.00897,3.418,0.85062,0.5256,0.58254,-0.09938,-0.22113,1.97012,1.35304,0.1838,0.03678,0.13243,-0.01428,0.53552,0.13731,0.01004
317,-36.86607,2.39346,-3.44739,-6.0453,-2.06072,-0.86163,-31.01373,-37.49873,7.41589,14.98903,-4.47091,-7.26049,-71.217,34.92529,-13.11228,-0.16326,-0.14349,-0.23282,2.31858,17.43892,-11.71554,-4.43569,-8.21999,-1.01386,0.82153,0.17705,2.73703,6.0315,-1.02137,2.94524,1.16084,-0.29188,-0.37935,1.41797,1.01998,0.47654,0.16446,0.09061,-0.00948,0.47693,-0.03688,0.25668
318,-39.00766,2.31143,-3.07792,-4.52564,0.23791,-0.51424,-33.5808,-36.62953,7.87304,21.53502,7.67429,0.92234,-75.25032,36.53787,-13.54223,0.2522,-0.03137,-0.17156,7.45678,44.89648,-1.56865,-10.59962,-33.64933,10.36672,0.43061,-0.3784,2.3468,7.34334,-3.05873,4.78811,0.99251,-0.55428,-0.16866,0.47703,0.12785,0.74182,0.13153,-0.04451,0.05849,0.22838,-0.20687,0.38436
319,-40.51339,2.26768,-2.9473,-3.90497,2.62216,-0.03066,-34.72169,-33.45838,6.402,19.28775,17.19774,7.64401,-79.29752,38.08718,-13.99419,0.69172,0.25347,0.10811,-0.34367,67.8642,5.19374,-23.37982,-58.55388,12.41998,0.30219,-0.53365,0.19114,8.07632,-4.11454,3.52224,0.34887,-0.37979,0.12612,-0.04216,-0.06628,0.31904,0.01239,-0.12173,0.11368,0.02041,-0.17667,0.20454
320,-41.10049,4.44594,-3.51132,-3.85244,3.20781,0.26192,-33.01143,-22.50445,2.84432,15.27734,17.05875,7.88183,-83.3393,39.57473,-14.26775,0.80176,0.4326,0.41022,-7.00424,81.02788,0.38549,-22.078,-61.69603,12.00604,-0.2703,-0.20476,-0.06679,7.07421,-3.65734,0.48615,0.45429,0.0933,-0.19701,-0.38745,0.2706,-0.57138,0.02074,-0.05197,0.0472,-0.13479,-0.05485,-0.10109
321,-41.2238,7.21067,-4.03483,-3.79051,2.90759,0.35001,-30.95448,-11.51173,0.37332,14.61766,13.09959,5.79965,-87.3109,40.86539,-14.34918,0.55118,0.37834,0.51132,-5.83286,85.55096,-7.23356,-0.34389,-47.53986,16.4317,-1.03486,0.50763,4.26253,3.71338,-2.19971,-1.80111,0.87327,0.18868,-0.72997,-0.68828,0.24335,-0.84611,0.02548,0.10729,-0.07034,-0.30099,-0.04902,-0.22696
322,-40.40924,8.54666,-3.95253,-13.39061,-3.98714,-0.07777,-25.56544,-11.49339,1.05678,-3.21288,-0.88661,2.46308,-90.90311,41.70756,-14.2816,-5.62669,-1.73755,0.08828,-16.00461,62.36746,-9.23869,19.53075,-30.96676,20.35584,-1.65425,0.99137,9.7056,0.29678,-0.63006,-2.62678,0.32726,-0.39096,-0.53501,-0.51745,-0.00624,-0.12896,-0.1676,0.18458,-0.07931,-0.41389,-0.11471,-0.13729
323,-38.75619,8.98551,-3.59509,-10.26243,-6.73384,-0.15954,-16.00958,-20.41496,3.59099,1.13743,-8.46001,0.90478,-93.76549,41.97791,-14.09305,-6.42441,-2.18779,-0.35139,4.45973,34.76103,-4.38902,11.47691,-21.79228,17.60663,-1.06285,0.78904,10.58412,-0.24863,0.25462,-1.74481,-0.68218,-1.17195,0.17801,0.31658,0.10659,0.82547,-0.34964,0.07078,0.014,-0.27647,-0.07066,0.01132
324,-37.84316,9.22266,-3.13924,-7.14174,-9.33112,-0.21067,-9.55988,-28.84014,6.3039,1.98895,-18.90169,-4.3716,-95.83166,41.80452,-13.86112,-7.05046,-2.43331,-0.63853,14.20633,1.76735,-4.18469,-15.79112,-18.59537,10.11033,2.08306,0.25742,6.04109,2.60843,0.20595,0.13667,-0.50938,-1.64443,0.39587,1.26536,0.87291,1.03664,-0.18931,-0.15643,0.06192,0.13029,0.16558,0.09057
325,-37.98566,9.44595,-2.54678,-6.48177,-10.97151,-0.18007,-10.06631,-30.52655,8.16999,-8.66804,-30.73831,-12.45191,-97.13742,41.33189,-13.54424,-7.7691,-2.43512,-0.64968,-1.47315,-25.39027,-11.02176,-28.39803,-9.27731,1.83994,6.45182,-0.03381,-0.09567,6.61755,-0.48268,0.67406,0.81517,-1.67645,-0.05179,1.53493,1.99913,0.34001,0.20846,-0.31837,0.0196,0.48938,0.43367,0.07405
326,-36.8045,10.72888,-2.37776,-6.97596,-11.48787,-0.02037,-9.23677,-22.8026,7.43499,-25.10213,-37.48055,-17.13701,-97.43523,40.43471,-12.89516,-8.47322,-2.32764,-0.55574,-22.43649,-31.78535,-16.57061,-15.47541,9.01505,-6.27014,8.22615,-0.03939,-4.32764,9.23343,-1.47447,-1.15868,1.44429,-1.1958,-0.28817,1.33835,2.55253,-0.23871,0.39193,-0.30695,0.00461,0.56568,0.40698,0.06131
327,-31.94872,13.56188,-3.15216,-6.09986,-10.4526,0.11292,2.73626,-6.96618,3.36559,-35.01746,-31.69464,-13.36007,-96.29787,38.87862,-11.77564,-8.90527,-2.29675,-0.59515,-18.89062,-7.9128,-12.63881,0.60762,18.3902,-14.08305,6.59761,-0.02692,-5.96805,9.70935,-2.48759,-2.92043,0.38125,-0.5161,0.26283,1.00798,2.06355,-0.27753,0.18755,-0.17659,0.07624,0.32559,0.05505,0.02796
328,-24.38363,15.52543,-3.88793,-3.00321,-6.98763,-0.01209,21.27049,7.80638,-0.9092,-37.67698,-14.09696,-3.48702,-93.51902,36.67658,-10.42237,-8.84682,-2.30302,-0.7614,1.45457,32.63932,-0.4684,-2.96368,5.23755,-17.9533,5.23175,0.11041,-5.09267,8.3682,-3.08622,-1.41609,-1.43129,-0.46044,1.22061,0.01838,1.02778,-0.63907,-0.13661,-0.07828,0.15362,-0.16421,-0.25669,-0.15939
329,-16.19406,14.08185,-3.13892,2.82204,-1.93106,-0.31113,37.78964,9.43454,-1.2296,-40.30898,2.80245,4.02888,-89.08412,34.06619,-9.13441,-8.16247,-2.16528,-0.90474,14.34879,53.85551,12.00519,-26.00348,-11.93694,-13.71403,6.81455,0.71708,-1.77239,5.78601,-2.51901,1.95465,-2.65443,-1.36104,1.92479,-1.43332,0.55474,-1.54245,-0.33369,-0.09822,0.19335,-0.59638,-0.18619,-0.39537
330,-8.10656,10.65605,-1.43042,12.81409,2.13193,-0.42675,53.08055,-3.5576,2.03589,-41.93027,7.28478,3.66253,-82.86485,31.12241,-7.93486,-6.86939,-1.86397,-1.02715,23.94302,32.42181,17.67628,-44.42026,-11.87798,-2.50028,9.52764,1.48334,2.57422,3.47231,-1.06713,2.95622,-2.72108,-2.61257,2.07634,-1.89547,0.96701,-1.76473,-0.39557,-0.21414,0.24856,-0.60724,0.11606,-0.39129
331,-1.19704,8.85758,-0.8207,25.59427,4.38598,-0.32069,64.70738,-16.8353,4.0156,-42.21376,3.6447,-0.94878,-74.6646,27.61623,-6.6937,-5.18464,-1.49439,-1.21775,31.47009,-7.56689,14.89614,-33.33296,-10.68364,10.38151,10.03546,1.81262,6.15131,3.65507,-0.53171,0.77344,-1.63327,-3.29937,1.57167,-0.89479,1.46117,-0.71782,-0.32923,-0.3271,0.29597,-0.27486,0.22273,-0.11481
332,3.18073,8.76944,-1.51703,36.33386,7.078,-0.41439,64.01009,-17.99546,2.7773,-53.71237,5.88381,-2.30019,-64.68804,23.36833,-5.3814,-3.43084,-1.01092,-1.428,8.59006,-25.0443,12.04459,1.22058,-26.40663,17.64285,8.09811,1.73705,7.61031,6.88665,-1.55303,-2.23517,-0.15698,-3.05927,0.60135,0.43925,1.89942,0.4937,-0.15593,-0.34886,0.22583,0.06643,0.14118,0.16914
333,4.89441,7.83558,-1.73802,43.72638,11.54296,-0.84795,52.74518,-7.63101,0.87049,-81.22135,17.6307,1.78401,-53.71014,18.66488,-4.03911,-1.74581,-0.30243,-1.60973,-49.76561,-13.79151,19.58117,30.09737,-39.27201,12.39822,6.33396,1.60612,5.76708,10.48233,-2.63087,-4.22127,0.24285,-2.24796,-0.04684,0.93057,2.73056,0.64571,-0.06191,-0.26558,0.05873,0.24236,0.19818,0.24229
334,5.97448,6.42095,-1.38769,52.08641,16.71234,-1.25348,47.20043,9.96704,-0.55751,-103.49159,30.76908,7.62807,-42.48743,14.25611,-2.59932,0.05971,0.63147,-1.84166,-91.26311,7.6371,34.08649,35.7621,-26.49177,-4.48391,6.81093,1.4459,1.38404,10.9375,-2.5695,-4.59083,-0.78772,-1.57077,0.21604,0.32028,3.40278,-0.24846,-0.13199,-0.14088,-0.05163,0.19738,0.39861,0.0953
335,10.41263,7.37616,-2.74609,65.08421,21.29982,-1.30203,61.31234,28.3856,-2.16194,-96.01334,35.79701,9.23196,-31.33794,10.97732,-1.02064,2.16591,1.69085,-2.15504,-64.40331,19.63324,38.44643,21.71642,5.99334,-22.99927,9.07584,1.22734,-3.34468,8.41452,-1.64118,-3.92396,-1.90948,-1.15765,0.95214,-0.19965,3.24864,-0.80643,-0.15749,-0.04043,-0.05715,0.08554,0.50726,-0.05302
336,17.65139,10.74767,-6.51791,81.59021,25.47059,-1.00663,87.02246,38.08,-3.73151,-62.43742,29.83218,3.27286,-20.82153,8.93343,0.36223,4.35106,2.78222,-2.41597,11.4033,6.31472,22.76204,1.35193,37.38169,-31.01338,11.31464,1.19058,-6.50996,6.48139,-0.48732,-3.93653,-2.17132,-0.71425,1.41227,0.65764,3.11952,-0.08127,-0.04499,0.01924,-0.02892,0.18791,0.56754,-0.03166
337,19.54116,13.54321,-10.35507,97.22397,31.43437,-0.81883,100.47794,37.87148,-5.0127,-29.77643,25.20303,-4.15925,-12.26421,7.28776,1.04754,6.18622,3.85437,-2.45767,68.38359,-19.9887,1.41907,-10.5412,46.993,-22.81992,12.62864,1.40622,-6.26976,6.9037,-0.01346,-5.13981,-1.95421,-0.82496,1.4677,1.92437,3.56632,0.78865,-0.00635,-0.01882,0.02066,0.38421,0.65155,0.01192
338,10.55633,14.00269,-12.26555,108.7619,40.15774,-1.24292,86.93889,35.79693,-6.21753,-18.85576,37.98544,-3.2764,-6.72211,5.34912,0.92708,7.53231,4.80512,-2.33101,63.97641,-24.02073,-3.90251,-9.50159,30.36847,-6.05028,13.13052,1.49779,-2.65067,7.83875,-0.98232,-5.85192,-1.66898,-2.13654,1.35665,1.50395,3.51228,0.25645,-0.12531,-0.2053,0.1131,0.23108,0.53314,-0.11999
339,-3.20055,12.35482,-12.25317,116.87656,48.30249,-2.00984,55.1167,34.65855,-7.10475,-29.35599,62.43061,5.23356,-3.77718,3.19454,0.36113,8.57372,5.56879,-2.25616,10.88731,-2.93446,6.09585,-1.97862,7.47197,4.97036,12.64603,1.3309,2.42191,7.8133,-2.30357,-5.08771,-1.00325,-4.0123,1.09887,-0.54212,2.95496,-1.36848,-0.17549,-0.44323,0.19213,-0.30886,0.25541,-0.38056
340,-10.75869,9.61881,-11.45256,124.20408,52.49212,-2.29155,30.95964,28.96404,-8.07248,-47.16113,76.52197,11.30381,-1.96401,1.29181,-0.19436,9.6496,6.2333,-2.28782,-43.07643,5.25333,12.55,8.99846,-0.49858,4.91014,10.64695,1.88016,7.25884,7.62574,-2.45123,-3.89267,0.15776,-4.76685,0.54816,-1.91319,3.03461,-2.40252,-0.03167,-0.4652,0.16968,-0.72177,0.15117,-0.55227
341,-7.65043,5.28015,-9.19323,131.70047,54.42556,-1.98593,36.15176,11.08228,-8.5629,-56.20658,74.05817,9.69787,1.97236,-0.81266,-0.47223,11.06808,6.74086,-2.26388,-52.87349,-24.9282,7.53299,25.20699,9.99948,-2.46722,8.46074,3.43954,8.92987,8.29418,-1.95404,-3.78111,0.94971,-3.49788,-0.08332,-1.1469,3.63276,-1.81818,0.09614,-0.20201,0.05605,-0.55883,0.22856,-0.4497
342,-2.44186,2.58051,-6.36084,138.14969,59.41673,-2.02013,50.74241,-8.24745,-8.52489,-47.26909,73.46877,5.77287,2.61154,-1.00903,-0.48223,12.71532,6.87621,-1.96457,-28.52271,-56.61589,-3.79131,37.23117,32.66143,-15.2719,8.85651,3.874,3.01661,9.52893,-1.93074,-5.31777,0.25577,-1.04469,-0.13416,0.55553,4.23102,-0.55003,0.00294,0.05842,-0.03826,-0.03182,0.37504,-0.16718
343,-3.00025,-0.53435,-0.51099,142.00037,67.66837,-2.69498,57.42516,-24.09048,-3.76071,-27.01259,85.91891,5.93023,2.96296,-1.25751,-0.09927,14.02293,6.65162,-1.42402,4.47548,-64.341,-6.06375,27.395,53.52387,-30.04989,11.36941,1.35051,-8.94818,10.02842,-2.43406,-6.12979,-2.02633,0.87274,0.90027,1.2979,4.24044,0.02459,-0.2655,0.06011,0.00655,0.2927,0.4988,0.01869
344,-7.53698,-1.62716,3.5673,143.19884,73.57615,-3.15228,50.52148,-24.27531,2.84811,-13.07077,101.27677,10.61484,2.73521,-1.21272,0.42138,14.47726,6.48412,-0.91138,18.12416,-39.91331,4.23376,-2.24784,57.23681,-35.61177,11.90825,-2.05341,-16.66272,9.51959,-2.90647,-3.25115,-4.37023,1.28553,2.47808,0.80379,3.254,-0.17308,-0.53077,-0.05337,0.18045,0.20865,0.4554,0.00181
345,-11.309,1.16135,0.83458,143.35355,74.47603,-2.88802,37.56059,-8.82532,5.68036,-14.9545,108.67941,16.01177,2.10412,-0.41598,0.6495,14.11413,6.75925,-0.59706,6.71091,-3.07357,18.36187,-22.31756,44.64915,-24.34601,8.80194,-2.73197,-12.7484,9.28843,-3.07596,1.36461,-4.58493,0.41902,3.06825,-0.03643,2.22726,-0.52931,-0.56614,-0.06473,0.30234,-0.05119,0.2473,-0.065
346,-12.94788,5.67202,-5.85934,144.31209,72.82916,-2.22721,27.59387,6.09635,2.62267,-25.15276,106.19973,17.16576,1.40035,0.78892,0.46267,13.56269,7.2737,-0.43102,-13.22286,8.96918,19.72859,-11.68305,30.83552,-3.22034,4.66662,-0.91444,-3.02326,9.95252,-3.16032,2.60947,-2.31958,-0.79605,1.95028,-0.50703,2.42863,-0.73288,-0.3267,-0.05848,0.25731,-0.18952,0.0838,-0.01139
347,-14.51932,7.36721,-7.86766,144.51135,72.36603,-1.71635,23.51687,4.39833,-4.05136,-35.39466,97.3211,12.95348,0.83245,1.40826,0.16799,13.25386,7.55964,-0.14681,-29.89815,-19.65316,1.94348,15.75598,28.74061,13.96387,2.83048,0.5589,2.47846,10.40596,-3.17257,-0.44036,0.54659,-1.52666,0.09863,-0.33665,3.59894,-0.68008,-0.04449,-0.14661,0.12676,-0.09057,0.16803,0.12842
348,-16.56236,5.26036,-2.96256,141.05272,72.97675,-1.37304,26.22039,-9.55714,-10.41165,-43.49319,85.06478,6.89877,0.63603,1.08569,0.06212,13.06227,7.36671,0.34141,-39.56076,-62.58332,-21.16222,32.30441,37.40233,19.04128,4.49371,1.19935,2.83986,9.67507,-2.71963,-3.77076,2.35124,-1.86597,-1.20661,0.31198,4.5186,-0.47248,0.11383,-0.21719,0.00869,0.12367,0.49029,0.15584
349,-16.53188,2.52789,2.44411,135.26518,72.61498,-0.90611,39.30643,-15.97432,-9.67761,-44.91565,74.25316,3.28827,0.98142,0.39597,0.17754,12.78759,6.77782,0.8554,-29.10833,-79.77339,-26.61746,28.18466,43.40371,13.99497,7.98758,2.23969,2.60036,8.21529,-2.01825,-4.37028,2.86533,-2.10819,-1.56739,0.80261,4.41428,-0.51729,0.16774,-0.10986,-0.08166,0.22034,0.75683,-0.02583
350,-13.64401,1.3628,3.8731,130.35583,71.80875,-0.36328,60.66929,-5.41269,4.50549,-37.56506,70.47643,3.47852,1.4311,-0.22843,0.38786,12.2885,6.08735,1.30913,7.94536,-58.94288,-2.6946,17.36959,39.85667,7.48546,10.46185,3.03651,2.29195,7.16814,-1.91836,-2.91607,2.48241,-2.10791,-1.24602,1.0302,3.35161,-0.54597,0.15603,0.05652,-0.12052,0.21133,0.64816,-0.18373
351,-11.95489,1.57304,2.77962,127.12606,71.87599,0.06807,73.89822,9.64485,23.52931,-26.37659,71.81437,4.94978,1.22421,-0.68326,0.4837,11.47366,5.4621,1.74952,47.32598,-27.08721,29.30772,16.54662,36.09737,4.66922,10.77734,1.9986,-0.17695,7.18738,-2.63089,-1.49748,1.45688,-1.79074,-0.50275,1.35836,2.18207,-0.06353,0.09179,0.01772,-0.05831,0.2462,0.25297,-0.10579
352,-14.33051,1.1348,3.45348,124.01922,71.52287,0.43219,61.75934,9.21838,23.9087,-18.11856,70.9325,4.31568,0.35079,-0.94158,0.33336,10.45053,4.79261,2.14728,51.87981,-20.83778,24.87023,20.89499,38.33754,-0.40928,10.02408,-0.35378,-4.34257,7.95605,-3.67964,-1.641,0.15031,-1.19941,0.38625,1.51715,1.83662,0.36434,0.02368,-0.16461,0.07018,0.21239,-0.04519,0.01294
353,-18.13021,-1.84045,7.27189,120.14687,68.84518,0.95664,26.70269,-7.02706,0.14788,-14.22187,64.89857,1.30776,-0.44657,-1.19045,-0.01856,9.5247,4.01438,2.44577,15.16535,-41.22057,-25.87698,15.77601,40.44656,-15.61132,9.36208,-2.08776,-7.46108,8.81687,-4.35111,-3.81347,-0.68947,-0.53739,0.93096,1.29151,2.75955,0.06788,0.01061,-0.23248,0.15299,0.01621,0.02697,-0.05164
354,-19.70328,-4.9088,9.34837,115.3683,65.39947,1.51217,-12.15512,-18.12906,-18.0373,-14.57222,57.47493,-1.43119,-0.7297,-1.45293,-0.40814,8.77524,3.29051,2.74973,-38.0423,-54.38671,-71.4692,10.41095,39.09588,-32.35035,8.64991,-2.06234,-6.93168,9.44295,-4.06203,-6.02675,-0.31569,-0.44128,0.70448,1.07216,4.40245,-0.67556,0.07898,-0.18668,0.12203,-0.13239,0.38735,-0.20351
355,-16.9844,-3.07195,4.60588,110.10992,63.73901,1.83554,-34.73169,-10.75686,-2.37614,-16.9049,51.35338,-2.05221,-0.51639,-1.34915,-0.6224,7.96418,2.67032,3.14615,-73.97208,-39.97646,-59.25689,28.83886,37.86627,-30.51731,7.38231,-0.17521,-2.26145,9.80243,-3.05657,-4.89158,1.26733,-1.18711,-0.25614,0.98394,5.32572,-1.31124,0.21023,-0.16643,-0.00535,-0.07215,0.691,-0.26591
356,-9.00939,3.67092,-4.2283,105.23618,61.68188,2.29099,-31.83409,5.88201,34.28465,-14.78387,42.10717,-1.73951,0.22939,-0.75149,-0.55953,7.02078,1.91548,3.43611,-69.38701,-17.85922,-3.90955,64.01882,41.15063,-7.15472,6.29656,2.41913,2.9747,9.91186,-2.4615,-0.0613,3.15204,-1.97656,-1.46932,0.72862,4.55472,-1.53752,0.36271,-0.14338,-0.17787,0.07993,0.66012,-0.19259
357,-0.45823,8.37717,-8.42078,100.23499,56.27676,3.08427,-8.31006,14.45518,51.72744,-8.76825,28.68195,-2.18978,1.36558,-0.24664,-0.35199,6.12887,0.9907,3.49158,-32.68149,-19.05061,29.28029,76.86768,51.52819,16.5647,6.86223,3.7126,4.11324,9.30798,-2.79915,4.61069,4.43583,-2.03929,-2.42564,0.24799,2.63432,-1.23244,0.51606,-0.07995,-0.33705,0.13301,0.3155,-0.02663
358,2.69397,7.04648,-5.77733,94.06689,49.48531,3.64969,24.72934,11.29386,36.07854,-10.32479,17.10698,-3.97193,2.51261,-0.24564,-0.20677,5.23237,0.21238,3.54688,4.27288,-44.70784,12.16631,50.76413,60.00291,23.17906,8.72931,3.26486,2.12719,7.5476,-3.19092,4.86269,4.9415,-1.93359,-2.72167,0.03091,1.16744,-0.59352,0.64895,-0.10912,-0.38351,0.0847,-0.0294,0.11744
359,3.36481,5.53092,-3.68077,87.94467,45.16567,3.56053,55.7728,6.15042,17.6064,-22.89536,13.02374,-5.65588,3.47247,-0.25603,-0.03887,4.09696,-0.25017,3.82454,24.2169,-64.39377,-7.73037,16.63485,52.25161,16.59652,9.76577,2.73861,1.73201,5.68928,-3.00281,0.18767,4.67979,-2.3298,-2.09423,0.6536,1.28966,-0.05066,0.6755,-0.24369,-0.25167,0.11255,-0.05881,0.12454
360,2.39123,8.89768,-5.10772,84.93658,43.79176,3.27174,69.76294,3.96518,21.25104,-26.81591,19.11917,-3.68345,3.64415,0.10968,0.3585,2.99298,-0.55503,4.18397,39.37431,-52.9973,12.03917,8.1247,30.60719,8.66879,8.91372,3.14615,3.34143,5.43818,-2.94982,-4.73705,3.64694,-2.51176,-0.99914,1.61504,2.38178,0.0099,0.54866,-0.25277,-0.07191,0.22324,0.19685,-0.00794
361,-4.48566,11.56817,-5.23501,85.08089,42.24477,3.50235,55.69645,1.36792,29.44106,-9.75608,29.75896,2.31472,2.58865,0.4356,0.72267,2.32476,-0.88313,4.34062,51.83031,-21.99253,39.0865,20.37857,11.44539,4.92609,7.29896,3.81691,4.24643,6.61632,-3.69208,-4.54907,2.60408,-2.034,-0.44057,1.56065,2.7593,-0.4924,0.40025,-0.11091,-0.03707,0.19266,0.40821,-0.17573
362,-14.33627,7.14846,-2.32902,84.29669,37.2953,4.45421,21.04735,-1.59813,14.20953,6.55382,28.54623,6.2475,1.13996,0.39335,0.60027,1.8262,-1.27179,4.22686,34.20813,-8.59319,20.68801,36.34436,10.97145,4.34084,6.45465,4.24119,4.46709,7.71726,-4.6741,-0.6219,2.52579,-1.85953,-0.67377,0.60348,2.10169,-1.02021,0.37731,-0.07214,-0.11684,0.02048,0.3376,-0.22643
363,-17.18741,0.60791,-0.13275,79.63275,29.04391,5.7185,-13.38834,0.36392,-16.7521,-1.41561,7.34574,3.03087,0.50927,0.33564,0.25262,1.07278,-1.70242,4.02393,-21.94082,-28.542,-31.60383,53.31668,33.38614,4.32165,7.16945,4.50715,5.03519,6.96058,-4.87688,1.28431,3.27926,-2.58242,-0.99752,-0.24156,1.1514,-1.22241,0.47442,-0.22004,-0.14891,-0.1593,0.0038,-0.14907
364,-8.48383,1.06291,-0.19549,72.73405,21.88568,6.43448,-29.20858,7.41666,-32.95879,-24.78284,-16.88508,-3.87117,1.04522,0.58174,0.42117,0.20961,-2.08534,4.00433,-75.8288,-55.63649,-61.46476,63.11058,58.21931,3.55625,9.33594,4.42139,5.01919,4.69265,-4.22228,-0.42401,3.70778,-3.50537,-0.72502,-0.54674,0.5637,-1.26962,0.55764,-0.38551,-0.06747,-0.25744,-0.29752,-0.08144
365,3.7565,8.20187,-0.24934,68.10546,19.62501,6.2425,-25.10787,12.42671,-22.44938,-37.08951,-22.9454,-6.97096,2.03716,0.83354,1.15125,-0.51696,-2.32978,4.26543,-87.04168,-58.52099,-44.42186,53.6516,58.98742,2.10881,11.98613,3.99925,3.64606,3.76961,-3.62603,-2.98976,3.44761,-3.88615,-0.11791,-0.23001,0.97922,-1.44123,0.57205,-0.44352,0.03717,-0.20309,-0.22377,-0.13316
366,8.65465,13.78146,0.95168,67.97018,20.75769,5.89542,-10.94783,10.68036,0.70532,-28.42987,-12.63647,-3.45202,2.60809,0.69664,1.70006,-1.43936,-2.49789,4.59926,-58.28934,-39.87994,-4.65991,38.94722,38.00913,-0.03559,13.70587,4.13393,2.43422,5.25922,-3.70415,-5.09392,3.54183,-3.88945,-0.16166,0.43947,2.54323,-1.95595,0.61973,-0.41288,0.00893,-0.09335,0.23025,-0.32479
367,4.56344,12.48337,2.13644,69.17039,19.26851,6.53165,1.80767,5.30453,17.66169,-15.07776,-7.10137,2.62542,2.44081,0.28912,1.51443,-3.04282,-2.86188,4.59522,-28.62885,-27.7279,22.8089,47.47573,20.76822,-4.98823,12.9575,5.6607,3.60358,6.25887,-3.94213,-8.17339,4.36048,-3.91234,-1.13047,0.97017,4.1356,-2.3476,0.65486,-0.30195,-0.17007,-0.08283,0.69018,-0.50932
368,-1.66279,5.83332,1.76958,68.10484,12.61688,8.11957,1.57134,2.318,17.85745,-12.80701,-15.08407,5.97749,1.8371,-0.03269,0.67775,-5.07081,-3.48888,4.12858,-32.94725,-30.56829,20.00231,80.38717,20.36903,-14.41231,9.91609,7.96064,6.97884,4.2087,-3.80576,-12.17677,4.678,-4.03799,-1.92077,1.20841,4.05806,-1.65767,0.44713,-0.14451,-0.29441,-0.10583,0.72284,-0.44023
369,-2.33028,-1.29016,-0.21319,66.12756,5.49172,9.39134,-9.09567,4.73938,2.41014,-15.70531,-22.12701,5.81267,1.57885,-0.16218,-0.35046,-6.71189,-3.99873,3.60386,-56.84373,-30.53635,-3.97345,110.36854,25.44743,-23.71437,7.73185,9.21377,8.98015,1.59386,-3.86907,-14.42308,3.86708,-4.08733,-1.6556,1.50755,2.52366,-0.25325,0.10488,-0.06037,-0.23392,0.00045,0.36176,-0.17487
370,4.88445,-3.71294,-1.68646,66.39998,2.15688,9.74994,-19.16954,10.49533,-14.54479,-11.89359,-17.63071,5.06067,1.97972,-0.14989,-0.8348,-7.71164,-4.14195,3.39536,-63.71088,-21.26117,-16.19861,120.84185,21.06063,-23.59039,8.54626,8.60132,6.85415,1.87731,-4.52698,-14.2124,2.85913,-3.66856,-0.88802,2.13912,1.62547,0.2762,0.0369,-0.04733,-0.13291,0.19208,0.10279,-0.10071
371,15.50918,0.09849,0.27421,68.88004,0.92656,10.04657,-32.54312,15.40753,-20.71926,-1.31473,-9.70949,6.2531,2.38966,-0.12085,0.01907,-8.57726,-4.20251,3.41476,-55.59256,-13.34157,1.96514,116.60291,11.19871,-12.61658,10.54926,7.34409,3.39741,3.081,-4.74128,-14.34384,2.65282,-3.17564,-0.34406,2.43993,2.12719,-0.64123,0.32171,-0.07845,-0.09497,0.21521,0.19591,-0.3602
372,24.48542,6.24272,5.62786,71.14968,-0.87535,10.94602,-55.91241,15.49213,-17.55822,7.88525,-6.94281,9.92084,2.33174,-0.29028,2.05458,-9.85324,-4.5232,3.4582,-59.69703,-9.85133,35.8747,104.8343,13.54473,-3.6178,11.80543,6.81593,2.78766,1.89866,-3.65409,-16.56998,3.58512,-3.74107,-0.11861,2.07918,2.9623,-1.52806,0.71022,-0.26157,-0.02293,0.08738,0.4296,-0.52901
373,29.17696,8.71838,9.42089,72.49191,-2.23112,11.88269,-82.82662,5.10671,-12.76974,12.09841,-4.891,15.02178,1.80451,-0.58036,3.39134,-11.64025,-5.03693,3.56929,-80.1974,-9.33098,66.30551,98.61584,29.93684,-5.99963,12.22441,7.36286,4.97515,-1.21247,-2.09732,-19.65958,5.04781,-5.26804,-0.21645,1.54264,3.01224,-1.04841,0.94807,-0.55884,0.10426,-0.01282,0.46178,-0.25744
374,26.99265,6.59125,7.7438,74.92284,-2.37323,12.57268,-99.99347,-16.11672,-7.14657,17.17545,-1.53913,18.7589,0.95304,-0.51202,2.36815,-13.37387,-5.50427,3.83778,-91.60714,-23.91778,87.43188,119.20663,38.71838,-9.86265,11.01395,8.66546,8.04503,-3.41604,-0.98028,-22.27842,5.97747,-6.29566,-0.8265,1.58458,2.65066,-0.08444,0.9486,-0.71557,0.11225,0.00536,0.3289,0.11277
375,12.40478,3.20986,3.04343,78.82162,-3.22289,13.59701,-102.13209,-34.27037,0.17298,25.27424,-4.17173,18.47136,-0.09988,0.01496,-0.0193,-14.49696,-5.87288,4.24082,-82.63589,-58.05936,91.14829,153.59964,24.70552,-3.37954,7.84816,9.12946,10.33849,-3.27131,-0.05475,-22.9719,5.92785,-6.08243,-1.64315,2.45426,2.6193,0.02985,0.84304,-0.61687,-0.0708,0.20634,0.30988,0.11105
376,-22.6799,-1.58715,-2.52974,81.70347,-5.00892,14.81135,-104.22132,-31.0986,-3.51915,29.24169,-10.14111,15.32308,-1.55485,0.32458,-1.50178,-15.45543,-6.32811,4.77885,-85.40349,-76.10728,58.78423,148.61453,-3.55774,2.26901,5.14122,7.15246,8.69354,-3.38745,1.35616,-20.59961,4.91395,-4.66944,-2.02668,2.61359,2.11034,-0.50724,0.71511,-0.31906,-0.31353,0.31996,0.34627,-0.24453
377,-73.87321,-9.22715,-11.21989,83.81706,-2.87593,14.6063,-125.76038,-5.59894,-31.17167,30.91999,1.46985,13.95666,-3.68816,-0.06876,-1.43623,-16.9748,-6.94694,5.60954,-126.60478,-28.01927,-12.26152,98.01741,-29.88713,-13.14403,5.63773,4.69653,2.24683,-5.79208,3.12035,-17.42024,3.04456,-2.77608,-1.60755,1.18942,0.69749,-0.68831,0.41894,-0.02283,-0.38256,0.12087,0.2768,-0.67508
378,-117.95821,-17.42062,-24.02522,88.60416,5.39894,12.81117,-157.60306,24.30928,-74.77728,40.57635,34.63614,16.51618,-6.13928,-0.67764,-1.06625,-18.83765,-7.62142,6.804,-178.94099,71.85548,-95.40564,75.59659,-40.10971,-41.49623,9.07223,5.10964,-3.43089,-7.53858,3.50031,-16.493,1.53306,-2.61074,-0.49976,-0.0223,-0.25737,-0.49924,0.04102,-0.16683,-0.12608,-0.12495,0.19916,-1.02621
379,-131.3614,-21.86533,-35.11862,96.96642,14.53437,11.80206,-157.6451,37.95815,-102.50343,57.80326,60.32513,19.67549,-7.51417,-0.69747,-1.45138,-20.29809,-8.23236,8.18758,-180.25175,135.08891,-146.24504,123.20581,-20.65059,-51.67669,11.1343,6.90695,-3.82712,-6.07978,1.6297,-17.88649,1.45754,-4.16148,0.23138,0.767,0.07709,-0.53757,-0.11379,-0.69067,0.19888,-0.05319,0.24281,-1.24162
380,-107.47519,-18.14394,-31.47784,106.16914,20.50267,12.82239,-97.03756,22.8328,-73.25743,75.48268,57.2067,19.53791,-6.39842,0.03966,-1.99108,-21.11444,-8.59649,9.65738,-93.01178,97.60685,-115.85525,175.08684,17.66224,-34.6445,8.78637,6.36011,-1.61648,-3.68188,-0.41077,-20.23696,1.60638,-4.38348,0.07669,2.94327,0.71042,-0.33418,-0.12835,-0.86474,0.28403,0.33651,0.28843,-1.12991
381,-59.19753,-6.66181,-10.34528,111.77728,25.12291,14.45366,-0.52983,-8.78571,4.75494,84.70171,36.66053,16.80001,-2.86665,1.1384,-1.64199,-21.83603,-8.64691,11.26527,40.6548,-1.97059,-17.26084,153.45349,32.72773,-16.19385,4.76512,3.31347,-1.78786,-3.3811,-0.40198,-20.20349,0.90031,-2.29773,-0.25402,4.45904,0.29389,2.21941,-0.12627,-0.47486,0.16521,0.70936,0.12352,-0.26552
382,-10.90462,5.45797,13.261,113.0668,31.56182,15.03331,77.41345,-26.89472,68.4619,84.866,23.44735,14.85622,1.08973,1.82308,-0.32944,-22.902,-8.52917,12.9476,140.69113,-70.51713,64.87586,74.8218,1.97243,-18.64613,2.75919,-0.28173,-5.15804,-5.07872,1.54172,-11.38874,0.16511,-0.12423,-0.10633,3.6278,-1.50156,9.63928,0.03315,-0.11328,0.04707,0.61073,-0.25902,1.6591
383,13.17496,9.78887,22.76432,114.34702,39.36968,14.89151,104.78878,-20.37057,74.52905,87.6404,25.02398,14.44731,2.67869,1.21256,1.07838,-23.91486,-8.3548,14.4698,172.60016,-72.01646,68.19205,7.7338,-46.01774,-30.96541,3.05249,-2.79245,-8.36332,-5.26328,2.94,6.50249,0.22013,0.17178,0.56291,1.3441,-3.18952,19.68452,0.3306,-0.18571,0.05221,0.01258,-0.53185,3.84257
384,9.82002,4.63606,14.31573,119.51801,46.33144,15.23172,100.12959,-3.03425,35.49479,100.83189,29.95228,13.37325,1.33857,-0.37248,1.70007,-24.30527,-8.02442,15.71215,169.71759,-46.0526,6.37829,-11.18332,-63.23261,-30.73403,3.96327,-3.02163,-9.26054,-0.52829,0.5125,22.34351,0.43043,-0.73857,1.30878,1.05556,-3.0411,24.22285,0.43237,-0.35497,0.10665,-0.36116,-0.43417,4.50853
385,-0.10707,-2.36634,0.92824,128.86909,52.92308,16.14291,94.44712,6.32452,1.73677,123.26957,31.44206,11.15684,-0.3916,-1.57543,1.67346,-24.1051,-7.4658,16.78404,178.0605,-34.80798,-44.71123,21.07072,-23.813,-15.92543,4.14515,-1.37247,-9.05313,6.72244,-4.9332,25.31767,-0.16327,-1.22874,1.8494,3.56406,-1.45871,18.1827,0.10047,-0.25332,0.18104,-0.04648,-0.12749,2.96917
386,1.36378,-3.0252,-2.37963,136.627,60.70054,16.47087,92.22897,-0.12664,12.08988,140.18892,35.95988,10.25951,0.09659,-1.41901,1.47189,-23.75886,-6.90224,17.7803,193.39426,-37.84472,-20.06854,68.08991,33.29492,-3.27482,3.51145,0.24258,-10.01476,11.19205,-8.51802,17.17806,-1.18733,-0.6929,1.73956,6.23939,-0.17728,6.87064,-0.36451,-0.02368,0.23534,0.64556,0.01427,0.66437
387,12.50542,1.64162,2.03828,138.47641,68.5256,15.76468,88.50774,-10.85288,44.40442,137.86278,46.93518,12.22772,2.81617,0.36555,0.89943,-23.36607,-6.67152,18.5692,188.29373,-34.0151,44.98543,56.19053,17.84564,-6.13071,2.49161,0.52815,-13.01457,11.44246,-8.10299,8.66304,-1.76624,0.86988,0.56981,7.2064,0.00747,-0.02243,-0.46556,0.16755,0.07609,1.15397,-0.0981,-0.53177
388,18.55614,4.70745,2.11022,137.93533,74.5742,14.68799,73.15347,-12.9343,50.7005,121.1758,58.83448,14.82058,5.05688,2.79403,-0.31728,-22.87137,-6.84344,18.97478,146.97754,-16.65082,67.99963,-11.26361,-67.73725,-14.98473,1.50389,0.09919,-15.50829,9.47349,-6.83569,6.20413,-1.87678,2.45448,-0.50348,6.76373,-0.30455,0.53153,-0.26697,0.31199,-0.16406,1.1679,-0.19969,-0.29045
389,13.1649,4.60653,0.48254,139.1256,77.90399,14.02768,39.41101,-11.57533,37.17685,105.8419,64.39649,15.1995,4.73406,3.62207,-1.27364,-22.45089,-7.25763,18.94426,85.40513,-3.02351,53.32817,-29.99942,-96.48485,-6.89117,0.85735,0.51953,-13.82121,7.66216,-8.20795,8.44956,-1.60552,2.98826,-0.87434,6.11761,-0.41379,4.15279,-0.15595,0.45294,-0.2282,0.84208,-0.12519,0.50283
390,2.78859,5.13571,12.16723,142.21432,79.28582,13.99308,2.79246,-14.52421,47.25504,107.90851,65.06099,13.79007,2.18715,1.39222,-0.58372,-22.07997,-7.64213,18.65405,57.20029,-5.06786,64.46818,22.91395,-27.99495,16.77689,0.08503,1.58082,-8.12351,8.22717,-11.52612,12.782,-1.17264,2.78562,-1.04978,6.20632,-0.26804,5.95735,-0.25348,0.58592,-0.11604,0.66919,0.0304,1.02469
391,-8.35435,7.30464,41.45089,144.0513,80.713,13.82778,-16.55802,-18.86467,94.00166,126.06483,70.51169,12.75216,-1.73327,-3.43943,1.59581,-21.3776,-7.7525,18.38002,88.17809,-11.18064,118.87636,51.76645,30.19614,32.51584,-1.27298,1.43964,-2.38457,12.11396,-13.66504,17.81859,-1.09333,2.43762,-0.72963,7.4439,-0.21595,5.30165,-0.38675,0.55407,0.10846,0.99266,0.08388,1.08646
392,-18.47766,8.68661,73.13229,141.86942,81.97184,12.96795,-11.74485,-21.68946,152.93118,138.71492,82.64367,12.83471,-5.33831,-8.085,3.78173,-19.72865,-7.54024,18.10813,142.69533,-9.66746,186.20854,28.19239,23.36193,33.06726,-2.06985,0.18173,-0.0816,15.99846,-12.62865,21.07274,-1.10613,1.90558,0.02917,8.68548,-0.21099,4.75258,-0.34065,0.28901,0.31935,1.4047,0.08598,1.02484
393,-24.9384,7.01425,78.1729,136.13716,79.80598,12.13419,9.91434,-20.89474,173.92458,128.23128,89.60564,13.19861,-5.82422,-8.31954,4.48838,-16.97906,-7.12593,17.49308,168.87331,-2.78682,210.14684,25.37338,8.65598,28.93483,-0.96851,-0.43494,-1.12585,15.25984,-9.70086,19.79801,-0.47098,0.9387,0.14448,8.38535,0.13295,5.56993,-0.08166,-0.07164,0.30949,1.30576,0.2393,1.10139
394,-27.40426,2.26107,41.34959,130.33873,73.83682,12.08939,33.57869,-9.4525,110.98421,104.38785,85.89689,13.21844,-2.65125,-3.47744,2.84989,-13.94825,-6.54076,16.4636,158.42603,7.92109,134.01118,63.21021,21.18169,27.21894,1.33001,0.03836,-3.16029,11.37017,-8.12393,15.75429,0.68772,-0.20845,-0.77316,7.50586,0.53904,6.66662,0.23138,-0.31412,0.00025,0.99774,0.44011,1.24221
395,-32.12751,-4.85893,-16.35232,125.63789,67.80493,12.34125,40.09167,12.69482,-22.25885,88.01962,80.6766,13.28129,0.39885,1.64031,-0.51129,-11.31245,-5.71822,15.38267,131.75401,22.40657,-32.4455,72.85146,29.93618,27.06863,3.73642,1.32641,-4.77674,10.13875,-9.57788,13.46899,1.43432,-1.29969,-1.26014,8.1105,0.27791,6.49405,0.36774,-0.3586,-0.30204,1.15626,0.3685,1.18152
396,-42.22907,-13.01007,-59.92729,119.3634,63.76318,12.13125,30.44171,33.83241,-150.0495,82.01388,79.02563,13.8432,0.14702,3.58768,-3.32832,-8.78911,-4.71113,14.49095,106.26358,30.72213,-200.76004,20.88824,8.93189,28.5208,5.84058,3.30123,-5.12684,12.96216,-12.83918,13.86502,1.35685,-2.31897,-0.17795,9.94514,-0.60614,4.71727,0.24564,-0.3118,-0.24085,1.66375,0.03692,0.81746
397,-51.16624,-18.70029,-66.73106,111.06674,60.73119,11.60331,20.14691,40.26594,-190.85817,77.94219,75.87107,14.67713,-2.08643,2.71066,-3.81391,-6.09842,-3.65969,13.69581,87.18876,22.91964,-265.6543,-41.85968,-24.98827,33.89039,6.46611,5.17592,-2.7119,15.87327,-15.69765,14.38369,1.06925,-2.72114,0.99883,11.20731,-1.29759,2.6154,0.05289,-0.24556,0.02949,1.92309,-0.2003,0.4288
398,-52.97909,-18.34062,-39.97358,103.52843,58.04866,11.07158,5.94279,26.1327,-127.03616,74.91229,70.69105,15.01704,-3.79031,0.4245,-2.0954,-3.67366,-2.66771,12.84314,68.12778,7.63298,-188.93356,-66.00774,-43.20684,39.61415,5.33484,6.40888,2.04747,16.08546,-17.57669,13.28483,1.41523,-2.36845,0.4773,11.09675,-1.50568,0.92654,0.03315,-0.1809,0.12096,1.76863,-0.22286,0.20344
399,-46.06886,-11.80901,-6.81735,98.01263,56.1287,10.35169,-17.0309,0.66343,-20.453,75.88473,69.66711,14.09098,-3.8211,-1.26267,-0.05608,-1.9892,-1.78248,11.9033,49.94769,4.29658,-38.79672,-55.8432,-38.83509,37.85845,4.56425,7.18803,5.98399,15.00836,-18.37613,11.77009,2.48443,-2.31918,-1.01407,10.15936,-1.5044,-0.29905,0.18947,-0.22582,0.01554,1.50386,-0.17659,0.10034
400,-34.60968,-5.15887,7.23942,92.9361,53.82724,9.52966,-36.28151,-18.09112,43.94902,75.50402,70.55061,11.84318,-2.3767,-1.06842,0.46128,-0.79163,-0.96571,10.93005,35.67688,14.09115,63.21565,-31.07685,-26.36415,28.84294,5.20668,7.31976,7.48375,14.8828,-17.55925,11.7012,3.55882,-3.1239,-1.67806,9.32531,-1.36247,-0.49605,0.34859,-0.4165,-0.02101,1.36683,-0.12102,0.10142
401,-23.83469,-4.97705,0.04806,85.97766,49.98368,8.84363,-33.12924,-18.6537,30.20442,63.32823,65.47201,8.8032,-0.29797,0.2064,-0.5166,0.48088,-0.07291,10.07488,25.21716,21.45257,51.66233,4.9571,-18.90821,22.26456,5.68084,6.64877,7.93171,15.02151,-15.59474,12.25108,4.0877,-3.86783,-1.41521,8.80794,-1.04045,0.33939,0.43441,-0.55812,0.03966,1.27318,-0.05564,0.13637
402,-15.64995,-10.19498,-12.72642,77.35528,45.98172,8.18631,-9.34015,-6.99829,-23.00178,41.30917,54.92658,5.72382,1.47432,1.10919,-1.67831,1.79424,0.88322,9.4158,18.87721,16.66198,-25.75997,39.70948,-11.92216,23.79008,4.7752,5.90732,7.84931,13.82092,-13.84367,11.37082,3.90011,-3.43906,-1.38032,8.30936,-0.6831,1.06131,0.43154,-0.4289,-0.00546,1.12479,-0.02266,0.06692
403,-9.80895,-13.91843,-17.52707,69.90367,43.53576,7.52774,18.06146,3.42788,-52.28605,25.01786,45.99038,4.0079,2.44284,1.19907,-2.1995,2.55279,1.59129,8.76941,24.68891,3.69293,-75.17573,42.5714,3.89144,29.50289,3.52886,6.08031,6.65149,12.52101,-13.15454,9.45743,3.04008,-2.19676,-1.61139,7.95674,-0.52192,0.71132,0.30976,-0.13391,-0.15601,1.03692,-0.05569,-0.13996
404,-6.55854,-11.93441,-12.9224,65.0947,42.44755,7.12509,36.4338,8.06155,-37.69846,25.48336,42.56274,5.2688,2.66238,0.84768,-2.02214,2.49953,1.83893,7.98175,49.52527,-5.99219,-59.7033,18.3307,22.27908,33.85659,3.64038,7.56109,5.63207,12.67496,-13.66666,7.97249,2.27171,-1.6861,-1.34767,7.94207,-0.68051,-0.53764,0.21004,-0.01508,-0.24849,1.06656,-0.15117,-0.36285
405,-6.54176,-7.27863,-5.98564,62.00389,42.66706,6.97975,38.34295,9.19533,-11.77277,38.15639,45.30844,9.04679,2.3936,0.45453,-1.36959,2.30027,1.92129,7.30941,77.74558,-3.27163,-20.57468,6.31049,23.2249,33.40747,5.08994,9.54814,6.40961,12.43691,-14.70677,6.20914,2.4808,-2.56132,-0.71627,7.92991,-0.99223,-1.68538,0.31122,-0.19243,-0.23872,1.10384,-0.24999,-0.41816
406,-8.80118,-5.67705,-2.81001,59.13904,44.25309,6.74461,22.69823,6.66263,-7.30611,46.76508,52.48265,11.92548,1.81848,0.15014,-0.66718,2.65927,2.21179,7.05373,77.43306,8.13649,-7.8362,7.52856,-5.22703,25.42782,6.43776,10.43806,7.65414,9.75806,-15.01398,3.11617,3.20978,-3.80298,-0.15226,7.54569,-1.0461,-1.97852,0.47575,-0.43003,-0.15496,1.07898,-0.24335,-0.26355
407,-10.76637,-7.5699,-2.88802,55.68396,44.52794,6.38935,0.74718,0.05879,-17.61101,42.06054,56.23909,10.9881,1.09253,-0.06604,-0.30257,3.20195,2.52449,6.97759,44.47677,13.67043,-19.16943,-4.71492,-47.63885,12.11518,6.86579,9.41386,6.88902,6.38912,-14.08914,0.36615,3.1959,-4.2463,0.61794,6.78525,-0.57727,-1.55088,0.45332,-0.49596,0.00423,0.95886,-0.07834,-0.04906
408,-9.90166,-8.01027,-2.63259,52.16871,42.62289,6.08019,-8.74506,-5.52033,-18.30591,32.35264,54.5625,7.63796,0.67181,-0.126,-0.23701,3.12595,2.58846,6.77523,17.23194,12.80856,-20.50944,-14.69807,-70.86008,4.5781,6.24267,7.35824,4.85105,5.51924,-12.46232,0.40407,2.12866,-3.81837,1.78782,6.12817,0.24398,-0.76485,0.23162,-0.40648,0.21146,0.77946,0.16878,0.09832
409,-6.42479,-5.03754,-1.42029,48.46865,41.38332,5.74251,-1.66266,-6.32193,-5.48153,24.63153,54.99874,5.49389,0.96149,0.00141,-0.30177,2.44114,2.54388,6.54916,16.32873,18.80412,1.02027,5.04731,-58.41797,12.52558,4.25319,5.64088,4.38973,7.29715,-10.13439,2.97958,0.92336,-2.96868,2.46066,5.88005,0.94863,0.33232,-0.00163,-0.28543,0.3459,0.64595,0.33939,0.16897
410,-2.42266,-3.23021,-1.21348,43.25376,41.37625,5.37932,8.32198,-5.44321,3.2773,14.07016,58.0374,5.81259,1.80877,0.10805,-0.60856,1.84407,2.58029,6.45132,19.8384,29.49554,23.54599,32.73217,-30.18,28.14457,1.69879,4.72308,5.53368,9.27813,-7.6021,5.19994,0.58082,-2.06608,1.71989,5.58323,1.04791,0.79121,-0.04328,-0.22241,0.29882,0.55774,0.28677,0.066
411,0.7576,-5.17893,-1.68384,38.52106,40.76861,5.42871,15.06545,-2.92623,-3.60486,2.70018,56.26503,7.20506,2.72556,0.05792,-0.88977,1.74825,2.69172,6.44662,19.02062,29.79638,21.79545,35.00212,-18.37756,30.50017,0.81861,4.76123,5.73252,9.40338,-6.99915,3.99764,1.0923,-1.58941,0.33451,4.70088,0.45731,-1.04517,0.10098,-0.24508,0.14485,0.44433,0.02364,-0.3327
412,1.4055,-7.12536,-0.95098,37.91674,39.46798,6.1753,22.06274,4.72801,-20.20484,0.8595,47.63641,7.88775,3.17018,0.14673,-0.48367,1.96482,2.79848,6.49706,26.37825,15.79122,-6.32168,17.77413,-28.0169,12.30531,2.42008,5.97572,4.49092,6.92318,-9.0473,-0.84749,1.66912,-1.9345,-0.07755,3.5244,-0.24203,-4.20162,0.21193,-0.29982,0.05149,0.35756,-0.20762,-0.69379
413,-0.62366,-6.67587,0.49365,39.26436,39.06678,7.03456,26.3221,11.61883,-34.4946,6.53072,39.68768,7.43636,2.9545,0.50877,0.33838,2.13331,2.84403,6.67548,35.67815,0.01722,-40.36121,2.70881,-35.94695,-5.54243,4.21455,7.11062,4.02534,3.53209,-11.32284,-4.93065,1.94667,-2.73737,0.63913,2.99755,-0.34052,-4.88127,0.222,-0.32838,0.04332,0.39748,-0.17244,-0.44236
414,-1.02695,-5.24408,1.1178,37.43901,41.16958,7.1917,25.27821,8.97973,-36.85849,6.62612,43.70966,7.16266,2.70316,0.70299,0.56677,2.19833,2.85057,7.07303,31.77093,0.5135,-53.27673,-1.6782,-28.82833,1.81071,3.59002,6.20499,5.85197,2.84806,-10.63425,-2.58698,2.26312,-3.13704,1.17842,3.33621,0.24381,-1.24124,0.31102,-0.35257,0.05931,0.45938,0.08676,0.35393
415,1.36116,-2.41919,0.4479,32.46742,44.91405,6.79769,18.85391,0.71516,-23.41927,-2.3489,59.89151,8.19224,2.81552,0.50905,0.08739,2.34391,2.85088,7.58034,12.07261,20.77389,-35.59612,1.73825,-20.23174,28.51385,0.98461,3.85361,8.60606,6.25423,-6.41124,6.0213,2.59073,-2.7466,0.94769,3.98939,1.00026,4.0223,0.47813,-0.3825,0.13871,0.45664,0.32879,0.90107
416,3.20063,0.72298,-0.88573,28.74639,48.05378,6.69387,7.18807,-4.54097,-6.87427,-7.92712,78.30959,10.69034,2.80158,0.20522,-0.39232,2.57877,2.90482,7.97753,-7.12459,46.81039,-9.57643,-0.41084,-24.1004,41.59078,-0.85091,2.60222,8.73494,10.34553,-2.04539,12.95192,2.08772,-1.81064,0.68034,4.86013,1.40342,6.73929,0.41397,-0.33626,0.28883,0.53428,0.39658,0.65674
417,2.46698,0.64383,-1.01726,29.10676,49.9353,7.33313,-1.56147,-4.86285,-1.94133,0.94668,91.10194,14.08374,2.3862,0.04076,-0.46621,2.73219,3.09543,8.20443,-0.71665,63.65281,1.26306,-16.23106,-33.16602,23.0795,-0.56133,3.02627,4.66739,9.85807,-1.22482,10.84512,0.5156,-0.80201,0.75334,5.27204,1.19945,5.52067,0.01296,-0.18348,0.35663,0.57239,0.26255,0.01135
418,-0.68937,-1.16201,-0.01672,31.72688,49.28765,8.45194,1.65113,-0.97551,-3.52031,15.53082,87.93761,15.68976,2.04661,0.16225,-0.25907,2.77408,3.31387,8.27125,28.42094,57.1737,-0.09018,-27.16839,-31.30439,-4.63383,0.22265,3.30693,0.71426,4.98189,-3.67408,2.07128,-0.83322,-0.30251,0.93084,4.33349,0.60631,2.07599,-0.37709,-0.06374,0.33787,0.3901,0.02316,-0.38184
419,-2.92746,-1.11925,0.11186,33.13948,46.03682,9.53012,17.04314,4.82589,-4.38512,19.12555,65.44529,13.50775,2.23709,0.49258,-0.05922,2.74104,3.4649,8.2898,54.10152,21.18258,-5.9137,-11.43206,-15.71816,-10.57939,0.30975,2.9897,2.08671,1.09276,-6.3043,-5.21946,-0.3423,-0.86122,1.36232,2.61126,0.19422,-1.43706,-0.32674,-0.12369,0.38526,0.1403,-0.11391,-0.4546
420,-1.95556,-0.86747,0.05348,32.85828,45.15844,10.35114,36.91558,6.71495,-8.69465,10.93011,43.77114,10.14863,2.57988,0.53017,0.00577,2.52955,3.7151,8.56333,65.69105,-23.91426,-18.70194,18.03175,-1.79697,2.95341,0.82429,4.06577,6.99158,0.01717,-6.56287,-7.17318,1.43791,-2.16731,2.74872,1.10542,0.12287,-3.28328,0.02568,-0.26505,0.5473,-0.048,-0.10966,-0.41214
421,0.30308,-2.73832,1.95864,31.5073,49.25629,10.81521,47.39458,1.77283,-16.90904,-0.91438,41.23727,8.48103,2.43266,0.03908,0.04552,2.19935,4.05444,9.15819,62.14166,-46.9241,-33.36025,33.72474,-6.81202,13.1432,1.75382,6.67151,8.97643,0.1537,-4.54214,-4.93461,2.07724,-2.66428,4.27777,0.92564,0.20661,-1.86086,0.10172,-0.21279,0.61602,-0.00959,-0.04819,-0.14161
422,1.91941,-3.4161,3.4333,28.91896,54.04251,10.83511,35.0995,-3.81614,-19.34757,-13.70082,49.96854,7.72506,1.83341,-0.33564,0.10451,2.10445,4.19459,9.77156,33.54817,-36.73136,-34.98328,31.28588,-27.22456,12.45243,1.31687,7.23713,5.32908,1.484,-2.50826,-0.5834,0.65123,-1.33002,3.53016,2.11869,0.3955,1.59224,-0.18318,0.06452,0.36382,0.27536,0.02911,0.36885
423,3.1142,0.97292,-0.63629,26.27945,56.98395,10.76075,4.70753,0.07774,-9.57274,-25.33572,57.67602,7.07823,1.34157,0.09661,-0.0075,2.31133,4.10671,10.25753,-15.57895,-4.64068,-21.02508,20.64847,-37.19187,8.4901,-0.1074,3.86665,-0.91389,4.01734,-1.98227,3.70014,-0.95455,0.67969,0.12332,2.94617,0.61453,3.53712,-0.29106,0.26123,-0.0781,0.46913,0.09659,0.73071
424,4.58573,8.0089,-9.52848,24.82426,59.64641,11.03073,-16.17509,16.52424,7.19014,-33.202,62.59551,7.32626,1.40103,1.1119,-0.32674,2.46947,3.99502,10.69914,-49.30052,27.66529,-0.89181,6.06157,-18.51329,5.00365,-0.28632,0.30351,-4.65818,5.64121,-2.60341,5.32332,-0.62954,1.31732,-3.0616,2.48268,0.67187,2.85698,0.00294,0.15541,-0.33284,0.38294,0.10364,0.71085
425,6.46806,11.42631,-15.13947,24.68054,62.91866,11.72432,-4.41802,33.66699,17.23078,-35.82267,66.59342,9.25581,2.02791,1.89441,-0.51149,2.49846,3.99667,11.11629,-31.24415,41.51085,15.7987,-4.99946,11.60305,3.6192,-0.06677,0.10873,-2.43476,4.8965,-3.24225,3.62845,1.28507,0.40754,-4.05738,1.85109,0.56704,1.74166,0.32071,-0.08128,-0.30471,0.22742,0.05467,0.50341
426,8.39793,10.03011,-13.58574,25.76288,67.3929,12.61939,24.00962,36.50001,13.2191,-34.63324,74.9172,13.01934,2.82581,2.16453,-0.39195,2.54989,4.20657,11.50129,16.40719,39.44059,20.51503,2.8278,18.82686,8.8448,-2.67271,1.3009,5.162,3.06804,-3.23851,0.74228,2.53591,-0.4112,-3.7434,2.07838,0.53053,1.76563,0.32026,-0.1716,-0.16369,0.20675,0.02555,0.30043
427,9.02673,7.67325,-10.21968,27.20866,72.18673,13.25731,35.18753,26.53442,2.20782,-36.23705,87.67252,16.34445,3.33421,2.19754,-0.26726,2.43878,4.57337,11.78303,32.45065,31.95654,8.98949,29.17923,-4.53143,17.30523,-7.75949,0.97297,13.06726,2.19644,-2.83462,-1.04688,1.65681,-0.18683,-3.09441,2.73277,0.65113,2.09866,0.06956,-0.08119,-0.01455,0.26538,0.04795,0.08478
428,7.94947,6.39475,-9.35757,27.20838,75.34988,13.23225,29.94252,17.92919,-4.84625,-46.39773,96.83516,15.99004,3.47492,2.03877,-0.255,1.87564,4.9342,11.8824,7.01338,19.23138,-9.31247,47.59357,-28.64618,16.50823,-10.04696,0.25678,14.89281,2.83546,-2.6146,-0.56189,-0.32063,0.25047,-1.51956,2.70941,0.66051,1.74602,-0.17922,-0.00061,0.14376,0.21223,0.04371,-0.10405
429,7.99898,5.64986,-9.45473,25.39223,77.6897,12.72358,36.0667,19.86417,-4.06802,-61.80503,98.29869,12.3627,3.53105,1.6258,-0.11077,1.03068,5.20047,11.86192,-11.95299,5.23877,-15.15943,38.05991,-24.09365,2.48067,-5.79135,1.16352,8.7305,3.64367,-2.26832,1.90944,-1.1458,-0.06637,1.10496,1.4434,0.30666,0.89266,-0.25368,-0.06936,0.29742,-0.02114,-0.03189,-0.15808
430,9.55219,5.23576,-9.75543,24.081,80.97244,12.40538,58.22546,32.22886,1.99629,-71.61852,94.40748,8.88094,3.54469,1.16796,0.14267,0.38532,5.3498,11.78473,2.49249,4.0781,-1.38461,16.1498,-0.91882,-13.27751,1.5043,2.18596,-0.47457,2.58978,-0.84423,4.4028,-0.11553,-0.62948,2.41255,-0.41472,-0.30656,0.51706,-0.09867,-0.16232,0.25732,-0.26346,-0.10691,-0.02773
431,7.36434,4.9521,-10.66118,24.32402,84.80222,12.52925,72.05757,44.49672,6.83417,-72.6918,89.03578,7.42191,3.18335,0.83953,0.22256,0.09868,5.51675,11.65584,21.73387,11.96846,15.66116,5.47456,8.69769,-19.425,5.56756,1.46574,-5.93215,0.29241,0.63683,4.96702,1.55327,-0.62735,0.60991,-1.12587,-0.72373,1.49306,0.22626,-0.12071,-0.05165,-0.24294,-0.11605,0.286
432,-0.43306,4.10863,-9.97403,24.3911,86.74971,12.71524,60.48904,41.34421,5.5667,-72.72977,81.59367,6.81601,2.37119,0.63219,0.06274,0.02595,5.95074,11.44538,10.1115,0.75502,17.47036,4.06589,-3.994,-17.34149,4.86523,0.61844,-5.94533,-0.16547,0.19213,3.45665,2.49395,-0.24179,-2.24558,0.3814,-0.44953,3.38316,0.43006,0.01,-0.30424,0.12522,-0.04989,0.65222
433,-7.17121,3.20133,-7.63678,23.19704,85.7401,12.64073,37.77387,26.97067,1.44962,-77.60155,71.06052,5.6138,1.64555,0.63215,-0.15438,0.10139,6.71197,11.12643,-23.42857,-29.18226,9.40449,8.18451,-19.01604,-13.11871,2.22547,1.05229,-3.94365,1.55237,-1.2504,1.54997,2.46989,0.04321,-3.97258,2.70687,0.33692,4.73179,0.31547,0.11776,-0.37016,0.53851,0.05567,0.8229
434,-6.36211,3.64493,-7.3622,20.70454,83.48024,12.11864,33.13599,22.25962,-0.40964,-86.60583,62.7191,3.73178,1.68081,0.86317,-0.1911,0.32767,7.51485,10.7265,-41.22383,-41.42969,7.40862,31.85884,-17.99011,-7.36321,-0.13165,1.99977,-1.71449,2.62932,-1.6596,0.48307,2.41582,0.08614,-4.58694,3.5218,0.85395,4.54951,0.19993,0.15623,-0.46471,0.57373,0.11143,0.6497
435,-0.67475,5.60709,-10.50538,17.96501,81.85848,11.26312,52.39341,32.32852,-1.04586,-92.86709,62.28854,2.46236,2.39407,1.0699,-0.0221,0.87356,7.9518,10.28255,-26.49761,-21.73665,12.48252,69.10622,-4.56242,-0.82346,-1.87726,2.69819,1.25017,2.37613,-1.67402,-0.27707,2.71184,0.03096,-3.99931,2.61881,0.84143,3.10254,0.35578,0.13809,-0.56311,0.22198,0.07611,0.248
436,2.56745,7.63839,-13.87963,15.83582,81.85331,10.40782,72.12204,43.56131,-2.59429,-94.42901,70.64706,3.42134,2.9115,1.00071,0.1268,1.76591,7.87687,9.84426,-4.79835,11.65889,17.96673,77.94668,4.37816,-0.68563,-1.40867,2.35207,1.61811,2.55424,-2.47036,-0.82934,2.67694,-0.08652,-2.81259,1.6013,0.68779,1.78294,0.50979,0.06888,-0.56353,-0.10901,0.00439,-0.03134
437,0.91018,7.85061,-13.40596,13.71894,83.03516,9.60922,72.09717,43.90699,-3.05443,-97.28199,83.56458,5.85435,2.69667,0.62267,0.14996,2.44038,7.47113,9.41955,-8.98862,34.65797,22.03097,37.21849,1.49338,-10.7417,2.90323,0.73247,-4.12608,3.51116,-3.35316,-0.97989,2.26247,-0.42681,-2.88437,1.49766,0.70447,1.43239,0.37703,-0.05578,-0.60718,-0.09496,-0.02618,0.01671
438,-1.5635,5.56489,-8.58789,11.87739,82.15944,8.84576,57.03527,30.96486,-0.93192,-99.84084,90.19547,6.76282,2.2031,0.12419,0.11663,2.38475,6.93721,8.85429,-31.83663,27.11652,22.65342,-16.44573,-3.6647,-21.77517,7.67893,-0.17899,-11.16309,3.5732,-3.32689,-1.64681,2.26946,-0.81111,-4.32701,1.835,0.7753,1.40913,0.14403,-0.15052,-0.7307,0.1634,0.00205,0.18615
439,-0.94612,2.73168,-3.83153,11.6265,77.33289,8.37372,46.45937,16.43971,0.88386,-94.83653,84.12233,5.7254,2.07409,-0.20362,0.07796,1.95839,6.45125,8.11263,-39.53068,-0.62248,18.94928,-33.55608,-0.67717,-21.83827,7.2088,1.50327,-11.3263,1.98378,-2.71124,-2.87601,2.64316,-0.69409,-4.67685,1.72312,0.55836,1.16388,0.09122,-0.10219,-0.64319,0.31689,0.02831,0.17914
440,1.62088,2.12827,-3.2893,12.5563,71.64278,8.31072,52.75174,18.75451,-1.18668,-86.10079,74.05798,5.68964,2.31291,-0.34061,0.08723,1.97125,6.18221,7.46424,-21.51626,-6.78592,16.75771,-6.82216,8.29496,-11.62422,1.5462,4.61306,-4.41956,-0.28573,-2.33304,-2.94649,2.51244,0.04369,-2.45288,1.01303,-0.19267,1.47281,0.20388,0.07791,-0.17204,0.18015,-0.05651,0.087
441,2.73377,3.16176,-4.88488,11.74435,68.552,8.06354,69.26103,35.121,-5.66021,-86.64473,72.48877,7.80596,2.5155,-0.58945,0.18045,2.54286,6.03805,7.03997,-3.34861,19.78236,21.84686,34.132,15.43875,-1.1173,-3.71676,6.06243,2.42149,-1.89416,-2.22858,-1.12884,2.08037,0.75016,-0.07284,0.31788,-1.14142,2.77701,0.36259,0.24598,0.21731,-0.07186,-0.24943,0.2001
442,-0.41596,2.39862,-3.46758,7.86863,67.17525,7.0356,76.95326,40.2667,-6.40402,-98.27769,78.9865,9.5116,2.32357,-1.14259,0.27484,2.94479,5.73153,6.57213,-10.8088,36.83859,31.67704,61.92832,17.47939,5.0487,-5.15419,4.11293,4.62535,-1.81886,-1.73496,1.34813,2.36597,0.68407,-0.60617,0.15784,-1.45482,3.76399,0.49624,0.24553,0.0042,-0.16253,-0.35544,0.44003
443,-7.65267,-0.40736,0.82744,3.69198,64.23823,5.54095,68.16257,25.28819,-1.19972,-107.91872,81.85458,7.98889,1.70203,-1.70668,0.22798,2.6212,5.20341,5.81141,-34.63571,14.81277,39.00487,68.93782,15.26075,8.29573,-4.13179,0.44793,3.53116,0.0034,-0.65989,2.66373,3.1661,-0.09755,-3.16254,0.60746,-0.64722,3.19941,0.49166,0.07789,-0.54499,-0.02249,-0.19805,0.45798
444,-15.2073,-0.79015,2.79465,2.017,58.56575,4.31266,53.11983,10.23085,3.75182,-105.16424,73.79275,3.69094,0.91587,-1.65935,0.04363,1.84647,4.75547,4.87795,-46.52679,-20.97882,38.70882,59.39138,11.86824,6.27706,-2.646,-1.02246,1.41248,1.51518,0.05661,0.91535,3.66783,-0.73338,-4.64381,1.23216,0.72473,1.63119,0.37601,-0.09241,-0.81533,0.16096,0.1084,0.19549
445,-15.2389,2.23899,0.80557,2.32436,52.89711,3.63964,46.18028,6.81456,3.497,-93.68477,62.42571,0.0834,-1.81617,-0.50622,0.08881,1.22324,4.72434,4.09982,-37.1441,-33.71968,31.81155,42.00904,11.29372,-6.59831,-0.60132,1.27281,-1.49133,0.72651,-0.76162,-4.32179,3.9343,-0.60569,-4.16652,1.49841,1.6633,0.35644,0.32161,-0.12716,-0.6878,0.19832,0.27367,-0.04122
446,-17.44808,5.05482,-0.85214,1.98236,49.48006,3.09892,28.44219,4.25177,2.15342,-87.44563,57.4995,-1.27597,-4.3932,0.4429,0.07533,0.89262,5.01612,3.54984,-50.19384,-28.15635,22.61267,26.93665,12.64664,-27.85218,2.41302,4.1415,-4.8654,-0.5044,-2.82924,-9.75226,4.22724,-0.14275,-3.35306,1.68774,2.07263,0.05582,0.36104,-0.06254,-0.49007,0.19165,0.25869,-0.02656
447,-15.33029,5.87675,-1.9717,-0.17688,46.07703,2.26134,14.10728,-0.3656,0.35103,-92.94966,53.86779,-2.70292,-7.14373,1.17561,0.03017,0.6083,5.19106,2.97555,-79.48811,-20.68082,11.21997,21.57569,8.4224,-42.1585,5.15127,4.31774,-6.83689,1.49923,-4.31813,-10.23685,4.69374,0.05247,-3.46032,2.34436,2.46652,0.6793,0.49355,0.02454,-0.45964,0.3033,0.25249,0.1235
448,-6.28821,5.99974,-3.7636,-3.00207,40.68699,1.34964,16.56919,-0.60647,-4.2785,-101.03687,43.34406,-5.31935,-9.47576,1.79889,-0.02385,0.23899,5.0274,2.26961,-93.1092,-19.00637,-1.84188,26.02346,-2.59255,-35.85028,6.09043,3.06321,-6.22385,6.04836,-3.66247,-4.185,5.51341,0.27952,-3.78953,2.9581,2.52395,1.76196,0.75428,0.15976,-0.49879,0.38972,0.25859,0.15359
449,7.80751,4.70914,-5.22496,-4.97281,35.7965,0.79384,39.98421,0.02288,-9.89354,-100.16445,32.06923,-6.49355,-11.56356,2.35513,0.01773,-0.16317,4.61888,1.60107,-67.21246,-20.52029,-8.38846,34.03141,-5.63016,-17.17037,5.91774,3.02847,-4.64037,7.95125,-1.34726,3.29769,6.00002,0.88752,-3.15513,2.66232,1.69426,2.60521,0.92131,0.29845,-0.40706,0.27181,0.14821,0.02948
450,19.66704,0.70028,-4.4385,-5.85911,34.02637,0.55374,70.5829,-6.75653,-10.92835,-90.76433,30.74515,-4.44521,-14.39675,2.81876,0.13651,-0.62687,4.01434,1.08447,-17.82487,-21.77969,-2.0753,41.97417,9.50161,-9.94893,6.47419,4.28124,-4.51798,4.70242,0.05853,4.17589,5.24525,1.36337,-1.84592,1.82902,0.85691,2.59912,0.72366,0.27946,-0.22385,0.13265,0.04762,0.00398
451,22.83879,-4.40469,-1.66003,-7.23529,34.13602,0.22194,85.91264,-18.79998,-5.75111,-83.94589,38.6903,-1.16365,-18.62436,3.35145,0.21181,-1.3288,3.21511,0.70586,12.24949,-21.02721,11.4368,46.5852,25.48677,-21.40267,7.26836,5.1816,-5.89891,-0.47737,-1.09099,-2.40061,3.81184,1.08675,-1.32852,1.32611,0.9565,2.01227,0.35213,0.08584,-0.22656,0.16098,0.10225,0.23889
452,18.05718,-7.66499,1.05998,-10.47293,33.74263,-0.35938,76.36966,-26.61945,1.3895,-86.44201,48.13012,1.08001,-23.97067,4.29671,0.17488,-2.34943,2.39554,0.47537,-0.7932,-14.0235,21.48539,42.0667,20.24277,-34.23363,5.81293,4.77064,-6.77975,-3.56391,-2.91787,-8.49942,3.01813,0.21486,-2.24601,1.19723,1.4541,1.62002,0.19978,-0.10045,-0.53589,0.21831,0.19302,0.47938
453,10.33403,-8.71432,2.72692,-14.18987,32.24539,-0.9251,51.16107,-27.17504,6.7906,-91.1571,54.78862,2.35807,-29.90676,5.86422,-0.02329,-3.55225,1.70999,0.34605,-39.91703,0.66016,24.33238,34.73056,-0.14731,-33.58364,1.11076,3.75035,-5.56278,-3.21816,-3.23776,-9.59973,3.10876,-0.41792,-3.36516,1.16406,1.8927,1.10317,0.28908,-0.13713,-0.83986,0.16203,0.25228,0.32606
454,3.59701,-8.74813,3.5278,-15.79856,29.73778,-1.2098,27.19188,-24.0522,9.88778,-88.09479,56.02416,2.91587,-36.05414,8.03824,-0.41628,-4.7091,1.06614,0.15971,-70.92458,15.75447,22.5243,41.14053,-14.22389,-21.37355,-4.94811,3.31961,-2.53249,-0.41192,-2.84596,-8.83217,3.33126,-0.18254,-3.18427,1.10478,2.47777,-0.19727,0.37932,-0.02799,-0.76609,0.04216,0.32557,-0.18505
455,-0.45796,-8.50427,3.58293,-15.43717,25.97281,-1.22296,16.89558,-21.25512,10.47503,-77.37942,48.4775,2.41317,-42.04172,10.50356,-0.94398,-5.63757,0.35594,-0.13387,-73.37431,22.33269,18.71335,58.60672,-11.76095,-8.35596,-7.99984,3.66,-0.16329,2.8056,-2.73646,-8.51375,3.4143,0.63586,-2.05203,1.11038,3.21927,-1.47099,0.39489,0.1395,-0.4265,-0.016,0.43217,-0.58581
456,-1.31877,-9.36657,3.3049,-15.43892,22.40261,-1.05827,21.29223,-24.69267,9.1326,-64.62405,37.65133,2.60181,-47.64973,12.69507,-1.51372,-6.38042,-0.31247,-0.35648,-49.08807,20.00279,15.56975,63.2019,2.73467,-4.64659,-4.15038,4.25925,-0.99685,4.3905,-2.25122,-7.16647,3.99185,1.3,-1.55009,1.36638,3.62411,-1.30746,0.47179,0.27216,-0.26864,0.0526,0.49838,-0.54196
457,-0.04394,-12.96467,3.61484,-16.24243,20.77796,-0.82869,28.50137,-38.78793,8.74636,-53.24569,33.54305,4.77463,-53.11832,14.27736,-2.12421,-7.24233,-0.83834,-0.40789,-20.64974,11.20034,14.59263,45.45877,18.51438,-11.829,4.88029,4.98641,-4.41355,3.49895,-1.33365,-4.54385,5.4961,1.58914,-2.22372,1.82887,3.23103,0.27839,0.69691,0.35171,-0.44433,0.21849,0.4316,-0.14151
458,0.57498,-17.75433,4.44376,-15.98172,19.15602,-0.69093,24.24897,-54.8135,10.48039,-45.02671,31.96176,5.37258,-58.93675,15.48205,-2.81082,-8.35396,-1.29956,-0.44237,-15.29898,-4.33126,11.14402,18.47877,28.52279,-20.19089,11.76224,6.19191,-7.11441,2.33286,-0.74251,-2.31401,7.17836,1.90634,-2.95374,2.25069,2.56947,1.73383,0.93317,0.41638,-0.65558,0.40222,0.3196,0.27907
459,-0.83686,-21.0052,4.9187,-13.38749,16.08016,-0.42395,10.59529,-61.47658,12.33819,-39.79299,24.78275,2.44938,-65.23761,16.65531,-3.55457,-9.36982,-1.63945,-0.46089,-31.40262,-21.6575,3.69498,-7.21405,31.4022,-20.15474,11.24109,8.05522,-7.07876,3.63676,-0.69526,-1.10712,7.6047,2.52021,-2.49874,2.21662,2.30404,1.73496,0.97518,0.45809,-0.61895,0.45407,0.26036,0.43079
460,-3.11672,-22.79863,4.8681,-10.23046,12.83282,0.09318,2.55986,-61.67094,13.05255,-36.4575,14.51996,-0.8807,-71.66718,17.79082,-4.33071,-9.95853,-1.78123,-0.35313,-43.06603,-34.65509,-0.44892,-22.40424,27.934,-15.0754,6.36814,9.86205,-5.48314,6.00737,-1.15399,-1.16618,6.53376,3.12825,-1.121,1.62275,2.33858,0.6131,0.84972,0.45005,-0.40298,0.29752,0.21915,0.27439
461,-5.12518,-24.67906,4.67589,-9.53565,10.4905,0.37622,6.14803,-63.18871,13.06187,-34.79293,8.09611,-2.179,-77.82034,18.64189,-5.14957,-10.21251,-1.90916,-0.2096,-37.76902,-39.94581,2.32967,-13.15352,25.6102,-15.18279,3.61966,9.83462,-4.07144,5.41546,-2.71084,-3.96122,5.32952,3.18778,-0.16282,0.98221,2.44458,-0.47305,0.74121,0.40904,-0.24142,0.07308,0.175,-0.02879
462,-7.00655,-27.23081,4.46623,-11.60299,8.87443,0.08647,14.94321,-66.1535,12.25003,-33.21444,6.9752,-2.29401,-83.57095,19.0074,-6.03138,-10.33676,-2.21264,-0.17257,-21.60717,-35.11095,5.86251,14.78487,32.732,-21.42021,4.09814,7.25875,-2.96771,1.62172,-5.60536,-9.3906,5.01006,2.60603,-0.23591,0.68549,2.59898,-1.25331,0.70958,0.36727,-0.21014,-0.04677,0.15957,-0.33001
463,-9.38262,-29.54282,3.90729,-14.02459,7.81407,-0.40371,21.0121,-65.85973,9.66392,-29.92712,8.94689,-1.87378,-88.998,18.98103,-6.93892,-10.3041,-2.57101,-0.18513,-5.63283,-18.67047,4.28825,35.12223,39.48,-23.98724,4.57038,4.95862,-2.21779,-0.72241,-7.53953,-12.8487,5.3479,2.0954,-0.63633,0.53181,2.74378,-2.09835,0.71872,0.35468,-0.23234,-0.0361,0.23681,-0.55716
464,-12.10963,-30.71095,2.86425,-14.44392,7.83714,-0.43139,19.88585,-60.94481,5.992,-23.94044,13.79554,0.66376,-94.16177,18.91658,-7.78458,-9.97486,-2.6852,-0.04889,1.28578,7.72852,-0.18659,36.49007,25.48496,-16.89327,4.00666,6.13346,-2.48659,0.97819,-5.69929,-9.88147,5.78892,2.35733,-0.54927,0.29756,2.60407,-2.49519,0.77529,0.40173,-0.23968,0.02275,0.4031,-0.61751
465,-14.62113,-31.39949,1.92789,-12.40784,7.76924,0.09247,12.56194,-56.20458,3.94346,-15.08018,16.94826,4.38362,-98.98473,19.10782,-8.53518,-9.34,-2.56955,0.21289,-0.24234,29.4909,-2.49908,28.89467,-7.5461,-6.93198,3.8249,9.2385,-3.41605,3.8112,-1.62773,-3.0259,5.84247,2.96187,-0.063,0.15939,1.96517,-1.60909,0.81882,0.47349,-0.20354,0.03037,0.44522,-0.45758
466,-16.86392,-33.23532,1.84712,-9.67173,6.26801,0.64661,5.74103,-59.19174,5.11392,-6.97876,12.28739,5.42547,-103.25797,19.5944,-9.23751,-8.55574,-2.48638,0.36978,-1.68089,26.65553,-0.82375,17.74114,-32.49395,-5.03922,4.39465,10.38805,-3.7741,4.75389,0.16749,1.32928,5.24748,3.03296,0.27939,0.29053,1.11474,0.06044,0.71576,0.48859,-0.12055,-0.05795,0.13098,-0.14632
467,-18.49674,-36.23943,2.33179,-8.59664,4.72979,0.75155,6.56574,-70.65151,7.49369,-4.712,4.03001,2.92034,-106.79994,20.34578,-9.90142,-7.83808,-2.48887,0.33741,3.47266,2.80658,2.38069,0.69675,-30.47187,-10.95699,4.46997,8.98736,-3.07098,5.44376,-1.17173,1.1117,4.38346,2.64742,0.38103,0.65189,1.09409,0.88898,0.50035,0.46244,-0.01075,-0.13317,-0.26711,0.15609
468,-19.44901,-38.8196,2.57689,-9.42825,4.47558,0.3354,12.88142,-82.17108,8.65199,-6.07566,1.77167,0.03733,-109.62263,21.40486,-10.51567,-7.24155,-2.45521,0.22669,13.13591,-13.54618,3.82913,-13.59168,-8.62866,-13.43289,2.97189,7.05162,-1.79315,8.09396,-2.59184,-1.25382,4.04477,2.37869,0.44786,1.05498,2.42655,-0.22788,0.43476,0.46672,0.05655,-0.04189,-0.22761,0.1975
469,-21.51328,-40.15659,2.63461,-10.05902,4.65015,-0.22615,12.01669,-86.92916,9.52942,-4.57505,7.84127,-0.05542,-111.85729,22.80161,-11.13047,-6.58713,-2.32196,0.17168,14.39002,-4.46812,3.72733,-10.19954,12.81886,-7.97616,1.09775,6.00695,-0.99987,10.45104,-2.51508,-3.30861,4.6806,2.20345,0.41893,1.46342,4.11485,-2.07475,0.70203,0.45434,-0.02388,0.20263,0.24385,-0.05351
470,-25.73251,-40.67958,2.95417,-9.47947,4.47805,-0.49437,-1.35451,-86.94545,11.81833,-1.13713,16.13373,2.52968,-113.55163,24.49915,-11.75907,-5.82503,-2.10545,0.22651,-1.69828,16.17554,4.5403,6.37999,17.48316,-4.18828,1.33276,6.88345,-1.57054,9.20033,-1.86362,-3.99278,5.75473,1.99483,0.33751,2.02387,5.00046,-2.27621,1.08143,0.34243,-0.21093,0.41835,0.7049,-0.29143
471,-29.73816,-41.11458,3.39395,-8.96734,4.37541,-0.38046,-15.89516,-87.5876,14.4016,-0.59025,19.38257,4.9838,-114.64632,26.3868,-12.33696,-5.15865,-1.82945,0.35108,-21.99294,24.43242,6.11984,16.04215,4.6922,-8.95948,3.05081,9.24054,-2.6935,5.6388,-1.33532,-3.03124,5.89636,2.00562,0.57629,2.42841,4.75329,-0.70544,1.1089,0.22512,-0.24767,0.45023,0.85794,-0.30386
472,-30.98072,-41.9057,3.53099,-9.16944,4.39335,-0.07842,-21.38495,-91.04532,15.17601,-1.23075,15.05417,5.22345,-115.12908,28.26215,-12.84168,-4.65379,-1.49788,0.44177,-27.40947,14.1323,5.24573,11.60959,-11.65236,-15.91957,3.56753,9.84774,-2.7031,4.07149,-1.12122,-1.40861,4.46154,2.09859,0.98656,2.0975,3.6539,0.27518,0.63693,0.22514,-0.03187,0.33326,0.71163,-0.21956
473,-29.81188,-42.63057,3.12329,-9.73174,4.14633,0.14302,-19.69229,-96.38869,13.70395,-0.33316,7.15305,3.73815,-115.08862,29.9103,-13.28702,-4.15175,-1.09393,0.44746,-19.75192,-3.50826,1.4313,2.90111,-18.67966,-16.68645,3.3801,7.03645,-1.66524,5.70046,-1.75794,-0.74485,2.73868,1.80972,0.91493,1.20911,2.34286,-0.57389,0.07123,0.28782,0.1784,0.19315,0.36866,-0.18328
474,-28.21493,-42.52493,2.29154,-10.49784,3.88751,0.12936,-16.62286,-101.8127,11.31302,0.43392,2.04833,1.95964,-114.65876,31.2223,-13.66314,-3.51659,-0.63176,0.43131,-13.98648,-16.07461,-1.90927,-1.82661,-13.6653,-9.52613,3.74116,3.50305,-0.6837,8.67381,-3.0359,-1.14191,2.28816,1.29753,0.46156,0.72154,1.88782,-1.94839,-0.12143,0.33077,0.20991,0.08838,-0.00322,-0.13357
475,-26.83914,-41.92413,1.54035,-4.77165,5.22935,-0.04133,-13.05298,-106.07859,9.97649,13.30805,3.97459,1.65563,-113.89605,32.17855,-13.96487,0.23578,0.75072,0.14143,2.49607,-15.41125,-1.40251,-5.5763,-2.3578,0.73638,2.65573,1.95895,0.19029,11.79328,-4.33677,-2.15403,2.67786,1.07321,0.41914,0.95187,2.97104,-3.11779,0.02261,0.34693,0.2171,-0.00822,-0.17388,-0.17109
476,-24.58765,-41.87291,1.26439,-3.72569,6.51589,0.03654,-6.3808,-109.40755,10.84544,16.73842,10.13979,2.99278,-112.69425,32.71504,-14.1974,0.49522,0.7643,0.29832,14.19999,-8.77529,4.10691,-14.92158,7.91705,4.65183,-0.92804,2.21222,1.1299,13.52717,-5.35457,-3.62521,2.54109,1.16821,0.94389,1.29936,4.71219,-4.36714,0.16687,0.3299,0.30808,-0.08316,-0.00321,-0.45706
477,-21.25056,-42.36474,1.27204,-1.09709,7.22703,0.3113,1.23063,-111.55867,13.30314,23.44169,14.74454,4.89357,-110.89797,32.65617,-14.36756,0.69629,0.60845,0.47885,33.05787,-4.07491,10.43374,-26.16203,14.54205,-2.49853,-3.52362,2.96121,1.30975,12.26357,-5.05865,-4.18972,1.81134,1.13481,1.28722,1.40631,5.51456,-4.75461,0.18713,0.24521,0.33108,-0.05393,0.39331,-0.71014
478,-18.06803,-42.31057,0.98231,0.66981,6.19097,0.46787,4.37496,-109.94197,14.94563,27.13083,12.66735,4.66876,-108.39827,31.83921,-14.45973,0.68192,0.36496,0.53412,41.50813,-6.87252,11.85948,-24.8705,15.37867,-11.48071,-2.78816,3.11033,0.3231,9.92479,-2.7656,-2.57517,1.31772,0.62934,0.83325,1.23296,4.63986,-3.80956,0.16984,0.10264,0.1635,0.03799,0.61436,-0.66991
479,-16.34896,-41.28744,0.16967,-0.07604,5.06026,0.45451,0.34555,-101.45911,13.21981,22.01064,8.51092,3.49737,-105.13201,30.28479,-14.44314,0.52434,0.23087,0.46271,29.14079,-6.23958,8.6659,-3.49235,8.57187,-8.74574,-1.83191,2.39268,-0.6764,9.63606,0.09424,0.35356,1.32098,-0.00866,0.01258,1.17036,3.03477,-2.43441,0.16998,0.01162,-0.03817,0.14373,0.48645,-0.45487
480,-16.06281,-40.56592,-0.62107,-2.18918,5.61652,0.48091,-9.49949,-88.29581,8.46342,9.3089,8.68851,3.91803,-101.18716,28.26365,-14.31914,0.40314,0.30728,0.39584,1.89553,5.41327,4.4582,20.21274,2.57408,3.90182,-2.82945,1.67702,-0.57125,10.38868,1.12956,2.36686,1.62111,-0.12817,-0.23972,1.75647,2.0921,-1.23451,0.18895,0.05834,-0.06117,0.30533,0.27623,-0.26601
481,-14.87097,-41.26655,-0.90786,-2.42339,5.74379,0.58424,-18.192,-78.31953,3.66625,3.01291,7.90016,4.04612,-96.8505,26.2114,-14.06298,0.44043,0.40431,0.37598,-13.26434,13.11294,-1.36972,20.13134,10.46724,10.35272,-3.52751,1.19306,0.20494,9.91001,-1.06633,1.46665,1.90855,0.14335,0.08463,2.77951,2.49065,-1.07726,0.21859,0.15299,0.0421,0.49751,0.29746,-0.3121
482,-10.66417,-42.38049,-1.00972,0.27718,3.23819,0.63318,-19.45111,-74.96688,0.97767,13.33585,-0.29514,1.57126,-92.44775,24.46085,-13.62533,0.61148,0.34849,0.38628,2.94286,5.67171,-9.88804,-0.79996,29.45138,1.50295,-2.5472,0.30055,0.59878,8.4511,-5.88383,-2.17522,1.97308,0.15249,0.20434,3.64608,4.42682,-2.49353,0.29274,0.14943,0.05957,0.58594,0.70072,-0.55807
483,-4.60585,-42.6824,-1.14872,2.95249,0.20217,0.53116,-16.75376,-73.84734,1.04336,26.61313,-7.50046,-0.31628,-88.15517,23.057,-13.06595,0.68759,0.19782,0.38038,25.87112,-1.72402,-14.91681,-15.93443,40.87014,-14.42632,-0.49947,-0.04804,0.38276,6.64407,-10.45286,-5.91652,2.29409,-0.04658,0.0844,3.80248,6.68911,-4.35773,0.46146,0.06616,-0.03494,0.46824,1.23694,-0.73849
484,0.20168,-42.80806,-0.76121,3.30534,-0.70921,0.20538,-17.58712,-72.40819,4.17382,24.31147,-3.30871,1.67301,-83.93237,21.84628,-12.52696,0.52793,0.00757,0.21578,20.14506,4.44558,-9.81664,-12.38686,34.75427,-21.3114,1.5896,1.65935,0.16449,4.51209,-10.94763,-6.52156,2.96256,0.13219,0.41611,2.62234,6.23419,-4.88085,0.54225,0.04528,-0.03812,0.18038,1.14986,-0.73898
485,2.73567,-43.17753,0.2245,2.35424,-0.39973,-0.38019,-21.69576,-73.04648,8.91104,10.39243,6.35543,4.39666,-79.60638,20.68004,-12.00518,0.32104,-0.26909,-0.19746,-7.60625,13.19149,0.49322,0.34093,20.29372,-11.06201,1.81066,4.24723,0.32812,2.14353,-5.74949,-2.1452,2.83322,0.64711,1.14987,0.43972,2.04956,-2.00491,0.26717,0.12658,0.15244,-0.18848,0.14964,-0.25356
486,4.47009,-42.94178,0.95427,1.50543,-1.06668,-1.02746,-23.14115,-76.75819,12.01755,0.62171,8.49485,3.13452,-75.11489,19.53067,-11.3851,0.28666,-0.5917,-0.70222,-26.46038,9.39831,5.04475,7.76284,7.71206,6.96364,-0.16928,4.80852,0.45325,1.49296,1.62522,3.94919,1.59588,0.71766,1.3365,-0.35804,-1.30774,2.76307,-0.14818,0.16739,0.31269,-0.33546,-0.71435,0.65001
487,6.49403,-42.34883,1.16187,0.92932,-3.07154,-1.36926,-18.19333,-81.7743,11.75686,0.59779,0.85765,-1.33641,-70.60104,18.4684,-10.68149,0.39881,-0.81547,-1.00138,-21.6636,-6.22536,1.18531,2.43863,-2.76136,15.02965,-2.06834,2.7548,0.10361,4.27165,4.05063,4.58499,0.53945,0.0388,0.59109,1.40799,-0.29017,2.85797,-0.22541,0.05702,0.21253,0.00735,-0.56307,0.65903
488,8.2916,-42.4724,1.38399,1.49904,-5.05702,-1.26557,-9.17853,-85.45583,9.09714,8.64112,-8.55747,-4.23987,-66.23423,17.53559,-9.99521,0.63686,-0.85156,-0.90643,3.03306,-22.47041,-5.40772,-9.88228,-7.74946,7.96569,-2.12332,0.65813,-0.33701,7.49484,0.3627,0.12542,0.44176,-0.54301,-0.20468,3.80265,2.77502,-1.6297,0.03527,-0.07212,-0.00422,0.5184,0.17976,-0.37366
489,9.02645,-42.96069,1.8235,-0.06156,-3.58507,0.04532,-3.32606,-85.74343,6.32054,12.16717,-8.49851,-1.23523,-62.12175,16.63702,-9.35956,-2.48263,0.36527,0.39868,20.99585,-28.32565,-7.22367,-16.36127,4.62574,-3.84265,-1.04464,0.22103,-0.30464,8.31689,-3.89446,-2.56516,0.81935,-0.35315,-0.26707,4.88528,4.78553,-4.2209,0.24613,-0.0511,-0.08698,0.73716,0.80962,-0.98411
490,9.88202,-42.49453,2.0527,2.34162,-3.52039,0.40802,-2.30304,-82.58287,5.23005,21.86431,-9.28135,0.78412,-58.35998,15.67982,-8.72588,-3.22156,1.03702,1.07831,35.76307,-31.03017,-8.13268,-12.77216,30.59208,-9.59619,0.43727,-0.06073,0.04774,6.74882,-5.35796,-1.52984,1.406,-0.03017,0.02049,3.6076,4.07054,-3.39685,0.27112,0.04749,-0.04001,0.47256,0.7889,-0.72028
491,12.75541,-41.59911,2.0614,2.69179,-4.01516,0.60731,0.89115,-80.27752,6.3591,21.49128,-10.09427,1.1159,-55.00446,14.68431,-8.09297,-4.35768,1.69886,1.58139,36.35794,-31.58091,-5.33734,-5.60008,42.92007,-7.81878,4.32154,-1.97532,0.18485,4.3734,-4.08177,0.31566,2.83854,-0.47197,0.04192,1.40172,1.9385,-1.67211,0.34086,0.06693,0.0026,0.09299,0.36638,-0.28301
492,15.79665,-41.36014,2.32917,-0.05736,-5.32541,0.86218,6.95073,-80.60571,8.66004,10.86728,-13.59798,-0.23414,-52.00909,13.68787,-7.55295,-5.82371,2.29661,1.81982,29.03543,-34.23491,-0.87233,-3.37084,28.78812,-3.5339,9.57846,-4.14176,-0.02602,2.53435,-2.60434,0.66592,4.5908,-1.34611,-0.13755,0.95263,1.07952,-0.57626,0.53036,-0.00124,-0.00484,0.09219,0.1992,-0.11985
493,15.58718,-40.74144,2.72633,-4.72997,-6.70637,1.25801,7.51315,-77.07712,10.00804,-1.09807,-19.04846,-1.83334,-49.25616,12.71471,-7.1467,-7.36741,2.83904,1.87079,16.71752,-35.12129,0.22689,-6.80256,9.1868,2.29105,7.13846,-2.52317,-0.03134,1.73265,-3.55329,-0.06125,4.0677,-1.26698,-0.04664,2.43532,1.84368,-0.15838,0.54012,-0.02655,0.01467,0.35742,0.32666,-0.04849
494,13.88529,-39.27999,2.79061,-8.96287,-6.37768,1.71423,3.33787,-67.88961,9.38165,-5.95114,-19.21731,-1.20045,-46.60662,11.81054,-6.79709,-8.73982,3.44533,1.963,7.10041,-24.79944,-1.13029,-9.52277,5.60246,11.97812,-6.08167,3.18105,0.60154,2.71284,-5.90608,0.20111,0.72456,0.06969,0.38391,3.71327,2.57112,-0.0643,0.2429,0.04417,0.11042,0.38648,0.34176,0.1844
495,14.6565,-38.67162,2.68356,-11.22329,-4.24205,2.06345,3.22342,-62.38985,7.96476,-3.60912,-11.03549,2.03845,-44.01343,11.00284,-6.44867,-9.79956,4.12304,2.20121,9.91817,-8.04046,-0.09082,-11.88257,14.26588,18.75329,-15.19971,5.67291,1.12579,6.51245,-6.32351,2.05934,-1.4776,0.74235,0.48637,3.66707,2.30157,-0.71201,0.01285,0.04953,0.15156,0.08445,0.10377,0.296
496,17.02859,-39.40977,2.76586,-10.98865,-2.64593,1.98155,6.09533,-66.10023,7.20199,2.10591,-3.27903,4.20557,-41.59901,10.25769,-6.15474,-10.48857,4.636,2.40765,22.00665,-3.55322,0.89094,-16.5734,21.77199,12.91228,-7.34232,0.13131,0.59054,11.55654,-3.29403,3.82681,0.3087,-0.60187,-0.12965,3.55542,1.95458,-1.93731,0.11092,-0.10957,0.02446,-0.05452,-0.02926,-0.01146
497,17.50443,-39.65744,2.90177,-8.47345,-2.30318,1.42923,3.79684,-71.8774,7.31718,7.53487,-2.3701,2.74178,-39.50684,9.51575,-5.9695,-10.81706,4.83876,2.46399,28.11825,-15.20516,-3.20835,-15.83586,24.12773,0.64365,6.94224,-5.99494,-0.42281,13.50079,1.49799,4.3531,3.11741,-2.09366,-0.62917,4.36257,2.55294,-1.72312,0.21301,-0.20412,-0.0952,0.28725,0.22968,-0.3064
498,15.92117,-38.31334,2.86098,-5.22048,-1.36715,0.89345,-2.59472,-71.23933,8.19717,8.12725,-1.4253,0.42345,-37.70213,8.77115,-5.83462,-10.90828,4.83768,2.50342,19.56544,-24.06206,-8.24872,-6.26336,25.65094,-3.45888,10.22267,-3.94575,-0.58887,10.4792,4.46591,4.32209,3.20192,-1.51092,-0.1719,4.97321,3.44859,0.80021,0.06327,-0.03238,-0.00228,0.65512,0.57791,-0.07714
499,15.05935,-36.35774,2.69586,-3.9613,0.62249,0.89489,-3.7048,-65.65643,9.39702,1.06084,5.99325,1.16729,-36.00451,8.10475,-5.63596,-10.90272,4.73639,2.6338,4.74493,-17.53897,-6.78096,0.17108,28.75215,1.64657,3.02794,2.70588,0.17064,5.83171,2.88387,4.25065,1.60696,0.17258,0.69686,4.62935,3.57243,3.08255,-0.05992,0.21382,0.18177,0.60407,0.61443,0.36308
500,16.25172,-35.58819,2.61794,-5.68326,2.01119,1.5054,3.26818,-63.01169,9.83405,-8.96513,14.99917,5.33732,-34.29187,7.5639,-5.39246,-10.75623,4.54429,2.80269,-1.40121,-5.58251,0.28427,-3.97169,30.00281,6.27043,-3.7434,5.63473,0.91263,3.53386,-1.43047,3.8051,0.87786,0.88257,1.00623,4.35351,3.16995,3.00447,0.05099,0.27591,0.24435,0.43808,0.49308,0.48161
501,18.60696,-36.51106,2.62964,-7.90316,1.62515,2.25218,12.9607,-65.48196,8.70977,-15.05497,18.38529,10.10303,-32.59663,7.12273,-5.23048,-10.31016,4.2883,2.94279,4.74882,-1.18167,6.63701,-10.47342,25.81767,4.77431,-5.56003,3.76381,1.06255,3.27136,-4.23976,2.73706,1.08703,0.44415,0.66346,4.60858,2.82147,1.64855,0.20584,0.17989,0.17357,0.54227,0.49349,0.31193
502,20.3574,-37.62566,2.53312,-7.70573,-0.41161,2.49555,19.14095,-67.21663,6.68646,-17.79549,15.4338,12.11045,-31.06018,6.76666,-5.21087,-9.53879,4.00463,3.02773,10.18839,-4.45432,9.18151,-10.90123,17.44528,-2.53265,-2.86618,0.61673,0.6235,2.40297,-4.86493,1.09131,1.67633,-0.35863,0.11787,4.42197,2.26634,0.464,0.29536,0.04625,0.03965,0.69479,0.47781,0.10956
503,19.70798,-37.42671,2.35045,-5.32615,-3.05116,2.15388,16.7119,-63.51769,5.36147,-20.52798,9.09197,10.16235,-29.79807,6.48643,-5.30162,-8.59331,3.7304,3.05865,2.29619,-9.65054,7.14391,-9.0389,8.51919,-11.40312,2.53986,-2.1555,-0.18853,0.74934,-5.3479,-0.52006,2.65745,-1.28857,-0.42158,3.56123,1.43203,-0.45269,0.39944,-0.11337,-0.13181,0.56917,0.30117,-0.03413
504,17.77884,-35.7282,2.00271,-3.06535,-5.02652,1.7146,10.05383,-55.7893,4.61501,-21.8958,1.41413,5.66568,-28.71722,6.27453,-5.36451,-7.61426,3.50732,3.06666,-8.53041,-14.62059,0.29873,-12.56861,4.36224,-14.55643,6.57793,-3.98523,-0.9722,0.96601,-6.18158,-0.72529,3.43167,-2.19986,-0.88633,3.21492,0.97953,-1.1374,0.48397,-0.2983,-0.2849,0.33728,0.14882,-0.08249
505,17.59102,-33.57821,1.37686,-2.32739,-5.44348,1.56194,10.00847,-49.3931,3.4118,-21.41562,-3.54859,1.67571,-27.63698,6.06935,-5.29234,-6.6846,3.34587,3.07575,-6.87749,-17.7974,-6.35478,-15.97087,10.7609,-8.39227,6.8332,-3.65056,-1.2067,3.72363,-6.55872,0.67839,3.4415,-2.57847,-0.93814,3.91731,1.06168,-1.42673,0.4885,-0.42119,-0.30669,0.3249,0.12626,-0.09248
506,19.49854,-32.31742,0.8349,-2.3469,-4.51623,1.59352,16.67298,-48.50375,2.6336,-21.60212,-1.29095,0.64608,-26.52925,5.74795,-5.14399,-5.84974,3.22293,3.0844,0.73627,-16.25467,-6.81289,-5.54513,25.14302,3.10525,4.46676,-1.38211,-0.68541,5.99119,-5.8718,2.06433,2.98649,-2.11239,-0.40727,4.77331,1.20753,-1.09324,0.45708,-0.36627,-0.1489,0.52014,0.12368,-0.1254
507,21.01916,-32.03587,0.7572,-1.05874,-3.70429,1.48425,19.29805,-52.76233,3.80496,-21.76289,5.47262,2.18731,-25.4815,5.29343,-5.03343,-5.03461,3.12406,3.09137,-0.4115,-14.1952,-2.90699,15.55001,36.22343,12.72725,1.07075,0.0783,0.12278,5.60049,-4.00389,2.45017,2.4153,-1.24646,0.1516,4.77372,1.24132,-0.00283,0.39506,-0.12897,0.07991,0.65668,0.10887,-0.05843
508,20.59664,-31.59591,0.87778,2.01428,-4.11355,1.18563,12.86007,-57.59327,6.03857,-19.72304,9.41017,4.2749,-24.5375,4.85814,-5.00212,-4.12568,3.03886,3.07092,-11.06353,-18.15413,-0.4195,27.97585,34.65898,15.22575,-0.65624,-1.78698,0.45082,4.31004,-1.77486,2.7344,2.15447,-0.90009,0.12588,4.03646,1.35459,1.33501,0.29842,0.12454,0.21222,0.58741,0.15546,0.18058
509,18.92472,-30.47436,0.75882,5.01589,-5.04351,1.01305,3.95849,-57.86213,6.75568,-16.63246,8.14162,5.89883,-23.66712,4.58235,-5.03742,-3.1216,2.94015,3.00282,-20.04773,-23.48639,-0.77869,22.29735,21.02558,10.80256,1.95419,-6.01903,0.1144,4.96403,-0.8835,3.78374,2.65492,-1.45216,-0.29407,3.4676,1.43738,1.68634,0.24175,0.21023,0.20637,0.40088,0.20729,0.31751
510,17.70672,-29.42863,0.40896,6.30211,-4.75062,1.25013,2.45811,-53.50431,5.01034,-15.39334,5.55272,7.21285,-22.79107,4.43456,-5.10003,-2.16439,2.82745,2.92875,-17.65411,-23.45373,-1.28202,7.05531,9.52773,4.73764,5.85128,-8.22493,-0.3291,7.35029,-2.30344,4.97774,3.24727,-2.18398,-0.52874,3.66776,1.26964,0.6262,0.25019,0.08658,0.12512,0.30478,0.17561,0.1317
511,17.96311,-29.1484,0.07932,6.1752,-3.17115,1.67175,9.98863,-48.95634,2.51546,-16.3148,4.17446,7.56834,-21.8617,4.26548,-5.14483,-1.38468,2.70236,2.86571,-5.35449,-22.67676,-1.74978,-3.92781,15.86508,0.75737,5.80071,-5.6695,-0.44388,8.15157,-4.82715,5.09583,2.89892,-2.27993,-0.46281,4.23915,1.105,-0.43631,0.27653,-0.17445,-0.01632,0.39775,0.16279,-0.07972
512,18.85643,-29.53487,-0.0,5.23839,-1.90966,1.85844,18.76537,-47.346,1.49636,-19.40002,4.71756,6.61201,-20.95497,3.99417,-5.16603,-0.73104,2.54624,2.77416,4.0541,-23.7492,-2.84195,-6.07844,32.40897,-2.7516,3.69411,-1.15251,-0.33035,5.47485,-5.84179,3.89977,2.24408,-1.82537,-0.23556,4.21009,1.25041,-0.02131,0.35781,-0.40081,-0.16097,0.52954,0.2705,0.05346
513,18.93772,-29.94298,0.19996,3.82726,-1.89892,1.67202,22.9304,-47.93739,2.25331,-25.95008,8.97787,5.69838,-20.16134,3.72473,-5.16619,-0.01828,2.34063,2.62126,1.22266,-19.57966,-1.46859,-5.86621,36.34505,-6.06181,3.56739,1.17736,-0.17425,1.89802,-4.13833,2.40536,2.40184,-1.34063,0.06854,3.4697,1.49328,1.36682,0.5275,-0.39531,-0.1702,0.54471,0.3792,0.3642
514,18.21616,-29.66721,0.37058,3.69004,-3.11284,1.11367,23.92348,-48.40173,3.22813,-31.52205,14.28054,5.25943,-19.45863,3.59519,-5.13196,0.8832,2.07694,2.39501,-5.85283,-11.44144,2.59396,-3.49366,22.97542,-4.4035,2.53766,1.27865,-0.04334,0.4695,-1.62446,1.32326,2.62472,-0.98411,0.19739,2.87805,1.42513,2.0779,0.58436,-0.17956,-0.05144,0.47966,0.33497,0.45723
515,17.79555,-29.06922,0.36466,5.82678,-4.47963,0.43848,24.02728,-49.32713,3.73688,-29.10203,15.67021,4.79604,-18.78557,3.52097,-5.08102,1.90712,1.8106,2.12484,-5.03819,-10.41841,5.37384,10.37612,8.18225,2.41249,-1.53295,1.05932,0.08994,0.51102,-1.48176,0.12048,2.18553,-0.8182,0.06213,3.03162,0.95168,1.34367,0.44052,-0.01438,0.02984,0.44437,0.15658,0.23859
516,17.82006,-28.8455,0.37132,8.07492,-4.60041,0.14603,22.10059,-51.63749,4.52424,-21.72591,13.2682,4.56254,-18.13795,3.28804,-5.03587,2.89144,1.59222,1.85925,-1.26615,-18.47853,5.22699,30.40159,6.77353,5.6797,-3.39289,0.68988,0.29588,0.01477,-4.54766,-1.47257,1.99232,-0.97923,-0.00095,3.68867,0.34386,-0.1737,0.29762,-0.03797,0.00838,0.47256,-0.03609,-0.11049
517,17.42336,-28.72896,0.37018,8.33021,-3.73622,0.39208,17.98291,-51.97234,4.96656,-18.50232,9.6171,4.98259,-17.55745,2.86032,-5.01588,3.79521,1.36274,1.61043,-5.43574,-26.88726,2.81429,35.81528,21.83415,1.48722,0.40737,-0.18396,0.49996,-0.40229,-7.55477,-1.82716,2.68136,-1.32412,0.22803,4.17966,0.14731,-0.91023,0.27427,-0.11249,-0.0261,0.51553,-0.0996,-0.30062
518,16.35061,-28.36921,0.17088,7.96443,-3.52387,0.68418,13.96822,-47.87975,3.57026,-19.55726,6.2709,6.03471,-17.0538,2.41402,-5.05251,4.73396,1.03058,1.35358,-12.60628,-28.69053,-0.98012,21.47319,42.25477,-1.68293,5.16125,-1.17404,0.42856,1.58649,-6.74433,0.85006,3.53283,-1.74017,0.37738,4.29226,0.68809,0.15071,0.30228,-0.12055,-0.01197,0.56122,0.0445,-0.11639
519,15.54319,-28.10734,-0.09277,8.81553,-4.65261,0.4088,12.12762,-43.43663,1.4676,-19.3037,5.28597,6.57531,-16.55348,2.09163,-5.11579,5.72569,0.62077,1.05155,-11.29925,-23.64213,-3.71508,4.66544,51.08428,1.51648,6.34589,-2.30078,-0.01017,5.35532,-3.01575,4.96401,3.88631,-2.35983,0.0926,4.18828,1.42499,2.02128,0.34415,-0.13744,0.01158,0.58836,0.25293,0.30677
520,15.38254,-27.96989,-0.1386,9.96896,-6.02022,-0.39096,12.0661,-42.77042,1.25969,-18.5039,7.23281,4.76087,-16.02493,1.8749,-5.12376,6.63441,0.26741,0.73728,-5.23091,-16.23973,-3.86623,-0.81238,44.35558,3.25866,6.15279,-4.15665,-0.52916,7.03039,-0.98021,6.39036,4.02257,-3.08478,-0.36077,3.81382,1.42629,2.51958,0.46492,-0.24324,0.00038,0.5162,0.28043,0.5248
521,15.04806,-27.82968,0.13469,9.74819,-6.6678,-1.06983,10.5383,-44.81644,3.27563,-21.83387,8.75592,1.04683,-15.52834,1.69902,-5.05253,7.37273,0.02312,0.47433,-9.49075,-14.39704,-3.48244,1.75168,31.84279,-2.28211,6.94623,-5.54695,-0.68798,4.75132,-3.27457,3.70085,3.97237,-3.15879,-0.4575,3.22962,0.59261,0.90464,0.61404,-0.3279,-0.01831,0.36208,0.10569,0.3013
522,14.49629,-28.23391,0.61612,7.81937,-6.79783,-1.09768,7.14137,-47.60499,5.40853,-29.56886,7.45321,-0.88688,-15.09158,1.57372,-4.94359,7.90262,-0.15385,0.24666,-26.0315,-22.36356,-3.04365,5.82558,21.96876,-7.99612,6.23858,-4.19417,-0.34011,1.19284,-7.44693,-0.10263,3.21342,-2.0935,-0.13802,3.0649,-0.16332,-1.08663,0.62251,-0.25293,-0.01442,0.29871,-0.05695,-0.07788
523,14.62868,-29.13319,0.9224,6.55122,-7.2466,-0.78038,6.80705,-49.45566,5.45064,-32.34766,4.335,1.04373,-14.72892,1.54947,-4.84812,8.34227,-0.33172,0.00754,-32.1124,-32.3388,-1.33771,12.00277,16.75336,-6.84852,2.72842,-1.13784,0.02804,-0.40222,-8.84929,-1.66704,2.03773,-0.85496,0.03815,3.578,-0.0387,-1.26763,0.47728,-0.12452,-0.04729,0.38636,-0.03163,-0.16552
524,15.60593,-29.70397,0.79803,6.94401,-7.80041,-0.62493,11.8762,-49.03597,3.45256,-26.12094,3.66605,5.29435,-14.48647,1.6097,-4.80322,8.76859,-0.51979,-0.24333,-16.11241,-30.42982,1.51933,21.03886,15.36508,-3.03812,0.05756,-0.11377,-0.15478,-0.30442,-6.06143,-1.11339,1.45344,-0.78998,-0.33007,3.83667,0.71272,0.27945,0.32736,-0.14234,-0.16618,0.43495,0.13129,0.06297
525,16.24237,-29.6865,0.54202,7.36119,-7.64448,-0.66677,17.09752,-46.67478,1.49608,-18.78484,7.32712,8.70423,-14.32871,1.6598,-4.8028,9.08594,-0.66632,-0.43792,2.99884,-16.457,3.38042,29.35116,16.53945,-2.19956,0.56222,-1.88936,-0.68832,-0.53437,-2.29991,-0.59707,1.63748,-1.7059,-0.86473,3.15409,1.23242,1.6256,0.24675,-0.26634,-0.26553,0.34433,0.24869,0.25461
526,15.57985,-29.32509,0.54738,7.10272,-7.22583,-0.82873,17.27662,-42.94334,1.05272,-17.49806,11.16425,8.80258,-14.11324,1.60412,-4.79151,9.19733,-0.75841,-0.51039,5.19955,-4.18066,2.51251,34.44255,19.44688,-1.80699,1.8539,-4.02876,-0.88371,-1.27152,-1.23853,-0.66581,2.09413,-2.43143,-0.94372,2.23692,1.10011,1.74768,0.25102,-0.30527,-0.19175,0.2671,0.21339,0.22274
527,14.06351,-28.88514,0.83828,6.47834,-7.06148,-1.01025,12.46735,-39.3353,2.20929,-21.59007,12.67715,6.43448,-13.79298,1.40345,-4.74698,9.05763,-0.79694,-0.46486,-8.84455,-0.40949,0.84108,35.01356,23.17628,1.4025,1.95386,-5.41928,-0.59615,-0.8761,-2.9113,-0.06978,2.60664,-2.58547,-0.55511,1.99384,0.5553,1.18704,0.3377,-0.22096,0.02434,0.28973,0.05995,0.08867
528,12.6871,-29.06342,1.33585,6.05664,-6.92222,-1.08798,4.01715,-40.55671,4.80145,-23.50573,12.53072,4.31959,-13.50656,1.09544,-4.72389,8.75671,-0.78572,-0.36237,-24.24654,-4.88201,0.53279,26.97875,26.85877,4.331,2.74138,-6.24193,-0.20595,1.71496,-4.83384,1.95629,3.10201,-2.54381,-0.07885,2.48686,0.08026,0.68722,0.39829,-0.14026,0.18759,0.32092,-0.07637,0.04117
529,12.08272,-30.32637,1.95023,6.00919,-7.11684,-1.12641,-5.07515,-48.9213,7.96443,-19.49632,9.42589,2.83625,-13.34987,0.76863,-4.74353,8.43421,-0.78216,-0.29655,-29.82806,-18.61156,0.43235,9.21197,29.76141,2.83283,5.61746,-5.86792,0.06662,5.18335,-5.61905,4.27736,3.43793,-2.52535,0.25932,3.18752,-0.06007,0.30718,0.37046,-0.15526,0.17357,0.30626,-0.0941,0.09635
530,12.20898,-31.4063,2.28181,5.64187,-8.45222,-1.29517,-8.47241,-57.04483,9.30963,-15.90592,2.43016,0.61717,-13.2396,0.51906,-4.71338,8.14841,-0.87941,-0.34789,-25.87833,-34.88438,-1.58946,-6.52047,29.44078,-1.80373,7.58247,-3.77325,0.24401,6.62143,-5.64921,4.7083,3.58128,-2.44285,0.38187,3.60684,0.04857,-0.11126,0.39272,-0.23904,0.04586,0.31127,-0.0305,0.09962
531,12.62967,-30.86337,1.96925,4.70507,-10.1173,-1.42231,-2.82259,-55.45293,7.05201,-17.80991,-3.99611,-1.03192,-13.09942,0.39315,-4.5737,7.93109,-1.03689,-0.45465,-16.70025,-38.21123,-4.81776,-2.71457,23.09338,-3.94702,5.87238,-0.95112,0.38201,4.70236,-5.26691,2.81628,3.75426,-2.33105,0.32344,3.79572,0.34567,0.09645,0.59293,-0.32511,-0.0547,0.4285,0.05577,0.1053
532,13.49146,-29.76612,1.34245,4.38878,-9.85574,-1.09073,8.29733,-45.98125,2.68918,-19.96834,-4.17539,0.91404,-12.9775,0.35514,-4.42329,7.81688,-1.05887,-0.41796,-2.51204,-24.11804,-5.96799,18.6403,13.73717,-0.64494,2.80269,0.95648,0.49384,1.09691,-4.5944,0.41999,4.00692,-2.32116,0.2389,3.74469,0.73724,1.1616,0.79531,-0.35555,-0.07112,0.58266,0.14965,0.25634
533,14.68179,-29.85195,1.09152,5.63465,-7.67213,-0.47491,16.75854,-38.95911,-0.01136,-17.16333,0.56157,5.21874,-12.91668,0.36433,-4.36259,7.78978,-0.93359,-0.20985,12.06673,-8.21168,-3.70021,33.64294,9.47571,4.54383,2.80651,1.17074,0.69477,-0.812,-4.0509,-0.27836,4.33952,-2.45122,0.38122,3.36224,0.93139,1.98934,0.80036,-0.3116,-0.01573,0.60764,0.20065,0.40294
534,14.64491,-30.70796,1.47832,6.89975,-6.42783,-0.28207,14.8973,-40.07198,1.22025,-15.18908,3.77097,6.63011,-12.86298,0.39826,-4.36277,7.7908,-0.91719,-0.0678,10.86883,-7.19103,-0.70564,29.00863,12.70177,6.40402,7.26783,-0.10813,1.25035,1.15154,-3.77594,1.60849,5.03185,-2.6615,1.03793,3.01426,0.73638,1.80259,0.73607,-0.23719,0.1214,0.46556,0.1312,0.3061
535,12.53959,-30.97608,2.13573,6.45372,-7.15462,-0.64786,3.52901,-45.38136,4.82473,-19.20975,4.05496,3.7365,-12.72619,0.42426,-4.37672,7.84621,-1.12653,-0.10045,-9.72581,-16.34145,0.38074,16.15504,16.64134,3.23351,12.66387,-2.49589,1.79604,4.93399,-3.561,4.16083,5.63835,-2.77651,1.77766,3.10021,0.34001,1.06182,0.71003,-0.18928,0.25298,0.29226,-0.02055,0.0205
536,9.77692,-30.5821,2.58026,4.85547,-7.98138,-0.99477,-8.40703,-47.8079,7.42832,-23.84255,5.11932,0.73064,-12.4979,0.47574,-4.43172,7.99182,-1.38936,-0.16412,-30.39302,-18.79928,-0.15318,8.28812,18.23194,-2.74154,13.50534,-4.46022,1.51748,6.29754,-3.83712,4.05582,4.97459,-2.49079,1.65757,3.60257,0.09237,0.27102,0.58292,-0.16354,0.21931,0.2926,-0.10972,-0.21963
