PaulMeinheit/Bachelor_Muay_Thai/processed_Data/E2/teep/sliced/JointMoments/sliced2.csv
Unnamed: 0_level_0,R_KNEE_MOMENT,R_KNEE_MOMENT,R_KNEE_MOMENT,L_KNEE_MOMENT,L_KNEE_MOMENT,L_KNEE_MOMENT,R_HIP_MOMENT,R_HIP_MOMENT,R_HIP_MOMENT,L_HIP_MOMENT,L_HIP_MOMENT,L_HIP_MOMENT,R_ANKLE_MOMENT,R_ANKLE_MOMENT,R_ANKLE_MOMENT,L_ANKLE_MOMENT,L_ANKLE_MOMENT,L_ANKLE_MOMENT,WAIST_JOINT_MOMENT,WAIST_JOINT_MOMENT,WAIST_JOINT_MOMENT,NECK_MOMENT,NECK_MOMENT,NECK_MOMENT,L_SHOULDER_MOMENT,L_SHOULDER_MOMENT,L_SHOULDER_MOMENT,R_SHOULDER_MOMENT,R_SHOULDER_MOMENT,R_SHOULDER_MOMENT,L_ELBOW_MOMENT,L_ELBOW_MOMENT,L_ELBOW_MOMENT,R_ELBOW_MOMENT,R_ELBOW_MOMENT,R_ELBOW_MOMENT,L_WRIST_MOMENT,L_WRIST_MOMENT,L_WRIST_MOMENT,R_WRIST_MOMENT,R_WRIST_MOMENT,R_WRIST_MOMENT
ITEM,X,Y,Z,X,Y,Z,X,Y,Z,X,Y,Z,X,Y,Z,X,Y,Z,X,Y,Z,X,Y,Z,X,Y,Z,X,Y,Z,X,Y,Z,X,Y,Z,X,Y,Z,X,Y,Z
1048,-6.01196,-13.41932,0.94542,-13.655,2.19994,1.80838,-11.9023,-33.80901,2.20359,-8.43899,0.09352,2.31154,-50.88816,19.48366,-5.00471,-16.45329,3.51255,2.05029,-4.60455,10.73893,-4.27655,27.98107,-28.01958,16.37533,3.30996,1.69726,2.57003,7.90589,-3.39071,2.5915,1.92277,-2.88307,0.47622,2.0492,0.35494,0.2254,0.17473,-0.28494,0.17826,0.3832,0.10421,-0.07042
1049,-6.05802,-14.95396,1.2721,-13.59451,3.03652,1.99996,-14.55578,-38.95208,2.47317,-6.5885,0.45387,1.77282,-50.67563,19.3968,-5.14541,-16.38165,3.77684,2.16105,-3.8456,5.50861,-5.15631,19.59299,-24.84644,7.7088,2.78763,1.3392,2.38145,5.57874,-3.67074,0.27962,1.57426,-2.47886,0.56512,2.59958,0.7085,0.0302,0.13221,-0.22068,0.19246,0.39316,0.15595,-0.15511
1050,-5.51724,-14.67364,1.18213,-14.36731,2.70548,1.96662,-18.32955,-36.9059,3.13459,-8.52566,0.33282,1.39781,-50.63517,19.16703,-5.2201,-16.17951,3.76944,2.21206,-10.39233,5.73421,-6.152,6.61577,-17.12446,-4.0308,5.25153,0.39038,1.31608,4.0843,-3.89402,-1.00234,0.95933,-2.06382,0.76426,2.83398,0.86003,0.10635,0.13643,-0.15458,0.15335,0.365,0.09112,-0.05725
1051,-5.46894,-12.62093,0.69801,-15.23747,2.30106,1.91436,-25.39533,-29.5885,3.54175,-13.93615,-0.37262,1.51898,-50.76835,19.01255,-5.22011,-15.83554,3.6828,2.17325,-27.94972,8.54342,-8.18163,2.07507,-9.65331,-7.55078,7.72821,-0.15639,-0.09327,5.09639,-4.32473,-0.14326,0.28813,-1.41759,0.64483,2.5355,0.81281,0.40478,0.06543,-0.0358,0.03736,0.30629,-0.01549,0.16367
1052,-5.59616,-11.93569,0.62012,-15.58683,2.51165,1.92669,-29.21367,-30.35154,4.00546,-17.6753,-1.30996,1.70522,-51.07819,19.12495,-5.22065,-15.50155,3.63759,2.03928,-39.41534,1.12435,-8.69509,11.68819,0.13112,-0.96958,7.10841,0.4203,-0.65625,7.06382,-4.37334,1.65049,0.68723,-1.00067,-0.11656,1.62117,0.75508,0.43242,0.06772,0.0498,-0.11905,0.18382,-0.04962,0.27598
1053,-4.63171,-13.67235,1.14713,-15.74456,3.10456,1.99622,-22.43528,-41.23208,4.60512,-15.94842,-0.60524,2.14638,-51.5924,19.49518,-5.25878,-15.35751,3.55292,1.86128,-27.62183,-12.36067,-4.98282,25.76054,7.31383,9.35257,3.88438,2.11626,0.72423,7.13637,-3.87136,1.97218,2.53164,-1.62657,-0.98575,0.92716,0.82652,0.06454,0.3038,-0.01248,-0.2035,0.05806,0.02023,0.15293
1054,-3.23611,-15.26007,1.53131,-15.55933,2.97707,1.81191,-12.21713,-48.75823,4.72085,-10.64692,0.88175,1.8325,-52.28201,19.92181,-5.33158,-15.15456,3.30518,1.69016,-5.22553,-16.17922,-1.91845,29.37325,6.78909,15.8172,1.68615,3.51899,2.62919,5.00777,-3.81102,0.32269,3.7188,-2.47184,-1.04762,1.07734,0.86766,-0.25097,0.49862,-0.13341,-0.13483,0.00939,0.08763,-0.04782
1055,-3.04986,-14.7749,1.24245,-14.47704,1.48419,1.13581,-11.55374,-45.08806,4.08755,-7.22014,-0.64135,-0.79465,-53.0993,20.24149,-5.47521,-14.44123,2.94042,1.55201,-0.05658,-9.5891,-5.53733,20.27757,1.44518,16.58456,2.45749,2.91278,2.69817,3.71118,-4.85253,-1.04012,2.62667,-2.37895,-0.21228,1.44386,0.75401,-0.29168,0.37705,-0.23668,0.05524,0.04526,0.07125,-0.11629
1056,-3.3765,-13.49906,0.56588,-13.35759,0.16157,0.56518,-19.02687,-35.91166,3.07738,-7.73178,-3.6084,-3.72826,-54.06879,20.51757,-5.75661,-13.31275,2.65787,1.49529,-14.04581,0.21464,-12.37981,7.83342,-7.92307,12.90485,4.94235,0.43044,0.78057,5.16252,-5.90357,-0.38882,0.54188,-1.75395,0.66933,1.32395,0.67648,-0.27597,0.12903,-0.3704,0.21402,0.12828,0.03705,-0.05523
1057,-2.81285,-13.18851,0.0211,-13.91385,0.54227,0.75945,-23.62723,-27.85437,2.17861,-8.35134,-3.00463,-3.39622,-55.21212,20.93773,-6.15724,-12.41082,2.47328,1.45654,-23.2144,13.29259,-15.32168,-1.05005,-18.22674,4.33883,6.56865,-1.93355,-1.39689,7.0492,-5.56735,0.94323,-0.53087,-1.25968,0.80045,1.16456,0.78144,-0.27685,0.01968,-0.44233,0.19613,0.22225,0.06278,0.00505
1058,-2.41222,-13.5974,-0.19304,-15.4543,1.6873,1.35529,-22.50632,-23.53167,1.60916,-4.62185,0.70633,-0.00042,-56.37398,21.56409,-6.5291,-12.03061,2.17383,1.26478,-13.67467,26.07628,-13.19479,-4.0976,-16.83382,-5.3149,4.96615,-2.37058,-2.00335,6.49997,-4.21536,1.01182,-0.06842,-0.8574,0.15928,1.49094,0.81682,-0.12845,0.0132,-0.28586,0.05444,0.2728,0.09616,0.00849
1059,-3.67009,-13.85197,-0.14115,-15.68006,1.82023,1.57763,-21.48255,-25.05432,1.26848,3.41406,2.12151,2.76577,-57.37663,22.31016,-6.7428,-11.90472,1.74013,0.9423,4.44481,26.88352,-10.90694,1.35815,-2.71595,-7.62177,1.63247,-0.94379,-0.57379,4.70569,-3.52027,0.06285,1.20272,-0.9112,-0.52448,1.98284,0.70431,0.06546,0.03527,-0.04166,-0.04277,0.26819,0.07863,-0.01083
1060,-5.76579,-14.68139,0.31562,-14.0861,-0.31047,0.85242,-25.20745,-33.12319,1.88891,10.56296,-2.06701,1.28167,-58.28468,23.06162,-6.85808,-11.53612,1.2933,0.61447,11.27198,11.51046,-12.62757,10.82405,0.76577,-1.64625,1.67534,0.83394,1.22863,4.79943,-4.08935,-0.32171,1.80369,-1.62789,-0.40432,2.18272,0.75355,0.05578,0.07113,0.03602,-0.03307,0.25849,0.04666,-0.00276
1061,-6.78713,-16.97292,1.30584,-12.34535,-3.40862,-0.49983,-31.83438,-42.58823,4.4815,9.74544,-5.01671,-3.13202,-59.25069,23.78311,-7.00572,-10.58154,0.84875,0.35663,-2.75773,-1.76506,-13.97589,10.21192,-19.95217,5.30955,5.71352,1.85568,1.75103,6.75472,-4.62723,0.57952,1.0999,-2.23094,0.3851,1.88365,0.89471,-0.06425,0.09908,-0.04296,0.01246,0.22324,0.01754,0.05069
1062,-6.5832,-19.61842,2.33132,-11.97805,-3.67151,-1.03471,-36.67714,-44.58904,7.45552,1.85854,0.82111,-4.91974,-60.30401,24.51205,-7.22616,-9.35694,0.53931,0.31414,-24.21069,7.98874,-9.95169,-1.60684,-40.02486,8.17349,8.27228,1.83571,1.19767,7.77391,-4.00693,1.56691,0.29424,-2.15626,0.83082,1.36742,0.93151,-0.20182,0.13236,-0.14106,0.02879,0.17563,0.01966,0.06344
1063,-6.58939,-20.17516,2.44745,-12.77946,-1.22512,-0.25583,-37.74492,-35.73231,7.32489,-4.09468,5.6781,-2.80992,-61.35929,25.27088,-7.45129,-8.50196,0.47597,0.44568,-31.96951,29.60961,-6.64748,-5.50013,-29.44031,6.70679,7.0357,0.74212,0.28043,6.53365,-2.90347,1.18079,0.24211,-1.6873,0.61945,1.2015,0.95453,-0.43394,0.13269,-0.20801,0.05015,0.20924,0.09511,-0.05141
1064,-6.96777,-18.88134,1.70485,-12.43298,-0.10533,0.63921,-34.11738,-28.37826,4.12243,-1.84273,-0.67975,-0.26899,-62.29036,25.95903,-7.62005,-7.99768,0.43801,0.43794,-18.45708,33.03962,-8.14196,5.49626,4.33484,3.89461,5.78747,-0.47496,-0.68212,4.77104,-2.80308,0.06254,0.37961,-1.26678,0.33319,1.32031,0.86118,-0.59927,0.07524,-0.22902,0.08867,0.26145,0.14001,-0.18108
1065,-7.37782,-18.92626,1.35211,-10.00366,-1.16462,0.7359,-28.61278,-37.11576,1.90681,6.21574,-8.16913,1.42736,-63.02806,26.35672,-7.79471,-7.43746,0.22173,0.15936,3.80811,16.42323,-8.24927,15.14211,23.39198,3.78296,6.91421,-0.08286,-0.8245,4.78349,-4.10237,-0.27742,0.39887,-1.2993,0.31724,1.44807,0.64616,-0.45607,0.07205,-0.22414,0.0798,0.22708,0.04838,-0.13906
1066,-8.44705,-20.25276,1.69554,-7.34741,-1.55136,0.35324,-29.51091,-50.30647,2.51796,14.21013,-2.50729,3.86375,-63.56451,26.39687,-7.97645,-6.72828,-0.03466,-0.15922,13.49146,17.19666,-5.57988,16.15683,-7.09111,5.25209,8.4749,2.27329,0.82501,6.47877,-5.44738,0.24057,0.57535,-2.06653,0.5662,1.62318,0.70571,-0.16676,0.18062,-0.26053,0.04586,0.14218,-0.07345,0.04085
1067,-10.20585,-19.91652,1.94025,-5.95214,-0.06598,0.03587,-38.40956,-46.19973,4.26164,18.55415,13.80761,7.12074,-63.90826,26.29721,-8.03174,-5.89223,-0.1744,-0.29003,4.42141,56.71341,-4.97609,17.33848,-86.48112,2.80483,8.83482,4.48958,3.1682,7.99076,-5.20357,1.09035,0.59483,-3.00733,1.13497,1.77682,0.98989,0.03806,0.21575,-0.32112,0.12266,0.08357,-0.0894,0.17082
1068,-11.78012,-18.44408,2.06418,-6.26276,0.58178,-0.292,-44.28123,-32.67853,5.93966,16.64815,22.72222,7.22233,-64.07709,26.29225,-7.94863,-4.89599,-0.31155,-0.29702,-8.13647,90.98477,-6.11481,15.71697,-151.37379,-3.29594,8.93873,3.74153,3.0396,8.658,-4.00486,2.09773,0.07793,-2.90508,1.64644,1.93687,0.99858,0.23697,0.07648,-0.2984,0.27055,0.12412,-0.02732,0.17634
1069,-12.06572,-18.62338,2.46607,-6.94774,-1.62862,-0.73701,-37.31097,-33.76923,7.08357,11.40803,11.7376,1.06554,-64.09303,26.38885,-7.86809,-3.78061,-0.51866,-0.3074,-3.63614,65.84168,-6.10308,2.01476,-118.01225,-3.94504,9.62003,0.33782,-0.39885,9.28756,-4.22589,2.74632,-0.50152,-1.59556,1.43224,2.06261,0.75732,0.30631,-0.04452,-0.16335,0.25632,0.23712,0.03468,0.09151
1070,-10.39063,-20.11183,2.75068,-6.01688,-4.41311,-0.90988,-23.87057,-48.39806,6.6878,11.21988,-8.31631,-6.5332,-63.986,26.45533,-7.84022,-2.78757,-0.66462,-0.3224,18.27287,3.7093,-5.63415,-11.19168,-3.07304,7.97677,9.88001,-1.02653,-2.68624,10.05451,-6.12267,2.56652,-0.58748,-0.65355,0.71613,1.82317,0.76896,-0.07041,-0.04858,-0.0071,0.0465,0.27726,0.08894,-0.03999
1071,-8.61988,-20.40681,2.51921,3.75242,-2.27332,-0.45365,-20.08846,-56.5155,4.92678,31.51901,-14.21051,-8.00532,-63.77205,26.40401,-7.81087,0.96057,-0.20128,-0.14015,48.90597,-24.63889,-6.85149,-8.96075,77.12988,25.93824,8.92648,2.72031,0.40871,10.00711,-7.10524,2.14309,-0.19596,-1.57964,0.4418,1.20058,1.03777,-0.57451,-0.06996,0.03778,-0.10677,0.17746,0.1322,-0.12357
1072,-9.75274,-19.14951,2.21958,4.89043,-2.12985,-0.28124,-30.40237,-53.07637,3.72437,36.98277,-15.14826,-6.72764,-63.4609,26.2807,-7.77688,0.83933,-0.15866,-0.17249,41.62759,-19.38606,-11.94372,-3.65184,67.82328,33.44307,7.84045,7.20469,5.34468,8.92436,-5.9695,2.29767,0.50281,-3.43429,0.63277,0.58542,1.11683,-0.6027,-0.10321,-0.06311,-0.08166,0.04174,0.12325,-0.06149
1073,-12.59397,-17.89079,2.32162,5.20779,-1.03967,-0.21542,-42.85014,-47.06343,4.22837,35.97704,-10.26191,-5.03669,-63.02316,26.23541,-7.72186,0.79991,-0.0447,-0.11299,23.95707,2.21448,-15.48769,-11.24409,21.0585,22.15144,8.44442,6.07487,5.04508,8.0599,-4.60684,2.75666,1.09531,-3.91867,0.6431,0.4071,0.99279,-0.27811,-0.01079,-0.19145,0.00041,0.01781,0.0705,0.08237
1074,-13.88341,-17.10937,2.62668,5.33788,0.83578,-0.28509,-48.16386,-40.93021,5.58249,26.48899,-0.43158,-2.58513,-62.45026,26.36027,-7.60906,0.99864,0.02938,-0.01608,3.36269,27.09773,-12.56222,-21.66137,-14.25946,2.86757,10.67906,0.42637,-0.31022,8.64424,-4.88009,2.62673,1.04487,-2.8383,0.66602,0.9953,1.1316,-0.18718,0.16257,-0.27416,0.09781,0.14844,0.06532,0.11694
1075,-13.18815,-16.73382,2.87528,6.86271,2.99839,-0.4531,-46.64058,-35.13887,6.65324,15.8537,12.25864,1.5518,-61.84315,26.55563,-7.49426,1.47558,0.02986,0.05524,-14.28625,49.60745,-3.81715,-15.69901,-33.11,-6.48763,12.39664,-2.93981,-3.71927,10.92452,-6.85478,2.0058,0.61223,-2.03778,1.13953,2.11781,1.66737,-0.482,0.27018,-0.3291,0.24067,0.33198,0.11935,0.00681
1076,-11.57939,-17.20775,3.09321,9.25831,3.22914,-0.69312,-40.26357,-35.40947,7.21533,12.35766,17.48413,3.96813,-61.26307,26.53718,-7.44785,1.85896,-0.03839,0.04004,-16.70764,53.21613,2.61366,4.1608,-38.0531,-1.71797,12.4246,-1.17548,-1.80519,13.96905,-9.64636,1.54396,0.56478,-2.55535,1.61813,3.0672,2.31133,-0.86233,0.30511,-0.38321,0.32077,0.4705,0.15146,-0.07599
1077,-9.50205,-17.83008,3.14564,10.66195,0.602,-0.92417,-32.50108,-41.61085,7.44836,16.78755,10.60116,1.84551,-60.61463,26.12399,-7.40402,1.86109,-0.20189,-0.05292,-2.15221,35.73146,0.43231,17.1067,-33.40675,5.39085,11.78741,2.40777,1.61329,15.18303,-11.19655,1.14331,0.71132,-3.38245,1.52334,3.28208,2.69433,-1.04581,0.27449,-0.39511,0.21718,0.52368,0.16137,-0.05899
1078,-8.18914,-17.17703,2.88731,10.44857,-0.88065,-0.77723,-29.50514,-45.25433,7.41723,25.67059,4.15607,-0.19956,-59.85571,25.54782,-7.29439,1.63357,-0.25614,0.00434,16.55532,23.60144,-4.23632,10.55687,-29.81865,5.40501,11.77751,4.16241,2.09737,12.72954,-9.19122,1.17489,0.31912,-3.09457,1.05418,2.63977,2.30874,-0.82523,0.12731,-0.29084,0.03067,0.46094,0.17471,-0.03391
1079,-9.13251,-15.38686,2.48812,8.70127,1.14901,-0.08199,-32.62349,-40.91491,6.79584,33.31341,6.22023,2.04467,-59.07175,25.19878,-7.19669,1.3179,-0.03193,0.30237,27.13919,32.55256,-3.88781,-10.00027,-31.54685,2.70945,12.55531,3.17699,0.03648,9.44164,-4.96174,3.04088,-0.36347,-2.32841,1.03514,1.55841,1.17444,-0.28602,-0.04347,-0.21819,0.0393,0.34046,0.14755,-0.02225
1080,-11.64414,-14.1433,2.22098,5.60945,3.51795,0.70541,-36.04858,-33.31717,5.37882,31.7841,8.9976,5.31311,-58.31555,25.08308,-7.24568,0.92375,0.28332,0.59057,23.73454,45.70172,-0.55374,-29.17641,-36.20631,5.25085,12.93803,0.63489,-1.36887,9.22187,-2.71641,6.57991,-0.56003,-2.63685,1.77315,0.73487,0.05662,0.3476,-0.07515,-0.37158,0.30268,0.25174,0.03226,0.0913
1081,-13.42561,-14.09744,2.06817,2.06982,3.39233,1.04944,-35.08174,-30.06032,3.7553,19.36242,6.6922,5.93334,-57.54662,24.89074,-7.41821,0.58079,0.42866,0.64468,8.74503,46.23173,1.52345,-32.13749,-40.7753,11.29972,11.85649,-0.90864,-0.67944,10.49856,-3.49371,8.43692,-0.2859,-3.61931,2.35768,0.67281,-0.37198,0.91828,0.00595,-0.57506,0.48162,0.18833,-0.09763,0.26332
1082,-13.37672,-13.98283,1.83733,0.49132,2.34144,0.97566,-32.37149,-31.73281,3.03794,7.58088,3.89024,5.12151,-56.69001,24.4766,-7.51059,0.53714,0.42044,0.55974,-6.10956,39.75195,1.62088,-17.93941,-36.37504,11.91182,10.59147,0.44551,0.51285,9.53673,-4.48936,5.4039,-0.03354,-3.52919,1.76563,1.5709,0.29346,0.93262,0.05486,-0.45884,0.25837,0.1725,-0.04359,0.19764
1083,-12.24472,-13.11352,1.61786,2.53802,2.39072,0.73721,-31.6642,-34.51782,3.88033,10.27326,3.59748,3.86922,-55.73026,23.96319,-7.41927,0.78094,0.3752,0.48459,-5.72245,34.45964,-0.95001,-4.47968,-20.77741,4.49468,10.79956,3.34284,0.01173,7.25894,-3.96309,-0.13035,0.09463,-1.9068,0.26242,2.94163,1.75997,0.21023,0.04218,-0.02696,-0.21121,0.24952,0.2035,-0.13664
1084,-10.74379,-12.19278,1.51092,5.98168,2.84858,0.40012,-29.16991,-34.78651,5.29954,25.28284,3.82539,1.38044,-54.71078,23.48825,-7.29467,0.91533,0.30672,0.3954,15.45166,32.67379,-6.04802,-3.69403,-12.92199,-1.68621,11.22282,4.51303,-1.43677,6.6484,-2.9582,-2.06042,0.49187,-0.52905,-0.84567,3.41341,2.57624,-0.37785,0.07544,0.23097,-0.44359,0.27959,0.33035,-0.33328
1085,-9.89958,-11.55857,1.32998,6.64777,2.18278,-0.00156,-23.1853,-31.18294,5.87896,34.11406,3.52534,-1.32277,-53.68076,23.05725,-7.37696,0.66355,0.17373,0.24499,35.64494,35.07389,-9.99851,-0.18119,-22.26476,0.00716,9.15636,2.96194,-1.00704,7.26347,-3.02171,0.24429,1.16428,-0.88491,-0.67684,2.64989,1.97429,-0.05315,0.14598,0.0232,-0.20299,0.18563,0.17303,-0.14803
1086,-11.15125,-11.00317,1.02143,3.52687,0.55795,-0.26841,-20.30328,-28.24311,6.05328,26.04746,2.55871,-2.55826,-52.66851,22.64194,-7.72331,0.22132,-0.01114,0.09647,28.83261,34.75134,-9.2259,18.4339,-29.06074,5.53693,5.01598,0.98205,1.99939,7.18622,-4.01323,1.71742,1.55833,-2.17417,0.35359,2.0019,1.05302,0.67812,0.1558,-0.35211,0.24518,0.1784,-0.01984,0.15546
1087,-14.02523,-10.6895,0.75637,-0.30968,-0.52385,-0.22577,-24.11154,-30.93435,6.60601,12.17529,0.20179,-2.81647,-51.72211,22.27621,-8.15659,-0.0416,-0.14324,0.03472,3.49473,24.81531,-6.35153,30.54996,-22.77047,12.97035,2.46396,0.80383,5.24109,7.6813,-4.47587,1.89948,1.55192,-2.96585,1.11794,2.06828,1.05527,0.66979,0.13881,-0.49755,0.46704,0.37846,0.02808,0.2208
1088,-16.5282,-10.60611,0.47059,-1.92017,-0.30966,0.02313,-31.78335,-35.14428,6.23244,7.58965,-2.0154,-2.61304,-50.98615,22.01935,-8.4889,0.02011,-0.1391,0.03389,-15.1377,14.71455,-7.65425,16.0885,-21.57233,24.67003,3.7076,2.07269,5.89645,10.68301,-4.04265,5.76962,1.72808,-2.85927,0.76031,1.73246,1.46102,-0.04597,0.20426,-0.35893,0.27821,0.51592,0.18805,0.13303
1089,-17.47636,-9.92614,-0.13562,-1.96972,0.43905,0.24032,-37.93519,-32.74924,3.59831,12.41199,-1.08703,-1.07564,-50.62121,21.89902,-8.6941,0.23356,-0.03941,0.01513,-17.97278,20.78588,-13.40054,-4.14058,-37.33817,31.9191,7.27267,3.13259,3.08391,13.87058,-4.02468,12.24724,2.27445,-2.00907,-0.56286,0.92869,1.04857,0.04277,0.34347,-0.09505,-0.141,0.41294,0.14966,0.2296
1090,-17.16416,-8.65993,-0.93788,-2.76878,0.07061,0.21559,-36.18629,-25.59516,0.56756,17.47506,0.68465,0.46981,-50.68625,21.89286,-8.92744,0.30022,0.01892,-0.06068,-8.0755,38.01273,-17.92326,-2.55256,-50.29916,19.58832,10.20072,2.955,-1.52319,13.62752,-5.1816,12.83545,2.37963,-0.86005,-1.5449,1.08545,0.26397,1.25577,0.40746,0.10769,-0.41157,0.26805,-0.04376,0.43934
1091,-16.99904,-8.25974,-1.36762,-4.18868,-1.47092,-0.01558,-26.30617,-24.92146,0.41827,17.92813,-0.66087,-0.13134,-51.16706,21.97532,-9.38123,0.13292,-0.01124,-0.14527,7.33676,42.56028,-16.521,11.4943,-35.13904,-7.96616,10.67654,1.50585,-5.34072,10.92999,-6.37381,5.3676,1.54543,-0.10195,-1.18855,2.53498,0.51513,2.13077,0.30168,0.12503,-0.30619,0.3284,-0.07199,0.44443
1092,-18.11687,-8.92481,-1.35774,-5.04184,-2.16568,-0.11934,-17.13996,-33.78769,3.36023,13.989,-2.35765,-1.23813,-52.00481,22.15339,-10.02779,-0.12283,-0.04943,-0.139,14.91695,28.98215,-8.79038,15.14922,-1.43423,-25.03191,9.33163,-0.16164,-6.40393,9.11415,-6.12663,-1.70015,0.61935,-0.21938,-0.00344,3.66427,1.65676,1.75819,0.14341,-0.03296,0.04352,0.48825,0.13364,0.22526
1093,-20.36539,-8.62088,-1.52043,-5.77047,-1.94562,-0.06783,-16.01405,-40.10535,6.17652,8.77591,-2.51951,-1.72067,-53.14897,22.48584,-10.62351,-0.34368,-0.11566,-0.07349,9.17216,17.39471,-2.44242,6.76789,15.49859,-15.12292,8.5039,-0.56167,-3.71516,8.08854,-4.27772,-1.36061,0.78218,-1.3696,0.83601,3.01754,1.98801,0.77218,0.15723,-0.27378,0.29569,0.44571,0.28932,-0.00532
1094,-22.87295,-5.87089,-2.28943,-6.91423,-3.04905,-0.24352,-20.32761,-33.41339,5.98326,7.45112,-6.54521,-4.52449,-54.61831,23.13809,-11.005,-0.54927,-0.31306,-0.13091,2.91443,18.71177,-8.22202,-2.9106,1.70498,6.68826,8.38446,0.45056,0.9226,5.70356,-1.84356,2.59323,1.99803,-2.60625,0.47007,1.41821,1.1048,0.15983,0.36303,-0.40966,0.18802,0.19067,0.22841,-0.12467
1095,-25.27084,-2.0041,-3.42472,-7.90535,-4.94845,-0.62534,-23.97348,-19.15467,2.79937,10.5769,-13.54761,-8.69131,-56.51242,24.2621,-11.31217,-0.77046,-0.53795,-0.37236,6.0079,27.27954,-22.29446,-5.78061,-22.73282,13.96521,6.42129,1.57614,3.64804,2.7624,-0.10658,2.58915,3.19817,-2.31529,-1.15408,0.9527,0.4947,0.45297,0.52852,-0.25455,-0.21681,0.01749,0.11506,-0.10702
1096,-28.11037,0.06321,-4.20938,-8.44949,-4.71725,-0.77873,-26.62346,-12.25088,-0.38862,11.99151,-12.17854,-7.37759,-59.03942,25.82168,-11.8484,-0.8703,-0.57722,-0.65026,7.66391,38.95615,-26.37632,1.91779,-31.93354,6.00438,3.19042,1.7271,3.50181,2.18693,0.08106,-0.93251,3.90004,-1.02197,-2.79432,1.94423,0.83823,1.40018,0.56429,-0.00279,-0.52541,0.06232,0.0923,0.01269
1097,-31.2125,-0.83523,-4.14962,-9.08322,-2.79762,-0.68264,-28.71798,-20.71861,-0.15018,6.56579,-1.15531,-0.13582,-62.39716,27.69081,-12.69088,-0.69185,-0.46783,-0.80971,-2.69372,45.7413,-13.31757,8.07144,-15.60301,4.01518,3.05542,0.96439,1.83306,3.97109,-1.04431,-1.55377,4.37056,-0.69494,-3.10656,2.59293,1.02133,1.88084,0.61399,-0.03122,-0.4602,0.17704,0.05762,0.11244
1098,-33.18767,-2.65838,-3.59837,-9.15438,-2.10083,-0.57844,-25.99483,-36.78099,3.36296,-0.46685,5.47675,4.20821,-66.53522,29.80181,-13.59272,-0.21293,-0.35119,-0.75293,-10.91306,36.20643,2.16795,-7.80555,16.56414,13.60311,6.38205,0.10341,-1.68297,4.96302,-2.18172,2.22339,3.976,-1.09862,-2.11297,1.68982,0.23938,1.11515,0.59858,-0.24951,-0.15976,0.20405,-0.08421,0.09274
1099,-33.79978,-2.70534,-3.3414,-7.53844,-3.30494,-0.45017,-17.54037,-45.72327,6.54893,0.9691,-1.0572,0.31764,-71.13577,32.03472,-14.31919,0.40238,-0.23602,-0.48787,1.69408,14.63576,4.27896,-31.71342,40.7608,17.8814,8.32431,0.0338,-6.81587,3.68022,-2.50774,6.04328,2.08656,-0.30461,-1.0679,0.1038,-0.98242,0.00558,0.29882,-0.15323,0.00659,0.12348,-0.26917,0.04011
1100,-34.17557,-0.49608,-3.6993,-5.21718,-4.17935,-0.1605,-9.00273,-41.19229,6.71124,11.31134,-11.4352,-6.09948,-75.86731,34.17524,-14.85116,0.79918,-0.07552,-0.15069,28.72198,3.50868,-4.4142,-25.73606,34.35722,8.255,6.35767,1.04181,-9.7922,2.96562,-2.46658,7.03801,-0.14962,1.70096,-0.90196,-0.29837,-1.29989,0.03633,-0.17537,0.36221,-0.11716,0.0914,-0.31663,0.12906
1101,-35.05228,2.33707,-4.27153,-3.80073,-2.05898,0.2735,-6.21487,-29.02881,4.55527,21.8823,-9.575,-5.5391,-80.60684,36.10499,-15.27893,0.77335,0.14941,0.1486,47.16798,21.1678,-9.73431,7.36461,-10.89055,-1.79564,4.01375,2.46753,-6.87091,5.30999,-2.57317,6.70517,-0.71492,2.46058,-1.23196,0.88118,-0.1409,1.17202,-0.36604,0.69318,-0.30504,0.22899,-0.11354,0.33526
1102,-36.66121,4.50234,-4.60139,-3.11076,2.32453,0.59435,-10.79157,-18.12651,2.40769,26.40398,5.29977,2.62673,-85.30605,37.88007,-15.67065,0.55427,0.3558,0.37268,43.89191,57.65797,-6.19252,30.85461,-74.11025,0.56386,4.93385,3.34759,0.87675,8.53028,-2.85127,6.94596,0.98742,0.6429,-1.34104,2.15738,1.19683,2.17522,-0.00441,0.39494,-0.31719,0.39473,0.17193,0.45741
1103,-38.71764,6.29458,-4.71684,-1.48846,4.76292,0.56888,-18.44168,-12.27976,1.66387,25.90484,16.85277,9.10906,-89.7971,39.61982,-16.02628,0.53274,0.40496,0.47473,26.85616,82.56995,-1.33051,33.61583,-107.99835,8.14891,6.95516,2.9796,8.38031,8.64912,-2.93134,5.9094,3.17499,-2.0999,-0.99812,2.22372,1.30442,2.17193,0.5283,-0.21448,-0.14911,0.33845,0.2673,0.33117
1104,-40.28425,7.64712,-4.5575,2.05499,3.5767,0.32636,-22.41758,-12.63091,2.89053,25.63653,15.8982,8.29825,-93.96195,41.3707,-16.33268,0.76988,0.29203,0.43686,15.162,80.49324,0.27478,27.42802,-84.48179,6.55091,6.37954,1.44767,9.73384,5.01771,-2.41945,1.60737,3.74865,-3.17041,-0.64403,1.34043,0.29637,1.48277,0.69816,-0.52231,-0.01002,0.06539,0.1203,0.04156
1105,-40.2387,7.21694,-3.68811,-7.99978,-8.96023,-0.69508,-19.18865,-20.30138,6.02349,0.47927,-7.51915,-0.7803,-97.80772,42.97365,-16.59883,-6.37233,-2.55348,-0.83536,-10.21966,40.22075,-2.29551,10.59509,-28.86221,-3.35526,4.52185,0.02026,3.23155,1.21035,-1.57438,-3.1286,2.37554,-2.0323,-0.58668,0.40121,-0.49552,0.69219,0.44632,-0.3747,-0.04555,-0.19571,-0.04118,-0.19223
1106,-37.5689,5.31572,-2.36519,-5.25463,-11.15437,-0.61521,-9.68351,-30.02598,8.8335,1.11582,-15.15002,-4.19265,-101.19905,44.09418,-16.74021,-8.30735,-2.89883,-0.99717,7.10768,17.6219,-0.8013,-15.7732,9.06805,-8.13127,4.93441,0.00661,-4.82439,0.11798,-0.95116,-4.5077,0.47699,-0.56526,-0.47136,-0.31349,-0.20758,-0.1485,0.09234,-0.12107,-0.13328,-0.31125,-0.03648,-0.28182
1107,-32.36919,4.46443,-1.63192,-4.84264,-13.38172,-0.41717,1.58955,-31.66796,8.64971,-4.42627,-22.54834,-6.94587,-103.73861,44.40131,-16.572,-10.63484,-3.22675,-1.13331,20.21025,5.40543,-4.66874,-27.17071,6.46184,-3.89404,7.61523,1.40501,-7.09691,0.79857,-0.60259,-3.25577,-0.25579,-0.1547,-0.26142,-0.75197,0.58888,-0.87408,-0.05827,-0.01507,-0.13468,-0.27871,0.0425,-0.24391
1108,-27.03098,5.78791,-1.84561,-7.4835,-14.56105,-0.25842,8.83,-22.96615,5.90452,-20.58953,-25.5535,-8.07072,-104.92474,43.70291,-16.01204,-13.11227,-3.52836,-1.15645,11.00422,8.43622,-10.25402,-13.86925,-18.28985,0.85254,9.67298,2.89058,-3.78222,1.69594,-0.33028,-1.81997,0.19833,-0.47183,-0.08522,-0.76055,1.23262,-1.21868,-0.02209,-0.02022,-0.03048,-0.12967,0.10807,-0.14049
1109,-23.689,8.12274,-2.38945,-12.22017,-12.98538,-0.23623,11.17107,-11.53978,3.20691,-43.84487,-20.29836,-5.9186,-104.53506,42.18361,-15.13313,-15.77136,-3.75607,-0.9822,-19.29972,20.41383,-8.51769,0.90239,-30.67905,0.85899,9.27602,3.01266,0.24327,2.70067,-0.21285,-0.83005,0.80563,-0.97892,0.09052,-0.49715,1.72399,-1.24586,0.06693,-0.08126,0.08239,0.03422,0.21286,-0.07184
1110,-21.16769,9.80536,-2.56611,-15.8777,-8.99601,-0.28448,13.92201,-5.21144,2.18892,-62.43977,-10.02664,-1.61321,-102.72711,40.28403,-14.06483,-18.85479,-3.94222,-0.67264,-46.51662,30.16545,1.06723,1.96475,-15.32856,-2.66569,7.07479,1.74841,2.52458,3.71911,-0.13116,-1.57518,1.10977,-1.59061,0.11754,-0.01625,2.14925,-0.83885,0.19071,-0.18656,0.05564,0.11198,0.34443,-0.0706
1111,-16.54468,10.13777,-2.25042,-13.95083,-4.643,-0.18096,22.82154,-5.31161,2.57856,-61.91075,-2.62006,1.47812,-99.38624,38.10009,-12.85909,-22.10721,-4.13149,-0.40206,-38.66055,30.28662,8.77915,-2.07426,8.85232,-5.41333,5.5363,0.71626,3.74819,4.0928,0.20129,-4.95978,1.19855,-2.14286,-0.06489,0.69671,2.34387,-0.00075,0.29713,-0.25182,-0.0948,0.10447,0.38062,-0.09938
1112,-9.30152,10.04072,-2.05077,-4.20099,-2.33489,0.28364,36.48151,-7.23005,3.40495,-41.77995,-4.29792,0.30575,-93.98765,35.30475,-11.49293,-24.88827,-4.24156,-0.31214,5.35509,17.8415,6.59063,-3.29818,15.23733,-2.61782,6.73193,1.11614,3.8286,3.80899,0.52126,-7.88732,1.08964,-2.35224,-0.10134,1.21115,2.20561,0.51483,0.27569,-0.22467,-0.15485,0.08614,0.28368,-0.14671
1113,-2.89024,9.2612,-1.7875,8.43143,-2.13827,0.94865,44.04301,-8.22267,4.62453,-27.68409,-11.62562,-3.96971,-86.29568,31.49141,-10.06529,-27.15492,-4.06726,-0.32726,33.23976,-3.51256,-0.19535,-2.41849,5.38118,0.89425,9.57476,2.21467,0.30325,3.94754,0.50634,-7.45954,0.46087,-1.83817,0.38585,1.39282,2.10725,0.39234,0.10379,-0.12869,-0.00346,0.16858,0.19355,-0.15938
1114,0.89681,6.2603,-0.41978,16.49535,-0.8015,1.34423,43.06381,-8.96034,5.74727,-44.12681,-12.90089,-5.572,-76.55782,26.64728,-8.58928,-29.30347,-3.44806,-0.22842,5.10094,-20.48377,2.00587,3.17698,0.34256,-5.1215,10.83311,2.6668,-6.11914,5.05709,0.1735,-5.67363,-0.79757,-0.6603,1.26087,1.56584,2.27877,0.39454,-0.13585,-0.01367,0.23986,0.34695,0.19356,-0.02443
1115,6.26445,2.66756,1.16127,19.84698,3.6019,1.36038,51.78602,-7.43423,5.15675,-79.2589,-3.68123,-1.45138,-65.23914,21.53696,-6.82084,-31.41004,-2.47083,0.02788,-37.48634,-22.32141,17.694,18.0784,8.47293,-15.71414,9.11025,2.08963,-7.79304,6.56424,-0.48087,-5.34104,-1.73065,-0.24716,1.82988,1.57739,2.54612,0.78978,-0.32041,-0.055,0.39274,0.42038,0.21613,0.19909
1116,16.62526,2.17769,0.43313,24.71848,8.10099,1.4105,82.37799,-0.75442,3.18592,-99.71932,6.15309,3.78158,-52.85513,17.07251,-4.74424,-33.00743,-1.40415,0.19924,-29.59364,-15.85114,35.51339,33.32168,19.44976,-16.2367,6.09065,0.93821,-0.62772,7.70092,-0.77543,-6.18091,-1.08462,-1.673,1.31753,1.08524,3.31648,0.63118,-0.31221,-0.33521,0.31987,0.30434,0.32884,0.21201
1117,27.18853,5.46576,-3.21548,34.34536,10.10126,1.56042,113.39625,11.22037,1.2835,-93.99018,8.72581,4.32236,-40.23455,13.52315,-2.79051,-33.50783,-0.4038,0.0211,15.5791,-12.37203,39.08775,31.25884,17.61978,-5.68357,4.15494,-0.15741,8.14122,7.04488,-0.09551,-6.33311,0.85235,-3.65353,0.00553,0.17461,4.20969,-0.60072,-0.08019,-0.6009,0.08239,0.11491,0.5352,-0.10637
1118,30.22935,8.99411,-6.96052,45.3514,12.71462,1.14372,115.03932,24.34783,-0.28735,-78.9977,11.49267,1.15383,-28.71586,10.66798,-1.36666,-33.03297,0.56262,-0.45419,33.34241,-9.79918,25.5642,17.70383,2.20848,3.72488,4.39857,-0.57666,9.76963,4.08899,0.34925,-4.47779,2.30155,-4.16491,-0.69071,-0.82931,3.4546,-1.943,0.19355,-0.58948,-0.02576,-0.08464,0.52896,-0.43942
1119,23.25941,10.44916,-8.60907,53.87945,20.43094,-0.19017,88.76326,35.25492,-2.41207,-69.11224,25.66543,0.35128,-19.42669,8.34406,-0.52715,-32.19007,1.60524,-0.88414,8.31281,4.27504,9.52511,18.96567,-3.68161,2.69292,6.3296,0.2452,3.28554,1.49334,-0.43036,-1.28206,1.98607,-2.45657,-0.19406,-1.50878,1.42684,-2.35493,0.31285,-0.27997,0.06483,-0.24116,0.30637,-0.50337
1120,10.99872,11.94522,-10.52179,60.73722,31.15927,-1.67554,62.94753,47.10897,-5.96728,-65.91861,46.48776,4.31193,-12.46102,6.53821,-0.17775,-31.17308,2.69925,-1.1104,-21.75721,30.63983,4.5333,35.9508,9.79925,-7.79162,9.1472,2.24389,-4.46729,1.70305,-1.01061,-0.28883,0.36363,-0.01381,0.6518,-1.47881,0.94101,-2.01666,0.24115,0.094,0.11421,-0.26648,0.27158,-0.43993
1121,0.51827,14.25217,-14.44456,68.91595,39.02304,-2.33605,55.96421,56.89713,-8.83717,-69.95551,60.17244,9.65332,-7.29747,5.00209,-0.20022,-29.86748,3.71351,-1.26099,-35.98822,44.79544,10.38947,43.53033,16.55877,-20.77554,12.22645,4.48189,-5.62889,3.96328,0.00971,-4.94664,-0.89963,0.69263,0.87961,-0.40703,3.11364,-1.20704,0.07925,0.25277,-0.00432,-0.14002,0.51303,-0.44198
1122,-5.04821,14.05766,-16.49602,78.59465,42.01471,-2.13385,58.90796,50.45461,-7.99461,-77.21516,61.50124,11.57547,-3.70042,3.33121,-0.35965,-28.22371,4.5646,-1.47304,-43.39046,19.46347,15.40108,31.16153,6.93259,-30.23962,13.38955,5.70013,-2.30939,5.90335,1.12537,-12.22352,-1.28278,0.11603,0.53892,1.18995,5.39356,0.06411,-0.13165,0.25309,-0.13115,0.02151,0.61659,-0.39442
1123,-7.09683,9.23618,-12.19261,85.9939,43.38649,-2.01409,56.39619,21.41523,-4.04822,-78.52326,58.40595,8.80049,-1.6144,1.45955,-0.36931,-26.26625,5.18615,-1.72088,-50.57744,-37.99925,11.43113,14.2916,8.46798,-31.99495,11.77866,4.77712,-2.83722,5.78126,0.18785,-13.85992,-1.37758,0.07069,0.33419,1.57744,4.79204,0.80199,-0.3035,0.22538,-0.10043,0.01828,0.33452,-0.21022
1124,-5.69964,0.74141,-1.80625,89.16203,47.15832,-2.78317,54.40185,-19.60721,1.51357,-71.06387,64.15631,5.41939,2.14264,-1.1714,0.16271,-24.04499,5.51074,-1.84284,-45.64978,-90.1416,7.19319,11.92895,27.3731,-24.76937,9.69048,2.0837,-7.52992,4.07812,-2.03725,-7.28191,-0.85942,0.19843,0.21727,0.03443,1.94257,0.13066,-0.20368,0.11775,-0.02657,-0.15605,-0.01305,-0.00329
1125,-5.65728,-3.22033,4.52358,92.52261,54.22175,-4.06294,51.5615,-40.44686,4.1924,-58.99089,83.04226,6.28009,2.25528,-1.6309,0.28964,-21.53179,5.70529,-1.66769,-34.2212,-89.8259,9.22458,22.4591,33.83344,-12.30116,8.94163,-0.44912,-8.56917,2.80507,-3.05415,0.34678,0.55398,-0.93474,-0.1205,-1.63049,0.07198,-0.95061,0.13959,-0.16696,-0.02611,-0.20521,-0.00316,0.14102
1126,-5.16531,-2.05996,2.72294,99.17375,61.23333,-4.8462,56.16301,-27.87107,7.42375,-48.59425,101.59918,10.04518,2.62537,-1.28039,0.2607,-18.76739,6.08029,-1.31338,-13.94089,-40.48631,21.14361,33.01714,22.27097,-1.53405,8.47322,-1.09645,-3.3384,2.78133,-2.04107,1.29847,1.9068,-2.54371,-0.53673,-1.58755,0.89201,-1.41548,0.37532,-0.43404,-0.03407,0.01537,0.37913,0.09964
1127,-2.34283,2.35318,-4.90172,105.69962,63.40987,-4.77844,55.91513,7.19,11.40998,-44.66751,103.76499,11.07204,2.80916,-0.25096,0.16146,-15.91633,6.64059,-1.23915,-6.95299,19.43,30.02795,47.97907,22.7396,2.01273,6.50434,0.00307,1.8285,3.40343,-0.7087,-3.94869,2.48135,-2.38491,-1.04528,-0.3666,3.02146,-1.714,0.36738,-0.36397,-0.04876,0.24375,0.76308,-0.24195
1128,-0.44976,4.33085,-7.64376,109.48719,61.06678,-4.27044,42.10436,21.94918,9.25879,-47.01939,92.36877,7.68981,2.59401,0.58162,0.25167,-13.32055,7.2481,-1.51031,-28.13464,27.07267,19.10438,69.41532,41.76937,-0.27477,3.69875,1.07144,2.28236,3.29854,-1.09253,-8.36779,2.51651,-0.7179,-1.60131,0.27055,3.33456,-2.12128,0.29822,-0.06918,-0.12618,0.13787,0.65436,-0.65528
1129,-3.24577,1.88555,-1.62223,112.0842,59.01966,-3.5893,25.30489,-1.83357,-5.43238,-51.5453,80.51517,3.28578,2.08806,0.63275,0.50094,-11.44948,7.90793,-1.52691,-60.53235,-31.67717,-14.33506,71.57217,56.96849,-3.03058,2.34737,0.99311,0.20749,3.16963,-2.84632,-8.47395,2.1766,0.22418,-1.69173,-0.09566,2.00364,-2.36166,0.27843,0.10212,-0.20821,-0.1819,0.21505,-0.83216
1130,-8.36639,-0.7713,4.31981,114.37462,59.09905,-2.60623,27.31122,-30.02337,-20.84924,-51.66924,72.24541,0.45767,1.71794,0.32525,0.62726,-10.18057,8.47997,-0.91525,-63.40509,-98.09875,-44.39031,45.91447,66.24788,-7.18314,4.3173,0.47819,-2.17259,5.39656,-4.34841,-7.97469,1.51913,-0.17689,-1.17089,0.17437,2.39249,-1.94598,0.28213,0.0579,-0.22608,-0.24226,0.10654,-0.6797
1131,-12.60733,-0.04759,3.34186,114.29028,59.62091,-1.62745,53.24431,-26.89227,-14.80494,-44.91463,67.74015,-0.69572,1.65119,0.14146,0.55758,-8.78872,8.64529,0.01004,-20.73631,-109.74686,-37.3088,24.41716,81.28242,-18.08082,9.41651,0.33487,-5.79554,8.68935,-5.24249,-10.17603,1.04191,-0.82828,-0.67359,1.82603,4.59522,-0.54588,0.32577,-0.11456,-0.21924,-0.04489,0.27172,-0.30571
1132,-14.62887,2.37252,-0.99089,110.43898,59.09197,-1.25127,79.63293,0.4542,14.37762,-36.24316,69.81876,-0.63212,1.59659,-0.09812,0.40729,-6.74068,8.27793,0.75633,34.10003,-63.68324,5.70473,24.50986,90.57319,-31.40876,13.82273,0.35151,-9.97967,9.02318,-5.66692,-12.5252,0.93867,-0.83608,-0.57996,2.54553,5.58162,0.37789,0.36444,-0.28146,-0.20532,-0.1427,0.22425,-0.07575
1133,-13.54098,2.70599,-2.53787,105.58965,57.75635,-1.25242,79.08161,19.96001,39.74286,-30.01766,76.22762,0.44073,1.38963,-0.68122,0.19978,-4.18482,7.63226,1.26792,55.78455,-10.17613,42.32161,27.12884,73.37393,-33.09612,13.14003,0.32658,-10.54617,6.90716,-5.35099,-10.62327,0.56217,-0.35549,-0.39737,1.5642,4.456,0.05331,0.20454,-0.27975,-0.09622,-0.37973,0.01872,-0.04102
1134,-10.15616,-0.26538,0.0573,102.6589,58.39518,-1.04862,50.19697,15.20253,35.41741,-28.70771,82.79202,3.67111,1.21585,-1.44614,-0.08436,-2.17769,7.15761,1.95474,28.57054,8.23599,35.84003,17.876,37.53459,-16.15373,8.68504,0.72887,-4.75044,6.19779,-4.55356,-5.1764,-0.39365,-0.50622,0.2571,0.87676,3.13198,-0.47392,-0.19612,-0.11898,0.11791,-0.14882,0.05255,0.02676
1135,-6.79543,-4.26956,3.71588,103.16506,59.61398,0.04924,13.21715,-2.17594,5.95237,-26.53538,80.76631,8.02584,1.2797,-1.88838,-0.36879,-1.56523,6.82639,2.7806,-21.22222,-11.28315,-9.25587,9.10896,13.64831,8.04147,6.0171,1.66682,3.46831,7.09687,-4.3189,-1.39041,-1.13204,-1.71885,0.83127,0.9278,2.9001,-0.87086,-0.53623,0.01383,0.26426,0.29456,0.371,0.0623
1136,-5.87418,-5.57635,4.31697,106.20044,56.81593,2.10175,-6.03744,-11.77516,-17.1187,-17.06734,64.97125,9.66563,1.61391,-1.68834,-0.5087,-1.92113,6.20325,3.24401,-47.96299,-41.32487,-50.21313,17.691,15.89602,18.61623,6.89435,2.12055,6.0816,6.58522,-5.02637,-2.51022,-0.67889,-2.46245,0.51221,1.04901,2.86698,-1.00966,-0.47121,0.03398,0.20061,0.43892,0.57268,-0.02534
1137,-7.93206,-2.25504,0.50456,106.17245,51.69959,3.60995,7.9028,-6.84497,-8.38143,-9.36499,48.85117,7.68002,2.08176,-1.07816,-0.42415,-2.41794,5.26038,3.38777,-31.12409,-48.99626,-44.81263,38.89838,27.56214,8.55234,8.00558,1.35883,1.20745,3.83391,-5.41737,-6.87693,0.71292,-1.58076,-0.47158,1.0107,2.48558,-1.26553,-0.07826,-0.00736,0.02948,0.26717,0.51272,-0.30094
1138,-9.53475,3.01667,-4.13014,101.68277,47.61116,3.91689,42.04792,2.19329,20.41505,-7.80277,41.0754,3.37722,2.62908,-0.58541,-0.16807,-2.58153,4.30764,3.60763,13.51239,-37.82661,-6.7579,52.05315,24.6705,-7.39382,7.47379,0.34929,-4.00437,1.98063,-4.95338,-8.61651,1.62204,-0.27132,-0.96983,0.92903,1.98272,-1.70054,0.23577,-0.02314,-0.0507,0.05228,0.31733,-0.58171
1139,-8.19689,4.68859,-4.72425,96.29816,45.44015,3.84382,66.57954,3.40393,33.84342,-7.5021,36.71638,-1.47734,3.30846,-0.47409,0.15446,-2.39968,3.67179,4.1641,48.82077,-34.93151,9.85473,38.93677,6.41274,-13.23134,7.53564,0.32383,-4.0779,3.44726,-4.87628,-3.6121,1.11273,-0.1406,-0.44662,0.38965,1.24912,-1.93822,0.26188,0.02034,-0.03602,-0.1033,0.10282,-0.61262
1140,-7.55878,1.47772,-1.91984,92.2331,45.08987,3.9971,65.77272,-1.43093,21.87102,-4.30342,33.5349,-4.05668,3.80721,-0.59277,0.46133,-2.19664,3.45158,5.03725,55.4971,-41.98688,-8.67773,2.81192,-7.87423,-8.42854,9.6753,1.05088,-0.81289,5.99321,-5.93469,4.55167,-0.50122,-1.24185,0.59778,-1.17917,0.08561,-2.08795,0.06245,0.03724,-0.02507,-0.31465,-0.09293,-0.48553
1141,-10.62203,-0.86688,-0.69988,89.7254,44.34452,4.44106,45.29473,-3.24971,10.14441,5.05453,33.77868,-2.41768,3.64248,-0.65548,0.66557,-2.22452,3.26697,5.75067,48.71096,-37.43231,-18.73322,-26.64329,-5.42426,1.11832,11.54658,1.77785,3.08525,5.88368,-6.86994,9.07418,-1.62748,-2.61494,1.12156,-3.12753,-1.26723,-2.04003,-0.13088,-0.05238,-0.03512,-0.58606,-0.29859,-0.31249
1142,-13.80488,1.83603,-2.23747,87.60953,41.57653,4.78203,22.62155,-1.10952,12.72257,15.74193,39.11454,2.53684,2.99959,-0.54716,0.7015,-2.40193,2.76687,5.87295,45.07219,-14.85251,2.91371,-22.19905,6.37647,13.20681,10.66257,2.26664,7.06443,3.74597,-6.58779,7.92457,-0.70428,-3.55681,0.47313,-3.72318,-1.77146,-1.56061,-0.05366,-0.19645,-0.02588,-0.69579,-0.4239,-0.08117
1143,-13.06804,5.57639,-3.34769,84.2327,37.04099,4.97033,11.33319,0.5294,11.96247,15.04908,41.00229,6.53221,2.45377,-0.35532,0.54846,-2.81855,2.08674,5.56729,34.99158,0.85456,19.50639,13.48066,11.30187,24.94365,7.31929,2.24558,9.43196,3.31205,-6.27184,4.18702,1.54442,-3.64375,-0.70236,-1.9798,-0.79644,-0.76234,0.24868,-0.25929,0.02649,-0.49567,-0.33128,0.11325
1144,-10.11572,6.80654,-2.89436,80.04125,32.07274,5.54205,5.88185,2.47836,-0.90132,1.36777,29.42137,6.43597,2.12312,-0.06221,0.41904,-3.85902,1.57778,5.38664,0.34279,-7.01241,1.78269,54.50056,8.04598,29.25532,3.64095,1.63838,7.72105,4.57748,-6.79997,1.17295,2.75451,-2.49665,-1.27825,0.39911,0.54144,-0.16523,0.45324,-0.16174,0.0389,-0.26835,-0.11751,0.0627
1145,-7.98356,7.70943,-1.47473,77.04128,28.95056,6.43396,-2.00479,7.27435,-9.09954,-10.07335,12.58233,4.71885,1.9833,0.28271,0.87313,-5.42377,1.35354,5.65146,-43.11665,-20.20462,-25.87653,72.02943,6.33408,21.39818,2.44935,0.9962,3.39059,4.06388,-6.75904,-0.73733,1.58613,-1.04473,-0.72875,0.67531,0.95398,-0.70078,0.3161,-0.04728,-0.0237,-0.35305,0.00177,-0.24333
1146,-6.34361,8.07947,0.79131,74.43424,27.96036,6.89406,-6.66616,13.80217,-6.64129,-10.04766,6.48892,5.15521,2.1059,0.23718,1.88323,-6.89826,1.10058,6.12133,-58.40478,-16.55356,-33.6032,56.5399,5.20597,6.88025,5.29711,0.7756,0.56498,0.60372,-5.01935,-2.51314,-0.46941,-1.09427,0.13831,-1.37192,0.36534,-2.23144,0.00147,-0.15869,-0.08971,-0.60704,-0.04688,-0.4618
1147,-4.03445,4.97934,2.24431,70.18627,26.90405,6.64654,-6.77112,19.48329,-9.20457,-4.14301,13.90317,7.56488,2.33905,-0.33932,2.33548,-7.77216,0.49019,6.39051,-42.22433,5.25005,-26.36689,28.78841,-0.19254,-3.6917,9.44862,0.91184,0.92916,-3.11678,-3.06168,-4.64778,-1.32908,-2.5906,0.32424,-2.94698,-0.43947,-2.85252,-0.23862,-0.42601,-0.05373,-0.59886,-0.13196,-0.35914
1148,-1.62266,0.98863,1.47436,66.40245,24.53254,6.36227,-13.48967,21.19624,-20.81819,3.30049,23.9257,9.41922,2.41827,-0.75152,1.61381,-8.00854,-0.34623,6.39958,-27.19354,30.40843,-19.88538,26.1136,-7.29396,-9.55106,11.30441,1.06033,3.5475,-4.22597,-3.67223,-8.79195,-1.07732,-4.20045,0.14022,-1.50002,-0.40605,-2.00503,-0.37507,-0.57782,0.12241,-0.18847,-0.1051,-0.2748
1149,-0.77182,2.34686,1.23719,65.34336,21.56227,6.6924,-30.8271,17.39811,-23.97413,10.92803,25.71762,9.63053,2.19991,-0.45529,0.81499,-8.2121,-1.05773,6.36988,-36.184,41.59587,-11.8375,57.62602,-14.00227,-18.60585,10.42618,0.9851,6.47371,-3.63503,-6.77694,-15.4381,-0.50162,-5.11611,0.04969,1.79799,0.35684,-1.03054,-0.33188,-0.52253,0.25695,0.26141,-0.02865,-0.43452
1150,1.10132,7.67234,4.80702,65.48367,19.12922,7.48272,-45.84266,10.49494,-10.21662,17.61694,19.31356,9.21885,2.02484,-0.02311,1.13544,-9.00783,-1.52427,6.46893,-51.64845,32.97112,7.07406,77.32222,-22.05237,-27.96496,7.36792,0.47302,8.5155,-4.19843,-7.76739,-19.26411,0.33331,-5.33145,-0.14556,3.60453,0.74848,0.59868,-0.03157,-0.46838,0.19372,0.37563,-0.00044,-0.35884
1151,5.76495,8.61331,8.29026,65.87431,17.57344,8.28121,-52.31805,3.97919,3.60732,24.94173,12.6186,9.19845,2.09187,-0.14753,1.77734,-10.35076,-1.91502,6.66599,-50.36206,14.21741,28.8033,56.36723,-36.62099,-21.8012,2.81042,-0.1835,10.44726,-5.42327,-3.00186,-14.17756,1.26112,-5.24159,-0.54423,3.14016,0.83835,4.62695,0.30129,-0.59011,0.07022,0.2058,0.05624,0.33154
1152,8.4431,4.44554,6.74011,67.41801,17.31126,8.6498,-55.30109,-1.99423,6.50483,28.36401,13.08841,9.38558,2.01116,-0.52096,1.37793,-11.98013,-2.42887,6.91643,-40.75276,-1.84005,46.29036,46.03358,-64.18482,3.05805,-0.32809,0.28729,12.77918,-5.01107,4.85644,-3.73989,1.81322,-4.90993,-0.99304,2.3468,1.48443,9.36136,0.36119,-0.67322,0.05984,0.05215,0.21569,1.12549
1153,5.56529,2.64557,4.4288,71.18414,19.60798,8.28638,-61.8334,-10.03991,10.35176,25.02234,23.3684,9.68684,1.41306,-0.53269,0.2608,-13.79707,-3.01048,7.32199,-43.04682,-7.43242,70.91825,93.73936,-96.8719,24.97526,1.25237,2.37314,13.92611,-3.98021,9.3189,0.73238,2.17445,-4.46362,-1.71822,2.18656,2.17898,10.39995,0.2298,-0.5647,0.05945,0.07736,0.32554,1.20124
1154,-6.2883,4.99112,5.475,76.81175,22.74125,8.05448,-89.23223,-18.64138,19.25133,27.45488,35.76573,11.01141,0.28277,-0.10666,-0.62212,-15.68583,-3.57375,7.87124,-69.08877,1.38786,99.1425,159.40874,-109.01788,22.87105,5.73647,4.34512,11.74763,-5.37188,7.87749,-4.2582,2.52161,-3.92969,-2.62524,1.47307,1.81717,7.44869,0.14618,-0.44369,-0.06241,0.13195,0.21345,0.68928
1155,-39.86451,5.55641,1.54591,82.25768,22.11372,9.44111,-153.32138,-20.73597,13.29976,45.94249,38.46989,13.62391,-1.63582,0.63039,-1.42574,-17.53936,-4.28964,8.33057,-127.02184,23.64884,93.11448,180.28343,-87.59651,-0.36738,8.6753,4.33494,5.76996,-8.85875,3.74607,-10.91329,2.33288,-2.92713,-2.99571,-0.10733,1.04757,4.94245,0.13484,-0.39523,-0.26112,0.03506,0.05218,0.42997
1156,-100.90179,1.04486,-16.31738,85.78086,19.04579,11.60565,-235.65517,-8.62262,-26.94431,69.83452,35.32055,15.87809,-5.13702,1.54032,-2.55189,-19.37435,-5.17375,8.71217,-208.34233,56.7788,16.79598,152.44406,-54.52876,-26.39434,10.46614,2.99185,-1.16054,-10.49045,-0.33971,-13.52245,1.71187,-2.07426,-2.70174,0.02875,1.2979,5.47411,0.16711,-0.33911,-0.44122,0.02207,0.13764,0.70994
1157,-158.72423,-5.78257,-41.24436,86.84018,19.97635,12.16104,-271.09766,20.16486,-94.75816,81.42277,38.11595,16.07844,-9.31672,2.38572,-3.54535,-21.19257,-5.93101,9.3123,-252.94678,89.4078,-118.952,111.8995,-35.517,-40.69312,12.79692,2.01266,-5.01342,-9.259,-3.52618,-14.0766,1.85891,-2.23723,-2.57123,2.88145,2.3813,7.18939,0.32526,-0.23281,-0.54297,0.27332,0.39725,1.04801
1158,-168.08855,-10.59981,-57.27356,86.21944,24.97854,11.32812,-209.54788,49.83029,-150.30949,76.63069,41.14241,14.63515,-10.95999,2.78853,-3.81377,-22.78374,-6.48542,10.14505,-201.08658,92.99709,-239.40182,87.64908,-29.25327,-40.28064,11.73573,1.1495,-3.86283,-8.30612,-4.69742,-15.23444,2.71269,-2.69831,-2.56161,5.28217,3.05594,7.3005,0.52556,-0.13009,-0.42872,0.43258,0.51616,0.91344
1159,-122.29481,-11.08312,-55.10991,87.72325,28.9137,11.33642,-90.51276,51.88432,-145.70802,72.28859,35.20208,13.52915,-8.47837,2.52936,-3.53945,-23.90656,-7.04373,10.95235,-79.26748,56.36992,-252.68613,83.12591,-25.46146,-30.37709,4.18581,-0.29304,1.85392,-8.1483,-4.77953,-15.81797,2.33233,-2.43534,-1.21338,5.59399,2.75185,5.58306,0.4158,-0.15445,0.07662,0.38622,0.36626,0.41396
1160,-54.80159,-7.5346,-37.89997,94.36688,31.33918,12.58156,5.64583,22.83276,-79.87426,87.37614,29.24821,13.31634,-3.71775,1.93533,-2.98551,-24.71748,-7.6521,11.70577,42.50333,10.97469,-152.30243,80.44453,-17.76564,-19.3399,-3.18122,-1.19262,7.59057,-6.62278,-5.34561,-13.07036,0.37301,-1.91289,1.1715,5.25034,2.07984,4.08934,-0.00481,-0.32869,0.65784,0.42145,0.19538,0.1796
1161,-1.60454,-2.82098,-17.22608,103.31298,35.3586,13.6188,48.89389,-8.0442,-8.20503,116.8446,32.41818,12.54288,0.42456,1.30336,-2.0511,-25.38147,-8.1418,12.5479,129.52814,-11.88034,-33.71437,69.26578,-1.08207,-15.01742,-2.32661,-0.52078,6.20423,-4.00565,-5.46358,-6.91194,-0.98736,-1.62787,1.93734,4.76964,2.16456,4.27583,-0.22978,-0.41617,0.60594,0.44676,0.39724,0.45982
1162,22.1376,-0.23513,-4.04004,109.09827,40.23038,13.91871,57.50482,-16.56767,19.00079,135.72652,36.10215,11.18628,2.30891,0.77003,-0.94318,-25.76816,-8.52512,13.38994,172.57787,-18.25488,17.0314,64.74481,18.24354,-20.31918,3.77011,0.41985,-2.9468,-2.8141,-5.08511,-1.54777,-0.48774,-0.90436,0.21969,3.65114,3.00416,4.98642,-0.01928,-0.21516,-0.12531,0.11239,0.94452,0.77175
1163,23.64702,-0.05871,-0.73294,111.61797,43.48812,14.13083,54.915,-7.64002,6.61679,131.5748,31.62873,10.94046,2.24602,0.54817,-0.21268,-25.94586,-8.97085,14.03537,170.64221,-24.65994,5.96777,84.69995,26.98792,-28.13555,7.46461,-0.44902,-12.18741,-3.18243,-6.11279,0.14236,1.00718,-0.14672,-2.2449,2.54567,3.2156,4.20621,0.38731,-0.00523,-0.87894,-0.40251,1.32723,0.66405
1164,18.38612,-0.26653,-0.75919,115.59093,45.93681,14.50041,57.20874,0.18056,-4.91565,118.0086,26.49874,11.85473,1.8131,0.51724,0.05485,-26.20632,-9.484,14.4549,147.14952,-27.95229,-8.98853,121.25421,19.60154,-26.37169,6.55092,-2.57768,-14.75912,-0.94006,-8.27468,1.44618,1.83399,-0.29882,-3.26206,3.37497,2.18276,2.40733,0.58348,-0.07699,-1.06282,-0.38889,1.20271,0.35281
1165,14.69121,0.14404,1.46209,122.90974,49.49063,14.67083,68.27824,-0.29992,5.03249,116.7421,31.86032,12.323,2.03721,0.31033,0.17256,-26.6168,-9.92597,14.72266,139.15909,-17.31494,-0.72356,145.1581,-3.59256,-14.63876,2.70652,-3.75946,-11.22519,6.00601,-9.99411,5.23378,1.01179,-0.34532,-1.8381,6.92689,0.65195,1.27808,0.33164,-0.18583,-0.56264,0.46002,0.6853,0.16923
1166,13.12512,0.43298,4.09507,130.33069,53.77432,14.50084,77.34299,-1.9216,18.83964,133.26178,45.10455,11.68172,2.5328,-0.12308,0.24456,-27.08939,-10.21413,14.91166,157.439,2.96145,9.03056,130.65692,-31.41171,-4.58722,-0.97072,-3.08473,-7.82107,13.78426,-11.6679,9.58846,-1.01311,1.07837,0.94,11.56608,-0.64323,1.14327,-0.21371,0.03201,0.1655,1.65885,0.09118,0.0794
1167,12.01946,-0.04312,3.44866,134.60538,57.66795,13.98794,74.53879,2.32777,13.12189,153.35725,56.57704,10.46639,2.60229,-0.54216,0.20873,-27.49387,-10.36561,15.04718,181.57671,19.88077,-5.40909,79.84985,-37.6527,-0.57632,-0.45682,-1.55665,-9.34549,17.34018,-14.39154,12.26605,-2.98384,2.50916,3.32149,14.44008,-1.54333,1.40088,-0.64471,0.3337,0.56989,2.40415,-0.31567,-0.00936
1168,8.85026,-0.58808,1.04164,136.27577,61.0399,13.08876,61.15222,9.78535,-8.13115,163.72636,64.64397,9.31768,2.29569,-0.73286,0.16031,-27.42242,-10.38354,15.02355,194.25836,29.47354,-34.47585,26.86573,-12.81411,5.68025,3.99059,-0.97378,-13.49417,16.1143,-18.70998,13.32388,-3.47215,1.92952,3.9873,14.40722,-2.71292,1.25259,-0.62709,0.22293,0.51647,2.34173,-0.59641,-0.02652
1169,2.24588,-0.3123,0.62408,136.69658,63.1813,12.15656,45.10566,14.36835,-24.8953,162.01773,71.05403,9.31313,1.87449,-0.54508,0.29065,-26.51879,-10.20081,14.67733,193.62886,33.85072,-50.93046,-2.82684,15.3376,17.17255,7.3523,-1.67283,-13.94332,13.98602,-23.29168,13.73103,-1.86944,-0.08171,2.48352,13.17638,-4.62117,0.48261,-0.20782,-0.24507,0.25933,1.94157,-0.92564,0.08501
1170,-7.36861,0.72132,1.51107,135.49869,63.25604,11.62225,32.4301,14.9632,-29.4869,152.19081,73.38976,11.08832,1.00881,0.08424,0.52531,-25.05004,-9.78564,14.02974,182.79761,31.5983,-48.53028,-22.6841,19.45183,23.42111,7.94902,-1.88768,-8.43827,13.30779,-24.77648,13.36552,0.72725,-2.5137,-0.01944,12.17501,-6.16397,-0.33613,0.25842,-0.69761,0.03754,1.6976,-1.18405,0.16269
1171,-19.75867,1.97008,-1.34966,133.42401,61.75583,11.58538,20.53365,14.02368,-29.75455,145.9184,68.24651,13.22429,-0.74377,0.95891,0.39379,-23.57827,-9.25762,13.26273,172.2063,17.4024,-43.04513,-47.67621,4.46529,18.1593,7.54411,-0.70869,-2.56828,13.21639,-22.65235,12.16914,2.38831,-3.83214,-1.83062,11.36727,-6.10508,-0.88594,0.4909,-0.78424,-0.20031,1.57345,-1.13509,0.03783
1172,-32.48368,2.69316,-9.68814,132.51138,60.13776,11.63684,6.67452,12.72048,-33.15445,152.50372,59.4098,13.25717,-2.87129,1.46371,-0.24171,-22.15809,-8.73316,12.48666,174.44411,-5.11634,-46.15849,-59.48056,-13.14136,11.41647,7.36279,0.60242,-1.9142,13.56856,-21.05305,11.73268,2.19285,-2.90605,-1.98023,11.10989,-5.20147,-1.54393,0.44886,-0.45282,-0.38628,1.5339,-0.91393,-0.25754
1173,-41.59668,2.24306,-17.38664,130.80666,58.59007,11.06696,-6.966,10.27446,-37.0976,157.7296,53.99959,10.64335,-4.24785,1.09122,-0.80301,-20.34695,-8.24674,11.60087,170.41467,-21.35727,-53.1743,-38.78024,-20.80722,14.52227,8.75333,1.21645,-4.36421,13.91334,-22.42889,12.52732,1.09189,-1.54998,-0.73476,11.21712,-4.90198,-2.32922,0.27562,-0.09523,-0.28412,1.46042,-0.82676,-0.49679
1174,-47.88481,1.25471,-17.54289,125.40604,56.82528,9.58581,-22.16538,6.73423,-33.99306,144.02811,55.18686,7.1995,-4.79111,0.33548,-0.84661,-18.02972,-7.78906,10.50343,127.00914,-17.75038,-53.76242,-5.01328,-6.95129,24.18686,11.97153,1.57187,-5.64555,12.48721,-24.84091,12.94705,0.45173,-1.69779,0.5015,10.40865,-5.43579,-2.74119,0.10586,-0.01878,0.03226,1.088,-0.88191,-0.45326
1175,-53.36426,1.2443,-9.91737,118.32994,54.92135,7.85461,-37.41,2.71968,-16.69909,120.44959,59.91287,4.75672,-5.2221,0.09922,-0.56362,-15.65079,-7.32471,9.2886,60.35032,0.86345,-38.4772,0.88735,19.32679,29.51326,15.27079,1.75919,-5.79558,11.14975,-25.94238,13.15883,0.56945,-2.78626,0.6044,9.58914,-6.06884,-2.26625,0.00772,-0.13718,0.18914,0.83272,-0.87375,-0.18867
1176,-55.13831,2.71389,2.32285,112.13351,51.74024,6.85779,-42.67893,-2.95565,19.88628,105.01575,60.35771,3.96776,-5.23698,0.32191,-0.22436,-13.49857,-6.82939,8.09602,20.99868,10.47491,2.85945,-29.64388,25.91592,24.85506,16.51665,1.47807,-6.14426,11.1986,-24.43646,13.10159,1.23047,-3.41962,-0.52542,9.80826,-5.95339,-0.97448,0.07356,-0.2785,-0.03663,1.0087,-0.73269,0.0504
1177,-48.52347,4.7681,14.50197,106.38363,47.27089,6.73283,-31.25088,-9.5177,60.75117,102.19189,53.68048,5.09725,-3.79148,0.30324,0.21199,-11.54778,-6.23904,7.06706,33.92653,-1.46354,54.52337,-56.36418,0.27598,13.49096,15.06314,0.94556,-5.2791,9.13491,-19.9987,10.55042,1.9644,-3.69423,-1.63994,9.51371,-4.68821,0.44771,0.25801,-0.45209,-0.35541,1.09295,-0.48109,0.15052
1178,-34.36458,5.60712,17.98467,101.30993,44.71589,6.66846,-6.61446,-12.23705,68.5448,107.08925,46.9859,7.22966,-1.18146,0.00631,0.50768,-9.85784,-5.47031,6.35805,83.25512,-20.31251,66.01832,-42.81094,-25.66142,4.26334,12.55808,0.64646,-2.06464,4.44589,-15.65991,6.02632,2.08645,-4.40579,-1.33245,8.20181,-3.21635,1.08989,0.35199,-0.68616,-0.33948,0.93338,-0.23551,0.14266
1179,-21.44901,3.51079,8.3577,97.71293,44.43925,6.11924,16.94578,-8.72773,29.85787,110.62009,43.99396,7.73191,0.83057,-0.02728,0.08917,-8.30978,-4.67939,5.80539,126.52961,-30.36191,15.81718,-9.04227,-15.19992,3.72619,11.15707,0.75715,0.98678,1.11349,-14.18581,3.09669,1.81723,-5.06774,-0.37441,6.7146,-2.44723,0.52639,0.31056,-0.81566,-0.09582,0.73886,-0.07571,0.07618
1180,-17.34582,-0.24942,-5.01292,93.36143,41.83614,5.30253,21.18171,-1.13273,-19.86941,102.33506,38.70008,5.56992,1.19038,0.32754,-0.79919,-6.52122,-4.20194,4.95098,124.76871,-32.26217,-48.47988,-1.40954,17.84887,10.69468,11.1277,1.14239,1.6266,1.70258,-14.94247,3.71338,2.1072,-4.96146,-0.49418,5.54368,-2.33514,-0.85354,0.30449,-0.73834,-0.02583,0.50782,-0.03411,-0.06773
1181,-17.33092,-2.34793,-10.7096,87.76286,36.33301,4.46989,7.47655,7.54586,-45.21625,86.88571,32.80189,3.12686,0.70953,0.66015,-1.24497,-4.45252,-4.05065,3.72791,92.84187,-26.52415,-76.21737,-25.0885,28.99808,15.68066,11.11512,1.74696,1.26443,4.29511,-15.46157,6.11582,2.8473,-4.37756,-1.42192,4.9706,-2.31581,-1.68066,0.38433,-0.55453,-0.16488,0.29446,-0.06293,-0.21732
1182,-14.14221,-1.72056,-7.84484,83.08888,32.77551,3.47252,-5.35934,13.39152,-44.43578,75.81786,35.53022,2.39487,0.52116,0.58903,-0.81556,-2.60579,-3.89099,2.60144,70.84951,-10.47404,-65.69756,-41.79976,9.54845,9.17899,11.08317,2.19546,1.61794,4.90452,-13.62742,6.70669,3.01574,-4.08254,-1.51365,4.94843,-1.85932,-0.66565,0.42582,-0.43613,-0.20801,0.26546,-0.00957,-0.14403
1183,-10.71025,1.41599,-0.54347,80.12175,31.19498,2.7671,-10.96633,12.89955,-25.5258,71.51558,38.94298,3.05868,0.78325,0.18777,0.24475,-1.24914,-3.5724,1.80629,61.92272,3.69871,-34.88491,-32.82932,-9.51249,-5.05409,12.4727,1.66261,1.97891,2.68999,-9.95928,4.08405,2.41601,-4.52124,-0.39161,5.03106,-1.3198,1.2994,0.36648,-0.51253,0.01115,0.42568,0.05841,0.12742
1184,-10.57757,5.54545,5.90875,77.18958,29.18961,2.60869,-13.89155,6.59805,0.11433,68.85027,34.8478,4.36093,1.2846,-0.16147,1.11883,-0.25909,-3.09079,1.23852,48.78966,8.59477,-1.76955,-19.13552,-6.49517,-10.99,14.88463,0.16244,0.8332,0.68888,-6.21649,1.29431,1.84102,-5.09698,0.45357,4.71119,-1.03251,2.62544,0.27481,-0.69923,0.24027,0.6147,0.0321,0.35584
1185,-11.14927,5.69706,5.66055,73.80077,28.15006,2.25673,-11.88243,-2.30318,13.04696,65.12516,33.88964,5.15637,1.78401,-0.3343,0.8286,0.46703,-2.40409,0.79446,36.75724,12.00343,13.90699,-10.84036,9.26888,-0.3563,15.28619,-0.76161,-1.13225,0.72801,-4.00035,1.37795,1.87959,-4.71829,-0.26916,3.93398,-0.81071,2.97825,0.25934,-0.70753,0.0746,0.69768,-0.01368,0.45436
1186,-10.63128,1.0188,0.51013,71.27878,27.17758,1.60312,1.45666,-8.29707,11.37437,61.21118,36.6106,3.97273,1.99781,-0.53841,-0.37288,1.177,-1.63211,0.28184,44.32209,8.43017,10.7353,4.93341,16.27353,18.04098,11.23826,0.40489,-0.60036,1.45713,-4.20591,3.324,2.21449,-3.57036,-1.67814,2.98354,-0.55402,2.56634,0.32634,-0.4502,-0.39079,0.61902,-0.00632,0.43334
1187,-8.15078,-1.98959,-2.16797,68.67316,23.90458,1.15937,25.43744,-5.48831,9.0511,52.82255,30.86624,1.3398,2.09787,-0.79369,-1.04771,2.31262,-0.86573,-0.35917,66.96846,-11.4981,3.56345,18.65014,11.23659,30.47139,4.85542,2.47276,3.09723,1.91261,-5.95894,5.12251,2.17075,-3.01656,-2.01539,2.14704,-0.3485,1.6211,0.35393,-0.25521,-0.59085,0.41501,0.02709,0.29358
1188,-5.75162,0.55248,-0.42798,65.90257,22.00586,0.69302,41.0663,4.26976,9.80506,42.15211,23.77282,-0.69774,2.13794,-0.81982,-0.56144,3.86902,-0.01562,-0.86836,78.15939,-28.73042,-1.17694,7.9051,13.13325,28.05158,2.06022,2.54049,5.47524,1.96921,-6.92419,5.35416,1.41914,-3.36985,-0.88746,1.614,-0.2342,0.68521,0.24037,-0.33471,-0.29556,0.203,0.05691,0.11551
1189,-6.7941,4.87852,1.95295,65.08746,23.37611,-0.02765,32.22936,11.0568,8.33174,37.85663,25.20109,-1.74161,1.90325,-0.55162,0.27798,5.22464,0.74494,-1.26462,63.70982,-27.83648,-5.89551,-9.99273,27.10639,11.07933,5.14359,0.29441,3.89658,0.26566,-5.7144,1.93299,0.3094,-3.71445,0.69396,1.41775,-0.14367,0.33781,0.05141,-0.47368,0.1467,0.04575,0.11225,0.04004
1190,-7.55231,4.8185,2.02179,64.91622,22.98089,-0.49711,11.79257,7.46974,-0.27803,35.60476,24.46782,-2.51934,1.76235,-0.33928,0.57892,6.19312,1.19259,-1.82877,35.03152,-26.06901,-12.99158,-4.80982,28.60338,-7.03176,8.90679,-1.15563,2.21318,-3.13102,-4.23173,-4.56088,-0.21254,-3.83723,1.46051,1.69716,-0.24599,0.36981,-0.03421,-0.48997,0.34291,-0.04202,0.14568,0.04347
1191,-4.76413,2.69187,1.23888,62.23169,20.22171,-0.58994,2.11135,-0.74862,-8.41032,26.40208,17.02037,-2.24737,2.00158,-0.24554,0.46055,7.31065,1.66871,-2.39146,13.04518,-31.77165,-14.06134,5.92634,6.13339,-10.41358,8.37281,0.22777,3.72347,-4.25239,-4.48361,-7.34676,0.31141,-4.04379,0.99468,2.43165,-0.59973,0.74174,0.04042,-0.45566,0.25359,-0.02691,0.09723,0.07563
1192,-0.97738,4.93843,0.88723,58.49187,20.33404,-0.78053,10.48744,-3.14007,-5.15026,17.04156,15.32894,-0.21204,2.4096,-0.07131,0.32693,8.71915,2.54828,-2.6291,15.8768,-30.66633,-2.40102,-10.72561,-11.75533,1.29015,5.82655,2.5966,5.62446,-0.10567,-4.49447,-0.1525,1.04643,-3.77938,0.09509,2.71175,-0.63519,2.3137,0.14158,-0.39623,0.07643,0.02911,0.05182,0.27425
1193,1.19051,9.09302,0.02656,58.23456,23.30877,-1.17744,25.36539,-0.4626,3.89172,20.49222,23.08529,1.7039,2.73751,0.00299,0.19912,9.83373,3.54251,-2.76877,40.66539,-20.43336,8.92425,-42.14964,1.22482,13.0007,6.07916,2.95219,4.63998,5.69772,-2.36023,11.95293,0.68488,-2.73289,0.11778,1.72591,-0.05467,4.54599,0.12025,-0.3002,0.02477,-0.00672,0.09527,0.59962
1194,0.91496,9.27556,-0.99665,61.20649,24.44726,-1.66806,33.54487,-0.33806,6.70714,29.91216,31.12642,1.19419,2.82562,-0.18172,0.13552,10.24123,4.23096,-3.20789,58.7426,-14.66414,4.43447,-56.32758,30.47028,12.28136,9.11448,0.60427,1.81034,7.19674,-0.72939,16.6629,-0.81268,-1.89058,1.38517,0.46817,0.39736,5.08846,-0.01188,-0.28298,0.16347,-0.08914,0.1423,0.72756
1195,-1.10564,6.46055,-1.11942,63.05019,23.43166,-2.36162,33.85434,-4.22909,2.69921,28.7736,35.72494,-1.36316,2.63137,-0.33912,0.25579,10.38543,4.72491,-3.86926,50.8371,-18.4294,-11.481,-43.12092,48.60109,2.88525,10.65664,-2.52857,-0.89199,3.76414,-1.87802,10.19459,-1.80055,-1.66102,2.25532,0.247,0.11749,3.28711,-0.11507,-0.30155,0.27344,-0.08833,0.07391,0.55216
1196,-3.83451,4.98169,-0.96261,61.77778,23.38774,-3.29749,33.34145,-7.87779,-1.44182,16.44885,38.65574,-4.44691,2.19973,-0.27004,0.33459,10.86549,5.26655,-4.44347,30.50925,-28.98906,-24.68283,-5.77677,49.75534,-1.68947,8.38548,-3.92141,-2.66284,-0.51279,-3.5218,0.2608,-0.84898,-1.56072,1.12225,0.79838,-0.49186,1.20134,-0.08426,-0.21202,0.14534,-0.00809,-0.0748,0.29881
1197,-7.95786,4.2399,-0.93457,59.03179,25.14217,-4.2471,39.38322,-11.34715,-5.06213,4.49156,40.03412,-7.14849,1.66024,-0.38578,0.0237,11.61929,5.80745,-4.85208,21.75212,-47.92274,-32.899,35.24247,36.14354,5.30322,4.53561,-2.38176,-2.01791,-2.20661,-3.2613,-4.78601,1.31326,-1.77968,-1.00127,1.45224,-0.81011,0.76896,0.04268,-0.12666,-0.04524,0.10571,-0.16176,0.15167
1198,-12.15627,2.49137,-0.37587,57.05846,26.1221,-4.75188,49.54971,-14.40247,-6.99654,1.57719,36.10997,-8.43802,1.32222,-0.97168,-0.46874,12.42978,6.22519,-5.24231,31.55137,-70.94291,-36.1641,42.44405,11.09386,15.65335,2.47704,1.08341,1.81539,-1.36272,-2.61542,-3.68244,2.35649,-2.51629,-1.59587,1.96589,-0.69032,1.62961,0.11257,-0.18122,-0.02006,0.22455,-0.11168,0.11488
1199,-10.34682,2.5641,-0.77683,57.57819,26.36748,-4.6846,55.5302,-9.79963,-0.55899,8.99124,30.32665,-7.19217,1.60756,-1.4073,-0.56444,13.3356,6.64127,-5.59901,52.93445,-75.22936,-25.65972,10.04268,-7.02175,14.07415,3.35293,3.49461,5.86251,-0.87085,-3.77929,-1.97721,1.06479,-3.07361,-0.0125,1.87035,-0.31749,1.68428,0.04743,-0.28472,0.1594,0.22893,0.01343,0.08918
1200,0.44577,5.26815,-3.82527,60.28894,28.71383,-4.55312,56.48516,2.03559,12.03643,17.65263,32.82151,-4.4011,2.59886,-1.09836,-0.17665,14.13746,7.16092,-5.81131,70.62801,-50.41993,-2.09327,-21.5724,0.25766,-1.31332,6.074,2.37391,5.74784,-2.36158,-5.09165,-3.64576,-1.07196,-2.76332,1.84365,0.7562,0.16761,0.12327,-0.05098,-0.29775,0.23142,0.02223,0.12309,0.01095
1201,13.12943,6.5582,-7.03118,62.50069,31.8743,-4.81189,52.51818,10.58828,20.60092,17.3954,41.2467,-2.70837,3.58134,-0.38198,0.28946,14.54144,7.56904,-6.05889,66.55554,-17.99873,18.54208,-20.95912,25.46544,-13.09044,8.13483,-1.1866,1.01718,-3.74993,-4.22065,-5.31199,-1.47375,-1.65047,1.83478,-0.58063,0.5047,-1.10257,-0.03418,-0.18644,0.12383,-0.22123,0.1611,0.00557
1202,18.35728,4.69369,-7.05138,62.89102,33.24965,-5.33665,42.96554,12.77076,22.42972,11.50306,46.40287,-2.45676,3.75145,0.11222,0.55916,14.7963,7.74937,-6.50926,45.52869,2.15508,25.53331,2.08906,42.38195,-8.33992,7.48303,-3.40372,-3.59329,-3.31849,-2.20474,-3.5245,0.53321,-0.75632,-0.11316,-1.14107,0.3619,-0.34263,0.11811,-0.06554,-0.02331,-0.33004,0.09715,0.16862
1203,13.98025,3.48167,-5.39586,63.0029,34.24393,-5.84798,36.11748,15.23671,22.67195,7.22416,49.26357,-2.42848,3.13536,0.25602,0.62441,15.24409,7.97457,-6.95957,30.78129,10.75429,23.37103,20.22972,34.03713,4.21541,4.91761,-2.20681,-3.38976,-1.81713,-1.4834,-0.2147,2.55499,-0.9898,-1.77059,-0.73163,-0.26917,1.37567,0.21825,-0.05037,-0.07171,-0.2797,-0.06269,0.31943
1204,3.88415,5.32324,-5.02361,63.54349,36.35049,-6.40823,36.1556,16.68248,19.21268,0.11639,54.24703,-3.67172,2.23812,0.21427,0.53752,15.64942,8.47108,-7.21273,20.02797,6.23667,13.0971,20.89755,12.2822,8.80805,4.10648,0.1103,0.16779,0.07354,-2.6458,2.27036,2.08178,-1.92135,-1.33067,0.34573,-0.88973,2.25984,0.11548,-0.12601,-0.03101,-0.08064,-0.20702,0.27947
1205,-3.68508,6.92935,-5.29299,62.28819,38.8083,-7.22625,35.70525,6.4944,5.77276,-17.32757,60.7053,-7.23357,1.69676,0.1244,0.38604,15.77728,9.16144,-7.34089,-7.06874,-17.58753,-8.60043,10.44547,4.74851,2.59168,7.01897,0.32619,2.19636,2.13336,-4.39334,3.69019,-0.34366,-2.42474,0.55787,1.53044,-0.86791,1.79284,-0.10518,-0.19665,0.04591,0.16819,-0.17627,0.1241
1206,-2.86172,5.62216,-4.76175,59.15958,39.4102,-8.00911,27.68827,-11.95811,-11.40103,-37.05309,61.63277,-11.16956,1.79314,0.16502,0.24997,16.11979,9.77476,-7.5958,-45.68384,-51.36226,-33.54875,-1.78503,17.26056,-5.73678,10.00794,-0.83664,2.1005,3.08034,-5.889,2.21453,-2.12342,-2.44398,2.02879,2.32043,-0.12686,-0.06099,-0.22783,-0.28594,0.14745,0.28505,0.0325,-0.10028
1207,2.90514,4.4125,-5.42851,57.45928,35.87214,-8.16338,19.75526,-17.42431,-17.53693,-44.83759,48.75121,-13.38284,2.1681,0.49237,0.13436,17.17433,10.03377,-8.13973,-65.89761,-74.54892,-45.38714,-10.40547,30.2075,-9.82904,8.98688,-0.4358,2.62791,1.36356,-6.80822,-3.76072,-2.06023,-2.37453,2.18319,2.27694,0.70589,-2.67384,-0.15236,-0.35922,0.18416,0.17995,0.2265,-0.43582
1208,7.05562,6.65333,-9.67235,58.89979,32.29945,-7.77602,27.6944,0.91913,-8.61314,-36.44006,34.66837,-12.38882,2.44559,0.95903,0.04105,18.49088,10.01699,-8.61898,-43.87215,-62.66834,-34.48164,-7.32155,32.00806,-10.06674,6.40205,0.87794,2.94148,-2.05921,-6.46751,-10.04687,-0.81289,-2.02234,1.23981,1.45007,0.835,-3.72697,0.07596,-0.28343,0.01723,0.00191,0.2177,-0.63996
1209,8.98479,9.45036,-14.29953,60.56746,34.04314,-7.57218,51.38873,26.20323,5.66081,-19.34486,38.5319,-8.7505,2.6948,1.00426,0.08214,19.10854,9.93823,-8.6694,10.04217,-15.97988,-8.40279,11.84619,28.46869,-7.06092,6.19949,0.15782,0.34374,-3.86632,-5.12177,-10.18751,0.98464,-1.41524,-0.35949,0.81367,0.07764,-1.54651,0.32768,-0.11901,-0.24725,-0.02023,0.01852,-0.36461
1210,10.77811,8.36301,-14.3351,58.7091,38.67612,-7.99911,72.55199,34.81486,15.05132,-9.64147,55.85654,-6.11574,3.06704,0.29767,0.32461,18.66423,9.79183,-8.52339,51.05881,25.43138,14.14541,34.14697,25.53513,0.38125,6.43531,-1.8321,-2.89685,-2.63565,-3.88806,-4.19281,2.76971,-1.30405,-1.87292,1.0327,-0.96218,2.4336,0.41219,-0.06949,-0.31703,0.15575,-0.21726,0.32787
1211,11.51577,4.63352,-10.40891,53.71185,40.45236,-8.75302,78.96253,22.35251,17.06644,-19.99734,68.78783,-6.47695,3.4289,-0.64556,0.61136,17.653,9.5661,-8.60024,44.9541,25.54895,23.85987,38.39304,22.40711,9.00042,4.34227,-2.26166,-2.52784,-0.70571,-3.15185,1.46723,3.37956,-2.15459,-2.22109,1.17619,-1.3701,4.65061,0.25476,-0.23654,-0.11919,0.23938,-0.31421,0.83352
1212,10.14744,2.08934,-6.49882,48.4757,37.94392,-9.20041,77.56339,2.34242,16.06383,-43.6926,69.26273,-7.82931,3.50587,-1.06235,0.77774,16.71542,9.42831,-8.91257,10.8501,-8.28582,28.23339,18.03988,11.97246,13.87897,1.92509,-1.17209,0.85829,0.33768,-3.31179,3.73343,2.17742,-3.27411,-0.99176,0.45792,-0.84671,3.51042,-0.02626,-0.49758,0.19239,0.00607,-0.18869,0.70289
1213,8.08982,1.71423,-4.48604,45.62815,34.63271,-9.02372,75.36147,-9.1545,15.48835,-56.22658,62.7019,-7.52942,3.19154,-0.81895,0.83662,16.10502,9.56709,-9.11871,-6.54559,-39.23462,31.62301,-9.31499,-6.33018,15.30429,1.33685,-0.092,3.36289,1.44378,-4.90395,4.99592,0.416,-3.34551,0.643,-0.24347,-0.03402,1.17757,-0.20615,-0.55837,0.41161,-0.34051,0.02956,0.25997
1214,7.26841,1.82431,-3.5985,45.35368,34.04751,-8.4653,68.05688,-6.3497,13.9993,-44.96358,56.44569,-5.84391,2.6885,-0.40758,0.86281,15.70324,9.90823,-9.00304,2.79225,-43.81593,26.73244,-13.60274,-12.30158,10.86475,2.79122,0.08784,2.4876,2.25522,-7.07814,3.50512,-0.01039,-2.15907,0.97955,0.44115,0.51085,-0.38584,-0.07511,-0.34649,0.31471,-0.39033,0.15476,-0.04187
1215,8.18239,1.7937,-3.62506,45.25991,36.0306,-8.1201,58.76254,6.03132,10.84097,-26.74261,53.96595,-5.06416,2.34948,-0.24237,0.84551,15.25098,10.01498,-8.7908,15.57771,-26.45019,14.42738,11.94717,11.23675,-4.45767,6.43329,-1.24655,-1.28372,1.04008,-7.88548,-4.68192,0.79612,-0.89928,-0.0106,2.32457,0.93781,-1.82009,0.2547,-0.1121,-0.06778,-0.02424,0.19366,-0.29206
1216,9.43307,2.89823,-5.15862,42.11526,37.63531,-8.42604,57.33476,18.04755,7.11488,-27.33701,55.31594,-6.37187,2.34028,-0.25188,0.73257,14.48977,9.59829,-8.84206,8.13486,-6.39412,5.69478,36.06068,45.72783,-22.38691,9.92519,-3.1922,-4.73643,-1.5769,-6.55943,-14.09618,1.10353,-0.42576,-0.836,3.38823,1.23026,-3.27711,0.35782,-0.01085,-0.35914,0.3615,0.20318,-0.59448
1217,8.97825,5.83025,-7.72842,35.53408,36.82365,-9.08736,60.52354,24.25034,2.78112,-48.28996,56.6441,-8.58858,2.4435,-0.19606,0.52933,13.39787,9.02449,-9.10405,-22.32416,4.01554,3.0194,34.2125,54.44327,-28.62064,9.75216,-3.65193,-4.64077,-3.02416,-4.80901,-15.35223,0.31945,-0.74419,-0.55483,2.6147,0.95342,-3.19327,0.10424,-0.04592,-0.28359,0.41066,0.13201,-0.63259
1218,6.49055,9.02244,-9.64794,29.16576,33.7771,-9.4461,61.45781,24.94985,-1.59366,-66.75556,53.31942,-10.14944,2.40719,-0.1496,0.32932,12.15674,8.7426,-9.28409,-48.79881,4.4463,1.73393,20.68977,30.75558,-24.9526,6.26854,-2.31064,-1.8823,-2.42853,-4.65913,-9.68565,-0.38159,-1.12591,0.22695,1.51997,0.27504,-1.38238,-0.1336,-0.11865,-0.00506,0.27592,-0.00833,-0.2724
1219,2.29991,9.31391,-8.55967,25.92545,29.93034,-9.35928,59.9533,14.51743,-2.60255,-65.84454,45.74031,-10.8211,2.1141,-0.41929,0.21014,10.84348,8.66869,-9.2953,-45.02861,-10.87554,2.22274,17.29887,6.56315,-20.72703,2.92244,-1.18502,-0.05818,-1.11377,-5.27745,-4.64465,0.17018,-1.12617,0.43139,1.30865,-0.14347,0.30661,-0.04463,-0.14874,0.17717,0.17737,-0.09649,0.08258
1220,-1.73958,5.45876,-4.01995,24.98836,27.14372,-9.09004,54.36751,-6.84632,1.5644,-51.43695,39.46642,-10.58798,-1.48147,0.43229,0.26492,9.44981,8.54254,-9.20126,-22.24731,-38.16639,6.49694,21.39742,6.54884,-14.27549,2.00491,-1.54146,-0.59141,0.42601,-4.91456,-1.53874,1.64922,-1.11888,-0.18177,1.48402,-0.10921,0.60073,0.23987,-0.17702,0.15919,0.11764,-0.07003,0.03913
1221,-7.60178,0.78642,0.81045,23.769,25.64086,-8.83373,40.81342,-26.03745,7.64686,-42.11924,37.68586,-9.33477,-4.48515,0.9643,0.06336,8.04705,8.21511,-9.08813,-17.12154,-62.84773,13.62171,20.13219,16.67874,-1.9384,2.87667,-1.8094,-1.8048,2.43188,-4.1943,1.67392,2.5869,-1.06067,-1.09511,1.62974,0.10684,0.00862,0.37871,-0.16784,-0.02107,0.10807,0.00828,-0.25058
1222,-6.92075,-0.83363,2.11542,20.55838,23.60408,-8.65547,37.21443,-28.03507,9.85921,-49.42746,37.37923,-7.71329,-7.5838,2.37062,-0.12464,6.81845,7.57197,-9.03613,-28.73715,-63.93771,20.30696,13.07229,15.10184,8.70221,3.85605,-0.32922,-1.32049,3.33668,-4.54155,2.47656,2.05855,-0.9716,-1.37068,1.94181,0.32581,-0.38918,0.23929,-0.11047,-0.18084,0.18878,0.05557,-0.34486
1223,1.29815,0.83027,0.1673,15.67811,20.5493,-8.51542,51.06671,-20.57116,7.07829,-67.66034,36.04708,-6.38441,-10.53587,4.58944,-0.19338,5.81839,6.65736,-9.00498,-37.14021,-49.45984,24.7782,6.87462,8.0213,7.41311,4.41848,0.96537,-0.30663,1.74583,-5.33919,-1.12345,0.97782,-0.89396,-0.91739,2.18716,0.50223,-0.21878,0.09149,-0.07789,-0.21789,0.27844,0.06862,-0.14593
1224,9.63445,3.43896,-2.13648,11.48885,18.50982,-8.32259,67.48588,-19.15911,3.06302,-79.40562,36.5409,-5.18361,-14.20423,7.36676,-0.28754,4.81088,5.72902,-8.84902,-32.18608,-37.07724,25.98399,7.69649,9.70598,-3.83213,4.56651,-0.66621,-1.67099,-0.31468,-5.37624,-4.86203,0.77632,-0.47872,-0.65827,2.09068,0.63679,0.04445,0.22297,-0.088,-0.24066,0.28837,0.0901,0.04093
1225,12.38706,5.88854,-3.44104,10.14921,18.33412,-8.07755,71.89571,-24.09552,0.61172,-72.20894,40.50202,-3.93138,-19.38223,10.57694,-0.6266,3.58647,4.93106,-8.54623,-15.05972,-28.65403,22.42736,23.94372,16.23242,-13.13659,3.41762,-3.43038,-3.72479,-0.2417,-5.34741,-5.29208,1.36233,-0.08669,-0.81495,2.16841,0.86527,-0.31482,0.45058,-0.11369,-0.25302,0.2859,0.1264,0.01202
1226,10.77898,8.9439,-4.43926,10.35367,17.90231,-7.86957,65.75643,-22.43257,-1.5632,-53.34871,43.77757,-2.96083,-25.72111,14.07726,-1.17242,2.18948,4.15023,-8.23704,4.2098,-13.66867,13.37214,49.98278,18.90381,-14.26576,1.0619,-3.37092,-3.08066,1.04449,-6.1752,-4.71011,1.56827,-0.10505,-0.89113,2.65639,1.18517,-1.21177,0.38047,-0.06104,-0.17899,0.3157,0.14088,-0.11455
1227,6.93571,11.99696,-4.98276,8.66773,15.50278,-7.66094,54.67324,-11.22774,-3.81604,-42.19135,42.6214,-2.45211,-32.37991,17.73893,-1.78301,0.74944,3.36764,-7.94236,7.16926,7.62003,3.50914,60.27996,15.8865,-9.96229,0.28454,-0.68981,-0.46917,1.43706,-7.06826,-5.07696,0.94658,-0.56417,-0.6093,2.95354,1.35176,-1.71833,0.02469,0.02095,-0.05304,0.31126,0.12748,-0.16828
1228,-0.11311,12.64767,-3.77271,4.296,11.30251,-7.33804,38.37886,-3.27213,-2.65693,-46.33385,36.06715,-2.72028,-38.95723,21.64988,-2.55443,-0.67702,2.67741,-7.56753,-14.96719,18.64284,0.31311,47.46081,7.10419,-3.52123,2.24862,1.17113,1.25322,0.91888,-6.539,-4.85442,0.21098,-1.39385,-0.13746,2.61133,1.21769,-1.22916,-0.25501,-0.04987,0.05859,0.23161,0.11923,-0.12874
1229,-9.28147,11.57246,-1.53541,-0.06477,6.76343,-6.85322,22.0909,-3.67467,1.97832,-52.88532,25.85372,-3.51611,-45.30396,26.07481,-3.59814,-2.08564,2.0507,-7.07276,-37.99763,15.85293,3.85986,33.23387,-1.96196,0.71834,3.95778,0.73894,0.96224,0.16356,-4.44451,-3.96502,0.08956,-1.85236,0.05524,2.02793,0.93336,-0.11385,-0.26388,-0.20369,0.10523,0.1524,0.12985,-0.05236
1230,-16.03145,12.04573,-0.56869,-2.40458,4.0823,-6.16522,16.37367,-4.17189,4.98244,-48.55022,17.74162,-3.27214,-51.23829,31.02212,-4.77573,-3.45933,1.46244,-6.44259,-31.7997,15.6947,7.65119,25.86475,0.75276,-3.0382,3.66622,-0.82719,-0.61767,-0.50732,-2.47061,-4.29467,0.45569,-1.32569,-0.20337,2.024,0.78476,0.79487,-0.11037,-0.22653,0.06946,0.20904,0.1429,0.02224
1231,-18.98259,14.01846,-1.06562,-4.04552,3.43207,-5.40473,17.00543,-3.05775,4.92769,-40.027,15.31951,-1.7687,-56.72438,36.04423,-5.93909,-4.7531,0.9531,-5.74766,-13.70597,22.04758,8.31283,11.94477,13.60513,-12.29842,3.68903,-2.10045,-2.13132,-0.15514,-2.07174,-4.66522,0.65657,-0.47936,-0.38488,2.72663,0.80252,1.05372,0.02746,-0.13872,0.02311,0.40905,0.13063,0.05905
1232,-21.04326,14.57069,-1.37825,-6.25119,2.22739,-4.90027,9.98584,-6.82325,5.31817,-39.65036,13.98649,-1.20511,-61.86105,40.67771,-7.12609,-5.89069,0.48514,-5.17303,-20.7646,20.65803,6.7995,-5.75526,17.19966,-17.17887,5.43784,-2.46055,-2.61438,1.41308,-2.79461,-3.21103,0.54146,-0.26263,-0.16121,3.32007,0.79306,0.57662,0.10658,-0.0974,0.01474,0.56077,0.08574,-0.04304
1233,-23.79749,12.8873,-0.9415,-7.38015,-0.17954,-4.61229,-3.23833,-14.95927,7.22126,-41.75021,9.81095,-2.02397,-66.67635,44.75527,-8.39406,-6.78448,0.04847,-4.72855,-41.41904,11.21698,4.95988,-7.60104,3.83159,-13.81276,6.95827,-1.88396,-2.0604,2.19879,-3.34065,-2.26858,0.71967,-0.74841,-0.03032,3.12892,0.71292,-0.3912,0.19594,-0.14436,-0.01717,0.51203,0.04392,-0.28188
1234,-26.56242,11.00866,-0.62624,-6.96043,-1.51427,-4.17366,-11.49316,-20.2763,8.30958,-35.93766,5.95743,-2.32556,-71.13893,48.2276,-9.68058,-7.49617,-0.27948,-4.21608,-43.28765,9.84153,3.80415,9.41975,-11.14476,-6.04839,6.00814,-0.62605,-0.98777,1.05133,-3.44882,-3.8796,1.46283,-1.34002,-0.39297,2.62286,0.77978,-1.03535,0.28864,-0.20079,-0.086,0.38483,0.06951,-0.42556
1235,-29.20668,10.53917,-0.99235,-7.83274,-1.37375,-3.59776,-15.77506,-21.08014,7.84004,-28.26031,4.00782,-2.37236,-75.22444,51.03148,-10.86113,-8.23217,-0.53315,-3.59251,-35.30244,17.59076,1.67925,30.34679,-12.82909,2.35371,2.52987,0.53961,-0.01581,-0.20267,-3.48671,-5.11531,2.36942,-1.56395,-1.01246,2.45922,1.02563,-0.66195,0.30779,-0.20282,-0.10955,0.33107,0.16121,-0.30293
1236,-31.82453,10.65645,-1.63684,-10.78169,-1.80336,-3.21733,-22.87447,-22.20817,7.18935,-27.41463,0.94979,-3.67734,-78.88717,53.16821,-11.86704,-8.97378,-0.86648,-3.04319,-39.86746,19.85521,-2.88671,42.32476,-4.42582,7.32007,-0.32037,0.40306,-0.146,0.18909,-3.34091,-3.0281,3.21927,-1.45351,-1.6597,2.35964,1.06989,0.33742,0.32059,-0.14875,-0.12731,0.29584,0.2082,-0.05757
1237,-33.45694,10.39376,-2.30624,-12.87527,-3.34909,-3.00599,-28.70125,-23.79409,6.11749,-28.3274,-3.60102,-4.89863,-82.04763,54.74849,-12.7023,-9.43565,-1.29466,-2.66055,-45.75919,15.85718,-7.82511,41.27364,-0.07146,5.29834,1.18013,-1.2652,-1.84972,1.55237,-2.97247,0.62718,3.89869,-1.20477,-2.25069,1.92306,0.6899,0.96305,0.46146,-0.05629,-0.27591,0.21257,0.13229,0.07449
1238,-33.58811,10.09307,-3.199,-12.66497,-4.34175,-2.59625,-25.43186,-20.67805,3.18112,-23.33513,-5.92769,-3.64888,-84.62052,55.879,-13.40072,-9.49822,-1.62645,-2.30426,-31.96752,19.85228,-10.40829,28.90324,-7.70294,1.15392,5.36238,-2.90822,-3.51875,2.72342,-2.78749,3.16446,3.615,-0.85878,-2.24984,1.44224,0.2329,0.98964,0.59007,0.02129,-0.44582,0.13194,0.00981,0.10049
1239,-33.44911,9.62472,-4.09305,-11.56431,-3.89522,-1.99543,-15.84619,-13.3569,-0.71906,-13.67589,-3.90895,-0.85439,-86.5614,56.62299,-14.025,-9.27496,-1.75909,-1.87144,-3.14543,37.08301,-10.87593,7.51322,-19.92686,2.50328,7.65898,-2.8331,-3.01222,3.80219,-2.81323,4.48267,1.81428,-0.67588,-1.06228,1.41383,0.21252,0.84396,0.42339,-0.01365,-0.34001,0.12324,-0.01249,0.13018
1240,-34.35235,7.79349,-4.33207,-10.47441,-3.60615,-1.69829,-10.31454,-9.38047,-2.77359,-3.25118,-2.26567,-0.23894,-87.83611,57.11831,-14.63239,-8.828,-1.84568,-1.49941,21.0406,53.35968,-12.63909,-15.28207,-23.27296,6.13147,8.18194,-1.28569,-0.86642,4.57953,-2.58961,4.63347,0.00787,-1.21575,0.59472,1.81896,0.596,0.69912,0.08425,-0.17773,0.01628,0.1821,0.08571,0.10847
1241,-36.05074,3.7795,-3.59046,-9.52083,-4.95266,-1.81298,-14.64428,-14.50907,-1.53125,5.74851,-7.32814,-2.92982,-88.38147,57.58059,-15.21714,-8.21389,-1.97933,-1.28375,28.61412,50.25764,-17.01155,-21.91457,-17.02894,4.23496,8.47398,0.29274,0.77062,4.01569,-2.49021,2.42066,0.1495,-2.36167,1.23407,2.6542,0.95434,0.4934,-0.05787,-0.33254,0.26369,0.31907,0.17895,-0.03985
1242,-37.64769,-1.49104,-2.25895,-9.46149,-6.17652,-1.68829,-25.26803,-26.37514,1.96166,9.49176,-14.88042,-5.00532,-88.21693,58.09692,-15.72714,-7.59862,-1.99377,-1.03745,19.18682,30.79549,-18.74968,-7.10537,-13.9583,-0.56267,6.58658,1.41569,1.64357,2.23374,-3.78148,-1.58411,1.50719,-3.29205,0.84044,3.99268,1.06946,0.25162,0.01816,-0.37291,0.2664,0.53869,0.16535,-0.21207
1243,-39.01367,-5.90357,-1.05556,-9.76867,-5.13339,-1.00044,-35.56628,-37.39599,5.86512,8.00657,-15.09095,-3.39683,-87.48643,58.4579,-16.11389,-6.98706,-1.81069,-0.64221,2.26864,16.66934,-13.97094,8.91272,-19.39392,-0.24014,2.66624,2.43741,2.47101,0.77932,-6.19695,-3.77809,1.84894,-3.36679,0.60825,4.85762,0.90939,0.23584,0.05872,-0.32112,0.18526,0.66342,0.06856,-0.23681
1244,-40.27215,-8.30392,-0.40132,-8.92076,-3.15558,-0.39135,-42.92355,-43.36749,8.97367,7.44361,-8.27533,-0.60538,-86.31418,58.33352,-16.33245,-6.2189,-1.61289,-0.29621,-9.41958,17.63374,-7.87816,7.58523,-24.79492,3.45662,1.72108,2.70404,2.17353,0.85063,-7.62681,-1.89868,0.86992,-2.36139,0.62604,4.09108,0.56884,0.52854,0.00717,-0.17509,0.05525,0.48956,-0.0159,-0.0842
1245,-40.89571,-8.89459,-0.45936,-7.06588,-2.42584,-0.38001,-47.08944,-45.16651,9.97124,9.75213,-2.75306,-0.0522,-84.76685,57.60384,-16.34452,-5.25374,-1.50452,-0.17368,-11.43012,23.96958,-7.04964,-2.95893,-23.16971,1.82606,5.56836,0.94515,-0.08257,1.80568,-7.15774,1.32746,0.09446,-0.8583,0.17537,2.27139,0.3645,0.56259,0.01542,0.00148,-0.13498,0.11496,-0.02233,0.06086
1246,-40.46635,-8.23582,-1.21416,-6.576,-2.88148,-0.68591,-47.40165,-44.34156,7.95244,7.85981,-2.60415,-1.7017,-82.91143,56.37961,-16.15337,-4.31076,-1.39435,-0.17149,-11.69598,26.28932,-10.39228,-3.16615,-17.41118,-4.81842,9.25723,-1.74645,-2.01348,1.82038,-6.29398,2.00765,0.53194,-0.43228,-0.35805,1.11305,0.45664,0.13651,0.14569,-0.01241,-0.18669,-0.1406,0.01654,0.10275
1247,-39.44818,-7.25076,-2.15181,-8.17353,-3.50951,-0.89644,-45.25038,-42.8706,4.65971,-0.06548,-5.92956,-4.04089,-80.81988,54.82403,-15.79679,-3.57151,-1.2288,-0.11085,-16.14462,24.46438,-13.1712,7.10281,-15.53879,-6.35662,9.02439,-2.03985,-0.88408,0.73725,-6.75641,0.1621,1.92365,-2.18143,0.05537,1.4423,0.73262,-0.39692,0.34906,-0.29424,0.00474,-0.09652,0.03094,0.13875
1248,-38.23538,-6.60253,-2.72406,-0.07156,-0.50475,-0.45026,-42.9558,-42.05833,2.73683,11.69825,-4.23058,-4.34712,-78.54569,53.1002,-15.29285,0.65201,0.1682,0.00491,1.02777,29.48073,-13.14203,9.59812,-19.92215,1.1238,7.19257,0.9506,2.16753,0.6512,-8.37286,-1.29307,3.22795,-4.7535,1.19902,2.6126,1.03201,-1.03336,0.53339,-0.55396,0.19466,0.13696,0.01022,0.16119
1249,-37.21146,-6.36648,-2.85846,0.63512,-0.946,-0.50021,-42.24944,-42.07766,2.65184,16.95823,-5.75463,-4.74878,-76.16531,51.34112,-14.70563,0.6858,0.11897,0.0012,9.86522,29.14255,-14.53449,0.9141,-22.06929,10.84463,6.69548,4.35283,3.80234,3.18371,-10.20777,-0.47856,3.63957,-5.68975,1.79471,3.84223,1.21478,-1.8487,0.59662,-0.49972,0.15478,0.41813,-0.01913,0.06425
1250,-36.81896,-6.71049,-2.74666,2.11255,-0.71591,-0.36859,-43.54372,-44.5544,3.30031,27.11452,-3.2996,-2.23662,-73.78516,49.59766,-14.16611,0.73389,0.07196,-0.08662,23.32018,28.97321,-14.205,-0.35168,-16.95481,16.27169,6.50216,5.923,3.28137,6.97529,-11.46554,1.59217,3.30516,-4.69325,1.44556,4.80854,1.26309,-2.58905,0.52435,-0.26503,0.02106,0.68912,-0.01688,-0.16077
1251,-36.68515,-7.69164,-2.57234,2.01509,-0.53485,-0.22419,-44.74314,-50.45374,3.92883,31.06052,0.03644,1.36457,-71.46507,47.87497,-13.72633,0.66922,0.02044,-0.21765,28.36002,24.90035,-9.61155,11.18506,-11.71675,16.11232,5.48522,5.26881,2.22539,9.02165,-10.5485,2.99419,2.49794,-3.28776,1.06159,5.21627,1.20963,-2.48715,0.37235,-0.16596,0.04542,0.86075,0.05347,-0.33758
1252,-36.25377,-8.72953,-2.41845,0.02973,-1.11362,-0.32327,-44.79153,-55.55774,4.41968,24.29877,0.24151,2.47181,-69.21159,46.21737,-13.31294,0.54754,-0.05432,-0.30652,18.34998,18.7468,-3.47477,12.34362,-11.74624,12.78726,6.27715,2.19144,1.47229,9.12751,-6.64831,4.02417,1.32952,-2.52893,1.3741,5.14021,0.92575,-0.79304,0.22485,-0.27928,0.22384,0.90928,0.14672,-0.27808
1253,-35.69495,-9.22432,-2.27141,-1.83833,-2.03751,-0.63483,-44.82648,-54.87223,4.73651,15.00973,-3.31932,-0.2193,-67.05863,44.67326,-12.85163,0.47873,-0.12921,-0.31008,3.17114,14.77729,-2.55994,-11.09498,-17.02359,11.17734,10.35893,-1.39616,0.89606,9.18009,-2.25226,5.73805,0.38018,-2.49478,2.06155,4.48719,0.29354,1.54777,0.14782,-0.42742,0.36277,0.77037,0.13997,-0.07126
1254,-35.61356,-9.26539,-2.07566,-1.6356,-2.32654,-0.79785,-45.49487,-50.37049,5.019,13.52204,-7.21884,-3.56373,-65.12134,43.20831,-12.35301,0.42708,-0.17666,-0.26699,-1.74124,13.72949,-6.98101,-35.18642,-27.41127,13.31369,13.35232,-1.50805,0.76544,8.60635,-1.19164,6.78708,0.25045,-2.74355,2.36856,3.08171,-0.35013,2.55374,0.13299,-0.42047,0.33991,0.36648,-0.00676,0.1345
1255,-36.13968,-9.0299,-1.87502,-0.35787,-1.99212,-0.69553,-46.98466,-46.16335,5.43896,18.1846,-8.10485,-4.1663,-63.49682,41.74028,-11.86023,0.28856,-0.20231,-0.24819,3.23855,16.26601,-10.83069,-30.97616,-31.92049,15.25807,11.16588,2.33182,1.13373,6.19575,-4.36912,5.28628,1.05083,-2.88328,1.87042,1.90908,-0.31037,1.36757,0.1957,-0.26526,0.16803,-0.03667,-0.113,0.23544
1256,-36.62473,-8.84931,-1.73113,0.02811,-1.95793,-0.67155,-49.31731,-42.9589,5.88839,20.88439,-6.04495,-2.81839,-62.12593,40.1969,-11.41156,0.16857,-0.20153,-0.27204,6.59906,22.8398,-11.52813,-6.40787,-17.77365,13.14122,6.40856,5.64986,1.30246,3.52331,-8.94036,2.00179,2.41124,-2.94171,0.81751,2.03486,0.57187,-1.25521,0.37023,-0.13212,-0.04572,-0.09078,0.00438,0.02966
1257,-36.1075,-9.46855,-1.65186,-0.17728,-2.35344,-0.82204,-48.79116,-40.88222,5.61339,19.85909,-3.57079,-1.89767,-60.8687,38.62055,-11.03087,0.18627,-0.14628,-0.27659,8.29187,28.80671,-10.04971,8.56517,0.00716,8.36075,4.15946,5.15138,0.9357,2.67296,-11.38956,-0.37758,3.32651,-3.01172,0.05542,3.43942,1.39019,-3.05107,0.52909,-0.12869,-0.15532,0.25316,0.20402,-0.2993
1258,-34.62709,-10.75723,-1.66446,0.30497,-2.05549,-0.70248,-41.81734,-39.6002,3.83124,19.41055,-2.32113,-1.27867,-59.67877,37.25511,-10.68755,0.19348,-0.04443,-0.19662,18.18752,30.58418,-7.36174,-0.65525,-1.97913,4.8069,5.70594,2.35366,0.66984,3.0032,-11.03502,-0.49927,2.85347,-3.1085,0.39734,4.89293,1.24683,-2.51025,0.46054,-0.22781,-0.06216,0.66402,0.20671,-0.29593
1259,-33.54565,-11.60592,-1.69062,0.90026,-0.69869,-0.19297,-34.40425,-38.24104,1.6174,19.31862,-2.55658,-0.48823,-58.54583,36.31205,-10.32391,0.06949,0.03423,-0.08287,28.8249,28.86229,-5.7573,-21.91456,-16.28345,4.22526,8.409,-0.06993,0.97527,3.30425,-10.16692,0.91346,1.40724,-3.20973,1.62758,5.3231,0.38413,-0.71892,0.18618,-0.3503,0.19371,0.78072,-0.00326,0.04263
1260,-33.63395,-11.51581,-1.59702,0.7467,0.57408,0.19474,-35.72293,-36.41916,0.93905,17.08949,-3.73009,-0.66167,-57.36161,35.66951,-9.95649,0.02567,0.05475,-0.03907,23.69477,26.82051,-8.1165,-31.86865,-19.83929,5.68726,9.44604,-1.5316,1.22973,4.69505,-10.62956,2.80185,0.38546,-3.04354,2.46455,5.09704,-0.28825,0.27173,-0.01891,-0.40931,0.41086,0.64908,-0.19954,0.30709
1261,-34.28384,-11.32268,-1.35844,0.10985,0.79934,0.09928,-44.62757,-34.35583,2.06452,14.33855,-3.74569,-1.74668,-56.02463,35.00633,-9.69601,0.24261,0.02192,-0.08366,5.80529,29.20189,-12.32657,-21.09801,-10.81021,7.06067,8.84958,-2.15158,0.84783,7.51503,-11.35615,3.96443,0.4246,-2.53258,2.21423,4.77354,-0.23975,-0.42082,0.03198,-0.38464,0.42887,0.51913,-0.1967,0.17576
1262,-34.81633,-12.07878,-0.99997,-0.15392,0.55673,-0.1663,-52.10331,-35.08797,3.94214,13.34572,-0.16172,-1.57944,-54.59954,34.20808,-9.59643,0.59076,-0.04882,-0.11294,-8.72156,33.81625,-11.32941,-1.4181,-7.50876,7.63906,7.87973,-1.8346,0.15868,9.04953,-10.07634,3.72485,1.00714,-2.00843,1.38826,4.25218,0.12387,-1.44853,0.22967,-0.32614,0.29223,0.47627,-0.06121,-0.1701
1263,-34.97227,-13.24302,-0.705,0.42464,0.24681,-0.23108,-51.8989,-40.89522,5.31154,13.63617,3.49741,-0.21337,-53.29095,33.44771,-9.53774,0.81434,-0.1037,-0.03584,-10.61044,29.59154,-4.47408,12.58253,-15.84469,9.11411,6.48932,-0.91271,-0.11872,7.33491,-7.05122,2.96429,1.55061,-1.86686,0.69181,3.45155,0.09313,-0.95838,0.35058,-0.26693,0.13719,0.43349,0.00183,-0.24531
1264,-34.5828,-13.31673,-0.75429,1.57455,-0.57294,-0.1068,-45.56896,-46.89372,5.12936,15.36542,0.93284,0.03347,-52.28954,32.85312,-9.37833,0.73061,-0.08326,0.11718,0.18456,15.3655,-0.6176,17.11431,-19.72157,11.19847,5.60624,0.18803,0.54018,4.43573,-5.32392,2.63051,1.89876,-2.5882,0.78754,2.9513,-0.15457,0.38093,0.3466,-0.27916,0.09296,0.40575,-0.01755,-0.00256
1265,-33.62762,-12.10837,-1.12595,2.86849,-1.11156,0.14891,-39.98293,-46.20904,3.58346,19.36325,-4.52963,-0.3001,-51.5752,32.32997,-9.12797,0.42869,0.00276,0.248,15.36999,7.66152,-3.64305,10.99935,-12.52975,9.33207,7.46506,1.01874,1.50436,3.60993,-5.99369,2.60433,2.07726,-3.93013,1.66679,3.33357,-0.00168,0.77193,0.37806,-0.41243,0.15313,0.49838,0.02464,0.18147
1266,-32.462,-10.93351,-1.48343,3.99159,-0.00719,0.51079,-39.66406,-40.50306,1.98659,24.52872,-4.25122,1.11994,-50.95985,31.8054,-8.89311,0.28444,0.09631,0.29276,23.98671,16.2703,-6.88124,-6.63296,-6.49693,1.62762,10.72576,1.13664,1.22306,4.94546,-6.54119,2.44405,2.18294,-4.42771,1.95035,4.18793,0.37681,0.27039,0.51016,-0.49439,0.1053,0.64341,0.11647,0.12912
1267,-31.8842,-10.80337,-1.55227,4.52346,1.89915,0.77872,-43.8284,-38.06746,1.44845,28.88076,0.53143,3.29665,-50.36586,31.374,-8.74826,0.48924,0.149,0.24922,22.49093,26.73274,-6.00273,-22.36841,-7.06516,-5.41072,10.8416,0.86304,-0.40679,5.51598,-5.53887,1.85999,2.10487,-3.17677,0.73572,4.561,0.37909,-0.0309,0.51469,-0.30295,-0.1402,0.66512,0.11155,0.00841
1268,-32.165,-11.14429,-1.36668,4.06418,2.71408,0.7635,-49.50176,-41.48618,2.44469,29.09204,2.86398,3.45051,-49.79634,31.02983,-8.67239,0.78413,0.13808,0.1892,12.38545,24.03405,-3.80708,-17.58457,-11.50278,-3.61269,6.65289,0.61792,-1.51702,3.49969,-4.68472,0.87251,1.6115,-1.26371,-0.69566,3.96475,0.0131,0.05568,0.24293,0.0336,-0.30628,0.4907,-0.01891,0.02421
1269,-32.14059,-11.076,-1.12817,2.64226,2.20267,0.4937,-52.4982,-45.44271,4.69013,22.46937,2.75353,1.54293,-49.20506,30.61675,-8.58896,0.8515,0.04662,0.18427,-1.23542,15.76561,-2.1998,1.18392,-19.98986,6.32455,1.78391,0.07157,-0.85507,1.01827,-5.40226,0.0406,1.01125,-0.46639,-0.75985,2.94509,-0.19408,-0.07914,-0.03507,0.14071,-0.15695,0.22095,-0.14039,0.13917
1270,-30.94681,-10.79354,-1.00399,1.84408,1.68432,0.24385,-50.1937,-45.9194,6.44929,15.53088,4.46213,0.47654,-48.71662,30.22743,-8.46632,0.73287,-0.05977,0.22481,-5.10636,16.45937,-0.34147,10.13625,-25.85327,14.90711,-0.02213,-0.73452,0.60803,1.11892,-6.75893,-0.06681,1.15377,-1.37508,0.10015,2.59944,-0.00692,-0.63213,0.02825,-0.08983,0.09142,0.06282,-0.13939,0.14623
1271,-29.43977,-10.0336,-1.24982,2.64716,1.67884,0.24024,-44.74757,-42.11051,5.33379,16.05878,6.27262,1.72632,-48.57387,30.17014,-8.31828,0.60249,-0.04171,0.22973,6.1968,25.37961,0.5828,1.9303,-18.18674,14.8398,2.1271,-1.09478,1.09942,3.68322,-7.18687,0.51728,2.20918,-2.98354,0.4648,3.2845,0.271,-1.09765,0.34891,-0.36329,0.10223,0.17157,-0.04576,-0.04823
1272,-28.74041,-8.3379,-1.84613,3.88545,1.12194,0.28439,-40.35957,-35.31046,1.93333,21.41447,2.92447,2.72601,-48.68653,30.38488,-8.17371,0.54546,0.05454,0.13342,19.86388,30.50848,-1.84932,-11.36723,-2.58341,10.35412,5.33148,-0.60797,0.40336,6.73317,-6.30238,1.73774,3.25883,-3.78998,-0.02649,3.92811,0.29821,-1.01675,0.54956,-0.38706,-0.0907,0.43754,0.04376,-0.30389
1273,-29.05414,-7.13143,-2.11121,4.35277,-0.64675,0.00095,-39.73031,-30.32952,0.38795,25.26573,-4.65227,0.49976,-48.69815,30.43652,-8.07844,0.59253,-0.02724,-0.02232,22.39598,24.97798,-7.06669,-16.24055,0.43915,10.29817,5.74107,0.99282,0.09622,8.69597,-5.02113,3.21391,3.61842,-3.51628,-0.59875,3.67278,0.15294,-0.51209,0.50674,-0.21919,-0.21736,0.61922,0.07872,-0.38192
1274,-29.11438,-8.1847,-1.60779,3.3352,-1.90632,-0.40506,-41.11116,-31.20456,2.48297,24.60171,-8.00825,-2.8791,-48.50232,30.21566,-8.00723,0.65773,-0.25716,-0.08775,15.00499,16.30731,-10.18579,-7.91709,-16.31954,11.92072,4.37876,2.85192,0.62404,7.96226,-4.11224,3.48281,3.22606,-2.82531,-0.53123,3.21798,0.07837,0.11937,0.39687,-0.1102,-0.15193,0.63472,0.05188,-0.15001
1275,-28.47015,-10.56843,-0.8505,1.48491,-0.4612,-0.30445,-43.4109,-35.02499,5.00558,20.62576,-1.41532,-2.44241,-48.41458,30.10548,-7.91034,0.69876,-0.24803,0.04866,5.10328,18.92158,-7.39063,5.45766,-34.62561,4.73575,5.67107,1.9013,-0.12005,4.8126,-2.98012,2.23079,2.03469,-1.77152,0.00453,3.13403,0.04442,0.85087,0.34026,-0.16877,0.02979,0.52023,-0.01789,0.24682
1276,-28.03066,-11.48278,-0.61086,0.36551,1.98997,0.18133,-46.55889,-35.03374,4.79356,16.17813,7.81809,1.5828,-48.71989,30.35494,-7.78426,0.67647,-0.02205,0.20869,-2.31721,33.63948,-2.27522,10.94479,-36.42093,-7.94688,9.05285,-2.62176,-2.79816,2.68819,-1.23844,1.54313,0.59156,-0.43934,0.2623,3.0463,-0.11269,1.69968,0.32136,-0.28723,0.14544,0.37364,-0.08161,0.53251
1277,-27.98409,-10.45607,-0.86355,1.10791,1.51341,0.28158,-47.46624,-31.36263,2.85633,15.10975,6.64008,3.57283,-49.27071,30.72141,-7.63607,0.53512,-0.05037,0.12815,-1.24513,41.30804,-1.83246,6.04128,-24.27993,-8.48334,8.47437,-5.39281,-3.72302,3.23648,-0.50896,2.31194,0.11737,-0.129,0.11556,2.60097,-0.2899,2.05703,0.26215,-0.29397,0.08021,0.24645,-0.09227,0.52122
1278,-27.94308,-9.92816,-0.88671,3.86406,-1.5048,-0.07485,-45.57699,-31.15913,2.00231,20.10694,-4.74466,1.22596,-49.59537,30.83235,-7.44736,0.47902,-0.32939,-0.06532,8.33756,29.06089,-6.15637,-2.64317,-9.83969,7.95582,2.57935,-1.91534,-0.26567,4.28266,-2.20533,2.75576,0.67505,-1.41862,0.19637,2.22042,-0.26424,1.3304,0.08395,-0.15296,-0.03217,0.17501,-0.05493,0.21207
1279,-27.08044,-11.0198,-0.47181,6.21899,-3.06808,-0.29175,-43.21617,-35.96815,2.6023,25.89224,-13.34702,-1.94407,-49.39429,30.646,-7.17647,0.70524,-0.41679,-0.09619,16.04872,10.3082,-9.49483,-9.55474,-0.82482,21.0717,-1.88539,3.49111,3.60883,3.8333,-4.86265,1.411,1.20365,-2.61523,0.52116,2.52678,0.00197,-0.07912,-0.08523,-0.0333,-0.02222,0.24458,-0.0094,-0.18388
1280,-25.35355,-12.29439,-0.12328,6.28757,-1.37788,-0.08667,-41.6606,-39.5719,2.87718,27.83312,-11.02092,-2.24635,-48.94127,30.37971,-6.88636,1.04329,-0.17505,0.0528,18.19857,5.48002,-10.07668,-11.23686,-1.00685,12.40186,0.04586,3.64226,2.72451,2.44652,-6.13826,-0.92151,1.21145,-2.10635,0.4241,3.28259,0.43815,-1.3188,-0.05894,-0.06119,0.07653,0.42678,0.03008,-0.40833
1281,-24.15906,-12.72827,-0.0647,5.69064,1.70904,0.2541,-41.76754,-39.11599,2.34589,28.6873,-1.44167,0.06711,-48.60711,30.06807,-6.69858,1.24042,0.12645,0.23439,19.59989,15.52677,-9.84063,-10.27579,-7.91942,-7.13358,4.96766,-0.68511,-1.41804,2.30674,-5.04573,-1.59902,1.10653,-0.7171,-0.168,3.45949,0.73582,-1.48068,0.1174,-0.17899,0.13249,0.51712,0.04494,-0.29621
1282,-24.71196,-13.31452,0.19676,5.70317,3.53758,0.34082,-45.41535,-39.02629,2.92329,28.66557,7.36072,2.36445,-48.36879,29.55569,-6.61807,1.20591,0.19877,0.30888,16.81443,25.40693,-7.69763,-14.21489,-11.63631,-14.75049,6.54827,-3.43242,-3.84179,4.03063,-2.13474,0.59321,1.24185,0.09549,-0.82817,2.76883,0.51183,-0.16074,0.25869,-0.23089,0.05653,0.42978,0.00859,0.09699
1283,-26.22789,-14.63952,0.92775,5.42153,2.98764,0.13393,-50.87719,-40.83686,5.41144,25.27742,10.07951,3.10544,-48.07629,28.91104,-6.51511,0.98895,0.01439,0.22533,7.42251,27.47497,-2.43203,-18.67087,-8.94754,-8.50002,4.40703,-2.9219,-3.60306,5.06174,0.22831,2.9537,0.94941,0.45789,-1.17069,2.2791,-0.06022,1.56524,0.19317,-0.11915,-0.10201,0.33955,-0.0561,0.42043
1284,-26.84776,-15.46963,1.5568,4.30867,1.06792,-0.08266,-51.38408,-40.11573,7.35374,21.31134,7.09435,3.00825,-47.71091,28.34073,-6.29228,0.71611,-0.23016,0.06207,2.87803,27.97659,3.063,-9.64848,-10.13421,-0.69133,2.91466,-1.67861,-2.68343,3.93941,-0.25999,2.69535,0.15971,0.51697,-1.01371,2.46294,-0.35495,1.88543,-0.00056,0.04399,-0.22829,0.3223,-0.07975,0.33588
1285,-25.88028,-15.09923,1.5529,3.04854,-0.47939,-0.1333,-44.17549,-35.9632,6.48575,21.71688,1.66972,2.64973,-47.32284,27.85961,-5.99736,0.4313,-0.34609,-0.0723,12.6884,29.76537,4.14269,7.2919,-18.4321,3.72131,3.74587,-0.69151,-1.36223,2.7744,-2.59063,0.91748,0.10857,-0.44093,-0.35048,2.37693,-0.10301,0.49794,-0.06224,0.05286,-0.19241,0.22885,-0.03309,-0.0564
1286,-24.10313,-14.55015,1.19372,2.652,-1.02592,-0.14955,-36.32762,-31.98291,4.0211,26.01761,-3.77181,1.13353,-46.86658,27.29777,-5.72396,0.24565,-0.29389,-0.1231,28.02343,29.41117,-1.45421,8.69148,-24.07921,4.64596,5.28137,0.28484,0.47081,2.72322,-3.85175,-0.24482,1.13581,-2.0762,0.54577,1.839,0.34716,-0.91931,0.07336,-0.13923,0.06971,0.09348,0.02322,-0.30533
1287,-22.97136,-14.9457,1.14306,3.50574,-0.88542,-0.25179,-36.23861,-31.13662,2.97413,28.6108,-6.66787,-1.38914,-46.20307,26.52408,-5.5096,0.42626,-0.16348,-0.06763,31.9055,27.1659,-9.43588,-11.42357,-23.02054,1.0667,6.08336,0.49083,1.46491,2.06739,-3.42203,-0.82987,1.72526,-2.8345,1.27359,1.66789,0.61421,-1.05779,0.16462,-0.36148,0.41598,0.08557,0.03533,-0.18773
1288,-23.57144,-16.0823,1.62941,4.87725,-0.37087,-0.27279,-43.23502,-35.01131,4.3353,26.54067,-5.85105,-2.68672,-45.35678,25.68228,-5.33526,0.8975,-0.0708,0.06908,20.38131,22.34229,-12.21994,-27.38053,-17.09091,-4.12212,5.63441,-0.25374,0.87731,0.36838,-2.67477,-1.17557,1.27871,-2.30871,1.24837,1.95329,0.60093,-0.18612,0.14796,-0.44081,0.48366,0.18835,0.03291,0.07732
1289,-24.81266,-17.20302,2.25908,5.41467,0.4256,0.01435,-48.42653,-42.36792,6.10394,23.20928,-3.21006,-1.00082,-44.50346,25.01783,-5.13873,1.18341,-0.05952,0.19572,7.52295,13.8468,-7.71437,-13.99214,-5.57237,-6.03834,3.9191,-0.45961,-0.20888,-0.72395,-2.17669,-0.94094,0.70309,-1.29364,0.31045,2.30544,0.42748,0.81418,0.14151,-0.28394,0.11002,0.30702,0.06935,0.21278
1290,-24.53752,-18.35498,2.6683,4.72027,1.49132,0.49662,-45.72172,-48.42564,6.50399,23.49899,-0.39947,2.42679,-43.75906,24.47377,-4.90131,1.06586,-0.07314,0.26857,8.64805,8.90851,-0.69364,16.15701,1.64613,-3.31888,1.86826,0.5063,-0.58781,-0.69711,-1.64045,-0.42775,0.32882,-0.35282,-0.59216,2.39012,0.26956,1.27408,0.11094,0.01227,-0.30053,0.33051,0.12276,0.16955
1291,-22.89788,-19.25019,2.91175,3.5797,1.72778,0.58581,-39.89762,-48.52254,6.55015,26.43084,1.03964,3.57696,-43.16613,23.83136,-4.65581,0.77821,-0.14194,0.2388,19.12481,13.07505,2.61545,26.34254,-10.77012,2.2874,1.20845,1.18617,-0.41764,0.186,-1.39231,-0.21288,0.13614,0.09733,-0.5998,2.14903,0.23687,0.85383,0.07813,0.1251,-0.30922,0.2168,0.1268,0.01045
1292,-21.92681,-19.13557,3.18921,3.25839,0.00095,-0.08311,-39.26068,-43.73625,7.90724,27.88531,-0.62069,0.56432,-42.74829,23.10381,-4.42242,0.64939,-0.36432,0.03102,23.22986,18.88713,0.4421,3.87021,-31.38856,7.02366,2.41078,0.53333,-0.55209,2.08962,-1.79421,0.22531,-0.07051,0.10297,0.02531,1.85994,0.15421,0.11003,0.04022,0.00122,-0.01601,0.09392,0.04642,-0.13743
1293,-21.96489,-18.56201,3.504,3.66088,-2.20868,-0.83914,-43.07082,-39.78518,9.59943,26.18421,-4.37309,-3.01575,-42.52943,22.53209,-4.19217,0.69138,-0.56347,-0.23152,18.40861,18.06077,-3.68749,-21.21158,-32.90714,7.30876,4.13448,-0.61031,-1.1779,4.25661,-2.39217,1.46958,-0.04498,-0.08985,0.26651,1.75784,-0.1654,0.08086,0.01844,-0.11632,0.13406,0.09043,-0.07524,-0.11793
1294,-21.21058,-18.76294,3.71677,3.40696,-2.59425,-0.82961,-44.14328,-40.31495,9.67048,23.39447,-6.25859,-2.66554,-42.47278,22.26099,-3.93617,0.67607,-0.49751,-0.32277,15.28022,15.18423,-5.01881,-17.74282,-14.46992,3.3942,4.79933,-1.01106,-1.62723,5.04328,-2.98737,2.5621,0.54949,-0.35519,-0.22216,1.80538,-0.42942,0.75305,0.07459,-0.08247,-0.0119,0.15108,-0.15317,0.08812
1295,-18.96415,-19.83289,3.8016,-1.97322,-1.11781,-0.04874,-39.49937,-44.07516,8.44874,14.04727,-3.08973,1.15605,-42.44848,22.1786,-3.69224,-2.62134,0.5928,0.00495,9.88799,17.33472,-1.82761,3.61757,2.09787,-0.36978,3.938,-0.44046,-1.02268,3.80379,-3.9912,1.8647,1.20171,-0.78978,-0.57056,1.94231,-0.17169,0.95513,0.11932,-0.01424,-0.13879,0.17106,-0.13865,0.26394
1296,-17.30066,-20.4387,3.78071,-2.63113,0.83185,0.41993,-33.05544,-46.45039,7.3084,14.12828,3.05459,4.12294,-42.38058,22.1274,-3.57952,-3.14298,0.93283,0.22248,16.36005,25.81829,2.42494,8.08721,5.84398,-0.36377,2.39235,0.69168,0.61474,1.96871,-5.3419,-0.72042,1.2687,-1.4342,-0.15236,2.41253,0.62392,-0.07449,0.033,-0.05433,-0.02211,0.22515,-0.03221,0.14274
1297,-17.87287,-19.60639,3.67407,-3.12109,1.78833,0.54028,-30.53517,-44.40585,6.77073,10.7884,5.74497,3.39406,-42.28178,22.00409,-3.5996,-3.51352,1.20465,0.44443,13.53761,29.47007,2.6726,-15.0,-0.67715,3.53637,1.62443,2.02915,2.12301,1.99837,-6.16218,-2.70404,0.70803,-1.81918,0.58182,3.14886,1.3214,-1.45414,-0.13548,-0.12583,0.17544,0.39023,0.0802,-0.17877
1298,-19.17375,-18.00817,3.58302,-4.18821,1.0628,0.42213,-32.85286,-40.12803,6.9224,4.57856,1.07882,-0.12113,-42.2228,21.76791,-3.57522,-3.86584,1.41058,0.55609,1.31031,21.89741,-2.22656,-39.21425,-14.00772,9.92947,2.17886,3.05143,2.46899,4.70077,-5.56548,-1.39718,0.35218,-1.65821,0.80666,3.0564,1.23799,-1.7455,-0.147,-0.12019,0.20203,0.45217,0.08339,-0.31478
1299,-18.87975,-17.04494,3.61347,-5.42423,-0.44417,0.2478,-34.34949,-38.33823,7.46261,3.0116,-7.12978,-3.14062,-42.3645,21.60311,-3.40094,-4.41259,1.54107,0.49548,-3.47608,7.53375,-8.26296,-36.95705,-24.48462,14.45464,3.16468,2.74296,1.59347,7.87493,-3.54483,2.35574,0.80937,-1.29148,0.37261,1.60927,0.52307,-0.80571,0.07884,-0.0901,0.06797,0.22099,-0.00564,-0.126
1300,-17.28476,-17.28872,3.84147,-5.22102,-1.23923,0.1346,-31.55837,-40.91594,7.95502,9.5447,-10.87195,-3.14434,-42.76487,21.79889,-3.17871,-5.0363,1.64807,0.37139,8.28968,-1.82224,-10.24059,-11.15943,-21.96381,10.54329,3.6555,0.83914,0.17675,8.11321,-1.4657,4.53665,1.49028,-1.08359,-0.17755,0.27493,0.00085,0.2871,0.28444,-0.1069,-0.03928,-0.07801,-0.04227,0.1154
1301,-16.59336,-17.94524,4.23121,-3.50826,-0.90076,0.13643,-28.77052,-44.50892,8.35732,15.23802,-6.63184,-0.43786,-43.26628,22.4248,-3.07144,-5.40911,1.79208,0.35302,18.41162,1.96253,-6.28102,14.69902,-16.47915,-0.54151,3.60366,-1.14513,-0.9728,4.72847,-1.46165,3.00958,1.66347,-0.94905,-0.51553,0.80191,-0.03376,0.90704,0.25702,-0.10255,-0.07533,-0.05664,-0.00273,0.18887
1302,-17.37626,-17.42022,4.41637,-2.06006,0.08606,0.31747,-28.92652,-42.51007,8.17977,12.07415,0.75234,2.56361,-43.7966,23.32847,-3.11966,-5.42602,2.01827,0.51015,12.14514,17.6821,-0.46712,21.47556,-20.13579,-6.94181,3.51713,-1.57318,-1.22249,1.72287,-4.09737,0.23083,1.43306,-0.84853,-0.60219,2.45923,0.1828,0.92195,0.11011,-0.02313,-0.10424,0.21324,0.02121,0.1425
1303,-17.67829,-15.12171,4.05646,-1.56369,0.8565,0.55869,-28.31981,-33.55574,7.01904,5.76974,3.87825,3.34336,-44.4886,24.25956,-3.21849,-5.20724,2.29975,0.74727,2.74636,34.42916,0.71907,7.82385,-20.93568,-1.24304,3.84533,-0.18936,-0.08651,3.03442,-6.77696,-0.54787,1.04731,-1.16446,-0.14081,3.10473,0.62622,0.13059,0.00939,0.02131,-0.07184,0.33905,0.03704,0.03977
1304,-16.19786,-12.3703,3.42593,-0.72623,0.57051,0.54057,-25.15622,-26.54184,6.17803,5.65434,1.24329,1.47754,-45.4136,25.00702,-3.25361,-4.89589,2.51792,0.88615,4.63519,37.15987,-3.06306,-10.53194,-7.65904,8.45643,5.04175,1.96874,1.8772,6.41899,-6.8201,0.21929,0.54895,-1.97813,0.86867,2.62055,1.11056,-0.99912,-0.0353,-0.0781,0.0821,0.28413,0.06606,-0.09682
1305,-14.38968,-10.5078,3.0481,1.44054,-0.47462,0.25871,-23.43024,-28.91958,6.76412,11.34532,-2.43206,-0.69473,-46.52216,25.63139,-3.22815,-4.64418,2.64058,0.88857,12.03811,22.87491,-6.3761,-17.43658,8.41993,9.92038,7.32573,2.81386,2.49968,6.92016,-5.05806,0.27023,0.33335,-2.46792,1.45094,2.45571,1.0832,-1.37051,-0.00836,-0.2232,0.2088,0.28732,0.04274,-0.19066
1306,-14.25772,-9.08724,2.92037,3.82506,-1.11179,0.07614,-25.27924,-34.89063,7.52377,14.87424,-3.88837,-1.49617,-47.77271,26.36364,-3.22973,-4.53025,2.75242,0.89402,14.04245,5.05859,-7.43437,-15.46,14.30359,2.38788,9.56948,1.29275,0.82009,4.17121,-3.84517,-0.67995,0.76734,-2.06998,0.94125,2.81262,0.64312,-0.81297,0.1206,-0.2517,0.15334,0.36662,0.00693,-0.2025
1307,-15.21936,-7.44576,2.7788,4.57351,-0.89115,0.15786,-26.79445,-36.36594,7.4137,10.30827,-4.13544,-2.17596,-49.07105,27.28,-3.29807,-4.42501,2.88251,1.01566,8.13679,-6.11584,-8.40638,-15.6672,10.53101,-7.16256,9.98302,-0.82526,-1.09406,1.11466,-3.60498,-1.72707,1.33667,-1.36347,0.1346,2.89875,0.57054,-0.24135,0.25592,-0.17528,0.01855,0.3668,0.08445,-0.17123
1308,-14.59264,-6.4263,2.68696,3.46457,0.02507,0.43232,-22.68,-35.43932,7.1011,-0.60243,-2.57169,-2.81057,-50.26523,28.38046,-3.372,-4.17783,3.06073,1.23913,-1.01773,-10.43836,-7.89494,-15.06801,4.18863,-13.5399,8.88624,-1.32022,-1.37417,0.00072,-3.69964,-2.24049,1.36386,-1.03755,-0.05054,2.5745,1.02627,-0.22666,0.30658,-0.11835,-0.03749,0.2404,0.21337,-0.12141
1309,-11.92264,-6.12658,2.62912,3.18845,1.65513,0.83855,-13.87368,-34.32446,6.48764,-8.269,4.56916,-0.26212,-51.35876,29.73482,-3.40651,-3.76486,3.37887,1.4913,-5.20418,-2.02973,-2.39652,-4.83912,-1.87433,-12.81057,8.19232,-0.18684,-0.51471,1.67415,-4.08273,-1.54459,1.06885,-1.17522,0.22213,2.193,1.34331,-0.43756,0.30717,-0.12278,-0.0359,0.07002,0.2095,-0.0287
1310,-10.00044,-4.79553,2.26419,6.07709,3.34982,1.15568,-7.91673,-28.37491,4.76554,-6.70942,15.9806,5.72623,-52.46972,31.21501,-3.47012,-3.27941,3.77934,1.65045,-3.59323,23.59866,5.98445,10.47251,-11.52449,-4.34861,8.19807,0.97609,0.48918,4.4928,-4.41454,0.27844,1.02939,-1.73603,0.54173,2.1791,0.97485,-0.0875,0.29437,-0.16785,-0.02199,0.04251,0.04089,0.14609
1311,-10.51683,-1.78781,1.55741,10.21947,3.83872,1.18991,-9.99017,-17.55309,2.69128,-2.4774,22.59786,10.0628,-53.56429,32.45827,-3.60896,-2.91526,4.13396,1.66682,-6.39846,48.21018,10.10063,19.20743,-24.30593,5.35903,7.5747,1.07504,1.35077,5.87944,-4.07293,1.9122,1.04187,-2.43023,0.9491,2.46084,0.19717,0.71431,0.20455,-0.23431,0.05842,0.21729,-0.11407,0.27046
1312,-11.79524,1.2386,0.94187,13.00357,2.97378,1.09837,-15.88059,-10.12019,1.7978,-2.20883,19.19529,9.27025,-54.48412,33.27257,-3.72965,-2.71816,4.4802,1.69672,-15.39536,47.85531,6.9294,19.06318,-31.50223,9.35789,6.14325,0.83488,1.891,5.86354,-3.49458,2.4449,0.6696,-2.58217,1.34603,2.53586,-0.33493,0.98293,0.02304,-0.25265,0.18512,0.42303,-0.13362,0.17552
1313,-11.75121,2.34725,0.86895,14.71079,2.04876,1.03445,-17.67623,-11.81874,2.63326,-3.37524,12.54265,5.57945,-55.13642,33.71501,-3.76085,-2.50543,4.84505,1.86486,-18.97869,26.61464,1.45072,16.92203,-27.59753,7.25086,5.27669,1.88657,2.10355,5.17351,-3.77766,1.37481,0.46125,-2.20052,1.33071,2.44846,-0.17034,0.25908,-0.08081,-0.18345,0.22256,0.49872,-0.0704,-0.05592
1314,-11.00695,1.16366,1.46599,16.36814,2.3235,1.00015,-16.02347,-20.00508,4.7117,-2.3104,11.14703,2.97615,-55.54803,33.88688,-3.78987,-2.18693,5.15874,2.08237,-14.5987,7.32251,-1.02312,19.05342,-15.70495,2.73705,5.37437,4.14788,2.31653,3.4335,-4.87809,-1.31132,1.24863,-2.14113,0.82468,2.7553,0.71222,-0.87312,0.04594,-0.12313,0.121,0.46458,0.0284,-0.20792
1315,-11.03765,-0.34035,2.16137,17.96105,3.2549,1.09308,-16.92353,-26.95813,6.54037,-0.50532,12.0656,2.39402,-55.7849,33.91213,-3.88266,-1.88488,5.47922,2.2543,-13.14823,-1.9641,-1.26818,25.57156,-1.6756,-2.64969,5.61932,4.71423,2.09763,1.46878,-5.59215,-3.71648,2.57418,-2.49615,0.16572,3.31007,1.66175,-1.46463,0.30227,-0.14843,-0.01344,0.37772,0.15403,-0.2181
1316,-10.60437,0.65163,1.92221,19.09156,3.20328,1.32215,-18.43761,-24.86426,6.43616,-2.09258,8.73452,1.97041,-55.7581,33.80972,-3.91299,-1.74213,5.91916,2.40071,-19.8352,-5.09002,-2.27373,31.16276,7.50161,-10.32963,6.50627,0.85529,0.23648,1.00875,-5.33685,-3.65835,3.17559,-2.33116,-0.32234,3.76444,1.76902,-0.87826,0.48258,-0.19497,-0.0642,0.33462,0.21429,-0.11001
