PaulMeinheit/Bachelor_Muay_Thai/processed_Data/N4/teep/sliced/JointAngles/sliced7.csv
Unnamed: 0_level_0,L_MTP_ANGLE,L_MTP_ANGLE,L_MTP_ANGLE,R_MTP_ANGLE,R_MTP_ANGLE,R_MTP_ANGLE,L_ANKLE_ANGLE,L_ANKLE_ANGLE,L_ANKLE_ANGLE,R_ANKLE_ANGLE,R_ANKLE_ANGLE,R_ANKLE_ANGLE,L_KNEE_ANGLE,L_KNEE_ANGLE,L_KNEE_ANGLE,R_KNEE_ANGLE,R_KNEE_ANGLE,R_KNEE_ANGLE,L_HIP_ANGLE,L_HIP_ANGLE,L_HIP_ANGLE,R_HIP_ANGLE,R_HIP_ANGLE,R_HIP_ANGLE,L_SHOULDER_ANGLE,L_SHOULDER_ANGLE,L_SHOULDER_ANGLE,R_SHOULDER_ANGLE,R_SHOULDER_ANGLE,R_SHOULDER_ANGLE,L_ELBOW_ANGLE,L_ELBOW_ANGLE,L_ELBOW_ANGLE,R_ELBOW_ANGLE,R_ELBOW_ANGLE,R_ELBOW_ANGLE,L_WRIST_ANGLE,L_WRIST_ANGLE,L_WRIST_ANGLE,R_WRIST_ANGLE,R_WRIST_ANGLE,R_WRIST_ANGLE,NECK_ANGLE,NECK_ANGLE,NECK_ANGLE,NECK_ANGLE_SHADOW,NECK_ANGLE_SHADOW,NECK_ANGLE_SHADOW,Trunk_Joint_Angle,Trunk_Joint_Angle,Trunk_Joint_Angle
ITEM,X,Y,Z,X,Y,Z,X,Y,Z,X,Y,Z,X,Y,Z,X,Y,Z,X,Y,Z,X,Y,Z,X,Y,Z,X,Y,Z,X,Y,Z,X,Y,Z,X,Y,Z,X,Y,Z,X,Y,Z,X,Y,Z,X,Y,Z
2446,-6.22112,0.0,-0.0,-1.65489,0.0,-0.0,-9.91065,-8.00143,21.43806,16.8761,5.22606,-14.31752,-12.63446,-3.50704,0.0,-15.59496,-1.86484,0.00018,31.03416,19.36891,10.11464,5.85129,5.35855,-11.94069,7.59436,23.01017,-18.94732,-5.86983,-23.40093,7.18979,59.52905,0.00024,-97.20703,36.28593,-0.00013,86.52756,-8.90215,-1.15356,-0.00029,-24.59914,5.27936,-0.00031,6.81061,-1.13582,25.32986,-13.59881,-10.408,23.24875,0.44479,6.47947,5.14912
2447,-5.69987,0.0,-0.0,-1.4475,0.0,-0.0,-10.05712,-7.99241,21.22083,16.92755,5.27802,-14.43915,-12.73036,-3.49613,3e-05,-15.66362,-1.88245,0.00011,30.94171,19.3559,10.31442,5.76462,5.3262,-11.86932,7.44328,22.8758,-18.58963,-5.8997,-23.39297,7.17688,59.5807,0.00053,-97.74141,36.37099,0.00012,86.75531,-8.84513,-1.33469,-0.00045,-24.37731,5.44895,-0.00021,6.74328,-1.33273,25.40003,-13.66818,-10.61701,23.24579,0.27374,6.4179,5.19254
2448,-5.05786,0.0,0.0,-1.36569,-0.0,-0.0,-10.16654,-8.08066,21.05541,17.01357,5.07835,-14.65976,-12.73329,-3.48101,3e-05,-15.64726,-1.80286,0.00014,30.73404,19.33928,10.48434,5.57908,5.28488,-11.59817,7.28319,22.7906,-18.2987,-6.01354,-23.29052,7.06684,59.60924,0.0004,-98.16473,36.4877,0.00106,86.56612,-9.0229,-1.70762,0.00083,-24.51053,5.4101,0.00048,6.60315,-1.39623,25.54212,-13.79079,-10.72606,23.35873,0.08985,6.32446,5.25159
2449,-4.49088,0.0,-0.0,-1.34117,0.0,-0.0,-10.28866,-8.10419,20.80626,17.08331,4.76736,-14.8931,-12.68513,-3.45427,0.0,-15.57452,-1.6931,0.00011,30.55657,19.3302,10.6889,5.40079,5.27079,-11.308,7.24391,22.70635,-18.16247,-6.12021,-23.1544,6.96493,59.51916,-8e-05,-98.35832,36.53671,0.00086,86.06261,-9.40644,-2.127,0.00156,-24.74568,5.12508,0.00058,6.47717,-1.33671,25.61423,-13.90178,-10.69537,23.4486,-0.03984,6.24801,5.31847
2450,-4.20314,0.0,-0.0,-1.35943,0.0,0.0,-10.4174,-7.91981,20.47234,17.11914,4.56077,-15.00779,-12.67339,-3.4453,4e-05,-15.49066,-1.63427,-0.0,30.57608,19.35843,10.89229,5.34614,5.31807,-11.20135,7.30859,22.55428,-18.08364,-6.13,-23.06905,7.0486,59.30688,-0.00092,-98.51996,36.43682,-0.00048,85.47442,-9.82016,-2.47384,0.00056,-24.88134,4.82338,-0.00032,6.43583,-1.24394,25.58101,-13.94216,-10.59684,23.4498,-0.03309,6.24036,5.34396
2451,-4.26374,0.0,0.0,-1.39385,0.0,0.0,-10.47552,-7.56775,20.20915,17.13314,4.55983,-14.95644,-12.73878,-3.49795,0.00019,-15.41005,-1.64183,-9e-05,30.75206,19.44495,10.97925,5.36791,5.41801,-11.32257,7.34222,22.34346,-17.92779,-6.03272,-23.06795,7.37722,59.04317,-0.00108,-98.72047,36.16613,-0.00169,84.9074,-10.03074,-2.61572,-0.00028,-24.96147,4.75309,-0.00093,6.4421,-1.16866,25.53606,-13.9379,-10.51063,23.43361,0.06853,6.30884,5.31061
2452,-4.60532,0.0,0.0,-1.37421,0.0,0.0,-10.42274,-7.25049,20.15442,17.12619,4.68482,-14.78017,-12.84289,-3.60676,0.00025,-15.3235,-1.67647,-8e-05,30.9052,19.55198,10.90468,5.33838,5.51138,-11.59804,7.28617,22.16166,-17.73702,-5.91512,-23.12607,7.7975,58.80225,5e-05,-98.71816,35.78753,-0.00153,84.42689,-9.89434,-2.47727,0.00125,-25.05947,4.91023,-0.00084,6.39465,-1.117,25.52671,-13.98346,-10.45894,23.443,0.13772,6.40313,5.26467
2453,-5.14147,0.0,0.0,-1.29434,0.0,0.0,-10.28482,-7.15245,20.33822,17.09668,4.78286,-14.60281,-12.91388,-3.72144,0.00013,-15.22459,-1.68187,1e-05,30.94983,19.59442,10.715,5.23294,5.5331,-11.90237,7.19649,22.05592,-17.63051,-5.88751,-23.20878,8.12066,58.61827,0.00098,-98.32745,35.42928,-0.00025,84.13127,-9.43392,-2.15901,0.00288,-25.13515,5.11164,-0.00022,6.2392,-1.08615,25.48063,-14.144,-10.41398,23.41,0.13269,6.45592,5.25377
2454,-5.91793,0.0,0.0,-1.35298,0.0,-0.0,-10.04836,-7.3184,20.77963,17.08802,4.79343,-14.62741,-12.92663,-3.82752,4e-05,-15.13095,-1.61546,0.0001,30.96027,19.54006,10.38719,5.14265,5.48496,-12.0472,7.09744,21.96615,-17.59171,-5.98803,-23.29465,8.3304,58.49641,0.00073,-97.79043,35.19461,0.00061,84.07233,-8.81712,-1.94122,0.00121,-25.16887,5.21671,0.00027,6.0013,-1.05797,25.3346,-14.40243,-10.33669,23.28086,0.14037,6.45031,5.27668
2455,-6.91358,0.0,0.0,-1.77736,0.0,0.0,-9.70049,-7.62014,21.41806,17.16945,4.77533,-14.93772,-12.91882,-3.94733,7e-05,-15.08525,-1.49305,3e-05,31.03926,19.44025,9.8991,5.15547,5.42422,-11.92943,6.93709,21.80985,-17.53098,-6.17443,-23.3712,8.52828,58.43918,0.00015,-97.56272,35.09099,0.0006,84.17381,-8.27207,-2.09231,-0.00149,-25.21236,5.22327,0.00047,5.74546,-1.01067,25.13366,-14.6858,-10.22227,23.10627,0.24923,6.41936,5.3079
2456,-7.78988,-0.0,-0.0,-2.47749,0.0,0.0,-9.36272,-7.83413,21.98541,17.35508,4.76935,-15.34389,-12.94299,-4.0626,0.00016,-15.12481,-1.38472,-7e-05,31.21835,19.34708,9.41837,5.28802,5.38409,-11.69667,6.70616,21.5815,-17.45986,-6.38492,-23.43913,8.74405,58.43356,-0.00011,-97.79659,35.06586,0.0004,84.23557,-7.96126,-2.57842,-0.0013,-25.28919,5.22677,0.00051,5.54115,-0.95273,24.97802,-14.90996,-10.11363,22.97869,0.4399,6.39078,5.32657
2457,-8.05353,0.0,-0.0,-3.03395,0.0,0.0,-9.25094,-7.80913,22.1747,17.56,4.75045,-15.5831,-13.03413,-4.11444,9e-05,-15.24437,-1.34346,-3e-05,31.45728,19.27009,9.18244,5.47477,5.35888,-11.58717,6.49822,21.32999,-17.4623,-6.55681,-23.51379,8.94208,58.41697,-0.00031,-98.16445,35.0622,0.0003,84.07567,-7.87446,-3.05825,0.00011,-25.39679,5.33873,0.00024,5.43441,-0.91743,24.91909,-15.02337,-10.05997,22.93514,0.59149,6.37672,5.31637
2458,-7.40998,0.0,-0.0,-3.06045,0.0,-0.0,-9.49807,-7.53148,21.88559,17.65937,4.74,-15.5674,-13.19675,-4.07335,-0.00018,-15.39862,-1.37063,7e-05,31.65722,19.20505,9.29833,5.59027,5.33828,-11.67756,6.40998,21.07303,-17.55568,-6.62563,-23.61097,9.16862,58.29297,-4e-05,-98.24496,35.02199,0.00012,83.7477,-7.85668,-3.28026,0.00044,-25.56948,5.61746,-0.00047,5.41174,-0.94178,24.91859,-15.04762,-10.0826,22.92602,0.57969,6.38712,5.27925
2459,-6.10195,0.0,0.0,-2.55249,0.0,-0.0,-10.0009,-7.07353,21.269,17.60982,4.81452,-15.36149,-13.40435,-3.96809,-0.00043,-15.54471,-1.44408,0.00013,31.76309,19.14915,9.70902,5.5863,5.31525,-11.91081,6.42839,20.77394,-17.66394,-6.58865,-23.73607,9.54991,57.99612,0.00041,-97.99563,34.92273,0.00015,83.46988,-7.78477,-3.30101,0.00012,-25.85015,5.99251,-0.0009,5.41313,-1.04963,24.8975,-15.05613,-10.17628,22.86765,0.4281,6.41994,5.24389
2460,-4.8836,-0.0,-0.0,-1.8812,0.0,-0.0,-10.4387,-6.57771,20.63573,17.49875,4.9705,-15.0881,-13.62828,-3.8743,-0.00036,-15.65933,-1.5298,9e-05,31.84607,19.10985,10.20544,5.55965,5.28871,-12.20354,6.45288,20.40065,-17.70521,-6.53963,-23.87067,10.12143,57.55025,0.00063,-97.62074,34.82575,0.00041,83.28707,-7.68851,-3.2635,-0.00028,-26.23475,6.30432,-0.00025,5.40233,-1.2049,24.81794,-15.08863,-10.2939,22.73672,0.30358,6.45907,5.24124
2461,-4.44946,0.0,-0.0,-1.48755,0.0,0.0,-10.51029,-6.24487,20.30581,17.46393,5.09351,-14.91852,-13.86672,-3.89078,0.0001,-15.72211,-1.57528,2e-05,31.97323,19.11944,10.49295,5.572,5.2761,-12.41944,6.39968,19.98055,-17.67157,-6.56739,-23.9545,10.72392,57.07903,0.00091,-97.13341,34.78887,0.00036,83.02235,-7.68565,-3.23444,-0.00036,-26.65846,6.43316,0.0011,5.40135,-1.30973,24.71598,-15.11146,-10.35639,22.60236,0.28787,6.4931,5.27346
2462,-4.82987,-0.0,-0.0,-1.52893,0.0,-0.0,-10.20864,-6.16761,20.36107,17.55536,5.08627,-14.9468,-14.13285,-4.05763,0.00051,-15.72275,-1.54752,1e-05,32.10568,19.195,10.43665,5.54588,5.29269,-12.4823,6.26404,19.58227,-17.63632,-6.66164,-23.93022,11.13148,56.73021,-5e-05,-96.47241,34.76296,-0.00043,82.53839,-7.85757,-3.28894,0.00037,-26.97137,6.28126,0.0012,5.44671,-1.31343,24.64965,-15.07616,-10.33662,22.5379,0.28628,6.52258,5.30643
2463,-5.49622,-0.0,0.0,-1.80872,0.0,0.0,-9.7963,-6.20976,20.59326,17.69163,4.95209,-15.0628,-14.42363,-4.30465,0.00043,-15.67961,-1.46945,3e-05,32.21521,19.29891,10.172,5.42865,5.32559,-12.52343,6.12348,19.26033,-17.70579,-6.78373,-23.82715,11.26505,56.53064,-0.00081,-95.73717,34.70802,-0.00088,81.88172,-8.1664,-3.49213,0.00134,-26.96964,5.78743,-0.0019,5.52872,-1.26892,24.61722,-14.9961,-10.28357,22.52291,0.21342,6.55205,5.30718
2464,-5.98047,-0.0,-0.0,-2.05086,-0.0,0.0,-9.50823,-6.18335,20.80664,17.76426,4.76444,-15.12997,-14.71076,-4.54203,6e-05,-15.6177,-1.38633,2e-05,32.33109,19.38197,9.86191,5.26693,5.35935,-12.66985,6.07218,19.02354,-17.9436,-6.94682,-23.73894,11.25318,56.34063,0.00171,-94.93237,34.71266,-7e-05,81.24911,-8.4198,-3.72952,0.00142,-26.62423,5.10506,-0.00459,5.58833,-1.24026,24.55568,-14.94376,-10.23515,22.47456,0.09424,6.58489,5.28494
2465,-6.13661,0.0,-0.0,-2.13935,0.0,-0.0,-9.387,-6.04268,20.97211,17.7495,4.60994,-15.16314,-14.96708,-4.75501,-0.0,-15.54595,-1.33043,-0.0,32.45412,19.43642,9.54605,5.10006,5.40342,-12.84279,6.10528,18.83054,-18.31168,-7.12875,-23.70561,11.32276,56.02329,0.00497,-94.00233,34.82127,0.00048,80.88342,-8.35867,-3.77734,0.00184,-26.24821,4.64228,-0.00373,5.57934,-1.22865,24.43081,-14.97036,-10.18047,22.35991,-0.02438,6.62094,5.27176
2466,-6.15238,0.0,0.0,-2.18267,0.0,0.0,-9.31752,-5.87521,21.09816,17.7313,4.52167,-15.22008,-15.20611,-4.96797,0.00035,-15.48627,-1.32177,-1e-05,32.62256,19.47353,9.23594,4.99147,5.46572,-12.93955,6.11399,18.60874,-18.69562,-7.21136,-23.68415,11.61873,55.61836,0.00346,-93.2394,34.88689,0.00073,80.86636,-7.87701,-3.62881,0.00214,-26.18239,4.79734,-0.00411,5.51552,-1.20868,24.27874,-15.05517,-10.10838,22.22243,-0.0715,6.65416,5.27651
2467,-6.36277,0.0,0.0,-2.37182,0.0,-0.0,-9.16306,-5.8108,21.1397,17.82508,4.48899,-15.30704,-15.46951,-5.14578,0.00049,-15.48429,-1.3557,2e-05,32.94968,19.46796,9.00114,5.06078,5.514,-12.98139,6.0205,18.29727,-19.00304,-7.14221,-23.62706,12.05062,55.26433,-0.00095,-93.06374,34.79284,0.00135,80.96014,-7.17285,-3.52678,0.00028,-26.33971,5.489,-0.00496,5.43707,-1.18251,24.12431,-15.15443,-10.0296,22.08497,0.05329,6.66746,5.28589
2468,-6.67612,0.0,0.0,-2.67845,0.0,0.0,-8.94827,-5.92417,21.01748,18.04778,4.56478,-15.46068,-15.76635,-5.18487,-8e-05,-15.54796,-1.38906,1e-05,33.39741,19.36743,8.94967,5.26869,5.49534,-12.9881,5.84939,17.88775,-19.25009,-7.06558,-23.51853,12.33391,54.99586,-0.00307,-93.4092,34.68623,0.00226,80.83305,-6.66411,-3.58894,-0.00121,-26.34023,6.062,-0.00512,5.36396,-1.19128,23.92877,-15.2563,-9.96901,21.89602,0.29764,6.64407,5.29057
2469,-6.58113,0.0,0.0,-2.85991,0.0,-0.0,-8.82705,-6.14588,20.70316,18.28911,4.8095,-15.74343,-16.07453,-5.03878,-0.00086,-15.61199,-1.37301,-1e-05,33.75066,19.15866,9.11263,5.37896,5.39765,-12.93624,5.67688,17.4416,-19.58119,-7.14421,-23.35672,12.31915,54.71465,-0.00153,-93.73305,34.79252,0.00197,80.57765,-6.73622,-3.65062,-0.00195,-26.03747,6.07407,-0.00692,5.31305,-1.27152,23.68345,-15.34723,-9.95765,21.63427,0.44659,6.59321,5.28022
2470,-5.94051,-0.0,-0.0,-2.79892,0.0,-0.0,-8.84944,-6.2744,20.28166,18.43884,5.08237,-16.1168,-16.39885,-4.81502,-0.00103,-15.60435,-1.30118,7e-05,33.93003,18.89723,9.38067,5.27471,5.26622,-12.85806,5.58234,17.07218,-20.18475,-7.30306,-23.17035,12.27321,54.33738,0.00245,-93.55628,35.0694,-0.00136,80.7552,-7.46022,-3.56799,-0.00313,-25.62057,5.97309,-0.00449,5.32395,-1.37993,23.4843,-15.3712,-9.98877,21.40627,0.40149,6.53915,5.24416
2471,-5.17902,0.0,0.0,-2.60283,0.0,0.0,-8.91464,-6.13125,19.87013,18.49607,5.10109,-16.48185,-16.76368,-4.69345,-0.00038,-15.52743,-1.2041,0.00013,34.03693,18.68197,9.61804,5.05399,5.16552,-12.78627,5.60268,16.86246,-21.09674,-7.32012,-23.02611,12.63064,53.89989,0.00395,-92.90478,35.28313,-0.00307,81.65023,-8.46543,-3.44228,-0.00204,-25.26739,6.47892,0.00214,5.43023,-1.40834,23.42114,-15.27556,-9.99303,21.3361,0.23912,6.49273,5.20121
2472,-4.68263,-0.0,-0.0,-2.41438,0.0,0.0,-8.917,-5.7227,19.51277,18.52684,4.76316,-16.82565,-17.16631,-4.7766,0.00066,-15.45264,-1.11189,6e-05,34.11707,18.60754,9.76299,4.80979,5.14949,-12.66874,5.65128,16.76557,-22.07336,-7.16458,-22.96556,13.47716,53.53922,0.00095,-92.34052,35.4352,-0.00089,82.74268,-9.21175,-3.45284,4e-05,-25.02609,7.56796,0.0059,5.61633,-1.32189,23.43312,-15.08241,-9.91639,21.3785,0.01688,6.4696,5.19576
2473,-4.52196,0.0,0.0,-2.28804,0.0,-0.0,-8.80926,-5.24833,19.24036,18.56095,4.22911,-17.1829,-17.579,-5.04778,0.00139,-15.44372,-1.0376,-4e-05,34.13871,18.69944,9.77691,4.55728,5.23061,-12.4786,5.5394,16.63713,-22.77893,-7.02983,-22.97309,14.52252,53.40783,-4e-05,-92.4501,35.76783,0.00609,83.11977,-9.45137,-3.63955,9e-05,-24.96194,8.49044,0.00465,5.80681,-1.21711,23.36547,-14.895,-9.79446,21.35188,-0.25488,6.4997,5.25466
2474,-4.57355,0.0,0.0,-2.17398,-0.0,-0.0,-8.617,-4.92972,19.08018,18.57106,3.7134,-17.5044,-17.97391,-5.39823,0.00128,-15.49241,-0.97716,-6e-05,34.13561,18.86291,9.6715,4.33109,5.3387,-12.32281,5.16686,16.38446,-23.1281,-7.00318,-23.00501,15.49916,53.54731,0.00324,-93.31001,36.26738,0.01076,82.33162,-9.30952,-3.93635,-0.00086,-25.04886,8.61251,0.00159,5.8923,-1.19084,23.14917,-14.83809,-9.6934,21.15608,-0.49905,6.5771,5.36174
2475,-4.6576,0.0,-0.0,-2.03413,-0.0,0.0,-8.42443,-4.84353,18.96329,18.54971,3.34421,-17.70197,-18.34339,-5.6676,0.00036,-15.54507,-0.91147,-3e-05,34.22672,18.93004,9.57492,4.20824,5.35365,-12.33361,4.65465,16.04512,-23.34159,-6.92734,-23.00636,16.35158,53.82315,0.00404,-94.45858,36.56538,0.00411,80.90334,-9.03705,-4.29686,-0.00096,-25.08623,8.04656,-0.0025,5.8032,-1.229,22.84929,-14.97088,-9.62285,20.85798,-0.58409,6.64419,5.47051
2476,-4.72478,0.0,0.0,-1.97334,0.0,-0.0,-8.26461,-4.92337,18.79716,18.55741,3.15312,-17.77984,-18.72442,-5.75078,-0.00071,-15.58238,-0.82655,0.0,34.5272,18.8044,9.59796,4.2502,5.22013,-12.51711,4.23182,15.73849,-23.68419,-6.63187,-22.94533,17.15872,54.03854,0.00113,-95.2281,36.44875,-0.00011,79.90325,-8.83248,-4.69009,-2e-05,-25.01824,7.48062,-0.00441,5.59494,-1.27227,22.56399,-15.22057,-9.56204,20.57196,-0.4513,6.65134,5.54187
2477,-4.75511,0.0,-0.0,-2.03383,-0.0,-0.0,-8.11304,-5.00967,18.5157,18.63927,3.11565,-17.80068,-19.19059,-5.68025,-0.00137,-15.62498,-0.76022,4e-05,35.03958,18.56269,9.76933,4.42892,5.01643,-12.79961,4.01519,15.55918,-24.24366,-6.13841,-22.85739,18.00996,54.10958,-0.00048,-95.22395,36.14851,0.00235,79.87067,-8.74921,-5.03087,0.00087,-25.01756,7.39901,-0.00367,5.43481,-1.31076,22.34437,-15.41255,-9.51993,20.34999,-0.19559,6.61125,5.58094
2478,-4.52059,-0.0,0.0,-1.99206,0.0,-0.0,-7.9844,-4.94078,18.05487,18.7531,3.20795,-17.81513,-19.77373,-5.57437,-0.00115,-15.6719,-0.77826,5e-05,35.59309,18.37203,10.10636,4.5934,4.87105,-13.09858,3.9309,15.48565,-24.92076,-5.60406,-22.80647,18.8798,54.09318,-0.00017,-94.60925,36.04872,-7e-05,80.50195,-8.73549,-5.20863,0.00109,-25.14017,7.65907,-0.00189,5.45758,-1.36223,22.19552,-15.41269,-9.51504,20.19041,-0.00895,6.57941,5.6363
2479,-3.92203,0.0,-0.0,-1.68225,-0.0,-0.0,-7.88245,-4.71483,17.49321,18.85658,3.39567,-17.88709,-20.4112,-5.5417,-0.00015,-15.68823,-0.87226,1e-05,35.99499,18.30658,10.52505,4.60234,4.82265,-13.30055,3.83366,15.40485,-25.55062,-5.14255,-22.79095,19.63953,54.07151,0.00027,-93.96428,36.31112,-0.00729,81.43938,-8.83495,-5.21318,0.00076,-25.2014,8.01361,0.00116,5.63854,-1.40953,22.10473,-15.24659,-9.52689,20.08733,0.01144,6.58438,5.73883
2480,-3.33306,0.0,0.0,-1.29831,0.0,-0.0,-7.7219,-4.45757,17.04525,18.96818,3.60332,-18.05674,-21.01819,-5.62772,0.00082,-15.64536,-0.96228,-3e-05,36.23461,18.31176,10.81629,4.46836,4.82055,-13.33776,3.65486,15.25581,-26.05029,-4.71278,-22.73178,20.26592,54.05433,0.00033,-93.83273,36.76552,-0.00956,82.53908,-9.18447,-5.1322,-0.0,-24.98811,8.49986,0.00415,5.84795,-1.40526,22.04334,-15.04503,-9.50102,20.03073,-0.04625,6.607,5.85465
2481,-3.21951,0.0,0.0,-1.17029,0.0,-0.0,-7.39734,-4.23117,16.80792,19.0864,3.74308,-18.29093,-21.57132,-5.80378,0.00105,-15.54821,-1.00253,-1e-05,36.41246,18.32103,10.86315,4.27857,4.82655,-13.26911,3.41207,15.09161,-26.44763,-4.18298,-22.56925,20.92223,53.99769,-0.00023,-94.3205,37.07682,-0.00378,83.37611,-9.70985,-4.96977,-0.0005,-24.48722,8.97645,0.00253,6.00371,-1.33429,21.95316,-14.89691,-9.40256,19.97101,-0.07163,6.62527,5.93972
2482,-3.60627,0.0,-0.0,-1.43172,0.0,-0.0,-6.9079,-4.01113,16.65597,19.16372,3.76487,-18.5162,-22.09535,-5.98534,0.0004,-15.43629,-1.01262,-1e-05,36.59055,18.30226,10.78366,4.09077,4.82764,-13.23553,3.11966,14.96421,-26.7424,-3.52669,-22.33613,21.72425,53.89341,-0.00065,-95.23487,37.12598,0.00134,83.55166,-10.04708,-4.62784,0.00124,-23.94817,9.06338,-0.00218,6.09954,-1.24752,21.7851,-14.818,-9.26154,19.84334,-0.04989,6.63351,5.99978
2483,-4.02606,0.0,0.0,-1.90223,0.0,0.0,-6.40641,-3.81979,16.41002,19.18472,3.66275,-18.67506,-22.6243,-6.09882,-0.0005,-15.35672,-1.01454,-3e-05,36.78608,18.22412,10.78285,3.92559,4.78374,-13.35702,2.76399,14.84003,-26.85985,-2.88928,-22.11344,22.53983,53.7946,-0.00012,-96.41005,37.21172,0.00042,83.39182,-9.95951,-4.1166,0.00399,-23.6066,8.82997,-0.00131,6.1268,-1.21227,21.56115,-14.81778,-9.14864,19.64424,-0.00883,6.6241,6.05635
2484,-3.99353,0.0,0.0,-2.21799,-0.0,-0.0,-6.06519,-3.74548,16.05493,19.19325,3.44395,-18.78179,-23.19069,-6.15728,-0.00081,-15.32254,-0.98138,-1e-05,36.99233,18.06944,10.90639,3.75046,4.64526,-13.61945,2.37295,14.67462,-26.82748,-2.41211,-21.94231,23.09513,53.73421,0.00026,-97.6559,37.72214,-0.00897,83.6132,-9.67069,-3.59099,0.00319,-23.27307,8.83144,0.00682,6.07361,-1.24644,21.33665,-14.90178,-9.10026,19.41958,0.02136,6.5937,6.10584
2485,-3.51178,0.0,-0.0,-2.16284,0.0,-0.0,-5.87742,-3.78996,15.69309,19.23046,3.15864,-18.89668,-23.82353,-6.22035,-0.00049,-15.3036,-0.87255,5e-05,37.21117,17.8769,11.06285,3.52442,4.42433,-13.90482,2.04218,14.48826,-26.83049,-2.06341,-21.81054,23.2626,53.67458,-0.00035,-98.72245,38.63572,-0.0161,84.40636,-9.6046,-3.14423,-0.00046,-22.50289,9.25898,0.0145,5.97528,-1.32914,21.1024,-15.0346,-9.09357,19.16814,0.03179,6.56429,6.14503
2486,-3.00799,0.0,-0.0,-1.8642,0.0,0.0,-5.65581,-3.86752,15.40107,19.28433,2.93994,-19.06894,-24.54146,-6.32627,0.00032,-15.25955,-0.71689,9e-05,37.46624,17.73872,11.17,3.25687,4.22282,-14.10107,1.8406,14.34265,-26.99179,-1.69359,-21.70025,23.21824,53.60423,-0.00038,-99.49869,39.50112,-0.00928,85.21276,-9.92197,-2.76237,-0.00286,-21.27975,9.58189,0.00844,5.89112,-1.45246,20.79727,-15.16403,-9.09919,18.83498,0.03324,6.57547,6.20958
2487,-2.81339,-0.0,0.0,-1.59588,-0.0,0.0,-5.25304,-3.97883,15.2331,19.32102,2.9213,-19.34612,-25.32624,-6.49309,0.00105,-15.16734,-0.60352,0.0,37.73895,17.71034,11.16136,2.95201,4.14324,-14.13912,1.70543,14.30051,-27.22551,-1.20517,-21.60026,23.24465,53.64802,0.00128,-100.06068,39.93958,-0.00071,85.42234,-10.38409,-2.48238,-0.0021,-20.08888,9.22063,-0.00374,5.85917,-1.61929,20.41069,-15.25304,-9.11584,18.40903,0.00988,6.64417,6.33852
2488,-2.83418,-0.0,0.0,-1.45669,0.0,-0.0,-4.74448,-4.12295,15.13988,19.34805,3.13087,-19.70775,-26.11038,-6.68453,0.00048,-15.02829,-0.573,-0.00013,37.97421,17.71651,11.05508,2.58962,4.15429,-14.0797,1.48899,14.40182,-27.35982,-0.60216,-21.48665,23.45602,53.95491,0.00261,-100.4765,39.99946,0.0009,85.0162,-10.61203,-2.3865,-0.00061,-19.24916,8.19386,-0.00744,5.90818,-1.78995,20.01381,-15.26153,-9.13193,17.97194,-0.04021,6.73199,6.49923
2489,-2.79401,0.0,-0.0,-1.33611,0.0,-0.0,-4.30215,-4.0861,14.93676,19.40443,3.46201,-19.98432,-26.83255,-6.82807,-0.00075,-14.87124,-0.58105,-0.00011,38.18158,17.63386,11.00127,2.21904,4.11827,-14.12732,1.12118,14.61464,-27.31544,0.068,-21.33053,23.80472,54.45575,0.00129,-100.62265,39.97652,0.00078,84.39407,-10.51441,-2.44873,-0.00035,-18.67475,7.04159,-0.0043,6.06273,-1.88155,19.6802,-15.15149,-9.0968,17.62354,-0.02716,6.77321,6.62193
2490,-2.65348,0.0,0.0,-1.13825,-0.0,-0.0,-3.90074,-3.66506,14.58155,19.48235,3.68465,-20.03481,-27.49049,-6.95321,-0.00046,-14.72345,-0.56676,5e-05,38.42006,17.45178,11.04939,1.93784,3.96279,-14.37894,0.6592,14.82057,-27.12161,0.72198,-21.13094,24.2096,54.88479,-3e-05,-100.29053,40.10106,0.00174,83.83262,-10.38212,-2.535,-0.00032,-18.26298,6.3639,0.00018,6.29694,-1.86105,19.39598,-14.94892,-8.97483,17.36294,0.14653,6.74251,6.70809
2491,-2.54068,0.0,-0.0,-0.91356,0.0,-0.0,-3.33309,-3.0366,14.26366,19.52197,3.59752,-19.96618,-28.10975,-7.16941,0.00092,-14.57495,-0.51276,0.00018,38.67288,17.25122,11.0371,1.73986,3.74426,-14.68224,0.17469,14.93816,-26.8372,1.24393,-20.93372,24.58391,55.09211,0.00107,-99.54053,40.46861,0.00152,83.3871,-10.48577,-2.57166,-8e-05,-18.01357,6.40574,0.00234,6.52577,-1.79371,19.08025,-14.75219,-8.79763,17.08999,0.43606,6.66816,6.81383
2492,-2.37761,0.0,-0.0,-0.74671,0.0,0.0,-2.56356,-2.567,14.05447,19.50646,3.25459,-19.97938,-28.68837,-7.45622,0.00087,-14.41123,-0.4568,0.00013,38.8614,17.05149,10.90073,1.53229,3.52835,-14.90004,-0.31911,15.05803,-26.53375,1.56275,-20.78991,24.81602,55.1907,0.00239,-98.78656,41.10252,-0.00296,83.1806,-10.7308,-2.6309,0.00016,-17.79486,6.92982,0.00279,6.66626,-1.74375,18.67658,-14.65399,-8.60453,16.72805,0.71449,6.55191,6.94888
2493,-1.943,-0.0,-0.0,-0.63095,0.0,-0.0,-1.83597,-2.34431,13.80804,19.50176,2.88994,-20.11554,-29.19931,-7.67566,-0.00056,-14.24815,-0.43879,2e-05,38.9716,16.77754,10.81609,1.2893,3.28056,-15.10613,-0.81557,15.35619,-26.31155,1.70046,-20.68927,24.80497,55.3527,0.00312,-98.34014,41.9533,-0.00737,83.30254,-10.792,-2.78873,-0.00013,-17.43554,7.3692,0.00219,6.68305,-1.68558,18.17932,-14.68824,-8.36943,16.28139,0.96233,6.31868,7.08126
2494,-1.27334,0.0,-0.0,-0.51974,0.0,0.0,-1.3405,-2.16211,13.47682,19.58389,2.64728,-20.32851,-29.65019,-7.80676,-0.00103,-14.08646,-0.44383,6e-05,39.06193,16.37815,10.88121,1.04421,2.93777,-15.39182,-1.27627,15.87889,-26.2453,1.74556,-20.5811,24.57399,55.60963,0.00225,-97.99707,42.86759,-0.00326,83.42092,-10.5623,-2.99696,0.00038,-17.08895,7.28073,0.00297,6.58565,-1.56499,17.62565,-14.83795,-8.05523,15.8052,1.27057,5.92011,7.20291
2495,-0.67051,0.0,-0.0,-0.40104,0.0,0.0,-0.95976,-1.84557,13.18487,19.75528,2.5668,-20.62688,-30.11683,-7.95764,0.00018,-13.88686,-0.44878,0.0001,39.17721,15.90594,10.96402,0.7837,2.5393,-15.71316,-1.69781,16.49979,-26.28332,1.82042,-20.44974,24.31309,55.92618,-0.00141,-97.28833,43.65618,0.00525,83.05916,-10.37779,-3.14588,0.00286,-17.20418,6.88648,0.00498,6.40976,-1.38871,17.09947,-15.0591,-7.69883,15.37602,1.68227,5.44769,7.32997
2496,-0.34041,-0.0,-0.0,-0.27874,0.0,0.0,-0.45057,-1.43547,13.00179,19.93518,2.68874,-21.0411,-30.67688,-8.17819,0.00166,-13.63678,-0.48307,-5e-05,39.30729,15.46697,10.92063,0.46606,2.20293,-15.97048,-2.16451,17.07837,-26.24977,2.03814,-20.31211,24.24719,56.31773,-0.00494,-96.11124,44.23473,0.00777,82.35844,-10.63807,-3.1102,0.00437,-18.0901,6.88663,-0.00355,6.1992,-1.21899,16.6678,-15.30477,-7.38284,15.03366,2.13076,5.05331,7.4729
2497,-0.23235,-0.0,0.0,-0.15477,0.0,0.0,0.24415,-1.11812,12.81925,20.02715,2.99021,-21.56635,-31.33925,-8.3847,0.00136,-13.39012,-0.59398,-0.00022,39.42409,15.12503,10.79203,0.10519,1.99757,-16.10784,-2.74245,17.5868,-26.01764,2.42736,-20.16877,24.48019,56.73185,-0.00315,-94.95945,44.68834,0.00328,82.10165,-11.32966,-2.70388,0.00148,-19.61799,7.62671,-0.01677,6.00863,-1.10937,16.29408,-15.52693,-7.14379,14.72379,2.5332,4.78367,7.61853
2498,-0.16493,-0.0,0.0,-0.04629,0.0,0.0,0.96054,-1.05365,12.43291,20.01031,3.31653,-22.15317,-32.06315,-8.4331,-0.00094,-13.21149,-0.78747,-0.00016,39.5308,14.84551,10.77048,-0.24002,1.89324,-16.16968,-3.34435,18.08041,-25.66326,2.89935,-20.00607,24.92445,56.92449,-0.00043,-94.46498,45.17982,-0.00393,82.84454,-12.15473,-1.6859,-0.00552,-21.34031,8.79261,-0.01517,5.90326,-1.05921,15.85573,-15.67206,-6.93612,14.33164,2.88176,4.55661,7.72074
2499,0.01847,0.0,0.0,0.02566,0.0,0.0,1.53307,-1.27023,11.81167,19.95802,3.47655,-22.75224,-32.78614,-8.28081,-0.00257,-13.12477,-1.01284,7e-05,39.63432,14.51359,10.93361,-0.55514,1.80297,-16.24228,-3.79575,18.5994,-25.40078,3.30566,-19.83146,25.32646,56.68267,-0.00418,-94.82114,45.7972,-0.00901,84.3973,-12.9555,-0.02473,-0.01136,-22.86817,9.91874,-0.00375,5.8922,-1.02963,15.24463,-15.73852,-6.68367,13.77049,3.21664,4.27589,7.73618
2500,0.37759,0.0,0.0,0.08099,0.0,0.0,1.96454,-1.68209,11.22858,19.95322,3.43501,-23.36304,-33.44057,-8.06823,-0.00166,-13.1155,-1.20269,6e-05,39.70794,14.03369,11.07872,-0.89014,1.64809,-16.31328,-4.01948,19.12171,-25.38141,3.52652,-19.68955,25.43365,56.13921,-0.00736,-95.71909,46.51202,-0.00955,86.21702,-13.73882,1.68216,-0.00678,-24.06949,10.85353,0.00229,5.87212,-0.98946,14.45787,-15.8266,-6.35592,13.04959,3.56963,3.92274,7.68438
2501,0.85201,0.0,-0.0,0.14791,0.0,0.0,2.3782,-2.16421,10.9867,20.00356,3.35566,-23.98907,-33.9899,-7.97773,0.00036,-13.15868,-1.33402,-0.00043,39.71601,13.41029,10.94516,-1.28345,1.39878,-16.26468,-4.10284,19.60382,-25.55896,3.53054,-19.63115,25.1867,55.6896,-0.00323,-96.72922,47.23072,-0.0062,87.85616,-14.37652,2.46365,0.00456,-24.92261,11.55516,0.00323,5.71155,-0.926,13.60922,-16.05564,-5.98278,12.28042,3.96284,3.53354,7.64074
2502,1.27744,0.0,-0.0,0.18502,0.0,0.0,2.86098,-2.54774,11.0949,20.04561,3.41004,-24.52859,-34.43301,-8.05117,0.00134,-13.28378,-1.44811,-0.00108,39.63937,12.70297,10.50757,-1.69767,1.05692,-16.04115,-4.22081,20.05037,-25.7258,3.38942,-19.65924,24.73716,55.62729,0.00305,-97.63651,47.8349,-0.00138,88.95399,-14.5854,1.91471,0.00394,-25.3823,11.69376,0.003,5.38949,-0.83691,12.83597,-16.43535,-5.61298,11.59209,4.41004,3.11941,7.6591
2503,1.52836,-0.0,0.0,0.15271,-0.0,0.0,3.38799,-2.63402,11.28188,19.99321,3.60529,-24.79507,-34.78244,-8.17355,0.00091,-13.62986,-1.60695,-0.00125,39.4827,11.9481,9.96931,-2.0261,0.63213,-15.73347,-4.50765,20.52761,-25.70394,3.22549,-19.72187,24.30627,55.9694,0.0049,-98.36881,48.26662,0.00129,89.23536,-14.26999,0.45132,-0.00676,-25.47814,10.92582,0.00123,4.99659,-0.74188,12.19569,-16.87275,-5.28652,11.03068,4.90239,2.65126,7.71922
2504,1.6681,0.0,-0.0,0.14564,0.0,0.0,3.87679,-2.40923,11.29551,19.77814,3.80236,-24.75227,-35.06115,-8.19753,-7e-05,-14.40012,-1.82421,-0.00051,39.26782,11.17065,9.53533,-2.15481,0.15612,-15.40224,-4.95723,21.1085,-25.51209,3.12164,-19.76128,24.03238,56.54355,0.00143,-98.78692,48.62599,0.00248,88.73794,-13.66283,-1.30657,-0.01043,-25.35339,9.53448,0.00097,4.60195,-0.67261,11.66846,-17.30269,-5.02572,10.56543,5.40793,2.12553,7.75327
2505,1.80386,0.0,-0.0,0.34018,0.0,0.0,4.27641,-2.1329,11.09349,19.37595,3.88081,-24.59361,-35.29943,-8.05122,-0.00085,-15.74482,-2.06552,0.00121,39.01196,10.41407,9.26807,-2.02012,-0.31282,-14.98464,-5.44308,21.80194,-25.30056,3.0788,-19.76221,23.88564,57.12177,-0.00208,-98.82908,49.09438,0.00537,87.82816,-13.03836,-2.84779,-0.0039,-24.99998,8.28149,0.00114,4.18327,-0.63343,11.21837,-17.75094,-4.82136,10.16103,5.88857,1.60209,7.70272
2506,1.88255,0.0,-0.0,0.81578,0.0,-0.0,4.58423,-2.08684,10.76789,18.78772,3.86035,-24.50348,-35.49937,-7.75912,-0.00101,-17.69124,-2.29506,0.00381,38.7031,9.69716,9.09629,-1.62914,-0.73716,-14.4514,-5.84711,22.52149,-25.12743,3.02857,-19.75329,23.67575,57.5376,-0.00166,-98.74836,49.75748,0.00854,86.87127,-12.37969,-3.74849,0.00444,-24.11725,7.52448,-0.00315,3.7201,-0.60679,10.81097,-18.24016,-4.64439,9.79189,6.30731,1.15511,7.54024
2507,1.79948,0.0,0.0,1.481,0.0,0.0,4.81559,-2.34663,10.45904,17.98083,3.85424,-24.4759,-35.59447,-7.41658,-0.00045,-20.18458,-2.47958,0.00674,38.28454,8.97436,8.87142,-1.03048,-1.15474,-13.89041,-6.13379,23.13223,-24.90878,2.87872,-19.76558,23.20515,57.75221,0.00052,-98.93769,50.56853,0.00499,86.20355,-11.4491,-3.96794,0.00754,-22.59459,6.98966,-0.0101,3.2714,-0.60036,10.40732,-18.71431,-4.48741,9.41879,6.62349,0.80662,7.27002
2508,1.5807,0.0,-0.0,2.20231,0.0,-0.0,4.99323,-2.77047,10.31102,16.8131,3.95713,-24.37802,-35.48969,-7.12245,0.00012,-23.16891,-2.57899,0.00739,37.69547,8.19923,8.4867,-0.22837,-1.64941,-13.41044,-6.29422,23.55911,-24.64345,2.60943,-19.80025,22.50247,57.77975,0.00161,-99.5219,51.41446,-0.00678,86.33256,-10.25941,-3.93272,0.00314,-21.04486,6.4606,-0.00839,2.87371,-0.64113,9.97868,-19.1393,-4.36465,9.00488,6.82283,0.53704,6.94423
2509,1.40708,0.0,-0.0,3.00332,0.0,0.0,5.13239,-3.15057,10.38605,15.00674,4.16004,-24.15215,-35.1605,-6.91481,0.00011,-26.59615,-2.52896,0.0001,36.93858,7.41465,7.96857,0.84738,-2.25411,-12.97179,-6.29701,23.84806,-24.53646,2.33447,-19.85327,21.85677,57.58787,0.00212,-100.23379,52.16101,-0.01251,87.36378,-9.26118,-3.98317,-0.00194,-20.39683,6.13854,-0.00163,2.45541,-0.72259,9.52222,-19.58642,-4.26898,8.54993,6.9389,0.3457,6.65577
2510,1.46756,0.0,0.0,3.99777,0.0,0.0,5.23231,-3.38234,10.59171,12.28494,4.38265,-23.89036,-34.68281,-6.75735,7e-05,-30.3806,-2.25754,-0.01422,36.08071,6.71806,7.43109,2.25512,-2.91216,-12.38372,-6.1114,24.10104,-24.78219,2.20266,-19.95666,21.54646,57.13057,0.00155,-100.76174,52.7262,-0.00534,88.44313,-8.85254,-4.01996,-0.00293,-20.94218,6.2665,-0.00385,1.96699,-0.80245,9.07494,-20.10169,-4.17505,8.10422,7.00406,0.25641,6.46252
2511,1.71307,0.0,-0.0,4.98575,0.0,0.0,5.31308,-3.4399,10.70197,8.613,4.59398,-23.6437,-34.18341,-6.55122,0.00047,-34.41865,-1.8149,-0.02022,35.21841,6.13439,6.99442,3.9987,-3.54354,-11.60088,-5.71696,24.35225,-25.31486,2.24136,-20.14724,21.57259,56.40233,-0.00554,-101.21709,53.1511,0.00292,88.70625,-8.89101,-3.78504,-0.00167,-22.11382,6.78052,-0.00752,1.49509,-0.83914,8.70601,-20.59394,-4.07039,7.74767,7.02474,0.2594,6.32263
2512,1.84625,0.0,0.0,5.3085,0.0,-0.0,5.42718,-3.28973,10.5298,4.31356,4.81511,-23.28635,-33.79135,-6.18853,0.00035,-38.66007,-1.43728,-0.00526,34.4606,5.58771,6.73157,6.08161,-4.11633,-10.8631,-5.13779,24.53769,-25.85033,2.35768,-20.39766,21.698,55.45269,-0.01499,-101.91172,53.53883,0.00441,88.29906,-8.92419,-3.20861,0.00181,-23.14525,7.41775,-0.00383,1.13848,-0.79921,8.43309,-20.96329,-3.93075,7.50925,7.03014,0.29597,6.1371
2513,1.64263,0.0,0.0,4.37293,-0.0,0.0,5.60745,-2.96657,10.1058,-0.07969,5.01681,-22.62855,-33.58679,-5.63462,-0.00104,-43.07766,-1.33111,0.01783,33.87156,5.01274,6.62894,8.48496,-4.6309,-10.37541,-4.49839,24.60697,-26.17715,2.48283,-20.61767,21.68093,54.42158,-0.01031,-102.53744,53.91749,0.00203,87.78944,-8.79173,-2.51253,0.00456,-23.65004,7.99973,0.00169,0.86885,-0.67257,8.14704,-21.24375,-3.70578,7.29144,7.06861,0.32544,5.84118
2514,1.18102,0.0,0.0,2.22745,0.0,-0.0,5.82508,-2.63694,9.61291,-4.09848,5.0769,-21.53586,-33.53322,-4.93656,-0.00211,-47.57745,-1.41458,0.02391,33.40909,4.42468,6.5903,11.09357,-5.07613,-10.03832,-3.93506,24.61638,-26.36947,2.64403,-20.73789,21.42094,53.49465,0.00579,-102.26856,54.20284,0.00012,87.33286,-8.71044,-2.14724,0.00492,-23.58657,8.45296,0.00328,0.59633,-0.51558,7.70133,-21.53359,-3.39251,6.937,7.1408,0.37164,5.42641
2515,0.72714,0.0,0.0,-0.48378,0.0,0.0,6.0042,-2.47429,9.16402,-7.45043,4.8615,-19.93118,-33.47185,-4.16588,-0.00088,-52.05283,-1.39597,0.00925,32.96412,3.86519,6.48972,13.77014,-5.44219,-9.62376,-3.45257,24.66171,-26.61487,2.88802,-20.7924,20.97591,52.78687,0.01268,-100.92423,54.31827,-0.00049,86.86191,-8.75609,-2.42837,0.00381,-23.05992,8.65876,-2e-05,0.2948,-0.41911,7.08572,-21.86024,-3.07113,6.40231,7.20292,0.4834,4.90195
2516,0.50587,0.0,-0.0,-2.88071,0.0,0.0,6.07213,-2.51791,8.73953,-9.93572,4.38366,-17.76743,-33.23265,-3.40485,0.00174,-56.53389,-1.09278,-0.0061,32.43037,3.3577,6.24377,16.48226,-5.75554,-9.05294,-2.97897,24.76359,-26.88324,3.19179,-20.89802,20.52396,52.32298,0.00587,-99.45479,54.34694,-0.00072,86.53471,-8.60286,-3.12238,5e-05,-22.38805,8.61907,-0.00386,0.00806,-0.40408,6.45438,-22.17223,-2.819,5.82256,7.21027,0.6754,4.29149
2517,0.59182,-0.0,-0.0,-4.16666,-0.0,0.0,6.02146,-2.71152,8.30369,-11.44283,3.8364,-15.0399,-32.79308,-2.75619,0.00268,-61.17406,-0.57276,-0.00844,31.73903,2.94218,5.86544,19.28362,-6.06933,-8.42359,-2.52294,24.8841,-26.98439,3.4716,-21.1319,20.25183,52.07504,-0.00188,-99.06078,54.50837,-0.00295,86.66598,-7.9966,-3.68032,-0.00049,-22.06869,8.67835,-0.00604,-0.22952,-0.42056,5.97978,-22.42771,-2.65502,5.37638,7.12451,0.92641,3.65247
2518,0.9108,0.0,0.0,-4.12549,0.0,0.0,5.93733,-3.02794,7.86122,-12.02697,3.42317,-11.93307,-32.33949,-2.29805,0.00112,-66.04557,0.0332,-0.00664,30.92804,2.68652,5.4311,22.22284,-6.43216,-7.86872,-2.15864,25.02745,-26.91861,3.68015,-21.45292,20.21938,51.97954,-0.00312,-99.9256,54.93515,-0.00575,87.27986,-7.28315,-3.888,0.00391,-22.32631,9.15825,-0.00793,-0.43909,-0.4579,5.6991,-22.64766,-2.58353,5.10213,6.93689,1.21782,3.02086
2519,1.32709,0.0,0.0,-3.31559,0.0,0.0,5.92532,-3.43735,7.39722,-11.87212,3.22045,-8.93449,-32.11951,-2.01891,-0.00069,-71.01151,0.6975,-0.01046,30.13313,2.61843,5.00536,25.29067,-6.87965,-7.46987,-1.87407,25.23022,-26.88597,3.89998,-21.76239,20.32702,51.97165,-0.00125,-101.06416,55.52007,-0.00394,87.97891,-7.10205,-3.98028,0.00832,-22.77166,9.9156,-0.00399,-0.64048,-0.55607,5.51551,-22.85681,-2.60501,4.89485,6.65993,1.54754,2.3596
2520,1.84219,0.0,-0.0,-2.41288,0.0,-0.0,5.99094,-3.77543,6.87867,-11.18276,3.20737,-6.59455,-32.19464,-1.82525,-0.0013,-75.83881,1.39411,-0.01491,29.40921,2.67417,4.62627,28.41195,-7.44066,-7.25929,-1.55341,25.46296,-26.95037,4.30308,-22.02754,20.43489,52.00321,-0.00025,-101.51361,56.04125,0.00054,88.37358,-7.57223,-4.06301,0.00851,-22.77964,10.51565,0.00168,-0.78814,-0.70718,5.34598,-23.01247,-2.68079,4.68055,6.25517,1.91078,1.63684
2521,2.7376,0.0,0.0,-1.66334,-0.0,0.0,6.01439,-3.83989,6.35471,-10.11956,3.33927,-5.11343,-32.39278,-1.63244,-0.00097,-80.38966,2.01324,-0.01461,28.66716,2.74199,4.2885,31.5126,-8.13475,-7.21772,-1.14145,25.64849,-26.96439,4.97808,-22.32359,20.52681,52.03965,-0.0004,-101.22356,56.39391,0.0027,88.42111,-8.19203,-3.80762,0.00273,-22.18303,10.62784,-0.00042,-0.83358,-0.84461,5.19391,-23.065,-2.75049,4.48758,5.67464,2.28634,0.89247
2522,4.19622,0.0,0.0,-1.09846,0.0,-0.0,5.88821,-3.65957,5.93125,-8.7697,3.54846,-4.2125,-32.5059,-1.42499,-0.00028,-84.65559,2.40395,-0.00536,27.82965,2.75362,3.94043,34.60415,-8.95632,-7.33809,-0.73065,25.78111,-26.84027,5.84044,-22.73874,20.69941,52.09777,-0.00081,-100.73342,56.64346,0.00184,88.38094,-8.58341,-3.11931,-0.00283,-21.36106,10.27929,-0.00326,-0.80613,-0.92592,5.06143,-23.04291,-2.77563,4.33403,4.98066,2.6427,0.18077
2523,5.54647,-0.0,0.0,-0.79361,0.0,-0.0,5.72621,-3.51578,5.59656,-7.16181,3.69768,-3.43052,-32.44607,-1.21151,0.00038,-88.64966,2.38858,0.01458,26.87948,2.7322,3.58534,37.73404,-9.86633,-7.73521,-0.43475,25.93038,-26.67616,6.74345,-23.26485,20.96657,52.23835,-3e-05,-100.56095,56.8857,-0.00065,88.6475,-8.90201,-2.6724,-0.00258,-20.69694,9.83394,-8e-05,-0.76771,-0.96769,4.91726,-23.00931,-2.75973,4.18461,4.27417,2.96949,-0.46506
2524,5.58686,0.0,-0.0,-0.80603,0.0,-0.0,5.83264,-3.65955,5.20823,-5.34197,3.64508,-2.53075,-32.24116,-0.97579,0.0008,-92.35292,1.92351,0.02707,25.77773,2.76515,3.28845,40.87062,-10.8081,-8.5152,-0.2362,26.12918,-26.6068,7.61153,-23.81507,21.18573,52.45239,0.00172,-100.98976,57.12223,-0.00203,89.45419,-9.47385,-3.21397,0.00813,-20.21904,9.55198,0.00334,-0.73856,-1.0085,4.77963,-22.98466,-2.74542,4.04163,3.53344,3.32336,-1.02055
2525,4.20373,0.0,0.0,-1.03668,-0.0,-0.0,6.31604,-4.06694,4.71016,-3.43086,3.47087,-1.56638,-31.98695,-0.72398,0.00068,-95.7673,1.3188,0.01347,24.52459,2.94063,3.00699,43.95103,-11.71216,-9.4886,0.01037,26.35863,-26.70543,8.46959,-24.31271,21.24178,52.62106,0.00152,-101.91903,57.27129,-0.00065,90.50614,-10.40798,-4.68371,0.01955,-19.766,9.23904,0.00164,-0.69536,-1.0505,4.71202,-22.94402,-2.75869,3.96308,2.66531,3.79962,-1.49302
2526,2.70453,0.0,0.0,-1.15672,0.0,0.0,6.92244,-4.4849,4.24281,-1.60526,3.53674,-0.63479,-31.78132,-0.52827,8e-05,-98.93349,0.96351,-0.00995,23.21799,3.28987,2.56942,46.99648,-12.48356,-10.28823,0.44864,26.64246,-27.02393,9.42981,-24.73347,21.20196,52.64927,0.00034,-102.81184,57.25288,-0.00041,91.07063,-11.61056,-6.29013,0.01387,-19.26474,8.52472,-0.00334,-0.60051,-1.0461,4.71286,-22.84906,-2.75494,3.96552,1.6395,4.4211,-1.90765
2527,2.22579,-0.0,0.0,-0.77723,0.0,0.0,7.37614,-4.69752,4.01593,-0.01193,4.12214,0.26666,-31.63412,-0.47402,-0.00044,-101.85838,0.83787,-0.01527,21.91854,3.76788,1.85022,50.06266,-13.05219,-10.83578,1.09664,27.04857,-27.56971,10.6113,-25.10974,21.20961,52.5842,0.00055,-103.02986,57.06953,-0.00363,90.68159,-12.876,-7.15282,-0.00684,-18.75503,7.43502,-0.00516,-0.44196,-0.96884,4.69658,-22.68956,-2.67727,3.97972,0.4844,5.11685,-2.24906
2528,2.68965,0.0,0.0,0.1127,0.0,0.0,7.67713,-4.6931,4.08889,1.36876,5.06675,1.1393,-31.44862,-0.55506,-0.00045,-104.47304,0.62004,-0.00372,20.55675,4.30342,0.94012,53.14511,-13.44612,-11.40077,1.8282,27.56805,-28.20618,12.00275,-25.52777,21.31454,52.55489,-0.00041,-102.15376,56.82717,-0.00534,89.69642,-13.80429,-6.84966,-0.01507,-18.27791,6.51284,-0.00123,-0.27276,-0.87066,4.61547,-22.52079,-2.5557,3.94179,-0.75038,5.83484,-2.45199
2529,3.23792,0.0,0.0,1.0235,0.0,-0.0,8.02485,-4.58955,4.25157,2.76126,5.97528,1.8385,-31.12592,-0.63693,0.00031,-106.69424,0.14663,0.00581,19.02732,4.87363,0.15987,56.19207,-13.7576,-12.2098,2.47634,28.07589,-28.6815,13.45696,-26.0864,21.49295,52.62856,-0.00349,-100.07519,56.63603,-0.00316,89.0069,-13.90752,-5.6141,0.00342,-17.86295,6.23676,0.00358,-0.18676,-0.82977,4.52237,-22.43652,-2.4826,3.87105,-2.0021,6.60538,-2.4574
2530,3.37906,0.0,-0.0,1.57765,0.0,0.0,8.52758,-4.49452,4.28538,4.40092,6.68634,2.08986,-30.68687,-0.62932,0.00088,-108.50418,-0.48544,0.00643,17.33261,5.50007,-0.32704,59.15634,-14.07689,-13.26412,2.97004,28.45757,-28.84141,14.85499,-26.8165,21.75083,52.76159,-0.00397,-97.22247,56.46864,0.00144,89.21854,-13.19559,-4.09529,0.01905,-17.54292,6.42521,0.00389,-0.23142,-0.86082,4.43584,-22.48387,-2.47857,3.77913,-3.22776,7.47256,-2.30857
2531,3.44548,0.0,-0.0,1.915,0.0,-0.0,9.07788,-4.41528,4.23636,6.34269,7.31418,1.67997,-30.26872,-0.61237,0.00041,-109.9454,-1.11977,0.00305,15.60095,6.19248,-0.74939,62.02005,-14.49594,-14.46539,3.3777,28.71896,-28.79381,16.22489,-27.64646,22.11432,52.86669,-0.00077,-94.84107,56.18143,0.00666,90.22814,-12.52607,-2.91282,0.01208,-17.29324,6.51927,0.00087,-0.35023,-0.89594,4.21848,-22.60854,-2.42877,3.56448,-4.44137,8.41852,-2.15445
2532,3.70854,0.0,0.0,2.26184,0.0,0.0,9.5716,-4.26613,4.17874,8.44472,7.95096,0.69036,-30.00538,-0.65405,1e-05,-111.05665,-1.62986,-0.00044,13.97284,6.94428,-1.24201,64.81911,-15.07139,-15.67895,3.83369,28.93592,-28.80568,17.696,-28.46738,22.58098,52.88537,1e-05,-94.29093,55.67342,0.00486,91.41098,-12.96808,-2.35211,0.00504,-17.05051,6.3444,-0.00187,-0.4267,-0.84989,3.7261,-22.69522,-2.19963,3.12595,-5.68719,9.3873,-2.08252
2533,4.02788,0.0,-0.0,2.81951,-0.0,0.0,10.028,-4.02561,4.06903,10.32958,8.58247,-0.44071,-29.91832,-0.72763,3e-05,-111.85313,-1.91039,-0.00252,12.50518,7.76127,-1.62352,67.66688,-15.73856,-16.73041,4.4172,29.15218,-28.99977,19.39949,-29.209,23.16471,52.8142,-0.00275,-95.66389,54.91409,-0.00792,92.05471,-14.63188,-2.26715,0.00745,-16.85498,6.15608,-0.00355,-0.40567,-0.71686,3.05322,-22.68508,-1.8215,2.5534,-6.95888,10.34201,-2.01585
2534,4.44607,0.0,0.0,4.07797,0.0,0.0,10.46165,-3.84664,3.97865,11.49164,9.19181,-1.19022,-29.90023,-0.84465,-0.0001,-112.36236,-1.96752,-0.00225,11.1072,8.65431,-1.84241,70.62672,-16.35206,-17.54558,5.05568,29.38297,-29.20071,21.40895,-29.84036,23.94967,52.72717,-0.00239,-97.89457,53.85595,-0.01673,92.01511,-16.29704,-2.25748,0.00762,-16.88117,6.05236,-0.00426,-0.3497,-0.59583,2.49232,-22.63638,-1.49684,2.08012,-8.22656,11.27172,-1.8487
2535,5.07361,0.0,0.0,6.31612,0.0,-0.0,10.86486,-3.91969,4.04704,11.81263,9.67523,-1.35651,-29.80896,-1.0101,-0.00036,-112.63015,-1.95157,-0.00085,9.58038,9.62117,-2.07925,73.54421,-16.83712,-18.28193,5.5572,29.67908,-29.1699,23.68957,-30.34775,25.01584,52.74839,0.00242,-100.09392,52.47787,-0.00225,92.00438,-16.60203,-2.11952,0.0057,-17.29685,5.78324,-0.00031,-0.34418,-0.58147,2.22735,-22.63417,-1.38306,1.84033,-9.51263,12.19904,-1.61004
2536,5.61076,-0.0,0.0,8.68721,-0.0,-0.0,11.29928,-4.2907,4.21488,11.95348,9.77812,-1.18365,-29.605,-1.11108,-0.00011,-112.69713,-1.99579,-0.00028,7.82861,10.65444,-2.39154,76.17469,-17.23679,-19.16443,5.79412,30.09605,-28.90795,26.06421,-30.74837,26.29347,52.91691,0.00511,-101.91771,50.9006,0.02173,92.75048,-15.43661,-2.02327,-0.00028,-18.13761,5.11122,0.00926,-0.40733,-0.654,2.1629,-22.69876,-1.42573,1.75316,-10.82437,13.17787,-1.408
2537,5.59302,0.0,0.0,9.47534,0.0,-0.0,11.87843,-4.87167,4.27171,12.90155,9.4337,-1.10017,-29.38429,-1.02429,0.00018,-112.61018,-2.07556,-0.0008,5.92392,11.71055,-2.62133,78.43372,-17.61291,-20.13671,5.834,30.61362,-28.62591,28.27755,-31.10424,27.54007,53.10911,0.00269,-103.1452,49.36078,0.02108,93.96288,-13.76723,-2.10963,-0.00571,-19.22033,4.11195,0.01507,-0.52929,-0.7356,2.07083,-22.82253,-1.4663,1.63699,-12.12018,14.20895,-1.27348
2538,5.03686,0.0,-0.0,7.83519,0.0,0.0,12.63603,-5.50085,4.09274,14.9392,9.00612,-1.36119,-29.27649,-0.79124,-0.00036,-112.4362,-2.00158,-0.00147,3.97174,12.67603,-2.66466,80.44746,-18.0055,-20.73061,5.84958,31.15907,-28.52756,30.14503,-31.49013,28.48523,53.17064,-0.00029,-103.76634,48.04982,-0.0,94.69382,-12.48488,-2.18725,-0.00356,-20.08796,3.11706,0.00973,-0.71079,-0.8106,1.81765,-23.00729,-1.43966,1.37423,-13.38238,15.18933,-1.16502
2539,4.62065,0.0,-0.0,4.89174,-0.0,0.0,13.43973,-5.94869,3.73728,17.26913,8.91783,-1.90408,-29.34023,-0.62344,-0.00073,-112.22185,-1.52003,-0.00161,2.09293,13.45781,-2.64703,82.4894,-18.4784,-20.39402,5.93915,31.69149,-28.66868,31.65113,-31.94027,28.97614,53.09965,-0.00071,-104.22149,46.94498,-0.00935,94.64371,-11.77697,-1.98632,0.00104,-20.21878,2.38424,0.00015,-0.94957,-0.91525,1.41488,-23.25015,-1.38367,0.96178,-14.57839,16.00725,-1.05016
2540,5.11455,0.0,-0.0,2.49802,0.0,0.0,14.07515,-6.0326,3.38263,18.81463,9.19112,-2.45965,-29.55357,-0.73719,0.00016,-111.93935,-0.54695,-0.00132,0.4628,14.10341,-2.76484,84.87826,-19.07525,-19.02766,6.08598,32.23476,-28.95284,32.91747,-32.41617,29.01152,53.0504,0.00138,-104.91043,45.77112,0.00042,94.43539,-11.33777,-1.52517,0.00319,-19.47099,1.82196,-0.00714,-1.26166,-1.05535,0.92365,-23.5658,-1.3269,0.45406,-15.58519,16.63313,-0.89551
2541,6.54684,0.0,-0.0,1.46112,0.0,0.0,14.44948,-5.80157,3.11313,19.20851,9.5489,-2.87008,-29.86804,-1.15376,0.00126,-111.49654,0.69552,-0.0015,-0.80691,14.74477,-3.00669,87.77663,-19.74143,-17.07883,6.24792,32.85334,-29.26842,34.09445,-32.82068,28.70538,53.16837,0.00227,-105.55246,44.18726,0.00457,94.53637,-10.93625,-1.10007,0.00161,-18.27005,1.12466,-0.01038,-1.67999,-1.18878,0.40394,-23.98592,-1.25313,-0.07745,-16.27614,17.08121,-0.68593
2542,8.01039,0.0,0.0,1.48564,0.0,0.0,14.7163,-5.53024,2.82715,18.90928,9.89462,-3.3082,-30.23472,-1.68673,0.00118,-110.79729,1.91412,-0.00186,-1.81685,15.43941,-3.15704,91.02818,-20.34553,-15.03382,6.39277,33.59009,-29.61076,35.24757,-33.08297,28.20358,53.45712,-0.00161,-105.49596,42.07759,-0.01636,94.64899,-10.67627,-0.89278,-0.0012,-17.2992,0.12801,-0.00487,-2.1685,-1.24971,-0.06054,-24.47398,-1.13325,-0.5303,-16.66456,17.36502,-0.45798
2543,8.65307,0.0,-0.0,2.22292,0.0,0.0,15.10425,-5.49366,2.48727,18.55167,10.41546,-4.0288,-30.58733,-2.1695,0.00028,-109.78625,3.04941,0.00061,-2.83159,16.13699,-3.12278,94.25212,-20.76885,-13.01201,6.45525,34.3968,-30.00467,36.2983,-33.24718,27.54508,53.81808,-0.0052,-104.6338,39.64111,-0.0325,94.58479,-10.70555,-0.78711,-0.00202,-17.01422,-0.98495,0.00524,-2.59056,-1.18299,-0.40979,-24.89401,-0.939,-0.82808,-16.90549,17.52525,-0.23053
2544,8.7056,0.0,-0.0,3.72147,0.0,0.0,15.61175,-5.75596,2.19893,18.43375,11.07923,-5.02957,-30.86073,-2.5815,-0.0004,-108.48298,4.19998,0.00624,-4.03245,16.77095,-3.03537,97.16281,-21.01905,-10.93,6.35266,35.14772,-30.37825,37.09808,-33.44608,26.62942,54.19331,-0.00305,-103.56281,37.18178,-0.01429,94.94353,-10.89824,-0.67962,-0.00044,-17.42924,-1.79881,0.0076,-2.83548,-1.00939,-0.72518,-25.13605,-0.65872,-1.05396,-17.13713,17.62935,0.00763
2545,9.09933,0.0,-0.0,5.97295,0.0,-0.0,16.00341,-6.15406,1.88919,18.52637,11.42907,-6.08852,-31.05463,-2.93988,-0.00051,-106.9762,5.34434,0.01159,-5.33212,17.35204,-2.9477,99.80139,-21.22028,-8.8426,6.04836,35.76859,-30.60239,37.56982,-33.78488,25.39168,54.63146,0.00547,-102.9071,34.88297,0.01756,96.36956,-10.94615,-0.63959,0.00248,-18.30942,-2.07435,0.00194,-2.94572,-0.84221,-1.18204,-25.24201,-0.33072,-1.41318,-17.33367,17.71376,0.23384
2546,10.3292,0.0,0.0,8.5921,0.0,-0.0,16.08041,-6.47998,1.23483,18.63853,11.09826,-6.96238,-31.24257,-3.2178,-0.00032,-105.33277,6.29957,0.01423,-6.50002,17.9586,-2.65417,102.39605,-21.39815,-6.99135,5.55636,36.3385,-30.6122,37.72364,-34.28125,23.92719,55.22733,0.01578,-102.85603,32.82626,0.03539,98.90447,-10.68518,-0.76247,0.00445,-19.44897,-1.91937,-0.0033,-3.0398,-0.76855,-1.82493,-25.32878,-0.01871,-1.98002,-17.37079,17.74317,0.45107
2547,12.05233,0.0,-0.0,11.07894,-0.0,0.0,15.83686,-6.64866,0.04095,18.55833,10.17985,-7.5308,-31.48845,-3.38251,-0.00026,-103.53673,6.80919,0.00889,-7.44571,18.6199,-1.90082,105.03936,-21.3749,-5.68985,4.89679,37.01648,-30.41194,37.54277,-34.90597,22.35192,56.06332,0.01251,-102.98154,31.11517,0.0287,102.11924,-10.20147,-1.18295,0.00198,-20.63263,-1.53457,-0.00428,-3.12789,-0.73064,-2.53214,-25.40614,0.28451,-2.61999,-17.21202,17.62428,0.7691
2548,13.66869,0.0,0.0,13.1447,0.0,0.0,15.39359,-6.67269,-1.49741,18.19561,9.05816,-7.85894,-31.77872,-3.45943,-0.00021,-101.55109,6.61212,-0.00832,-8.27419,19.27101,-0.70687,107.60918,-20.99953,-5.19936,4.0223,37.87733,-29.94091,36.91243,-35.63571,20.61344,57.23759,-0.01428,-102.4945,29.87181,0.00646,105.36647,-9.54285,-2.07138,-0.00717,-21.49983,-1.04009,-0.00307,-3.1238,-0.59808,-3.25652,-25.38841,0.6817,-3.24007,-16.92639,17.28726,1.29444
2549,14.89664,-0.0,-0.0,14.88567,0.0,0.0,14.91467,-6.59052,-2.95512,17.56492,8.24209,-8.00481,-32.05901,-3.53722,0.0001,-99.36475,5.70601,-0.027,-9.11197,19.83792,0.57225,109.91905,-20.38182,-5.45282,2.77421,38.86727,-29.02796,35.67892,-36.4766,18.61618,58.86099,-0.04224,-101.20461,29.15455,-0.01097,108.07014,-8.58494,-3.29289,-0.01394,-21.814,-0.52583,-0.00655,-3.06535,-0.33075,-4.10857,-25.31147,1.25181,-3.92747,-16.57115,16.77441,1.9716
2550,15.65257,0.0,0.0,16.53243,0.0,0.0,14.58031,-6.48493,-3.99079,16.67914,8.29006,-7.72766,-32.29103,-3.68216,0.00033,-96.95172,4.54155,-0.03172,-10.01972,20.28487,1.51458,111.81136,-19.81805,-5.91985,0.97532,39.89695,-27.54644,33.76839,-37.45639,16.53888,60.93283,-0.03161,-99.92445,28.91291,-0.01352,109.72443,-7.41713,-4.23494,-0.00499,-21.8547,-0.14236,-0.01551,-3.19164,0.00705,-5.11053,-25.41262,1.94362,-4.72742,-16.17509,16.21444,2.59314
2551,15.88306,0.0,-0.0,17.86199,0.0,0.0,14.49072,-6.46304,-4.50906,15.56855,9.62992,-6.67651,-32.43911,-3.86882,8e-05,-94.27005,3.74669,-0.01957,-11.04482,20.5821,1.91579,113.1861,-19.59446,-5.92825,-1.42586,40.92353,-25.55193,31.23313,-38.57314,14.80739,63.27933,0.01989,-99.69595,28.96466,-0.00645,109.84432,-6.58009,-4.35059,0.00541,-22.28959,-0.22296,-0.00924,-3.7136,0.36021,-6.02876,-25.90898,2.61765,-5.44461,-15.78603,15.70009,2.9114
2552,15.77997,-0.0,0.0,18.70426,0.0,0.0,14.56548,-6.58869,-4.65774,14.23328,12.53678,-5.06725,-32.46015,-4.01275,-0.00042,-91.25997,3.70521,0.00017,-12.24721,20.72354,1.84532,114.01324,-19.85767,-5.10078,-4.29572,41.95872,-23.26855,28.16746,-39.75708,13.63501,65.6883,0.05831,-100.72169,29.06418,-0.00177,108.47305,-6.59001,-3.73354,0.00051,-23.61368,-1.24747,0.03217,-4.55499,0.70591,-6.58302,-26.73626,3.14705,-5.82774,-15.46665,15.23101,2.77578
2553,15.60726,0.0,-0.0,20.03065,0.0,-0.0,14.6456,-6.91157,-4.75287,12.56583,17.15338,-3.91573,-32.35367,-4.01292,-0.00065,-87.74636,4.38586,0.01664,-13.63439,20.77176,1.58262,114.26451,-20.52394,-3.55444,-7.3583,43.02254,-20.9903,24.55799,-40.90211,12.67926,68.06007,0.03775,-101.9818,29.10747,-0.00018,106.47676,-7.35035,-2.86998,-0.00622,-25.68746,-3.28047,0.06935,-5.42734,0.99373,-6.79783,-27.60656,3.49466,-5.91812,-15.24643,14.77393,2.27754
2554,15.24437,0.0,-0.0,22.73988,0.0,0.0,14.66397,-7.46986,-5.10293,10.66957,22.91762,-4.27328,-32.17746,-3.77849,-0.0007,-83.42864,5.44301,0.028,-15.09585,20.79203,1.44585,113.84552,-21.32875,-1.78281,-10.38221,44.0871,-18.91196,20.26254,-41.92297,11.32181,70.42664,-0.01651,-102.21859,29.20658,0.00191,104.91325,-8.30682,-2.07961,-0.00515,-27.78462,-5.44797,0.0461,-6.17145,1.1792,-7.03283,-28.34577,3.75511,-6.06598,-15.06407,14.31117,1.69421
2555,14.49451,0.0,0.0,25.19066,0.0,0.0,14.59055,-8.155,-5.79554,9.15886,27.75367,-6.29203,-31.96855,-3.30514,-0.00062,-78.05294,6.53739,0.04287,-16.49943,20.78516,1.51308,112.59811,-22.08316,-0.29547,-13.42191,45.08382,-16.93707,15.22578,-42.76244,9.28722,72.88799,-0.04471,-101.30855,29.49473,-0.0003,104.34646,-9.04941,-1.4423,-0.00129,-29.266,-6.4707,-0.00821,-6.90137,1.30201,-7.59663,-29.05532,4.08149,-6.54278,-14.82092,13.83782,1.18065
2556,13.7272,-0.0,0.0,24.44887,0.0,0.0,14.29713,-8.73632,-6.6834,8.52499,28.786,-9.03774,-31.68314,-2.69048,0.00014,-71.60122,7.49248,0.04596,-17.84553,20.7879,1.57566,110.36993,-22.84937,0.56367,-16.78621,45.9648,-14.69903,9.66732,-43.34571,6.74493,75.50517,-0.02918,-100.16051,29.95472,-0.00685,104.85674,-9.47306,-1.00944,0.00176,-30.14703,-5.7783,-0.03968,-7.79473,1.45877,-8.42209,-29.91541,4.53766,-7.2501,-14.52048,13.39552,0.58757
2557,13.56462,0.0,-0.0,20.87325,-0.0,0.0,13.65403,-9.13715,-7.57033,8.53557,24.9974,-11.2131,-31.26668,-2.02555,0.00147,-64.47127,8.05667,-0.0005,-19.18683,20.96372,1.40897,107.19781,-23.78747,0.4844,-20.6799,46.70832,-11.89211,3.96713,-43.58067,3.88428,78.19505,-0.00214,-99.50706,30.46846,-0.00736,105.99069,-9.58133,-0.74818,0.00353,-30.6323,-3.9762,-0.03604,-8.87303,1.71031,-9.20866,-30.96222,5.06659,-7.88615,-14.24807,13.09315,-0.34369
2558,14.12197,-0.0,0.0,18.90608,-0.0,0.0,12.69735,-9.48831,-8.37833,8.99777,18.70427,-12.42572,-30.74798,-1.35598,0.00218,-57.58737,7.96922,-0.06118,-20.47024,21.51605,0.99849,103.43305,-24.92273,-0.70908,-24.99347,47.25288,-8.52038,-1.59254,-43.458,0.8221,80.76042,0.01195,-99.44678,30.94085,0.00127,106.71013,-9.50188,-0.42786,0.00343,-30.3689,-2.18733,-0.0094,-10.00763,2.05891,-9.77788,-32.07854,5.60348,-8.28403,-14.03274,13.05088,-1.67338
2559,15.31303,0.0,-0.0,21.67186,0.0,0.0,11.51639,-9.82812,-9.17895,10.01746,13.31904,-13.31689,-30.19876,-0.76827,0.00143,-52.06048,7.51393,-0.05606,-21.65413,22.52321,0.55893,99.56445,-26.15259,-2.67818,-29.52337,47.47929,-4.75607,-6.9093,-43.11119,-2.1381,83.05619,0.01593,-99.89319,31.29604,0.00684,106.23705,-9.54858,0.12983,-0.00053,-28.88286,-0.93556,0.01427,-11.06501,2.48565,-10.16823,-33.1307,6.1455,-8.48622,-13.85966,13.31046,-3.19226
2560,17.39715,0.0,-0.0,26.83326,0.0,-0.0,10.09331,-10.00895,-10.06704,11.23775,10.03153,-14.56345,-29.63948,-0.39613,-0.00036,-48.47291,7.47518,-0.00659,-22.89325,23.79881,0.439,95.9782,-27.30825,-4.61848,-34.24155,47.30664,-0.71478,-11.94626,-42.68447,-4.61773,85.0619,0.01085,-100.67329,31.40715,0.00057,104.748,-10.03877,0.84365,-0.0061,-26.6157,0.06511,0.02367,-12.03986,2.95054,-10.47936,-34.10756,6.69309,-8.6003,-13.78353,13.71991,-4.5737
2561,20.18914,-0.0,0.0,29.5231,0.0,-0.0,8.50393,-9.96169,-10.99275,11.80024,7.84044,-16.12497,-29.07299,-0.30813,-0.00205,-46.57449,8.24241,0.01599,-24.37138,24.92161,0.89507,92.97098,-28.13142,-5.88346,-39.17409,46.7895,3.48979,-16.6562,-42.1775,-6.5169,86.77,0.00204,-101.52519,31.2258,-0.00726,102.9744,-11.07051,1.45025,-0.00351,-24.79019,1.28909,0.01534,-13.02877,3.36529,-10.73662,-35.10064,7.17397,-8.68312,-13.8997,13.93876,-5.57293
2562,22.4013,-0.0,0.0,27.78212,0.0,0.0,7.11718,-9.80912,-11.78694,11.31248,6.07338,-17.36922,-28.60656,-0.44322,-0.00223,-45.67253,9.31362,0.00532,-25.96206,25.54904,1.78584,90.74892,-28.44598,-6.45688,-44.02181,46.08392,7.52059,-21.04605,-41.51121,-8.01452,88.05724,-0.00205,-102.36118,30.97441,-0.00553,101.60112,-12.46282,1.64568,0.00862,-24.2213,2.99474,-0.00658,-14.04706,3.61413,-10.83355,-36.12532,7.44092,-8.67923,-14.22951,13.72004,-6.20864
2563,22.87203,0.0,0.0,23.49571,-0.0,0.0,6.29659,-9.69554,-12.35945,10.38052,5.06386,-17.84686,-28.4294,-0.67238,-0.00089,-45.11691,9.97622,-0.00721,-27.2926,25.71186,2.62289,89.23515,-28.39038,-6.66064,-48.12215,45.37631,10.80651,-25.20702,-40.66894,-9.34953,88.68923,0.00038,-102.78968,30.96186,-0.00142,100.92975,-13.91656,1.46181,0.01227,-24.81413,5.08092,-0.02426,-14.96608,3.6301,-10.58724,-37.05916,7.3633,-8.44348,-14.71614,13.16041,-6.74057
2564,21.98571,0.0,0.0,19.52472,0.0,0.0,5.99187,-9.69118,-12.76965,9.69826,4.59971,-17.76931,-28.59956,-0.9262,0.00042,-44.40998,10.24056,0.00051,-28.17674,25.70146,3.05489,88.07606,-28.27138,-6.51262,-50.95311,44.84901,12.87978,-29.2015,-39.68446,-10.75065,88.46457,0.01722,-102.07915,31.21753,-0.0029,100.76109,-15.30039,1.38849,0.0009,-26.08086,7.16889,-0.02639,-15.69852,3.44848,-9.94114,-37.81816,6.95234,-7.91021,-15.26843,12.55924,-7.3772
2565,21.13889,-0.0,-0.0,17.16026,0.0,0.0,5.8506,-9.83257,-13.13995,9.12311,3.5609,-17.66185,-28.95507,-1.23286,0.0009,-43.15856,10.62676,0.02877,-28.72462,25.75889,3.11534,86.92712,-28.24803,-5.83891,-52.48173,44.593,13.67106,-32.93794,-38.60349,-12.39548,87.37249,0.028,-100.51419,31.47754,-0.00847,100.8055,-16.59121,1.66807,-0.00654,-27.46507,9.0882,-0.01472,-16.32241,3.17738,-9.07549,-38.47361,6.3756,-7.20709,-15.76819,12.12361,-8.12781
2566,21.09584,-0.0,-0.0,15.59365,-0.0,-0.0,5.68428,-10.09753,-13.61168,8.07877,1.61125,-17.65152,-29.31301,-1.59569,0.00061,-41.1434,11.1161,0.044,-29.01795,25.96194,3.00169,85.64356,-28.27239,-5.01379,-52.91743,44.55963,13.42239,-36.17528,-37.53139,-14.27363,85.61395,0.00655,-99.38518,31.43544,-0.00968,101.23194,-17.48708,1.86779,-0.0023,-28.31372,11.07495,0.00817,-16.93297,2.93248,-8.23766,-39.11251,5.83314,-6.52079,-16.13323,11.89797,-8.95187
2567,21.36139,-0.0,0.0,13.22713,-0.0,0.0,5.6401,-10.37462,-14.27888,6.39259,0.04545,-17.47366,-29.62809,-1.91407,5e-05,-38.38393,10.95982,0.01391,-28.99485,26.26432,2.83952,84.19993,-28.17798,-4.84935,-52.43005,44.65672,12.41926,-38.67248,-36.60085,-16.18933,83.48298,-0.02002,-99.28062,30.90359,0.0041,102.47536,-17.46325,1.50932,-0.00409,-28.27287,13.26707,0.02816,-17.48475,2.78987,-7.51927,-39.68863,5.43009,-5.90735,-16.41502,11.85266,-9.8396
2568,21.22556,-0.0,-0.0,9.72342,0.0,0.0,5.90332,-10.5127,-15.06605,4.24516,0.26,-17.1181,-29.8801,-2.10363,-0.00031,-35.04582,9.64242,-0.03671,-28.69798,26.52335,2.64291,82.58366,-27.79263,-5.52187,-51.20202,44.84253,10.85606,-40.34018,-35.85838,-17.95946,81.25103,-0.0248,-99.69992,29.85688,0.02706,104.5716,-16.31955,0.68576,-0.01307,-27.65776,15.37656,0.02478,-17.87049,2.74915,-6.84632,-40.09798,5.13825,-5.29789,-16.7766,11.90735,-10.76267
2569,20.78087,0.0,0.0,6.41435,-0.0,0.0,6.41784,-10.43849,-15.76907,1.57705,2.20112,-17.11003,-29.94769,-2.20747,-0.00031,-31.29922,7.48938,-0.06052,-28.36091,26.52427,2.33544,80.8382,-27.13863,-6.21407,-49.44822,45.11052,8.82234,-41.26553,-35.27062,-19.55276,79.10999,-0.01602,-100.03696,28.40938,0.03622,106.92343,-14.53074,-0.17507,-0.01221,-27.01139,16.96784,0.00638,-18.07457,2.73479,-6.14461,-40.32476,4.85968,-4.6521,-17.35182,11.90081,-11.7063
2570,20.21284,0.0,0.0,4.26473,0.0,-0.0,7.02608,-10.30791,-16.1987,-1.86328,4.84984,-17.87459,-29.70365,-2.31333,-0.00014,-27.30038,5.23083,-0.04769,-28.18435,26.0702,1.81588,79.07679,-26.50741,-6.11405,-47.28493,45.42385,6.32917,-41.65216,-34.81108,-21.05213,77.12677,-0.00125,-99.94318,26.72345,0.0177,108.59666,-12.99048,-0.72255,-0.00324,-26.55724,17.62458,-0.00741,-18.18771,2.64703,-5.45652,-40.45505,4.51811,-4.04721,-18.12626,11.65744,-12.69448
2571,19.02953,0.0,0.0,2.45702,0.0,0.0,7.72239,-10.36383,-16.24206,-5.96373,7.53945,-18.93202,-29.15532,-2.44563,0.00029,-23.29272,3.40425,-0.0171,-28.15453,25.12745,1.10795,77.43068,-26.22277,-5.41365,-44.7583,45.68482,3.43546,-41.70547,-34.49467,-22.4669,75.23726,0.01635,-99.18147,24.94189,-0.0142,108.8919,-12.25802,-0.64576,-0.00047,-26.30634,16.98757,-0.00912,-18.3162,2.4048,-4.84365,-40.59215,4.06189,-3.57108,-18.92895,11.14602,-13.7063
2572,16.97814,-0.0,-0.0,-0.21419,0.0,0.0,8.59535,-10.54947,-15.9081,-10.03801,10.15981,-19.16198,-28.39994,-2.59793,0.00057,-19.67847,2.24574,0.01201,-28.12072,23.89474,0.42378,76.008,-26.38538,-5.04337,-41.94652,45.83718,0.31599,-41.49609,-34.36192,-23.5877,73.3196,0.02203,-97.89598,23.19829,-0.03249,107.86321,-12.08395,0.26639,-0.00155,-26.30824,15.17302,4e-05,-18.47094,2.00491,-4.26853,-40.7498,3.47399,-3.19005,-19.57594,10.5359,-14.63507
2573,14.77846,0.0,0.0,-3.6086,-0.0,-0.0,9.62302,-10.56049,-15.35117,-13.27264,12.54253,-18.01076,-27.50168,-2.79411,-0.00014,-16.90228,1.76603,0.02472,-27.96996,22.70193,0.04137,74.85841,-26.86687,-5.62222,-38.8824,45.9985,-2.89957,-40.95342,-34.42682,-24.14356,71.31163,0.00817,-96.72427,21.60059,-0.03081,106.17554,-11.74466,1.70817,0.00375,-26.60215,12.97233,0.00852,-18.53118,1.58725,-3.72288,-40.81216,2.88074,-2.8432,-20.01264,10.05928,-15.37662
2574,13.32191,0.0,-0.0,-6.7936,-0.0,-0.0,10.66415,-10.27792,-14.73698,-15.32302,14.31505,-16.00515,-26.5058,-3.06861,-0.00161,-15.21205,1.72966,0.01971,-27.65783,21.79736,0.12634,73.99441,-27.42208,-6.96715,-35.49742,46.34174,-6.2355,-40.01052,-34.63327,-24.11741,69.27729,-0.00415,-96.11327,20.16586,-0.01693,104.61054,-10.85275,2.86439,0.00268,-27.10332,11.32409,0.0065,-18.36974,1.34484,-3.34788,-40.65314,2.51429,-2.58794,-20.26475,9.81504,-15.92531
2575,12.81717,0.0,-0.0,-9.61238,-0.0,-0.0,11.61564,-9.86341,-14.03649,-16.35399,15.19527,-13.97785,-25.54118,-3.42853,-0.0023,-14.5985,1.77937,0.01209,-27.14927,21.19313,0.59086,73.41184,-27.79517,-8.4374,-31.76323,46.83113,-9.70777,-38.71842,-34.87958,-23.83668,67.34146,0.0005,-95.8755,18.85938,0.00659,103.99408,-9.91571,3.1353,-0.00424,-27.571,10.74489,0.00058,-17.9815,1.32251,-3.26734,-40.2659,2.4631,-2.52185,-20.3579,9.71844,-16.34471
2576,12.82765,0.0,-0.0,-12.6944,0.0,-0.0,12.50574,-9.50438,-13.10277,-16.63841,15.14644,-12.3073,-24.81094,-3.82167,-0.00109,-14.96435,1.78614,0.00774,-26.40349,20.72102,1.16535,73.07726,-27.84655,-9.3973,-27.85665,47.21525,-13.1133,-37.20785,-35.11206,-23.66161,65.58981,0.0022,-95.86369,17.69248,0.02378,104.81381,-9.77957,2.65003,0.00019,-27.71562,11.09872,0.00166,-17.42879,1.3897,-3.42051,-39.71169,2.58333,-2.63817,-20.33399,9.6356,-16.66897
2577,12.73623,0.0,0.0,-16.04765,0.0,0.0,13.42489,-9.2599,-11.98846,-16.36762,14.31129,-10.98581,-24.44878,-4.1215,0.00067,-16.25392,1.98064,-0.00589,-25.38745,20.21867,1.70745,72.97169,-27.61929,-9.48749,-24.14908,47.29032,-16.0487,-35.55457,-35.39426,-23.59276,64.07893,-0.01174,-96.48946,16.69841,0.01541,106.3829,-10.42092,1.90934,0.00375,-27.48855,11.61911,0.00489,-16.74334,1.40788,-3.63602,-39.02266,2.68185,-2.83084,-20.22651,9.51134,-16.87597
2578,12.22765,0.0,0.0,-18.60962,-0.0,-0.0,14.38383,-9.09587,-10.94033,-15.78007,12.95675,-9.95807,-24.41392,-4.20635,0.00105,-18.43772,2.59231,-0.02826,-24.11223,19.60429,2.29763,73.14407,-27.20084,-8.81329,-20.99315,47.06743,-18.15211,-33.72733,-35.82134,-23.41282,62.88613,-0.01971,-97.90988,15.88293,-0.00465,107.4671,-10.86716,1.26233,-0.00218,-27.14516,11.57718,0.00473,-15.96702,1.3439,-3.75837,-38.24284,2.66901,-2.96843,-20.02328,9.34278,-16.89314
2579,11.42457,0.0,-0.0,-19.48628,0.0,0.0,15.27332,-8.98676,-10.06704,-15.16568,11.47624,-9.06543,-24.54437,-4.05081,0.00059,-21.46157,3.41011,-0.02773,-22.64736,18.81791,3.01156,73.67037,-26.50109,-7.93975,-18.50664,46.69449,-19.31536,-31.70143,-36.38371,-23.12915,62.06246,-0.00857,-99.20033,15.27619,-0.01261,107.80786,-10.38867,0.94893,-0.00292,-26.83618,11.08588,0.00428,-15.21399,1.25267,-3.70011,-37.48938,2.56251,-2.9491,-19.70109,9.09467,-16.57167
2580,10.62576,0.0,0.0,-19.02319,0.0,0.0,15.94197,-9.00168,-9.26513,-14.61838,10.34375,-7.88424,-24.70109,-3.70144,0.00033,-25.21021,3.89408,0.01471,-21.03692,17.82542,3.77927,74.56139,-25.30275,-7.45936,-16.54891,46.30782,-19.73086,-29.56573,-36.9944,-22.90282,61.53833,0.00664,-99.07728,14.93264,-0.0095,107.88091,-9.30209,1.23033,0.00392,-26.45154,10.77744,0.00554,-14.60212,1.23128,-3.49034,-36.88112,2.46321,-2.76296,-19.22625,8.70644,-15.76082
2581,10.06905,0.0,-0.0,-18.33455,0.0,0.0,16.28491,-9.24096,-8.45729,-13.89021,10.02488,-6.15618,-24.86777,-3.22468,-0.00013,-29.50334,3.82232,0.05793,-19.24692,16.70397,4.45402,75.70012,-23.60698,-7.45383,-14.88354,45.96008,-19.76935,-27.44618,-37.59938,-22.71443,61.15471,0.01229,-97.34057,14.84128,-0.00573,107.8671,-8.55928,2.04914,0.00127,-26.0741,10.90089,0.00791,-14.16954,1.37745,-3.26582,-36.45487,2.51336,-2.49958,-18.54056,8.17237,-14.49577
2582,10.00343,-0.0,0.0,-18.1417,0.0,0.0,16.2806,-9.61015,-7.71701,-12.59098,10.70731,-4.34636,-25.14122,-2.72104,-0.00099,-34.16681,3.67516,0.04412,-17.28178,15.63975,4.9133,76.81915,-21.81149,-7.58033,-13.37039,45.62789,-19.72654,-25.36212,-38.20385,-22.43709,60.82553,0.00654,-95.23968,14.95091,-0.00259,107.61851,-8.80831,2.78692,-0.0022,-26.10323,11.11551,0.00957,-13.89676,1.71901,-3.13553,-36.19013,2.78,-2.24926,-17.66646,7.58399,-13.04645
2583,10.79357,0.0,0.0,-18.19149,0.0,0.0,15.95621,-9.79762,-7.13264,-10.59322,11.92107,-3.22956,-25.61069,-2.33385,-0.00084,-39.09503,4.14849,-0.01628,-15.30254,14.81229,5.08901,77.58623,-20.42529,-7.65811,-12.04031,45.26662,-19.64783,-23.20565,-38.83791,-22.0986,60.62798,-0.00028,-94.33274,15.27383,0.00263,106.92436,-9.87471,2.7839,0.00787,-26.62616,10.9559,0.01051,-13.73109,2.16049,-3.08809,-36.03383,3.17047,-2.0376,-16.79935,7.08177,-11.72021
2584,12.45831,-0.0,0.0,-17.41087,0.0,0.0,15.38089,-9.62885,-6.6615,-8.35391,12.72348,-2.91546,-26.21379,-2.16536,0.00053,-44.20409,5.36454,-0.05804,-13.53181,14.27672,4.96807,77.82056,-19.65821,-7.86208,-11.04363,44.8599,-19.389,-20.83927,-39.53045,-21.8628,60.69761,0.00274,-95.07493,15.84414,0.00548,105.84181,-11.04766,2.07616,0.01275,-27.10949,10.36521,0.00643,-13.55852,2.54493,-3.0759,-35.86996,3.52152,-1.88014,-16.16235,6.74553,-10.6685
2585,14.18658,0.0,0.0,-14.97669,0.0,-0.0,14.72397,-9.30364,-6.17365,-6.61973,12.56489,-2.82216,-26.73095,-2.17115,0.00099,-49.37085,6.83666,-0.05416,-12.05239,13.9214,4.6076,77.6171,-19.37508,-8.32316,-10.513,44.41967,-18.83008,-18.20254,-40.32173,-21.69345,61.03747,0.00673,-96.6133,16.58916,-0.0008,104.85435,-11.82332,1.37718,0.00496,-27.03303,9.73248,0.00272,-13.25871,2.78734,-3.10864,-35.5756,3.7582,-1.81823,-15.77183,6.52451,-9.90918
2586,14.90602,0.0,0.0,-11.51443,-0.0,0.0,14.22427,-9.1449,-5.56,-5.60287,11.72957,-2.59569,-26.94896,-2.20411,0.00033,-54.46165,8.06081,-0.03196,-10.77537,13.56654,4.14057,77.20399,-19.31508,-8.89974,-10.44528,43.97614,-18.03454,-15.31744,-41.26898,-21.18563,61.45918,0.00299,-97.82018,17.34372,-0.00824,104.22607,-12.26266,1.34964,-0.00308,-26.49578,9.38249,0.00671,-12.85006,2.9164,-3.18756,-35.16927,3.90753,-1.84219,-15.43679,6.30753,-9.41058
2587,14.23429,0.0,0.0,-8.47808,0.0,-0.0,14.02889,-9.20506,-4.7973,-4.88837,10.81663,-2.43638,-26.82005,-2.15637,0.00012,-59.39507,8.76308,-0.00897,-9.57208,13.12603,3.78216,76.72408,-19.21097,-9.51428,-10.75328,43.57447,-17.16765,-12.19879,-42.37939,-19.94939,61.73572,-0.0011,-98.27615,17.9955,-0.00465,103.42309,-12.64332,2.09578,-0.00632,-25.92139,9.1573,0.01028,-12.4937,2.99539,-3.21708,-34.81462,3.99179,-1.83946,-14.95094,6.04011,-9.08381
2588,12.73012,0.0,-0.0,-6.63216,0.0,0.0,14.04281,-9.23515,-3.95604,-4.12401,10.13495,-2.58965,-26.4597,-2.00586,0.00053,-64.14547,8.75491,0.01876,-8.33519,12.60853,3.73259,76.23061,-18.84978,-10.35831,-11.38371,43.23733,-16.31,-8.8342,-43.5521,-18.08008,61.79259,-0.00098,-98.29217,18.57354,0.0072,101.74506,-13.03368,3.23371,-0.00313,-25.36762,8.54657,0.00105,-12.31624,3.0481,-3.07561,-34.64022,3.98689,-1.68839,-14.20282,5.70763,-8.80353
2589,11.43266,0.0,-0.0,-5.92167,0.0,0.0,13.98886,-9.01413,-3.09698,-3.29132,9.65996,-3.01881,-26.02677,-1.79876,0.00056,-68.68624,7.97261,0.04367,-6.96319,12.02237,3.95581,75.76805,-18.17266,-11.57269,-12.2835,42.94485,-15.47916,-5.25515,-44.64019,-16.07275,61.7209,9e-05,-98.44699,19.17325,0.01336,99.45045,-13.31513,4.09459,0.00379,-24.49954,7.18312,-0.0219,-12.3082,3.05877,-2.73361,-34.63593,3.86703,-1.36767,-13.17648,5.27117,-8.48669
2590,10.83419,0.0,0.0,-6.00865,0.0,-0.0,13.73488,-8.59119,-2.21436,-2.45536,9.21443,-3.49195,-25.63601,-1.62146,-8e-05,-72.96304,6.64545,0.04715,-5.39357,11.39488,4.2108,75.3126,-17.29005,-13.0093,-13.30177,42.68008,-14.76054,-1.54172,-45.57206,-14.28707,61.61454,-0.00041,-99.17798,19.79283,0.00569,97.72306,-13.36227,3.9863,0.00443,-23.27647,5.26257,-0.03193,-12.38133,3.01185,-2.24739,-34.71161,3.63916,-0.93544,-11.93794,4.71096,-8.09942
2591,10.49379,0.0,-0.0,-6.4005,-0.0,-0.0,13.43735,-8.17483,-1.30365,-1.63121,8.6316,-3.71904,-25.33283,-1.52897,-0.00069,-76.9503,5.27258,0.02211,-3.62839,10.79756,4.33092,74.74587,-16.41184,-14.33814,-14.23461,42.44465,-14.26766,2.21389,-46.40503,-12.63039,61.44468,-0.0019,-100.36216,20.31216,-0.00387,97.42514,-13.08248,2.69998,-0.00566,-22.21937,3.45145,-0.01356,-12.43104,2.92309,-1.71124,-34.76175,3.35362,-0.47302,-10.57486,4.07978,-7.6246
2592,10.13264,0.0,0.0,-6.5848,0.0,0.0,13.20978,-7.92128,-0.4017,-0.86314,7.9868,-3.49035,-25.08552,-1.48762,-0.0006,-80.70059,4.33528,-0.01335,-1.7178,10.25236,4.32366,73.96624,-15.76678,-15.24515,-14.9662,42.2035,-14.03539,5.93865,-47.27573,-10.79704,61.0945,-0.00068,-101.34912,20.66357,-0.00359,98.24062,-12.49023,0.72375,-0.01443,-21.78806,2.25799,0.00597,-12.36981,2.82871,-1.25035,-34.69935,3.09143,-0.08247,-9.13491,3.45733,-7.09292
2593,10.24192,0.0,-0.0,-6.14427,-0.0,-0.0,12.89957,-7.87959,0.39194,-0.27127,7.57286,-2.83632,-24.8085,-1.40112,0.00027,-84.28889,3.92496,-0.02963,0.20192,9.67861,4.31581,72.92592,-15.48969,-15.63608,-15.52913,41.88437,-14.04742,9.67813,-48.28072,-8.61441,60.45591,0.00419,-101.66441,20.93913,0.00103,99.2479,-11.80537,-1.19661,-0.01008,-21.84173,1.6296,0.00869,-12.19093,2.73563,-0.9561,-34.51856,2.89366,0.15435,-7.67867,2.87168,-6.60843
2594,11.07134,0.0,-0.0,-4.81448,0.0,0.0,12.37193,-8.00549,0.96257,0.0336,7.54504,-2.04992,-24.42498,-1.2297,0.00112,-87.71329,3.71681,-0.01685,1.91388,9.01095,4.45397,71.57932,-15.51907,-15.69215,-16.05199,41.46606,-14.28896,13.60436,-49.3741,-6.07101,59.50473,0.00517,-101.48241,21.3068,0.00106,100.07913,-11.34709,-2.61209,0.00056,-21.92578,1.23926,0.00314,-11.99373,2.61361,-0.79305,-34.31886,2.71892,0.25879,-6.32021,2.2948,-6.27562
2595,11.7553,0.0,0.0,-2.70913,0.0,0.0,11.82383,-8.21213,1.32805,0.04094,7.75082,-1.47363,-23.94058,-1.06795,0.0007,-90.87793,3.3452,0.00681,3.31234,8.32158,4.74359,69.92137,-15.64502,-15.68367,-16.66428,40.99899,-14.69388,17.82979,-50.39002,-3.26963,58.33961,-0.00142,-101.33677,21.83676,-0.00429,101.1188,-11.29036,-3.50761,0.00586,-21.83421,0.85521,-0.00106,-11.88131,2.45745,-0.64427,-34.20343,2.51801,0.33705,-5.11414,1.71067,-6.1099
2596,11.20479,0.0,0.0,-0.47889,0.0,0.0,11.60889,-8.43015,1.65106,-0.16966,7.86839,-1.19539,-23.46894,-1.06717,-0.00066,-93.66474,2.76571,0.01633,4.53946,7.76012,5.02712,68.03964,-15.68945,-15.71952,-17.40871,40.52271,-15.11629,22.30706,-51.18963,-0.43641,57.12691,-0.00298,-101.42838,22.39858,-0.00624,102.69565,-11.52378,-4.08276,0.00404,-21.69288,0.35872,-0.00139,-11.83447,2.31371,-0.43906,-34.15374,2.30717,0.47225,-3.98199,1.1433,-6.02834
2597,9.79088,-0.0,0.0,1.03784,0.0,-0.0,11.77037,-8.55806,2.07631,-0.47374,7.5974,-0.98436,-23.16501,-1.31933,-0.00098,-96.00618,2.28054,0.00635,5.83299,7.39484,5.15444,66.02175,-15.63283,-15.64791,-18.22216,40.02778,-15.44241,26.9395,-51.78266,2.29358,55.97575,0.00661,-101.40869,22.80908,-0.00116,104.47797,-11.77116,-4.5404,-0.00023,-21.63736,-0.2174,-0.00012,-11.74529,2.23095,-0.17779,-34.06234,2.13147,0.68248,-2.83195,0.60263,-5.91049
2598,9.06061,0.0,-0.0,1.57859,0.0,0.0,11.97367,-8.46973,2.62205,-0.77103,6.87916,-0.6188,-23.11569,-1.79674,0.00018,-97.91694,2.17008,-0.00603,7.25645,7.13343,5.13899,63.82056,-15.59245,-15.25267,-19.01375,39.48634,-15.71688,31.68034,-52.28389,5.096,54.85979,0.00955,-101.16798,23.05182,0.00328,105.71032,-11.96314,-5.0424,-0.00145,-21.62589,-0.62278,-8e-05,-11.57249,2.21582,0.11487,-33.88776,2.00642,0.94746,-1.71329,0.03445,-5.68899
2599,9.73553,0.0,-0.0,1.58212,0.0,-0.0,11.93135,-8.14892,3.23849,-1.04792,6.00386,-0.26162,-23.2747,-2.36896,0.00089,-99.46552,2.35808,-0.00768,8.63941,6.80782,5.12265,61.29472,-15.68962,-14.52981,-19.72477,38.87186,-16.13504,36.48342,-52.7735,8.18434,53.61737,-0.00585,-101.25117,23.21296,0.00239,105.94036,-12.4091,-5.59624,0.00135,-21.62512,-0.69964,-0.00091,-11.39082,2.2463,0.37265,-33.70466,1.93682,1.19747,-0.78114,-0.64656,-5.38583
2600,11.32421,0.0,-0.0,1.42342,-0.0,0.0,11.64794,-7.67135,3.92703,-1.30904,5.30929,-0.34173,-23.49518,-2.92504,0.00023,-100.68668,2.61219,-0.00386,9.81544,6.3303,5.16419,58.40956,-15.92387,-13.61955,-20.29115,38.18166,-16.89272,41.17017,-53.27254,11.37626,52.05812,-0.02125,-101.93412,23.3482,-0.0027,105.44986,-13.23966,-5.99891,0.00181,-21.75966,-0.69945,-0.00027,-11.27887,2.31242,0.45443,-33.59288,1.96696,1.29823,-0.08079,-1.47329,-5.04857
2601,13.25085,-0.0,0.0,1.07225,0.0,-0.0,11.27571,-7.09768,4.69707,-1.45042,4.79686,-1.03616,-23.66834,-3.43712,-0.00054,-101.52068,2.90589,-0.00231,10.84474,5.7378,5.1979,55.31138,-16.19673,-12.57794,-20.6533,37.45432,-17.97184,45.41345,-53.84506,14.21899,50.18821,-0.01301,-102.65966,23.58226,-0.00695,104.88639,-13.71614,-6.18628,-0.00341,-22.14816,-0.97586,0.00266,-11.23774,2.41702,0.23895,-33.55492,2.14548,1.13867,0.55551,-2.38643,-4.68549
2602,15.18954,0.0,0.0,0.67163,0.0,-0.0,10.94174,-6.52586,5.40457,-1.31267,4.23226,-2.06845,-23.85365,-3.86681,-0.0004,-101.83768,3.34671,-0.00098,11.97889,5.12438,5.2629,52.19538,-16.43134,-11.44903,-20.85061,36.72192,-19.08772,48.98709,-54.58823,16.52559,48.27777,0.00908,-102.78522,24.14017,-0.00253,104.44202,-12.80503,-6.43198,-0.01518,-22.8489,-1.44973,0.0032,-11.24505,2.52451,-0.21095,-33.56668,2.41562,0.76339,1.37461,-3.27191,-4.27734
2603,17.11397,-0.0,0.0,0.81419,0.0,-0.0,10.63539,-6.11912,5.8397,-0.84877,3.51544,-3.02457,-24.21102,-4.13706,-0.00021,-101.52014,3.94952,0.00358,13.44225,4.56552,5.51999,49.16408,-16.60923,-10.39713,-21.01978,35.95323,-19.92305,52.01275,-55.47857,18.48871,46.58701,0.01764,-102.34601,25.10193,0.01205,103.6918,-10.56744,-6.93825,-0.02242,-23.92156,-1.70595,-0.00193,-11.32117,2.56564,-0.64937,-33.64515,2.62002,0.37347,2.50807,-4.04829,-3.81464
2604,19.36886,0.0,0.0,1.77183,0.0,-0.0,10.19991,-5.9657,5.98549,-0.17315,2.76485,-3.69656,-24.78879,-4.22672,-0.00067,-100.55412,4.61675,0.00828,15.19516,4.06983,6.01949,46.17389,-16.72363,-9.58569,-21.2911,35.09199,-20.38749,54.86008,-56.36052,20.30254,45.13821,0.00719,-101.93065,26.25909,0.01884,102.48537,-8.18823,-7.56215,-0.01052,-25.22091,-1.55025,-0.00569,-11.49377,2.52909,-0.87123,-33.81749,2.6704,0.15432,3.86385,-4.73552,-3.30104
2605,21.84817,0.0,-0.0,2.92445,0.0,-0.0,9.55811,-5.9851,6.03266,0.5026,2.18491,-4.14894,-25.45079,-4.2072,-0.00086,-99.03827,5.18548,0.00667,16.94747,3.60822,6.65255,43.11492,-16.70952,-9.04416,-21.73695,34.14906,-20.61895,57.83223,-57.13367,22.07147,43.84531,-0.00785,-102.04723,27.32784,0.00693,101.45053,-6.59097,-8.13383,0.00634,-26.34463,-1.11717,-0.00239,-11.72516,2.48933,-0.8916,-34.04821,2.64135,0.12036,5.21456,-5.40844,-2.71534
2606,23.4739,0.0,0.0,3.56703,0.0,0.0,8.94089,-6.0007,6.1741,1.01812,1.96073,-4.56975,-26.01215,-4.18627,-0.00038,-97.06213,5.49666,-0.00304,18.4545,3.21152,7.28847,39.96803,-16.41156,-8.70095,-22.39939,33.19535,-20.74441,61.0004,-57.82164,24.04034,42.71006,-0.01256,-102.68326,28.22558,-0.00885,101.20486,-5.73707,-8.7658,0.01161,-27.09584,-0.49732,0.00041,-11.928,2.52381,-0.84356,-34.2516,2.65502,0.17792,6.43874,-6.06852,-1.99465
2607,23.39026,-0.0,0.0,3.98315,0.0,0.0,8.72949,-5.85412,6.42498,1.37609,2.06425,-5.0696,-26.36773,-4.22707,-5e-05,-94.59507,5.53081,-0.01381,19.6761,2.9767,7.89553,36.7912,-15.70236,-8.48801,-23.29155,32.25412,-20.70346,64.26782,-58.42514,26.45381,41.78759,-0.00363,-103.30746,29.07395,-0.01483,101.56912,-5.13036,-9.73375,0.00375,-27.76818,0.30905,-0.00316,-12.05024,2.6477,-0.76802,-34.37595,2.74095,0.29491,7.59056,-6.61818,-1.10854
2608,22.22515,0.0,0.0,5.04377,0.0,0.0,9.03738,-5.46427,6.67143,1.61258,2.1939,-5.62756,-26.49696,-4.33521,-0.00017,-91.54668,5.47013,-0.0149,20.66332,2.94381,8.49601,33.58385,-14.65309,-8.38199,-24.35243,31.26693,-20.35176,67.49339,-58.88219,29.2186,41.06463,0.00798,-103.38326,30.00418,-0.00987,101.82124,-4.35497,-11.12473,-0.01022,-28.70721,1.09449,-0.00559,-12.11423,2.82687,-0.61146,-34.44284,2.84729,0.50789,8.72799,-6.98286,-0.12874
2609,21.15983,0.0,0.0,6.81202,0.0,0.0,9.63358,-4.91006,6.90035,1.67597,2.14919,-6.23062,-26.45392,-4.51494,-0.00025,-87.90562,5.55495,-0.00359,21.48734,3.0427,9.00377,30.32253,-13.49545,-8.36604,-25.46307,30.17631,-19.64688,70.56224,-59.21217,32.01231,40.44127,0.00976,-103.07812,31.04171,-9e-05,101.36962,-3.25057,-12.5689,-0.01395,-29.76314,1.51471,-0.00114,-12.17243,3.00398,-0.39246,-34.50349,2.92802,0.77783,9.82728,-7.19615,0.8374
2610,20.18212,0.0,-0.0,8.21925,0.0,0.0,10.28069,-4.49775,7.25673,1.59044,2.13607,-7.0477,-26.351,-4.76812,-1e-05,-83.74954,5.88352,0.01335,22.23747,3.18055,9.24997,27.04326,-12.41921,-8.42391,-26.51261,28.99907,-18.72324,73.40179,-59.52212,34.58758,39.76544,1e-05,-103.09779,32.14523,0.00646,100.09699,-2.09072,-13.37559,-0.00207,-30.47404,1.47001,0.00278,-12.24279,3.10683,-0.25166,-34.57506,2.96973,0.9472,10.84364,-7.34298,1.74144
2611,18.53575,-0.0,-0.0,8.34068,-0.0,-0.0,10.87146,-4.50379,7.85373,1.56033,2.39154,-8.38801,-26.24471,-5.04843,0.00012,-79.13942,6.37628,0.0277,22.93382,3.29156,9.20075,23.76042,-11.49728,-8.59639,-27.40936,27.8182,-17.86464,75.9604,-59.84264,36.79991,38.89377,-0.01231,-103.76086,33.30463,0.00836,98.31685,-1.53046,-13.12795,0.00035,-30.70959,1.22356,0.00391,-12.31161,3.09053,-0.30195,-34.64387,2.97373,0.89448,11.72579,-7.48736,2.57447
2612,16.50971,0.0,0.0,7.45807,0.0,-0.0,11.25787,-4.78864,8.62975,1.78892,2.61674,-10.4172,-26.07409,-5.28666,-0.00019,-74.08328,6.84522,0.03007,23.50396,3.32874,9.04709,20.42652,-10.73188,-8.99379,-28.0881,26.72305,-17.32884,78.19078,-60.09562,38.55209,37.82679,-0.0144,-104.66399,34.60333,0.01162,96.44763,-1.98755,-12.15242,-0.01103,-30.84584,1.14294,0.00459,-12.38637,2.9804,-0.48227,-34.71742,2.94028,0.6858,12.42028,-7.65957,3.34413
2613,15.13039,0.0,-0.0,6.47116,0.0,-0.0,11.33042,-5.00199,9.43933,2.33239,2.28852,-12.96458,-25.81434,-5.45687,-0.00048,-68.61723,7.04608,0.01184,23.91544,3.3171,9.02496,17.03969,-10.04018,-9.71568,-28.55247,25.74751,-17.1345,80.079,-60.22735,39.86783,36.74195,-0.00437,-105.14041,36.16161,0.01359,94.76913,-3.09173,-11.25005,-0.00965,-31.36956,1.40847,0.00071,-12.48211,2.82824,-0.59963,-34.8107,2.84406,0.51935,12.91982,-7.84016,4.10095
2614,14.46773,0.0,0.0,5.85457,-0.0,0.0,11.23198,-5.06971,10.20607,3.11652,1.44072,-15.61669,-25.61131,-5.57751,-0.00038,-62.86092,6.79181,-0.01734,24.26768,3.36184,9.19009,13.69938,-9.2649,-10.74554,-28.85611,24.85644,-17.08145,81.6515,-60.26019,40.8838,35.79482,0.00637,-104.8088,38.02466,0.00083,93.53908,-3.94809,-10.96393,-0.00026,-32.47919,2.03748,-0.00923,-12.56339,2.65124,-0.50502,-34.88843,2.64444,0.53955,13.27226,-7.97097,4.88334
2615,13.84096,0.0,-0.0,5.54079,0.0,-0.0,11.15149,-5.10546,10.94564,3.91778,0.63014,-17.96736,-25.64293,-5.67947,-2e-05,-56.97709,6.11887,-0.03314,24.7096,3.54206,9.39905,10.54947,-8.29451,-11.89254,-29.045,23.98714,-16.95984,82.90976,-60.23728,41.69623,34.9765,0.00949,-103.80552,40.17335,-0.0256,92.95477,-3.95296,-11.22063,0.00039,-33.90775,3.02849,-0.01497,-12.57828,2.46353,-0.21925,-34.899,2.36236,0.73253,13.54456,-8.01546,5.65805
2616,13.03046,-0.0,-0.0,5.12617,0.0,0.0,11.06603,-5.09143,11.73993,4.39625,0.3568,-19.82538,-25.9134,-5.80366,0.00039,-51.13781,5.25358,-0.02769,25.29323,3.84198,9.45518,7.70907,-7.1485,-12.87368,-29.16419,23.09503,-16.68536,83.804,-60.23159,42.31797,34.2327,0.00476,-102.60625,42.61641,-0.04154,92.80482,-3.27898,-11.64743,-0.00158,-35.00383,4.26462,-0.00557,-12.55092,2.32348,0.10127,-34.86775,2.11118,0.97578,13.787,-7.98325,6.40791
2617,12.30191,0.0,-0.0,4.21113,0.0,0.0,10.88567,-4.95702,12.67824,4.31392,0.83503,-21.22964,-26.26565,-5.99344,0.00061,-45.51231,4.42603,-0.01107,25.94758,4.17631,9.25524,5.23239,-5.95019,-13.46775,-29.28281,22.18768,-16.30918,84.27953,-60.37148,42.73636,33.59352,-0.00242,-101.57161,45.38188,-0.02307,92.41879,-2.54439,-12.02197,-0.00044,-35.11058,5.32475,0.00551,-12.57031,2.29823,0.30417,-34.88536,2.01084,1.15385,14.02256,-7.92704,7.19461
2618,11.87995,0.0,0.0,3.00355,0.0,-0.0,10.63531,-4.7669,13.69212,3.68557,1.98292,-22.2499,-26.53575,-6.24596,0.00033,-40.21005,3.77056,0.00346,26.57183,4.44136,8.87489,3.08857,-4.84081,-13.64292,-29.45355,21.32987,-15.93204,84.30555,-60.75137,42.91253,33.1109,-0.00558,-100.61236,48.43109,0.02053,91.15546,-2.12314,-12.32321,0.00098,-34.02916,5.6857,-0.00362,-12.68589,2.41225,0.35151,-35.00211,2.09836,1.24097,14.25742,-7.94331,8.03523
2619,11.9462,0.0,-0.0,2.34417,-0.0,0.0,10.35273,-4.62008,14.47626,2.71727,3.36218,-22.85509,-26.64458,-6.47817,-0.00022,-35.2852,3.30285,0.0086,27.10917,4.56533,8.55569,1.20664,-3.8968,-13.63233,-29.64565,20.57518,-15.58212,83.89651,-61.32932,42.80499,32.74923,-0.00268,-99.32849,51.63656,0.05116,88.99025,-1.99135,-12.53041,0.00071,-32.25669,5.2718,-0.01656,-12.861,2.63242,0.33977,-35.18053,2.3065,1.31378,14.4783,-8.12225,8.81729
2620,12.72279,0.0,0.0,3.01845,0.0,0.0,9.96266,-4.49126,14.77532,1.74072,4.40494,-23.13153,-26.59367,-6.61433,-0.0005,-30.8624,2.97006,0.00814,27.56157,4.55286,8.50223,-0.41154,-3.12747,-13.77331,-29.74449,19.90012,-15.2402,83.14402,-61.9384,42.41642,32.39856,0.00384,-97.45821,54.8341,0.05083,86.49839,-2.17187,-12.57832,-0.00087,-30.75261,4.49923,-0.01004,-12.98945,2.85533,0.43904,-35.3116,2.47504,1.49031,14.64676,-8.46964,9.4399
2621,13.94302,0.0,-0.0,5.01834,-0.0,0.0,9.42717,-4.31425,14.71749,1.19719,4.86836,-23.45085,-26.45129,-6.69372,-0.0005,-27.17408,2.70638,0.00604,27.97036,4.49471,8.69173,-1.6713,-2.52539,-14.23106,-29.65984,19.2408,-14.91324,82.19074,-62.38257,41.77585,31.99751,0.00683,-95.21181,57.90605,0.03058,84.34745,-2.80622,-12.4986,-0.00185,-30.21757,3.79867,0.00282,-12.91511,2.94781,0.7659,-35.23517,2.43661,1.82773,14.71684,-8.89496,9.9459
2622,14.81865,-0.0,0.0,7.40773,-0.0,0.0,8.86781,-4.09998,14.69765,1.4362,4.89971,-24.15604,-26.34009,-6.82648,-0.00019,-24.38239,2.42471,0.00272,28.38499,4.52078,8.94971,-2.51229,-2.06545,-14.91371,-29.4388,18.56086,-14.57313,81.11707,-62.55947,40.89611,31.60894,0.0024,-93.14218,60.86371,-0.00283,83.08105,-3.69544,-12.4244,-0.00069,-30.46892,3.46371,0.00528,-12.52436,2.87233,1.26241,-34.83655,2.1785,2.25815,14.67153,-9.27085,10.43544
2623,14.90822,0.0,0.0,9.06196,0.0,0.0,8.40926,-3.8914,15.0114,2.45116,4.72697,-25.17577,-26.37576,-7.06567,0.00056,-22.40799,2.03989,-0.00054,28.84362,4.71592,9.12717,-2.99609,-1.6817,-15.57985,-29.20768,17.85473,-14.16025,79.85192,-62.52683,39.75274,31.31153,-0.00206,-91.53366,63.82074,-0.04051,83.02532,-4.37098,-12.36897,0.00016,-30.68247,3.65121,0.00487,-11.90241,2.72871,1.72944,-34.2051,1.86856,2.63543,14.54158,-9.50069,10.93929
2624,14.24797,-0.0,0.0,9.47727,0.0,-0.0,8.07034,-3.73963,15.68162,3.92077,4.46412,-26.11396,-26.57678,-7.33155,0.00087,-20.99365,1.53468,-0.00239,29.36201,5.06289,9.2044,-3.23349,-1.3081,-16.02455,-29.00512,17.10891,-13.67701,78.27316,-62.42626,38.33769,31.0609,-0.00023,-90.09007,66.84297,-0.05635,83.95468,-4.704,-12.18276,-0.00056,-30.24689,4.22914,0.01009,-11.33871,2.61065,2.0249,-33.63464,1.64734,2.8638,14.37933,-9.54951,11.43497
2625,12.90239,0.0,0.0,8.84275,0.0,-0.0,7.80761,-3.71262,16.54356,5.48818,4.12045,-26.69226,-26.8378,-7.47316,0.0003,-19.89724,1.00155,-0.00206,29.9307,5.46963,9.28384,-3.28075,-0.94518,-16.19961,-28.75646,16.2924,-13.12139,76.37962,-62.3283,36.72319,30.75895,0.00373,-88.51733,69.86401,-0.03329,85.10577,-4.94388,-11.83762,-0.00157,-29.22418,4.83437,0.01201,-11.10215,2.48548,2.20733,-33.39327,1.46239,2.985,14.2151,-9.44136,11.90534
2626,10.99495,0.0,-0.0,7.6505,-0.0,-0.0,7.5491,-3.78383,17.41605,6.96982,3.6876,-26.97807,-27.03966,-7.43316,-6e-05,-18.99514,0.5982,-0.00011,30.534,5.84271,9.43723,-3.15981,-0.65111,-16.21843,-28.39452,15.39265,-12.38652,74.27145,-62.16582,35.01794,30.39524,0.00323,-87.07615,72.76936,0.01439,85.65686,-5.19584,-11.53913,-0.00124,-28.16018,5.0737,0.0055,-11.22877,2.26444,2.46175,-33.51281,1.16146,3.13641,14.03494,-9.24992,12.30147
2627,8.80623,0.0,0.0,6.32873,0.0,0.0,7.22395,-3.78893,18.20492,8.38205,3.22596,-27.22082,-27.18849,-7.30994,0.0003,-18.2583,0.4303,0.0016,31.16726,6.1258,9.56661,-2.9399,-0.46445,-16.26886,-27.91637,14.4575,-11.41157,72.0015,-61.82395,33.28767,30.02452,-0.00057,-86.19539,75.52225,0.03952,85.40261,-5.24303,-11.45888,-0.00014,-27.58136,4.8488,0.00012,-11.54795,1.91727,2.91308,-33.82009,0.66922,3.4222,13.7929,-9.06479,12.50363
2628,6.76262,0.0,0.0,5.1471,0.0,-0.0,6.78041,-3.59324,18.86494,9.78782,2.83573,-27.60131,-27.39415,-7.22182,0.00078,-17.68206,0.48509,0.00194,31.80806,6.31289,9.51948,-2.74682,-0.35463,-16.44818,-27.34013,13.58988,-10.37519,69.53048,-61.28603,31.53403,29.675,-0.0028,-85.89297,78.17233,0.01693,85.02318,-4.9056,-11.51021,0.00152,-27.51402,4.56931,-0.00105,-11.86638,1.49316,3.53767,-34.12251,0.04019,3.8393,13.43559,-8.91955,12.42745
2629,5.32032,0.0,-0.0,4.2658,0.0,0.0,6.19782,-3.25834,19.28451,11.14014,2.5418,-28.06357,-27.74493,-7.15221,0.00032,-17.23617,0.6635,0.00126,32.40417,6.45492,9.34046,-2.68743,-0.25049,-16.68544,-26.67249,12.86529,-9.53993,66.82433,-60.65709,29.74419,29.34477,-0.00189,-85.8109,80.75479,-0.01603,85.13506,-4.42155,-11.41381,0.00289,-27.51993,4.63973,-0.00064,-12.09355,1.09639,4.23326,-34.33159,-0.59033,4.33273,12.92781,-8.76882,12.13438
2630,4.46431,-0.0,0.0,3.5791,0.0,-0.0,5.53692,-2.9804,19.30179,12.3583,2.30511,-28.27434,-28.25196,-6.98838,-0.00128,-16.86906,0.83292,0.00027,32.93382,6.61758,9.27564,-2.76917,-0.11726,-16.9034,-25.91851,12.25581,-8.95021,63.96198,-60.02604,27.97598,29.04315,0.00067,-85.546,83.21714,-0.02787,85.57379,-4.31771,-10.9193,-0.00194,-27.27658,4.98435,-0.00021,-12.22077,0.83713,4.91536,-34.4395,-1.08833,4.86603,12.28728,-8.56595,11.75905
2631,3.67225,0.0,-0.0,2.81618,0.0,-0.0,4.87873,-2.86557,18.91594,13.44305,2.1186,-27.88863,-28.84515,-6.71001,-0.00209,-16.5497,0.88345,-0.00053,33.42094,6.83637,9.47688,-2.90096,0.01288,-17.14826,-25.09927,11.67297,-8.44976,61.12547,-59.3783,26.3692,28.80474,0.00209,-84.84102,85.46667,-0.02123,85.90668,-4.8584,-10.0184,-0.01039,-27.0191,5.27078,-0.00142,-12.22103,0.75098,5.52468,-34.41978,-1.39838,5.39766,11.57994,-8.32198,11.39832
2632,2.71866,-0.0,0.0,2.0317,-0.0,0.0,4.18563,-2.84804,18.40697,14.41138,1.99231,-26.9584,-29.39062,-6.44547,-0.00099,-16.29679,0.81116,-0.00064,33.8777,7.13692,9.81939,-2.96839,0.10244,-17.40492,-24.23424,11.07102,-7.91905,58.43751,-58.69324,24.99538,28.68489,0.00011,-83.67622,87.48576,0.00548,85.65025,-5.80326,-9.02319,-0.0098,-27.2141,5.10105,0.00051,-12.02813,0.77697,6.02145,-34.20811,-1.56191,5.86756,10.86012,-8.06207,11.11563
2633,1.95264,0.0,-0.0,1.56913,0.0,0.0,3.36726,-2.80101,18.13295,15.2615,1.93987,-25.91441,-29.78329,-6.31624,0.00043,-16.16058,0.72268,-0.00025,34.29837,7.54039,10.06788,-2.90811,0.16261,-17.46366,-23.29566,10.48838,-7.3728,55.81409,-58.02509,23.72069,28.71505,-0.00336,-82.26007,89.3579,0.03866,84.35098,-6.7671,-8.35471,-0.0011,-27.79577,4.17436,0.00375,-11.66576,0.82492,6.42966,-33.82886,-1.67154,6.2638,10.1424,-7.78264,10.95519
2634,1.68938,0.0,0.0,1.56765,-0.0,-0.0,2.4627,-2.6373,18.24842,16.04077,2.01077,-25.11222,-30.03512,-6.33234,0.00095,-16.16373,0.72191,-5e-05,34.69563,8.01923,10.09658,-2.74448,0.2245,-17.17297,-22.20979,10.00624,-6.89362,53.07158,-57.41452,22.35143,28.80633,-0.0028,-80.75409,91.14428,0.03701,82.4788,-7.63744,-8.11345,0.00278,-28.12043,2.81546,0.0018,-11.3294,0.83182,6.81509,-33.47599,-1.81049,6.6235,9.43628,-7.47312,10.90268
2635,1.76546,0.0,0.0,1.82213,-0.0,-0.0,1.66934,-2.35705,18.61088,16.82935,2.20723,-24.48545,-30.25306,-6.42018,0.00071,-16.27505,0.81767,-9e-05,35.08863,8.50319,9.96002,-2.56805,0.29094,-16.7531,-20.9336,9.65752,-6.49416,50.18538,-56.79937,20.89602,28.76536,0.00317,-79.12692,92.76653,-0.0008,81.41672,-8.57962,-8.01871,-0.00097,-27.64105,1.95262,0.00887,-11.23957,0.77162,7.1997,-33.36966,-2.01118,6.95723,8.76736,-7.1332,10.87503
2636,1.71979,0.0,-0.0,2.00531,-0.0,0.0,1.20495,-2.06097,18.89058,17.64949,2.4108,-23.65659,-30.55153,-6.45637,-0.00022,-16.45589,0.93506,-1e-05,35.48043,8.9587,9.87301,-2.43954,0.34742,-16.65783,-19.52472,9.37932,-6.04096,47.34033,-56.09224,19.56735,28.50351,0.00749,-77.50386,94.06538,-0.02302,81.77045,-9.76262,-7.91626,-0.0024,-26.26832,2.01734,0.02197,-11.44145,0.65346,7.57809,-33.55541,-2.26311,7.26345,8.16587,-6.75657,10.7843
2637,1.31677,0.0,0.0,1.96135,0.0,0.0,1.11195,-1.88946,18.87904,18.44943,2.49055,-22.45506,-30.96934,-6.35673,-0.00129,-16.70024,1.00319,0.00028,35.87678,9.43009,10.01153,-2.30969,0.41067,-17.00723,-18.10534,9.09749,-5.43766,44.69881,-55.31165,18.54748,28.16588,0.00513,-76.32553,94.96831,-0.01426,82.82997,-11.12563,-8.00749,0.00384,-24.30529,2.3964,0.01438,-11.79363,0.49194,7.97923,-33.89049,-2.56371,7.57458,7.65473,-6.32148,10.63279
2638,0.78186,0.0,-0.0,1.85634,-0.0,0.0,1.19625,-1.91706,18.72947,19.15674,2.41763,-21.23329,-31.43712,-6.18634,-0.00124,-17.02137,1.02773,0.00041,36.28461,9.96703,10.26622,-2.07351,0.5204,-17.36882,-16.75077,8.82779,-4.81802,42.23196,-54.55489,17.8382,27.97043,0.00176,-75.79552,95.55909,-0.00205,83.99191,-12.35629,-8.40755,0.00814,-22.24088,2.33967,-0.00627,-12.10542,0.27669,8.42283,-34.18346,-2.92996,7.90506,7.22042,-5.819,10.52661
2639,0.44439,0.0,0.0,1.97799,0.0,-0.0,1.2277,-2.09537,18.77823,19.71264,2.2304,-20.48477,-31.83754,-6.096,-0.00029,-17.42871,1.06334,0.00016,36.66833,10.54312,10.35423,-1.69654,0.6769,-17.28313,-15.45621,8.64361,-4.3949,39.82696,-53.84146,17.341,27.9825,0.0001,-75.35751,95.97153,0.00068,85.34699,-13.15779,-8.85507,0.00499,-20.4924,1.7532,-0.01343,-12.25926,0.01453,8.86832,-34.31895,-3.34029,8.21988,6.79622,-5.29004,10.55797
2640,0.38562,0.0,0.0,2.42489,0.0,-0.0,1.1551,-2.33011,19.17838,20.10197,1.95745,-20.31301,-32.11065,-6.16113,0.00028,-17.92229,1.13637,-0.00032,36.95974,11.09986,10.16615,-1.23416,0.83116,-16.75862,-14.22004,8.57695,-4.24962,37.48106,-53.07476,17.03203,28.11223,-0.0026,-74.04625,96.2713,-0.0004,86.85583,-13.59197,-8.98577,-0.00073,-19.28774,0.94287,-0.00457,-12.25397,-0.22919,9.26885,-34.29715,-3.71656,8.50014,6.31723,-4.79568,10.69511
2641,0.50889,0.0,0.0,3.06326,0.0,-0.0,1.06272,-2.5974,19.80188,20.38704,1.58892,-20.46003,-32.30083,-6.34312,0.00034,-18.49119,1.2332,-0.00085,37.14302,11.63447,9.83502,-0.74188,0.94677,-16.10866,-13.07683,8.58539,-4.38351,35.34167,-52.19054,17.01762,28.26,-0.00557,-71.31583,96.45095,-0.00109,88.01946,-14.03439,-8.63268,-0.0075,-18.65442,0.16258,0.00718,-12.16358,-0.40337,9.64349,-34.18978,-4.01856,8.78271,5.78384,-4.33414,10.81524
2642,0.68739,-0.0,-0.0,3.60659,0.0,-0.0,0.9985,-2.87639,20.39556,20.7009,1.13147,-20.6374,-32.50473,-6.55546,0.00027,-19.10334,1.31904,-0.00097,37.29173,12.18651,9.54292,-0.23148,1.04713,-15.59478,-11.99434,8.60134,-4.78719,33.53977,-51.24928,17.37389,28.36639,-0.00502,-67.61375,96.49186,-0.00154,88.62638,-14.74476,-7.97166,-0.01059,-18.46663,-0.30496,0.0107,-12.03625,-0.56123,10.0682,-34.04162,-4.32412,9.11814,5.25018,-3.83727,10.82027
2643,0.79569,0.0,0.0,3.70996,0.0,0.0,0.9211,-3.03237,20.75146,21.16012,0.72255,-20.68557,-32.77203,-6.72193,9e-05,-19.70557,1.31543,-0.00012,37.50087,12.77673,9.4018,0.31115,1.1988,-15.33289,-10.82426,8.59443,-5.31865,32.02024,-50.33001,17.99151,28.35644,-0.00169,-64.45746,96.40458,0.00037,89.31237,-15.6179,-7.51916,-0.00362,-18.6979,0.03896,-0.00316,-11.85212,-0.8055,10.59462,-33.83231,-4.74774,9.51599,4.77855,-3.27427,10.69785
2644,0.76386,0.0,-0.0,3.27052,-0.0,-0.0,0.78183,-2.96947,20.81652,21.73202,0.55823,-20.62575,-33.06099,-6.81888,-0.00011,-20.25449,1.14893,0.00087,37.79932,13.40023,9.41674,0.90248,1.45796,-15.25353,-9.46121,8.60739,-5.72799,30.60615,-49.41765,18.67551,28.18117,-0.00153,-63.36601,96.18813,0.00442,90.69926,-16.38817,-7.62444,0.00492,-19.52512,1.41178,-0.02905,-11.60242,-1.1577,11.19624,-33.55546,-5.29939,9.94375,4.39718,-2.70768,10.49301
2645,0.62854,0.0,-0.0,2.59924,0.0,-0.0,0.57505,-2.80292,20.6889,22.24349,0.66019,-20.60176,-33.2887,-6.87684,-0.00015,-20.75248,0.86862,0.00085,38.12341,14.04674,9.50407,1.5208,1.82156,-15.12091,-8.01342,8.7405,-5.94641,29.20647,-48.45085,19.36488,27.97223,-0.0005,-64.16795,95.78444,0.00195,92.2156,-16.93544,-7.99169,0.00616,-20.8913,3.12793,-0.03222,-11.33097,-1.53285,11.81693,-33.25597,-5.8792,10.38125,4.06315,-2.22181,10.24933
2646,0.47962,0.0,0.0,2.07378,0.0,-0.0,0.29449,-2.70162,20.4814,22.57927,0.89195,-20.62339,-33.40405,-6.91568,-9e-05,-21.24775,0.60748,0.00021,38.38071,14.69939,9.60754,2.10403,2.22179,-14.82152,-6.71963,9.05419,-6.1272,27.88032,-47.41693,20.1672,28.01531,-0.00335,-64.91499,95.14372,-0.00867,92.74736,-17.37079,-8.07789,0.00257,-22.22639,4.15902,-0.00715,-11.05776,-1.82993,12.4389,-32.95094,-6.38681,10.84988,3.69981,-1.83264,9.97443
2647,0.3808,0.0,-0.0,1.77562,0.0,-0.0,-0.0611,-2.68976,20.22398,22.79429,1.17776,-20.47332,-33.41221,-6.90799,5e-05,-21.80137,0.42883,0.00011,38.53839,15.32961,9.75878,2.62435,2.5667,-14.54456,-5.71744,9.48636,-6.36643,26.6997,-46.35091,21.14935,28.47028,-0.02173,-63.86359,94.3131,-0.00818,92.34772,-17.93841,-7.70487,-0.00297,-22.86036,4.33672,0.01031,-10.76074,-2.01859,13.05616,-32.61663,-6.79173,11.35543,3.28783,-1.48419,9.65599
2648,0.36532,0.0,-0.0,1.60604,0.0,-0.0,-0.4166,-2.70105,19.94039,22.9958,1.50524,-19.97482,-33.35425,-6.8389,0.00019,-22.45826,0.3123,0.00064,38.62355,15.91961,9.99717,3.12769,2.79773,-14.50561,-4.97011,9.90427,-6.58891,25.64357,-45.28142,22.17336,29.22575,-0.03061,-61.35312,93.40166,0.00727,92.09851,-18.76804,-7.02512,-0.0077,-22.43833,4.30857,0.01189,-10.45274,-2.14555,13.63411,-32.26997,-7.12441,11.84796,2.86399,-1.10977,9.29876
2649,0.45931,0.0,-0.0,1.54261,0.0,0.0,-0.66558,-2.7009,19.75642,23.19595,1.76762,-19.22743,-33.27076,-6.77426,0.00013,-23.23317,0.25553,0.00069,38.66112,16.48861,10.27927,3.67482,2.92698,-14.62171,-4.37243,10.24573,-6.7319,24.65474,-44.21301,23.04239,30.05497,-0.01071,-59.40547,92.45161,0.0097,92.23657,-19.6392,-6.1765,-0.00696,-21.01237,4.34833,0.00173,-10.1751,-2.27183,14.17536,-31.95499,-7.4425,12.30694,2.4382,-0.68772,8.92156
2650,0.63605,0.0,0.0,1.62006,0.0,-0.0,-0.81459,-2.67719,19.8095,23.32714,1.80329,-18.51513,-33.1742,-6.81088,-0.00013,-24.09278,0.30257,-0.00035,38.6525,17.05557,10.50668,4.26788,3.00593,-14.60204,-3.82108,10.58935,-6.92459,23.71416,-43.14535,23.76204,30.79369,0.01223,-59.54482,91.38309,-0.01178,91.85175,-20.13076,-5.15878,0.00045,-19.26491,4.02685,-0.01054,-9.9138,-2.39813,14.75057,-31.65208,-7.77286,12.79823,1.97419,-0.25911,8.52915
2651,0.76029,0.0,0.0,1.78784,0.0,0.0,-0.98305,-2.60715,20.06781,23.3533,1.59707,-18.03686,-33.05131,-6.95095,-0.00035,-24.96458,0.47494,-0.00151,38.59818,17.5751,10.62395,4.84648,3.05655,-14.30696,-3.21516,11.05546,-7.36714,22.83242,-42.10223,24.53294,31.38014,0.01355,-61.52323,90.10435,-0.02755,90.61491,-20.06965,-3.93259,0.00847,-18.38191,3.10201,0.00141,-9.60308,-2.4565,15.36757,-31.29088,-8.05516,13.35464,1.43882,0.11154,8.11061
2652,0.67977,0.0,-0.0,1.93569,0.0,-0.0,-1.24554,-2.52863,20.38359,23.32155,1.32205,-17.7528,-32.88799,-7.08769,-0.00023,-25.79627,0.72067,-0.0017,38.513,17.95821,10.62888,5.34811,3.05907,-13.91866,-2.47839,11.66024,-8.0902,22.02352,-41.14528,25.47646,31.86071,-0.00019,-64.03339,88.65762,-0.00962,89.50407,-19.72088,-2.54244,0.00916,-18.9155,2.03069,0.01814,-9.20315,-2.40838,15.89685,-30.84068,-8.20563,13.86903,0.82565,0.41684,7.65631
2653,0.38132,0.0,-0.0,1.95906,0.0,-0.0,-1.575,-2.52432,20.65491,23.33249,1.21606,-17.4768,-32.68797,-7.11363,0.00016,-26.58133,0.94057,-0.00071,38.43501,18.15899,10.57044,5.77601,2.99292,-13.73794,-1.57424,12.31281,-8.96472,21.26942,-40.34758,26.46176,32.37398,-0.01096,-66.12263,87.21677,0.01915,89.45351,-19.46973,-1.23195,0.00414,-20.07667,1.40674,0.01147,-8.71929,-2.34194,16.21662,-30.32354,-8.2616,14.19388,0.16343,0.71761,7.18105
2654,0.01604,0.0,-0.0,1.74177,0.0,-0.0,-1.93668,-2.57219,20.81461,23.45938,1.44868,-17.09264,-32.47682,-7.01491,0.00039,-27.30891,1.04771,0.00079,38.41704,18.24353,10.58561,6.20426,2.88043,-13.8545,-0.49923,12.92976,-9.84376,20.50159,-39.72499,27.25983,33.06434,-0.00727,-67.88013,85.94794,0.02147,90.07485,-19.35987,-0.48216,-0.00058,-20.70376,1.2325,-0.0011,-8.17108,-2.41359,16.36053,-29.7656,-8.38114,14.30234,-0.47245,1.0574,6.75233
2655,-0.21262,0.0,0.0,1.26774,0.0,0.0,-2.32339,-2.59098,20.81262,23.65902,1.95594,-16.66523,-32.286,-6.87736,0.0002,-27.93869,1.03491,0.00147,38.47382,18.36526,10.78893,6.69129,2.78941,-14.06603,0.67798,13.49878,-10.59686,19.68524,-39.18514,27.81924,33.99955,0.00969,-69.91541,84.87686,0.00355,90.32452,-19.06203,-0.73589,-0.00973,-20.40207,1.06816,-0.00834,-7.59063,-2.67963,16.45813,-29.19058,-8.6644,14.29499,-1.01223,1.41572,6.46638
2656,-0.2346,-0.0,0.0,0.76085,0.0,-0.0,-2.70035,-2.62683,20.67828,23.80159,2.42209,-16.34359,-32.12199,-6.7827,-6e-05,-28.452,0.99919,0.00075,38.5599,18.62805,11.14574,7.21775,2.76974,-14.12991,1.80044,14.04685,-11.14639,18.90569,-38.59365,28.33802,35.12328,0.0227,-72.42172,83.90311,-0.01043,89.86324,-18.33489,-1.88386,-0.0199,-19.55337,0.80722,-0.00824,-7.02095,-3.02071,16.57864,-28.62902,-9.02583,14.28114,-1.45758,1.75771,6.35366
2657,-0.21728,0.0,0.0,0.53916,0.0,-0.0,-3.00764,-2.81837,20.53703,23.81034,2.5799,-16.21766,-31.95579,-6.73928,-0.00014,-28.88636,1.05608,-0.00057,38.62722,19.00395,11.52049,7.736,2.81497,-13.97922,2.75235,14.61073,-11.59375,18.27758,-37.91121,29.04984,36.22795,0.01655,-74.9508,82.93302,-0.01296,89.09824,-17.38015,-3.09039,-0.01385,-18.75597,0.82296,-0.00242,-6.48872,-3.24345,16.68857,-28.09958,-9.27334,14.30142,-1.85522,2.0843,6.33779
2658,-0.40358,-0.0,-0.0,0.69983,0.0,-0.0,-3.23615,-3.17415,20.52039,23.72676,2.46097,-16.25854,-31.75189,-6.73232,-0.00014,-29.29402,1.21613,-0.00125,38.67353,19.40467,11.79947,8.23262,2.90312,-13.68814,3.59433,15.24518,-12.21145,17.77428,-37.20881,29.94554,37.0671,-8e-05,-76.83829,81.93279,-0.006,88.55946,-16.65732,-3.43779,-0.00078,-18.32966,1.24807,0.00055,-6.00641,-3.24003,16.74536,-27.61165,-9.29104,14.35612,-2.22597,2.40492,6.31917
2659,-0.81771,0.0,-0.0,1.00326,0.0,0.0,-3.46134,-3.48261,20.57846,23.64215,2.27362,-16.30169,-31.50265,-6.74717,-9e-05,-29.69144,1.35556,-0.00061,38.71811,19.7822,12.00915,8.71888,3.02976,-13.40846,4.49228,15.98532,-13.16751,17.24751,-36.54615,30.77991,37.56629,-0.00913,-77.64436,80.87212,0.00609,88.65689,-16.41413,-2.80762,0.0008,-18.18185,1.69084,0.00057,-5.59899,-3.05268,16.77803,-27.18993,-9.12885,14.45671,-2.54845,2.69182,6.26399
2660,-1.20619,0.0,-0.0,1.11485,-0.0,-0.0,-3.77525,-3.51873,20.49315,23.6046,2.14964,-16.16385,-31.21977,-6.76706,-8e-05,-30.06082,1.33277,0.00066,38.74492,20.15396,12.28693,9.18767,3.19402,-13.30696,5.51495,16.75788,-14.26492,16.63118,-35.9135,31.38355,37.87415,-0.0077,-77.48447,79.68528,0.01172,89.37914,-16.44819,-1.8518,-0.00206,-18.08399,1.87937,9e-05,-5.28386,-2.81573,16.85292,-26.85372,-8.93602,14.61537,-2.8134,2.91211,6.18926
2661,-1.33009,0.0,-0.0,0.93962,-0.0,0.0,-4.19174,-3.2963,20.1808,23.60649,2.07389,-15.8674,-30.91288,-6.79435,-0.00024,-30.38268,1.15468,0.00116,38.71732,20.53984,12.69218,9.61463,3.37167,-13.39939,6.54402,17.40864,-15.05077,16.03522,-35.30054,31.86197,38.25256,-0.00254,-77.01407,78.30685,0.00377,90.16245,-16.3329,-1.15536,-0.00176,-17.98404,1.99241,-0.0013,-5.02013,-2.64882,17.00222,-26.56583,-8.83558,14.81783,-3.05632,3.08459,6.09614
2662,-1.25252,0.0,0.0,0.66165,0.0,0.0,-4.62548,-3.04465,19.83976,23.62756,1.95495,-15.64794,-30.59155,-6.82927,-0.00038,-30.65294,1.00843,0.0005,38.63443,20.89106,13.13526,9.98968,3.50394,-13.46441,7.41805,17.88091,-15.28873,15.59556,-34.73914,32.41769,38.90726,0.00241,-76.81679,76.76206,-0.00508,90.56773,-15.87248,-0.73234,-0.0002,-17.96002,2.23675,-0.00342,-4.72232,-2.58893,17.23329,-26.24173,-8.86459,15.05739,-3.32373,3.24944,5.96406
2663,-1.24064,-0.0,-0.0,0.48803,0.0,0.0,-4.961,-2.96668,19.71399,23.64529,1.73946,-15.64517,-30.25016,-6.83842,-0.00017,-30.87589,1.08203,-0.00038,38.51832,21.13129,13.51933,10.32731,3.52862,-13.26497,8.12009,18.28149,-15.25414,15.28132,-34.26605,33.08158,39.80547,0.00422,-76.94659,75.20464,-0.00287,90.75864,-15.25869,-0.30457,0.00071,-17.97877,2.53591,-0.00393,-4.34353,-2.60547,17.55266,-25.83171,-8.99693,15.35172,-3.61555,3.41161,5.81286
2664,-1.43708,0.0,0.0,0.43646,-0.0,-0.0,-5.17003,-3.05972,19.80376,23.63373,1.53629,-15.68933,-29.85332,-6.77587,0.00049,-31.06512,1.35451,-0.00059,38.39275,21.24522,13.87326,10.67498,3.42537,-12.87617,8.75567,18.71516,-15.3958,14.90266,-33.90102,33.72185,40.70608,0.00212,-77.18407,73.80988,0.00219,90.99516,-14.74882,0.25012,0.0004,-17.98712,2.65744,-0.00185,-3.90817,-2.64799,17.90652,-25.36248,-9.16588,15.66909,-3.85009,3.55895,5.71795
2665,-1.75119,0.0,-0.0,0.38231,0.0,-0.0,-5.35427,-3.19053,19.9274,23.59846,1.54133,-15.55026,-29.37878,-6.64385,0.00097,-31.25368,1.6397,-0.00027,38.28802,21.26749,14.25947,11.08101,3.21786,-12.60636,9.42727,19.14457,-15.84154,14.31772,-33.63915,34.23292,41.4175,-0.00157,-77.37299,72.63717,2e-05,91.13866,-14.36462,0.8781,0.00091,-18.08983,2.47289,0.0015,-3.4493,-2.65007,18.17587,-24.87555,-9.26618,15.92204,-3.94338,3.69396,5.73014
2666,-2.04826,0.0,-0.0,0.23414,0.0,-0.0,-5.61663,-3.27241,19.98538,23.578,1.78563,-15.28787,-28.8692,-6.51732,0.00056,-31.47464,1.8117,2e-05,38.22212,21.23518,14.61348,11.53211,2.96167,-12.58676,10.18955,19.47017,-16.39899,13.58634,-33.43255,34.60662,41.94767,-0.00411,-77.48383,71.63314,-0.00527,90.92717,-14.00662,1.50278,0.00225,-18.2796,2.06844,0.00292,-2.95587,-2.5483,18.3311,-24.3596,-9.22805,16.10595,-3.93117,3.82775,5.81575
2667,-2.3033,0.0,0.0,0.02531,0.0,-0.0,-5.92252,-3.30621,20.01831,23.59316,2.09328,-15.14586,-28.4087,-6.47844,-0.00031,-31.72845,1.88087,6e-05,38.18831,21.19579,14.79939,11.97325,2.73487,-12.65963,11.03588,19.67153,-16.83977,12.88891,-33.21392,34.89093,42.44074,-0.00256,-77.65444,70.72438,-0.00428,90.48408,-13.66501,1.91608,0.00165,-18.29291,1.63019,0.00139,-2.3898,-2.36062,18.50912,-23.76336,-9.11816,16.34304,-3.9295,3.97112,5.8976
2668,-2.51697,0.0,0.0,-0.12187,0.0,0.0,-6.17749,-3.30825,20.07241,23.62694,2.29542,-15.16856,-28.04008,-6.53315,-0.00078,-31.98932,1.8863,3e-05,38.17224,21.19275,14.78928,12.37866,2.58624,-12.67289,11.88382,19.82591,-17.02607,12.33071,-32.9358,35.1507,43.04376,0.00445,-78.13767,69.84882,0.00298,90.23336,-13.35267,1.78945,-0.00102,-18.01595,1.25308,1e-05,-1.74027,-2.16222,18.82899,-23.0673,-9.04974,16.71765,-3.9965,4.11569,5.92005
2669,-2.59324,0.0,0.0,-0.10943,-0.0,-0.0,-6.40775,-3.24174,20.08622,23.64763,2.39837,-15.12289,-27.73388,-6.59587,-0.00054,-32.22979,1.811,0.00017,38.17513,21.2226,14.73463,12.7647,2.49855,-12.69939,12.63188,20.03769,-16.95792,11.85105,-32.57304,35.39747,43.7869,0.01141,-79.01265,68.95121,0.00673,90.31542,-12.98275,1.17601,-0.00232,-17.61796,0.91322,-0.00019,-1.06678,-1.949,19.20186,-22.3398,-8.98644,17.1476,-4.10395,4.22242,5.87552
2670,-2.41846,-0.0,0.0,0.0359,0.0,-0.0,-6.73506,-3.06962,19.92215,23.62835,2.55558,-14.80349,-27.44772,-6.55119,0.00014,-32.42134,1.61507,0.00028,38.21387,21.25375,14.85073,13.14593,2.43532,-12.90768,13.2302,20.3534,-16.81267,11.31985,-32.13287,35.56667,44.59147,0.0081,-79.8763,68.01291,0.00055,90.36934,-12.53637,0.6958,0.00035,-17.23844,0.58859,-0.00012,-0.4678,-1.6561,19.43358,-21.69773,-8.79741,17.47354,-4.21795,4.26944,5.80493
2671,-2.0453,-0.0,0.0,0.1891,0.0,-0.0,-7.17706,-2.87788,19.5631,23.55401,2.87661,-14.26868,-27.16905,-6.35533,0.00066,-32.53622,1.32327,0.00011,38.29327,21.27109,15.1827,13.5085,2.38648,-13.31712,13.68126,20.71616,-16.80461,10.69478,-31.67866,35.6271,45.39981,-0.00644,-79.97442,67.05842,-0.00789,90.07768,-12.26467,0.83926,0.00113,-16.97772,0.35749,-0.00022,0.02469,-1.31903,19.47761,-21.18159,-8.49912,17.63843,-4.34078,4.29787,5.76461
