PaulMeinheit/Bachelor_Muay_Thai/processed_Data/N4/teep/sliced/JointAngles/sliced1.csv
Unnamed: 0_level_0,L_MTP_ANGLE,L_MTP_ANGLE,L_MTP_ANGLE,R_MTP_ANGLE,R_MTP_ANGLE,R_MTP_ANGLE,L_ANKLE_ANGLE,L_ANKLE_ANGLE,L_ANKLE_ANGLE,R_ANKLE_ANGLE,R_ANKLE_ANGLE,R_ANKLE_ANGLE,L_KNEE_ANGLE,L_KNEE_ANGLE,L_KNEE_ANGLE,R_KNEE_ANGLE,R_KNEE_ANGLE,R_KNEE_ANGLE,L_HIP_ANGLE,L_HIP_ANGLE,L_HIP_ANGLE,R_HIP_ANGLE,R_HIP_ANGLE,R_HIP_ANGLE,L_SHOULDER_ANGLE,L_SHOULDER_ANGLE,L_SHOULDER_ANGLE,R_SHOULDER_ANGLE,R_SHOULDER_ANGLE,R_SHOULDER_ANGLE,L_ELBOW_ANGLE,L_ELBOW_ANGLE,L_ELBOW_ANGLE,R_ELBOW_ANGLE,R_ELBOW_ANGLE,R_ELBOW_ANGLE,L_WRIST_ANGLE,L_WRIST_ANGLE,L_WRIST_ANGLE,R_WRIST_ANGLE,R_WRIST_ANGLE,R_WRIST_ANGLE,NECK_ANGLE,NECK_ANGLE,NECK_ANGLE,NECK_ANGLE_SHADOW,NECK_ANGLE_SHADOW,NECK_ANGLE_SHADOW,Trunk_Joint_Angle,Trunk_Joint_Angle,Trunk_Joint_Angle
ITEM,X,Y,Z,X,Y,Z,X,Y,Z,X,Y,Z,X,Y,Z,X,Y,Z,X,Y,Z,X,Y,Z,X,Y,Z,X,Y,Z,X,Y,Z,X,Y,Z,X,Y,Z,X,Y,Z,X,Y,Z,X,Y,Z,X,Y,Z
680,-7.02286,0.0,0.0,-2.48265,0.0,0.0,-10.20428,-7.8107,13.84592,16.86955,5.77193,-9.99674,-14.59692,-2.34521,1e-05,-17.91412,-1.34897,0.00011,33.91325,17.56308,7.78919,9.43573,4.24754,-9.51199,7.13166,13.21785,-28.33697,-4.04508,-23.01437,21.74364,57.79818,0.00029,-100.86053,48.87318,-0.00074,83.04566,-8.92611,-3.46929,1e-05,-17.15253,6.43212,-0.0005,6.56719,-1.19848,23.28769,-14.14437,-9.74955,21.28476,-1.43698,6.84403,5.51059
681,-6.7362,0.0,-0.0,-2.43803,-0.0,-0.0,-10.30037,-7.69945,13.8374,16.86396,6.00965,-9.91046,-14.52173,-2.38956,-2e-05,-18.0443,-1.47239,0.00033,33.91389,17.57158,7.88759,9.56973,4.26038,-9.62712,7.34866,13.40334,-28.2832,-3.66405,-23.21049,22.24164,57.84013,0.00135,-100.42767,49.18468,-0.00077,83.01942,-9.60616,-3.32361,-0.00067,-17.55422,6.76159,-0.00145,6.36759,-1.16315,23.23497,-14.34919,-9.69785,21.24741,-1.436,6.76882,5.48082
682,-6.74698,0.0,0.0,-2.38895,-0.0,-0.0,-10.29994,-7.8445,13.97638,16.79376,6.27784,-9.7961,-14.4275,-2.456,1e-05,-18.21711,-1.60271,0.00027,33.92855,17.60384,7.81857,9.74468,4.28159,-9.75638,7.7329,13.6226,-28.33051,-3.29384,-23.29423,22.52096,57.76202,0.00292,-99.70303,49.56545,0.0008,82.94476,-10.14954,-3.12562,-0.00149,-17.99651,7.09548,-0.00014,6.06508,-1.13888,23.22462,-14.65167,-9.67149,21.2463,-1.44607,6.68241,5.49828
683,-7.15542,0.0,0.0,-2.449,-0.0,0.0,-10.18564,-8.05102,14.25618,16.7221,6.42367,-9.72396,-14.38906,-2.55619,0.0001,-18.36942,-1.66588,3e-05,34.02726,17.67544,7.51804,9.92346,4.34149,-9.81422,8.26753,13.85207,-28.47668,-2.96216,-23.33434,22.63428,57.62004,0.00282,-98.92903,49.95844,0.00152,82.72012,-10.38846,-2.87054,-0.00107,-18.41714,7.29614,-0.00021,5.6726,-1.2,23.24463,-15.04506,-9.73574,21.24335,-1.46875,6.64319,5.5486
684,-7.65166,0.0,-0.0,-2.53911,0.0,-0.0,-10.07889,-8.08329,14.5171,16.70588,6.37138,-9.68241,-14.4129,-2.66369,0.00013,-18.45653,-1.65717,-8e-05,34.1376,17.76534,7.18888,10.01972,4.42267,-9.80806,8.78619,14.0296,-28.51715,-2.66193,-23.37889,22.67354,57.56161,0.00164,-98.64062,50.34435,-9e-05,82.61681,-10.18322,-2.58549,0.00112,-18.81849,7.60975,-0.00243,5.33021,-1.34681,23.22297,-15.39944,-9.86539,21.17008,-1.56254,6.64276,5.61934
685,-7.86752,0.0,-0.0,-2.543,0.0,0.0,-10.07711,-7.9241,14.5741,16.75161,6.15301,-9.61792,-14.47469,-2.70616,0.0,-18.50175,-1.60355,-9e-05,34.14395,17.82924,7.12682,9.97961,4.46886,-9.78791,9.13118,14.145,-28.2973,-2.36301,-23.38379,22.63101,57.67772,0.0016,-98.99076,50.69497,-0.00126,82.8149,-9.59606,-2.23067,0.00324,-19.13286,8.15053,-0.00253,5.1637,-1.50856,23.09173,-15.59416,-9.97018,20.98737,-1.76916,6.62598,5.69182
686,-8.03104,0.0,0.0,-2.61004,0.0,-0.0,-10.07446,-7.77008,14.48551,16.86078,5.84063,-9.54586,-14.56509,-2.65335,-0.00014,-18.541,-1.50012,-8e-05,34.10353,17.82957,7.306,9.88555,4.44655,-9.74113,9.32546,14.28017,-27.98101,-2.04809,-23.29633,22.44382,57.91186,0.00155,-99.61863,50.97076,-0.00063,83.20079,-9.025,-1.80794,0.0023,-19.17756,8.73719,0.00074,5.14036,-1.61697,22.90265,-15.65023,-10.0045,20.76888,-1.9807,6.57057,5.72364
687,-8.56383,0.0,0.0,-2.8884,0.0,-0.0,-9.94355,-7.72892,14.42744,16.99552,5.52114,-9.51987,-14.66617,-2.56114,-0.00012,-18.56243,-1.34584,-1e-05,34.18258,17.77063,7.44025,9.87745,4.38475,-9.65147,9.48918,14.50721,-27.82114,-1.70918,-23.14371,22.13613,58.18166,0.00143,-100.24348,51.14301,0.00067,83.73741,-8.86956,-1.47736,0.00013,-18.83234,9.17124,0.00302,5.14758,-1.66264,22.78398,-15.66204,-10.00508,20.63981,-2.03582,6.50706,5.67004
688,-9.34067,0.0,-0.0,-3.18715,-0.0,0.0,-9.74473,-7.74367,14.42687,17.0606,5.3519,-9.53711,-14.74235,-2.50399,-1e-05,-18.54609,-1.20967,8e-05,34.38719,17.70096,7.37912,9.96342,4.34415,-9.58741,9.68485,14.80124,-27.82958,-1.34164,-23.00773,21.84138,58.46318,0.00107,-100.79509,51.21954,0.00172,84.41384,-9.14336,-1.38148,0.00024,-18.19468,9.34457,0.00136,5.13556,-1.68802,22.81759,-15.67108,-10.04074,20.66255,-1.95821,6.46687,5.52825
689,-9.93016,0.0,0.0,-3.24396,0.0,-0.0,-9.62198,-7.7771,14.40535,17.01629,5.48838,-9.54078,-14.78359,-2.49848,4e-05,-18.52861,-1.19082,0.00012,34.57258,17.65647,7.19583,10.04594,4.35216,-9.66249,9.90778,15.07817,-27.83894,-0.98249,-22.94809,21.65323,58.72483,-0.00019,-101.09601,51.26589,0.00127,85.10142,-9.54217,-1.43526,0.00084,-17.48087,9.21225,-0.00174,5.10205,-1.75055,22.98287,-15.686,-10.15784,20.79687,-1.91362,6.45102,5.34863
690,-10.17143,0.0,-0.0,-3.07206,-0.0,-0.0,-9.62413,-7.8635,14.34138,16.92171,5.88249,-9.48445,-14.80918,-2.508,2e-05,-18.56871,-1.30363,0.00023,34.65551,17.62815,7.01095,10.08522,4.38183,-9.90319,10.15727,15.27652,-27.77454,-0.69539,-22.96856,21.51191,58.89681,-0.0008,-100.99876,51.36092,-0.00111,85.91802,-9.81698,-1.44631,0.00044,-16.83755,8.893,-0.0022,5.01502,-1.88019,23.14588,-15.75897,-10.33686,20.90492,-1.97619,6.44771,5.21788
691,-10.15903,0.0,0.0,-2.84288,0.0,-0.0,-9.70259,-8.00987,14.26672,16.83471,6.29508,-9.36012,-14.8115,-2.49164,5e-05,-18.66742,-1.4474,0.00021,34.6437,17.58533,6.91509,10.11273,4.37365,-10.1849,10.46088,15.39028,-27.71872,-0.47495,-23.04966,21.34085,58.93396,2e-05,-100.61575,51.51725,-0.00301,87.03421,-9.99057,-1.34266,-0.00039,-16.37552,8.57723,0.0003,4.83343,-2.0536,23.13662,-15.95315,-10.49571,20.83357,-2.09368,6.43385,5.21458
692,-10.09068,0.0,0.0,-2.68554,0.0,-0.0,-9.7694,-8.17372,14.22919,16.77276,6.54246,-9.21718,-14.75923,-2.44416,0.00013,-18.76663,-1.50962,5e-05,34.574,17.51138,6.92471,10.15732,4.28973,-10.33565,10.83043,15.44457,-27.72331,-0.23416,-23.19133,21.22534,58.85508,0.00075,-100.20457,51.68523,-0.00175,88.00847,-10.14874,-1.16819,-0.00084,-16.21384,8.24292,0.00374,4.58377,-2.20878,22.92094,-16.24248,-10.56421,20.57258,-2.19777,6.3811,5.33286
693,-10.20259,0.0,-0.0,-2.68353,-0.0,0.0,-9.73856,-8.30754,14.28023,16.7571,6.60603,-9.14366,-14.67506,-2.39658,0.00013,-18.81576,-1.47482,-1e-05,34.53542,17.4336,6.9404,10.23774,4.18045,-10.30796,11.23226,15.47458,-27.71536,0.08962,-23.39383,21.29751,58.72013,0.00057,-99.9906,51.82718,0.00103,88.17356,-10.16745,-0.96058,-3e-05,-16.27262,7.71739,0.00654,4.36552,-2.28643,22.6466,-16.50283,-10.53921,20.28388,-2.24536,6.30931,5.46662
694,-10.36184,0.0,0.0,-2.80027,-0.0,0.0,-9.6478,-8.36283,14.36127,16.79156,6.53437,-9.14959,-14.62852,-2.36456,7e-05,-18.81877,-1.41328,2e-05,34.57985,17.41122,6.92113,10.3273,4.14552,-10.20889,11.63001,15.52764,-27.64625,0.48345,-23.62091,21.55016,58.58087,0.00033,-99.95474,51.9534,0.00249,87.52342,-9.88935,-0.73711,0.00136,-16.32759,7.0324,0.00731,4.25422,-2.26789,22.47856,-16.63531,-10.46206,20.13105,-2.26671,6.28006,5.5165
695,-10.07156,0.0,0.0,-2.86179,0.0,-0.0,-9.66419,-8.33544,14.33601,16.84808,6.35996,-9.15063,-14.63587,-2.33246,4e-05,-18.82304,-1.37312,2e-05,34.60016,17.46647,6.97628,10.32781,4.20216,-10.14768,12.02543,15.62849,-27.58175,0.9071,-23.81554,21.89771,58.44624,0.00028,-99.91132,52.09612,0.00127,86.80341,-9.42868,-0.59007,0.00156,-16.48156,6.61191,0.00033,4.22198,-2.19046,22.44308,-16.66718,-10.37708,20.12544,-2.3809,6.30243,5.47856
696,-9.3994,0.0,-0.0,-2.87024,-0.0,-0.0,-9.81905,-8.33172,14.26927,16.94253,6.11213,-9.11958,-14.64431,-2.30968,2e-05,-18.87508,-1.32653,-7e-05,34.51528,17.54487,7.07825,10.22839,4.26457,-10.13185,12.42756,15.74031,-27.58647,1.32623,-23.9383,22.28796,58.3001,-0.00011,-99.87968,52.27021,-0.0016,86.8256,-9.07451,-0.69651,0.00116,-17.18668,7.06996,-0.0253,4.18574,-2.12592,22.44629,-16.69879,-10.31792,20.15187,-2.61176,6.3176,5.39944
697,-9.05594,0.0,0.0,-3.06851,0.0,-0.0,-9.94866,-8.4745,14.38326,17.11354,5.85092,-9.13709,-14.6034,-2.32632,-2e-05,-18.97598,-1.23078,-0.00016,34.42578,17.5639,6.99313,10.16391,4.25689,-10.11101,12.81291,15.80353,-27.63756,1.70917,-23.99298,22.66046,58.14727,-0.00046,-99.96265,52.45073,-0.00233,87.58424,-8.94919,-1.10004,0.0012,-18.53088,8.50711,-0.04709,4.11263,-2.13289,22.40982,-16.7772,-10.31144,20.11474,-2.82173,6.28565,5.31732
698,-9.2624,0.0,-0.0,-3.50688,0.0,-0.0,-9.9703,-8.73181,14.67348,17.29488,5.646,-9.27817,-14.51287,-2.36657,-5e-05,-19.07851,-1.09785,-0.00012,34.41906,17.49731,6.6636,10.20327,4.18981,-10.03037,13.14805,15.80174,-27.66714,2.05162,-24.02669,22.92848,58.01828,-0.00014,-99.9957,52.5806,-0.0003,88.20255,-8.89595,-1.55955,0.00078,-19.86939,10.01051,-0.03009,4.05087,-2.22066,22.35341,-16.85215,-10.37332,20.02938,-2.94692,6.22883,5.27118
699,-9.44876,0.0,-0.0,-3.86922,0.0,0.0,-9.98183,-8.92223,14.86456,17.3449,5.55655,-9.50417,-14.42633,-2.37635,-6e-05,-19.14042,-1.00344,-1e-05,34.45199,17.40301,6.3504,10.2766,4.13511,-9.88787,13.42168,15.7765,-27.61317,2.41155,-24.08299,23.10485,57.93549,0.00032,-99.75902,52.61305,0.00015,87.88812,-8.74401,-1.7699,0.00054,-20.54672,10.43429,-0.00408,4.07359,-2.33643,22.33683,-16.83921,-10.47556,19.97165,-3.07788,6.18716,5.286
700,-9.04875,-0.0,-0.0,-3.82545,0.0,0.0,-10.09713,-8.90145,14.74238,17.21402,5.63983,-9.67012,-14.40864,-2.33456,-9e-05,-19.16173,-1.03735,2e-05,34.48498,17.36931,6.32234,10.33371,4.15454,-9.78504,13.62837,15.80119,-27.45181,2.88081,-24.14387,23.34604,57.90152,0.00035,-99.33163,52.53873,-0.00262,86.58315,-8.54843,-1.65633,0.00047,-20.59196,9.61829,0.00175,4.20582,-2.39135,22.37425,-16.70568,-10.54021,19.98722,-3.26105,6.16526,5.32638
701,-8.21591,0.0,-0.0,-3.45949,0.0,-0.0,-10.26667,-8.71874,14.4079,17.0155,5.86871,-9.67529,-14.48766,-2.29618,-2e-05,-19.16774,-1.20522,0.0,34.56587,17.44255,6.54997,10.42029,4.25013,-9.81078,13.77047,15.91859,-27.23511,3.49745,-24.15379,23.77875,57.89568,3e-05,-99.01542,52.3727,-0.00447,84.91322,-8.46937,-1.37762,-4e-05,-20.25751,8.36468,-0.00136,4.39806,-2.34442,22.43334,-16.50252,-10.51744,20.06036,-3.403,6.14185,5.32053
702,-7.7009,0.0,-0.0,-3.23406,-0.0,0.0,-10.30411,-8.54303,14.15408,16.92543,6.07633,-9.56161,-14.64722,-2.33938,0.00022,-19.18197,-1.39598,1e-05,34.76342,17.59338,6.78002,10.6024,4.35999,-9.91277,13.9009,16.07295,-27.0569,4.1869,-24.11743,24.36075,57.85808,-0.00089,-99.12022,52.16814,-0.00163,83.99047,-8.54494,-1.16682,3e-05,-19.47788,7.55906,0.00161,4.57215,-2.25376,22.48545,-16.31554,-10.45131,20.14271,-3.39702,6.11175,5.23874
703,-7.95314,0.0,0.0,-3.42672,0.0,0.0,-10.12594,-8.44773,14.10665,17.0224,6.14392,-9.4183,-14.84175,-2.46408,0.00032,-19.21419,-1.49707,2e-05,35.06087,17.74304,6.8697,10.86971,4.40903,-9.99819,14.10008,16.14756,-26.94721,4.8201,-24.12543,24.97102,57.72815,-0.00183,-99.68929,52.02325,0.00145,84.58075,-8.66263,-1.18636,0.00054,-18.28402,7.57282,0.01011,4.6893,-2.20296,22.54182,-16.18755,-10.42392,20.21464,-3.26705,6.09062,5.11803
704,-8.72938,0.0,0.0,-3.82241,-0.0,0.0,-9.81531,-8.3985,14.17181,17.2414,6.17612,-9.32243,-15.03222,-2.59491,0.00015,-19.26651,-1.49485,3e-05,35.3418,17.83348,6.86182,11.11971,4.38031,-10.03752,14.37036,16.09461,-26.84924,5.33501,-24.23532,25.5261,57.52728,-0.0008,-100.28239,51.97786,0.00179,86.08685,-8.68266,-1.39051,0.00025,-17.14571,8.04905,0.00812,4.75881,-2.20046,22.6344,-16.1055,-10.45455,20.30344,-3.16177,6.09213,5.01075
705,-9.57064,0.0,0.0,-4.05738,-0.0,-0.0,-9.47319,-8.37751,14.25869,17.45808,6.30945,-9.36446,-15.22094,-2.67185,-3e-05,-19.34598,-1.43123,3e-05,35.51952,17.85337,6.81302,11.26515,4.31089,-10.02152,14.59855,15.98478,-26.72371,5.7713,-24.36378,25.97137,57.36884,0.00064,-100.36191,51.92671,0.00045,87.07119,-8.59743,-1.56543,-0.00033,-16.56019,8.20124,0.00155,4.79751,-2.19181,22.74442,-16.05146,-10.48561,20.41105,-3.19461,6.10475,4.93174
706,-10.07984,-0.0,-0.0,-4.00401,-0.0,-0.0,-9.20542,-8.34753,14.28549,17.58252,6.42307,-9.55726,-15.43358,-2.69404,-6e-05,-19.45913,-1.33676,-0.0,35.64873,17.81768,6.79177,11.34649,4.23011,-9.95607,14.66963,15.92715,-26.62987,6.20619,-24.36144,26.3021,57.36949,-0.00054,-99.83495,51.72651,-0.00522,86.64442,-8.56573,-1.61246,-0.00047,-16.69629,7.59246,0.00575,4.81231,-2.15143,22.77268,-16.0302,-10.45791,20.45249,-3.31675,6.08801,4.86576
707,-9.91185,0.0,-0.0,-3.76565,-0.0,1e-05,-9.15118,-8.2312,14.12358,17.60989,6.28543,-9.77628,-15.67172,-2.68939,-0.0,-19.60308,-1.22263,-0.00011,35.81013,17.7505,6.93103,11.44322,4.12989,-9.87315,14.59096,15.97596,-26.66697,6.68959,-24.17779,26.61035,57.55217,-0.00238,-99.02596,51.36839,-0.00985,85.04247,-8.71612,-1.67315,0.00011,-17.45881,6.57401,0.01001,4.81227,-2.12049,22.62139,-16.04855,-10.37519,20.32005,-3.43099,6.00586,4.805
708,-9.01099,0.0,0.0,-3.48047,-0.0,-0.0,-9.35213,-8.02572,13.75946,17.60326,5.94216,-9.90236,-15.89694,-2.66519,-3e-05,-19.77214,-1.09522,-0.00026,35.93088,17.65311,7.31065,11.51073,3.97098,-9.77826,14.46771,16.10108,-26.84559,7.2239,-23.90419,27.01953,57.81394,-0.00173,-98.38506,50.98928,-0.00599,83.29153,-8.99888,-1.8654,0.00076,-18.60733,5.8721,0.00109,4.80623,-2.14234,22.31038,-16.09737,-10.28482,20.01696,-3.57138,5.85552,4.75393
709,-7.74706,0.0,-0.0,-3.19395,0.0,0.0,-9.66804,-7.79432,13.34592,17.61129,5.67847,-9.93117,-16.08603,-2.60738,-0.00017,-19.96217,-0.9872,-0.00024,35.90617,17.51238,7.85174,11.47244,3.74113,-9.67391,14.38429,16.22195,-27.05032,7.78371,-23.66532,27.57975,57.9971,-0.00026,-98.25534,50.72439,5e-05,82.22693,-9.25758,-2.05485,0.00067,-19.78262,5.77778,-0.00936,4.79235,-2.19748,21.99334,-16.15634,-10.22317,19.69623,-3.81529,5.67728,4.70523
710,-6.65245,-0.0,0.0,-2.88603,0.0,-0.0,-9.87061,-7.57108,13.01961,17.63282,5.63892,-9.90052,-16.30907,-2.5357,-0.00016,-20.16711,-0.96131,1e-05,35.84962,17.37614,8.36081,11.41072,3.52148,-9.64015,14.34733,16.28068,-27.17465,8.3501,-23.51367,28.23355,58.03228,-0.00025,-98.66685,50.58023,0.00187,81.84899,-9.34682,-2.0497,0.00132,-20.48509,5.95291,-0.00936,4.76474,-2.24279,21.84251,-16.2064,-10.21157,19.53675,-4.09645,5.5578,4.64398
711,-6.11951,0.0,0.0,-2.58341,-0.0,-0.0,-9.79688,-7.39541,12.81326,17.66393,5.74255,-9.78857,-16.68903,-2.51881,0.00037,-20.38298,-1.04877,0.00031,35.99837,17.33839,8.65882,11.48285,3.41524,-9.79383,14.31905,16.27821,-27.27005,8.92305,-23.43237,28.85743,57.99271,-0.00046,-99.34216,50.45683,0.00244,81.96507,-9.24892,-1.8526,0.00295,-20.23781,6.08751,-0.00283,4.71918,-2.2881,21.90667,-16.2466,-10.27681,19.58111,-4.27399,5.5751,4.58701
712,-6.21442,0.0,0.0,-2.37059,0.0,0.0,-9.4712,-7.33424,12.6885,17.70898,5.90495,-9.52682,-17.25438,-2.59275,0.00088,-20.6083,-1.20292,0.00034,36.42344,17.40291,8.70873,11.71694,3.40599,-10.17649,14.2637,16.23262,-27.48605,9.49163,-23.39007,29.34619,57.97766,-0.00032,-99.91247,50.27635,0.004,82.68426,-9.19508,-1.54047,0.00212,-19.06923,6.31616,0.00659,4.65805,-2.39003,22.07547,-16.29251,-10.43233,19.70415,-4.30754,5.71424,4.57663
713,-6.51771,0.0,0.0,-2.23957,0.0,-0.0,-9.12466,-7.33841,12.50745,17.73989,6.09533,-9.09591,-17.89828,-2.69974,0.00035,-20.82356,-1.34287,0.0001,36.99457,17.46742,8.66531,12.00969,3.38626,-10.73588,14.17976,16.15002,-27.89996,10.00203,-23.35808,29.67546,57.97643,-0.0002,-100.10535,50.05853,0.00336,83.75119,-9.56884,-1.07612,-0.0039,-17.75236,6.74052,0.01085,4.60367,-2.57795,22.1727,-16.34673,-10.64256,19.72808,-4.25499,5.88341,4.62722
714,-6.45476,0.0,0.0,-2.07478,0.0,-0.0,-8.98501,-7.23246,12.14237,17.72434,6.22944,-8.60301,-18.50007,-2.77319,-0.00048,-20.98676,-1.41908,-0.00011,37.53442,17.47135,8.71189,12.23421,3.31,-11.34428,14.10877,16.05584,-28.46382,10.40289,-23.29369,29.89806,57.88155,0.0006,-99.91539,49.86046,0.00029,84.41998,-10.45458,-0.42263,-0.00957,-17.21419,6.97428,0.01066,4.58495,-2.80678,22.09751,-16.39074,-10.82937,19.57337,-4.20069,6.00879,4.71379
715,-6.19976,0.0,0.0,-1.93403,0.0,0.0,-8.95461,-7.01015,11.78123,17.7217,6.23377,-8.27995,-19.03341,-2.85443,-0.00026,-21.07728,-1.4151,-0.00015,37.93324,17.4527,8.76518,12.31222,3.22441,-11.77474,14.08858,16.00039,-29.07398,10.73022,-23.15523,30.09277,57.62981,0.00131,-99.60863,49.7038,-0.00115,84.48167,-11.39486,0.2282,-0.0067,-17.68819,6.70687,0.01209,4.60829,-2.99267,21.90394,-16.4051,-10.93367,19.32176,-4.22453,6.07615,4.80909
716,-6.40038,0.0,-0.0,-2.0048,0.0,-0.0,-8.7461,-6.8737,11.72231,17.83432,6.18638,-8.29781,-19.55721,-3.01426,0.0004,-21.12643,-1.34426,-9e-05,38.20289,17.46576,8.6215,12.2592,3.17902,-11.85153,14.10242,16.01291,-29.66765,11.08041,-22.93905,30.29785,57.28846,0.00038,-99.51099,49.60064,-0.00061,84.74574,-11.88229,0.51374,-0.0012,-18.6878,6.47136,0.00242,4.65554,-3.09811,21.7274,-16.38764,-10.96882,19.11561,-4.35146,6.10713,4.913
717,-6.81547,0.0,0.0,-2.2135,0.0,-0.0,-8.35914,-6.85113,11.82514,18.05575,6.20705,-8.59059,-20.1346,-3.20747,0.00014,-21.17748,-1.23961,-5e-05,38.42506,17.517,8.38146,12.13745,3.16297,-11.66403,14.1081,16.06928,-30.25607,11.48851,-22.67566,30.49366,56.96884,-0.00114,-99.80695,49.58111,-0.00161,86.15266,-11.92424,0.29571,-9e-05,-19.62538,7.06541,-0.0101,4.69247,-3.1681,21.62074,-16.36904,-10.99588,18.98876,-4.54901,6.12878,5.03426
718,-6.68646,0.0,0.0,-2.40671,0.0,-0.0,-8.02511,-6.75969,11.73271,18.3159,6.2363,-9.00407,-20.77026,-3.35821,-0.00057,-21.22898,-1.09912,1e-05,38.66642,17.57641,8.26501,11.98578,3.13737,-11.42072,14.10279,16.10346,-30.85236,11.90457,-22.40709,30.67517,56.69387,-0.00106,-100.31383,49.65441,-0.00374,88.60366,-11.89571,-0.14865,-0.00023,-20.12435,8.35046,-0.00635,4.70361,-3.26993,21.51475,-16.37832,-11.05286,18.85086,-4.77221,6.16519,5.14916
719,-6.1625,-0.0,-0.0,-2.70517,0.0,0.0,-7.78639,-6.57297,11.42921,18.60424,6.09244,-9.45875,-21.43435,-3.49462,-0.00044,-21.24469,-0.9182,0.00015,38.99054,17.63045,8.21941,11.85005,3.10982,-11.22028,14.10523,16.0582,-31.39586,12.28344,-22.17512,30.88081,56.40908,0.00061,-100.54716,49.7865,-0.00304,90.92031,-11.99215,-0.46724,-0.00035,-20.01622,9.39395,0.00139,4.7399,-3.40219,21.3334,-16.37388,-11.11109,18.63023,-4.95965,6.23845,5.22755
720,-5.97111,0.0,0.0,-3.14793,0.0,0.0,-7.50827,-6.48743,11.12146,18.90775,5.74695,-9.86201,-22.12444,-3.6758,0.00035,-21.21507,-0.77062,0.00018,39.42233,17.7035,8.11592,11.76365,3.12548,-11.11534,14.06483,15.94727,-31.79876,12.63238,-21.9959,31.10671,56.0966,0.00097,-100.25568,49.91957,-0.00035,91.89687,-12.03781,-0.54982,-0.0002,-19.42085,9.53649,-0.00205,4.88059,-3.47069,21.06018,-16.27154,-11.07665,18.34583,-5.07185,6.34763,5.29921
721,-6.16368,0.0,0.0,-3.35969,0.0,-0.0,-7.17055,-6.58092,10.87072,19.12737,5.39601,-10.07787,-22.87097,-3.89847,0.00101,-21.16686,-0.7474,6e-05,39.87727,17.8269,8.02698,11.66897,3.1908,-11.19139,13.8636,15.85801,-32.06709,12.98413,-21.84082,31.29553,55.77636,-0.00192,-99.66936,50.00346,0.00069,91.24347,-11.84115,-0.43067,0.00094,-18.72463,8.7998,-0.00651,5.15656,-3.37067,20.71121,-16.0307,-10.85758,18.05174,-5.15344,6.46389,5.42427
722,-6.14507,0.0,0.0,-3.01513,-0.0,-0.0,-6.88477,-6.6165,10.58223,19.17607,5.22769,-10.0551,-23.69835,-4.1147,0.00081,-21.10568,-0.84239,-8e-05,40.2693,17.98847,8.07269,11.48756,3.25966,-11.49554,13.45444,15.86547,-32.32874,13.35286,-21.67533,31.45136,55.38552,-0.00447,-99.08621,50.05968,0.00108,89.67373,-11.51604,-0.19549,0.00162,-18.29244,7.6988,-0.00288,5.54167,-3.11107,20.33893,-15.67215,-10.48113,17.79465,-5.25493,6.57365,5.5914
723,-5.60888,0.0,-0.0,-2.33463,-0.0,0.0,-6.69435,-6.36433,10.18179,19.09992,5.23084,-9.90057,-24.59805,-4.2614,-0.00049,-20.99213,-0.96156,-0.00013,40.616,18.11349,8.21313,11.21014,3.28621,-11.97376,12.92056,15.96086,-32.71674,13.70351,-21.52093,31.65911,54.79823,-0.00096,-98.41795,50.20398,0.00139,88.28863,-11.26147,-0.03006,0.00084,-18.17503,6.9383,0.00202,5.96154,-2.83823,20.04568,-15.26872,-10.12078,17.61757,-5.35577,6.70212,5.71694
724,-4.83792,0.0,-0.0,-1.82691,0.0,0.0,-6.50738,-5.96267,9.72825,19.01823,5.28765,-9.81615,-25.53254,-4.31746,-0.00134,-20.78602,-1.02287,1e-05,40.96297,18.1522,8.28483,10.85474,3.2834,-12.47836,12.35924,16.09425,-33.25006,13.99712,-21.43167,31.96665,54.0108,0.00782,-97.33459,50.50944,-0.00139,87.90498,-11.02644,-0.06736,-0.00063,-18.09708,6.92711,0.00507,6.31295,-2.7169,19.92444,-14.92364,-9.96384,17.54755,-5.43011,6.88329,5.77038
725,-4.2417,0.0,-0.0,-1.73766,0.0,-0.0,-6.22028,-5.67817,9.36943,18.99045,5.36728,-9.94596,-26.45571,-4.36469,-0.00022,-20.50235,-1.01458,0.00018,41.33422,18.16072,8.16594,10.46584,3.3112,-12.84568,11.79113,16.25013,-33.84223,14.27602,-21.39283,32.32388,53.16273,0.01283,-95.82309,50.86995,-0.00314,88.71494,-10.66387,-0.19147,-0.00104,-17.71266,7.45413,0.00655,6.54405,-2.80069,19.96344,-14.69337,-10.05604,17.5536,-5.47215,7.10944,5.83683
726,-3.86775,0.0,0.0,-1.85418,-0.0,0.0,-5.85032,-5.4537,9.10853,18.99983,5.53194,-10.23063,-27.32617,-4.48787,0.00109,-20.21575,-0.97121,0.00017,41.76543,18.20962,7.9652,10.15412,3.37366,-13.05183,11.19108,16.43239,-34.36348,14.60145,-21.30734,32.61936,52.33339,0.00817,-94.41872,51.12718,-9e-05,90.26625,-10.20248,-0.13488,0.00124,-16.86898,7.88941,-0.00051,6.68687,-3.00447,20.01314,-14.558,-10.26396,17.52559,-5.42704,7.31331,6.00558
727,-3.38637,0.0,-0.0,-1.76139,0.0,0.0,-5.52449,-5.02579,8.68057,19.00987,5.78159,-10.42761,-28.12417,-4.6236,0.00019,-19.98158,-0.94024,2e-05,42.27422,18.2768,8.01281,10.00049,3.39419,-13.28677,10.52908,16.62248,-34.68038,14.90448,-21.12133,32.75061,51.46183,-0.00501,-93.82626,51.31473,0.00124,91.86996,-9.72157,0.19967,0.0036,-15.72839,7.81651,-0.01125,6.77729,-3.18044,19.89358,-14.49303,-10.38467,17.34765,-5.21397,7.43091,6.25159
728,-2.62068,0.0,0.0,-1.3442,0.0,-0.0,-5.31002,-4.42238,7.93425,19.00587,5.98494,-10.39246,-28.86799,-4.67009,-0.00132,-19.75298,-0.95143,-6e-05,42.7805,18.31274,8.43308,9.90197,3.33518,-13.70795,9.79598,16.81488,-34.76781,15.04706,-20.89724,32.7227,50.49665,-0.01754,-94.29139,51.62409,-0.00157,93.14068,-9.20764,0.50219,0.00172,-14.71644,7.56175,-0.01081,6.82128,-3.23072,19.56603,-14.48969,-10.31278,17.01934,-4.87611,7.47264,6.49181
729,-1.87929,0.0,0.0,-0.95119,-0.0,-0.0,-5.10966,-4.01533,7.18221,19.01888,6.00323,-10.29679,-29.61292,-4.68785,-0.00083,-19.42706,-0.97794,0.0001,43.15046,18.31687,8.8547,9.62586,3.25826,-14.17149,9.0277,17.05862,-34.82363,15.01194,-20.72374,32.64292,49.49449,-0.01581,-95.26024,52.14864,-0.00301,94.0165,-8.68135,0.36722,-0.00242,-14.19062,7.78218,-0.00516,6.86583,-3.15697,19.15577,-14.48614,-10.09507,16.65891,-4.59879,7.49868,6.69209
730,-1.51978,0.0,-0.0,-0.90731,-0.0,0.0,-4.78313,-4.04621,6.79267,19.0928,5.8436,-10.39479,-30.43235,-4.78942,0.00057,-18.9736,-0.98256,0.0002,43.38044,18.28302,8.86448,9.08211,3.23345,-14.44316,8.26411,17.40957,-35.1241,14.88669,-20.61971,32.55945,48.55928,-0.00076,-95.73796,52.80201,0.00015,94.41539,-8.32456,-0.12981,-0.0025,-14.05179,8.47624,-0.00331,6.98858,-3.02089,18.7862,-14.39514,-9.83389,16.36032,-4.4731,7.54705,6.84873
731,-1.5347,0.0,-0.0,-1.13218,0.0,0.0,-4.28923,-4.38202,6.73247,19.23353,5.63051,-10.73144,-31.35143,-4.95321,0.00049,-18.44483,-0.97916,4e-05,43.60779,18.14418,8.48917,8.40334,3.24597,-14.51607,7.47754,17.85775,-35.69439,14.72134,-20.55102,32.41299,47.7787,0.01055,-95.16506,53.41394,0.00369,94.19233,-8.45322,-0.51713,-0.00114,-13.8991,8.8723,-0.00451,7.17701,-2.88464,18.44586,-14.23482,-9.58302,16.08969,-4.37171,7.60943,6.93237
732,-1.73071,0.0,-0.0,-1.37353,0.0,0.0,-3.68393,-4.73077,6.78848,19.41374,5.47842,-11.21507,-32.29213,-5.10748,-0.00072,-17.86663,-0.97643,0.0002,43.88654,17.82681,8.00394,7.71196,3.21086,-14.53491,6.60089,18.33303,-36.22281,14.52807,-20.48395,32.16899,47.20281,0.00816,-93.94657,53.80558,0.00203,93.42083,-9.25122,-0.51571,-0.00375,-13.60345,8.42015,-0.00578,7.32363,-2.79774,18.05099,-14.12458,-9.35804,15.74969,-4.15322,7.65772,6.92079
733,-1.93542,0.0,-0.0,-1.49437,-0.0,0.0,-3.04696,-4.85317,6.87445,19.58867,5.45903,-11.73302,-33.14605,-5.26878,-0.001,-17.22356,-0.95198,0.00063,44.11834,17.36685,7.60686,6.99574,3.07177,-14.60441,5.60902,18.77911,-36.33738,14.33521,-20.41111,31.84909,46.84662,-1e-05,-93.06984,53.91895,-0.00169,92.53522,-10.42347,-0.20954,-0.0057,-13.37991,7.49822,-0.00226,7.36976,-2.80462,17.57772,-14.12756,-9.1914,15.30141,-3.83966,7.6765,6.86969
734,-2.00631,0.0,-0.0,-1.4862,0.0,-0.0,-2.43493,-4.65643,7.00083,19.70813,5.59825,-12.16338,-33.88617,-5.53475,0.00052,-16.55353,-0.92795,0.00049,44.21994,16.93913,7.36614,6.23811,2.88841,-14.721,4.48808,19.22587,-35.88246,14.14631,-20.34799,31.44817,46.76083,-0.00234,-93.17484,53.91876,-0.0023,92.03073,-11.29962,0.25508,-0.00238,-13.35589,6.84647,0.00136,7.35757,-2.89384,17.05686,-14.19697,-9.08352,14.7781,-3.52557,7.66232,6.89883
735,-1.86656,0.0,0.0,-1.37354,0.0,0.0,-1.87756,-4.21524,7.13217,19.73477,5.83809,-12.45303,-34.55672,-5.9503,0.00212,-15.95523,-0.9704,-0.00013,44.23011,16.69327,7.30512,5.51606,2.77059,-14.79784,3.17407,19.7828,-34.95828,13.91161,-20.29452,30.97083,47.0475,0.00013,-93.94004,54.02653,-0.00175,91.99938,-11.4038,0.79948,0.00365,-13.49587,6.6605,0.00179,7.32711,-2.94879,16.48597,-14.28554,-8.92488,14.22085,-3.21215,7.58828,7.06995
736,-1.53846,0.0,0.0,-1.13438,-0.0,0.0,-1.37852,-3.6784,7.14692,19.66125,6.05152,-12.684,-35.17879,-6.38826,0.00165,-15.48255,-1.08593,-0.00029,44.22119,16.55395,7.47138,4.9044,2.71369,-14.76177,1.63627,20.51096,-33.79933,13.57585,-20.22244,30.50602,47.68483,-0.00188,-94.54704,54.30682,-0.0026,92.22693,-10.82864,1.31443,0.00773,-13.81075,6.66692,0.00075,7.26269,-2.84506,15.83872,-14.40392,-8.59008,13.65161,-2.81278,7.40074,7.29012
737,-1.13385,0.0,0.0,-0.75675,0.0,-0.0,-0.88734,-3.21554,7.00561,19.52506,6.11172,-13.00087,-35.71145,-6.67039,4e-05,-15.11725,-1.19145,-5e-05,44.16756,16.29269,7.82764,4.35627,2.59719,-14.59977,-0.00581,21.31893,-32.63018,13.12164,-20.14279,30.13569,48.4268,-0.0066,-94.6347,54.72273,-0.00299,92.50871,-10.04936,1.68371,0.0094,-14.26578,6.69833,-0.00051,7.16698,-2.60005,15.12587,-14.54953,-8.09925,13.07443,-2.30957,7.09236,7.40092
738,-0.8088,0.0,0.0,-0.3209,0.0,-0.0,-0.31029,-2.97869,6.82892,19.37889,5.97889,-13.4503,-36.11647,-6.75304,-0.00075,-14.88179,-1.22164,-0.0005,43.98811,15.79511,8.17818,3.78621,2.35663,-14.35891,-1.53081,22.06249,-31.57914,12.57133,-20.13473,29.80234,49.05213,-0.00693,-94.44741,55.28193,0.00124,92.51137,-9.4129,1.74626,0.00689,-14.61528,6.76399,-0.00091,7.10488,-2.33876,14.37646,-14.66178,-7.5792,12.47012,-1.80308,6.75234,7.36701
739,-0.66284,-0.0,-0.0,0.0581,0.0,0.0,0.40677,-2.97523,6.6708,19.23587,5.74393,-13.94799,-36.43709,-6.67391,-0.00099,-14.90717,-1.21493,-0.0019,43.68604,15.13982,8.37124,3.2231,2.05539,-14.11996,-2.7942,22.71137,-30.62098,11.96391,-20.24036,29.34675,49.64885,0.00171,-94.51562,56.01571,0.0067,91.98195,-8.77046,1.15158,-0.00916,-14.58276,6.87019,0.00011,7.12114,-2.12792,13.59064,-14.69867,-7.0919,11.81392,-1.39088,6.4877,7.29738
740,-0.6498,0.0,0.0,0.32604,-0.0,-0.0,1.21711,-3.07035,6.43492,19.07355,5.5619,-14.41468,-36.76253,-6.45793,-0.00132,-15.34711,-1.26754,-0.00246,43.33929,14.44193,8.4437,2.78356,1.77042,-13.88596,-3.81466,23.33902,-29.65132,11.34073,-20.38401,28.66429,50.46514,0.01688,-95.31466,56.87171,0.00559,91.21109,-7.75337,-0.32073,-0.03392,-14.18622,7.00875,0.00154,7.1485,-1.93386,12.7578,-14.72589,-6.60205,11.10856,-1.07999,6.30711,7.29285
741,-0.60274,0.0,0.0,0.53014,-0.0,-0.0,1.99448,-3.19325,6.13486,18.87784,5.55718,-14.82974,-37.0973,-6.19531,-0.00098,-16.28647,-1.44839,0.00016,42.97452,13.7305,8.4396,2.56106,1.48135,-13.55546,-4.68021,23.99061,-28.72676,10.7501,-20.46903,27.79089,51.49869,0.02028,-96.65877,57.7016,0.00088,90.62544,-6.5147,-2.10974,-0.03421,-13.75349,7.07012,0.00205,7.05696,-1.73688,11.91334,-14.8694,-6.10446,10.39454,-0.81791,6.12976,7.34942
742,-0.3866,0.0,0.0,0.77907,0.0,0.0,2.61538,-3.4181,5.98199,18.64132,5.74393,-15.16113,-37.32464,-6.0588,-0.00012,-17.76569,-1.75632,0.00615,42.54314,12.96988,8.23933,2.61418,1.10314,-13.07375,-5.44713,24.62823,-28.06419,10.22604,-20.51607,26.85773,52.4298,0.00656,-97.7401,58.36962,-0.00099,90.27711,-5.81913,-3.05059,-0.01631,-13.53772,6.7653,0.00176,6.79579,-1.61194,11.13774,-15.1774,-5.69879,9.71859,-0.5521,5.89284,7.3911
743,-0.04978,0.0,0.0,1.1382,0.0,0.0,3.05028,-3.74186,6.08548,18.29224,5.97588,-15.34506,-37.3325,-6.12091,-9e-05,-19.83441,-2.1126,0.01132,42.01916,12.13082,7.74208,3.0204,0.58046,-12.52731,-6.13229,25.18656,-27.70018,9.75995,-20.63045,26.00534,52.99246,-0.00431,-98.06451,58.85339,-0.00103,90.1249,-6.12431,-2.55735,-0.01567,-13.42394,5.95158,-0.00028,6.43823,-1.65572,10.46747,-15.57831,-5.48844,9.07791,-0.23992,5.60141,7.34832
744,0.21724,-0.0,0.0,1.69786,-0.0,0.0,3.38847,-3.96085,6.31215,17.6045,6.06182,-15.38709,-37.12374,-6.27071,-0.00062,-22.54604,-2.37321,0.00729,41.43357,11.23783,7.06256,3.86217,-0.0723,-11.98131,-6.72173,25.63627,-27.36397,9.32439,-20.84667,25.32224,53.21751,-0.0044,-97.96433,59.22401,-0.00178,90.31615,-6.9754,-1.19451,-0.01468,-13.15812,4.98033,-0.00225,6.0798,-1.84579,9.83317,-15.98032,-5.42673,8.41591,0.14302,5.30145,7.21577
745,0.31813,0.0,0.0,2.7994,0.0,-0.0,3.74392,-3.96412,6.54868,16.16881,5.9868,-15.45799,-36.78567,-6.36388,-0.00088,-25.9391,-2.38612,-0.00919,40.81142,10.36228,6.36264,5.16486,-0.77705,-11.29523,-7.16886,25.99881,-26.79204,8.90567,-21.07469,24.80943,53.26304,-0.00138,-98.12337,59.55527,-0.00215,90.88219,-7.63575,0.08637,-0.0019,-12.77264,4.40016,-0.00042,5.73625,-2.03362,9.13496,-16.36781,-5.33844,7.6955,0.56073,5.05984,7.04307
746,0.36122,0.0,0.0,4.71392,-0.0,-0.0,4.13093,-3.92529,6.82293,13.52914,5.9405,-15.71183,-36.39887,-6.31443,-0.00057,-30.02961,-2.13127,-0.02363,40.1626,9.55033,5.69547,6.92596,-1.4375,-10.33442,-7.41529,26.33108,-26.02437,8.51025,-21.20997,24.40944,53.19958,-0.00044,-98.76693,59.87711,-0.00012,91.40342,-7.93695,0.75072,0.00603,-12.59676,4.39549,0.00079,5.36924,-2.09225,8.38713,-16.77324,-5.11131,6.97812,0.9453,4.92818,6.86989
747,0.45371,0.0,0.0,6.73221,0.0,0.0,4.46962,-3.99959,7.07551,9.52575,6.03422,-15.96931,-36.00116,-6.04242,0.00034,-34.76991,-1.81296,-0.01321,39.50842,8.76607,5.14805,9.15186,-2.01854,-9.32195,-7.45266,26.68206,-25.28293,8.19134,-21.24378,24.07999,53.0602,-0.00071,-99.52479,60.16957,0.00231,91.38521,-8.16099,0.75817,0.00612,-12.81712,4.75837,-0.0004,4.9824,-2.0025,7.73008,-17.18631,-4.78055,6.40166,1.26198,4.88198,6.68642
748,0.49416,0.0,0.0,7.25209,0.0,-0.0,4.70985,-4.06687,7.0536,4.57038,6.04086,-15.76292,-35.61906,-5.49576,0.00106,-40.02781,-1.70412,0.0194,38.85577,7.94897,4.90696,11.79863,-2.56557,-8.69002,-7.36712,27.04583,-24.66148,8.04997,-21.2466,23.80364,52.97422,-0.0011,-99.97147,60.36816,0.00196,90.90753,-8.42593,0.37504,0.00324,-13.20722,5.26975,-0.00015,4.6344,-1.79998,7.24784,-17.54804,-4.41109,6.03059,1.49975,4.83927,6.45284
749,0.31839,-0.0,0.0,5.48893,0.0,0.0,4.88677,-3.98673,6.5985,-0.50244,5.60787,-14.73519,-35.27196,-4.77183,0.00081,-45.65594,-1.81535,0.03524,38.16705,7.12399,5.01863,14.74076,-3.12243,-8.5229,-7.25054,27.38402,-24.10944,8.13341,-21.28567,23.55609,53.09035,-0.00237,-99.95947,60.43618,0.00037,90.538,-8.63621,-0.07636,0.0008,-13.46127,5.86017,0.00111,4.36426,-1.52849,6.8577,-17.82589,-4.01244,5.77131,1.63937,4.76428,6.13169
750,-0.01544,0.0,0.0,2.49899,-0.0,-0.0,5.04444,-3.91865,5.92665,-4.81279,4.73933,-12.84085,-34.92511,-4.10848,8e-05,-51.56217,-1.82344,0.01101,37.37107,6.40387,5.21492,17.83201,-3.64351,-8.40397,-7.08032,27.68783,-23.61326,8.36786,-21.38183,23.33417,53.39049,-0.00226,-99.70934,60.4411,-0.00037,90.6682,-8.77992,-0.46094,0.00097,-13.61033,6.47095,0.00046,4.15635,-1.24545,6.46535,-18.04136,-3.6022,5.51449,1.65007,4.72085,5.69191
751,-0.26714,0.0,0.0,-0.02505,0.0,0.0,5.16493,-4.08115,5.38681,-7.67293,3.86461,-10.17388,-34.51191,-3.66536,-0.00024,-57.68465,-1.46881,-0.02134,36.44175,5.87507,5.18142,21.00318,-4.03417,-7.9906,-6.78028,27.98974,-23.19593,8.6641,-21.52554,23.18268,53.71228,0.00036,-99.6973,60.4843,-0.00047,91.13244,-8.8944,-0.72969,0.00231,-13.84126,6.96771,-0.00069,3.9715,-1.00643,6.12185,-18.23309,-3.25113,5.28642,1.53255,4.80744,5.1161
752,-0.28291,0.0,0.0,-1.25834,0.0,-0.0,5.20937,-4.35089,5.01663,-8.76837,3.41963,-6.94586,-34.04301,-3.39485,-2e-05,-63.91421,-0.85231,-0.02463,35.46659,5.54239,4.90849,24.28682,-4.27461,-7.45312,-6.33797,28.33349,-22.89195,9.03992,-21.71406,23.15362,53.92523,0.00194,-100.09956,60.5715,-1e-05,91.56716,-9.03314,-0.68743,0.00141,-14.09281,7.24263,-9e-05,3.77269,-0.84776,5.91608,-18.43573,-3.02648,5.1557,1.35526,5.07545,4.43978
753,-0.07687,0.0,0.0,-1.36279,-0.0,0.0,5.17168,-4.44801,4.57036,-8.3046,3.5136,-3.72615,-33.65823,-3.16203,-4e-05,-70.07333,-0.20927,-0.0063,34.5807,5.3977,4.62181,27.7239,-4.42915,-7.15656,-5.79529,28.74178,-22.80165,9.58894,-21.96248,23.30409,54.02155,0.00106,-100.42315,60.62972,0.00042,91.91127,-9.43095,-0.22232,-0.00328,-14.18407,7.36699,0.00055,3.51576,-0.80704,5.81568,-18.69525,-2.95083,5.07806,1.18997,5.52693,3.74958
754,0.27097,0.0,0.0,-0.908,-0.0,-0.0,5.07662,-4.36095,3.88495,-6.85547,3.94653,-1.28941,-33.52118,-2.87519,-0.00091,-76.00645,0.37392,0.0078,33.84852,5.44826,4.50055,31.29667,-4.57305,-7.22047,-5.2325,29.19777,-22.93369,10.37611,-22.27682,23.73296,54.12256,-0.0017,-100.0091,60.6371,0.0004,92.18925,-10.28676,0.37308,-0.00531,-14.22059,7.55422,-0.00084,3.14043,-0.90894,5.72948,-19.07545,-3.01258,4.95957,1.03679,6.11968,3.10263
755,0.6819,0.0,0.0,-0.39877,-0.0,0.0,4.96575,-4.31745,3.05939,-5.01796,4.44645,-0.00813,-33.6334,-2.51687,-0.00146,-81.67031,0.94464,0.00598,33.19462,5.63619,4.54502,34.95612,-4.80047,-7.48791,-4.76065,29.66872,-23.05618,11.39124,-22.63985,24.49691,54.38209,-0.00375,-98.95348,60.65905,0.00038,92.21275,-11.33123,0.6959,-0.0011,-14.45786,7.87944,-0.0032,2.61995,-1.09229,5.63516,-19.60271,-3.14665,4.80271,0.83068,6.73539,2.47489
756,1.05137,-0.0,-0.0,-0.10272,0.0,-0.0,4.89494,-4.46115,2.33308,-3.23817,4.91472,0.47941,-33.78893,-2.14533,-0.00031,-87.07856,1.57956,-0.00878,32.40989,5.82514,4.62522,38.64064,-5.23008,-7.69241,-4.39105,30.15357,-22.97309,12.58318,-23.04374,25.46347,54.79469,-0.00114,-98.04764,60.73157,0.00052,91.8549,-11.97694,0.72813,0.00188,-14.82018,8.08157,-0.00334,2.04246,-1.22611,5.54001,-20.18601,-3.23455,4.66382,0.4661,7.22255,1.83362
757,1.24488,0.0,0.0,-0.12614,0.0,-0.0,4.93285,-4.69633,1.86178,-1.79234,5.39768,0.93527,-33.75517,-1.86284,0.00125,-92.18555,2.29095,-0.02082,31.29953,5.93585,4.59183,42.29102,-5.88998,-7.69248,-3.9728,30.68092,-22.79368,13.91849,-23.51214,26.358,55.19871,0.00115,-97.67201,60.78136,0.00022,91.34343,-11.92578,0.8072,0.00302,-14.95361,7.84902,-0.00331,1.59973,-1.25567,5.40105,-20.6336,-3.20936,4.52381,-0.1574,7.53688,1.23884
758,1.29097,-0.0,-0.0,-0.4541,0.0,0.0,5.10676,-4.81589,1.64346,-0.70815,5.90663,1.85381,-33.45407,-1.7841,0.0007,-96.88754,2.92528,-0.0133,29.84332,6.03915,4.28688,45.8759,-6.64742,-7.68654,-3.39864,31.24047,-22.66117,15.3856,-24.07412,27.01485,55.53353,-0.00052,-97.51994,60.74325,5e-05,91.15848,-11.40889,1.19512,0.00425,-14.69413,7.3243,-0.00336,1.44651,-1.25833,5.18788,-20.79312,-3.13116,4.32524,-1.07084,7.79438,0.79822
759,1.45342,0.0,0.0,-0.90164,-0.0,0.0,5.35375,-4.75661,1.60538,0.3128,6.49692,3.11975,-32.93345,-1.97917,-0.00165,-101.11428,3.22925,0.00892,28.14599,6.24767,3.56458,49.36185,-7.34683,-8.07658,-2.76385,31.75576,-22.44215,16.95518,-24.72708,27.51588,55.93517,-0.00116,-97.42274,60.6691,-0.00079,91.49214,-10.82541,1.83143,0.00298,-14.18845,6.93974,-0.0014,1.56502,-1.3088,4.96223,-20.68195,-3.09249,4.09699,-2.23142,8.13598,0.50955
760,1.82295,0.0,0.0,-1.1684,-0.0,-0.0,5.6124,-4.64592,1.62678,1.67763,7.37129,4.32767,-32.25214,-2.34457,-0.00252,-104.87012,3.1233,0.02111,26.30383,6.55263,2.49829,52.70895,-8.00651,-9.03078,-2.17014,32.17962,-22.01562,18.59524,-25.42542,28.05904,56.49866,0.00335,-97.69267,60.59684,-0.00308,91.95728,-10.37806,2.42127,-0.00048,-13.67978,6.75743,-0.00083,1.78918,-1.3705,4.80116,-20.46334,-3.08861,3.92433,-3.53927,8.59201,0.21197
761,2.10285,0.0,0.0,-1.02596,0.0,-0.0,5.93033,-4.59567,1.56331,3.43607,8.58595,5.28323,-31.46735,-2.64554,-0.00075,-108.19679,2.84245,0.01011,24.37907,6.86449,1.41928,55.93196,-8.79787,-10.30529,-1.48403,32.56958,-21.68972,20.31734,-26.11755,28.75449,57.067,0.0067,-98.53905,60.40868,-0.00425,92.23389,-10.1733,2.67484,-0.00269,-13.3847,6.39171,-0.0008,1.95151,-1.37433,4.68501,-20.30406,-3.04818,3.81526,-4.8627,9.13307,-0.2447
762,2.05155,0.0,0.0,-0.47728,-0.0,-0.0,6.39739,-4.59747,1.36176,5.16063,9.74531,6.01497,-30.67125,-2.7706,0.0008,-111.12268,2.66253,-0.00737,22.4087,7.21507,0.6214,59.11472,-9.79655,-11.58813,-0.46276,33.00273,-21.99983,22.13901,-26.79113,29.5228,57.34983,0.00451,-99.4592,59.9395,0.0005,92.59068,-10.47417,2.57956,-0.00099,-13.43396,5.48117,0.003,1.98123,-1.34737,4.53584,-20.27752,-2.96675,3.68727,-6.13082,9.79555,-0.79355
763,1.80071,0.0,0.0,0.29993,0.0,0.0,7.0123,-4.60408,1.04667,6.42684,10.27423,6.43897,-29.95957,-2.77807,0.00067,-113.66007,2.52345,-0.00828,20.38587,7.72487,0.17524,62.34652,-10.88634,-12.87551,0.93526,33.46194,-23.144,24.01884,-27.46329,30.16354,57.22792,0.00389,-99.6929,59.17762,0.01026,93.43794,-11.60372,2.36574,0.00267,-13.79205,4.06286,0.00721,1.8959,-1.38782,4.31772,-20.3688,-2.92157,3.46986,-7.39344,10.63317,-1.2261
764,1.67914,-0.0,0.0,1.19287,0.0,0.0,7.64704,-4.61153,0.65994,7.25152,10.09086,6.31429,-29.3746,-2.71019,0.0003,-115.825,2.11799,0.00516,18.28835,8.32462,-0.07408,65.63877,-11.98858,-14.33105,2.47697,33.88902,-24.76482,25.89492,-28.1457,30.59361,56.86467,0.00263,-99.36306,58.31303,0.01328,94.70833,-13.50168,2.21466,0.00389,-14.31707,2.61516,0.00561,1.74643,-1.51003,4.0362,-20.52683,-2.92802,3.16271,-8.74154,11.55811,-1.50795
765,1.92904,0.0,0.0,2.17331,0.0,-0.0,8.15737,-4.70059,0.26117,7.96415,9.80246,5.62078,-28.90468,-2.5328,0.00068,-117.59552,1.37496,0.01213,16.13869,8.82462,-0.38011,68.8912,-13.14852,-15.90216,3.86693,34.29014,-26.24673,27.75751,-28.83282,30.96644,56.51853,-0.0021,-99.39954,57.5923,0.00448,95.76551,-15.45809,2.27151,0.00181,-14.87957,1.6712,-0.00018,1.57498,-1.60137,3.69934,-20.70671,-2.88489,2.81603,-10.19615,12.42035,-1.81689
766,2.51152,0.0,0.0,3.10321,-0.0,0.0,8.54679,-5.00326,-0.12047,8.8236,10.03986,4.82025,-28.50769,-2.23832,0.00122,-118.87052,0.68786,0.00482,13.99343,9.28191,-0.81216,71.9827,-14.31076,-17.25295,4.97236,34.69699,-27.18219,29.62268,-29.51289,31.45243,56.35416,-0.00333,-100.19746,57.11074,-0.00595,95.92869,-16.53682,2.67167,0.00511,-15.37228,1.35032,-0.00402,1.41239,-1.58566,3.35092,-20.87515,-2.73828,2.49934,-11.69024,13.23766,-2.2005
767,3.21771,-0.0,-0.0,3.92398,0.0,-0.0,8.93582,-5.55624,-0.40095,9.84853,10.82445,4.53004,-28.12047,-1.96604,0.00058,-119.55121,0.56515,-0.00326,11.90363,9.95176,-1.33788,74.89902,-15.31294,-18.02797,5.86192,35.09137,-27.62031,31.47104,-30.18732,32.03757,56.42683,-0.0001,-101.28224,56.74912,-0.00939,95.2296,-16.47791,3.14264,0.01232,-15.77184,1.41122,-0.00393,1.28844,-1.54191,3.09218,-21.00242,-2.5997,2.27638,-13.11575,14.15411,-2.49571
768,3.87449,0.0,0.0,4.74622,0.0,0.0,9.38202,-6.21084,-0.43809,11.09624,11.71329,4.83294,-27.69323,-1.93129,-0.00127,-119.67475,1.11697,-0.00263,9.87,10.93191,-2.05302,77.65935,-16.14328,-18.14218,6.66509,35.4418,-27.91073,33.27923,-30.85375,32.6762,56.70758,0.00329,-102.28078,56.29101,-0.00259,94.51937,-16.0507,3.04415,0.01651,-16.22012,1.62068,-0.00119,1.2201,-1.59493,2.99718,-21.07307,-2.61273,2.16828,-14.42194,15.21715,-2.65573
769,4.28709,0.0,-0.0,5.29372,0.0,-0.0,9.84398,-6.73401,-0.38135,12.88869,12.23545,5.12107,-27.25228,-2.15816,-0.00209,-119.43021,2.04194,0.00115,7.83221,12.10596,-2.86583,80.21445,-16.9784,-17.78602,7.39639,35.77413,-28.29383,35.07712,-31.455,33.44165,57.0973,0.00318,-103.1316,55.5506,0.01192,94.60414,-16.17939,2.3398,0.01983,-16.8072,1.74866,0.00395,1.1945,-1.75493,3.02216,-21.10117,-2.77025,2.13065,-15.67096,16.33421,-2.84213
770,4.36695,0.0,0.0,5.0555,0.0,-0.0,10.26761,-6.97569,-0.61946,15.21026,12.11317,4.84246,-26.90919,-2.47385,-0.001,-119.01975,3.04645,0.00311,5.80368,13.33923,-3.39156,82.63788,-17.9677,-17.17236,7.97777,36.15991,-28.73702,36.87809,-31.91022,34.272,57.47522,-0.00079,-103.56252,54.43388,0.01587,95.38268,-16.8973,1.97898,0.01123,-17.24361,1.39855,0.00371,1.17029,-1.91824,3.02682,-21.1284,-2.92311,2.07292,-16.9055,17.38974,-3.12082
771,4.32688,0.0,-0.0,4.24307,0.0,0.0,10.65151,-6.96212,-1.20549,17.20823,11.4021,4.05089,-26.76455,-2.78341,0.00032,-118.50123,3.97888,0.00253,3.92114,14.5663,-3.43543,85.25932,-19.03333,-16.46552,8.43991,36.63308,-29.19839,38.57335,-32.23716,34.73791,57.7479,-0.00355,-103.36066,52.97437,-0.00727,96.01213,-17.61353,2.66441,0.00143,-17.0202,0.30755,-0.01162,1.07916,-1.99048,2.88672,-21.22278,-2.93682,1.91576,-18.05354,18.30767,-3.25984
772,4.32894,0.0,0.0,3.53729,0.0,0.0,11.05424,-6.88003,-1.81222,18.08206,10.46147,2.99016,-26.81042,-3.10175,0.00067,-117.77526,4.65228,-0.00285,2.23987,15.71672,-3.09452,88.36752,-19.89818,-15.87268,8.94183,37.13511,-29.80254,40.01242,-32.57416,34.44815,57.89685,-0.00158,-102.8705,51.32305,-0.03447,95.96708,-18.03493,3.85067,0.00113,-16.0934,-1.20649,-0.02278,0.84053,-1.96198,2.58644,-21.46442,-2.79656,1.64859,-19.05023,19.02906,-2.94534
773,4.3877,0.0,0.0,3.11304,0.0,-0.0,11.49274,-6.89319,-2.1731,18.08532,9.59443,1.65879,-26.95941,-3.43288,0.0003,-116.7071,4.93695,-0.01233,0.68418,16.68027,-2.58751,91.90123,-20.40421,-15.49567,9.51721,37.55934,-30.61097,41.17738,-33.03902,33.63185,58.0521,0.00538,-102.72929,49.67733,-0.02175,95.97936,-18.1957,4.52956,0.00111,-15.25501,-2.30089,-0.01728,0.42497,-1.88024,2.18875,-21.88243,-2.57007,1.31153,-19.88261,19.5398,-2.17681
774,4.85373,-0.0,-0.0,2.96101,0.0,0.0,11.84533,-6.93918,-2.22744,18.0117,8.87576,0.02148,-27.13735,-3.81455,6e-05,-115.21647,5.01668,-0.01524,-0.77906,17.4449,-2.27884,95.51383,-20.7074,-15.11999,9.95699,37.86235,-31.43263,42.19189,-33.62373,32.98734,58.45481,0.01403,-103.15758,48.17742,0.02272,97.41127,-17.9948,4.40533,-0.00303,-15.48321,-2.28506,-0.02469,-0.1205,-1.80702,1.73537,-22.43005,-2.33032,0.91973,-20.53027,19.93408,-1.2914
775,6.16707,-0.0,-0.0,3.65896,-0.0,-0.0,11.96307,-6.85123,-2.12952,18.14869,8.35211,-1.69531,-27.32174,-4.28777,0.00022,-113.2803,5.32776,-0.00047,-2.16372,18.16959,-2.34294,98.83644,-21.00508,-14.30411,10.03221,38.11787,-31.99711,43.17289,-34.23748,32.97617,59.2201,0.01181,-103.53123,46.82414,0.0437,100.27827,-17.37404,3.98963,-0.0035,-16.88912,-1.43259,-0.03383,-0.75779,-1.7891,1.21171,-23.06945,-2.11505,0.44195,-21.04131,20.32772,-0.57265
776,8.16074,-0.0,-0.0,6.04473,-0.0,-0.0,11.85647,-6.65769,-2.19628,18.18326,8.18535,-3.12884,-27.53289,-4.7827,0.00045,-110.93192,6.17021,0.02263,-3.53363,18.99296,-2.44608,101.75112,-21.23735,-12.71743,9.70295,38.42399,-32.17849,44.10448,-34.81704,33.4805,60.19637,-0.00329,-102.92921,45.53358,0.01626,102.76791,-16.68735,3.90167,0.00142,-18.59887,-0.83353,-0.01474,-1.50144,-1.81644,0.57207,-23.81407,-1.89761,-0.16025,-21.52667,20.69118,-0.03071
777,10.11874,-0.0,-0.0,10.2661,0.0,0.0,11.69936,-6.59933,-2.6224,17.77173,8.51398,-4.14163,-27.81511,-5.17129,0.00021,-108.26294,7.3432,0.02594,-4.90096,19.84467,-2.13922,104.44738,-21.19378,-10.48448,9.051,38.78862,-32.03264,44.82857,-35.38843,34.08122,61.15855,-0.01605,-101.12281,44.29016,-0.02634,103.2269,-16.50981,4.22105,0.00206,-19.78398,-1.17526,0.00401,-2.31334,-1.8239,-0.20158,-24.62338,-1.61095,-0.87879,-21.98867,20.85694,0.45229
778,11.40908,-0.0,0.0,15.55479,0.0,-0.0,11.64946,-6.83327,-3.36288,16.83315,9.10954,-4.88573,-28.20344,-5.3643,-0.00078,-105.39378,8.26953,0.0019,-6.19767,20.5078,-1.30163,107.1575,-20.78953,-8.16228,8.08556,39.15581,-31.67813,45.14042,-36.01144,34.42012,62.05036,-0.02038,-98.76818,43.18766,-0.03538,101.99028,-17.14684,4.59585,0.00038,-20.50082,-2.04401,0.00427,-3.03698,-1.77417,-1.01127,-25.33989,-1.25777,-1.60887,-22.29618,20.6827,0.94656
779,12.12297,0.0,0.0,20.92276,-0.0,0.0,11.69344,-7.16851,-4.23573,15.45419,9.27298,-5.47466,-28.67944,-5.38455,-0.00138,-102.42245,8.62414,-0.01525,-7.33268,20.83955,-0.21251,109.93354,-20.17734,-6.22638,6.67443,39.48722,-31.08502,44.92475,-36.7037,34.28289,62.98484,-0.01669,-96.86848,42.33058,-0.01016,100.95761,-18.30996,4.79141,0.00167,-21.22905,-2.52744,-0.0049,-3.52539,-1.71605,-1.66314,-25.81967,-0.95676,-2.18977,-22.31026,20.19043,1.44015
780,12.90941,-0.0,-0.0,25.07907,0.0,0.0,11.7121,-7.23414,-4.99295,13.91097,8.44473,-5.69174,-29.16267,-5.40079,-0.00038,-99.34579,8.67149,0.0045,-8.25121,20.90912,0.59984,112.63402,-19.60148,-4.67423,4.70036,39.75335,-30.02017,44.22255,-37.47256,33.56781,64.11427,9e-05,-96.20007,41.76285,0.0106,101.4336,-19.28531,4.73963,0.00284,-21.89659,-2.11649,-0.00843,-3.78503,-1.70656,-2.06425,-26.07294,-0.7959,-2.55718,-22.01035,19.56004,1.89331
781,14.10112,0.0,-0.0,26.10206,0.0,0.0,11.61457,-6.92816,-5.48364,12.6779,6.85443,-5.04617,-29.5678,-5.55426,0.00094,-95.99519,8.74625,0.03547,-9.02268,20.90469,0.79234,114.96706,-19.1657,-3.35654,2.21647,39.90319,-28.25776,43.15032,-38.35862,32.27818,65.53311,0.02912,-97.00919,41.46004,0.01082,102.88779,-19.49904,4.31583,-0.00206,-21.93769,-0.99929,0.00104,-3.93881,-1.70393,-2.34438,-26.22173,-0.68729,-2.8153,-21.55045,18.97829,2.29029
782,15.28022,0.0,0.0,22.82379,0.0,-0.0,11.39032,-6.5263,-5.78442,12.0344,5.51869,-3.2561,-29.8751,-5.76055,0.00118,-92.10405,8.64046,0.02363,-9.82845,20.96178,0.51796,116.58117,-18.84431,-2.5065,-0.62713,39.90693,-25.79793,41.72274,-39.37818,30.4796,67.20649,0.04593,-98.86344,41.35138,0.00223,104.17768,-18.83444,3.54296,-0.0086,-21.25996,0.17052,0.00282,-4.11623,-1.61269,-2.7107,-26.3916,-0.46404,-3.11955,-21.14458,18.53061,2.61642
783,15.59509,0.0,0.0,16.29779,-0.0,0.0,11.16059,-6.38505,-6.05215,11.79147,5.93366,-0.92411,-30.14235,-5.80888,0.00058,-87.49596,7.86776,-0.03686,-10.84072,21.13353,0.12833,117.15835,-18.69618,-2.54497,-3.71392,39.80734,-22.91628,39.76728,-40.47646,28.29412,68.94992,0.02563,-100.63473,41.41339,-0.00858,104.99287,-17.61473,2.85168,-0.00329,-20.72619,0.67089,-0.001,-4.41956,-1.42423,-3.25415,-26.6826,-0.08376,-3.55088,-20.93174,18.25387,2.79436
784,14.74862,0.0,0.0,9.73242,-0.0,0.0,11.07116,-6.64301,-6.35768,11.62652,9.05077,0.48415,-30.45137,-5.59815,-0.00036,-82.22714,6.40749,-0.07814,-12.08666,21.44196,-0.2961,116.50989,-18.90206,-3.47078,-6.9677,39.69013,-20.03517,37.07114,-41.59118,25.95561,70.53579,-0.01095,-101.18771,41.73807,-0.01952,105.54035,-16.58171,2.82248,0.00375,-21.49682,0.14401,0.02212,-4.90656,-1.24653,-3.93849,-27.15239,0.33981,-4.11678,-20.96615,18.2035,2.68926
785,13.65588,0.0,-0.0,6.5766,-0.0,0.0,11.05675,-7.18101,-6.70527,11.6927,13.6463,-0.19162,-30.84074,-5.16885,-0.00144,-76.62593,4.89614,-0.04291,-13.36301,21.85923,-0.92585,114.77163,-19.55743,-4.77876,-10.31274,39.59817,-17.47885,33.5762,-42.72667,23.67507,71.82913,-0.02504,-100.38599,42.46774,-0.01619,105.63085,-16.48624,3.7105,-0.00918,-23.70746,-1.19992,0.04715,-5.56087,-1.15451,-4.68129,-27.78517,0.70601,-4.7694,-21.17873,18.3989,2.22989
786,13.52335,0.0,0.0,7.39845,0.0,0.0,10.87213,-7.79185,-7.08772,12.37881,16.38828,-2.62245,-31.26535,-4.57362,-0.00201,-71.2642,3.94051,0.02043,-14.38289,22.24298,-1.82349,112.47414,-20.51307,-6.03486,-13.63518,39.50797,-15.34693,29.33238,-43.89183,21.3235,72.80126,-0.01476,-98.98161,43.67878,0.01527,104.63007,-17.34566,5.23955,-0.02359,-26.0341,-2.85961,0.02669,-6.35557,-1.03604,-5.40462,-28.55626,1.08909,-5.39421,-21.3557,18.72471,1.51774
787,14.56285,0.0,0.0,9.66012,-0.0,0.0,10.37954,-8.27769,-7.4795,13.29655,14.63631,-5.17237,-31.6137,-3.86591,-0.00112,-66.78239,3.40403,0.03312,-15.08582,22.39921,-2.87498,110.20358,-21.45885,-7.31911,-16.75636,39.39751,-13.62261,24.36685,-44.96872,18.4709,73.45929,-0.00126,-97.54863,45.2895,0.05048,102.31609,-18.50479,6.78581,-0.01593,-27.16857,-4.48057,-0.00986,-7.34308,-0.6582,-6.08416,-29.5219,1.69557,-5.88079,-21.33233,18.97043,0.75132
788,16.0501,0.0,0.0,11.47832,-0.0,0.0,9.69522,-8.47778,-7.80841,13.66727,9.34966,-6.75684,-31.80169,-3.18324,0.00046,-63.58266,2.7775,0.00967,-15.68809,22.28445,-4.01048,108.20435,-22.1789,-8.77474,-19.53111,39.27982,-12.24995,18.78934,-45.74091,14.90363,73.81164,0.0065,-96.04621,47.04422,0.04612,99.548,-19.47784,7.84548,-0.00128,-27.27811,-5.93824,-0.016,-8.57264,0.08122,-6.76854,-30.73459,2.63857,-6.2358,-21.18125,19.0168,0.03288
789,17.26569,0.0,0.0,13.33206,0.0,-0.0,9.02903,-8.4126,-7.99591,13.36785,4.76995,-7.9829,-31.84496,-2.6741,0.00106,-61.64442,2.03801,-0.00223,-16.38422,22.05835,-5.16007,106.4687,-22.68982,-9.88102,-22.0341,39.15334,-11.03478,12.94975,-46.06839,10.93136,73.9023,0.0109,-94.45322,48.6357,0.00662,97.75658,-20.22793,8.29154,0.005,-27.36043,-6.98319,-0.00373,-9.94079,1.00854,-7.48283,-32.09208,3.76678,-6.54807,-21.06334,18.90262,-0.68847
790,18.04142,0.0,0.0,15.13946,0.0,0.0,8.46368,-8.31397,-8.10957,12.81702,4.48748,-9.62072,-31.81462,-2.32214,0.00072,-60.61647,1.59969,-0.00051,-17.13228,21.87989,-5.99654,105.05658,-23.09086,-9.74708,-24.51016,38.98372,-9.69499,7.29883,-45.96331,7.10476,73.81139,0.01083,-93.40714,49.86029,-0.02364,97.82545,-20.79538,8.17205,0.0053,-27.84705,-6.9896,-0.00559,-11.25023,1.82681,-8.13323,-33.39569,4.7698,-6.84263,-20.97032,18.67658,-1.46947
791,18.53706,0.0,0.0,14.72453,0.0,0.0,7.9684,-8.35544,-8.35078,12.45366,7.82138,-11.17031,-31.76509,-1.99995,0.00026,-60.02421,1.68525,0.00289,-17.779,21.75966,-6.12958,104.0564,-23.37476,-8.11115,-27.04669,38.76446,-8.17188,2.1339,-45.51381,3.80366,73.5639,0.00107,-93.85367,50.67464,-0.02259,99.47411,-21.20932,7.54053,0.00502,-28.42386,-5.43426,-0.01363,-12.37836,2.39149,-8.55794,-34.52333,5.4528,-7.02361,-20.7843,18.31582,-2.25941
792,18.79969,0.0,0.0,10.82754,0.0,0.0,7.55951,-8.46016,-8.7519,12.11426,10.99138,-11.65482,-31.72653,-1.72529,-3e-05,-59.39819,2.16184,0.0065,-18.28391,21.69081,-5.63246,103.27551,-23.46725,-5.68681,-29.43645,38.55228,-6.72363,-2.42587,-44.82358,1.14604,73.09116,-0.01701,-95.98974,51.17997,-0.00574,101.48901,-21.557,6.55338,0.00496,-28.62325,-2.68184,-0.00563,-13.27351,2.75905,-8.60741,-35.42987,5.81187,-6.93034,-20.55989,17.85941,-2.98182
793,18.68675,-0.0,0.0,5.36131,-0.0,0.0,7.3341,-8.46722,-9.11679,11.37687,11.59861,-11.01976,-31.72328,-1.65322,-5e-05,-58.34852,2.69597,0.00685,-18.75847,21.77308,-4.98292,102.23197,-23.3879,-3.57709,-31.39287,38.40102,-5.61182,-6.31737,-44.00774,-0.90604,72.32941,-0.02544,-98.81891,51.50702,0.00653,102.55293,-21.77977,5.49659,0.00255,-28.08061,0.03214,0.0043,-13.84551,2.97196,-8.16793,-36.02958,5.84341,-6.44099,-20.60424,17.48906,-3.63486
794,18.20734,-0.0,-0.0,1.33746,0.0,0.0,7.32652,-8.35854,-9.32873,10.28269,10.47022,-10.20169,-31.77098,-1.80365,8e-05,-56.62213,2.91145,0.00047,-19.28622,22.049,-4.51511,100.58521,-23.25993,-2.4301,-32.73294,38.31147,-4.8943,-9.53152,-43.13462,-2.53785,71.29175,-0.00826,-100.88338,51.65926,0.00515,102.04526,-21.62443,4.67077,0.00076,-26.66509,1.64347,-0.00656,-13.97536,2.94921,-7.23008,-36.19601,5.46842,-5.57823,-21.18786,17.34872,-4.25235
795,17.71699,0.0,-0.0,0.22951,-0.0,0.0,7.42649,-8.24395,-9.45488,8.89053,9.30208,-9.97376,-31.85367,-2.00639,-5e-05,-54.08654,2.71641,-0.00082,-19.72793,22.34334,-4.27824,98.45984,-23.20818,-2.05842,-33.3768,38.31514,-4.59169,-12.19507,-42.16264,-4.05602,70.02129,0.02094,-101.39267,51.54937,-0.00675,100.3237,-21.04789,4.25297,0.00402,-24.83843,2.31082,-0.01629,-13.63939,2.69067,-5.96923,-35.89352,4.75251,-4.50616,-22.19869,17.36727,-4.84676
796,17.47781,0.0,-0.0,1.72959,0.0,0.0,7.52602,-8.23815,-9.58206,6.74632,8.48926,-10.19729,-31.90167,-2.09849,-0.00036,-50.6616,2.3736,0.00798,-19.81092,22.44407,-4.24043,96.22929,-23.30968,-1.91979,-33.33774,38.51937,-4.81361,-14.4536,-41.04118,-5.57676,68.55147,0.03068,-100.7744,51.1311,-0.01333,98.45433,-20.4768,4.15187,0.00681,-23.47622,3.18813,-0.01183,-13.00124,2.44785,-4.70233,-35.28162,4.04821,-3.42374,-23.19842,17.38538,-5.43449
797,17.40114,0.0,0.0,4.04072,-0.0,0.0,7.63666,-8.37985,-9.72645,3.36362,7.80836,-10.07572,-31.79016,-2.06478,-0.00028,-46.31498,2.01888,0.00072,-19.47289,22.34451,-4.32539,94.06091,-23.53639,-1.88779,-32.72843,38.97235,-5.57085,-16.22551,-39.87713,-6.77501,66.93002,0.00952,-100.12112,50.36079,-0.00249,97.54237,-20.3203,4.10755,0.00468,-23.04621,5.03516,-0.01507,-12.33808,2.49262,-3.71249,-34.63903,3.71452,-2.48959,-23.86443,17.36701,-6.05096
798,17.40755,0.0,0.0,4.22124,0.0,0.0,7.80052,-8.58639,-9.88579,-0.9025,7.39687,-8.93325,-31.3879,-1.99293,0.00053,-41.15344,1.48966,-0.0305,-19.01515,22.14339,-4.3261,91.82312,-23.73668,-2.28684,-31.73446,39.54521,-6.57317,-17.25379,-38.89137,-7.22842,65.23859,-0.0228,-100.16642,49.15109,0.01762,97.96909,-20.38397,3.96458,0.0009,-23.31682,7.36854,-0.01847,-11.83207,2.76723,-3.04011,-34.14928,3.7136,-1.76242,-24.26616,17.34913,-6.71604
799,17.50347,0.0,-0.0,0.25615,-0.0,0.0,8.01491,-8.70943,-10.09396,-4.91207,7.37505,-6.9877,-30.64442,-1.93484,0.00201,-35.52468,0.80419,-0.04201,-18.81726,21.80474,-3.92217,89.43053,-23.75322,-3.27199,-30.551,40.02254,-7.34071,-17.43653,-38.19159,-6.99145,63.54638,-0.0311,-100.72217,47.48128,0.02298,99.14783,-20.06896,3.82337,0.00216,-23.7762,9.02869,-0.0098,-11.49037,2.91715,-2.46267,-33.81685,3.63324,-1.17076,-24.64632,17.26272,-7.38813
800,17.65365,0.0,0.0,-6.46209,0.0,0.0,8.2608,-8.62366,-10.29007,-7.75183,7.59176,-5.41581,-29.62076,-1.90563,0.00227,-30.02263,0.34482,-0.01173,-18.96049,21.16082,-2.99999,87.09811,-23.56499,-4.4696,-29.28203,40.30837,-7.59867,-16.98205,-37.68111,-6.59436,61.84273,0.00248,-100.74846,45.46431,0.00835,100.17187,-19.0794,4.00015,0.01168,-24.03178,9.37184,-0.00233,-11.27027,2.6671,-1.7667,-33.59527,3.13786,-0.62176,-25.06913,16.93618,-7.99264
801,17.71807,0.0,-0.0,-12.04191,0.0,0.0,8.58533,-8.25787,-10.15273,-9.4224,7.84413,-5.21326,-28.43519,-1.99856,-0.00112,-25.31408,0.42207,0.02201,-19.19142,20.11804,-1.99243,85.16376,-23.31864,-5.29589,-27.94148,40.51658,-7.54511,-16.22561,-37.20584,-6.48384,60.119,0.04243,-99.44041,43.27651,-0.0028,100.66102,-17.84293,4.6042,0.0149,-24.02876,8.94517,-0.00178,-11.17291,2.07787,-0.98323,-33.48922,2.29549,-0.12082,-25.37599,16.275,-8.54148
802,17.23979,0.0,-0.0,-14.23347,0.0,0.0,9.13447,-7.68675,-9.37266,-10.45062,7.92449,-6.06641,-27.20857,-2.3015,-0.00515,-21.86805,1.00493,0.02775,-19.21331,18.78225,-1.47468,83.79131,-23.18508,-5.52841,-26.5762,40.84415,-7.59727,-15.39185,-36.72224,-6.68057,58.53006,0.03912,-97.44799,41.07101,0.00153,100.80118,-17.04732,5.26706,0.00489,-23.97394,8.89651,-0.00193,-11.19548,1.42876,-0.2828,-33.5034,1.42919,0.28064,-25.38974,15.37247,-9.11855
803,15.68936,0.0,0.0,-14.20781,-0.0,0.0,9.9989,-7.16539,-8.18231,-11.10102,7.65914,-6.80642,-26.05418,-2.68775,-0.00417,-19.86352,1.87975,0.01394,-18.94114,17.37013,-1.36686,82.9185,-23.15601,-5.44418,-25.26527,41.41113,-7.93447,-14.55726,-36.30634,-6.99418,57.31311,0.00886,-96.18499,38.93978,0.0046,100.7206,-16.83595,5.62994,-0.00373,-23.99377,9.6738,-0.00129,-11.26982,0.96261,0.2484,-33.57277,0.79634,0.59512,-25.09094,14.4129,-9.6948
804,13.14259,0.0,0.0,-13.8953,0.0,0.0,11.05267,-6.91595,-7.24415,-11.26673,7.10706,-6.76595,-25.08097,-2.8949,0.00045,-19.32656,2.80069,0.00118,-18.46162,16.05795,-1.03434,82.39135,-23.02672,-5.39698,-24.00707,42.24038,-8.43666,-13.72304,-36.02419,-7.34839,56.51624,-0.0072,-96.21832,36.90418,-0.00713,100.218,-16.95863,5.71936,-0.00458,-24.05367,10.62894,9e-05,-11.28807,0.78224,0.64003,-33.58833,0.48086,0.88899,-24.62103,13.5121,-10.09083
805,10.34948,0.0,0.0,-13.51338,0.0,0.0,12.02549,-6.91497,-6.8563,-10.95518,6.66458,-6.13511,-24.37634,-2.83286,0.00279,-20.21566,3.56206,-0.00013,-17.84995,14.92525,-0.20352,82.07418,-22.62313,-5.45854,-22.68966,43.27295,-8.96879,-12.8585,-35.83591,-7.85961,55.91357,-0.01247,-97.26868,34.94135,-0.02258,99.17227,-17.49395,5.59488,0.00306,-24.12119,10.92908,0.0008,-11.17678,0.85124,0.95627,-33.47506,0.42472,1.20773,-24.13864,12.70158,-10.17297
806,8.10148,-0.0,-0.0,-12.50222,0.0,0.0,12.73673,-6.953,-6.59872,-10.45522,6.82251,-5.26192,-23.98394,-2.65066,0.00176,-22.37857,4.15598,-0.00039,-17.07157,13.97798,0.68583,81.89052,-22.02372,-5.53468,-21.10504,44.36657,-9.59295,-11.95835,-35.66652,-8.72042,55.16899,-0.0211,-98.97043,33.08043,-0.02211,97.9292,-18.70934,5.14731,0.01592,-24.19458,10.48159,-4e-05,-10.95435,1.00865,1.25668,-33.25034,0.4564,1.54539,-23.65778,12.02365,-9.98611
807,6.66804,0.0,0.0,-11.14622,0.0,0.0,13.24269,-6.85194,-5.90639,-10.02885,7.86924,-4.32743,-23.91778,-2.5011,0.00027,-25.57364,4.79189,-0.01285,-16.01197,13.20165,1.09419,81.83312,-21.47295,-5.58367,-19.01249,45.36757,-10.49652,-11.09312,-35.53609,-9.98329,54.04531,-0.01802,-100.66659,31.44005,-0.00289,97.17775,-20.34055,4.50137,0.01729,-24.30875,9.77188,-0.00088,-10.7162,1.05515,1.57721,-33.00871,0.37785,1.85955,-23.03478,11.56308,-9.65676
808,5.70467,0.0,0.0,-10.15968,-0.0,-0.0,13.74954,-6.59462,-4.68292,-9.70205,9.73853,-3.52383,-24.18596,-2.38899,-0.00029,-29.53495,5.5682,-0.02225,-14.60632,12.60045,0.95691,81.88839,-21.04574,-5.64602,-16.36612,46.20842,-11.68831,-10.31686,-35.54373,-11.44431,52.53109,0.0096,-101.38992,30.09866,0.01656,97.43425,-21.61428,4.12847,0.00591,-24.56397,9.09186,0.00049,-10.54251,0.89668,1.91439,-32.83033,0.10335,2.11139,-22.16311,11.37439,-9.25792
809,4.79135,0.0,0.0,-9.78591,0.0,-0.0,14.33849,-6.26135,-3.18411,-9.29926,11.87879,-3.0598,-24.75197,-2.26338,4e-05,-33.95633,6.26637,-0.01033,-12.92581,12.15283,0.54611,81.97545,-20.48856,-5.72434,-13.4457,46.92141,-12.85005,-9.54463,-35.74062,-12.76577,50.83986,0.03149,-100.86151,29.00149,0.01815,98.4768,-22.00194,4.26944,0.00044,-25.02637,8.37636,0.00315,-10.42689,0.60582,2.23932,-32.71014,-0.289,2.30172,-21.13083,11.39112,-8.78821
810,4.07603,0.0,-0.0,-9.99329,0.0,-0.0,14.77963,-5.86057,-1.66242,-8.55531,13.43569,-3.102,-25.47911,-2.10082,0.0007,-38.53398,6.66725,0.00363,-11.06103,11.72725,0.1608,82.07891,-19.47193,-5.63565,-10.56271,47.56266,-13.64788,-8.6398,-36.0925,-13.65418,49.2583,0.01932,-99.93382,28.03876,0.00286,99.41792,-21.64707,4.58059,7e-05,-25.666,7.66866,0.00306,-10.29328,0.31614,2.53663,-32.57275,-0.66977,2.46699,-20.07387,11.42218,-8.19225
811,3.94444,0.0,0.0,-10.65482,0.0,-0.0,14.75542,-5.31157,-0.34854,-7.3181,13.88742,-3.66274,-26.1948,-1.83773,0.00035,-43.14182,6.83383,-0.00299,-8.96133,11.15573,0.07743,82.31718,-17.98974,-5.21569,-7.70022,48.12912,-14.11141,-7.59536,-36.53459,-14.0315,47.94338,-0.00596,-99.60753,27.14618,-0.01154,99.64947,-21.09674,4.57033,-0.00149,-26.44082,7.2159,-0.00043,-10.06854,0.0813,2.82961,-32.34435,-0.99815,2.6491,-18.94204,11.30561,-7.43427
812,4.28885,0.0,-0.0,-11.281,0.0,0.0,14.25783,-4.64704,0.6033,-5.72644,13.4448,-4.33482,-26.82901,-1.3803,-0.00121,-47.88672,6.87909,-0.01409,-6.54977,10.44475,0.37939,82.68738,-16.42809,-4.785,-4.64838,48.59235,-14.52935,-6.52693,-37.00237,-14.13581,46.89354,-0.01331,-99.90051,26.33248,-0.01039,99.5563,-20.79211,4.17823,-0.00123,-27.31458,7.07877,-0.00279,-9.75659,-0.09711,3.12426,-32.02837,-1.27493,2.85417,-17.60352,11.08733,-6.59829
813,4.72453,0.0,0.0,-11.38825,0.0,0.0,13.5836,-4.12341,1.31243,-4.08314,12.73404,-4.42295,-27.41696,-0.75749,-0.00227,-52.91759,6.69075,-0.00329,-3.9814,9.80514,0.76922,82.90168,-15.18368,-5.05194,-1.41158,48.98626,-15.03204,-5.50192,-37.44416,-14.27407,46.09328,-0.00426,-100.10856,25.62552,0.00111,99.9659,-20.70897,3.75207,-0.00043,-28.17027,7.0469,-0.00187,-9.44771,-0.16502,3.3368,-31.71596,-1.41832,3.02517,-16.13046,10.96879,-5.81724
814,5.11073,0.0,-0.0,-11.01,0.0,0.0,13.00322,-4.01639,2.006,-2.6076,12.17899,-3.56759,-27.95907,-0.13334,-0.00146,-58.21356,6.09885,0.02022,-1.60168,9.43277,0.91714,82.63647,-14.29422,-6.37692,1.73927,49.37246,-15.4382,-4.44793,-37.84599,-14.47653,45.56748,0.00285,-99.97169,24.99432,0.0078,101.00486,-20.38416,3.5941,0.00041,-28.84484,6.93446,-0.00027,-9.2281,-0.0688,3.37646,-31.49467,-1.3443,3.09836,-14.76482,11.07873,-5.11233
815,5.39851,0.0,0.0,-10.37107,0.0,0.0,12.61632,-4.31665,2.6747,-1.40159,11.75457,-2.10524,-28.36842,0.37226,0.00019,-63.57233,5.18543,0.02623,0.3816,9.33808,0.91894,81.84885,-13.5354,-8.3769,4.51691,49.74336,-15.46089,-3.26727,-38.23815,-14.56494,45.32642,0.0023,-99.75175,24.42188,0.00392,101.92887,-19.46944,3.73102,0.00296,-29.26369,6.71022,0.00011,-9.08496,0.1367,3.28581,-31.35171,-1.11977,3.09233,-13.61927,11.36958,-4.41419
816,5.50698,0.0,0.0,-9.54755,-0.0,-0.0,12.40627,-4.7505,3.14196,-0.49614,11.25991,-0.76419,-28.57605,0.77927,0.00103,-68.7548,4.20732,0.01506,2.07477,9.37436,1.10607,80.7621,-12.7681,-10.37876,6.74581,50.0512,-14.94982,-1.98684,-38.65536,-14.44454,45.3676,-0.00409,-99.34698,24.04714,-0.00273,102.2185,-18.25263,4.1112,0.00462,-29.48399,6.48171,-0.0005,-8.94048,0.33428,3.21637,-31.20732,-0.91061,3.10294,-12.54875,11.7071,-3.71043
817,5.61632,0.0,-0.0,-8.641,0.0,-0.0,12.26535,-5.06285,3.36724,0.17501,10.63892,-0.10547,-28.62136,1.14519,0.00087,-73.61634,3.30664,0.00814,3.73812,9.37889,1.56278,79.59548,-12.01009,-11.99545,8.41449,50.30494,-14.00337,-0.73551,-39.08148,-14.16397,45.68333,-0.01184,-98.4758,24.09098,-0.00718,102.2711,-17.39895,4.77337,0.00099,-29.63379,6.47884,-0.00135,-8.76344,0.4433,3.31713,-31.02754,-0.8479,3.23751,-11.33066,11.98529,-3.0625
818,6.05419,-0.0,0.0,-7.74591,0.0,0.0,12.04619,-5.12101,3.52026,0.70737,10.01912,-0.22929,-28.62637,1.40519,0.00059,-78.14496,2.52944,0.00622,5.52998,9.29809,2.05399,78.39906,-11.26631,-13.07246,9.73918,50.55358,-12.91635,0.37885,-39.45834,-13.76218,46.23414,-0.00851,-97.61684,24.64773,-0.00823,102.5507,-17.29995,5.64364,-0.00584,-29.75421,6.81193,-0.00131,-8.58067,0.42573,3.65357,-30.83733,-0.99162,3.54225,-9.90959,12.15308,-2.47625
819,6.75016,0.0,0.0,-6.55816,0.0,0.0,11.68627,-4.88418,3.89914,1.01962,9.6172,-0.80144,-28.69339,1.35101,0.00115,-82.38033,1.98731,-0.0018,7.41502,9.18775,2.27512,77.08703,-10.48038,-13.43495,11.01156,50.81081,-11.94282,1.36501,-39.73931,-13.1841,46.9837,0.00927,-97.6965,25.61465,0.00052,102.74886,-17.84525,6.37562,-0.00606,-29.71536,7.21298,-0.00058,-8.3999,0.27225,4.14087,-30.64567,-1.31818,3.93522,-8.43673,12.18523,-1.85146
820,7.38584,0.0,-0.0,-4.49702,-0.0,0.0,11.20331,-4.41052,4.74666,0.89482,9.52619,-1.25541,-28.79997,0.84898,0.00157,-86.27785,1.79645,-0.01438,9.27977,9.09915,2.08405,75.55845,-9.64327,-12.99479,12.30344,51.05561,-11.06594,2.3491,-39.90173,-12.34341,47.9349,0.02282,-98.79149,26.78697,0.01028,102.46033,-18.60767,6.63531,4e-05,-29.42728,7.23095,-0.00178,-8.21506,0.0303,4.58739,-30.45114,-1.71114,4.25705,-7.06844,12.06358,-1.12157
821,7.93763,-0.0,-0.0,-1.55687,-0.0,0.0,10.59419,-3.80369,5.92488,0.3106,9.46848,-1.08287,-28.81171,0.08341,0.00035,-89.70196,1.90981,-0.01858,11.084,9.00105,1.66342,73.80037,-8.86476,-11.96912,13.43113,51.28132,-10.07176,3.43166,-39.95174,-11.19133,49.09552,0.01389,-99.87119,28.00352,0.00598,101.98781,-19.12436,6.45294,0.00276,-29.04105,6.66233,-0.0026,-8.06399,-0.21142,4.87889,-30.29468,-2.04519,4.4355,-5.7861,11.79214,-0.38083
822,8.34344,-0.0,0.0,1.36504,0.0,-0.0,9.91532,-3.21119,6.94976,-0.45646,9.03377,-0.10906,-28.63775,-0.57941,-0.00075,-92.55713,2.06474,-0.00823,12.81089,8.86096,1.41255,71.82311,-8.27499,-10.84029,14.21517,51.5201,-8.87058,4.56808,-39.94492,-9.72484,50.45388,-0.00734,-99.99419,29.22256,-0.0066,101.84595,-19.14347,6.16421,0.00148,-28.78607,5.72109,0.00018,-7.9897,-0.39465,5.07332,-30.21724,-2.28835,4.54624,-4.51946,11.42742,0.21378
823,8.18265,0.0,0.0,3.27759,-0.0,0.0,9.36186,-2.87234,7.53747,-1.06783,8.25114,1.37386,-28.34518,-1.0054,-0.00069,-94.85625,1.98459,0.00533,14.34552,8.76604,1.51009,69.52422,-7.86459,-10.01654,14.69119,51.82785,-7.68959,5.63738,-39.95589,-8.00202,51.96073,-0.0182,-99.20961,30.47329,-0.01171,101.99364,-18.73092,6.03386,0.00075,-28.68468,4.82142,0.00286,-7.97247,-0.50079,5.2684,-30.19571,-2.46039,4.6868,-3.34889,11.07811,0.62375
824,7.1857,0.0,0.0,3.85934,0.0,0.0,9.10923,-3.00531,7.81634,-1.34077,7.58485,2.76599,-28.10142,-1.35504,-0.00024,-96.66582,1.65903,0.00916,15.55663,8.85069,1.78801,66.76125,-7.50663,-9.52027,15.05385,52.22541,-6.88799,6.54539,-40.01971,-6.21491,53.52586,-0.01485,-98.10282,31.78068,-0.00502,101.95464,-18.20554,5.98871,0.00042,-28.51858,4.16705,0.00208,-7.95719,-0.52223,5.45489,-30.17489,-2.55076,4.85149,-2.43251,10.84061,0.94339
825,5.5673,0.0,-0.0,3.31617,0.0,-0.0,9.13698,-3.59994,7.9375,-1.23592,7.35218,3.57122,-28.03519,-1.75038,0.00048,-98.02382,1.32704,0.00431,16.46907,9.10159,2.10322,63.54988,-7.15762,-9.0585,15.43358,52.66044,-6.57849,7.22163,-40.11527,-4.66494,55.07366,-0.00478,-97.14216,33.17258,0.00487,101.43112,-17.92051,5.74897,0.00107,-28.07958,3.61712,-0.00126,-7.90554,-0.51406,5.58149,-30.11898,-2.59106,4.97189,-1.79998,10.69525,1.24445
826,3.9416,0.0,-0.0,2.03799,-0.0,0.0,9.20591,-4.32907,7.87301,-0.7868,7.42959,3.67515,-28.14988,-2.15272,0.00089,-98.89796,1.20415,-0.00038,17.25972,9.32487,2.47898,60.0802,-6.96248,-8.3695,15.79489,53.08374,-6.55472,7.6204,-40.18695,-3.48096,56.53019,0.00584,-96.61033,34.70663,0.01,100.54316,-18.01785,5.22719,0.00284,-27.40075,2.97769,-0.0043,-7.78335,-0.59263,5.68577,-29.99471,-2.70323,5.03879,-1.3078,10.47798,1.45264
827,3.07052,0.0,0.0,0.5361,-0.0,0.0,9.01351,-4.72944,7.64429,-0.14009,7.49976,3.24036,-28.33753,-2.52258,0.00051,-99.21357,1.26061,-0.00113,18.07727,9.31785,2.89293,56.54826,-7.09176,-7.48874,16.06073,53.52613,-6.59998,7.78184,-40.18486,-2.42913,57.76969,0.00917,-96.5165,36.40879,0.00815,99.57351,-18.37673,4.74763,0.00181,-26.69376,2.23976,-0.00431,-7.54693,-0.76409,5.84073,-29.75627,-2.92054,5.11753,-0.77965,10.00646,1.44251
828,3.50859,0.0,0.0,-0.71067,-0.0,-0.0,8.41453,-4.58904,7.46418,0.44434,7.39243,2.48094,-28.47091,-2.88164,-0.00027,-98.90873,1.27293,-0.00221,18.9515,9.0389,3.19798,53.05659,-7.50678,-6.68321,16.24472,54.02497,-6.70648,7.81647,-40.10145,-1.21508,58.7072,0.00425,-96.54568,38.19775,3e-05,98.7575,-18.7393,4.75648,-0.00055,-26.1867,1.50291,-0.001,-7.19584,-0.86865,6.01386,-29.40131,-3.08277,5.23845,-0.12638,9.257,1.23592
829,5.17604,0.0,-0.0,-1.41376,0.0,0.0,7.52878,-4.1369,7.5217,0.74789,7.14083,1.58078,-28.51001,-3.21167,-0.00071,-97.95859,1.10643,-0.00537,19.87396,8.60541,3.31278,49.66314,-7.97153,-6.13316,16.43656,54.53013,-6.99635,7.79953,-39.96832,0.12796,59.42034,-0.00147,-96.37924,39.95029,-0.00568,98.17192,-18.85183,5.27537,0.00057,-26.06188,0.84107,0.00359,-6.81197,-0.80869,6.10726,-29.01296,-3.06254,5.34772,0.65476,8.39317,1.0119
830,7.01943,0.0,-0.0,-1.53043,-0.0,0.0,6.70935,-3.79325,7.75053,0.77674,6.86508,0.6957,-28.51674,-3.40502,-0.00056,-96.38428,0.87097,-0.00429,20.82282,8.16712,3.42125,46.41105,-8.28731,-5.74779,16.68351,54.95353,-7.51392,7.74423,-39.82444,1.33737,60.10482,-0.00136,-96.03886,41.64158,-0.00169,97.6379,-18.59963,5.7956,0.001,-26.32768,0.33559,0.00563,-6.49046,-0.6977,6.137,-28.68817,-2.97102,5.4173,1.48249,7.60808,0.93483
831,7.90797,-0.0,-0.0,-1.3758,-0.0,0.0,6.24129,-3.7677,8.02894,0.75042,6.72101,-0.04494,-28.5321,-3.42398,-0.00031,-94.25391,0.78647,0.00445,21.74597,7.8195,3.74173,43.32368,-8.45646,-5.31645,16.90503,55.28687,-8.12489,7.64654,-39.69151,2.26784,60.90659,0.00462,-95.82088,43.3569,0.00349,97.01927,-18.06433,5.84752,-0.00245,-26.76384,0.1474,0.00346,-6.25622,-0.68031,6.24571,-28.44965,-2.99598,5.52465,2.25082,6.97979,1.03317
832,7.87442,0.0,0.0,-1.35861,0.0,0.0,6.05871,-3.9208,8.43212,0.8483,6.7927,-0.57367,-28.49087,-3.42053,-0.00036,-91.65254,0.91699,0.00944,22.6378,7.58771,4.17694,40.45295,-8.62359,-4.81898,16.9984,55.60592,-8.67455,7.48535,-39.58175,2.99955,61.78401,0.00756,-95.74152,45.16176,0.00256,96.46114,-17.42196,5.53669,-0.00359,-27.22371,0.36346,-0.00019,-6.07482,-0.7349,6.52192,-28.25904,-3.15084,5.76011,2.97756,6.47576,1.23999
833,7.26138,-0.0,-0.0,-1.38331,-0.0,-0.0,6.03884,-3.9997,9.02294,1.04279,6.93434,-0.96468,-28.31559,-3.53912,-0.00073,-88.63192,1.05086,-0.00116,23.50668,7.43302,4.53758,37.81969,-8.89001,-4.5201,17.01901,55.94008,-9.19597,7.23544,-39.52119,3.68859,62.56527,0.0035,-95.30111,47.00604,0.00038,96.05721,-16.82586,5.31065,-0.00074,-27.80983,0.80016,-0.00177,-5.89818,-0.75503,6.91916,-28.06719,-3.31941,6.12092,3.7442,6.02697,1.52521
834,5.80249,0.0,0.0,-0.94685,0.0,-0.0,6.26668,-3.92463,9.67724,1.24505,6.83957,-1.43441,-28.02678,-3.73124,-0.0007,-85.19483,0.99842,-0.01201,24.27295,7.27961,4.8582,35.30161,-9.22752,-4.6039,17.1512,56.20658,-9.85722,6.90875,-39.52478,4.37257,63.1675,-0.00087,-94.13181,48.78909,-0.00433,95.76974,-16.35064,5.34452,0.00105,-28.4892,1.17332,0.00058,-5.69224,-0.73062,7.34745,-27.84278,-3.45833,6.52745,4.50912,5.57094,1.9378
835,3.78209,0.0,0.0,0.12058,0.0,0.0,6.67889,-3.80295,10.27982,1.4757,6.37504,-2.19576,-27.71768,-3.86123,-7e-05,-81.33719,0.9147,-0.00153,24.88181,7.05372,5.22992,32.75262,-9.57167,-4.84838,17.48574,56.3126,-10.72171,6.52725,-39.55979,4.92531,63.6874,-0.00336,-92.49496,50.48643,-0.01205,95.67746,-15.95946,5.45722,0.00042,-28.89782,1.3743,0.00345,-5.46138,-0.74589,7.75388,-27.59421,-3.62565,6.89883,5.16968,5.06976,2.50367
836,2.31833,0.0,-0.0,1.4167,-0.0,-0.0,6.9187,-3.76837,10.8134,1.81819,5.80213,-3.26736,-27.48524,-3.84173,0.0004,-77.106,1.01345,0.01422,25.4186,6.72724,5.664,30.17134,-9.90632,-4.95282,17.92637,56.25166,-11.65573,6.07074,-39.58294,5.19615,64.2552,-0.00563,-90.89632,52.16186,-0.00619,95.65598,-15.55238,5.51955,2e-05,-28.79787,1.39045,0.00231,-5.23479,-0.84844,8.11986,-27.35307,-3.85847,7.19985,5.70236,4.52999,3.16708
837,1.89335,0.0,0.0,2.34557,0.0,-0.0,6.77695,-3.83429,11.25756,2.29494,5.50702,-4.41737,-27.40675,-3.67064,0.00012,-72.61629,1.17244,0.00794,26.00379,6.37158,6.18473,27.66187,-10.19476,-4.96232,18.35061,56.06754,-12.48694,5.50005,-39.58024,5.13073,64.88962,-0.00674,-89.65217,53.88463,0.01559,95.21803,-15.07199,5.60517,0.00098,-28.29527,1.17194,-0.00252,-5.01306,-1.0013,8.44504,-27.11959,-4.12248,7.44412,6.12224,4.01033,3.86199
838,1.96668,0.0,-0.0,2.52435,0.0,-0.0,6.41818,-3.92652,11.6277,2.79459,5.60022,-5.33629,-27.51487,-3.44155,-0.00039,-67.99539,1.16741,-0.00874,26.6666,6.13899,6.76859,25.29966,-10.31709,-5.05519,18.71521,55.79419,-13.12915,4.83984,-39.53694,4.77844,65.53477,-0.00396,-88.99384,55.65267,0.02251,94.35129,-14.58105,5.73382,0.00142,-27.53624,0.81291,-0.00489,-4.76977,-1.1498,8.76672,-26.86434,-4.38108,7.6869,6.40912,3.59108,4.55508
839,1.92671,0.0,-0.0,2.03759,0.0,-0.0,6.09867,-4.0449,12.03632,3.09672,5.92997,-5.85434,-27.74514,-3.27709,-0.00027,-63.33469,1.04779,-0.00986,27.3466,6.10504,7.27036,23.08999,-10.20241,-5.17534,18.96576,55.45216,-13.52863,4.23069,-39.4273,4.31326,66.16239,0.0051,-89.24775,57.36006,0.00159,93.83772,-14.23383,5.71552,0.00039,-26.65509,0.66605,-0.0004,-4.50971,-1.29007,9.17951,-26.58698,-4.66623,8.01762,6.54192,3.28478,5.21467
840,1.61859,0.0,0.0,1.30087,-0.0,0.0,5.89846,-4.19404,12.56006,3.01834,6.27737,-5.94952,-27.94619,-3.23611,0.00011,-58.73407,0.98949,-0.00023,27.98771,6.17649,7.58605,21.05604,-9.95551,-5.18839,19.03092,55.05032,-13.65794,3.86005,-39.26061,4.0149,66.78439,0.01674,-90.59056,58.8424,-0.01596,94.14939,-14.09103,5.39808,-0.00074,-25.91213,0.9688,0.00424,-4.26568,-1.45086,9.78116,-26.31513,-5.04117,8.51643,6.57642,2.99318,5.81391
841,1.19149,-0.0,0.0,0.64385,-0.0,0.0,5.75802,-4.2345,13.1588,2.55959,6.45749,-5.65837,-27.98745,-3.30658,2e-05,-54.34656,1.01514,0.00432,28.58489,6.21612,7.7617,19.27319,-9.75943,-5.19349,18.96202,54.59152,-13.62858,3.81075,-39.08026,4.08277,67.41711,0.01776,-92.39357,59.96381,-0.01096,94.77779,-14.0019,5.01079,-0.00112,-25.55448,1.44702,0.00333,-4.03031,-1.61098,10.55099,-26.04019,-5.47826,9.17251,6.6117,2.60779,6.35363
842,0.90756,0.0,-0.0,0.24185,0.0,0.0,5.60739,-4.06088,13.78733,1.91232,6.45802,-5.12147,-27.84534,-3.43899,-0.00033,-50.3203,1.06931,0.00464,29.12044,6.17718,7.89927,17.76258,-9.7277,-5.42236,18.88199,54.10626,-13.6219,3.99739,-38.90953,4.49194,68.08847,0.00086,-93.22644,60.6794,-0.0005,95.10374,-13.72141,4.98075,0.00077,-25.62,1.66197,0.00158,-3.75709,-1.68097,11.31232,-25.72158,-5.82808,9.85529,6.66732,2.11101,6.85116
843,0.94092,0.0,-0.0,0.23445,0.0,-0.0,5.41472,-3.77035,14.4146,1.33148,6.50107,-4.60901,-27.60022,-3.5614,-0.00031,-46.70675,1.12742,0.00307,29.5556,6.10376,8.10744,16.45078,-9.85878,-5.99195,18.73841,53.65119,-13.61322,4.25626,-38.75422,5.10661,68.84518,-0.0203,-92.24596,61.07092,0.00234,95.0887,-13.09493,5.34221,0.00294,-25.93932,1.59521,0.00089,-3.4365,-1.60383,11.88686,-25.35942,-5.97115,10.41981,6.69025,1.56566,7.31166
844,1.2152,0.0,-0.0,0.57762,0.0,0.0,5.17509,-3.51842,14.98735,0.99952,6.80922,-4.3659,-27.39783,-3.62511,-1e-05,-43.43975,1.14121,-0.00218,29.93703,6.07053,8.4527,15.26628,-10.05053,-6.85436,18.35303,53.24518,-13.39976,4.47005,-38.63448,5.82912,69.66829,-0.0236,-90.19938,61.33701,0.00151,94.82195,-12.25791,5.72452,0.00121,-26.29995,1.52285,-6e-05,-3.1044,-1.42192,12.27114,-24.99319,-5.94569,10.84639,6.67127,1.05706,7.71583
845,1.54104,0.0,0.0,0.96977,-0.0,0.0,4.89598,-3.38849,15.51697,1.00356,7.32568,-4.46798,-27.39391,-3.6559,0.00029,-40.39613,1.07042,-0.00725,30.40977,6.13017,8.84754,14.18188,-10.17203,-7.84629,17.77648,52.83375,-12.98569,4.60476,-38.55045,6.56185,70.39576,-0.00828,-88.63188,61.68807,0.00141,94.28439,-11.67458,5.93684,-0.00152,-26.59393,1.60663,-0.00077,-2.78837,-1.20802,12.60407,-24.64459,-5.87119,11.23703,6.65428,0.64594,8.04444
846,1.8199,0.0,-0.0,1.17137,0.0,-0.0,4.61624,-3.4189,16.05853,1.36381,7.76359,-4.85434,-27.66089,-3.70314,0.0005,-37.47951,0.98823,-0.00499,31.06826,6.29606,9.12777,13.16185,-10.15102,-8.75474,17.30978,52.34692,-12.64651,4.68385,-38.45044,7.19131,70.84343,0.00329,-88.45149,62.18747,0.0014,93.57928,-11.6771,6.14858,-0.00238,-26.80672,1.77165,-0.00046,-2.50931,-1.01028,13.00291,-24.32777,-5.83597,11.68306,6.65809,0.36024,8.28741
847,2.03151,0.0,-0.0,1.28977,-0.0,0.0,4.40695,-3.60791,16.57968,2.04834,7.8848,-5.42978,-28.12398,-3.75747,0.00026,-34.69724,1.04685,0.00391,31.85011,6.55668,9.26357,12.17145,-9.99613,-9.38386,17.09871,51.77348,-12.53576,4.75927,-38.28645,7.71007,71.01324,0.00313,-89.29353,62.71946,0.00082,92.78957,-12.04492,6.55679,-0.00115,-26.94984,1.77074,0.00037,-2.30087,-0.88922,13.4873,-24.0765,-5.90341,12.18031,6.65515,0.20386,8.43677
848,2.13336,-0.0,-0.0,1.53478,0.0,-0.0,4.3118,-3.87021,16.98931,3.02042,7.67292,-6.07924,-28.62637,-3.78105,-0.00027,-32.19511,1.28828,0.00888,32.59765,6.90138,9.39539,11.24674,-9.7578,-9.63756,16.97382,51.16866,-12.53467,4.84498,-38.06593,8.19845,71.0872,0.00097,-90.26198,63.16067,-0.0004,91.95129,-12.39503,7.14506,0.00109,-27.02257,1.48025,0.0005,-2.17217,-0.90695,14.01116,-23.90549,-6.11401,12.66289,6.59947,0.13601,8.52967
849,2.09194,0.0,0.0,1.79058,0.0,0.0,4.30263,-4.07626,17.26256,4.26318,7.3347,-6.66537,-29.05859,-3.79148,-0.00039,-30.14915,1.55226,0.0047,33.18805,7.32629,9.66679,10.4652,-9.4832,-9.58756,16.75447,50.61007,-12.53934,4.88619,-37.8202,8.68483,71.21287,0.0009,-91.01266,63.51753,-0.00183,91.28907,-12.74368,7.73883,0.00112,-26.99017,1.10629,-2e-05,-2.0814,-1.04896,14.52534,-23.77676,-6.43615,13.09054,6.4486,0.0688,8.65354
850,1.97983,-0.0,-0.0,1.70118,0.0,0.0,4.3059,-4.18294,17.465,5.70808,7.16545,-7.12203,-29.39801,-3.85907,-6e-05,-28.57127,1.64651,-0.00168,33.606,7.81652,10.06467,9.85428,-9.20013,-9.4085,16.47767,50.12659,-12.59127,4.87546,-37.56443,9.19731,71.39047,0.00064,-91.5704,63.84604,-0.00179,90.93403,-13.27516,8.19549,0.00026,-26.82058,0.91777,-6e-05,-1.96877,-1.23157,15.05467,-23.62542,-6.80132,13.51773,6.19147,-0.06317,8.84779
851,1.91949,0.0,-0.0,1.16223,0.0,0.0,4.24735,-4.24389,17.6734,7.18194,7.30292,-7.51769,-29.66349,-4.02519,0.00025,-27.28186,1.55611,-0.00345,33.9395,8.33183,10.4392,9.39646,-8.92872,-9.24555,16.28443,49.65108,-12.70136,4.93151,-37.30141,9.84668,71.57784,-0.0007,-91.80422,64.13483,-0.00026,90.64471,-13.85794,8.44737,0.00122,-26.55884,0.98643,0.00028,-1.78959,-1.39933,15.70053,-23.39497,-7.19528,14.06015,5.87326,-0.24162,9.05027
852,1.91966,0.0,0.0,0.48996,0.0,-0.0,4.08633,-4.2548,17.89629,8.49329,7.63532,-7.93939,-29.88064,-4.25692,0.00032,-26.09814,1.40995,-0.00132,34.31039,8.812,10.68377,9.09273,-8.69949,-9.19618,16.24969,49.08728,-12.80873,5.17367,-37.03127,10.68215,71.81137,-0.00121,-91.7633,64.31511,0.00021,90.19485,-14.15191,8.39511,0.00171,-26.32497,1.25961,-0.00019,-1.52109,-1.54023,16.49235,-23.05783,-7.61734,14.75023,5.57369,-0.41253,9.18297
853,1.83482,0.0,-0.0,0.06382,0.0,-0.0,3.85885,-4.13683,18.08528,9.56457,7.99478,-8.30833,-30.06099,-4.48353,0.00018,-24.98678,1.27875,0.00028,34.76695,9.21021,10.86518,8.9627,-8.54727,-9.36761,16.3434,48.43607,-12.91418,5.56677,-36.76265,11.56892,72.17154,0.00018,-91.80268,64.33557,-0.00102,89.63689,-13.96354,7.97811,-0.00113,-26.16218,1.59124,-0.00148,-1.17456,-1.61477,17.28614,-22.6358,-7.9775,15.46782,5.34659,-0.57225,9.25029
854,1.53781,0.0,0.0,-0.04013,0.0,0.0,3.66653,-3.92124,18.21632,10.45116,8.3106,-8.40347,-30.18816,-4.65087,-5e-05,-24.01366,1.11664,-0.00037,35.2505,9.5278,11.12352,8.99361,-8.47785,-9.82273,16.46891,47.77652,-13.0602,5.93602,-36.53143,12.31201,72.65396,0.00196,-92.14425,64.2471,-0.00173,89.09149,-13.3471,7.31792,-0.00456,-25.88404,1.76827,-0.00232,-0.79819,-1.58743,17.90459,-22.19361,-8.1779,16.05916,5.17529,-0.74771,9.30052
855,1.13188,-0.0,-0.0,-0.01716,0.0,-0.0,3.56646,-3.76394,18.32516,11.23719,8.55505,-8.1128,-30.2452,-4.75498,-0.00021,-23.20351,0.90827,-0.00121,35.68241,9.81083,11.4674,9.11588,-8.45165,-10.43721,16.528,47.12792,-13.19713,6.13546,-36.37022,12.85766,73.1417,0.00194,-92.73489,64.21977,-0.00046,88.61596,-12.55152,6.58002,-0.005,-25.26618,1.8075,-0.001,-0.43773,-1.52455,18.32955,-21.78419,-8.27415,16.48201,4.98404,-0.91548,9.32573
856,0.90383,0.0,-0.0,-0.06667,0.0,0.0,3.50095,-3.73,18.47388,11.94914,8.68558,-7.56607,-30.25053,-4.86513,-0.00024,-22.50021,0.759,-0.00046,36.03526,10.12687,11.76115,9.2363,-8.41804,-10.9098,16.44422,46.43134,-13.19435,6.18684,-36.24478,13.3335,73.55679,-5e-05,-93.31007,64.38964,0.00145,88.22925,-11.91981,5.83365,-0.00186,-24.47151,1.97342,0.00126,-0.09132,-1.53507,18.67633,-21.40026,-8.41003,16.80452,4.69907,-1.01823,9.28124
857,1.0393,0.0,-0.0,-0.23881,0.0,-0.0,3.37477,-3.76407,18.73064,12.59905,8.67773,-7.01113,-30.24531,-5.09502,-0.00014,-21.85635,0.80033,0.00129,36.31412,10.53406,11.89454,9.30539,-8.36906,-10.97709,16.13072,45.64688,-12.96801,6.20437,-36.07696,13.88288,73.99358,-0.00138,-93.59427,64.69675,0.00186,87.96553,-11.69881,5.16433,0.00217,-23.99087,2.24655,0.00072,0.29507,-1.61411,19.01481,-20.98029,-8.60654,17.09426,4.31048,-1.05192,9.17498
858,1.40063,-0.0,-0.0,-0.45904,0.0,0.0,3.15243,-3.8226,19.09785,13.24557,8.60666,-6.61213,-30.26397,-5.47447,7e-05,-21.3078,1.04051,0.00189,36.55001,11.02897,11.90146,9.35943,-8.33905,-10.66841,15.55166,44.78793,-12.57376,6.20184,-35.85859,14.50338,74.60547,0.00045,-93.68242,64.97945,0.00087,87.89907,-11.87063,4.69035,0.00318,-24.07899,2.20407,0.00219,0.77414,-1.65616,19.30394,-20.47069,-8.75053,17.35129,3.88487,-1.06011,9.04554
859,1.6223,0.0,0.0,-0.62143,0.0,0.0,2.86548,-3.85224,19.39912,13.92977,8.65895,-6.35121,-30.33367,-5.86413,0.00017,-20.93306,1.33846,0.0008,36.81524,11.5505,11.93798,9.48726,-8.33287,-10.30888,14.86723,43.89508,-12.2078,6.08744,-35.68422,15.10913,75.35186,0.00296,-93.84901,65.187,-0.00045,88.07134,-12.18888,4.4764,0.00123,-24.56525,1.65372,0.00548,1.31594,-1.62103,19.51748,-19.90232,-8.79508,17.56549,3.5063,-1.03926,8.8885
860,1.49395,0.0,-0.0,-0.66756,-0.0,-0.0,2.57294,-3.75675,19.36712,14.59221,8.95184,-6.10869,-30.46856,-6.08749,-0.00011,-20.76866,1.54603,-0.00029,37.16248,12.07392,12.16356,9.74552,-8.28698,-10.17952,14.35425,43.02948,-12.04204,5.85761,-35.62171,15.69796,75.97739,0.00212,-94.05307,65.38774,-0.00179,88.44888,-12.42241,4.56366,-0.00096,-25.20292,1.0086,0.00281,1.82212,-1.57502,19.74817,-19.36666,-8.83558,17.79988,3.18829,-0.9315,8.68318
861,1.12496,0.0,-0.0,-0.59475,0.0,0.0,2.31443,-3.47532,18.86631,15.12155,9.36289,-5.76599,-30.63389,-6.10155,-0.00047,-20.77907,1.62685,-0.00042,37.54904,12.63462,12.63834,10.10559,-8.13808,-10.33552,14.0985,42.24403,-12.01179,5.64289,-35.61283,16.34656,76.30321,0.00024,-94.05153,65.63756,-0.00196,88.86764,-12.51696,4.94413,-0.00155,-25.89202,0.83095,-0.0045,2.25671,-1.56286,20.10929,-18.88858,-8.9546,18.14506,2.86241,-0.72189,8.44723
862,0.70419,-0.0,-0.0,-0.43905,0.0,0.0,2.08498,-3.08474,18.02835,15.48301,9.63003,-5.28112,-30.73989,-5.9884,-0.00043,-20.8841,1.62652,-7e-05,37.87419,13.22531,13.27397,10.48484,-7.90012,-10.72526,13.93616,41.51736,-11.89149,5.50273,-35.55891,17.03503,76.39936,-0.00024,-93.74043,65.94564,0.00013,89.04085,-12.43919,5.49221,0.00031,-26.52855,1.19174,-0.00732,2.69378,-1.54808,20.57552,-18.39421,-9.10871,18.59067,2.46495,-0.46884,8.22774
863,0.33634,0.0,-0.0,-0.28859,-0.0,0.0,1.8391,-2.78585,17.22041,15.77221,9.59055,-4.78889,-30.70357,-5.86646,-0.00021,-21.00631,1.6067,0.00014,38.08574,13.74475,13.85344,10.83047,-7.65266,-11.201,13.74669,40.76382,-11.63097,5.32248,-35.447,17.59304,76.40566,0.00027,-93.17113,66.31335,0.00334,88.80383,-12.11206,6.0527,0.00269,-26.89073,1.67442,-0.00373,3.19251,-1.4904,21.01091,-17.83819,-9.21128,19.02308,2.01355,-0.24694,8.06497
864,0.0918,-0.0,-0.0,-0.26395,-0.0,0.0,1.52457,-2.68908,16.78681,16.12949,9.26299,-4.53084,-30.52663,-5.81977,-0.00019,-21.11343,1.62191,-2e-05,38.23335,14.08821,14.1898,11.16672,-7.46932,-11.50978,13.58185,39.95234,-11.46574,4.99172,-35.3445,17.90456,76.37854,0.00088,-92.48427,66.7433,0.00415,88.33199,-11.70114,6.53543,0.00177,-26.86483,2.00164,-0.00085,3.70075,-1.39771,21.34845,-17.28187,-9.24572,19.37588,1.59098,-0.10043,7.94295
865,0.0009,0.0,0.0,-0.43648,-0.0,0.0,1.16028,-2.74923,16.82748,16.6066,8.75327,-4.63741,-30.30049,-5.85589,-0.00028,-21.23567,1.70867,-0.0005,38.41489,14.26215,14.25062,11.55908,-7.34796,-11.45006,13.4688,39.14822,-11.60581,4.56921,-35.31046,18.09599,76.37703,0.00102,-91.92558,67.22462,-0.00023,88.13876,-11.57714,6.86401,-0.00184,-26.67641,2.47928,-0.00257,4.12772,-1.29007,21.65467,-16.80926,-9.25471,19.70454,1.2597,-0.01707,7.78286
866,0.00603,0.0,0.0,-0.73424,0.0,-0.0,0.8372,-2.92943,17.2195,17.10876,8.21004,-5.01162,-30.11387,-5.9172,-0.00035,-21.43802,1.83379,-0.00075,38.6705,14.37918,14.11461,12.04622,-7.20359,-11.03635,13.36146,38.38986,-11.99383,4.20697,-35.34389,18.41241,76.46797,0.00134,-91.70215,67.69961,-0.00551,88.67637,-11.81364,6.94128,-0.00417,-26.67528,3.55912,-0.00829,4.4588,-1.17919,21.99721,-16.42693,-9.27336,20.06877,1.00421,0.06453,7.54039
867,-0.00267,0.0,-0.0,-0.94682,-0.0,-0.0,0.58657,-3.18197,17.713,17.46855,7.82338,-5.39452,-29.95686,-5.93568,-0.0005,-21.7563,1.85945,-2e-05,38.93163,14.54753,13.90687,12.59894,-6.9417,-10.51156,13.3364,37.61846,-12.50046,3.97009,-35.38592,18.90845,76.57446,0.00159,-91.76714,68.05024,-0.00473,89.72061,-12.20532,6.69505,-0.00219,-26.90942,5.01782,-0.00937,4.75689,-1.09394,22.33036,-16.07955,-9.31232,20.41492,0.7557,0.1948,7.28179
868,-0.08892,-0.0,-0.0,-0.93223,-0.0,-0.0,0.33519,-3.39904,18.10162,17.61398,7.6841,-5.62422,-29.7363,-5.89314,-0.00056,-22.15347,1.67527,0.001,39.08953,14.78547,13.71629,13.13525,-6.53723,-10.09344,13.56603,36.77039,-13.14719,3.79022,-35.36482,19.38972,76.52155,0.00064,-91.96178,68.1801,-0.00103,90.49258,-12.83347,6.08884,0.00684,-27.1535,6.04486,-0.00313,5.08074,-1.0718,22.54877,-15.72496,-9.36924,20.62975,0.45746,0.37628,7.10084
869,-0.20901,0.0,-0.0,-0.76762,0.0,-0.0,0.01974,-3.55054,18.33185,17.63615,7.68333,-5.77624,-29.39363,-5.77956,5e-05,-22.56003,1.33859,0.00105,39.13828,15.01715,13.57872,13.61271,-6.05045,-9.77519,14.03229,35.85829,-13.94103,3.58026,-35.26425,19.70323,76.27664,-0.0011,-92.28312,68.12875,9e-05,90.52641,-13.88731,5.22414,0.01415,-27.28328,6.18519,0.00195,5.43904,-1.10701,22.61147,-15.36022,-9.42442,20.67646,0.12645,0.58563,6.98493
870,-0.25683,0.0,0.0,-0.6326,0.0,-0.0,-0.36059,-3.72779,18.45037,17.67561,7.67779,-5.9766,-28.96992,-5.55051,0.00097,-22.95691,0.98771,0.00042,39.18837,15.14756,13.544,14.08592,-5.5825,-9.46401,14.47839,34.94745,-14.67361,3.30883,-35.12889,19.92931,75.98164,-0.00138,-92.70475,68.04511,-2e-05,90.0739,-14.83046,4.539,0.01052,-27.38821,5.74287,0.00378,5.80006,-1.13353,22.58345,-15.00457,-9.43926,20.64038,-0.1555,0.78802,6.84065
871,-0.15894,0.0,0.0,-0.68464,0.0,0.0,-0.78076,-4.02964,18.63322,17.80504,7.66863,-6.29912,-28.53232,-5.26562,0.00073,-23.36883,0.70978,-0.00017,39.29753,15.17329,13.55778,14.60129,-5.19069,-9.0862,14.68261,34.09542,-15.09502,2.96934,-34.99355,20.24355,75.74503,0.00055,-92.94311,68.01022,-0.0001,89.71237,-14.59613,4.57465,0.01777,-27.72542,5.31183,0.00284,6.11628,-1.07512,22.57961,-14.68543,-9.38329,20.65776,-0.34701,0.9518,6.6159
872,0.03177,0.0,0.0,-0.96129,-0.0,0.0,-1.20408,-4.39526,19.02998,18.00113,7.75078,-6.76542,-28.09752,-5.09437,-0.00045,-23.79032,0.50125,-0.0002,39.40362,15.18836,13.46912,15.10995,-4.84115,-8.62477,14.63774,33.30465,-15.20274,2.58197,-34.84646,20.72327,75.54005,0.00247,-92.77133,67.94607,0.00016,89.80212,-12.9451,5.35133,0.03308,-28.58474,5.29391,-0.00322,6.35985,-0.89818,22.69743,-14.4155,-9.25968,20.83302,-0.49292,1.08589,6.31242
873,0.12772,0.0,-0.0,-1.27478,0.0,-0.0,-1.59456,-4.59496,19.43108,18.17567,7.93481,-7.23353,-27.65224,-5.06984,-0.0007,-24.17923,0.28235,0.00034,39.43674,15.26129,13.34484,15.54815,-4.4834,-8.23567,14.48768,32.50904,-15.24911,2.19542,-34.66829,21.28218,75.28947,0.00131,-92.43449,67.75365,0.00107,90.28449,-11.0583,6.2459,0.02322,-29.83926,5.83661,-0.00862,6.53984,-0.61801,22.94065,-14.18598,-9.08385,21.16393,-0.64849,1.22246,5.94838
874,-0.00799,-0.0,-0.0,-1.39477,0.0,0.0,-1.92578,-4.54608,19.5098,18.27825,8.04384,-7.53083,-27.18647,-5.08017,0.0,-24.49462,0.02904,0.00046,39.36605,15.37348,13.40197,15.8862,-4.14068,-8.08312,14.40568,31.61169,-15.49664,1.80066,-34.46698,21.72397,74.93634,-0.00343,-92.43328,67.46835,0.00179,90.93711,-10.34124,6.60813,0.00803,-30.83367,6.89697,-0.00201,6.68024,-0.29043,23.15379,-13.99754,-8.85276,21.483,-0.84056,1.36082,5.58138
875,-0.30123,0.0,-0.0,-1.32484,-0.0,-0.0,-2.18873,-4.44079,19.33331,18.35822,7.85443,-7.70237,-26.70615,-5.10583,0.00011,-24.71455,-0.15061,-0.00015,39.17448,15.49443,13.61456,16.0942,-3.86793,-8.06788,14.49572,30.58121,-16.00977,1.30599,-34.26906,21.91438,74.44837,-0.00594,-92.79927,67.2169,0.00175,91.54747,-10.88516,6.38067,0.00734,-31.07607,8.12219,0.0087,6.81054,0.00715,23.13025,-13.85446,-8.56604,21.56699,-1.09189,1.47299,5.30044
876,-0.58843,0.0,-0.0,-1.23364,-0.0,0.0,-2.41685,-4.42691,19.2517,18.47227,7.38013,-7.86041,-26.26292,-5.23191,-0.00043,-24.85876,-0.19054,-0.00057,38.90461,15.64743,13.72937,16.17184,-3.64631,-7.99539,14.72748,29.5194,-16.68869,0.65725,-34.09964,21.91464,73.84552,-0.00121,-92.93284,67.08436,0.00116,91.75986,-11.59405,6.0227,0.00674,-30.74401,8.92733,0.00781,6.97431,0.22648,22.8459,-13.71916,-8.26042,21.37637,-1.41244,1.56251,5.14166
877,-0.80077,0.0,0.0,-1.23301,-0.0,0.0,-2.65419,-4.45657,19.43489,18.58577,6.92899,-7.95705,-25.93361,-5.46992,-0.00051,-24.99515,-0.21369,-0.00019,38.67923,15.88542,13.59512,16.19593,-3.36885,-7.87886,14.98063,28.5896,-17.45173,-0.0648,-33.95373,21.90224,73.22382,0.00563,-92.33527,67.03417,-0.00091,91.2122,-11.74879,5.86719,0.00504,-30.36719,8.98105,0.00259,7.20495,0.38199,22.51736,-13.5263,-7.99877,21.12151,-1.77048,1.68672,5.05278
878,-0.97427,0.0,0.0,-1.30871,0.0,0.0,-2.90679,-4.47533,19.7436,18.62605,6.82861,-7.91575,-25.72924,-5.72552,-0.00021,-25.19391,-0.38216,0.00075,38.60201,16.24225,13.30853,16.28124,-2.94622,-7.84576,15.16032,27.87068,-18.28646,-0.6968,-33.77037,21.99879,72.68668,0.00737,-91.13869,66.90359,-0.00537,89.97435,-11.69956,5.82249,0.00455,-30.33064,8.43999,0.0032,7.48534,0.52189,22.41372,-13.25332,-7.83124,21.07366,-2.09304,1.90007,4.96456
879,-1.17416,0.0,0.0,-1.3641,-0.0,-0.0,-3.15776,-4.50599,19.94969,18.59585,7.09786,-7.82211,-25.57709,-5.89877,-3e-05,-25.47051,-0.66376,0.00106,38.67829,16.68247,13.08234,16.48616,-2.41996,-7.88891,15.24382,27.30136,-19.15796,-1.14835,-33.4834,22.19365,72.24619,0.00326,-90.02357,66.5342,-0.00469,88.77045,-11.88809,5.74499,0.00386,-30.64791,7.82214,0.00352,7.75338,0.67752,22.63464,-12.94713,-7.76383,21.33779,-2.30758,2.1913,4.83774
880,-1.42772,0.0,0.0,-1.29029,-0.0,0.0,-3.4057,-4.54515,19.92525,18.58539,7.42477,-7.81811,-25.40627,-5.93196,0.00015,-25.77987,-0.87314,0.00033,38.84879,17.08362,13.05343,16.76333,-1.93404,-7.91981,15.24046,26.762,-20.0176,-1.49728,-33.12111,22.39299,71.84702,-0.00378,-89.84328,65.94181,0.00447,88.4615,-12.23561,5.64451,0.0033,-31.00103,7.69869,0.00057,7.96954,0.85192,23.0433,-12.66507,-7.74488,21.78576,-2.40157,2.4995,4.64363
881,-1.70842,0.0,0.0,-1.06003,-0.0,-0.0,-3.66296,-4.53725,19.67634,18.6711,7.50998,-7.91243,-25.19011,-5.8277,0.00033,-26.07207,-0.91565,-0.00039,39.02724,17.33198,13.21181,17.02077,-1.5913,-7.93181,15.1525,26.18207,-20.86568,-1.88316,-32.79526,22.54676,71.47502,-0.00749,-90.88792,65.27586,0.0078,88.97945,-12.69454,5.44234,0.00497,-31.07491,8.13503,0.00017,8.16554,1.03821,23.40205,-12.40875,-7.69674,22.19074,-2.44158,2.76955,4.39188
882,-1.98776,0.0,-0.0,-0.78755,-0.0,0.0,-3.91366,-4.49376,19.33074,18.84116,7.35341,-8.01409,-24.92809,-5.66335,0.00023,-26.34285,-0.8568,-0.00044,39.11178,17.43253,13.45128,17.21516,-1.39054,-7.94665,14.97243,25.55253,-21.6658,-2.3403,-32.57304,22.71324,71.16574,-0.00443,-92.47292,64.63974,0.00045,89.39094,-13.34969,5.01487,0.00652,-30.89569,8.65746,0.00055,8.38037,1.21423,23.56872,-12.16141,-7.59045,22.41053,-2.51682,2.97202,4.16601
883,-2.24973,0.0,-0.0,-0.6424,0.0,0.0,-4.11158,-4.5327,19.03373,19.02124,7.13965,-8.0569,-24.65251,-5.51797,-0.00011,-26.60708,-0.78394,-0.0002,39.05877,17.48018,13.68126,17.36613,-1.28168,-7.95834,14.70147,24.87468,-22.28462,-2.81291,-32.41882,22.95573,70.92238,0.0006,-93.64404,64.03397,-0.00509,89.23405,-14.02302,4.47154,0.00363,-30.79258,8.9295,-0.00034,8.57643,1.33644,23.54346,-11.96337,-7.46714,22.42993,-2.65071,3.10588,4.05486
884,-2.41232,-0.0,0.0,-0.67524,-0.0,0.0,-4.2666,-4.71046,18.80181,19.12861,6.97503,-8.01932,-24.41032,-5.39106,-0.00023,-26.84826,-0.72245,-3e-05,38.94403,17.54763,13.89986,17.5155,-1.21939,-8.00917,14.37389,24.148,-22.6335,-3.26392,-32.26313,23.24177,70.68935,0.003,-94.0822,63.40614,-0.00178,88.97028,-14.44198,4.02802,-0.00063,-31.09295,8.99256,-0.00069,8.70616,1.39086,23.40191,-11.85177,-7.36651,22.31557,-2.78102,3.20396,4.05704
885,-2.34432,0.0,0.0,-0.78042,0.0,0.0,-4.4833,-4.90625,18.56378,19.11253,6.85592,-7.89954,-24.19494,-5.2399,5e-05,-27.04542,-0.68033,0.00011,38.86693,17.62731,14.15464,17.69447,-1.18097,-8.16995,14.0506,23.39853,-22.78814,-3.67574,-32.0708,23.51022,70.39402,0.00237,-94.10555,62.68698,0.00358,89.06842,-14.51731,3.79104,-0.00184,-31.84351,8.91594,0.00083,8.82094,1.44179,23.25982,-11.75529,-7.26893,22.19952,-2.84803,3.30009,4.09685
886,-2.0626,0.0,-0.0,-0.85485,0.0,-0.0,-4.8263,-4.98637,18.31309,18.9967,6.77701,-7.72849,-23.94868,-5.06479,0.00043,-27.2223,-0.6845,0.00024,38.82253,17.68495,14.44685,17.9027,-1.15315,-8.41591,13.76351,22.6818,-22.91232,-4.03332,-31.83019,23.73955,70.00376,-4e-05,-94.14439,61.83915,0.00189,89.3466,-14.29985,3.83667,8e-05,-32.70547,8.59718,0.003,9.00438,1.58647,23.21916,-11.5713,-7.11919,22.21243,-2.86825,3.38939,4.12554
887,-1.78305,0.0,-0.0,-0.90837,0.0,0.0,-5.19819,-4.98304,18.12452,18.88254,6.72334,-7.58921,-23.64348,-4.92428,0.00042,-27.41188,-0.72459,0.0002,38.74013,17.73017,14.69268,18.10287,-1.11301,-8.60808,13.47579,22.04713,-23.11257,-4.38739,-31.52769,23.9011,69.5672,-0.00179,-94.37904,60.9231,-0.00386,89.43105,-13.95096,4.21189,0.00195,-33.14537,7.95683,0.00137,9.23957,1.85918,23.28864,-11.31427,-6.88825,22.37445,-2.88734,3.45004,4.14754
888,-1.66896,-0.0,-0.0,-0.9651,-0.0,0.0,-5.44854,-4.98311,18.07268,18.86927,6.6328,-7.55742,-23.30949,-4.88652,-5e-05,-27.59361,-0.73104,-5e-05,38.59235,17.78848,14.77717,18.23685,-1.0478,-8.64036,13.11429,21.50595,-23.38374,-4.84344,-31.17741,23.95994,69.19463,-0.00126,-94.69528,60.08118,-0.00463,89.41962,-13.70107,4.79786,0.00101,-32.80478,7.25048,-0.00035,9.43704,2.19256,23.41368,-11.08467,-6.6199,22.61006,-2.91689,3.48508,4.14358
889,-1.67522,0.0,0.0,-0.98694,-0.0,-0.0,-5.54612,-4.95877,18.19245,18.96735,6.4667,-7.61203,-22.99467,-4.98271,-0.00055,-27.70481,-0.67228,-0.00014,38.41586,17.85945,14.64002,18.26384,-0.96232,-8.57234,12.64046,21.02621,-23.67511,-5.43085,-30.83506,23.9449,68.97103,7e-05,-94.90073,59.38462,-0.00119,89.67963,-13.69283,5.35755,-0.00069,-31.76945,6.83025,0.00278,9.55907,2.47487,23.55783,-10.93008,-6.40593,22.84537,-2.94551,3.52624,4.06629
890,-1.69353,0.0,0.0,-0.972,0.0,-0.0,-5.57609,-4.86382,18.42692,19.11145,6.26509,-7.67532,-22.7318,-5.17001,-0.00058,-27.71199,-0.594,-5e-05,38.27457,17.94439,14.36707,18.21496,-0.85572,-8.53164,12.08688,20.56001,-23.98505,-6.04024,-30.53515,23.94579,68.88505,0.00054,-94.91771,58.70665,0.00088,90.23923,-13.89458,5.72375,-0.00038,-30.58178,6.59754,0.00346,9.65298,2.65519,23.68886,-10.80965,-6.2828,23.03222,-2.95324,3.5999,3.94515
891,-1.68701,-0.0,0.0,-0.99253,-0.0,0.0,-5.6357,-4.77537,18.57273,19.24386,6.12455,-7.73218,-22.52918,-5.32602,-0.00017,-27.65164,-0.53437,3e-05,38.21475,18.06079,14.22259,18.18923,-0.73136,-8.51955,11.51801,20.09646,-24.35252,-6.50254,-30.25244,24.0613,68.86591,0.00027,-94.76696,57.83329,0.00039,90.78801,-14.11355,5.86115,0.00105,-29.8904,6.25971,0.00219,9.78834,2.78047,23.75688,-10.65933,-6.18915,23.1403,-2.9172,3.68681,3.89677
892,-1.69214,0.0,0.0,-1.10309,0.0,-0.0,-5.74984,-4.8334,18.47008,19.3639,6.13181,-7.85787,-22.36384,-5.35342,0.00019,-27.58464,-0.47608,7e-05,38.21332,18.20718,14.41769,18.23998,-0.61267,-8.4159,10.97361,19.665,-24.75295,-6.7131,-29.94374,24.35166,68.85883,-8e-05,-94.54092,56.68493,0.0014,91.15341,-14.03863,5.7878,0.00048,-29.9415,5.91713,0.00145,10.00357,2.90132,23.76352,-10.43856,-6.07824,23.18901,-2.85721,3.7396,3.97572
893,-1.81297,0.0,0.0,-1.30695,-0.0,0.0,-5.84685,-5.10723,18.26826,19.50802,6.24279,-8.11553,-22.18976,-5.28426,0.00019,-27.53828,-0.38582,7e-05,38.19765,18.34406,14.80798,18.31043,-0.51746,-8.16734,10.46205,19.27536,-25.06993,-6.71943,-29.58116,24.76646,68.82157,-0.00015,-94.41082,55.36349,0.00605,91.42695,-13.42743,5.53507,-0.00277,-30.41926,5.79386,-0.00035,10.2962,2.97846,23.78289,-10.14017,-6.01271,23.23433,-2.83198,3.75178,4.08347
894,-2.13847,-0.0,0.0,-1.56935,0.0,-0.0,-5.83778,-5.50089,18.24307,19.6903,6.26637,-8.43592,-21.97218,-5.20667,-3e-05,-27.52404,-0.26493,-0.0,38.14709,18.4277,15.04779,18.34937,-0.43873,-7.89642,9.96898,18.89767,-25.21299,-6.69382,-29.14792,25.14511,68.70243,0.00027,-94.47709,54.01103,0.00707,91.59875,-12.37437,5.18994,-0.00446,-30.81113,5.67884,-0.00105,10.6293,2.93767,23.8505,-9.79839,-6.07451,23.28363,-2.83622,3.77093,4.08958
895,-2.58813,-0.0,0.0,-1.81783,0.0,-0.0,-5.71736,-5.82026,18.43193,19.88002,6.08967,-8.67449,-21.70125,-5.15443,-0.0002,-27.56353,-0.1573,-0.00011,38.09969,18.44727,15.00149,18.3996,-0.36761,-7.76338,9.47046,18.50626,-25.23375,-6.77854,-28.65959,25.37368,68.46967,0.0014,-94.63393,52.69579,-0.00132,91.35082,-11.32762,4.9037,-0.00212,-30.88743,5.12516,-0.00137,10.96335,2.79058,23.89738,-9.4628,-6.22869,23.27613,-2.78322,3.82387,3.99719
896,-2.88965,0.0,-0.0,-1.94733,0.0,-0.0,-5.57661,-5.98846,18.64046,20.03891,5.87576,-8.77542,-21.38434,-5.10966,-0.00017,-27.6505,-0.12513,-9e-05,38.05377,18.41308,14.8358,18.49918,-0.31292,-7.78616,8.96828,18.10822,-25.27724,-6.96765,-28.18293,25.48963,68.13314,0.0016,-94.80214,51.44189,-0.0108,90.42655,-10.73877,4.79758,0.00018,-30.73705,4.12157,-0.0009,11.30324,2.65174,23.83961,-9.13694,-6.33864,23.17296,-2.64052,3.8708,3.92369
897,-2.82293,-0.0,-0.0,-1.87625,-0.0,0.0,-5.50561,-6.11003,18.6918,20.14168,5.91902,-8.80256,-21.07346,-5.03451,5e-05,-27.73466,-0.20029,-7e-05,37.97238,18.34833,14.77934,18.59774,-0.2755,-7.87262,8.49811,17.73575,-25.43064,-7.15247,-27.7706,25.56432,67.7205,-0.00142,-95.2066,50.26485,-0.00952,89.09679,-10.70063,4.84802,4e-05,-30.42795,3.21023,0.00129,11.68875,2.62475,23.67118,-8.7777,-6.30514,23.00487,-2.49519,3.87334,3.94892
898,-2.55513,0.0,0.0,-1.67603,0.0,0.0,-5.46481,-6.33054,18.64191,20.19098,6.32067,-8.87178,-20.86269,-4.92717,8e-05,-27.79185,-0.32614,-0.00014,37.87688,18.30445,14.83868,18.63538,-0.2264,-7.93142,8.08619,17.42291,-25.67487,-7.24984,-27.38998,25.58287,67.26105,-0.00482,-96.03891,49.12387,-0.00065,87.92737,-10.99627,4.87155,8e-05,-29.93024,2.80425,0.0037,12.11959,2.68457,23.4446,-8.37824,-6.1699,22.81264,-2.4434,3.86748,4.03595
899,-2.50147,0.0,-0.0,-1.50266,0.0,-0.0,-5.35081,-6.63263,18.69316,20.23277,6.89161,-9.04805,-20.79983,-4.86501,-0.0,-27.87112,-0.41209,-0.00014,37.83947,18.33358,14.84239,18.64095,-0.14141,-7.93006,7.69997,17.17526,-25.93836,-7.27435,-26.97624,25.51476,66.80975,-0.00403,-96.98072,47.95646,0.00521,87.14622,-11.39215,4.64764,0.00129,-29.34361,2.77383,0.00376,12.52288,2.70896,23.22447,-8.00648,-6.07001,22.61411,-2.4714,3.90686,4.0976
900,-2.74186,0.0,0.0,-1.35656,0.0,-0.0,-5.21172,-6.78999,18.84063,20.30986,7.3236,-9.25178,-20.84089,-4.91771,5e-05,-28.02998,-0.45671,3e-05,37.89338,18.43988,14.77524,18.70633,-0.03385,-7.91417,7.269,16.96745,-26.13704,-7.29889,-26.52458,25.39036,66.42789,-0.00137,-97.53697,46.79354,0.0041,86.58144,-11.7456,4.11666,0.0013,-28.8271,2.89234,0.00247,12.83186,2.62933,23.07851,-7.72181,-6.09341,22.44871,-2.47795,3.96794,4.10896
901,-2.91738,0.0,0.0,-1.16511,0.0,0.0,-5.21054,-6.69222,18.88739,20.42225,7.37832,-9.35554,-20.91293,-5.05222,7e-05,-28.25701,-0.5115,0.0002,38.0085,18.58933,14.77735,18.88234,0.07153,-7.92681,6.7865,16.77373,-26.23462,-7.35336,-26.07981,25.23627,66.09767,-0.00015,-97.56162,45.71052,-0.00388,85.95695,-11.91645,3.48603,-0.0009,-28.33702,3.12902,0.00127,13.08545,2.50173,23.04819,-7.47746,-6.20225,22.37511,-2.39874,3.98678,4.12899
902,-2.78634,0.0,0.0,-1.01437,0.0,0.0,-5.36669,-6.58559,18.81913,20.5502,7.0081,-9.3548,-20.97613,-5.17172,-4e-05,-28.48463,-0.568,0.00012,38.14351,18.74624,14.82537,19.12096,0.17718,-7.94496,6.34179,16.58814,-26.28486,-7.37926,-25.66895,25.02928,65.72166,0.00142,-97.11839,44.67878,-0.01228,85.13619,-11.71176,3.10371,-0.00101,-27.7248,3.39261,-0.00095,13.4011,2.42039,23.10155,-7.15718,-6.29713,22.39659,-2.27469,3.96556,4.2035
903,-2.56267,0.0,0.0,-1.04782,0.0,0.0,-5.53587,-6.75179,18.81816,20.66846,6.4028,-9.31587,-21.01247,-5.20471,-0.00012,-28.65118,-0.59113,-6e-05,38.27528,18.8756,14.7482,19.32545,0.29529,-7.96438,6.0117,16.42606,-26.3471,-7.29549,-25.27883,24.76787,65.24082,0.0044,-96.24612,43.5911,-0.00693,84.48508,-11.01815,3.19102,0.00411,-26.98054,3.56595,-0.00295,13.82745,2.40836,23.17079,-6.72121,-6.33268,22.4575,-2.18486,3.96024,4.28437
904,-2.60473,0.0,0.0,-1.28118,0.0,-0.0,-5.6424,-7.11688,18.94698,20.75404,5.89128,-9.2397,-20.98817,-5.1433,-5e-05,-28.7414,-0.59452,-0.00012,38.38184,18.93678,14.53156,19.45334,0.39845,-8.02956,5.77122,16.29525,-26.37698,-7.09137,-24.88351,24.51634,64.71063,0.00551,-95.07,42.40767,0.01191,84.67614,-10.01829,3.65911,0.00734,-26.2,3.76225,-0.00125,14.28014,2.4114,23.24522,-6.25753,-6.35593,22.52864,-2.14748,3.97485,4.28974
905,-2.94758,0.0,-0.0,-1.63391,0.0,0.0,-5.77527,-7.37337,19.06691,20.8081,5.70431,-9.09288,-20.868,-5.0285,0.00011,-28.79124,-0.61571,-5e-05,38.44013,18.91797,14.35312,19.54795,0.44423,-8.12886,5.53151,16.15426,-26.25738,-6.83727,-24.47453,24.32297,64.25724,0.00247,-93.91702,41.19054,0.02081,85.72192,-9.14653,4.12253,0.00321,-25.40056,4.16958,0.00343,14.66558,2.38076,23.36168,-5.85623,-6.42543,22.62749,-2.12529,3.95266,4.22462
906,-3.28364,0.0,0.0,-1.99021,0.0,0.0,-6.03346,-7.32823,19.02347,20.83205,5.80811,-8.87001,-20.67533,-4.9035,0.00017,-28.85993,-0.68118,0.00012,38.44597,18.87254,14.35299,19.66449,0.45521,-8.20436,5.2292,15.95779,-25.95306,-6.61382,-24.05567,24.13109,63.96969,-0.00145,-93.15953,40.00899,0.0085,86.73239,-8.76916,4.16824,-2e-05,-24.50975,4.71556,0.00568,14.99671,2.34604,23.50301,-5.50566,-6.50743,22.74834,-2.10451,3.87507,4.18926
907,-3.37251,0.0,0.0,-2.23243,0.0,0.0,-6.36743,-7.02188,18.79876,20.80271,6.01761,-8.58966,-20.49927,-4.78324,7e-05,-28.97121,-0.79831,0.00025,38.41423,18.87374,14.50357,19.78984,0.50228,-8.26654,4.86276,15.74798,-25.58865,-6.45238,-23.62711,23.82907,63.82677,-0.00283,-92.91297,38.88515,-0.00719,86.97126,-8.94282,3.73238,0.00224,-23.54582,5.0861,0.00236,15.33469,2.37177,23.58216,-5.15493,-6.51102,22.83197,-2.116,3.79884,4.25326
