PaulMeinheit/Bachelor_Muay_Thai/processed_Data/N4/teep/sliced/JointAngles/sliced3.csv
Unnamed: 0_level_0,L_MTP_ANGLE,L_MTP_ANGLE,L_MTP_ANGLE,R_MTP_ANGLE,R_MTP_ANGLE,R_MTP_ANGLE,L_ANKLE_ANGLE,L_ANKLE_ANGLE,L_ANKLE_ANGLE,R_ANKLE_ANGLE,R_ANKLE_ANGLE,R_ANKLE_ANGLE,L_KNEE_ANGLE,L_KNEE_ANGLE,L_KNEE_ANGLE,R_KNEE_ANGLE,R_KNEE_ANGLE,R_KNEE_ANGLE,L_HIP_ANGLE,L_HIP_ANGLE,L_HIP_ANGLE,R_HIP_ANGLE,R_HIP_ANGLE,R_HIP_ANGLE,L_SHOULDER_ANGLE,L_SHOULDER_ANGLE,L_SHOULDER_ANGLE,R_SHOULDER_ANGLE,R_SHOULDER_ANGLE,R_SHOULDER_ANGLE,L_ELBOW_ANGLE,L_ELBOW_ANGLE,L_ELBOW_ANGLE,R_ELBOW_ANGLE,R_ELBOW_ANGLE,R_ELBOW_ANGLE,L_WRIST_ANGLE,L_WRIST_ANGLE,L_WRIST_ANGLE,R_WRIST_ANGLE,R_WRIST_ANGLE,R_WRIST_ANGLE,NECK_ANGLE,NECK_ANGLE,NECK_ANGLE,NECK_ANGLE_SHADOW,NECK_ANGLE_SHADOW,NECK_ANGLE_SHADOW,Trunk_Joint_Angle,Trunk_Joint_Angle,Trunk_Joint_Angle
ITEM,X,Y,Z,X,Y,Z,X,Y,Z,X,Y,Z,X,Y,Z,X,Y,Z,X,Y,Z,X,Y,Z,X,Y,Z,X,Y,Z,X,Y,Z,X,Y,Z,X,Y,Z,X,Y,Z,X,Y,Z,X,Y,Z,X,Y,Z
1248,-5.56468,0.0,0.0,-0.67804,-0.0,0.0,-9.45272,-6.68199,21.50986,20.6452,5.397,-13.50601,-16.37716,-3.18056,3e-05,-29.11829,-0.30137,5e-05,38.41608,17.21951,12.14667,18.99601,-0.86207,-9.62431,10.96486,16.57915,-17.432,6.15929,-24.46342,27.58109,53.75465,-0.00383,-84.62547,51.09478,0.00149,80.87299,-12.61849,-0.35985,0.0007,-11.58451,6.37326,-0.00016,12.68426,0.37277,25.16004,-7.66163,-8.93468,23.62013,-5.57425,4.12969,5.43312
1249,-5.88544,0.0,0.0,-0.6778,0.0,-0.0,-9.26484,-6.82942,21.61706,20.75526,5.38997,-13.5502,-16.40997,-3.20714,6e-05,-29.24057,-0.32987,8e-05,38.53489,17.13834,11.98652,19.07615,-0.88461,-9.6822,11.059,16.36175,-17.57815,6.47289,-24.50524,27.95597,54.05387,-0.00111,-85.10499,51.24296,-0.00223,80.97521,-12.67889,-0.69574,0.00018,-12.08295,6.3286,-1e-05,12.65973,0.46215,24.86694,-7.7262,-8.74889,23.37353,-5.58315,4.07111,5.51889
1250,-6.23437,0.0,0.0,-0.72787,-0.0,0.0,-9.11182,-6.67304,21.60899,20.81301,5.38353,-13.56781,-16.43542,-3.26282,3e-05,-29.29738,-0.43509,1e-05,38.63511,17.09404,11.8683,19.12014,-0.86719,-9.83319,11.16745,16.0611,-17.69141,6.67472,-24.58002,28.2237,54.33893,0.00568,-86.07745,51.41699,-0.00381,81.69904,-12.65625,-1.02772,-0.0006,-12.67047,6.23957,-0.00077,12.64615,0.46124,24.55348,-7.78728,-8.64043,23.07602,-5.58425,4.05031,5.70218
1251,-6.35816,0.0,0.0,-0.83733,0.0,-0.0,-9.07694,-6.23538,21.40522,20.80181,5.28126,-13.55381,-16.46841,-3.28614,-1e-05,-29.31838,-0.58353,-5e-05,38.66692,17.02197,11.90768,19.09816,-0.86194,-10.03281,11.20054,15.67868,-17.65953,6.82514,-24.6957,28.486,54.69236,0.00848,-87.29289,51.69831,-0.00086,82.27003,-12.62242,-1.33667,-0.00114,-13.29167,6.14263,3e-05,12.60343,0.37706,24.28731,-7.87428,-8.62629,22.79403,-5.63982,4.04902,5.90196
1252,-6.14797,0.0,0.0,-0.98425,-0.0,0.0,-9.1809,-5.79357,21.02302,20.78797,5.10543,-13.561,-16.46459,-3.2458,1e-05,-29.35501,-0.69895,-8e-05,38.60467,16.85428,12.1256,19.01339,-0.93435,-10.20022,11.22896,15.27972,-17.67069,6.99644,-24.8371,28.83697,54.95472,0.00476,-87.977,52.02428,0.00417,81.99443,-12.67908,-1.4965,-0.00171,-13.963,5.86393,0.0038,12.54241,0.25722,24.03045,-7.97964,-8.64859,22.50822,-5.75907,4.03559,6.02715
1253,-5.82131,-0.0,-0.0,-1.13461,-0.0,-0.0,-9.35887,-5.63453,20.59696,20.86272,4.97785,-13.70725,-16.38547,-3.17142,8e-05,-29.42083,-0.70893,-0.00011,38.53037,16.59059,12.38737,18.92938,-1.09772,-10.27899,11.36874,14.9216,-17.93755,7.23656,-24.95332,29.27612,54.93685,0.00149,-87.93394,52.2338,0.00444,81.1526,-12.76938,-1.42701,-0.00195,-14.60386,5.30698,0.00531,12.5089,0.14923,23.69404,-8.06797,-8.63162,22.15126,-5.85575,4.0077,6.03837
1254,-5.50999,-0.0,-0.0,-1.24591,0.0,-0.0,-9.54547,-5.83743,20.25113,21.02097,4.96875,-14.02639,-16.26117,-3.10727,7e-05,-29.46869,-0.62791,-4e-05,38.52697,16.34175,12.57346,18.88671,-1.26116,-10.26398,11.5791,14.60052,-18.31506,7.54673,-24.9999,29.70628,54.76375,-0.00058,-87.77454,52.26454,0.00229,80.71202,-12.68464,-1.24142,-0.00109,-14.9957,4.73462,0.00215,12.54211,0.06324,23.33154,-8.09138,-8.58454,21.77748,-5.8872,3.99656,5.9919
1255,-5.14234,0.0,0.0,-1.29789,-0.0,-0.0,-9.70965,-6.17759,19.99943,21.17552,5.04336,-14.38159,-16.16656,-3.07785,2e-05,-29.44319,-0.55126,4e-05,38.5903,16.22195,12.68909,18.86592,-1.32176,-10.20844,11.72677,14.29506,-18.48494,7.85989,-24.99089,29.99672,54.72307,-0.00152,-87.82228,52.23278,0.00097,80.95702,-12.36899,-1.04454,-0.00011,-14.97693,4.46863,0.00017,12.63782,-0.00373,23.13549,-8.02702,-8.57807,21.56807,-5.90595,4.01466,5.98591
1256,-4.80751,0.0,0.0,-1.29507,0.0,-0.0,-9.81147,-6.28528,19.81321,21.24917,5.16403,-14.58321,-16.15693,-3.09234,2e-05,-29.34623,-0.56654,-8e-05,38.6915,16.21855,12.76049,18.84973,-1.28203,-10.22491,11.82995,14.0345,-18.45206,8.09962,-24.97128,30.09458,54.80536,-0.0008,-87.74187,52.25969,0.00029,81.28583,-12.07722,-0.7555,-0.00059,-14.58649,4.50691,0.00083,12.74061,-0.01695,23.20173,-7.91557,-8.61381,21.62604,-5.95424,4.03133,6.05014
1257,-4.77627,0.0,0.0,-1.23096,0.0,0.0,-9.80466,-6.02345,19.70239,21.20346,5.32896,-14.55673,-16.22786,-3.13742,4e-05,-29.23168,-0.68456,-0.00017,38.8129,16.23398,12.75942,18.83958,-1.21607,-10.40193,12.04082,13.88529,-18.53894,8.27741,-24.95327,30.09165,54.73356,0.00183,-87.30429,52.31452,-0.00011,81.21864,-12.08995,-0.32178,-0.00258,-14.04208,4.60541,0.00071,12.799,0.0571,23.39674,-7.82552,-8.61325,21.83701,-6.02579,4.01771,6.12743
1258,-5.13929,0.0,0.0,-1.12209,-0.0,0.0,-9.69554,-5.60399,19.68297,21.04393,5.4644,-14.38043,-16.32507,-3.18668,3e-05,-29.15091,-0.83463,-9e-05,38.9248,16.22959,12.66693,18.83475,-1.16296,-10.68885,12.36705,13.86386,-18.89441,8.47485,-24.9132,30.13433,54.46654,0.00315,-86.76323,52.30307,-0.00058,80.85863,-12.39597,0.05866,-0.00259,-13.58753,4.61008,7e-05,12.83516,0.16957,23.51034,-7.76712,-8.54798,21.98458,-6.10896,3.98901,6.17001
1259,-5.61322,0.0,0.0,-1.03755,-0.0,0.0,-9.58002,-5.28519,19.70244,20.83481,5.43784,-14.19492,-16.39499,-3.23043,1e-05,-29.11204,-0.9185,1e-05,38.99152,16.24732,12.55061,18.8231,-1.11845,-10.93926,12.62062,13.89345,-19.30878,8.73633,-24.83637,30.27409,54.30795,0.00287,-86.54029,52.21186,5e-05,80.70936,-12.7365,0.1065,-0.00044,-13.25925,4.58214,0.00034,12.91408,0.21814,23.48553,-7.6892,-8.49378,21.97839,-6.20635,3.98142,6.1908
1260,-5.92241,0.0,0.0,-1.07477,-0.0,-0.0,-9.54064,-5.12571,19.70673,20.68217,5.26486,-14.10549,-16.42834,-3.28321,1e-05,-29.08395,-0.88388,5e-05,39.02873,16.29868,12.46582,18.79663,-1.09501,-11.07466,12.69238,13.87419,-19.57196,9.04248,-24.74404,30.46931,54.43126,0.00347,-86.77576,52.09116,0.00124,81.15867,-12.89247,-0.15243,0.00072,-12.92135,4.55867,0.00088,13.04221,0.16049,23.43505,-7.57134,-8.52997,21.91009,-6.3076,4.00942,6.19852
1261,-6.11477,0.0,-0.0,-1.24633,0.0,-0.0,-9.54304,-5.0828,19.71196,20.65042,5.14466,-14.12017,-16.44354,-3.35239,2e-05,-29.03071,-0.7604,7e-05,39.0898,16.335,12.37575,18.76155,-1.11571,-11.13202,12.69975,13.77572,-19.7655,9.36722,-24.68214,30.70598,54.61549,0.00301,-87.11681,51.97815,0.00098,81.81145,-12.86404,-0.31024,0.00118,-12.61162,4.34601,0.00198,13.15793,0.04526,23.46339,-7.45769,-8.64781,21.89588,-6.38768,4.06044,6.17221
1262,-6.16517,0.0,0.0,-1.3552,-0.0,0.0,-9.54037,-5.18681,19.69456,20.68276,5.19456,-14.14098,-16.43577,-3.40541,1e-05,-28.93546,-0.62638,3e-05,39.14648,16.33807,12.29737,18.69828,-1.15928,-11.16047,12.79497,13.64533,-20.10017,9.68916,-24.68168,31.01014,54.58287,0.0024,-87.10442,51.88597,-0.00032,81.81296,-12.83408,-0.02971,0.00081,-12.57397,3.78455,0.00484,13.20568,-0.06808,23.56016,-7.40219,-8.78796,21.94715,-6.4615,4.1132,6.13251
1263,-5.91273,0.0,0.0,-1.22432,0.0,-0.0,-9.55268,-5.50143,19.60984,20.66777,5.28235,-14.07966,-16.3763,-3.40112,6e-05,-28.80034,-0.52794,-4e-05,39.12264,16.32743,12.29028,18.57887,-1.18124,-11.161,12.95317,13.53957,-20.61633,9.97387,-24.72618,31.35556,54.37976,0.00176,-86.71986,51.81561,-0.00095,80.95197,-13.01699,0.51333,-0.00035,-12.85294,3.13651,0.00514,13.16287,-0.16257,23.65919,-7.43595,-8.91125,22.00732,-6.55425,4.15193,6.12667
1264,-5.49408,0.0,0.0,-1.00148,0.0,0.0,-9.61138,-5.933,19.51456,20.56676,5.20152,-13.96005,-16.26222,-3.33262,0.00018,-28.63787,-0.44903,-4e-05,39.05822,16.2742,12.29995,18.44239,-1.1901,-11.16487,13.01545,13.46963,-21.1261,10.20188,-24.76916,31.66455,54.28411,0.00052,-86.31476,51.75375,-0.00073,79.84093,-13.43239,0.85457,0.00036,-13.17773,2.85751,0.00172,13.02529,-0.24346,23.70044,-7.57208,-9.00148,22.0176,-6.6184,4.16639,6.13652
1265,-5.24107,0.0,0.0,-0.94986,0.0,-0.0,-9.72261,-6.24274,19.47752,20.42653,4.91768,-13.87208,-16.14065,-3.22759,0.0002,-28.46554,-0.35888,1e-05,39.07083,16.14175,12.23808,18.36203,-1.2271,-11.24361,12.88318,13.40951,-21.4324,10.38517,-24.77859,31.88664,54.45212,0.00091,-86.19085,51.68533,-8e-05,79.18952,-13.84372,0.78967,0.00118,-13.31984,3.03486,-9e-05,12.81554,-0.32178,23.62727,-7.79672,-9.04904,21.92034,-6.59136,4.15386,6.11969
1266,-5.28935,-0.0,-0.0,-1.0879,-0.0,-0.0,-9.84297,-6.34388,19.47909,20.32071,4.59354,-13.88993,-16.06713,-3.14159,0.00011,-28.30298,-0.23959,8e-05,39.1629,15.99284,12.12245,18.33173,-1.28873,-11.3668,12.63453,13.34128,-21.57737,10.53871,-24.75495,32.01884,54.76102,0.00145,-86.34289,51.61245,0.00036,79.21921,-14.05286,0.48045,0.00022,-13.3113,3.38495,9e-05,12.60132,-0.40681,23.42503,-8.04458,-9.05737,21.69835,-6.51749,4.1283,6.10712
1267,-5.43946,0.0,0.0,-1.23136,-0.0,-0.0,-9.91157,-6.40898,19.45192,20.28669,4.41622,-14.00177,-16.0509,-3.12114,5e-05,-28.16544,-0.09289,9e-05,39.19704,15.94067,12.04828,18.25239,-1.3333,-11.41888,12.46393,13.27676,-21.79247,10.65831,-24.71123,32.06708,54.94302,-0.0002,-86.55215,51.54773,0.00012,79.62204,-14.10776,0.17527,-0.00061,-13.30388,3.66827,0.00045,12.46635,-0.48362,23.17688,-8.21892,-9.04167,21.4358,-6.52312,4.11657,6.15765
1268,-5.42122,0.0,0.0,-1.2627,-0.0,-0.0,-9.90708,-6.60498,19.36729,20.28647,4.43807,-14.09666,-16.0742,-3.16435,4e-05,-28.05052,0.03153,-2e-05,39.10574,16.03313,12.04543,18.0712,-1.31742,-11.3984,12.50908,13.23298,-22.20452,10.72634,-24.64216,32.02754,54.81921,-0.00267,-86.75352,51.49839,-0.00029,80.06141,-14.10469,-0.01157,-0.00051,-13.39313,3.86156,0.00045,12.43227,-0.52961,23.00691,-8.27936,-9.02461,21.25835,-6.64773,4.14797,6.25684
1269,-5.33067,0.0,0.0,-1.22891,-0.0,-0.0,-9.82473,-6.88561,19.29804,20.26075,4.57442,-14.08817,-16.13017,-3.24645,4e-05,-27.94037,0.06736,-0.00014,39.01546,16.22392,12.0063,17.88618,-1.22389,-11.41898,12.71223,13.21129,-22.69471,10.75249,-24.53387,31.94456,54.4572,-0.00316,-86.99547,51.46233,-0.00038,80.44371,-14.01193,-0.09465,-7e-05,-13.58056,4.03329,0.00017,12.42885,-0.55923,22.96574,-8.29018,-9.03776,21.20875,-6.76617,4.22368,6.32699
1270,-5.55698,0.0,0.0,-1.2473,0.0,-0.0,-9.65036,-7.04501,19.35623,20.22251,4.69186,-14.02131,-16.20171,-3.36508,2e-05,-27.82879,0.027,-0.00015,39.08778,16.42476,11.81561,17.85238,-1.09332,-11.50838,12.86052,13.20602,-23.05486,10.78972,-24.40151,31.92873,54.11731,-0.00124,-87.11974,51.43454,-0.00023,80.69635,-13.76124,-0.12852,-7e-05,-13.7501,4.23588,0.00029,12.3575,-0.61609,23.01275,-8.3582,-9.10757,21.23291,-6.72244,4.29335,6.3237
1271,-6.19829,0.0,0.0,-1.34833,-0.0,0.0,-9.40465,-6.91199,19.53398,20.22529,4.70965,-13.9915,-16.26296,-3.52709,1e-05,-27.73213,0.00019,-3e-05,39.3215,16.58025,11.51999,18.00038,-0.99303,-11.57086,12.8063,13.20908,-23.2076,10.86608,-24.27645,32.02056,53.98925,-3e-05,-86.96303,51.41492,-2e-05,80.81258,-13.36235,-0.18422,-0.00061,-13.68399,4.48827,0.00116,12.1751,-0.73213,23.07638,-8.53836,-9.23862,21.25161,-6.50699,4.30281,6.28118
1272,-6.77255,0.0,0.0,-1.36251,0.0,-0.0,-9.19102,-6.60704,19.68213,20.24811,4.66876,-14.00698,-16.31501,-3.6911,2e-05,-27.6709,0.05073,2e-05,39.54036,16.66596,11.31757,18.17187,-0.97647,-11.54097,12.60937,13.21002,-23.23748,10.94236,-24.16552,32.11913,54.01947,0.00019,-86.67374,51.41242,4e-05,80.96984,-12.95355,-0.26894,-0.00068,-13.28678,4.72817,0.00131,11.94483,-0.90159,23.08115,-8.77781,-9.3988,21.19538,-6.29011,4.2319,6.24584
1273,-6.78184,0.0,0.0,-1.12832,0.0,0.0,-9.11066,-6.50516,19.70499,20.2169,4.66893,-13.99847,-16.38071,-3.78509,-2e-05,-27.65093,0.16924,-4e-05,39.58468,16.65462,11.35169,18.18965,-1.07824,-11.46036,12.41931,13.20584,-23.25849,10.97429,-24.06071,32.1345,54.03813,0.00011,-86.59049,51.44262,-0.0001,81.28167,-12.74893,-0.26998,-0.00049,-12.75089,4.85591,0.00015,11.80792,-1.06744,22.96449,-8.94066,-9.51261,21.02527,-6.23762,4.077,6.21238
1274,-6.29299,0.0,0.0,-0.788,0.0,-0.0,-9.15581,-6.76532,19.62533,20.12864,4.71273,-13.90885,-16.48645,-3.77784,-0.00017,-27.65084,0.30453,-9e-05,39.51213,16.56562,11.5858,18.07017,-1.26969,-11.43571,12.30416,13.19965,-23.34078,10.97849,-23.96592,32.11049,53.96084,-0.00068,-86.95142,51.49259,-6e-05,81.65173,-12.857,-0.10859,-0.00104,-12.35681,4.88424,-0.00056,11.85212,-1.16221,22.72989,-8.93429,-9.51806,20.76882,-6.31051,3.87573,6.16414
1275,-5.64295,0.0,0.0,-0.6216,0.0,-0.0,-9.26584,-7.11653,19.45674,20.06371,4.66821,-13.73353,-16.64467,-3.69083,-0.00034,-27.62988,0.415,-6e-05,39.50165,16.49484,11.90565,17.95514,-1.44508,-11.55129,12.25235,13.19889,-23.54898,11.01639,-23.87675,32.13556,53.82026,-0.00124,-87.7172,51.49105,9e-05,81.90716,-13.20825,0.09869,-0.00101,-12.21883,4.92693,-0.00045,12.02105,-1.17822,22.45402,-8.80371,-9.43505,20.50166,-6.35732,3.72412,6.13119
1276,-5.03039,0.0,-0.0,-0.7224,0.0,0.0,-9.39532,-7.20738,19.22222,20.08537,4.45593,-13.52392,-16.82878,-3.58692,-0.00032,-27.56579,0.50336,-2e-05,39.59896,16.52371,12.20076,17.89855,-1.52035,-11.77863,12.25022,13.22305,-23.91709,11.13754,-23.77148,32.25523,53.68175,-0.0007,-88.62624,51.3803,-0.00037,81.90522,-13.64075,0.12485,0.00017,-12.28861,5.03743,6e-05,12.19627,-1.14905,22.2354,-8.6561,-9.33004,20.30513,-6.33888,3.68517,6.15516
1277,-4.57735,0.0,0.0,-1.00637,-0.0,-0.0,-9.48293,-6.9503,19.03419,20.1727,4.19606,-13.35475,-16.99576,-3.54487,-9e-05,-27.46737,0.60149,7e-05,39.69111,16.63135,12.36549,17.82629,-1.51502,-12.00494,12.27308,13.27969,-24.33439,11.34897,-23.66162,32.50509,53.58736,0.00024,-89.46668,51.21424,-0.00097,81.64658,-13.96282,-0.12489,0.00042,-12.43771,5.20121,0.00103,12.32362,-1.0892,22.16088,-8.53519,-9.24758,20.25617,-6.34252,3.71775,6.21
1278,-4.4456,0.0,0.0,-1.37609,-0.0,0.0,-9.45081,-6.48026,19.00491,20.25145,4.05385,-13.25874,-17.1497,-3.60229,0.0002,-27.34698,0.72855,0.0002,39.7126,16.73975,12.34585,17.67504,-1.49946,-12.16302,12.24586,13.33262,-24.57608,11.62115,-23.5932,32.87939,53.567,0.00077,-90.19856,51.09632,-0.00088,81.35062,-13.9749,-0.49333,-0.00022,-12.48232,5.44204,0.00213,12.42057,-1.01947,22.26177,-8.42073,-9.21832,20.37681,-6.41661,3.75695,6.21483
1279,-4.77208,0.0,0.0,-1.75761,0.0,0.0,-9.26952,-5.94385,19.09957,20.26895,4.07326,-13.19311,-17.35663,-3.73106,0.00044,-27.22472,0.84903,0.00024,39.77768,16.81844,12.19956,17.52415,-1.49811,-12.30049,12.09684,13.33669,-24.52397,11.91462,-23.572,33.28228,53.64394,0.00022,-90.6992,51.02635,-0.00062,81.17506,-13.57025,-0.68706,0.00152,-12.30786,5.69312,0.00191,12.51737,-0.98979,22.47425,-8.29364,-9.26611,20.58868,-6.47329,3.80462,6.13277
1280,-5.46527,0.0,-0.0,-2.0318,0.0,0.0,-8.99517,-5.46816,19.12441,20.22594,4.26836,-13.08189,-17.68101,-3.85946,0.00023,-27.14856,0.86865,0.00021,40.03693,16.89647,12.08888,17.52299,-1.48724,-12.52025,11.85013,13.29188,-24.28456,12.20204,-23.54804,33.62983,53.78953,-0.00109,-90.71928,50.90402,-0.00067,81.02943,-12.91586,-0.56813,0.00387,-12.02249,5.70259,0.00027,12.63088,-1.00185,22.68834,-8.15174,-9.35339,20.78713,-6.39799,3.8799,6.00953
1281,-6.06893,0.0,0.0,-2.03137,-0.0,0.0,-8.74652,-5.21229,18.89166,20.15138,4.68254,-12.90115,-18.11949,-3.92039,-0.00059,-27.14497,0.72947,0.00022,40.45063,17.00236,12.17029,17.67193,-1.45511,-12.85127,11.61625,13.22227,-24.05526,12.47061,-23.47771,33.93643,53.91135,-0.00125,-90.22153,50.67796,-0.00086,80.84685,-12.4002,-0.29209,0.00267,-11.85124,5.33001,0.00028,12.76025,-0.98914,22.82494,-8.00292,-9.38994,20.92113,-6.22411,3.95283,5.91775
1282,-6.06514,0.0,0.0,-1.72478,-0.0,-0.0,-8.62817,-5.22356,18.41488,20.08343,5.25457,-12.72248,-18.61968,-3.91953,-0.00109,-27.16415,0.5114,9e-05,40.82828,17.15217,12.44886,17.79167,-1.40809,-13.19291,11.49361,13.12525,-23.93998,12.72217,-23.35345,34.25032,53.92649,7e-05,-89.40881,50.41209,-0.00058,80.752,-12.24628,-0.02519,0.00036,-11.9128,4.76439,0.0017,12.88761,-0.93005,22.86102,-7.86715,-9.34748,20.97655,-6.11189,3.98968,5.90706
1283,-5.48421,0.0,0.0,-1.37106,0.0,-0.0,-8.60509,-5.32122,17.93621,20.06888,5.76301,-12.65508,-19.15103,-3.95722,-0.00032,-27.13525,0.3779,-4e-05,41.07115,17.36406,12.72971,17.74456,-1.34188,-13.40608,11.50648,12.99502,-23.92624,12.98042,-23.18219,34.58739,53.82915,0.00124,-88.4847,50.20377,2e-05,80.95322,-12.31045,0.2464,-0.00027,-12.19529,4.37628,0.00087,12.99848,-0.88214,22.81535,-7.75978,-9.2865,20.95049,-6.15569,4.00512,5.98628
1284,-4.8896,0.0,0.0,-1.27747,-0.0,0.0,-8.50765,-5.32117,17.72761,20.12087,5.96451,-12.73239,-19.7125,-4.13397,0.00121,-27.05069,0.43351,9e-05,41.23729,17.62348,12.76322,17.55509,-1.26272,-13.43681,11.61942,12.87956,-23.98539,13.29047,-22.9807,34.96848,53.67558,0.00134,-87.57536,50.07449,0.00035,81.48828,-12.3535,0.49912,0.00011,-12.62472,4.44852,-0.00231,13.10701,-0.87226,22.72279,-7.66337,-9.24444,20.86634,-6.30461,4.0291,6.10721
1285,-4.65622,0.0,0.0,-1.44749,-0.0,0.0,-8.23532,-5.29355,17.85565,20.19147,5.77577,-12.8788,-20.28412,-4.43212,0.00187,-26.95098,0.65697,0.00019,41.40731,17.85942,12.46919,17.31394,-1.20894,-13.34336,11.77096,12.84391,-24.10811,13.69567,-22.77983,35.44067,53.52726,0.00064,-86.80735,49.94262,0.00034,82.04524,-12.31001,0.57576,0.00011,-13.05301,4.92272,-0.00327,13.25166,-0.86078,22.63653,-7.52985,-9.20312,20.78877,-6.45556,4.06788,6.18548
1286,-4.66816,0.0,0.0,-1.659,-0.0,0.0,-7.8685,-5.40504,18.14015,20.23491,5.35507,-12.99002,-20.82277,-4.71602,0.00088,-26.85642,0.92585,0.0001,41.62383,17.98707,12.00764,17.09924,-1.2146,-13.24757,11.89667,12.88423,-24.24796,14.19934,-22.59462,35.98094,53.42827,-0.00013,-86.37762,49.71342,-0.0004,82.25248,-12.22479,0.34786,-0.00018,-13.27534,5.40939,-0.00125,13.45135,-0.83096,22.61811,-7.33097,-9.1687,20.78204,-6.52894,4.11098,6.16569
1287,-4.64455,0.0,-0.0,-1.75765,0.0,0.0,-7.56686,-5.57363,18.2884,20.25678,4.96726,-13.01132,-21.3061,-4.84554,-0.00084,-26.75858,1.1008,-9e-05,41.90204,17.97176,11.6781,16.96138,-1.27446,-13.26303,11.95465,12.94161,-24.32827,14.75241,-22.41717,36.45688,53.40745,-0.00043,-86.32188,49.4205,-0.00092,82.00922,-12.13768,-0.15255,0.00012,-13.16365,5.57529,-0.00062,13.66885,-0.82016,22.67087,-7.10564,-9.17732,20.83589,-6.49356,4.14115,6.06577
1288,-4.48677,0.0,0.0,-1.76578,0.0,-0.0,-7.39406,-5.50911,18.12967,20.29999,4.73309,-12.98037,-21.76215,-4.81715,-0.00162,-26.66791,1.12716,-0.0002,42.22238,17.88102,11.68908,16.90848,-1.34277,-13.39904,11.94448,12.97124,-24.30718,15.29597,-22.25345,36.7923,53.44601,-0.0007,-86.33656,49.23212,0.00035,81.45714,-12.08596,-0.66386,0.00094,-12.81198,5.43914,-0.00138,13.83221,-0.8536,22.72641,-6.93661,-9.22827,20.87648,-6.37418,4.14514,5.96368
1289,-4.33815,0.0,-0.0,-1.77748,-0.0,-0.0,-7.23838,-5.10825,17.76698,20.40841,4.60497,-13.01825,-22.24954,-4.78427,-0.00071,-26.60789,1.06263,-0.0001,42.55088,17.85718,11.95747,16.91186,-1.36028,-13.53838,11.89626,12.94896,-24.18171,15.8212,-22.11459,37.10412,53.46862,-0.00112,-86.23711,49.26023,0.00158,80.96436,-12.13165,-0.82292,0.00037,-12.50344,5.24411,-0.00099,13.88317,-0.90006,22.72488,-6.88853,-9.27118,20.85833,-6.20594,4.13623,5.93459
1290,-4.3191,-0.0,0.0,-1.80451,0.0,-0.0,-6.95571,-4.61669,17.41316,20.57027,4.5462,-13.20727,-22.81157,-4.88503,0.00083,-26.54872,1.00942,0.00017,42.87048,17.98927,12.21173,16.90845,-1.29877,-13.56644,11.84392,12.87525,-23.98886,16.37646,-21.97828,37.56772,53.44904,-0.00118,-86.26529,49.42973,0.00123,80.96313,-12.38019,-0.5005,-0.00259,-12.43614,5.14617,-0.00023,13.80168,-0.90004,22.6617,-6.97866,-9.24875,20.79851,-6.0034,4.1557,5.99483
1291,-4.3359,0.0,-0.0,-1.82355,0.0,-0.0,-6.56337,-4.33607,17.13954,20.71878,4.57699,-13.49077,-23.46497,-5.09085,0.00127,-26.41496,1.01618,0.00042,43.20068,18.23128,12.26181,16.819,-1.16724,-13.49884,11.81666,12.80991,-23.82941,17.0089,-21.81526,38.1949,53.49761,0.00013,-86.61119,49.60755,0.00116,81.50773,-12.86756,0.0552,-0.00412,-12.48886,5.11344,3e-05,13.61463,-0.82906,22.56021,-7.17546,-9.14638,20.72791,-5.78899,4.24508,6.10191
1292,-4.24038,-0.0,-0.0,-1.90961,0.0,-0.0,-6.22233,-4.27028,16.87478,20.80679,4.70865,-13.74749,-24.2049,-5.28004,0.00043,-26.17187,1.03131,0.00038,43.58936,18.46195,12.10246,16.60838,-0.97821,-13.45785,11.84909,12.81569,-23.78291,17.70585,-21.64234,38.82784,53.74435,0.00188,-87.10237,49.78831,0.00059,82.31369,-13.37633,0.46529,-0.00151,-12.3508,5.09047,0.00027,13.40287,-0.72685,22.44193,-7.39748,-9.00884,20.65269,-5.60128,4.41545,6.1946
1293,-4.0088,0.0,0.0,-2.09051,-0.0,0.0,-6.04839,-4.15168,16.55839,20.82663,4.90791,-13.92581,-24.9781,-5.40038,-0.0004,-25.84639,0.97379,3e-05,44.03473,18.59841,11.83623,16.29721,-0.74204,-13.53909,11.9801,12.85684,-23.79395,18.40875,-21.50399,39.32128,54.16919,0.00128,-87.46191,50.06821,-0.00194,83.23273,-13.60945,0.58326,0.00097,-11.92381,5.11288,0.0012,13.27348,-0.65519,22.31406,-7.54015,-8.89644,20.55746,-5.47197,4.6328,6.2455
1294,-3.6701,0.0,0.0,-2.12883,0.0,0.0,-5.99374,-3.783,16.16958,20.76897,5.07367,-14.05728,-25.69083,-5.47846,-0.00073,-25.47151,0.82959,-0.00022,44.4385,18.64166,11.61303,15.91346,-0.48805,-13.73288,12.22611,12.84984,-23.74434,19.08333,-21.4015,39.66317,54.6497,-0.00192,-87.47947,50.47326,-0.0035,84.24515,-13.58374,0.55257,0.00113,-11.54738,5.2407,0.00179,13.28843,-0.64326,22.1599,-7.54525,-8.83048,20.41593,-5.41057,4.82789,6.28176
1295,-3.27247,0.0,-0.0,-1.82119,0.0,0.0,-5.90164,-3.24256,15.70008,20.65992,5.1004,-14.20889,-26.29411,-5.54686,-0.00071,-25.06515,0.63366,-0.00032,44.70316,18.64749,11.54997,15.47795,-0.24136,-13.95134,12.56731,12.79853,-23.61157,19.75764,-21.27216,39.92126,55.12048,-0.0042,-87.12222,50.87483,-0.00108,85.26254,-13.52449,0.54703,0.00028,-11.73727,5.4591,0.00016,13.4217,-0.6803,21.93738,-7.44369,-8.78591,20.19217,-5.39084,4.94485,6.34833
1296,-2.98527,-0.0,-0.0,-1.44118,0.0,-0.0,-5.63552,-2.75705,15.2237,20.61923,5.0056,-14.46277,-26.8336,-5.65096,-0.00013,-24.6469,0.41265,-0.00038,44.82315,18.6827,11.59506,15.00044,0.01589,-14.07453,12.95351,12.78635,-23.47356,20.46796,-21.05529,40.11681,55.61087,-0.00167,-86.73817,51.10342,0.00318,86.30239,-13.45842,0.57329,-0.00059,-12.71036,5.70359,-0.00329,13.58233,-0.73704,21.59737,-7.33087,-8.71769,19.85032,-5.36688,4.99141,6.47377
1297,-2.94841,0.0,0.0,-1.40563,0.0,0.0,-5.17469,-2.47829,14.84735,20.74833,4.89524,-14.8283,-27.38555,-5.83022,0.00067,-24.22462,0.19322,-0.00041,44.83937,18.76344,11.59862,14.45864,0.28962,-14.05398,13.31159,12.85858,-23.40941,21.16554,-20.78385,40.17296,56.18932,0.00377,-86.77584,51.19333,0.0061,87.31221,-13.30408,0.55186,-0.00115,-14.11627,5.93007,-0.00617,13.66453,-0.79539,21.13511,-7.31142,-8.60695,19.39257,-5.3089,5.01245,6.6573
1298,-3.06257,0.0,0.0,-1.65861,-0.0,0.0,-4.5972,-2.42905,14.60545,20.98549,4.79138,-15.20103,-27.96334,-6.05831,0.00089,-23.77271,0.02546,-0.00025,44.78115,18.80442,11.4878,13.82641,0.49749,-13.99959,13.60489,12.99188,-23.4718,21.72899,-20.59336,39.99835,56.88054,0.00485,-87.17743,51.46037,0.0095,87.84044,-13.18126,0.51765,-0.00135,-15.05754,6.04849,-0.00756,13.61211,-0.86145,20.63462,-7.43039,-8.4892,18.89619,-5.20038,5.02304,6.84225
1299,-3.08967,0.0,0.0,-1.80195,0.0,0.0,-4.00965,-2.53391,14.4843,21.17004,4.62171,-15.50776,-28.52091,-6.26915,0.00038,-23.25451,-0.04956,0.00013,44.6703,18.69419,11.28945,13.11341,0.54292,-14.05882,13.88607,13.17004,-23.68903,22.09587,-20.58715,39.61849,57.62457,0.0006,-87.49074,52.20062,0.01145,87.67775,-13.26429,0.56097,-0.00147,-14.66732,5.98546,-0.00872,13.45827,-0.92439,20.2113,-7.63962,-8.39576,18.47403,-5.02817,5.00298,6.93506
1300,-2.85876,0.0,0.0,-1.65177,0.0,0.0,-3.51104,-2.65101,14.40904,21.21076,4.36092,-15.81077,-29.0371,-6.41448,-0.00041,-22.65903,-0.03393,0.00067,44.52873,18.42097,11.1019,12.33735,0.43738,-14.23112,14.20263,13.41931,-24.00941,22.33431,-20.70287,39.18516,58.38646,-0.00095,-87.57742,53.34227,0.00173,87.42869,-13.50456,0.59435,-0.0012,-13.05891,5.88676,-0.0043,13.2746,-0.93301,19.88667,-7.86287,-8.28686,18.16486,-4.79354,4.93756,6.8779
1301,-2.3999,-0.0,0.0,-1.37811,0.0,-0.0,-3.13439,-2.72747,14.2445,21.12971,4.06964,-16.21416,-29.54449,-6.48229,-0.00105,-22.0076,0.04322,0.00115,44.37907,18.06063,11.02998,11.50454,0.27346,-14.37223,14.48799,13.74352,-24.29276,22.57803,-20.7832,38.83366,59.24562,0.0023,-87.68362,54.50897,-0.00803,87.62278,-13.74346,0.48786,-0.00104,-11.29332,5.90336,0.00175,13.09537,-0.8615,19.57065,-8.07588,-8.10614,17.89321,-4.49975,4.82926,6.68733
1302,-1.93098,0.0,0.0,-1.20307,-0.0,0.0,-2.81144,-2.83641,13.92647,20.98468,3.82457,-16.72948,-30.07148,-6.51482,-0.00094,-21.3453,0.11914,0.00089,44.25576,17.69125,11.08115,10.67082,0.12683,-14.36346,14.64229,14.08253,-24.41522,22.93218,-20.75801,38.58187,60.27428,0.00392,-87.87339,55.40219,-0.00403,87.90822,-13.93784,0.32781,-0.00136,-10.18585,5.91045,0.00201,12.91561,-0.74571,19.1686,-8.29668,-7.85286,17.55698,-4.11706,4.6787,6.45431
1303,-1.67235,-0.0,-0.0,-1.17064,0.0,-0.0,-2.45007,-2.92496,13.52502,20.82581,3.68215,-17.27915,-30.60273,-6.60831,0.00022,-20.7365,0.09291,-9e-05,44.19296,17.34964,11.15876,9.95512,0.0115,-14.24293,14.67314,14.3832,-24.37427,23.42501,-20.69121,38.4119,61.40928,0.00168,-87.93121,56.04444,0.00267,87.84658,-14.10952,0.19361,-0.00113,-9.68409,5.83458,0.00082,12.7179,-0.6167,18.6478,-8.5475,-7.54397,17.11433,-3.59697,4.47096,6.29443
1304,-1.67097,0.0,0.0,-1.17074,0.0,-0.0,-2.00949,-2.78179,13.12915,20.69881,3.705,-17.79312,-31.11113,-6.81843,0.0015,-20.24791,-0.10624,-0.00067,44.17285,17.01029,11.18457,9.42263,-0.12111,-14.17072,14.70176,14.6605,-24.29999,24.00156,-20.6737,38.35387,62.49821,3e-05,-87.71033,56.65892,0.00117,87.71846,-14.26702,-0.00559,-0.00016,-9.42498,5.9126,0.00081,12.46417,-0.46729,18.02362,-8.86344,-7.17807,16.58269,-2.94969,4.18297,6.25389
1305,-1.78544,0.0,0.0,-1.0621,0.0,0.0,-1.47958,-2.40967,12.75388,20.6046,3.91463,-18.27039,-31.60124,-7.05966,0.0016,-19.90347,-0.4564,-0.0004,44.10471,16.60899,11.1872,8.9875,-0.32628,-14.2599,14.86707,14.95809,-24.36827,24.562,-20.72433,38.38856,63.42057,0.00083,-87.21599,57.38273,-0.00572,87.98095,-14.51323,-0.19175,-0.0004,-9.29389,6.30481,0.00047,12.09295,-0.29772,17.3491,-9.29947,-6.77447,16.01205,-2.28323,3.81426,6.28457
1306,-1.81464,0.0,0.0,-0.77905,0.0,-0.0,-0.85779,-2.14923,12.39399,20.46462,4.16662,-18.77258,-32.10435,-7.16158,0.00019,-19.65383,-0.85153,1e-05,43.90026,16.1093,11.23196,8.47901,-0.5896,-14.44256,15.22763,15.30329,-24.65533,25.03537,-20.80527,38.38873,64.18216,9e-05,-86.44246,58.14971,-0.00802,88.51708,-14.99244,-0.06529,-0.00369,-9.36586,6.80592,-0.0005,11.56635,-0.13699,16.69746,-9.8868,-6.38683,15.46051,-1.72166,3.40811,6.30648
1307,-1.64234,0.0,-0.0,-0.36674,0.0,-0.0,-0.19237,-2.27654,12.04959,20.18717,4.23254,-19.34964,-32.64322,-7.01707,-0.00183,-19.43188,-1.17795,-7e-05,43.5801,15.53099,11.34979,7.81732,-0.83964,-14.53899,15.72135,15.70243,-25.05971,25.42826,-20.91253,38.28336,64.91248,-0.00503,-85.34669,58.83554,-0.00357,88.76216,-15.63532,0.45234,-0.00615,-9.68526,7.12898,-0.00061,10.91693,-0.03407,16.10951,-10.59097,-6.07576,14.94806,-1.27882,3.02196,6.2735
1308,-1.2881,0.0,-0.0,0.0347,0.0,-0.0,0.41111,-2.69519,11.71333,19.78125,4.03708,-20.0004,-33.19759,-6.68026,-0.00251,-19.25333,-1.398,-0.0008,43.2467,14.91983,11.52996,7.08418,-1.03117,-14.40962,16.22116,16.141,-25.41207,25.77663,-21.10458,38.13911,65.75391,-0.00913,-84.12578,59.44407,0.00139,88.40284,-16.15964,1.0533,-0.00393,-10.17723,7.21177,-0.00022,10.21987,-0.0479,15.5755,-11.34024,-5.89261,14.4435,-0.86113,2.67952,6.19326
1309,-0.85933,0.0,0.0,0.25009,0.0,0.0,0.88786,-3.10684,11.42387,19.38056,3.70581,-20.70876,-33.68673,-6.35597,-0.00102,-19.2368,-1.55114,-0.00188,42.93451,14.29899,11.67756,6.40678,-1.19247,-14.00675,16.65588,16.59638,-25.65528,26.06399,-21.41805,37.98972,66.74382,-0.00643,-83.27502,60.0983,0.0048,87.62936,-16.33988,1.42785,-0.00065,-10.6761,7.1161,-0.00011,9.5302,-0.18803,15.07697,-12.08182,-5.83951,13.92567,-0.40021,2.35786,6.0896
1310,-0.46848,0.0,0.0,0.21553,0.0,-0.0,1.27589,-3.29718,11.23263,19.11565,3.46216,-21.40431,-34.00216,-6.25326,0.00055,-19.53061,-1.71193,-0.00185,42.56922,13.65822,11.64446,5.86042,-1.39454,-13.4113,17.06858,17.05984,-25.863,26.24905,-21.79418,37.75413,67.79385,0.00019,-83.14542,60.87977,0.00677,86.7234,-16.11943,1.64325,0.00172,-11.07721,6.85824,-2e-05,8.87407,-0.34845,14.61382,-12.78576,-5.81785,13.43346,0.0927,2.01646,5.95954
1311,-0.19568,-0.0,-0.0,0.07503,0.0,-0.0,1.64218,-3.23189,11.1096,18.93885,3.47583,-21.92722,-34.08104,-6.42663,0.00031,-20.25477,-1.95591,0.00142,42.07376,13.00081,11.36734,5.50014,-1.67492,-12.81425,17.5321,17.54117,-26.11538,26.35291,-22.1251,37.38474,68.80262,0.00859,-83.78372,61.73423,0.00354,85.95222,-15.48174,1.90074,0.0031,-11.4226,6.46163,0.00046,8.26336,-0.36924,14.17913,-13.43518,-5.6766,13.01977,0.59083,1.64774,5.79371
1312,-0.07452,0.0,-0.0,0.10188,0.0,-0.0,1.99787,-3.02536,11.00235,18.59424,3.69009,-22.15873,-33.96121,-6.75798,-0.00062,-21.5178,-2.29942,0.00723,41.43703,12.37466,10.92017,5.39658,-1.99929,-12.32452,18.0484,18.06398,-26.4386,26.454,-22.35267,36.95618,69.77383,0.01762,-85.05362,62.52527,-0.00314,85.64101,-14.43951,2.10622,0.00024,-11.78018,5.96355,0.00133,7.68449,-0.1912,13.73544,-14.04529,-5.34704,12.67182,1.0776,1.30522,5.62153
1313,-0.04829,0.0,0.0,0.5729,0.0,-0.0,2.31136,-2.85128,10.95882,17.78979,3.88181,-22.16416,-33.76458,-7.06929,-0.00077,-23.45049,-2.64059,0.00893,40.71638,11.83255,10.39467,5.63645,-2.3004,-11.81024,18.57195,18.65091,-26.82903,26.62089,-22.49958,36.56664,70.76832,0.01825,-86.41006,63.15213,-0.0046,85.73583,-13.21836,2.06872,-0.004,-12.11052,5.36566,0.00141,7.12307,0.08834,13.24116,-14.63817,-4.90427,12.31487,1.52305,1.08019,5.48311
1314,-0.00612,0.0,0.0,1.63187,0.0,-0.0,2.57558,-2.81584,11.09875,16.37293,3.95144,-22.15482,-33.59502,-7.24806,-0.00046,-26.16643,-2.79915,-4e-05,40.02093,11.36264,9.78235,6.32653,-2.55157,-11.00922,19.09012,19.27946,-27.2507,26.88765,-22.62388,36.2303,71.78581,0.00532,-86.93286,63.62227,-0.00068,85.73979,-12.22359,1.90028,-0.00315,-12.29425,4.75451,-5e-05,6.61083,0.30189,12.70327,-15.18683,-4.50639,11.89318,1.90477,1.03453,5.35678
1315,0.08994,0.0,0.0,3.03068,0.0,0.0,2.83487,-2.88978,11.40464,14.30414,4.05317,-22.25233,-33.45145,-7.23667,-4e-05,-29.64624,-2.68741,-0.01325,39.42618,10.86247,9.1028,7.53522,-2.80358,-9.85081,19.64539,19.85997,-27.64003,27.24467,-22.76754,35.87313,72.77562,-0.01195,-86.01439,64.01383,0.00196,85.43758,-11.72841,1.89746,-0.00062,-12.27553,4.31738,-0.00122,6.18353,0.32355,12.187,-15.65321,-4.29441,11.42056,2.228,1.13583,5.17498
1316,0.19876,-0.0,0.0,4.12135,0.0,-0.0,3.13172,-3.00053,11.64166,11.50715,4.39459,-22.32924,-33.27313,-6.96826,0.00074,-33.68272,-2.41574,-0.01643,38.87703,10.21852,8.54181,9.18772,-3.13304,-8.58477,20.29317,20.30182,-27.95838,27.61784,-22.95656,35.40335,73.72572,-0.0224,-83.83739,64.3871,0.00137,85.12486,-11.72514,2.19084,-0.00132,-12.18847,4.09154,-0.00062,5.80696,0.13938,11.72877,-16.06872,-4.29476,10.92532,2.48038,1.28255,4.92617
1317,0.28433,0.0,-0.0,4.37658,-0.0,0.0,3.44817,-3.1458,11.59795,7.85464,4.95583,-22.13834,-33.04692,-6.4354,0.00126,-38.00007,-2.18151,-0.00434,38.25349,9.42742,8.25705,11.10809,-3.54963,-7.53573,21.0395,20.60256,-28.20963,27.90675,-23.22417,34.80416,74.66731,-0.01941,-81.28796,64.75649,0.00062,85.05898,-12.01958,2.673,-0.00288,-12.28865,3.87621,0.00173,5.41119,-0.14952,11.24421,-16.50673,-4.38211,10.36637,2.62488,1.40483,4.67651
1318,0.30373,0.0,-0.0,3.65032,0.0,-0.0,3.72063,-3.33334,11.24951,3.41693,5.4371,-21.45489,-32.82534,-5.74817,0.00069,-42.4288,-2.11849,0.01582,37.52679,8.59145,8.18301,13.18362,-3.97654,-6.89329,21.82891,20.84973,-28.41444,28.06524,-23.56933,34.14945,75.59939,-0.00408,-79.51128,65.13046,0.00163,85.17687,-12.26482,3.1609,-0.00175,-12.66928,3.49238,0.00456,4.9821,-0.40088,10.61394,-16.98477,-4.37974,9.68585,2.66934,1.50316,4.4477
1319,0.24185,0.0,-0.0,1.99707,-0.0,0.0,3.90143,-3.49644,10.69321,-1.30416,5.47967,-20.12604,-32.65453,-5.04957,-0.00042,-46.95326,-2.18481,0.02523,36.77801,7.8084,8.11562,15.41616,-4.32774,-6.62852,22.62484,21.14603,-28.60471,28.11152,-23.89887,33.51088,76.45554,0.01001,-79.17004,65.56031,0.00164,85.36278,-12.0505,3.52202,4e-05,-13.1233,3.00666,0.0051,4.58475,-0.52534,9.86041,-17.43202,-4.21297,8.93846,2.68183,1.60503,4.13738
1320,0.20025,-0.0,0.0,-0.18233,0.0,-0.0,4.00315,-3.55711,10.0995,-5.50852,4.99197,-18.13414,-32.51543,-4.42065,-0.00085,-51.64063,-2.13756,0.01091,36.08085,7.11613,7.88059,17.8477,-4.57328,-6.43867,23.45827,21.54811,-28.81974,28.09144,-24.09119,32.90675,77.20029,0.01289,-79.99539,66.12891,-0.00342,85.77485,-11.26629,3.70183,-0.00105,-13.40474,2.68566,0.00291,4.30213,-0.53656,9.15213,-17.75527,-3.95763,8.27606,2.72002,1.73474,3.63898
1321,0.26009,0.0,0.0,-2.03428,0.0,0.0,4.09441,-3.51597,9.6237,-8.48954,4.25877,-15.54443,-32.34188,-3.85339,-0.00025,-56.55692,-1.76292,-0.01395,35.41555,6.51372,7.45757,20.49512,-4.73772,-6.00146,24.33679,22.07777,-29.08256,28.10018,-24.12106,32.38628,77.98104,0.00856,-81.09056,66.84356,-0.00948,86.62962,-10.33843,3.69457,-0.00264,-13.60363,2.80136,-0.00274,4.14413,-0.52455,8.65797,-17.93929,-3.76083,7.82161,2.77313,1.91714,2.98393
1322,0.30497,0.0,0.0,-2.81895,0.0,0.0,4.25331,-3.43106,9.29582,-9.93594,3.67099,-12.48484,-32.08905,-3.30225,0.00068,-61.71218,-1.10318,-0.02713,34.70293,5.97628,6.96202,23.33791,-4.89269,-5.31506,25.1798,22.75318,-29.38431,28.28762,-24.07937,32.07467,79.07417,0.00239,-81.67781,67.56067,-0.0073,87.66104,-9.90851,3.46085,0.00046,-14.10645,3.37882,-0.01167,4.01748,-0.56585,8.44241,-18.07796,-3.71804,7.60589,2.78006,2.16046,2.29117
1323,0.17788,0.0,-0.0,-2.53113,0.0,0.0,4.50201,-3.31575,9.06897,-9.96429,3.43198,-9.30039,-31.7724,-2.77282,0.00099,-67.0344,-0.37805,-0.02132,33.89573,5.46334,6.51128,26.34245,-5.13774,-4.63359,25.91331,23.55776,-29.69264,28.72695,-24.09371,32.01541,80.59104,-0.0035,-81.5722,68.10416,0.00113,88.17018,-10.2251,2.93915,0.00712,-14.96237,3.99104,-0.01393,3.81415,-0.65981,8.4447,-18.28349,-3.80596,7.5726,2.69777,2.41939,1.64726
1324,-0.03069,0.0,-0.0,-1.7588,0.0,0.0,4.77068,-3.12515,8.87855,-8.95136,3.55644,-6.53673,-31.45837,-2.3121,0.00049,-72.37708,0.2082,-0.00401,33.04371,4.97328,6.16283,29.49615,-5.5132,-4.20586,26.58747,24.40659,-30.00084,29.32308,-24.23239,32.04991,82.32084,-0.00835,-80.89349,68.43841,0.00648,87.72339,-10.91876,2.24312,0.00815,-15.53231,3.99814,-0.01255,3.53214,-0.76154,8.51989,-18.56431,-3.92849,7.60406,2.5486,2.63832,1.07957
1325,-0.02834,-0.0,-0.0,-1.02414,0.0,0.0,4.9426,-2.88844,8.63239,-7.35123,3.94318,-4.62429,-31.23327,-1.91304,-0.00025,-77.56495,0.56474,0.01231,32.26171,4.5773,5.91063,32.79582,-5.94715,-4.17188,27.38498,25.201,-30.38841,29.96209,-24.44653,32.01544,83.91312,-0.00923,-79.73878,68.65726,0.00494,86.86152,-11.4162,1.71221,0.00221,-15.27785,3.34939,-0.01622,3.27984,-0.85068,8.52991,-18.81844,-4.01486,7.57976,2.37803,2.85449,0.55856
1326,0.35459,-0.0,-0.0,-0.49964,-0.0,0.0,4.94524,-2.74987,8.30166,-5.58056,4.34297,-3.59788,-31.14911,-1.5338,-0.00071,-82.45922,0.732,0.01702,31.57362,4.36079,5.66002,36.17886,-6.34431,-4.54037,28.50065,25.90557,-30.98641,30.67356,-24.63675,31.99599,85.15852,-0.00752,-78.24694,68.8679,-0.00183,86.80209,-11.54122,1.66135,-0.00313,-14.64047,2.86274,-0.01536,3.13934,-0.9407,8.4342,-18.96609,-4.06225,7.45692,2.15089,3.18774,0.01543
1327,1.01915,0.0,-0.0,-0.22023,0.0,-0.0,4.80525,-2.82309,8.01648,-3.95001,4.47646,-3.10376,-31.18674,-1.21775,-0.00063,-87.00636,0.85362,0.00641,30.84351,4.35448,5.26314,39.52732,-6.68281,-5.14387,29.95905,26.5448,-31.81155,31.53699,-24.79273,32.21947,86.09353,-0.00836,-76.5798,69.13879,-0.0075,87.95827,-11.56474,2.16026,-0.00609,-14.51315,3.19364,-0.0174,3.04941,-1.0493,8.29835,-19.06558,-4.11175,7.28977,1.7556,3.71253,-0.57291
1328,1.68576,-0.0,-0.0,-0.16042,-0.0,0.0,4.65706,-3.09635,7.90213,-2.59124,4.31156,-2.64856,-31.28901,-1.04718,-0.00017,-91.23001,1.07008,-0.01083,29.94396,4.52513,4.67231,42.78964,-6.98205,-5.72583,31.56895,27.15482,-32.65035,32.54368,-24.98909,32.76931,86.91303,-0.00354,-75.19205,69.4715,-0.00467,89.19423,-11.62816,2.92009,-0.00587,-15.02239,3.8697,-0.01756,2.87483,-1.18317,8.2054,-19.24826,-4.20078,7.15291,1.14387,4.38572,-1.13668
1329,2.06502,0.0,-0.0,-0.09679,-0.0,-0.0,4.68486,-3.45689,7.88288,-1.38478,4.10751,-1.92799,-31.40775,-1.00056,0.00019,-95.16557,1.36652,-0.01791,28.89239,4.79335,3.99686,46.02396,-7.23639,-6.1752,33.10919,27.76859,-33.23098,33.65366,-25.25221,33.53731,87.82068,0.01447,-74.92546,69.77359,0.00148,89.10535,-11.52386,3.41483,-0.00382,-15.54193,3.89517,-0.01011,2.577,-1.31795,8.17269,-19.55141,-4.31331,7.07164,0.38324,5.09233,-1.59147
1330,2.12143,0.0,-0.0,0.24273,-0.0,-0.0,4.97993,-3.71865,7.8028,-0.04441,4.1747,-1.01546,-31.49177,-0.99208,0.00027,-98.80335,1.53306,-0.00541,27.73943,5.07534,3.35141,49.27609,-7.41779,-6.64596,34.53366,28.40002,-33.52484,34.85879,-25.53624,34.36343,88.87865,0.02706,-75.95266,69.92723,0.00069,87.74442,-11.17409,3.5131,-0.00236,-15.75715,3.08023,-0.00477,2.25047,-1.40465,8.14303,-19.88181,-4.38245,7.01133,-0.45366,5.74396,-1.92241
1331,2.16025,0.0,-0.0,0.91392,-0.0,0.0,5.45362,-3.70824,7.64975,1.5674,4.67441,-0.20587,-31.47504,-0.99672,8e-05,-102.09566,1.33394,0.01636,26.45808,5.34762,2.73153,52.50969,-7.52155,-7.4137,35.97832,29.00367,-33.75312,36.1409,-25.82562,35.08498,89.92043,0.01542,-77.20332,69.89413,-0.00256,86.49482,-10.82976,3.84728,-0.00026,-15.84804,2.28541,-0.00112,2.00797,-1.43337,8.02139,-20.13074,-4.36323,6.88751,-1.36127,6.35067,-2.16169
1332,2.49762,0.0,-0.0,1.89937,-0.0,0.0,5.93957,-3.40235,7.57135,3.20608,5.55441,0.36798,-31.34449,-1.05869,-0.00032,-105.00565,0.81387,0.0234,25.07407,5.65849,2.02393,55.72796,-7.61851,-8.56098,37.61277,29.51073,-34.12509,37.49627,-26.15431,35.57684,90.68876,-0.00384,-77.49031,69.69231,-0.00133,86.39922,-10.70932,5.0814,-0.00043,-15.80846,2.38718,0.0045,1.88008,-1.43171,7.75517,-20.27051,-4.26138,6.64093,-2.31094,6.99911,-2.34005
1333,3.03105,0.0,-0.0,3.11733,-0.0,0.0,6.38694,-2.93169,7.66409,4.51267,6.54717,0.88821,-31.19114,-1.19636,-0.00042,-107.53045,0.40322,0.00633,23.74224,6.07382,1.17658,59.02607,-7.83767,-9.79534,39.48004,29.94983,-34.69905,38.98001,-26.50519,35.86979,91.13062,-0.00919,-76.88629,69.31892,0.00249,87.32461,-10.82034,6.96935,-0.00166,-15.42852,3.32803,0.01066,1.80146,-1.38222,7.41054,-20.36259,-4.08561,6.33972,-3.20722,7.74459,-2.47477
1334,3.29781,0.0,-0.0,4.06187,-0.0,0.0,6.90102,-2.46262,7.81504,5.52073,7.33722,1.50711,-31.11404,-1.35032,-5e-05,-109.68585,0.49975,-0.0144,22.51072,6.60858,0.36433,62.41017,-8.24249,-10.73046,41.44981,30.45864,-35.43481,40.60715,-26.78531,36.13338,91.47371,0.00013,-76.72333,68.78949,0.00434,88.64266,-11.11168,8.58458,0.00021,-14.80913,4.24705,0.00738,1.67556,-1.2362,7.11805,-20.49675,-3.84005,6.12349,-4.04297,8.53228,-2.55899
1335,3.03425,0.0,-0.0,4.15798,0.0,0.0,7.56839,-2.09176,7.8339,6.64137,7.8225,1.94917,-31.11322,-1.44427,0.00024,-111.49847,0.95049,-0.01572,21.23009,7.18716,-0.18567,65.75057,-8.78333,-11.38415,43.35487,31.10883,-36.2452,42.2896,-26.94061,36.50707,91.95712,0.01509,-78.00817,68.18327,0.00287,89.93311,-11.53975,9.39648,0.0038,-14.38883,4.43069,0.00114,1.46917,-1.01751,6.93841,-20.70504,-3.56974,6.03954,-4.94266,9.25145,-2.59076
1336,2.48749,0.0,-0.0,3.71686,-0.0,0.0,8.3144,-1.80402,7.62322,8.10205,8.11335,1.73154,-31.15779,-1.42637,9e-05,-113.00084,1.21022,-0.00156,19.84109,7.68855,-0.45614,68.98229,-9.41584,-12.16854,45.16802,31.78492,-37.02976,43.97231,-27.02627,37.03174,92.58658,0.019,-80.24981,67.55147,0.00023,90.97453,-12.07111,9.65456,0.00434,-14.5408,4.02301,0.00024,1.24125,-0.83336,6.83439,-20.93289,-3.35996,6.01267,-5.96458,9.86789,-2.6285
1337,2.20167,-0.0,0.0,3.9345,0.0,0.0,8.97159,-1.54011,7.21695,9.64066,8.33246,0.83306,-31.28146,-1.27517,-0.00052,-114.2133,1.02391,0.00809,18.46805,8.06748,-0.61086,72.13516,-10.14979,-13.31328,46.99348,32.31647,-37.76412,45.70934,-27.12371,37.70097,93.21735,0.00752,-82.10786,66.85109,-0.00099,91.66597,-12.70268,9.84637,0.00088,-15.29454,3.69609,-0.00311,1.07783,-0.77861,6.74307,-21.09874,-3.2748,5.94867,-7.0373,10.46416,-2.73726
1338,2.65452,0.0,0.0,5.64481,0.0,-0.0,9.4398,-1.30545,6.79138,10.82851,8.5746,-0.08537,-31.51476,-1.04938,-0.00086,-115.13168,0.69318,0.00543,17.14785,8.42992,-0.81147,75.16969,-10.92459,-14.56622,48.90589,32.67057,-38.54957,47.51353,-27.25327,38.46814,93.76791,-0.00565,-82.63426,66.04097,-0.00118,92.10302,-13.40234,10.23199,-0.00332,-16.33682,3.75613,-0.00675,0.99281,-0.86612,6.61071,-21.1908,-3.30587,5.79283,-8.10043,11.15012,-2.85445
1339,3.92447,0.0,0.0,8.31281,0.0,0.0,9.75632,-1.20854,6.62457,11.57336,8.94491,-0.3384,-31.79549,-0.8956,-0.00023,-115.73164,0.66163,-0.00098,15.74652,8.94361,-1.16391,77.98917,-11.5861,-15.54441,50.85582,32.94275,-39.49742,49.2512,-27.39779,39.2104,94.27834,-0.00985,-81.92394,65.16792,-0.00425,92.42253,-14.11501,10.73088,-0.00381,-17.23608,3.82391,-0.00329,0.89319,-1.02649,6.38051,-21.30258,-3.36742,5.51867,-9.14307,11.9676,-2.82646
1340,5.54866,-0.0,-0.0,10.66851,-0.0,-0.0,10.04025,-1.40059,6.89439,12.22308,9.39939,0.02798,-32.02718,-0.91139,0.00052,-116.0041,1.11196,-0.00253,14.21374,9.64717,-1.72717,80.62144,-12.08159,-16.0793,52.73325,33.22933,-40.5666,50.7736,-27.53521,39.75523,94.83868,-0.00536,-80.85622,64.29929,-0.01006,92.65845,-14.82308,11.02697,0.00041,-17.73344,3.4034,0.00068,0.67561,-1.14211,6.00892,-21.53583,-3.33407,5.13034,-10.11494,12.85629,-2.62445
1341,6.82143,0.0,0.0,12.08795,0.0,0.0,10.39777,-1.89352,7.37249,13.19955,9.57469,0.36749,-32.18098,-0.97981,0.00044,-115.97955,1.98565,0.00126,12.70925,10.40722,-2.33814,83.25826,-12.50519,-16.15962,54.48708,33.56547,-41.58081,52.08122,-27.63123,39.9677,95.50758,0.00073,-80.18108,63.42252,-0.0087,93.03185,-15.47177,10.90445,0.00426,-17.82185,2.58618,0.0005,0.36245,-1.11631,5.50257,-21.86487,-3.11875,4.67071,-10.93149,13.69688,-2.37102
1342,7.29865,-0.0,0.0,12.43325,0.0,-0.0,10.88292,-2.4694,7.53087,14.60509,9.13944,0.13999,-32.31807,-0.90821,2e-05,-115.6965,3.06699,0.00529,11.42927,11.12019,-2.65867,86.08144,-12.87353,-15.9017,56.15208,33.91742,-42.4055,53.29458,-27.6816,39.82823,96.25807,0.00083,-79.93709,62.46416,0.00702,94.09091,-15.8048,10.47926,0.0025,-17.63726,1.9813,0.00036,0.09521,-0.95022,4.90562,-22.1464,-2.73916,4.18045,-11.57013,14.43734,-2.1192
1343,7.06462,0.0,-0.0,11.24506,0.0,0.0,11.52046,-2.88711,7.15742,16.10093,8.3713,-0.74079,-32.5445,-0.75555,0.0004,-115.18445,3.91161,0.00275,10.42884,11.86158,-2.66468,89.10771,-13.07436,-15.69247,57.76131,34.17977,-43.0668,54.50904,-27.76766,39.46444,96.99557,-0.00267,-79.85256,61.38415,0.02444,96.06214,-15.5182,10.08133,-0.00065,-17.41201,1.93003,0.00039,-0.02308,-0.73542,4.24214,-22.27832,-2.28917,3.64725,-12.08267,15.15347,-1.77984
1344,6.64178,-0.0,-0.0,8.6474,0.0,0.0,12.29314,-3.08191,6.52669,17.12352,7.95202,-1.98947,-32.90742,-0.72429,0.0014,-114.50883,4.07789,-0.00553,9.5596,12.70772,-2.67829,92.18905,-13.13085,-15.91639,59.27266,34.21216,-43.69242,55.71287,-27.99627,39.08023,97.65301,-0.00139,-80.06716,60.20678,0.02267,98.25825,-14.80317,9.99677,-0.00031,-17.40695,2.11198,-0.00067,-0.04774,-0.56507,3.51895,-22.31666,-1.85755,3.04214,-12.54565,15.91573,-1.30518
1345,6.57536,0.0,-0.0,6.15007,0.0,0.0,13.09437,-3.10986,5.87114,17.40657,8.18248,-3.12888,-33.31372,-0.76193,0.00119,-113.76431,3.70075,-0.00884,8.55281,13.52796,-2.81077,95.11026,-13.30347,-16.36194,60.59575,33.94069,-44.33774,56.80714,-28.38555,38.82524,98.23937,0.00458,-81.00636,58.97932,0.00119,99.59539,-14.36213,10.27126,-0.00159,-17.76452,2.07008,0.00015,-0.16269,-0.48877,2.80591,-22.44363,-1.51668,2.411,-13.00094,16.67355,-0.82752
1346,7.11421,0.0,-0.0,5.33597,-0.0,0.0,13.76071,-3.03543,5.16849,17.25268,8.73325,-3.8351,-33.59835,-0.64056,0.00038,-112.94966,3.4135,-0.00395,7.21591,14.13309,-2.9047,97.67359,-13.80813,-16.44472,61.6624,33.45572,-44.89716,57.69409,-28.86521,38.75597,98.77685,0.00758,-82.68024,57.73873,-0.02004,99.57335,-14.62524,10.69198,-0.004,-18.46422,1.73959,0.00248,-0.56437,-0.54322,2.23079,-22.85397,-1.34897,1.85803,-13.43225,17.36054,-0.56226
1347,8.2111,0.0,-0.0,6.44508,0.0,-0.0,14.1861,-2.91323,4.50615,17.1407,9.18855,-4.21631,-33.66744,-0.3825,0.00035,-111.91975,3.56136,0.00175,5.49155,14.51686,-3.00988,99.73248,-14.58746,-16.02391,62.47485,32.97178,-45.25279,58.37051,-29.38924,38.86075,99.25022,0.00335,-84.51054,56.51934,-0.02126,98.64044,-15.31796,11.08545,-0.0033,-19.3086,1.26352,0.00333,-1.33036,-0.74903,1.82239,-23.62624,-1.38449,1.40198,-13.87601,18.00491,-0.5972
1348,9.47642,0.0,0.0,8.50126,-0.0,0.0,14.43298,-2.78998,4.16485,17.28316,9.48093,-4.60678,-33.55337,-0.28142,-5e-05,-110.54498,3.9951,0.00332,3.43652,14.82277,-3.41063,101.28264,-15.43065,-15.37407,63.12559,32.63867,-45.48033,58.91223,-30.01388,39.05556,99.66508,-0.00341,-85.83681,55.38459,-0.00254,97.79249,-15.88332,11.55956,-0.00026,-19.95236,0.6811,0.00078,-2.32918,-1.04189,1.43664,-24.63084,-1.5091,0.93385,-14.43386,18.64884,-0.8211
1349,10.36365,0.0,-0.0,10.36295,0.0,0.0,14.68825,-2.66519,4.20989,17.66458,9.55437,-5.23159,-33.36167,-0.4972,-0.00072,-108.84731,4.53782,0.0016,1.27069,15.16666,-4.12414,102.56551,-16.17433,-14.5942,63.77244,32.43106,-45.82007,59.34032,-30.84271,39.19856,100.1042,-0.00552,-86.51611,54.41105,0.01206,97.57562,-16.00734,12.17326,0.00436,-20.15317,-0.04149,-0.00422,-3.28461,-1.25546,0.94219,-25.59059,-1.51907,0.39524,-15.06554,19.24312,-1.02904
1350,10.67097,0.0,0.0,11.5622,-0.0,-0.0,15.08435,-2.51978,4.35404,18.19737,9.19177,-6.13737,-33.19272,-0.87311,-0.00056,-106.93179,5.16697,-0.00345,-0.70743,15.5668,-4.75072,103.92461,-16.73652,-13.5821,64.55302,32.26474,-46.47532,59.54539,-31.89726,39.13548,100.64947,-0.00047,-87.01292,53.59921,0.00428,97.38834,-15.78119,12.57035,0.00689,-20.01719,-0.95353,-0.00628,-3.99196,-1.23766,0.4008,-26.29831,-1.29717,-0.09891,-15.54219,19.68505,-1.05255
1351,10.5875,-0.0,0.0,12.20782,-0.0,0.0,15.61691,-2.44224,4.27889,18.71607,8.6025,-7.19134,-33.10804,-1.17401,-0.0,-104.85761,5.8956,-0.01182,-2.32544,16.01287,-4.90675,105.52395,-17.0658,-12.29712,65.50332,32.16261,-47.4762,59.39326,-33.07033,38.74305,101.28102,0.00572,-87.80266,52.86349,-0.01369,96.33499,-15.50174,12.30545,0.00653,-19.94221,-2.05819,-0.00112,-4.4543,-0.98339,-0.03884,-26.75806,-0.8951,-0.40913,-15.6841,19.92432,-0.85093
1352,10.4688,0.0,-0.0,12.49996,0.0,-0.0,16.15298,-2.59663,3.81651,19.02315,8.45846,-8.07335,-33.11016,-1.29123,0.00019,-102.62238,6.79689,-0.01657,-3.64657,16.51116,-4.49937,107.25387,-17.13491,-10.70881,66.55553,32.2809,-48.67191,58.88153,-34.22117,38.00853,101.93203,0.00355,-88.72147,52.16127,-0.01645,94.76402,-15.18995,11.45496,0.00392,-20.25599,-3.12781,0.00503,-4.79321,-0.61707,-0.3279,-27.09444,-0.44649,-0.53754,-15.56135,19.98463,-0.54237
1353,10.74847,0.0,0.0,12.62581,0.0,-0.0,16.48639,-3.02217,2.95874,19.01064,8.98717,-8.4578,-33.10735,-1.24526,0.00017,-100.25176,8.10863,-0.00641,-4.92831,17.01596,-3.66709,108.87037,-17.00628,-8.60373,67.57116,32.8084,-49.83346,58.12319,-35.30614,37.07281,102.63266,-0.00564,-89.19235,51.54659,-0.00187,94.11753,-14.48121,10.61162,0.00223,-20.80497,-3.80671,0.00457,-5.12544,-0.27286,-0.52862,-27.42535,-0.05186,-0.59262,-15.40079,19.89666,-0.34391
1354,11.56086,-0.0,0.0,12.94233,0.0,0.0,16.54764,-3.57914,1.90866,18.67498,9.66506,-8.31165,-32.9593,-1.16049,5e-05,-97.81785,10.11549,0.02002,-6.39023,17.42326,-2.69648,110.22693,-16.85711,-5.67374,68.38634,33.81232,-50.83479,57.15664,-36.42576,36.09281,103.51973,-0.00874,-89.15734,51.0677,0.00937,95.0938,-13.224,10.18179,0.00514,-21.04411,-4.1029,0.00432,-5.56996,-0.0226,-0.74915,-27.8691,0.26337,-0.7017,-15.27996,19.66711,-0.41922
1355,12.4964,-0.0,-0.0,14.12746,-0.0,0.0,16.51832,-4.07937,0.92624,18.02622,9.96716,-7.95483,-32.62314,-1.17534,-0.0004,-95.29192,12.71299,0.0441,-7.9742,17.69195,-1.83112,111.3616,-16.84021,-2.01802,68.9312,35.15393,-51.76678,55.83385,-37.75991,35.05347,104.65952,-0.00022,-89.23743,50.74057,0.00836,96.79235,-11.85369,10.05907,0.00723,-20.71194,-4.45558,0.00953,-6.24166,0.1315,-1.10124,-28.53926,0.53953,-0.96899,-15.01361,19.319,-0.72763
1356,13.17674,0.0,0.0,16.81894,0.0,0.0,16.57171,-4.41107,0.09127,17.03375,9.91965,-7.80886,-32.20731,-1.33387,-0.00071,-92.47381,15.13828,0.03889,-9.44645,17.88734,-1.14458,112.31818,-16.96477,1.50938,69.3392,36.60886,-52.86277,53.91929,-39.44937,33.79367,105.95407,0.00578,-89.79227,50.68739,0.00314,97.98073,-10.96552,10.07424,0.00662,-20.30456,-4.94059,0.01245,-7.15663,0.26281,-1.63085,-29.45067,0.86196,-1.40922,-14.43533,18.90516,-1.06159
1357,13.71764,-0.0,0.0,20.65035,-0.0,0.0,16.6253,-4.59293,-0.69932,15.71794,9.75654,-8.1174,-31.83835,-1.5892,-0.00045,-89.17154,16.49801,0.00684,-10.72834,18.09573,-0.61476,112.95588,-17.19565,3.83889,69.86033,38.10155,-54.31882,51.25021,-41.50417,32.204,107.2937,0.00293,-90.59569,51.15023,-0.00111,98.45969,-10.85014,10.20899,0.00467,-20.78227,-4.74119,-0.02211,-8.20545,0.48834,-2.27755,-30.49398,1.31593,-1.92213,-13.66971,18.46108,-1.26129
1358,14.26595,0.0,0.0,24.0175,-0.0,-0.0,16.51102,-4.75945,-1.63728,14.18978,9.41536,-8.84834,-31.53033,-1.8361,0.00013,-85.32224,16.59644,-0.01173,-12.00458,18.35909,-0.11451,112.99888,-17.55155,4.63241,70.63973,39.79977,-56.17534,47.80012,-43.77243,30.28323,108.68858,0.00213,-91.49015,52.19242,-0.00795,98.80103,-11.48135,10.36168,0.0053,-22.67189,-3.07944,-0.09278,-9.24291,0.84657,-2.9481,-31.52564,1.90167,-2.40689,-13.01345,17.97484,-1.36566
1359,14.66964,0.0,-0.0,25.48567,0.0,0.0,16.22932,-5.07223,-2.81246,12.49188,8.7729,-9.80539,-31.21501,-1.97891,0.00039,-80.81615,15.88146,-0.00825,-13.50587,18.6788,0.48072,112.17914,-18.04353,4.36734,71.63577,41.97252,-58.31279,43.63232,-45.99802,27.96731,110.21151,0.00497,-92.59602,53.46821,-0.01157,99.3335,-12.53273,10.26333,0.00964,-25.30344,-0.63449,-0.09503,-10.16761,1.22955,-3.60816,-32.44439,2.50627,-2.87272,-12.65546,17.42786,-1.57949
1360,14.89786,0.0,-0.0,24.91512,-0.0,0.0,15.8911,-5.58097,-4.00379,10.67566,8.17216,-10.80791,-30.84661,-2.03405,-0.00024,-75.39307,14.71556,-0.02083,-15.24715,19.05839,0.99588,110.33281,-18.64941,3.58427,72.74012,44.77724,-60.50659,38.78561,-47.95691,25.03543,111.94852,-0.00533,-93.78476,54.48672,-0.00658,99.79819,-13.31158,9.5649,0.00244,-27.19932,0.71556,-0.0311,-10.95268,1.5102,-4.24787,-33.22137,3.00837,-3.35872,-12.57469,16.85945,-2.13233
1361,15.19223,0.0,0.0,22.62504,-0.0,0.0,15.53116,-6.1669,-4.87623,9.16924,8.13908,-11.7383,-30.42682,-2.0729,-0.00114,-68.93133,13.19185,-0.05307,-17.03895,19.53197,1.08686,107.45379,-19.36626,2.48431,73.87113,48.20264,-62.51024,33.21425,-49.54449,21.31029,113.98429,-0.02541,-94.59301,55.09214,0.00026,99.76379,-13.15081,8.09752,-0.02381,-27.44221,-0.13111,-0.01887,-11.67625,1.70702,-4.77425,-33.93666,3.38987,-3.77174,-12.6398,16.3631,-3.15814
1362,15.70448,0.0,-0.0,18.2903,-0.0,0.0,15.04147,-6.69077,-5.41153,8.65765,8.53152,-12.44816,-29.94079,-2.05883,-0.00053,-61.82093,11.47768,-0.06238,-18.7655,20.10868,0.75016,103.68736,-20.18754,1.11665,74.92567,52.14096,-64.18414,26.8989,-50.74444,16.89502,116.25912,-0.01069,-95.24632,55.54002,0.00684,99.09837,-12.24434,6.17438,-0.033,-26.37455,-2.31972,-0.03443,-12.48472,1.97018,-5.0523,-34.74425,3.73869,-3.92955,-12.7754,15.99942,-4.63544
1363,16.42381,-0.0,-0.0,11.55671,0.0,0.0,14.2613,-7.15135,-5.9232,9.38273,8.5652,-12.71657,-29.3392,-1.86954,0.00197,-54.94286,9.84702,-0.03647,-20.49804,20.70461,0.40856,99.34266,-21.01042,-0.48066,75.77633,56.38739,-65.60569,19.9175,-51.56451,12.03731,118.44717,0.03051,-96.72042,56.13152,0.01226,98.07343,-11.66373,4.5464,-0.01161,-24.83669,-4.05544,-0.01507,-13.46675,2.43262,-5.09814,-35.73723,4.18401,-3.79641,-12.97977,15.71463,-6.33678
1364,17.2995,0.0,-0.0,3.78275,-0.0,0.0,13.19371,-7.61117,-6.62174,10.86124,7.89649,-12.48059,-28.62123,-1.50861,0.00343,-49.19726,8.47663,-0.00248,-22.2632,21.19544,0.41719,94.9407,-21.64993,-2.23954,76.3637,60.59705,-66.97581,12.29881,-51.97532,6.8076,120.12367,0.02895,-98.76987,56.95396,0.00796,97.2382,-12.06321,3.9651,-0.00107,-23.29549,-4.37428,0.01342,-14.59679,3.08292,-5.10293,-36.88651,4.78758,-3.55354,-13.17159,15.37047,-7.88589
1365,18.13996,0.0,0.0,-1.57598,-0.0,0.0,12.09282,-8.05565,-7.33474,12.40368,6.96901,-12.16044,-27.89158,-1.1769,0.00159,-45.01288,7.48204,0.0212,-23.88376,21.52617,0.68678,91.09804,-22.01979,-3.91745,76.60725,64.39347,-68.29321,4.03192,-51.87024,1.17226,121.06387,-0.00202,-99.50285,57.95168,-0.00909,97.23174,-12.83134,4.54388,-0.00169,-21.91125,-3.51779,0.02044,-15.78791,3.74518,-5.20658,-38.09771,5.43957,-3.39736,-13.16906,14.87374,-9.0292
1366,18.63458,0.0,-0.0,-1.425,-0.0,-0.0,11.23815,-8.41318,-7.72971,13.56586,6.22838,-12.36183,-27.30408,-1.05851,-0.00089,-42.25504,6.97551,0.0301,-25.1179,21.70149,0.86975,88.24483,-22.24179,-5.12721,76.1843,67.57914,-69.1525,-4.59551,-51.14426,-4.63332,121.31567,-0.00702,-97.86348,58.98299,-0.02152,98.2624,-13.02792,5.47897,0.00415,-20.83595,-2.03934,0.01143,-16.93387,4.20351,-5.3597,-39.25754,5.92158,-3.36447,-12.87418,14.23286,-9.84904
1367,18.65642,0.0,-0.0,4.08384,0.0,-0.0,10.70338,-8.61985,-7.71568,14.0541,5.88487,-13.15428,-26.97389,-1.12231,-0.00121,-40.45019,6.85178,0.02402,-25.7985,21.68658,0.73309,86.45657,-22.49946,-5.67834,74.60384,70.23233,-68.94692,-12.90244,-49.85409,-10.05912,121.06232,0.00302,-95.10567,59.78126,-0.01372,99.54285,-12.61871,5.75157,0.00395,-20.12429,-0.33502,0.00244,-17.92116,4.37109,-5.4204,-40.25018,6.09958,-3.35675,-12.35909,13.47528,-10.6221
1368,18.50671,0.0,0.0,11.59044,0.0,0.0,10.38127,-8.62843,-7.55173,13.64236,6.24401,-13.98949,-26.93647,-1.2047,-0.00049,-39.03136,6.67753,0.00728,-25.85945,21.44547,0.27073,85.46536,-22.8544,-5.81227,71.42284,72.61892,-67.09084,-20.20551,-48.23338,-14.60276,120.56949,0.00079,-93.11839,60.09394,-0.0031,99.92604,-12.21186,5.19049,0.0017,-19.7041,1.24429,-0.00106,-18.65545,4.30126,-5.29095,-40.9845,5.98595,-3.26336,-11.7851,12.63071,-11.53275
1369,18.64353,-0.0,0.0,17.42346,0.0,0.0,10.1301,-8.47507,-7.61992,12.41846,7.36595,-14.36324,-27.1456,-1.19511,-0.00044,-37.51348,6.05267,-0.01163,-25.40955,21.08845,-0.34579,84.74448,-23.26189,-6.01682,66.07288,74.95993,-62.83062,-26.14832,-46.49418,-18.10362,120.15009,-0.00455,-92.17844,59.88282,-0.00185,99.34875,-12.14442,4.54918,0.00123,-19.59937,2.56957,-0.00291,-19.08878,4.07106,-4.96954,-41.41568,5.65123,-3.05322,-11.35388,11.83465,-12.59358
1370,18.99646,0.0,-0.0,20.0401,0.0,0.0,9.90644,-8.34286,-8.09211,10.87027,8.49611,-14.36482,-27.49131,-1.10744,-0.00064,-35.59125,5.07438,-0.01714,-24.77274,20.8385,-0.87426,83.72527,-23.67259,-6.55154,57.48189,77.15294,-54.97033,-30.74183,-44.66627,-20.75228,119.97729,-0.00435,-91.37693,59.33364,0.0014,98.87144,-12.3944,4.49064,0.00036,-19.88052,3.92354,-0.00424,-19.25304,3.73993,-4.5112,-41.57688,5.17122,-2.75468,-11.27323,11.29867,-13.73997
1371,18.95004,0.0,0.0,19.95812,0.0,0.0,9.79758,-8.41087,-8.78083,9.49689,8.52605,-14.43374,-27.83498,-1.05511,-0.00026,-33.14692,4.2377,-0.00217,-24.31129,20.76527,-1.20874,82.14661,-24.03986,-7.12071,44.70937,78.67847,-42.60492,-34.30602,-42.67341,-22.92237,119.95461,-0.00267,-90.76649,58.72883,0.00453,99.20116,-12.90594,4.75882,0.00435,-20.38628,5.61995,-0.00064,-19.28221,3.37736,-3.95616,-41.60371,4.62541,-2.37856,-11.63066,11.09299,-14.87844
1372,18.20807,0.0,-0.0,18.43314,0.0,0.0,9.90489,-8.6532,-9.39224,8.34123,7.2948,-14.58448,-28.06804,-1.12488,0.00029,-30.2287,3.80163,0.0127,-24.14553,20.64192,-1.39845,80.22646,-24.28741,-7.16404,29.73354,78.93233,-27.83455,-37.23009,-40.51406,-24.90629,119.84103,-0.00489,-91.34817,58.23096,0.00063,99.95406,-13.48294,4.6735,0.01177,-20.90872,7.55742,0.0026,-19.33186,3.0511,-3.32722,-41.6529,4.0851,-1.92025,-12.30781,11.04866,-15.87213
1373,17.20773,0.0,0.0,16.36185,0.0,0.0,10.21012,-8.91818,-9.82365,7.00418,6.03567,-14.31661,-28.15665,-1.26732,0.00077,-27.00674,3.53374,0.00873,-24.11122,20.19742,-1.48003,78.35529,-24.37021,-6.48722,17.58442,77.84362,-15.75268,-39.62585,-38.31913,-26.71182,119.45668,-0.00701,-92.97163,57.71062,-0.00284,100.50534,-13.58037,4.198,0.01284,-21.58381,9.44532,-0.00697,-19.43905,2.81829,-2.64196,-41.76164,3.60981,-1.37436,-13.10744,10.94885,-16.60702
1374,16.41551,-0.0,-0.0,13.91993,0.0,-0.0,10.61814,-9.10625,-10.09059,4.88208,6.03196,-13.40366,-28.09886,-1.3971,0.00137,-23.67847,3.16424,-0.00265,-24.04228,19.44644,-1.4772,76.62431,-24.37195,-5.48147,10.61495,75.88303,-8.73678,-41.33768,-36.2612,-28.16205,118.75377,-0.00308,-94.32144,56.87056,0.00265,100.8493,-12.8349,3.79735,0.01138,-22.62623,11.1467,-0.01916,-19.50583,2.74048,-1.86443,-41.83196,3.24283,-0.68427,-13.9537,10.75368,-17.11408
1375,15.58058,0.0,-0.0,10.77788,0.0,-0.0,11.12101,-9.13038,-10.18544,1.38594,7.18458,-12.21534,-27.857,-1.54896,0.00117,-20.41082,2.69159,-0.00772,-23.94076,18.63323,-1.44599,74.87971,-24.44237,-4.79393,7.60958,73.53975,-5.70107,-42.33631,-34.42606,-29.19808,117.76095,-0.00321,-94.94537,55.56923,0.01297,101.26283,-11.86305,3.61191,0.00892,-23.79072,12.41601,-0.01391,-19.44187,2.85504,-0.96003,-41.77184,3.00561,0.19614,-14.8396,10.56329,-17.53596
1376,14.21597,0.0,0.0,6.56559,0.0,0.0,11.75574,-8.8622,-10.07944,-3.44554,8.37944,-11.24287,-27.4079,-1.87495,-0.00098,-17.34937,2.20494,-0.0075,-23.79454,17.91998,-1.44092,73.15501,-24.60856,-4.77461,6.7258,71.14731,-4.99403,-42.89907,-32.78547,-29.95195,116.54185,-0.00449,-95.27983,53.96787,0.01391,101.63313,-11.73949,3.60301,-0.00023,-24.55724,12.9123,-0.00146,-19.2703,3.11598,-0.05285,-41.60138,2.90276,1.13455,-15.62965,10.42502,-17.94886
1377,12.60079,0.0,0.0,1.29073,0.0,0.0,12.39852,-8.26746,-9.73069,-8.55778,8.74488,-10.70735,-26.83717,-2.49404,-0.00341,-14.62843,1.78638,-0.00313,-23.48448,17.27059,-1.50819,71.68292,-24.77703,-5.19878,6.69008,68.92271,-5.33521,-43.24971,-31.31991,-30.48633,115.22143,0.00673,-95.24934,52.32316,0.00334,101.56146,-12.55498,3.93512,-0.01236,-24.77934,12.8412,0.00171,-19.05011,3.37644,0.65773,-41.37906,2.87415,1.89071,-16.17152,10.28112,-18.32137
1378,11.39097,0.0,-0.0,-4.51066,0.0,0.0,12.85821,-7.55137,-9.17125,-12.63487,8.21226,-10.49287,-26.29552,-3.31243,-0.00308,-12.4232,1.56454,0.0039,-22.99419,16.584,-1.59665,70.54828,-24.90209,-5.65353,6.82182,66.94993,-5.75168,-43.22554,-30.11046,-30.64145,113.98462,0.016,-94.63287,50.69768,-0.00937,100.86966,-13.24695,4.5214,-0.01278,-24.76564,12.83804,-0.00033,-18.77429,3.47676,1.13069,-41.09845,2.78759,2.36612,-16.57896,10.07416,-18.63819
1379,10.5267,0.0,-0.0,-9.83321,0.0,-0.0,13.14875,-7.05263,-8.62283,-15.18271,7.41368,-10.34251,-25.88126,-4.04797,-0.00061,-11.0315,1.62486,0.00621,-22.47662,15.80834,-1.48251,69.68299,-24.99957,-6.01358,6.87502,65.17147,-5.69537,-42.5836,-29.26203,-30.24101,112.97877,0.00633,-94.05288,49.00167,-0.01713,99.73789,-13.04198,4.83199,-0.00801,-24.75545,13.10245,-0.00208,-18.42895,3.38521,1.44021,-40.74636,2.58555,2.61744,-17.12776,9.79494,-18.9306
1380,9.5831,0.0,-0.0,-13.69488,0.0,0.0,13.4119,-6.8979,-8.33919,-16.57574,7.20828,-10.25517,-25.61951,-4.50471,0.00116,-10.79947,1.89698,0.00134,-22.00642,14.93347,-1.00699,69.14499,-25.02441,-6.29642,6.85977,63.49625,-5.15964,-41.44172,-28.80398,-29.30967,112.20902,-0.01015,-94.31472,47.23381,-0.01593,98.53423,-12.44565,4.59545,-0.00354,-24.67484,13.3709,-0.00203,-18.06524,3.19412,1.62917,-40.3762,2.33715,2.7195,-17.87685,9.44254,-19.17779
1381,8.54668,-0.0,0.0,-15.86333,0.0,-0.0,13.68802,-6.88494,-8.29747,-17.39042,7.87155,-10.475,-25.51949,-4.73257,0.00152,-11.88286,2.22031,-0.00266,-21.45426,13.9835,-0.34268,69.07537,-24.83142,-6.41154,6.8231,61.91453,-4.41342,-40.11857,-28.70161,-28.02545,111.57259,-0.01488,-95.18946,45.49101,-0.00744,97.62207,-12.37023,4.18937,0.00266,-24.4498,13.58617,-0.00098,-17.72809,2.96481,1.75671,-40.03337,2.07666,2.7503,-18.61737,9.0532,-19.26789
1382,7.50546,-0.0,0.0,-16.77611,-0.0,0.0,13.94442,-6.79492,-8.23481,-17.98226,8.78749,-11.00903,-25.61626,-4.86121,0.00139,-14.12329,2.48181,0.00168,-20.66182,13.04852,0.17051,69.39429,-24.28725,-6.34404,6.81221,60.4618,-3.71861,-38.72079,-28.86493,-26.58934,110.98129,-0.00353,-95.4677,43.81726,0.0053,97.258,-12.84907,4.17908,0.0031,-24.19828,13.93115,-0.00037,-17.37914,2.67521,1.9058,-39.67802,1.75222,2.77819,-19.19005,8.75231,-19.08385
1383,6.46973,-0.0,-0.0,-16.91768,-0.0,-0.0,14.14828,-6.62639,-7.99161,-18.35793,9.20812,-11.52488,-25.95224,-4.90352,0.00073,-17.20617,2.6596,0.01215,-19.57758,12.24415,0.37129,69.81367,-23.41974,-6.27105,7.03791,59.12902,-3.3831,-37.158,-29.11499,-25.21438,110.38383,0.01099,-94.35129,42.20506,0.01841,97.55762,-13.21144,4.71249,0.00322,-23.99238,14.35214,-0.0013,-16.94448,2.33933,2.05862,-39.23705,1.38353,2.79203,-19.63908,8.6608,-18.6137
1384,5.79774,0.0,-0.0,-16.73406,-0.0,-0.0,14.23166,-6.44657,-7.65233,-18.17269,9.05872,-11.78476,-26.50877,-4.78838,-0.00083,-20.90573,2.83098,0.01524,-18.18288,11.61605,0.36165,70.19401,-22.42443,-6.29914,7.777,57.87973,-3.73644,-35.44633,-29.25401,-24.11769,109.7057,0.01305,-92.55604,40.70194,0.02008,98.28049,-13.08164,5.44667,0.00459,-23.77647,14.51852,-0.00316,-16.41247,2.0798,2.08633,-38.70238,1.13288,2.71919,-20.00043,8.75735,-17.95555
1385,5.90796,0.0,-0.0,-16.66467,0.0,-0.0,14.14818,-6.26524,-7.32018,-17.09903,8.77376,-11.84052,-27.18429,-4.50307,-0.002,-25.14811,3.17172,-0.00142,-16.45474,11.1193,0.32697,70.66267,-21.50196,-6.32167,8.98105,56.7221,-4.82717,-33.74954,-29.22562,-23.36039,108.88918,0.00322,-91.4195,39.40405,0.00624,98.75331,-12.75608,6.05142,0.00162,-23.64017,14.22738,-0.00256,-15.86186,2.019,1.91649,-38.15427,1.14101,2.53904,-20.15207,8.90296,-17.21751
1386,6.52373,0.0,-0.0,-16.74741,-0.0,-0.0,13.98556,-6.11495,-6.89406,-15.32654,8.68416,-11.7407,-27.85602,-4.14918,-0.00147,-29.90494,3.78723,-0.02844,-14.4715,10.66534,0.33888,71.36003,-20.70362,-6.24437,10.21539,55.71848,-6.32217,-32.13166,-29.15368,-22.74767,108.00366,-0.00535,-91.42446,38.33029,-0.00988,98.42453,-12.7504,6.52031,-0.0031,-23.84435,13.60651,0.00239,-15.40498,2.10921,1.69484,-37.70172,1.30851,2.36827,-19.97648,8.95573,-16.45345
1387,6.95164,0.0,0.0,-16.63462,0.0,0.0,13.89748,-6.00103,-6.2001,-13.47349,8.79665,-11.33469,-28.42756,-3.8523,-0.00015,-35.08076,4.52789,-0.04332,-12.42687,10.16795,0.38209,72.2596,-19.93236,-6.18107,11.10428,54.91682,-7.80619,-30.47386,-29.20026,-22.03571,107.20519,-0.00807,-92.3897,37.38551,-0.01626,97.41928,-13.14908,6.88104,-0.00374,-24.42702,12.915,0.00606,-15.12468,2.13913,1.70638,-37.42151,1.33182,2.3903,-19.50543,8.83992,-15.66881
1388,6.87811,0.0,0.0,-16.18743,0.0,0.0,13.95003,-5.80992,-5.23779,-12.0207,8.95215,-10.46346,-28.82693,-3.63539,0.00028,-40.46669,5.07804,-0.03529,-10.47721,9.61443,0.49691,73.21612,-19.06161,-6.37331,11.67496,54.274,-9.08048,-28.67955,-29.42086,-21.18526,106.559,-0.00776,-94.08314,36.52293,-0.01014,96.45427,-13.51871,7.00449,-0.00118,-25.00441,12.30924,0.00444,-15.01688,1.97001,2.06698,-37.30634,1.03863,2.65963,-18.84608,8.60089,-14.8317
1389,6.44153,0.0,0.0,-15.73947,0.0,-0.0,14.09066,-5.44866,-4.1386,-10.98411,9.10285,-9.18676,-29.0065,-3.43862,-0.00025,-45.80439,5.13839,-0.00412,-8.63313,9.10164,0.73308,74.07546,-18.02155,-7.0204,12.17753,53.66962,-10.15807,-26.79194,-29.76905,-20.31724,105.99408,-0.0033,-95.902,35.84102,0.00045,96.34495,-13.49552,6.79138,-0.00101,-25.12988,11.78673,0.00035,-14.95822,1.70334,2.57581,-37.23666,0.59903,3.02914,-18.06686,8.39538,-13.91605
1390,5.95024,0.0,0.0,-15.67185,0.0,-0.0,14.19841,-4.98439,-3.01936,-10.08084,9.38941,-7.75112,-28.94748,-3.21735,-0.00068,-50.92536,4.4996,0.04284,-6.84365,8.7325,1.07443,74.73441,-16.79891,-8.20537,12.7095,53.01041,-11.08815,-24.85753,-30.19955,-19.5013,105.43984,0.00439,-96.98463,35.4016,0.00423,97.36714,-13.207,6.18434,-0.00202,-24.75069,11.19364,-0.00319,-14.80451,1.53808,2.94722,-37.07466,0.30538,3.31007,-17.19439,8.34453,-12.95473
1391,5.58831,0.0,0.0,-15.6329,0.0,0.0,14.19285,-4.61313,-2.02426,-9.13025,9.71727,-6.33995,-28.66686,-2.91598,6e-05,-55.79516,3.22399,0.07321,-5.15228,8.50425,1.56502,75.09918,-15.45108,-9.8661,13.1526,52.31434,-11.87595,-22.84653,-30.71992,-18.68268,104.91104,0.00655,-97.18079,35.14157,0.00035,98.92301,-13.03025,5.09792,0.0021,-24.14477,10.39598,-0.00422,-14.53114,1.53249,3.09351,-36.79802,0.24479,3.44328,-16.29458,8.42782,-11.99639
1392,5.28991,0.0,-0.0,-14.72777,0.0,-0.0,14.09629,-4.54428,-1.31101,-8.17189,9.55541,-4.96134,-28.23043,-2.44159,0.00186,-60.44276,1.88477,0.0488,-3.66991,8.33262,2.30099,75.05469,-14.15261,-11.67848,13.36516,51.67294,-12.51488,-20.7854,-31.34847,-17.77283,104.44352,-7e-05,-97.24361,35.12347,-0.00313,99.99405,-13.27063,3.68808,0.01083,-23.48175,9.63488,-0.00035,-14.21191,1.58956,3.14954,-36.4776,0.27638,3.51674,-15.47602,8.54673,-11.05149
1393,5.05414,0.0,-0.0,-12.82569,0.0,0.0,13.90616,-4.85473,-0.85522,-7.23256,8.63696,-3.64159,-27.73607,-1.80512,0.00271,-64.91553,1.25082,-0.0137,-2.35839,8.14842,3.16231,74.59294,-13.11891,-13.10932,13.26518,51.14508,-12.96642,-18.81373,-32.05998,-16.74516,104.0168,-0.00471,-97.55981,35.59956,0.00546,99.94639,-13.9979,2.5487,0.01023,-22.76576,9.45705,0.00675,-13.88241,1.60264,3.32715,-36.14388,0.22122,3.686,-14.73775,8.62691,-10.15379
1394,5.03121,0.0,0.0,-10.74111,-0.0,-0.0,13.52173,-5.41904,-0.44577,-6.27456,7.4723,-2.53023,-27.27474,-1.20593,0.00146,-69.28179,1.53372,-0.05387,-0.98786,7.97119,3.79064,73.89689,-12.42515,-13.84063,12.77951,50.72068,-13.10631,-17.01375,-32.79039,-15.66198,103.57629,0.00127,-97.35072,36.6356,0.01837,98.9068,-14.8643,2.2978,-0.00013,-22.17825,10.02148,0.00738,-13.49641,1.51949,3.75637,-35.74683,-0.01824,4.05161,-13.92748,8.65833,-9.40083
1395,5.20587,0.0,-0.0,-9.07677,-0.0,0.0,12.88764,-5.97583,0.06445,-5.33989,6.75894,-1.76313,-26.90645,-0.8668,-0.00032,-73.60316,2.2538,-0.04499,0.58971,7.88036,3.95496,73.14075,-11.96528,-14.01431,11.85818,50.35645,-12.81225,-15.28079,-33.49268,-14.60438,103.09502,0.00999,-95.93177,37.92458,0.01561,97.53936,-15.39675,2.97743,-0.00357,-21.98633,10.7708,0.00132,-13.02912,1.3169,4.39633,-35.26161,-0.44791,4.56709,-12.96894,8.67015,-8.86316
1396,5.28743,0.0,0.0,-7.60729,0.0,0.0,12.13121,-6.26366,0.63267,-4.57649,6.66784,-1.35284,-26.63487,-0.83028,-0.00097,-77.86057,2.82798,-0.011,2.24284,7.89957,3.81298,72.28198,-11.59154,-13.98124,10.5808,50.00702,-12.14411,-13.45073,-34.17095,-13.53821,102.57433,0.00816,-94.00178,39.14365,0.00129,96.50717,-15.53674,4.02629,-0.00191,-22.09797,11.09496,-0.00061,-12.56521,1.01036,5.09067,-34.77696,-0.99423,5.09383,-12.00293,8.663,-8.50705
1397,5.00267,0.0,-0.0,-5.78764,0.0,0.0,11.48744,-6.15629,1.20172,-4.13879,6.93076,-1.20761,-26.39976,-0.99948,-0.00098,-81.93436,3.01722,0.01366,3.72793,7.9637,3.69827,71.18811,-11.21627,-13.93814,9.20151,49.63551,-11.35479,-11.48736,-34.84005,-12.31128,102.02057,-0.00269,-92.84645,40.27925,-0.008,96.03565,-15.45308,4.75039,-0.0029,-22.1471,11.02148,0.00223,-12.22406,0.68128,5.71075,-34.41675,-1.5332,5.54364,-11.1967,8.58477,-8.22746
1398,4.40498,0.0,-0.0,-3.61314,-0.0,0.0,11.09153,-5.73725,1.84948,-4.00555,7.25197,-1.21743,-26.15976,-1.31403,-0.00094,-85.68124,2.90885,0.01689,5.01128,8.01895,3.73569,69.87514,-10.80388,-13.83622,8.02971,49.21223,-10.70401,-9.4486,-35.48275,-10.83029,101.43776,-0.00766,-92.71429,41.41598,-0.00745,95.89461,-15.11096,4.83344,-0.00652,-21.94544,10.88589,0.00603,-12.01819,0.43482,6.221,-34.19436,-1.95407,5.92321,-10.50754,8.40282,-7.91718
1399,3.6663,0.0,-0.0,-1.60382,0.0,-0.0,10.9069,-5.23564,2.60884,-3.95496,7.42637,-1.28068,-25.97238,-1.74712,-0.00029,-89.0018,2.6657,0.00972,6.31908,8.09989,3.85353,68.4664,-10.35121,-13.59515,7.23448,48.7283,-10.31404,-7.34888,-36.07199,-9.19153,100.80071,-0.0014,-92.77152,42.41528,-0.00267,95.73299,-14.44806,4.55473,-0.00775,-21.52243,10.6195,0.00436,-11.84377,0.32349,6.63166,-34.00491,-2.21213,6.26171,-9.73906,8.1661,-7.51577
1400,2.88716,-0.0,-0.0,-0.17486,-0.0,-0.0,10.78344,-4.84471,3.33166,-3.78289,7.31892,-1.27801,-25.89632,-2.21545,0.00055,-91.86086,2.39653,0.00217,7.84174,8.24754,4.01289,66.99585,-9.88853,-13.19754,6.75606,48.2268,-10.19122,-5.21238,-36.59803,-7.62046,100.06769,0.00534,-92.51338,43.08922,0.00062,95.38039,-13.61513,4.44746,-0.00324,-20.87569,9.80641,-0.00743,-11.60751,0.32083,6.95013,-33.7552,-2.33468,6.5559,-8.77977,7.92744,-7.04124
1401,2.27146,0.0,-0.0,0.50635,-0.0,0.0,10.5286,-4.6135,3.86353,-3.45069,6.9209,-1.13287,-25.84819,-2.61474,0.00044,-94.29936,2.17788,-0.00244,9.50608,8.39511,4.24806,65.39905,-9.47909,-12.58586,6.41899,47.78418,-10.32045,-3.21336,-37.06933,-6.277,99.25744,0.00493,-92.26755,43.58419,0.00281,94.8628,-12.80298,4.69937,0.0013,-20.02268,8.29384,-0.01873,-11.31616,0.34616,7.18489,-33.45309,-2.3997,6.78308,-7.69279,7.64311,-6.56874
1402,1.96585,0.0,0.0,0.49174,-0.0,-0.0,10.06591,-4.50846,4.18245,-3.05068,6.31577,-0.90938,-25.6796,-2.87394,-0.0,-96.39384,2.01265,-0.00222,11.10075,8.4257,4.61611,63.6385,-9.19328,-11.74731,6.12875,47.44125,-10.7068,-1.57977,-37.49904,-5.12958,98.44155,0.00217,-92.42147,44.30447,0.00232,94.32841,-12.14335,5.0297,0.00172,-19.24913,6.486,-0.0128,-11.03609,0.31823,7.34809,-33.16608,-2.48706,6.92386,-6.60353,7.23937,-6.15075
1403,1.82841,0.0,-0.0,0.08569,-0.0,0.0,9.52788,-4.49523,4.36152,-2.69391,5.58881,-0.81779,-25.38127,-2.9708,9e-05,-98.1644,1.85481,-0.00015,12.54241,8.31463,5.12059,61.73543,-9.06898,-10.80608,5.93023,47.1779,-11.3481,-0.344,-37.89381,-4.04059,97.64391,0.00177,-92.96789,45.48104,-0.00525,94.00267,-11.83092,5.11292,0.00156,-18.98142,5.07371,0.00119,-10.80978,0.22036,7.43523,-32.9374,-2.61055,6.96775,-5.5698,6.74256,-5.77634
1404,1.67074,-0.0,-0.0,-0.42599,0.0,-0.0,9.0854,-4.54027,4.52016,-2.39315,4.9099,-1.12839,-25.10792,-2.96194,0.00024,-99.53474,1.70304,0.00033,13.90165,8.14119,5.63947,59.67756,-9.09529,-9.89674,5.89073,46.94705,-12.18629,0.69686,-38.28857,-2.88041,96.81746,-0.00072,-93.78981,47.0186,-0.01172,93.92816,-11.99109,4.85597,0.00355,-19.36166,4.50162,0.00328,-10.62347,0.12056,7.44598,-32.75234,-2.70704,6.94009,-4.60104,6.26091,-5.41252
1405,1.54935,-0.0,-0.0,-0.99328,-0.0,-0.0,8.72822,-4.59703,4.79266,-2.0372,4.56939,-1.99776,-25.00089,-2.96515,0.0002,-100.38111,1.55398,-0.00049,15.23732,7.96269,5.97044,57.38298,-9.24359,-9.08466,6.00235,46.69648,-13.09965,1.74947,-38.76427,-1.56457,95.90034,-0.00963,-94.94361,48.72024,-0.0046,93.7554,-12.42282,4.37336,0.00434,-20.09322,4.65521,-0.0012,-10.42475,0.10334,7.44431,-32.55401,-2.72237,6.93205,-3.73331,5.84792,-5.07202
1406,1.7317,0.0,-0.0,-1.60631,0.0,0.0,8.27346,-4.628,5.26206,-1.52494,4.68789,-3.2847,-25.0525,-3.06199,0.00019,-100.60809,1.37226,-0.00188,16.56366,7.73765,5.97604,54.82524,-9.5031,-8.38373,6.21292,46.37096,-13.96803,2.8113,-39.36639,-0.15756,94.85684,-0.01499,-96.31367,50.46522,0.00977,93.10612,-12.68816,4.04938,0.00435,-20.671,4.98188,-0.0008,-10.16877,0.1807,7.52704,-32.29283,-2.68186,7.03795,-2.96547,5.44384,-4.81151
1407,2.41103,-0.0,0.0,-2.07197,0.0,-0.0,7.57072,-4.64449,5.92524,-0.97438,4.98037,-4.60698,-25.14368,-3.24105,1e-05,-100.19681,1.19855,-0.00207,17.90012,7.41538,5.6952,52.11414,-9.84852,-7.73439,6.4664,45.93934,-14.73916,3.73542,-40.02982,1.09805,93.71596,-0.00431,-97.2419,52.15688,0.01544,92.05141,-12.45334,4.42372,0.01196,-20.76426,4.83338,-0.00088,-9.86757,0.29464,7.69175,-31.98187,-2.63833,7.23364,-2.20305,4.96963,-4.63525
1408,3.36854,-0.0,-0.0,-2.14215,-0.0,-0.0,6.70071,-4.68568,6.68763,-0.69619,4.97936,-5.64723,-25.18262,-3.43584,-0.00026,-99.20447,1.15282,0.00074,19.2357,7.06009,5.35719,49.39096,-10.18775,-7.04689,6.69103,45.43999,-15.42502,4.46492,-40.63244,2.01373,92.59137,0.01279,-97.08752,53.68113,0.01109,91.01078,-11.81387,5.62512,0.01931,-20.44866,3.8132,-0.00466,-9.58578,0.38493,7.82287,-31.69218,-2.60403,7.38927,-1.37911,4.44146,-4.45121
1409,4.00202,0.0,0.0,-1.78003,0.0,0.0,5.95734,-4.7135,7.363,-0.81587,4.49626,-6.36937,-25.18516,-3.59408,-0.00028,-97.71628,1.26605,0.00372,20.49507,6.82641,5.28264,46.70725,-10.3916,-6.32481,6.79953,44.9791,-16.04465,5.08428,-41.11651,2.65016,91.63038,0.01618,-96.04877,55.04881,0.00699,90.31976,-11.28397,7.02766,0.01107,-20.01765,2.07921,-0.00461,-9.37945,0.43223,7.86243,-31.48311,-2.57509,7.44378,-0.55664,3.95365,-4.15721
1410,3.98123,-0.0,-0.0,-1.17271,0.0,0.0,5.56178,-4.59641,7.80815,-1.04095,3.85173,-6.92379,-25.20708,-3.73956,-0.00011,-95.80817,1.42211,0.00274,21.60434,6.79756,5.63266,44.06225,-10.39959,-5.63532,6.70246,44.65631,-16.57148,5.63521,-41.5296,3.19441,90.92809,0.00604,-95.0112,56.48072,0.00157,90.11604,-11.30997,7.77759,0.0013,-19.68421,0.43448,0.00016,-9.26038,0.45838,7.89883,-31.3618,-2.56456,7.48738,0.17834,3.54064,-3.71886
1411,3.65233,0.0,-0.0,-0.55534,0.0,0.0,5.47101,-4.29771,8.0291,-0.94173,3.57081,-7.39725,-25.25636,-3.92004,5e-05,-93.55045,1.50089,-0.00103,22.58405,6.87451,6.28575,41.49316,-10.29871,-4.99754,6.34977,44.482,-16.96485,6.04638,-41.93627,3.73946,90.45123,-0.00355,-94.64487,58.1817,-0.01434,90.55017,-11.90345,7.64716,0.00224,-19.6303,-0.14238,-0.00089,-9.20747,0.48625,8.0305,-31.30185,-2.58827,7.61999,0.85465,3.1103,-3.17456
1412,3.44106,-0.0,0.0,-0.08314,-0.0,-0.0,5.55577,-4.01761,8.08284,-0.37336,3.81179,-7.72465,-25.3131,-4.08938,0.00012,-90.98106,1.49726,-0.00312,23.52128,6.87854,7.03363,39.01554,-10.26323,-4.44709,5.81412,44.36596,-17.26696,6.29553,-42.33835,4.24596,90.02818,-0.00796,-94.96804,60.05431,-0.02781,91.65667,-12.79897,7.09958,0.00425,-20.07044,0.57893,-0.01116,-9.17766,0.5171,8.2248,-31.26159,-2.63274,7.81182,1.54103,2.56156,-2.61708
1413,3.26073,0.0,0.0,0.24076,0.0,-0.0,5.78506,-4.00769,8.0347,0.42259,4.23982,-7.79846,-25.37024,-4.16892,0.0002,-88.05175,1.4865,-0.00249,24.44967,6.73893,7.74919,36.54081,-10.40205,-4.10741,5.28649,44.19313,-17.61006,6.4888,-42.7133,4.6345,89.47467,-0.00709,-95.56229,61.75322,-0.01797,92.94215,-13.66015,6.62538,0.00244,-20.9425,1.68453,-0.01141,-9.13532,0.57057,8.3518,-31.21171,-2.63094,7.94974,2.21415,1.89928,-2.124
1414,2.81702,0.0,-0.0,0.53296,0.0,-0.0,6.13806,-4.25004,8.01743,1.06624,4.45789,-7.6085,-25.40737,-4.19306,0.00022,-84.65802,1.51655,-0.00261,25.30697,6.52381,8.37099,33.96346,-10.68916,-4.07484,4.93309,43.91182,-18.09802,6.74186,-43.07702,4.87905,88.73836,0.00092,-95.83494,62.99047,0.00284,93.61449,-14.13614,6.31856,0.0007,-21.69298,1.93059,-0.00464,-9.10043,0.68599,8.31156,-31.17699,-2.50885,7.95584,2.81077,1.18901,-1.67377
1415,2.17969,0.0,0.0,0.93477,0.0,0.0,6.4908,-4.46186,8.17416,1.37581,4.38997,-7.32997,-25.35941,-4.29157,-0.00034,-80.75307,1.57845,-0.00336,25.99647,6.339,8.87923,31.27284,-11.01991,-4.3,4.76978,43.54744,-18.71853,7.10475,-43.4617,5.09007,87.88455,0.00794,-95.49104,63.72263,0.011,93.3613,-14.07807,5.93869,-0.00032,-21.68158,0.96467,-0.0136,-9.14207,0.84589,8.12649,-31.22577,-2.29111,7.84437,3.33767,0.47304,-1.17557
1416,1.805,-0.0,-0.0,1.57247,0.0,-0.0,6.66498,-4.45267,8.53594,1.47808,4.24539,-7.25324,-25.17943,-4.5543,-0.00136,-76.40954,1.68939,0.0019,26.48656,6.23908,9.29855,28.5314,-11.31965,-4.63343,4.68548,43.15663,-19.36415,7.60616,-43.85213,5.50915,86.99171,0.00372,-94.95702,64.11729,0.00611,92.65432,-13.67884,5.21178,-0.00191,-20.87061,-0.35732,-0.01489,-9.31309,0.95344,7.93404,-31.40513,-2.11911,7.70641,3.85186,-0.24448,-0.58707
1417,1.94831,0.0,-0.0,2.36713,0.0,-0.0,6.58731,-4.345,8.99324,1.62739,4.23156,-7.52666,-24.94959,-4.93106,-0.00145,-71.75964,1.89663,0.01151,26.87021,6.20052,9.72996,25.80435,-11.61692,-5.0001,4.57266,42.78689,-19.9034,8.27623,-44.17599,6.31723,86.09831,-0.00347,-94.78288,64.39131,-0.00166,92.27811,-13.14862,4.18721,-0.00366,-19.93766,-0.83563,0.00563,-9.58603,0.92426,7.88144,-31.68115,-2.12636,7.64666,4.37754,-0.98321,0.04982
1418,2.25332,0.0,-0.0,2.8745,-0.0,0.0,6.38935,-4.37405,9.41638,1.94195,4.36288,-8.00375,-24.84967,-5.27937,-0.00041,-66.91181,2.15849,0.01202,27.29292,6.17648,10.32312,23.13702,-11.98045,-5.49768,4.41726,42.47028,-20.28672,9.09229,-44.37249,7.44217,85.1897,-0.00054,-94.8384,64.6549,-0.00627,92.56377,-12.42848,3.26549,-0.00356,-19.61753,-0.01052,0.0143,-9.85765,0.78392,8.01083,-31.94823,-2.30505,7.7138,4.88204,-1.7637,0.68924
1419,2.20208,0.0,0.0,2.68272,-0.0,0.0,6.2666,-4.55026,9.78678,2.28807,4.52856,-8.41845,-24.97372,-5.52421,0.00033,-61.95248,2.3276,-0.00325,27.83898,6.18176,11.11014,20.58546,-12.37238,-6.26831,4.29152,42.24934,-20.66329,9.91427,-44.48053,8.64785,84.20181,0.00751,-94.7094,64.95936,-0.00473,93.07894,-11.51154,2.8209,0.00101,-20.18307,1.74199,-0.00377,-10.04173,0.65585,8.23038,-32.12303,-2.50627,7.86921,5.33501,-2.56441,1.33106
1420,1.76236,0.0,-0.0,1.90272,0.0,0.0,6.2483,-4.65224,10.1541,2.42957,4.67513,-8.6847,-25.23519,-5.72519,0.00038,-56.98434,2.31243,-0.01982,28.51346,6.29142,11.93347,18.23913,-12.62869,-7.26132,4.29393,42.17067,-21.31491,10.53057,-44.64671,9.78478,83.07561,0.00404,-94.53427,65.45224,0.00387,93.13653,-10.76041,2.84313,0.00515,-21.58882,3.925,-0.03466,-10.13535,0.65532,8.41154,-32.20714,-2.57485,8.03704,5.77318,-3.30893,1.98958
1421,1.32969,0.0,-0.0,1.04477,0.0,0.0,6.21444,-4.58307,10.56255,2.28778,4.86867,-8.98222,-25.47679,-5.98271,6e-05,-52.11874,2.24367,-0.01541,29.25997,6.53996,12.58724,16.15571,-12.62797,-8.12799,4.43413,42.20682,-22.3299,10.82764,-45.00433,10.83455,81.82391,-0.0105,-94.85716,66.26096,0.01304,92.52945,-10.50108,2.8939,0.00618,-23.545,6.15848,-0.04677,-10.17541,0.80508,8.53355,-32.23817,-2.4819,8.20654,6.2611,-3.93334,2.65972
1422,1.22928,-0.0,-0.0,0.58405,0.0,0.0,6.11226,-4.53942,11.06561,2.04484,5.16818,-9.53401,-25.62278,-6.30986,-0.00037,-47.46041,2.36825,0.00655,29.98987,6.84717,12.97883,14.30075,-12.42779,-8.47901,4.53909,42.22856,-23.38296,10.8983,-45.53128,11.75171,80.52501,-0.01178,-95.60325,67.19597,0.01048,91.73903,-10.48095,2.51725,0.00425,-25.28773,7.82959,-0.02377,-10.1833,1.03494,8.67935,-32.23442,-2.3236,8.42816,6.80567,-4.46103,3.30422
1423,1.49964,0.0,0.0,0.77076,-0.0,0.0,6.01463,-4.72124,11.7197,2.03851,5.52688,-10.40352,-25.70025,-6.63388,-0.00061,-43.1271,2.75677,0.02153,30.6559,7.08771,13.13394,12.61989,-12.17952,-8.28903,4.34032,42.1001,-23.95408,10.95479,-46.07095,12.44468,79.27913,0.0027,-96.0331,67.83318,0.00182,91.49971,-10.08866,1.73266,-0.00246,-25.9334,8.33837,-0.00505,-10.16323,1.22319,8.89253,-32.19949,-2.22911,8.69659,7.35416,-4.96803,3.86699
1424,2.00211,0.0,-0.0,1.59949,0.0,0.0,5.97372,-5.01552,12.49726,2.58388,5.84628,-11.54101,-25.77678,-6.91314,-0.00056,-39.25319,3.22105,0.01618,31.27619,7.23343,13.12715,11.11538,-11.96119,-7.99149,3.67965,41.76808,-23.74906,11.15794,-46.50051,12.93935,78.19498,0.00905,-95.97607,67.97233,0.00055,92.19106,-9.07509,0.90532,-0.00569,-25.39704,7.90842,-0.00575,-10.09483,1.25705,9.14587,-32.11584,-2.29271,8.94427,7.83986,-5.48312,4.32139
1425,2.46266,0.0,0.0,2.64117,0.0,-0.0,5.95296,-5.07726,13.21463,3.84666,6.02096,-12.86321,-25.92672,-7.16741,-0.00023,-35.94153,3.47869,-0.00114,31.8623,7.38475,13.1074,9.79875,-11.74638,-8.19991,2.61482,41.27826,-22.88272,11.53668,-46.82304,13.41803,77.34245,0.00472,-95.90759,67.80171,0.00205,93.54256,-7.78813,0.27619,-0.00141,-24.55605,7.43166,-0.00145,-9.93721,1.11122,9.43932,-31.94299,-2.53788,9.1618,8.20016,-5.97074,4.70088
1426,2.59588,0.0,-0.0,3.20395,-0.0,0.0,5.90631,-4.725,13.71425,5.74364,5.96835,-14.29972,-26.20296,-7.42066,0.00033,-33.18671,3.40841,-0.01089,32.38107,7.67439,13.2635,8.65047,-11.48655,-9.17373,1.36691,40.75711,-21.72665,12.0302,-47.09532,14.0483,76.66586,0.00139,-95.97444,67.60085,0.00029,94.8019,-6.65495,-0.20699,0.00162,-24.3396,7.40476,0.0025,-9.69012,0.86372,9.82424,-31.67669,-2.91152,9.42624,8.40327,-6.38996,5.07529
1427,2.42778,0.0,-0.0,3.04822,0.0,0.0,5.82708,-4.13981,14.10231,7.92639,5.71061,-15.80165,-26.60095,-7.68265,0.00086,-30.82761,3.16904,-0.00568,32.82801,8.15938,13.63122,7.65643,-11.17406,-10.56876,0.17513,40.33047,-20.62754,12.56432,-47.33326,14.82751,76.01186,-0.00088,-96.06982,67.48434,-0.00109,95.43871,-5.74131,-0.79319,-0.00184,-24.89457,7.68554,-0.00011,-9.42822,0.61382,10.32111,-31.38837,-3.32916,9.79402,8.49033,-6.72362,5.48974
1428,2.22396,0.0,0.0,2.55249,-0.0,0.0,5.73635,-3.62155,14.59025,10.00381,5.42417,-17.18339,-27.09297,-7.9308,0.00083,-28.61614,2.9641,0.00269,33.27884,8.7786,14.03193,6.7957,-10.83521,-11.97496,-0.83129,40.01225,-19.74427,13.08208,-47.51537,15.598,75.23976,-0.00443,-96.2672,67.39625,-0.00035,95.60693,-4.96391,-1.60831,-0.00505,-25.62752,7.85659,-0.00346,-9.24395,0.41579,10.8626,-31.17287,-3.7152,10.22306,8.53694,-6.97314,5.90644
1429,2.03246,-0.0,-0.0,2.0302,0.0,0.0,5.68881,-3.32541,15.18298,11.81016,5.3753,-18.08958,-27.70304,-8.09098,-0.0003,-26.38384,2.76916,0.00179,33.81891,9.43271,14.28558,6.00391,-10.46213,-13.4429,-1.64515,39.71233,-19.08372,13.55812,-47.64193,16.23224,74.24385,-0.00445,-96.53053,67.21165,-0.00024,95.57001,-4.4378,-2.3805,-0.00243,-25.89107,7.32006,-0.01028,-9.16374,0.28106,11.36474,-31.06148,-4.0276,10.63958,8.55943,-7.1435,6.22139
1430,1.70163,0.0,-0.0,1.44386,0.0,0.0,5.71383,-3.27966,15.70221,13.38657,5.6686,-18.38771,-28.47686,-8.11067,-0.00173,-24.13741,2.44693,-0.00512,34.46706,10.11389,14.41758,5.25611,-9.9759,-15.1005,-2.32303,39.36314,-18.61909,14.01376,-47.76484,16.80888,72.9425,0.00205,-96.58943,66.88558,-0.00213,95.21011,-4.40787,-2.72063,-0.0007,-25.57944,5.89489,-0.01686,-9.1241,0.18051,11.8464,-30.9901,-4.3004,11.05015,8.5306,-7.22615,6.36862
1431,1.34609,0.0,-0.0,0.77958,-0.0,-0.0,5.726,-3.46746,16.03383,14.7928,5.99596,-18.47594,-29.36782,-8.05401,-0.00151,-22.00664,2.03444,-0.00627,35.18933,10.88828,14.56575,4.65028,-9.31288,-16.57423,-2.93276,38.98436,-18.35242,14.43551,-47.96951,17.47494,71.33889,0.00777,-96.3371,66.52374,-0.00285,94.42062,-4.92027,-2.60044,-0.003,-25.04102,4.33361,-0.01028,-9.0441,0.05417,12.39765,-30.87271,-4.62282,11.5162,8.46788,-7.21293,6.38717
1432,1.29084,0.0,0.0,0.18277,0.0,-0.0,5.61809,-3.80191,16.18207,16.03064,5.86738,-18.88222,-30.23149,-8.04566,0.0002,-20.15033,1.73359,-0.0004,35.9156,11.76451,14.77223,4.2813,-8.51978,-17.29898,-3.506,38.61455,-18.27059,14.67527,-48.31198,18.13768,69.55441,0.00538,-95.96603,66.25616,-0.00053,93.44003,-5.64375,-2.36021,-0.003,-24.5747,3.48177,0.00093,-8.93135,-0.1304,13.02432,-30.71705,-5.02697,12.03128,8.4028,-7.12055,6.36755
1433,1.5079,0.0,-0.0,-0.22653,0.0,-0.0,5.42616,-4.11456,16.12572,17.05217,5.22308,-19.58702,-30.9382,-8.12102,0.00112,-18.71464,1.62611,0.00364,36.51997,12.67836,15.00437,4.09135,-7.70183,-17.26829,-4.04896,38.22699,-18.26376,14.56156,-48.74836,18.50925,67.74532,-0.00275,-95.70603,66.06581,0.00243,92.68052,-6.1869,-2.32093,-0.00063,-24.27361,3.37782,0.00474,-8.87091,-0.33335,13.60171,-30.61677,-5.42956,12.49418,8.28999,-6.97945,6.37396
1434,1.57867,-0.0,0.0,-0.38962,-0.0,0.0,5.26142,-4.25904,15.81103,17.81538,4.60283,-20.03325,-31.44471,-8.19398,0.00057,-17.82952,1.53017,0.00312,36.87997,13.58886,15.27906,3.97417,-6.91312,-17.05599,-4.61512,37.73993,-18.15081,14.13421,-49.1571,18.4716,65.98449,-0.00791,-95.63496,65.79095,0.00421,92.3593,-6.66917,-2.44458,-0.00062,-24.20492,3.58739,0.00246,-8.88828,-0.4743,14.00471,-30.60556,-5.7097,12.81787,8.0462,-6.80476,6.41396
1435,1.27953,0.0,0.0,-0.30019,-0.0,-0.0,5.12867,-4.2356,15.32332,18.3617,4.54652,-19.83275,-31.79788,-8.17082,-0.00029,-17.57372,1.22505,0.00321,37.01845,14.51116,15.60273,3.95484,-6.13626,-17.09795,-5.2752,37.09074,-17.82684,13.65642,-49.46189,18.19815,64.22733,-0.00098,-95.57709,65.29063,0.00301,92.23861,-7.57168,-2.40416,-0.00544,-24.3933,3.81644,-0.00024,-8.90419,-0.50621,14.2409,-30.60252,-5.8267,13.02655,7.66276,-6.57734,6.43171
1436,0.88203,0.0,0.0,-0.08178,0.0,0.0,4.9504,-4.21312,14.97566,18.78287,4.90257,-19.25005,-32.09433,-8.0702,-0.00053,-17.89594,0.79185,0.00344,37.12725,15.47082,15.81318,4.16058,-5.35292,-17.19267,-5.98788,36.27996,-17.36655,13.33064,-49.6963,17.8753,62.38321,0.01072,-95.25275,64.571,-0.00097,91.87933,-8.87347,-2.06715,-0.00834,-24.66352,3.96206,-0.00103,-8.85442,-0.44406,14.41116,-30.53567,-5.83188,13.20867,7.22266,-6.24875,6.36336
1437,0.7816,0.0,0.0,0.08635,0.0,-0.0,4.71464,-4.36525,15.09846,19.13265,5.00598,-18.85045,-32.37332,-7.99574,-0.00021,-18.59605,0.56387,-0.00021,37.36509,16.43366,15.66169,4.6307,-4.61069,-16.86527,-6.62426,35.35583,-16.94189,13.09659,-49.93244,17.5045,60.40008,0.00423,-94.76174,63.73997,-0.00306,91.16727,-9.83564,-1.80798,-0.00574,-24.75787,4.0,-0.00087,-8.76127,-0.34819,14.58736,-30.42344,-5.80785,13.40884,6.81009,-5.79822,6.21282
1438,1.00231,0.0,-0.0,0.14652,0.0,0.0,4.47219,-4.6238,15.6735,19.40284,4.60753,-18.78833,-32.54057,-7.97001,0.00014,-19.43456,0.68379,-0.00376,37.65617,17.25236,15.15508,5.22774,-4.02056,-16.12012,-7.14998,34.36543,-16.62124,12.79099,-50.1954,17.07256,58.2715,-0.02095,-94.54415,62.87774,-0.00321,90.34798,-9.80457,-2.14444,-0.01191,-24.64718,3.99193,-0.00032,-8.6628,-0.32399,14.81116,-30.3041,-5.86794,13.62691,6.42802,-5.30911,6.00075
1439,1.24354,-0.0,0.0,0.1511,0.0,0.0,4.22081,-4.74046,16.31527,19.58828,4.15277,-18.73437,-32.47108,-7.88336,0.00075,-20.26059,0.92111,-0.00248,37.79115,17.76831,14.64718,5.77755,-3.67009,-15.47681,-7.66229,33.32384,-16.30597,12.3763,-50.45866,16.67484,56.01415,-0.02718,-94.58276,61.98458,-0.00709,89.59235,-8.94232,-3.08657,-0.01952,-24.56367,3.97698,0.00106,-8.5527,-0.46667,15.13873,-30.1698,-6.1213,13.8802,6.02374,-4.9343,5.6892
1440,1.33833,0.0,0.0,0.11508,0.0,0.0,3.90258,-4.64771,16.68173,19.72932,4.00585,-18.45426,-32.18703,-7.6672,0.00137,-21.02086,1.00047,0.00085,37.70956,18.03135,14.45397,6.23388,-3.48707,-15.25511,-8.23148,32.22932,-15.88178,11.89198,-50.6878,16.31146,53.68041,0.00653,-94.13214,61.02507,-0.01145,88.92204,-8.03109,-4.09451,-0.01179,-24.67025,3.88642,0.00287,-8.40826,-0.74086,15.56998,-29.99665,-6.53499,14.18202,5.5811,-4.73419,5.26987
1441,1.42436,0.0,0.0,0.00032,0.0,0.0,3.48991,-4.55143,16.78115,19.86323,3.96664,-18.12869,-31.84305,-7.43038,0.00093,-21.68528,0.91479,0.00183,37.54754,18.29865,14.52136,6.64775,-3.25731,-15.20394,-8.81534,31.073,-15.33052,11.31053,-50.88116,15.80621,51.33423,0.03885,-92.76003,59.97638,-0.00246,88.69235,-7.62976,-4.74923,-0.00113,-24.8512,3.82841,0.00318,-8.23755,-0.99528,15.981,-29.79811,-6.92271,14.47265,5.15868,-4.60723,4.85388
1442,1.60954,0.0,-0.0,-0.1675,0.0,-0.0,3.00971,-4.62667,16.82553,19.99149,3.74149,-18.03037,-31.55457,-7.34709,-9e-05,-22.21124,0.81071,0.00073,37.41691,18.76155,14.5895,7.02217,-2.83263,-14.95041,-9.3494,29.84482,-14.69277,10.56708,-51.08494,15.07258,49.00395,0.02748,-91.13869,58.83897,0.01729,89.45679,-7.68977,-5.1399,0.00198,-24.94695,4.1593,0.00172,-8.09137,-1.12453,16.20982,-29.63579,-7.12697,14.63921,4.82659,-4.42713,4.56693
1443,1.74547,0.0,0.0,-0.28347,0.0,0.0,2.51638,-4.8168,16.92192,20.08279,3.36699,-18.14123,-31.33802,-7.47289,-0.00059,-22.55911,0.72033,-0.00011,37.29278,19.40101,14.53215,7.26838,-2.22666,-14.5238,-9.83427,28.57363,-14.04283,9.67792,-51.35681,14.26729,46.70723,-0.0096,-90.21209,57.63537,0.02308,90.98569,-7.99338,-5.53999,0.00199,-24.99294,4.92642,-0.00021,-8.03406,-1.13448,16.21014,-29.5789,-7.13634,14.63583,4.57858,-4.16792,4.4046
1444,1.70494,-0.0,0.0,-0.28976,0.0,0.0,2.04706,-4.99568,17.02674,20.11213,2.99006,-18.27683,-31.17148,-7.71622,-0.0005,-22.7121,0.57319,-0.00039,37.13343,20.09993,14.39857,7.31701,-1.52905,-14.23436,-10.29528,27.32882,-13.50794,8.76718,-51.70546,13.59719,44.46299,-0.02856,-90.10265,56.41472,0.00657,92.22578,-8.47894,-6.08023,0.00282,-25.06094,5.66361,-0.00097,-8.09955,-1.07383,16.11366,-29.65093,-7.04451,14.56786,4.33945,-3.87018,4.23902
1445,1.56624,0.0,0.0,-0.22591,0.0,0.0,1.59933,-5.15281,17.04505,20.10286,2.68019,-18.37551,-31.04706,-7.90408,-0.00019,-22.69638,0.36557,-0.00048,36.98827,20.752,14.30079,7.21078,-0.83599,-14.24832,-10.71562,26.16852,-13.25281,7.9248,-52.08727,13.05352,42.24816,-0.01515,-90.17682,55.26493,-0.01142,92.48025,-9.07509,-6.72687,0.0031,-25.08869,5.95196,-0.00055,-8.26034,-0.99488,16.12003,-29.80754,-6.97341,14.60305,4.05393,-3.57438,3.95179
1446,1.42162,0.0,0.0,-0.14885,0.0,-0.0,1.16457,-5.33637,16.87816,20.09929,2.50991,-18.48059,-30.99915,-7.88854,-0.00017,-22.586,0.17446,-0.00029,36.93775,21.31087,14.36268,7.05961,-0.21321,-14.42941,-11.06459,25.12456,-13.4013,7.05265,-52.46566,12.395,40.03763,0.00669,-89.86158,54.30573,-0.01365,92.00185,-9.6283,-7.29949,0.00133,-24.9952,5.83399,-0.00015,-8.42164,-0.95629,16.30983,-29.94868,-7.00718,14.79517,3.72873,-3.29665,3.56097
1447,1.32004,0.0,0.0,-0.08838,0.0,-0.0,0.7513,-5.53251,16.52883,20.11912,2.47302,-18.59871,-31.06115,-7.68449,-0.00043,-22.47916,0.06717,0.00011,36.98498,21.79946,14.60098,6.94149,0.33099,-14.50942,-11.34836,24.19702,-13.88285,5.97993,-52.85349,11.44597,37.87577,0.0102,-89.16085,53.59872,-0.00516,91.4809,-10.00417,-7.57992,-0.0007,-24.82699,5.63035,0.00058,-8.46705,-0.99225,16.62061,-29.96511,-7.15458,15.07318,3.3938,-3.0312,3.1826
1448,1.32157,0.0,-0.0,-0.07091,0.0,0.0,0.36877,-5.65236,16.15815,20.16674,2.42495,-18.66989,-31.17605,-7.461,-0.0004,-22.46927,0.04386,0.00036,37.05936,22.2272,14.83379,6.877,0.80303,-14.41086,-11.56721,23.33052,-14.40448,4.69859,-53.28606,10.30657,35.80359,-0.00272,-88.37448,53.0611,0.00233,91.36139,-10.07916,-7.58517,-0.00169,-24.73065,5.63432,0.00073,-8.34827,-1.07752,16.98382,-29.81381,-7.36691,15.38237,3.0667,-2.77983,2.8677
1449,1.42806,0.0,-0.0,-0.13632,0.0,-0.0,0.03889,-5.66097,15.98789,20.25567,2.2841,-18.65821,-31.22231,-7.38084,-0.00034,-22.60899,0.06624,0.00025,37.10443,22.55869,14.79714,6.87199,1.18443,-14.27475,-11.65694,22.45758,-14.7656,3.3206,-53.76653,9.11475,33.7668,-0.01334,-87.60725,52.54872,0.00481,91.61964,-9.7829,-7.62149,-0.00342,-24.80526,6.05782,-0.00106,-8.12873,-1.15104,17.35146,-29.5601,-7.56976,15.70029,2.75837,-2.55499,2.58688
1450,1.55812,0.0,-0.0,-0.30372,-0.0,0.0,-0.18303,-5.66725,16.13925,20.38709,2.13886,-18.63266,-31.14631,-7.46643,-0.00051,-22.87668,0.1356,-0.00019,37.11308,22.79282,14.40522,6.92964,1.4587,-14.1553,-11.55722,21.58029,-15.15683,1.86072,-54.2528,7.75262,31.71136,-0.00752,-86.62882,52.01189,0.00307,91.95149,-9.28239,-7.8961,-0.00452,-25.00286,6.96249,-0.00263,-7.92859,-1.17433,17.61297,-29.3338,-7.68692,15.93729,2.47976,-2.34482,2.36025
1451,1.58943,-0.0,0.0,-0.50302,-0.0,-0.0,-0.2675,-5.76803,16.48968,20.53767,2.09859,-18.67146,-31.01398,-7.56912,-0.00042,-23.20016,0.26924,-0.00056,37.099,22.96984,13.90664,7.02529,1.6394,-13.99733,-11.3299,20.76509,-15.94752,0.22192,-54.6771,5.98958,29.71445,0.01171,-85.03333,51.5126,-0.00016,92.05727,-8.92571,-8.23476,-0.00238,-25.17539,8.06193,-0.00111,-7.84382,-1.14789,17.65434,-29.24338,-7.67739,15.98588,2.23206,-2.1268,2.24148
1452,1.44954,0.0,-0.0,-0.59653,0.0,-0.0,-0.29021,-5.92644,16.76961,20.69088,2.14525,-18.75937,-30.91506,-7.49726,-0.00013,-23.5253,0.41754,-0.00036,37.0841,23.09502,13.63962,7.11732,1.77006,-13.84958,-11.14389,20.05664,-17.16419,-1.63761,-54.96479,3.81094,27.91126,0.02296,-82.74965,51.11079,-0.00168,91.89388,-8.84327,-8.31659,0.00019,-25.19143,8.81848,0.00064,-7.91204,-1.0919,17.51423,-29.32358,-7.57414,15.87491,2.00695,-1.92049,2.18104
1453,1.18119,0.0,-0.0,-0.50011,0.0,-0.0,-0.39502,-6.05459,16.84147,20.85757,2.20007,-18.84025,-30.8538,-7.21219,0.00017,-23.84403,0.48578,0.00029,37.09204,23.13766,13.66509,7.19309,1.90161,-13.81771,-11.14277,19.42417,-18.36245,-3.64784,-55.07323,1.43154,26.34287,0.01677,-80.35298,50.7755,-0.00185,91.63834,-8.83429,-7.97802,0.0018,-25.01794,8.86182,-0.00093,-8.10053,-1.04636,17.37085,-29.52485,-7.4794,15.75707,1.80619,-1.78225,2.06012
1454,0.85411,-0.0,0.0,-0.26445,-0.0,0.0,-0.67032,-6.08161,16.80081,21.05814,2.24777,-18.89617,-30.74632,-6.86894,0.00039,-24.16058,0.44524,0.00068,37.11792,23.09962,13.77714,7.28016,2.05074,-13.86679,-11.33108,18.79985,-19.12472,-5.72234,-55.01721,-0.98608,24.96498,0.00454,-78.56824,50.41877,-0.00213,91.43018,-8.7688,-7.30141,0.0018,-24.73014,8.30014,-0.00292,-8.3057,-1.05127,17.36166,-29.7312,-7.48061,15.74663,1.64449,-1.7418,1.86056
1455,0.51541,-0.0,0.0,-0.05714,-0.0,-0.0,-1.09097,-5.9799,16.85926,21.29833,2.28515,-18.96863,-30.50616,-6.67598,-0.00015,-24.46367,0.38471,0.00034,37.12481,23.03897,13.73335,7.4015,2.19929,-13.81925,-11.58086,18.14528,-19.44029,-7.77629,-54.83783,-3.44019,23.75823,-0.00548,-77.8089,49.98418,-0.00163,91.41815,-8.75116,-6.63712,0.00016,-24.46486,7.64071,-0.00175,-8.40575,-1.09482,17.48992,-29.81998,-7.56798,15.85101,1.51557,-1.75725,1.67799
1456,0.27226,0.0,-0.0,-0.04966,0.0,0.0,-1.57541,-5.78908,17.14064,21.55426,2.26275,-19.09635,-30.14462,-6.71802,-0.0011,-24.7406,0.40472,-0.00022,37.08546,23.03442,13.43721,7.53765,2.34501,-13.57274,-11.76472,17.45957,-19.47507,-9.6663,-54.59136,-5.88364,22.73184,-0.01195,-78.23705,49.46464,-0.0004,91.77708,-8.80473,-6.35892,-0.0007,-24.34762,7.29055,0.00053,-8.32239,-1.13563,17.71268,-29.71518,-7.68725,16.0452,1.37354,-1.73661,1.57885
1457,0.27411,0.0,0.0,-0.27332,0.0,0.0,-2.06597,-5.61956,17.53526,21.77304,2.13617,-19.23082,-29.78581,-6.88596,-0.00101,-24.98562,0.49094,-0.00033,37.00623,23.13249,13.0329,7.64575,2.51416,-13.23749,-11.86353,16.75924,-19.30922,-11.2723,-54.36398,-8.14684,21.84826,-0.01257,-79.66882,48.86025,0.00089,92.48047,-8.79517,-6.40251,-0.00078,-24.3984,7.18662,0.00151,-8.02917,-1.18728,18.02643,-29.39104,-7.8497,16.321,1.1722,-1.61189,1.54773
1458,0.53311,0.0,-0.0,-0.59284,-0.0,-0.0,-2.53399,-5.61705,17.78876,21.90083,1.87346,-19.2859,-29.55886,-6.98311,-0.00022,-25.17828,0.54952,-8e-05,36.92488,23.31729,12.76087,7.70416,2.73635,-13.00334,-11.94467,16.07784,-18.97559,-12.61498,-54.22198,-10.13221,21.04827,-0.00666,-81.48898,48.15359,0.00385,93.42503,-8.71284,-6.33237,-0.00076,-24.49268,7.12799,0.00138,-7.58387,-1.30298,18.41749,-28.90912,-8.09976,16.64618,0.91684,-1.38027,1.54446
1459,0.81765,-0.0,0.0,-0.8278,0.0,-0.0,-2.94325,-5.78726,17.69668,21.92145,1.51013,-19.24451,-29.49078,-6.88741,6e-05,-25.28583,0.51249,7e-05,36.89817,23.53116,12.72602,7.72957,3.03149,-12.96754,-12.07487,15.4478,-18.47755,-13.79568,-54.1442,-11.90297,20.32671,0.0005,-83.11478,47.34085,0.00619,94.54711,-8.68686,-6.0023,-0.00121,-24.49627,7.18899,0.00092,-7.16912,-1.46747,18.81229,-28.45928,-8.39642,16.95734,0.66561,-1.07996,1.53447
1460,0.81487,0.0,0.0,-0.87999,0.0,-0.0,-3.26204,-5.88189,17.19011,21.87456,1.25256,-19.14668,-29.51152,-6.59625,-2e-05,-25.30901,0.36859,3e-05,36.94719,23.71282,12.9152,7.75061,3.37762,-13.1186,-12.25892,14.85004,-17.7307,-14.89936,-54.04248,-13.58595,19.7035,0.00266,-84.43999,46.48383,0.00297,95.61861,-8.72416,-5.78755,-0.00163,-24.42283,7.4848,0.00043,-6.97196,-1.58203,19.13635,-28.2318,-8.62071,17.22054,0.47465,-0.76624,1.50201
1461,0.44177,0.0,0.0,-0.78721,0.0,-0.0,-3.48724,-5.7208,16.4212,21.83551,1.2627,-19.04182,-29.53474,-6.20377,8e-05,-25.30623,0.18145,1e-05,37.0179,23.82156,13.23963,7.77032,3.6885,-13.3478,-12.45154,14.21383,-16.64467,-15.99173,-53.84764,-15.30318,19.17241,0.00068,-85.65527,45.66885,-0.003,96.39326,-8.71949,-6.03438,-0.00211,-24.37286,7.83679,-0.00032,-6.9994,-1.56091,19.36047,-28.23244,-8.68221,17.43949,0.34005,-0.49473,1.47114
1462,-0.06962,0.0,0.0,-0.71082,0.0,-0.0,-3.63479,-5.53002,15.78636,21.86416,1.3556,-18.97313,-29.52882,-5.88572,0.00021,-25.35444,0.088,-0.00015,37.04676,23.86211,13.45511,7.77602,3.87232,-13.48195,-12.63226,13.52234,-15.30169,-17.09401,-53.56652,-17.10261,18.76526,-0.00018,-86.76399,44.90748,-0.00594,96.91457,-8.69649,-6.66671,-0.00163,-24.41515,7.95668,-0.0009,-7.10672,-1.39287,19.48519,-28.31613,-8.57069,17.61856,0.21044,-0.29161,1.47708
1463,-0.43499,0.0,-0.0,-0.82542,0.0,-0.0,-3.7345,-5.64413,15.62632,21.95338,1.22557,-18.94844,-29.51653,-5.79964,0.00017,-25.4853,0.17511,-0.00054,37.03456,23.8896,13.31232,7.77773,3.92287,-13.42718,-12.83717,12.88044,-13.98175,-18.1252,-53.25906,-18.86889,18.58791,-0.00061,-87.28109,44.145,-0.00408,97.41908,-8.81709,-7.42355,0.00047,-24.60472,7.86664,-0.00155,-7.17889,-1.13337,19.54245,-28.36766,-8.34946,17.76739,0.05196,-0.1476,1.51882
1464,-0.58203,0.0,0.0,-1.15744,-0.0,0.0,-3.82117,-6.03459,15.89397,22.03048,0.89887,-18.94688,-29.50975,-5.94044,6e-05,-25.66671,0.36114,-0.00056,37.01013,23.96301,12.85352,7.80251,3.93064,-13.25512,-13.07856,12.39982,-12.97612,-18.95079,-52.96444,-20.44246,18.66854,-0.00426,-86.49928,43.32194,0.00282,98.11402,-9.18505,-8.13136,0.00232,-24.91765,7.92389,-0.0018,-7.21051,-0.87108,19.57272,-28.38202,-8.11582,17.89166,-0.12439,-0.03692,1.5832
1465,-0.62079,-0.0,-0.0,-1.52705,0.0,-0.0,-3.93398,-6.38358,16.24739,22.02839,0.71219,-18.93621,-29.47694,-6.14889,-0.0001,-25.85501,0.4677,-2e-05,36.97742,24.08434,12.39338,7.87355,3.98008,-13.1193,-13.28304,12.05515,-12.33395,-19.50635,-52.66702,-21.83831,18.84489,-0.00391,-84.33204,42.38707,0.01189,99.08046,-9.76699,-8.70694,0.00223,-25.07293,8.33482,0.00171,-7.25176,-0.67228,19.5851,-28.41169,-7.93491,17.97581,-0.27793,0.06128,1.68203
1466,-0.64732,0.0,-0.0,-1.67562,0.0,0.0,-4.11577,-6.47917,16.39163,21.93655,0.87323,-18.86606,-29.39202,-6.26383,-7e-05,-26.04017,0.40882,0.00049,36.93696,24.19704,12.20919,8.00457,4.0551,-13.13048,-13.36969,11.72846,-11.78088,-19.8373,-52.3493,-23.16011,18.91615,0.0027,-81.77678,41.33854,0.01188,100.0774,-10.39576,-9.10899,0.00031,-24.73431,8.79687,0.00479,-7.33012,-0.55422,19.60289,-28.48204,-7.83122,18.03558,-0.36747,0.15227,1.80464
1467,-0.66757,-0.0,-0.0,-1.49333,0.0,0.0,-4.37603,-6.39316,16.26149,21.78258,1.20191,-18.71778,-29.27192,-6.22957,0.00015,-26.21398,0.27464,0.00047,36.89544,24.25542,12.32468,8.16307,4.08955,-13.28899,-13.34637,11.36134,-10.96178,-20.03373,-52.03389,-24.38092,18.84176,0.00466,-80.19708,40.24645,-0.00315,100.47178,-10.79027,-9.33562,-0.0014,-24.04292,8.72282,0.00141,-7.42178,-0.52552,19.68649,-28.56233,-7.83462,18.12473,-0.40097,0.24467,1.89225
1468,-0.66879,0.0,-0.0,-1.1195,0.0,0.0,-4.68103,-6.30702,15.97614,21.61825,1.39548,-18.52919,-29.13705,-6.09821,0.00032,-26.33678,0.20733,0.00016,36.83422,24.27739,12.56647,8.26922,4.07038,-13.51203,-13.26823,10.98837,-9.77092,-20.1714,-51.73236,-25.44339,18.68581,8e-05,-80.10134,39.17149,-0.01656,99.95035,-10.77422,-9.4043,-0.00099,-23.55573,7.83932,0.00161,-7.50677,-0.59985,19.8297,-28.63392,-7.95557,18.23252,-0.43471,0.35628,1.92988
1469,-0.6643,0.0,0.0,-0.80234,0.0,0.0,-5.00935,-6.27326,15.69659,21.51694,1.44665,-18.30467,-28.97018,-5.9809,0.00025,-26.38553,0.21531,3e-05,36.72424,24.31797,12.75943,8.29141,4.03869,-13.74405,-13.14357,10.64505,-8.39244,-20.2906,-51.40212,-26.4525,18.45212,-0.00404,-80.81687,38.1242,-0.01217,99.16015,-10.49883,-9.27641,0.00045,-23.53032,6.51327,0.00529,-7.62158,-0.7341,19.92635,-28.74397,-8.11563,18.2747,-0.49675,0.4808,1.99482
1470,-0.6884,0.0,0.0,-0.69917,-0.0,-0.0,-5.37096,-6.26301,15.51221,21.52082,1.5951,-17.9997,-28.7438,-5.97276,-0.00013,-26.39763,0.18669,8e-05,36.56291,24.41951,12.83555,8.27992,4.03279,-13.98765,-12.93341,10.32995,-7.10916,-20.36976,-50.99438,-27.54419,18.10766,-0.00187,-81.27844,37.13411,0.0014,99.01338,-10.2899,-8.83823,-8e-05,-23.68533,5.3997,0.00341,-7.78671,-0.8265,19.90998,-28.91583,-8.19592,18.22563,-0.57638,0.59044,2.15397
1471,-0.80533,0.0,0.0,-0.80321,0.0,-0.0,-5.75739,-6.30821,15.42852,21.57711,1.90865,-17.64028,-28.4705,-6.09454,-0.0005,-26.42067,0.09349,0.00012,36.37104,24.59295,12.80953,8.27986,4.06189,-14.19621,-12.5935,10.05364,-6.18061,-20.34566,-50.51585,-28.65981,17.67727,0.00541,-80.83224,36.28062,0.00775,99.75197,-10.3207,-8.04924,-0.00275,-23.67642,4.93423,0.00105,-7.92715,-0.83523,19.83303,-29.06593,-8.17633,18.14995,-0.68394,0.68718,2.38433
1472,-1.08434,-0.0,-0.0,-1.00993,0.0,0.0,-6.13279,-6.39548,15.41552,21.57791,2.15194,-17.34266,-28.20162,-6.29369,-0.00049,-26.4559,0.05235,6e-05,36.18805,24.80603,12.73198,8.29921,4.10289,-14.25363,-12.09682,9.8449,-5.73431,-20.19584,-50.03565,-29.60258,17.23094,0.00895,-79.61112,35.59675,0.0054,100.96876,-10.5098,-7.14311,-0.00368,-23.44849,5.13012,0.00228,-7.95445,-0.82766,19.77855,-29.09933,-8.14962,18.10138,-0.83471,0.80599,2.62549
1473,-1.52764,-0.0,0.0,-1.27677,-0.0,-0.0,-6.47017,-6.38173,15.4456,21.48169,2.09064,-17.21091,-27.97401,-6.48423,-0.00019,-26.47996,0.157,0.0,36.05111,24.98965,12.66153,8.34501,4.12179,-14.09502,-11.47121,9.70285,-5.65621,-19.93176,-49.64821,-30.24902,16.85009,0.00397,-78.48389,34.96172,0.00379,102.11784,-10.69042,-6.51442,-0.00228,-23.12542,5.57879,0.0028,-7.8706,-0.85698,19.80747,-29.01356,-8.18739,18.11793,-1.00956,0.96417,2.83466
