PaulMeinheit/Bachelor_Muay_Thai/processed_Data/N4/teep/sliced/JointAngles/sliced2.csv
Unnamed: 0_level_0,L_MTP_ANGLE,L_MTP_ANGLE,L_MTP_ANGLE,R_MTP_ANGLE,R_MTP_ANGLE,R_MTP_ANGLE,L_ANKLE_ANGLE,L_ANKLE_ANGLE,L_ANKLE_ANGLE,R_ANKLE_ANGLE,R_ANKLE_ANGLE,R_ANKLE_ANGLE,L_KNEE_ANGLE,L_KNEE_ANGLE,L_KNEE_ANGLE,R_KNEE_ANGLE,R_KNEE_ANGLE,R_KNEE_ANGLE,L_HIP_ANGLE,L_HIP_ANGLE,L_HIP_ANGLE,R_HIP_ANGLE,R_HIP_ANGLE,R_HIP_ANGLE,L_SHOULDER_ANGLE,L_SHOULDER_ANGLE,L_SHOULDER_ANGLE,R_SHOULDER_ANGLE,R_SHOULDER_ANGLE,R_SHOULDER_ANGLE,L_ELBOW_ANGLE,L_ELBOW_ANGLE,L_ELBOW_ANGLE,R_ELBOW_ANGLE,R_ELBOW_ANGLE,R_ELBOW_ANGLE,L_WRIST_ANGLE,L_WRIST_ANGLE,L_WRIST_ANGLE,R_WRIST_ANGLE,R_WRIST_ANGLE,R_WRIST_ANGLE,NECK_ANGLE,NECK_ANGLE,NECK_ANGLE,NECK_ANGLE_SHADOW,NECK_ANGLE_SHADOW,NECK_ANGLE_SHADOW,Trunk_Joint_Angle,Trunk_Joint_Angle,Trunk_Joint_Angle
ITEM,X,Y,Z,X,Y,Z,X,Y,Z,X,Y,Z,X,Y,Z,X,Y,Z,X,Y,Z,X,Y,Z,X,Y,Z,X,Y,Z,X,Y,Z,X,Y,Z,X,Y,Z,X,Y,Z,X,Y,Z,X,Y,Z,X,Y,Z
964,-5.52379,0.0,0.0,-1.98681,-0.0,0.0,-9.22845,-7.33174,18.51092,21.67118,5.18494,-10.32287,-16.68456,-3.51846,0.00021,-29.81843,-0.84302,-3e-05,37.40466,16.3443,12.17174,19.18771,0.64115,-10.12482,12.94115,18.35831,-20.81844,1.30624,-23.41697,24.90751,57.53246,-0.00027,-90.12829,46.99463,-0.0003,86.53876,-13.65516,4.46001,0.00022,-12.59758,6.71136,8e-05,11.85563,0.87884,23.85566,-8.66022,-8.00514,22.563,-3.0042,2.61299,4.69441
965,-5.47622,0.0,-0.0,-1.71302,-0.0,-0.0,-9.41613,-7.2959,18.33901,21.66197,5.33872,-10.34128,-16.63886,-3.46044,0.00012,-29.90885,-0.80708,-0.0001,37.55254,16.18748,12.26305,19.31682,0.51887,-10.21011,12.9996,18.33395,-20.95937,1.42362,-23.43368,25.22813,57.66454,0.00066,-90.1612,46.95204,-0.00023,85.87965,-14.22375,4.2916,0.0014,-12.79515,6.17889,0.00094,11.77702,0.68336,23.75911,-8.76272,-8.15436,22.40244,-2.8545,2.59488,4.63367
966,-5.56112,0.0,-0.0,-1.65281,0.0,-0.0,-9.44376,-7.48986,18.27828,21.63255,5.42878,-10.50999,-16.66109,-3.47825,8e-05,-29.9528,-0.7346,-5e-05,37.698,16.15154,12.19715,19.38579,0.49947,-10.17231,12.98151,18.23122,-20.97154,1.4736,-23.4678,25.44242,57.8829,0.00164,-90.62229,47.02012,0.00106,84.99423,-14.63999,4.01725,0.00161,-13.00402,5.81085,0.00042,11.68778,0.60675,23.69042,-8.86584,-8.20199,22.31031,-2.74618,2.65909,4.60303
967,-5.63385,-0.0,-0.0,-1.76447,-0.0,-0.0,-9.37019,-7.73428,18.26489,21.5853,5.31385,-10.76214,-16.73394,-3.55381,9e-05,-29.94444,-0.63283,3e-05,37.80521,16.23096,12.01547,19.38233,0.58687,-10.05138,12.92855,18.07148,-20.82362,1.46483,-23.51406,25.52462,58.09792,0.00103,-91.20678,47.22974,0.00079,84.27828,-14.55803,3.76642,0.00021,-13.07555,5.66246,-0.00013,11.59566,0.64591,23.63386,-8.9642,-8.14546,22.27069,-2.70791,2.79792,4.60597
968,-5.61044,-0.0,-0.0,-1.88904,0.0,-0.0,-9.30419,-7.85545,18.26402,21.58112,4.96193,-10.99194,-16.80836,-3.63029,5e-05,-29.91241,-0.48007,3e-05,37.83407,16.30597,11.85864,19.30951,0.66589,-9.89501,12.91152,17.93962,-20.5752,1.43608,-23.56603,25.55499,58.24224,-6e-05,-91.78262,47.50174,-0.00109,83.96111,-13.97971,3.52954,-0.00174,-12.97435,5.62963,-0.00014,11.52817,0.7397,23.60355,-9.03141,-8.047,22.27531,-2.73956,2.91473,4.60137
969,-5.46075,0.0,0.0,-1.89978,0.0,-0.0,-9.32632,-7.76362,18.24992,21.65106,4.57019,-11.11033,-16.87398,-3.65495,-3e-05,-29.89224,-0.31677,-4e-05,37.77564,16.29668,11.854,19.17961,0.65359,-9.78625,12.95336,17.88244,-20.34111,1.46395,-23.62604,25.70818,58.32027,-0.0005,-92.40883,47.69952,-0.00194,83.81055,-13.25844,3.25924,-0.00233,-12.80709,5.61991,-9e-05,11.5,0.81134,23.62106,-9.0535,-7.98607,22.31727,-2.82182,2.93172,4.58762
970,-5.27322,0.0,0.0,-1.80569,-0.0,0.0,-9.40815,-7.51217,18.18888,21.76119,4.41987,-11.09103,-16.95975,-3.62163,-8e-05,-29.90178,-0.24495,-5e-05,37.6874,16.24063,12.00381,19.03945,0.58523,-9.81245,13.02044,17.8618,-20.21289,1.58044,-23.6935,26.0521,58.36486,-0.00042,-93.10709,47.75595,-0.00157,83.55962,-12.85301,3.03469,-0.00118,-12.67649,5.67034,0.00016,11.5057,0.82335,23.65538,-9.0422,-7.98686,22.35397,-2.91551,2.87468,4.6116
971,-5.27838,0.0,-0.0,-1.7443,0.0,-0.0,-9.42138,-7.25509,18.07832,21.87382,4.62003,-10.99951,-17.08287,-3.572,-3e-05,-29.94743,-0.31758,0.0001,37.6588,16.22075,12.19842,18.96621,0.54577,-9.96899,13.06494,17.83602,-20.22141,1.71524,-23.75761,26.46983,58.39283,-2e-05,-93.86094,47.74754,-0.00093,83.39886,-13.06347,2.95082,-0.00067,-12.54006,5.91576,0.00122,11.53031,0.81891,23.65011,-9.01858,-7.98918,22.34741,-2.962,2.82323,4.6973
972,-5.47219,0.0,-0.0,-1.77826,0.0,0.0,-9.33113,-7.04772,17.92164,21.96668,5.00589,-10.91317,-17.22104,-3.53448,5e-05,-30.02183,-0.49482,0.00021,37.71424,16.26011,12.36992,18.99148,0.56984,-10.16816,13.05727,17.81923,-20.36023,1.7931,-23.80809,26.8403,58.45023,0.00048,-94.5735,47.78949,-0.00078,83.50323,-13.8434,2.91708,-0.00038,-12.2902,6.32395,0.00207,11.56183,0.85643,23.59693,-8.99296,-7.93537,22.31044,-2.9364,2.80564,4.81723
973,-5.5226,0.0,0.0,-1.79368,0.0,-0.0,-9.24289,-6.88195,17.7514,21.99986,5.25905,-10.8545,-17.33773,-3.49007,7e-05,-30.08252,-0.67394,0.00016,37.78267,16.31587,12.50205,19.03794,0.63853,-10.32201,12.99581,17.8187,-20.58627,1.83643,-23.84359,27.15176,58.62537,-0.00038,-94.97285,47.87302,-0.00115,83.47404,-14.75437,2.74965,0.00017,-11.94548,6.54608,0.00085,11.59583,0.90388,23.52604,-8.96695,-7.86606,22.26025,-2.89471,2.80553,4.93011
974,-5.33752,0.0,-0.0,-1.73589,0.0,0.0,-9.19568,-6.85897,17.6817,21.95772,5.20149,-10.83464,-17.42135,-3.424,5e-05,-30.0822,-0.73818,0.00012,37.79937,16.34162,12.50955,18.99755,0.71522,-10.4014,12.91795,17.7867,-20.83715,1.91512,-23.87542,27.44167,58.94736,-0.00255,-94.8529,47.88912,-0.00249,82.77469,-15.40261,2.33996,0.00104,-11.68611,6.31388,0.00015,11.6232,0.88204,23.45802,-8.95049,-7.86261,22.18823,-2.9076,2.82956,4.99676
975,-5.23498,0.0,-0.0,-1.73297,0.0,0.0,-9.10091,-7.09902,17.80472,21.91202,4.98194,-10.86342,-17.48904,-3.36207,4e-05,-30.0372,-0.63662,0.00012,37.77303,16.31218,12.31985,18.85137,0.73954,-10.44759,12.88215,17.67597,-21.07195,2.03292,-23.92766,27.71408,59.32536,-0.00242,-94.42403,47.82579,-0.00269,81.51335,-15.88081,1.70268,0.00419,-11.66607,5.88944,0.00097,11.63306,0.77911,23.40161,-8.9538,-7.93915,22.09839,-2.98084,2.88501,4.98917
976,-5.42442,0.0,0.0,-1.87289,0.0,0.0,-8.89372,-7.58653,18.06583,21.95007,4.86442,-10.89342,-17.56441,-3.33097,4e-05,-30.01702,-0.42907,-4e-05,37.73236,16.23238,12.03453,18.66311,0.66205,-10.51929,12.90482,17.48823,-21.24738,2.11444,-24.01076,27.89617,59.63065,-0.0001,-94.09615,47.82979,-0.00104,80.47525,-16.3759,1.07442,0.00651,-11.85961,5.81593,-3e-05,11.62828,0.64339,23.349,-8.97285,-8.04769,22.00045,-3.07746,2.94815,4.93737
977,-5.806,0.0,0.0,-2.09978,-0.0,0.0,-8.60265,-8.172,18.30377,22.05982,4.91099,-10.84621,-17.66774,-3.3195,-2e-05,-30.06431,-0.23387,-0.00015,37.70553,16.15109,11.84383,18.50815,0.52158,-10.64343,12.93886,17.25585,-21.30326,2.1005,-24.09283,27.90568,59.80185,0.00114,-93.91689,48.0218,-0.00197,80.33649,-16.67707,0.88678,0.00661,-12.13615,6.25708,-0.0017,11.61107,0.5222,23.26966,-9.00748,-8.1332,21.88236,-3.15372,3.01207,4.91439
978,-6.19592,0.0,0.0,-2.33461,0.0,0.0,-8.3079,-8.64347,18.38727,22.15328,5.01757,-10.7184,-17.80305,-3.2922,-0.00016,-30.16615,-0.12672,-7e-05,37.73503,16.11453,11.82513,18.43075,0.41348,-10.80734,12.92934,17.03004,-21.23199,2.01864,-24.12953,27.79577,59.87505,0.0013,-93.75139,48.34708,-0.00399,81.08147,-16.58352,1.30929,0.007,-12.37171,6.81302,-0.00142,11.57826,0.45148,23.15571,-9.0601,-8.15924,21.74946,-3.17254,3.09441,4.94668
979,-6.4644,0.0,-0.0,-2.49473,0.0,-0.0,-8.08288,-8.79939,18.3262,22.16515,5.12498,-10.60902,-17.94532,-3.25108,-0.00019,-30.28282,-0.09211,3e-05,37.83971,16.12564,11.88084,18.43177,0.3918,-10.9497,12.86576,16.87276,-21.10262,1.95556,-24.11108,27.74042,59.94146,0.00183,-93.80337,48.65602,-0.00276,82.15573,-16.36371,1.95483,0.00448,-12.47095,6.99707,-0.00068,11.54908,0.44318,23.05165,-9.10445,-8.13032,21.64814,-3.13129,3.18648,5.00099
980,-6.56522,-0.0,-0.0,-2.45044,0.0,-0.0,-7.95447,-8.51705,18.23419,22.08622,5.22495,-10.61158,-18.06928,-3.26822,1e-05,-30.37162,-0.07369,6e-05,37.99318,16.18087,11.86062,18.48658,0.45019,-10.99842,12.77667,16.80035,-20.96755,1.99399,-24.05089,27.84885,60.06296,0.00211,-94.19282,48.85492,6e-05,82.87074,-16.30972,2.3725,0.00227,-12.4417,6.72814,-0.00056,11.5441,0.44809,23.01534,-9.11431,-8.11292,21.61558,-3.06282,3.25927,5.0499
981,-6.59548,0.0,-0.0,-2.18833,0.0,-0.0,-7.8929,-7.89267,18.20302,21.97392,5.25543,-10.72026,-18.17817,-3.40706,0.00027,-30.41472,-0.03348,5e-05,38.15195,16.28008,11.70605,18.56522,0.5443,-10.94797,12.68722,16.74901,-20.79619,2.16912,-23.96266,28.07912,60.23734,0.00016,-94.38771,48.94247,0.0012,82.80108,-16.2055,2.5682,0.004,-12.45379,6.30604,0.0002,11.52864,0.36563,23.07226,-9.1259,-8.21015,21.63999,-3.0005,3.30766,5.09117
982,-6.74502,0.0,-0.0,-1.94773,0.0,0.0,-7.8481,-7.24321,18.22109,21.93878,5.15889,-10.84221,-18.28069,-3.61813,0.00031,-30.44002,0.03816,-1e-05,38.28442,16.38447,11.47894,18.63805,0.60486,-10.88932,12.60108,16.63492,-20.54447,2.43876,-23.87335,28.3201,60.44295,-0.00229,-93.89348,48.96616,0.00084,82.19115,-15.69437,2.6991,0.00579,-12.65345,6.05436,0.00071,11.43818,0.14132,23.1955,-9.21051,-8.46352,21.67659,-2.95337,3.34865,5.12477
983,-6.89913,0.0,-0.0,-1.87921,0.0,-0.0,-7.85456,-6.806,18.14134,22.01607,5.01112,-10.86033,-18.36486,-3.75258,0.0001,-30.47829,0.11428,-7e-05,38.36763,16.42516,11.34776,18.66726,0.57641,-10.96788,12.52929,16.43283,-20.24086,2.70057,-23.8224,28.48771,60.65899,-0.00183,-93.11468,48.9915,0.00027,81.8283,-14.93089,2.62032,0.00366,-12.92622,6.08915,0.00061,11.27269,-0.14579,23.31014,-9.37508,-8.77261,21.68269,-2.92776,3.38561,5.14806
984,-6.45246,0.0,0.0,-1.70268,0.0,-0.0,-8.05718,-6.53959,17.78206,22.08954,4.96444,-10.7227,-18.41518,-3.70064,-0.00013,-30.51529,0.13485,-0.0001,38.37176,16.366,11.51079,18.60563,0.46218,-11.27186,12.49883,16.18596,-19.95259,2.87296,-23.82335,28.56104,60.85361,1e-05,-92.72441,49.08615,-0.00034,82.13984,-14.4012,2.18318,0.00208,-13.00999,6.2893,0.00083,11.12797,-0.34065,23.34626,-9.52541,-8.96768,21.64735,-2.96133,3.3933,5.15459
985,-5.18032,0.0,-0.0,-1.14277,0.0,0.0,-8.46836,-6.29942,17.21753,22.05097,5.06255,-10.52176,-18.44007,-3.53356,-0.00027,-30.53495,0.0809,-0.00016,38.29881,16.2413,11.92833,18.45761,0.32057,-11.69534,12.51428,15.96823,-19.72354,2.95556,-23.84738,28.5816,61.02111,9e-05,-92.6815,49.2897,-0.00038,82.7709,-14.25096,1.65629,0.00223,-12.7954,6.41267,0.00035,11.10694,-0.36769,23.29812,-9.55476,-8.976,21.59209,-3.07636,3.34878,5.13325
986,-3.96981,-0.0,-0.0,-0.47044,0.0,0.0,-8.78791,-6.13239,16.85459,21.94968,5.16971,-10.44821,-18.47773,-3.45331,-0.00028,-30.5641,0.03776,-0.00027,38.22352,16.1322,12.2203,18.31173,0.21925,-11.97216,12.54407,15.8335,-19.58924,3.00601,-23.86623,28.64689,61.20297,-0.00061,-92.64267,49.57875,-0.00023,83.3267,-14.26848,1.43593,0.00138,-12.41788,6.31133,-0.00055,11.20432,-0.29357,23.2169,-9.46474,-8.87798,21.54164,-3.21031,3.28043,5.07984
987,-3.75431,0.0,0.0,-0.14627,0.0,-0.0,-8.74545,-6.20135,16.93826,21.89215,5.1134,-10.57284,-18.58424,-3.55316,-1e-05,-30.61599,0.09116,-0.00032,38.24104,16.10317,12.10619,18.24026,0.19411,-11.99902,12.5515,15.77312,-19.56849,3.08593,-23.88477,28.86722,61.42494,-0.00015,-92.69093,49.87343,-0.00053,83.86475,-14.3597,1.599,-0.00018,-12.11631,6.02205,-0.00035,11.3181,-0.23121,23.16824,-9.3544,-8.80247,21.51784,-3.26505,3.26164,4.9941
988,-4.36294,0.0,0.0,-0.24002,-0.0,-0.0,-8.4442,-6.4639,17.24249,21.90258,4.86895,-10.75277,-18.79111,-3.74658,0.00028,-30.64618,0.21977,-0.00016,38.37514,16.16328,11.73348,18.21398,0.23258,-11.97156,12.52021,15.72803,-19.59414,3.24452,-23.89983,29.24654,61.66216,0.00056,-92.99374,50.08847,-0.00015,84.47062,-14.56089,1.94955,-0.00098,-11.97827,5.66716,-0.00011,11.37412,-0.22508,23.19844,-9.29379,-8.80739,21.54863,-3.21872,3.33239,4.87975
989,-5.07887,0.0,0.0,-0.51543,0.0,-0.0,-8.15659,-6.68201,17.43836,21.94472,4.57425,-10.85403,-19.06152,-3.93723,0.00029,-30.61157,0.38389,0.0001,38.56225,16.27912,11.40811,18.16492,0.27938,-12.05092,12.47744,15.65026,-19.55681,3.51599,-23.85809,29.62991,61.88035,0.0004,-93.40234,50.17905,0.00086,85.04508,-14.77363,2.27928,-0.00015,-11.88251,5.34251,-0.00095,11.36703,-0.24632,23.28377,-9.28998,-8.85738,21.62185,-3.13985,3.44792,4.77106
990,-5.46332,-0.0,-0.0,-0.78116,0.0,0.0,-8.02943,-6.64914,17.38349,21.99637,4.40814,-10.905,-19.31878,-4.08735,-2e-05,-30.52736,0.59369,0.00028,38.72663,16.39087,11.31826,18.07797,0.26701,-12.1785,12.51053,15.54653,-19.46911,3.89386,-23.70622,29.86016,62.06857,8e-05,-93.72414,50.18017,0.00133,85.50962,-14.87885,2.44927,0.00081,-11.80395,5.12767,-0.00179,11.29427,-0.25935,23.31759,-9.35867,-8.8815,21.64922,-3.1021,3.52245,4.72181
991,-5.39898,0.0,-0.0,-0.97313,0.0,0.0,-8.05534,-6.37611,17.09247,22.06904,4.435,-10.9778,-19.51885,-4.18086,-0.00033,-30.44677,0.83503,0.00021,38.82982,16.44761,11.49159,17.97531,0.16457,-12.27969,12.69372,15.47012,-19.46923,4.3253,-23.4622,29.94624,62.25826,7e-05,-93.87271,50.20571,0.00115,85.78027,-14.89102,2.37915,0.0007,-11.92816,5.07577,-0.002,11.16339,-0.25603,23.21699,-9.50359,-8.84289,21.55513,-3.13661,3.50495,4.74944
992,-4.98603,0.0,0.0,-1.08044,0.0,-0.0,-8.13014,-6.10384,16.71257,22.17728,4.53593,-11.05915,-19.68575,-4.25298,-0.00024,-30.41694,1.03989,3e-05,38.87069,16.47941,11.77637,17.86646,0.02233,-12.38835,12.97821,15.471,-19.62873,4.75564,-23.18996,30.00351,62.52645,0.00029,-93.83167,50.34231,0.00088,85.7993,-14.80761,2.13122,-0.00017,-12.29971,5.09464,-0.00116,11.04767,-0.24121,23.01376,-9.64705,-8.75726,21.36804,-3.23841,3.42234,4.82867
993,-4.55246,0.0,0.0,-1.16211,0.0,0.0,-8.10515,-6.04901,16.44803,22.30926,4.5471,-11.08985,-19.88166,-4.3809,0.00025,-30.44407,1.16877,-5e-05,38.90072,16.58336,11.93029,17.7627,-0.05421,-12.53637,13.23744,15.54433,-19.87932,5.18223,-22.9381,30.11905,62.92841,0.00023,-93.67979,50.55966,0.00029,85.68147,-14.57577,1.92454,-0.00046,-12.66425,5.02775,-4e-05,11.01866,-0.22301,22.78332,-9.70716,-8.65874,21.15648,-3.3545,3.36834,4.9356
994,-4.45501,0.0,-0.0,-1.30387,-0.0,0.0,-7.8943,-6.18906,16.39793,22.42518,4.46161,-11.08371,-20.12629,-4.58962,0.00058,-30.47579,1.25787,-4e-05,38.99133,16.79207,11.83194,17.68587,-0.00884,-12.67186,13.4145,15.63358,-20.1161,5.65391,-22.74158,30.34394,63.43516,-0.00095,-93.4445,50.78457,-0.00059,85.54789,-14.23568,1.92983,0.00016,-12.8018,4.84954,-4e-05,11.04399,-0.21914,22.55881,-9.71257,-8.57562,20.94552,-3.40869,3.42428,5.05203
995,-4.69434,0.0,-0.0,-1.42629,0.0,0.0,-7.59559,-6.29114,16.42881,22.46235,4.44164,-11.10563,-20.37441,-4.81283,0.0003,-30.44582,1.34174,-7e-05,39.15138,17.01744,11.61773,17.63486,0.10511,-12.76078,13.53789,15.69565,-20.25894,6.20428,-22.63247,30.71234,63.98473,-0.00197,-93.11666,51.02728,-0.00158,85.41039,-13.89624,2.06928,0.00041,-12.77614,4.62748,-0.0005,11.03925,-0.25067,22.37515,-9.74409,-8.53996,20.76055,-3.38183,3.5773,5.1407
996,-4.99581,0.0,-0.0,-1.37424,0.0,0.0,-7.38908,-6.14069,16.31371,22.3771,4.61595,-11.16798,-20.61059,-4.97255,-8e-05,-30.34404,1.41551,-0.00014,39.33486,17.16223,11.5176,17.5817,0.18986,-12.84732,13.64803,15.75686,-20.2795,6.81538,-22.61085,31.20868,64.55097,-0.00081,-92.86543,51.3671,-0.00203,85.25491,-13.66638,2.08667,0.00064,-12.78991,4.44024,-0.00071,10.99212,-0.32923,22.30392,-9.80508,-8.58813,20.66501,-3.33585,3.74428,5.16756
997,-5.25484,-0.0,-0.0,-1.22333,0.0,0.0,-7.29342,-5.8206,16.06142,22.19855,4.87821,-11.2641,-20.88168,-5.06651,-8e-05,-30.2078,1.51955,-1e-05,39.50566,17.22517,11.54205,17.48907,0.20577,-12.93785,13.80858,15.87382,-20.26081,7.47255,-22.62458,31.75772,65.10809,0.00128,-92.88538,51.80898,-0.00053,84.93473,-13.65985,1.85685,0.00184,-12.95862,4.31154,-0.00035,10.96982,-0.45495,22.36016,-9.82656,-8.72562,20.67304,-3.35966,3.87812,5.15009
998,-5.5451,0.0,0.0,-1.17816,0.0,0.0,-7.1822,-5.6827,15.90829,21.99326,4.91268,-11.41547,-21.19186,-5.1414,0.0001,-30.06152,1.73597,0.00039,39.63833,17.27292,11.49163,17.32052,0.19959,-12.97799,14.10931,16.03344,-20.33382,8.19663,-22.59667,32.24595,65.59609,0.00261,-93.15311,52.2327,0.00181,84.19829,-13.85835,1.56682,0.00201,-13.26684,4.09514,0.00118,11.01772,-0.60653,22.41792,-9.77917,-8.88783,20.67321,-3.50209,4.01664,5.15767
999,-5.88822,0.0,-0.0,-1.22768,0.0,0.0,-6.97731,-5.96999,15.98934,21.79652,4.49966,-11.59319,-21.47947,-5.21441,9e-05,-29.90617,2.04158,0.00058,39.71884,17.35498,11.23815,17.07142,0.25066,-12.99629,14.54959,16.14571,-20.49999,8.98282,-22.48107,32.55885,66.01002,0.00385,-93.53703,52.55106,0.00249,83.16283,-14.05653,1.50515,0.00043,-13.62885,3.64642,0.00242,11.0888,-0.74153,22.30459,-9.73093,-8.97377,20.51744,-3.7299,4.21677,5.24447
1000,-6.20804,0.0,0.0,-1.17356,-0.0,-0.0,-6.72435,-6.52492,16.17736,21.61583,3.86169,-11.69942,-21.72659,-5.25858,-0.00012,-29.75072,2.25905,0.00019,39.77988,17.45944,10.87395,16.79085,0.39085,-13.13818,14.98149,16.16463,-20.61645,9.78856,-22.28804,32.68228,66.46973,0.00328,-93.82107,52.84308,0.00104,82.43479,-14.12779,1.78469,-0.00089,-13.94495,3.1193,0.00143,11.07892,-0.84181,22.01308,-9.78541,-8.96379,20.20554,-3.95096,4.47181,5.37724
1001,-6.38782,-0.0,-0.0,-0.97304,0.0,0.0,-6.52917,-6.91365,16.22749,21.46492,3.55095,-11.69944,-21.99786,-5.25719,-0.00029,-29.62096,2.23212,-0.00034,39.89083,17.54705,10.60827,16.55335,0.57777,-13.49486,15.27096,16.16173,-20.59422,10.62045,-22.05427,32.77576,67.0976,-0.00201,-93.62556,53.26023,-0.00344,82.4862,-14.11181,2.35986,-0.00072,-14.1743,2.84064,-0.00042,10.9387,-0.94926,21.75759,-9.96535,-8.97311,19.92513,-4.09731,4.72688,5.4637
1002,-6.37924,0.0,0.0,-0.83381,-0.0,-0.0,-6.43714,-6.86614,16.02404,21.3625,3.86493,-11.67851,-22.35706,-5.2467,-0.00011,-29.53871,2.02047,-0.00046,40.08653,17.6155,10.57217,16.398,0.73721,-13.94545,15.47073,16.24535,-20.51261,11.532,-21.81145,33.02854,67.87112,-0.00686,-92.77254,53.88213,-0.00854,83.22331,-13.9825,3.10778,0.00135,-14.33477,2.92167,-0.00126,10.74605,-1.11179,21.74163,-10.16933,-9.11924,19.8513,-4.18842,4.94075,5.47102
1003,-6.21629,0.0,-0.0,-0.90246,0.0,-0.0,-6.41033,-6.50631,15.64148,21.32066,4.5221,-11.72005,-22.80051,-5.27777,0.0003,-29.49528,1.85105,-0.00034,40.32498,17.69107,10.74251,16.29083,0.81744,-14.2443,15.73289,16.45539,-20.48389,12.51083,-21.59332,33.44005,68.69665,-0.00519,-91.61456,54.69385,-0.00713,84.15166,-13.66895,3.80037,0.00237,-14.38506,3.08083,-0.00153,10.61212,-1.28708,21.91575,-10.29063,-9.34511,19.95267,-4.2951,5.09575,5.46353
1004,-5.93862,0.0,-0.0,-1.06925,-0.0,0.0,-6.41655,-6.07451,15.19284,21.33288,4.93983,-11.80944,-23.27445,-5.34639,0.00032,-29.43785,1.89702,-5e-05,40.55339,17.75811,10.99167,16.16489,0.81315,-14.28109,16.09802,16.75516,-20.4895,13.47332,-21.43707,33.84499,69.55542,-0.00186,-90.61697,55.61465,0.00287,84.71864,-13.26883,4.22948,0.00058,-14.25103,2.86854,-0.00273,10.52777,-1.36503,22.04258,-10.36291,-9.46316,20.04456,-4.42558,5.18986,5.49652
1005,-5.54407,0.0,0.0,-1.14608,0.0,-0.0,-6.46304,-5.64953,14.71558,21.35312,4.73631,-11.88409,-23.72458,-5.40199,-0.0001,-29.29888,2.14711,0.00048,40.76583,17.75543,11.18684,15.97656,0.75069,-14.18696,16.48913,17.07212,-20.42669,14.37639,-21.34323,34.11563,70.45934,-0.00179,-89.87413,56.5448,0.01152,84.73813,-12.93352,4.43103,-0.00106,-14.0432,2.16484,-0.00255,10.4111,-1.32079,21.96262,-10.48748,-9.39332,19.98486,-4.51035,5.24053,5.5498
1006,-5.12834,0.0,0.0,-1.09381,-0.0,0.0,-6.49878,-5.28288,14.26122,21.32353,4.0427,-11.96579,-24.13341,-5.43947,-0.00024,-29.04988,2.46416,0.00091,40.95784,17.66239,11.21597,15.69869,0.67428,-14.12919,16.86813,17.32377,-20.26152,15.24832,-21.25608,34.23388,71.34642,-0.00103,-89.37563,57.44501,0.00727,84.66727,-12.61425,4.58421,-0.00123,-14.01198,1.48619,-0.00069,10.26764,-1.26921,21.72241,-10.65933,-9.25942,19.77617,-4.52279,5.28804,5.59303
1007,-4.9996,0.0,0.0,-1.03573,0.0,0.0,-6.36987,-5.08987,13.9591,21.24185,3.3699,-12.18636,-24.52547,-5.51601,5e-05,-28.70762,2.72513,0.00095,41.1193,17.53208,10.98759,15.32421,0.64282,-14.10629,17.26858,17.46343,-20.07538,16.12704,-21.10982,34.2164,72.14709,0.00206,-89.29125,58.34158,-0.00742,85.25234,-12.16765,4.73885,-0.00119,-14.17792,1.64565,-0.00048,10.15646,-1.32176,21.45675,-10.80789,-9.21355,19.50584,-4.49546,5.39208,5.63594
1008,-5.20615,0.0,0.0,-1.05112,0.0,0.0,-6.03658,-5.0059,13.78893,21.15753,3.12446,-12.56864,-24.93597,-5.63469,6e-05,-28.30397,2.86199,0.00048,41.29327,17.43535,10.60593,14.91591,0.7016,-14.08276,17.71207,17.53777,-20.00408,17.05577,-20.88697,34.11704,72.87858,0.00245,-89.60429,59.21905,-0.01501,86.67426,-11.71055,4.87975,-0.00175,-14.25363,2.88995,0.00282,10.0493,-1.46421,21.22141,-10.95336,-9.26231,19.23161,-4.40207,5.5902,5.70543
1009,-5.24924,0.0,0.0,-1.0362,-0.0,0.0,-5.70485,-4.79837,13.53132,21.11141,3.26753,-12.91223,-25.37956,-5.73438,-0.00026,-27.86903,2.82773,-0.00033,41.53596,17.42127,10.3619,14.56269,0.85901,-14.14965,18.19738,17.65672,-20.13861,18.12014,-20.64155,34.10702,73.57819,-0.00049,-90.01949,59.97708,-0.00649,88.24505,-11.60994,5.07443,-0.00289,-13.98194,4.43985,0.00503,9.87798,-1.61662,20.97022,-11.16521,-9.31449,18.9387,-4.18227,5.85147,5.82078
1010,-4.75305,0.0,0.0,-0.86232,-0.0,0.0,-5.5584,-4.43619,13.11784,21.10829,3.46617,-13.05196,-25.85658,-5.80554,-0.00028,-27.41748,2.6249,-0.00087,41.81902,17.50161,10.37826,14.25618,1.09837,-14.37055,18.7302,17.89096,-20.44076,19.37799,-20.46424,34.38092,74.24379,-0.00271,-90.3742,60.55483,0.00421,89.23223,-12.03562,5.31129,-0.00282,-13.4075,5.15764,-0.00273,9.68174,-1.73634,20.65504,-11.4075,-9.31296,18.59718,-3.89118,6.10863,5.97812
1011,-4.0123,-0.0,-0.0,-0.58146,-0.0,-0.0,-5.51954,-4.10213,12.74223,21.12958,3.50715,-13.0812,-26.36558,-5.88893,3e-05,-26.94064,2.33759,-0.00059,42.06005,17.61645,10.47624,13.89539,1.38682,-14.64082,19.29261,18.22083,-20.7679,20.7379,-20.38683,34.89113,74.91051,-0.00128,-90.71871,61.04536,0.0032,89.72784,-12.78897,5.42682,4e-05,-12.87355,4.66416,-0.0075,9.56905,-1.83097,20.31478,-11.5671,-9.27874,18.24115,-3.67064,6.32915,6.13451
1012,-3.58622,0.0,0.0,-0.37481,0.0,0.0,-5.38378,-3.85852,12.59873,21.15672,3.43982,-13.21939,-26.87358,-6.00317,0.00024,-26.41982,2.06869,0.0002,42.20836,17.6406,10.4035,13.40493,1.66719,-14.82088,19.83371,18.5775,-20.97775,22.00205,-20.34083,35.30685,75.64856,0.0041,-91.19963,61.61444,-0.0062,90.31837,-13.52809,5.35842,0.00229,-12.71655,3.55443,-0.00163,9.54846,-1.94126,20.06959,-11.62349,-9.29316,17.96925,-3.57335,6.51645,6.22235
1013,-3.59846,0.0,0.0,-0.35619,0.0,0.0,-5.07376,-3.56208,12.67045,21.19583,3.36894,-13.57441,-27.31696,-6.14388,0.00033,-25.85084,1.84145,0.00062,42.26316,17.48734,10.08611,12.80705,1.88543,-14.89612,20.35287,18.92226,-21.01267,23.05895,-20.26252,35.35653,76.42225,0.00743,-91.86121,62.32787,-0.00911,91.03042,-13.85546,5.26239,0.00208,-12.88089,2.58454,0.00223,9.50326,-2.11564,19.98734,-11.68881,-9.42606,17.8277,-3.50943,6.66166,6.21734
1014,-3.67843,0.0,0.0,-0.50094,-0.0,0.0,-4.6856,-3.12013,12.74619,21.26597,3.30468,-14.10074,-27.68972,-6.29234,0.00044,-25.25561,1.5998,0.00031,42.27214,17.20106,9.67946,12.19453,2.04607,-14.93323,20.93768,19.27077,-20.94574,23.97904,-20.19849,35.12107,77.10519,0.0037,-92.35387,63.12026,-0.00016,91.2098,-13.43306,5.27901,0.00168,-12.97189,2.04564,0.00083,9.34996,-2.34117,19.93425,-11.86202,-9.61714,17.69485,-3.36352,6.74198,6.19439
1015,-3.48469,0.0,0.0,-0.68495,0.0,-0.0,-4.33017,-2.69619,12.61874,21.34281,3.24545,-14.67793,-28.07479,-6.39316,0.00019,-24.66334,1.29215,-0.00038,42.30221,16.90314,9.40203,11.63438,2.20405,-14.97898,21.6353,19.62728,-20.91898,24.91146,-20.23633,34.89933,77.68863,-0.00213,-92.23285,63.90557,0.00811,90.51279,-12.40163,5.36411,0.00051,-12.71826,1.91175,0.0004,9.14872,-2.53201,19.68984,-12.10338,-9.7066,17.39386,-3.1086,6.7605,6.26897
1016,-3.01076,0.0,0.0,-0.74645,-0.0,-0.0,-4.02044,-2.55114,12.25198,21.35756,3.24859,-15.16728,-28.53068,-6.37413,-0.00071,-24.08744,0.9156,-0.00097,42.37386,16.64926,9.35088,11.12027,2.38439,-15.06432,22.35057,19.94839,-20.97659,25.92515,-20.35832,34.86347,78.31445,-0.00395,-91.57467,64.65141,0.00603,89.43609,-11.39142,5.43053,-0.0021,-12.23502,2.12416,0.00172,9.00943,-2.64156,19.26074,-12.29823,-9.6531,16.94832,-2.77563,6.74968,6.45719
1017,-2.44509,0.0,0.0,-0.61389,0.0,0.0,-3.71785,-2.70034,11.75238,21.27966,3.34213,-15.52551,-29.00556,-6.22123,-0.00142,-23.52603,0.52439,-0.00087,42.45193,16.37904,9.46595,10.62165,2.54112,-15.18665,22.97932,20.21985,-21.04263,26.96598,-20.44312,34.94249,79.04923,-0.00154,-90.80415,65.36922,0.00043,88.63629,-10.86184,5.43514,-0.00432,-11.87151,2.53946,0.00126,8.93662,-2.71771,18.89542,-12.41628,-9.59129,16.57545,-2.37212,6.73055,6.63213
1018,-1.97297,-0.0,-0.0,-0.37441,0.0,-0.0,-3.38516,-2.86559,11.25569,21.15156,3.45736,-15.90067,-29.42416,-6.03463,-0.00094,-22.97212,0.21268,4e-05,42.49677,16.03827,9.60217,10.11775,2.63368,-15.23028,23.56081,20.52359,-21.12115,27.95421,-20.40744,34.99485,79.78,0.00115,-90.06534,66.07341,0.00057,88.13899,-10.86623,5.23623,-0.0016,-11.93566,2.85606,0.00042,8.82593,-2.79694,18.7257,-12.55037,-9.60333,16.38606,-1.89611,6.70354,6.66116
1019,-1.70613,-0.0,0.0,-0.15095,0.0,-0.0,-2.96745,-2.79537,10.90236,21.02693,3.50608,-16.48568,-29.79832,-5.98795,0.00056,-22.4268,0.03605,0.00095,42.48089,15.67936,9.59727,9.57244,2.69946,-15.0184,24.20343,20.97231,-21.39267,28.8635,-20.29254,34.94576,80.38155,0.00273,-89.26478,66.74291,0.00231,87.74466,-11.45261,4.62379,0.00948,-12.48024,2.84673,0.00206,8.58019,-2.83925,18.58003,-12.81447,-9.58967,16.23302,-1.38565,6.6726,6.55022
1020,-1.65535,0.0,0.0,0.03204,-0.0,0.0,-2.42914,-2.5108,10.81944,20.91844,3.49406,-17.27242,-30.17714,-6.16628,0.00183,-21.91541,-0.05668,0.00088,42.37713,15.34225,9.34223,8.94256,2.78408,-14.51571,24.96741,21.57585,-22.02417,29.68237,-20.22281,34.76335,80.85586,0.00224,-88.38354,67.34949,0.00018,87.65358,-12.59616,3.63807,0.01779,-13.27755,2.57368,0.00294,8.18661,-2.80602,18.21396,-13.24499,-9.42525,15.90019,-0.89519,6.62914,6.40572
1021,-1.73482,0.0,0.0,0.21086,0.0,0.0,-1.83202,-2.26771,10.99327,20.80484,3.50474,-18.0643,-30.55735,-6.4368,0.00134,-21.48286,-0.18842,-5e-05,42.18124,14.93385,8.86691,8.23029,2.86648,-13.90773,25.87957,22.20053,-22.97269,30.35635,-20.30136,34.41736,81.28503,-0.00268,-87.3326,67.95604,-0.00199,87.969,-13.81109,2.6511,0.01034,-14.04084,2.25854,0.00088,7.71021,-2.72684,17.55879,-13.78444,-9.11211,15.31247,-0.44971,6.54134,6.30345
1022,-1.80363,0.0,-0.0,0.38555,0.0,-0.0,-1.30046,-2.33642,11.17867,20.65137,3.55057,-18.68016,-30.92933,-6.54512,-0.00067,-21.17186,-0.45082,-0.00075,41.93466,14.34506,8.36539,7.48817,2.90663,-13.45517,26.9453,22.67022,-24.03638,30.82481,-20.52604,33.87481,81.75592,-0.00872,-86.02522,68.69664,-0.00212,88.33824,-14.469,2.02612,-0.00142,-14.62585,2.0261,-0.0012,7.23412,-2.67303,16.69462,-14.34287,-8.74517,14.51966,-0.05292,6.41041,6.2439
1023,-1.70844,0.0,0.0,0.51421,0.0,-0.0,-0.9101,-2.71237,11.07911,20.44211,3.53729,-19.03494,-31.32707,-6.38472,-0.00222,-21.02852,-0.8376,-0.00045,41.68907,13.60556,8.06665,6.78736,2.88107,-13.3021,28.10437,22.90889,-25.03242,31.16549,-20.80241,33.17724,82.34237,-0.00511,-84.90281,69.56221,-0.00236,88.46068,-14.4809,1.8087,-0.00403,-15.05553,1.80598,-0.00062,6.799,-2.68369,15.73699,-14.86791,-8.40259,13.61637,0.29445,6.27915,6.19852
1024,-1.3788,0.0,0.0,0.56303,0.0,0.0,-0.63315,-3.10252,10.71175,20.21534,3.42041,-19.14988,-31.73996,-6.14344,-0.00158,-21.13736,-1.25564,0.00021,41.43459,12.83972,7.99532,6.20884,2.74296,-13.33798,29.24939,23.00629,-25.90351,31.64351,-21.04092,32.51591,83.09182,0.01116,-84.75268,70.31421,-0.00234,88.18262,-14.32962,1.71061,-0.00064,-15.45946,1.45724,0.00202,6.39716,-2.72104,14.798,-15.35378,-8.09035,12.72188,0.60327,6.14667,6.15766
1025,-0.91768,0.0,0.0,0.56489,0.0,-0.0,-0.38485,-3.29131,10.41061,20.01791,3.26201,-19.2001,-32.05622,-6.09037,-0.00013,-21.62547,-1.58628,-0.00061,41.08745,12.12128,7.94894,5.82724,2.43381,-13.23456,30.30494,23.14626,-26.6939,32.44907,-21.22352,32.06809,84.00259,0.02155,-85.59888,70.76491,-0.00176,87.41886,-14.42294,1.33849,0.00256,-15.88219,0.9821,0.00323,5.99955,-2.71949,13.95146,-15.82055,-7.77508,11.92968,0.89445,5.9529,6.11928
1026,-0.52885,-0.0,0.0,0.65457,0.0,-0.0,-0.11036,-3.34176,10.36519,19.80223,3.12737,-19.39062,-32.1704,-6.25145,-3e-05,-22.61592,-1.76488,-0.00295,40.58288,11.42976,7.77232,5.68843,1.96387,-12.75629,31.26797,23.45295,-27.44546,33.42966,-21.38489,31.78209,85.00932,0.00882,-86.31186,71.04198,-0.00083,86.54081,-14.64808,0.55658,-0.00012,-16.11206,0.55504,0.00144,5.56122,-2.65709,13.2066,-16.31308,-7.44027,11.25637,1.18892,5.67572,6.04503
1027,-0.35607,-0.0,-0.0,1.02636,-0.0,0.0,0.20201,-3.36017,10.40356,19.38395,3.08778,-19.66449,-32.07946,-6.42651,-0.00044,-24.19796,-1.84578,-0.00246,39.94589,10.72771,7.5166,5.83707,1.42262,-12.02759,32.18275,23.8905,-28.13934,34.26453,-21.56435,31.48853,85.99077,-0.01167,-85.78217,71.41087,-0.00123,86.14929,-14.68617,-0.30082,-0.00694,-15.93371,0.30793,0.00013,5.0398,-2.56073,12.54362,-16.87816,-7.10389,10.6731,1.50146,5.37702,5.89264
1028,-0.4149,-0.0,-0.0,1.82665,0.0,0.0,0.54798,-3.32497,10.31699,18.46653,3.24799,-19.71101,-31.82446,-6.45278,-9e-05,-26.45085,-1.96047,0.00391,39.22365,10.01868,7.28809,6.346,0.89345,-11.35687,33.08763,24.30499,-28.71572,34.84092,-21.77033,31.15467,86.81812,-0.01432,-84.12125,71.94398,-0.00326,86.43746,-14.44004,-0.62313,-0.00658,-15.55206,0.21554,0.00084,4.45409,-2.4882,11.95682,-17.5011,-6.8176,10.15258,1.80524,5.14117,5.70065
1029,-0.59651,-0.0,0.0,3.02382,-0.0,0.0,0.90332,-3.23836,10.15143,16.70885,3.64292,-19.38592,-31.42949,-6.30851,0.00094,-29.45811,-2.15093,0.00966,38.41913,9.33441,7.06748,7.29751,0.40215,-10.83401,33.99372,24.57077,-29.1047,35.31086,-21.98128,30.89673,87.43294,-0.0025,-82.25414,72.52623,-0.00299,87.16761,-13.90892,0.00421,0.00601,-15.50804,0.24138,0.00112,3.89931,-2.49575,11.44962,-18.08958,-6.63501,9.67656,2.01716,5.02227,5.5663
1030,-0.7095,0.0,-0.0,4.30589,0.0,0.0,1.22274,-3.18356,10.05364,13.87146,4.21995,-18.93883,-30.9674,-6.02792,0.00151,-33.24673,-2.29063,0.00628,37.58549,8.71147,6.74314,8.77456,-0.04953,-10.28187,34.91295,24.69319,-29.28121,35.85961,-22.17447,30.79781,87.89512,0.00512,-80.67139,73.07259,0.00075,87.90163,-13.08775,1.47054,0.01923,-16.19016,0.40908,-0.00114,3.46584,-2.5711,10.99788,-18.55465,-6.53577,9.22694,2.09181,5.04793,5.52296
1031,-0.64423,0.0,0.0,5.07562,0.0,0.0,1.4644,-3.19372,9.98672,9.99368,4.8903,-18.70492,-30.60426,-5.61529,0.0004,-37.6926,-2.24614,0.0003,36.89724,8.16397,6.28831,10.83331,-0.44068,-9.59803,35.87497,24.78407,-29.33364,36.55144,-22.32596,30.80224,88.34806,0.00294,-79.20663,73.5784,0.00306,88.39842,-12.23564,3.19857,0.01493,-17.54295,0.70293,-0.00391,3.15272,-2.62384,10.53294,-18.89779,-6.4104,8.77373,2.09833,5.21512,5.47274
1032,-0.49353,0.0,-0.0,4.75153,-0.0,0.0,1.5993,-3.24656,9.75073,5.44019,5.46441,-18.69637,-30.47697,-5.0331,-0.00202,-42.53026,-2.0374,0.00204,36.49793,7.6517,5.84617,13.41326,-0.75336,-8.92995,36.90046,24.96176,-29.42502,37.34784,-22.41311,30.76181,88.92773,-0.00229,-77.76393,74.0455,0.00059,88.94867,-11.77693,4.54412,0.00032,-19.08241,1.07162,-0.00385,2.88558,-2.58549,9.98595,-19.1943,-6.16959,8.27875,2.13617,5.46972,5.25479
1033,-0.38948,0.0,0.0,3.32609,-0.0,0.0,1.59809,-3.3202,9.24665,0.73541,5.65134,-18.56353,-30.5314,-4.28118,-0.00307,-47.50732,-1.71171,0.00095,36.31944,7.08953,5.57645,16.32141,-1.04937,-8.42402,37.98178,25.24745,-29.66174,38.16585,-22.48129,30.54262,89.67561,-0.00404,-76.54552,74.4908,-0.00149,89.76825,-11.79274,5.25628,-0.00536,-20.11896,1.4749,-0.00048,2.61542,-2.49418,9.34671,-19.49478,-5.84477,7.71831,2.22275,5.72632,4.7799
1034,-0.33893,0.0,-0.0,1.41762,-0.0,0.0,1.47765,-3.34145,8.5579,-3.6091,5.24847,-17.80938,-30.55619,-3.45163,-0.00111,-52.53455,-1.19959,-0.01293,36.11808,6.40872,5.49391,19.35386,-1.46721,-8.00717,39.1009,25.54377,-30.03575,38.9416,-22.65366,30.13755,90.51224,-0.00186,-75.72118,74.95837,0.00146,90.42285,-11.94688,5.5735,-0.00136,-20.19966,1.80511,0.00165,2.38426,-2.43509,8.65761,-19.75762,-5.53073,7.09975,2.29701,5.92301,4.08894
1035,-0.34622,0.0,-0.0,-0.28679,-0.0,-0.0,1.37136,-3.19505,7.77808,-7.05981,4.33023,-15.97772,-30.3856,-2.65788,0.00168,-57.68386,-0.49976,-0.02048,35.66118,5.63672,5.55271,22.41277,-2.086,-7.56607,40.23825,25.74109,-30.46202,39.71227,-22.98399,29.71735,91.29657,0.00117,-75.31218,75.44273,0.0045,90.5852,-11.93153,5.9814,0.00471,-19.45388,1.92702,-0.00089,2.27519,-2.40409,7.97736,-19.89624,-5.24569,6.47925,2.28289,6.0449,3.30828
1036,-0.49996,-0.0,-0.0,-1.32173,0.0,0.0,1.43794,-2.91308,6.9868,-9.06625,3.28079,-12.90543,-30.02106,-1.99247,0.00234,-63.02948,0.16807,-0.0041,34.86959,4.92913,5.69756,25.49173,-2.81613,-7.15916,41.3647,25.81996,-30.82742,40.61148,-23.36069,29.50784,91.93189,0.00283,-75.28576,75.86301,0.0025,90.72012,-11.82485,6.85735,0.00506,-18.39107,1.91979,-0.00168,2.2835,-2.29839,7.36758,-19.90953,-4.91778,5.95292,2.12342,6.12838,2.57566
1037,-0.80786,0.0,-0.0,-1.45923,-0.0,-0.0,1.67989,-2.7518,6.34413,-9.38331,2.58573,-9.04267,-29.59402,-1.54284,0.0007,-68.47762,0.62432,0.01624,33.84444,4.48555,5.75745,28.58451,-3.45817,-6.9217,42.45879,25.83168,-31.05616,41.72258,-23.63941,29.56359,92.44569,0.00271,-75.58857,76.15607,-0.00087,91.46828,-11.98583,8.0956,-0.0025,-17.36529,2.06458,0.00234,2.26384,-2.07868,6.86134,-19.94168,-4.52322,5.56625,1.80055,6.28315,1.95886
1038,-1.09589,0.0,0.0,-0.84967,0.0,0.0,1.94954,-2.90406,5.9378,-8.33372,2.46516,-5.3737,-29.25276,-1.31156,-0.00078,-73.78727,0.98238,0.01364,32.78855,4.39582,5.57904,31.67886,-3.87655,-6.87253,43.52826,25.84874,-31.17627,42.9775,-23.80899,29.71453,92.97198,-0.00076,-75.97246,76.33189,-0.00161,92.84888,-12.58616,9.18383,-0.00612,-16.40705,2.42944,0.00415,2.04206,-1.86427,6.43101,-20.17274,-4.16216,5.24821,1.3713,6.63181,1.4276
1039,-1.16294,0.0,-0.0,-0.02389,-0.0,0.0,2.11531,-3.27899,5.63919,-6.56558,2.80323,-2.77079,-29.04435,-1.19032,-0.00083,-78.77135,1.46035,-0.00454,31.82841,4.57646,5.26049,34.79845,-4.10439,-6.87913,44.61015,25.9568,-31.29903,44.24241,-23.97143,29.77971,93.61158,-0.00648,-76.03498,76.4435,-0.0005,94.27674,-13.38616,9.76398,-0.0016,-15.52301,2.69029,-0.00011,1.5758,-1.79725,6.01929,-20.65104,-3.94449,4.89172,0.93004,7.15655,0.92785
1040,-0.9728,-0.0,-0.0,0.42414,-0.0,0.0,2.16092,-3.70808,5.2832,-4.6417,3.42879,-1.41049,-28.91752,-1.10523,-0.00023,-83.40562,2.08005,-0.01538,30.92686,4.87429,4.99234,37.97435,-4.28765,-6.83042,45.77239,26.21926,-31.5306,45.44866,-24.21776,29.77835,94.31765,-0.00534,-75.87834,76.57558,0.0009,95.13488,-14.04053,9.87198,0.00248,-14.94224,2.53623,-0.00287,0.99075,-1.8754,5.59524,-21.25127,-3.85645,4.46885,0.50348,7.69121,0.42635
1041,-0.66398,0.0,0.0,0.25054,0.0,-0.0,2.17604,-4.14403,4.85421,-2.86924,4.24766,-0.80824,-28.82889,-1.07706,0.00025,-87.73016,2.68792,-0.01325,30.01594,5.19431,4.77719,41.2099,-4.57354,-6.80975,47.09696,26.6165,-31.92889,46.6461,-24.55859,29.89104,94.98416,0.00315,-76.1768,76.80203,0.00231,95.25213,-14.40736,9.70049,0.0028,-14.96995,2.0494,0.00068,0.47189,-1.98928,5.19001,-21.78446,-3.8085,4.04995,0.03326,8.10919,-0.10788
1042,-0.39448,0.0,-0.0,-0.34716,0.0,-0.0,2.28565,-4.55418,4.45364,-1.28991,5.18056,-0.32264,-28.75181,-1.12973,0.00038,-91.74574,3.13588,-0.00386,29.07951,5.51744,4.48416,44.48802,-5.041,-7.02671,48.62318,27.04613,-32.51699,47.97435,-24.92594,30.26228,95.59134,0.00537,-76.99379,77.07319,0.00193,94.83803,-14.56715,9.45825,0.00151,-15.62003,1.55335,0.00328,0.1235,-2.05748,4.90735,-22.14189,-3.76461,3.76205,-0.55411,8.43429,-0.66064
1043,-0.18644,0.0,-0.0,-1.01391,0.0,-0.0,2.55659,-4.82414,4.18937,0.19134,6.09391,0.37442,-28.61608,-1.25732,-2e-05,-95.44187,3.31873,0.00971,28.07952,5.86991,4.03907,47.78456,-5.66707,-7.64512,50.2919,27.37545,-33.25173,49.52307,-25.22478,30.87347,96.17181,-0.0018,-77.49422,77.22144,-0.00154,94.09682,-14.71785,9.36973,-0.00055,-16.57506,1.25874,0.0013,-0.09857,-2.04948,4.83396,-22.36558,-3.72942,3.69708,-1.27881,8.76569,-1.13722
1044,0.03292,0.0,0.0,-1.42198,0.0,-0.0,2.95618,-4.87101,4.08393,1.56233,6.75973,1.22348,-28.34541,-1.45287,-0.0008,-98.85322,3.21309,0.01911,26.95542,6.2964,3.48533,51.08871,-6.34098,-8.64263,51.94666,27.50551,-33.96186,51.1949,-25.41027,31.56816,96.70657,-0.00608,-77.3479,77.14082,-0.00472,93.22208,-14.98467,9.58814,-0.00334,-17.55817,1.18218,-0.00188,-0.34003,-1.94257,4.88504,-22.60315,-3.64981,3.78501,-2.07215,9.16353,-1.44326
1045,0.26309,0.0,-0.0,-1.3046,-0.0,0.0,3.40536,-4.73145,4.01215,2.68357,6.95484,2.05394,-27.94946,-1.67243,-0.00099,-102.03542,3.00206,0.01243,25.72127,6.80984,3.00371,54.42894,-6.94732,-9.72927,53.44469,27.47458,-34.44129,52.80294,-25.5115,32.18418,97.14761,-0.0032,-77.1859,76.88643,-0.0023,92.70898,-15.24961,10.1158,-0.00337,-18.47081,1.26881,-0.00343,-0.71171,-1.74808,4.85067,-22.97114,-3.45681,3.82697,-2.81944,9.6085,-1.58186
1046,0.44775,0.0,-0.0,-0.6589,-0.0,-0.0,3.85595,-4.51162,3.78734,3.53383,6.68342,2.80875,-27.5426,-1.82098,-0.00028,-104.99575,2.98434,-0.00691,24.46583,7.35798,2.80526,57.8327,-7.47075,-10.53488,54.81054,27.49537,-34.68116,54.30674,-25.59097,32.69025,97.49266,-0.00022,-77.46513,76.56691,0.00379,93.06559,-15.2306,10.78464,0.00199,-19.19572,1.42629,-0.00163,-1.1893,-1.53989,4.64282,-23.44934,-3.18543,3.71336,-3.48363,10.04572,-1.65964
1047,0.62646,0.0,0.0,0.15539,-0.0,0.0,4.30984,-4.34094,3.42665,4.26096,6.2724,3.42978,-27.26344,-1.86506,0.00026,-107.6855,3.23983,-0.01934,23.24113,7.85928,2.81956,61.23938,-8.02764,-10.98775,56.22046,27.74211,-34.90311,55.82193,-25.72297,33.20742,97.76562,0.0004,-78.18374,76.24331,0.00582,94.01789,-14.92244,11.27961,0.00836,-19.70029,1.52787,0.0028,-1.653,-1.39785,4.37285,-23.91663,-2.95173,3.51713,-4.16291,10.45156,-1.82257
1048,0.89515,0.0,0.0,0.7917,0.0,-0.0,4.79488,-4.30131,3.22091,4.97428,6.15799,3.68556,-27.17471,-1.90402,0.00031,-110.06522,3.47565,-0.01253,22.03658,8.2682,2.63742,64.53578,-8.77329,-11.42047,57.80628,28.09953,-35.2889,57.4043,-25.95989,33.88436,97.96446,0.00032,-79.52761,75.95741,0.0018,94.55275,-14.88633,11.27126,0.01495,-20.32028,1.52346,0.00629,-2.00292,-1.35832,4.17912,-24.27019,-2.84177,3.35266,-4.96377,10.84844,-2.18296
1049,1.24695,0.0,-0.0,1.28714,0.0,-0.0,5.33023,-4.30926,3.39479,5.70699,6.49407,3.32169,-27.24388,-2.05308,0.00033,-112.13107,3.27586,0.00551,20.85391,8.61654,1.97245,67.68346,-9.75131,-12.27929,59.5386,28.28888,-35.78544,58.97026,-26.24647,34.72242,98.09065,-0.00013,-81.48016,75.73087,-0.00201,94.08373,-15.58819,10.67086,0.02076,-21.4734,1.54428,0.00295,-2.22503,-1.42846,4.07199,-24.49596,-2.8661,3.22681,-5.86372,11.26275,-2.74474
1050,1.57547,0.0,0.0,1.93461,-0.0,0.0,5.89833,-4.15269,3.77592,6.52473,6.99992,2.39441,-27.40946,-2.27812,0.00011,-113.87358,2.48856,0.01747,19.71222,9.00079,1.09588,70.71869,-10.8463,-13.76359,61.30721,28.21617,-36.25253,60.42823,-26.43075,35.53596,98.2033,-0.00017,-83.3825,75.5128,-0.00088,93.17781,-16.62785,9.71032,0.01459,-23.09983,1.83606,-0.00771,-2.35193,-1.57518,3.92802,-24.62868,-2.94732,3.03778,-6.76989,11.68688,-3.3554
1051,1.86043,-0.0,-0.0,3.1251,0.0,-0.0,6.45058,-3.74472,3.97878,7.41367,7.32853,1.38965,-27.64293,-2.43328,-0.00037,-115.25843,1.43286,0.01361,18.6193,9.5222,0.54309,73.66914,-11.8902,-15.6252,63.03836,28.03414,-36.67465,61.77201,-26.41518,36.12697,98.38595,-2e-05,-84.71594,75.21831,0.004,92.76928,-17.21927,8.72725,0.0001,-24.7065,2.41742,-0.01154,-2.38694,-1.69525,3.60242,-24.67221,-2.93502,2.69064,-7.62553,12.11602,-3.79686
1052,2.27352,0.0,0.0,5.33055,0.0,0.0,6.94496,-3.29183,3.93594,8.18858,7.51545,0.93146,-27.93106,-2.49351,-0.00023,-116.26244,0.76369,0.00059,17.61559,10.23153,0.34711,76.56856,-12.78139,-17.23241,64.7114,27.91287,-37.125,63.04218,-26.2545,36.47043,98.65665,-0.00033,-85.54102,74.81744,0.00535,92.90986,-17.11871,8.01049,-0.00682,-25.81526,2.74327,-0.00374,-2.33059,-1.6839,3.08793,-24.62403,-2.72946,2.21852,-8.37905,12.61091,-3.97736
1053,2.94274,-0.0,-0.0,8.61239,-0.0,-0.0,7.3874,-3.114,3.94135,8.8068,7.76927,1.24475,-28.22375,-2.57208,0.00052,-116.9143,0.95661,-0.00739,16.71285,11.10232,0.02067,79.43272,-13.4938,-18.02989,66.30887,27.88275,-37.61134,64.26595,-26.11004,36.70247,98.95319,-0.00017,-86.19981,74.35267,-0.00113,92.73965,-16.69396,7.67206,-0.00448,-26.21777,2.06339,-0.00282,-2.26904,-1.54619,2.55783,-24.56716,-2.40101,1.78005,-9.00522,13.25603,-3.97703
1054,3.69585,-0.0,0.0,12.11078,0.0,-0.0,7.83161,-3.32375,4.0753,9.64934,7.94661,1.88381,-28.45326,-2.64052,0.00068,-117.28805,1.8447,-0.00577,15.7548,12.03398,-0.59453,82.15726,-14.01893,-18.05391,67.77397,27.87224,-38.02834,65.44249,-26.14023,36.97125,99.2324,0.00041,-86.98353,73.89807,-0.00685,91.76781,-16.38303,7.49521,-0.00121,-26.01725,0.3457,-0.01185,-2.3311,-1.38679,2.17858,-24.63094,-2.10968,1.48954,-9.61627,14.04727,-3.90602
1055,4.20937,0.0,-0.0,14.17014,0.0,0.0,8.31616,-3.74812,4.01733,11.22983,7.72941,2.11308,-28.61323,-2.51245,6e-05,-117.46771,2.8217,-0.00089,14.55961,12.9058,-1.09672,84.62848,-14.37279,-17.80036,69.0436,27.80006,-38.24781,66.55685,-26.40301,37.31683,99.53424,-0.00068,-87.73899,73.5256,-0.00459,90.63943,-16.37877,7.16628,0.00071,-25.49357,-1.45972,-0.0126,-2.53592,-1.29282,1.89728,-24.83707,-1.91602,1.26486,-10.35813,14.86691,-3.81677
1056,4.28572,0.0,-0.0,13.14065,0.0,0.0,8.83908,-4.13372,3.50916,13.56546,7.2147,1.63135,-28.78018,-2.16806,-0.00074,-117.53319,3.47342,0.00156,13.15104,13.66005,-1.21135,86.90466,-14.63517,-17.59851,70.14359,27.60506,-38.25865,67.60696,-26.83476,37.66735,99.88408,-0.00355,-88.08511,73.2739,9e-05,90.23799,-16.6914,6.68214,0.0016,-24.8545,-2.28847,-0.00196,-2.76952,-1.24614,1.53024,-25.0728,-1.73358,0.94292,-11.23819,15.58229,-3.72947
1057,3.94822,0.0,0.0,9.10793,-0.0,0.0,9.40596,-4.34929,2.63824,15.92561,6.89662,0.76669,-29.03468,-1.82047,-0.0009,-117.55023,3.77937,0.00123,11.64909,14.33154,-1.13312,89.12417,-14.92426,-17.4183,71.19156,27.25465,-38.21338,68.61292,-27.32034,37.93322,100.20073,-0.00494,-88.22283,73.11184,0.00171,90.63487,-17.22285,6.24908,0.0014,-24.11397,-1.89882,0.00898,-2.93758,-1.16071,1.04002,-25.24233,-1.46853,0.52174,-12.1959,16.15688,-3.65166
1058,3.41029,0.0,0.0,4.54505,-0.0,-0.0,10.03954,-4.40947,1.72252,17.4009,7.1426,-0.06414,-29.38477,-1.66797,5e-05,-117.5307,3.80599,-0.00059,10.11813,14.98635,-1.25812,91.36662,-15.36083,-17.23507,72.25812,26.78858,-38.307,69.58033,-27.77709,38.09796,100.3972,-0.00448,-88.839,72.97023,0.00148,91.39748,-17.79208,5.9258,0.00161,-23.20795,-0.84099,0.01176,-3.06191,-1.01685,0.57891,-25.36643,-1.16046,0.1497,-13.17115,16.67163,-3.60204
1059,2.99215,0.0,0.0,2.00287,0.0,-0.0,10.72336,-4.3965,1.11922,17.78129,7.85458,-0.79951,-29.78178,-1.76633,0.00135,-117.39468,3.58925,-0.00263,8.65597,15.65847,-1.90539,93.66944,-16.03786,-17.18035,73.27104,26.32665,-38.5935,70.47498,-28.20266,38.21263,100.53345,-0.00088,-90.21602,72.83504,0.00087,92.28968,-18.23372,5.61479,0.00221,-22.22842,0.22402,0.00461,-3.19139,-0.91188,0.25746,-25.49523,-0.94137,-0.10786,-14.04091,17.24442,-3.6135
1060,2.93884,0.0,-0.0,1.86222,-0.0,-0.0,11.37568,-4.41572,0.93663,17.69426,8.60791,-1.59183,-30.15898,-2.0242,0.00157,-116.99667,3.33903,-0.00128,7.34242,16.33754,-3.02625,95.98383,-16.91742,-17.24294,74.08589,25.98309,-38.92892,71.26195,-28.67042,38.33563,100.80027,0.00721,-92.07891,72.74317,0.00014,93.17071,-18.44376,5.12263,0.00057,-21.5396,0.89008,-0.00423,-3.30197,-0.94259,-0.00497,-25.60558,-0.8702,-0.36231,-14.71919,17.9119,-3.64466
1061,3.21663,0.0,-0.0,2.91754,0.0,-0.0,11.91896,-4.58287,0.88722,17.84505,9.11618,-2.50012,-30.43479,-2.21104,0.00059,-116.22011,3.38385,0.00577,6.05745,16.9668,-4.07624,98.16245,-17.76921,-17.14586,74.63479,25.77552,-39.12917,71.94157,-29.2339,38.50256,101.31523,0.01071,-93.91,72.65775,-0.00047,93.71245,-18.35312,4.25183,-0.00469,-21.59811,0.91404,0.0,-3.35077,-1.09026,-0.36797,-25.65389,-0.86907,-0.75419,-15.28297,18.58503,-3.55558
1062,3.59516,0.0,0.0,4.26515,0.0,0.0,12.36532,-4.91917,0.63245,18.301,9.46798,-3.46352,-30.55271,-2.12052,5e-05,-115.04117,3.74814,0.01003,4.63592,17.47506,-4.47004,100.18346,-18.32261,-16.72378,75.00667,25.65313,-39.19552,72.52357,-29.84388,38.71888,101.94519,0.00357,-95.09441,72.44279,-0.00165,93.69453,-18.03575,3.1836,-0.00749,-22.51233,0.22899,0.01605,-3.36465,-1.24255,-0.8854,-25.66511,-0.81366,-1.29067,-15.79982,19.12288,-3.24392
1063,3.94709,0.0,0.0,6.20874,0.0,0.0,12.8116,-5.22901,0.14886,18.59208,9.79321,-4.45321,-30.5463,-1.77688,0.00023,-113.5002,4.04553,0.00128,3.1011,17.84496,-4.11897,102.20493,-18.47099,-16.20543,75.37875,25.61692,-39.32867,73.00016,-30.45395,38.98354,102.42064,-0.00324,-95.42843,72.03471,-0.0023,93.30392,-17.78965,2.44952,-0.00446,-23.77502,-0.9033,0.02014,-3.40823,-1.28879,-1.45529,-25.70302,-0.64027,-1.8354,-16.20491,19.45303,-2.72975
1064,4.34902,0.0,0.0,9.3648,0.0,0.0,13.34499,-5.20553,-0.34144,18.39907,9.95161,-5.42587,-30.51766,-1.41196,0.00019,-111.65686,3.97893,-0.01311,1.56851,18.13614,-3.44006,104.28262,-18.31788,-15.87207,75.86993,25.73883,-39.70053,73.36678,-31.18038,39.3388,102.62596,-0.00307,-95.51691,71.57558,-0.0011,92.84218,-17.89472,2.25288,-0.00151,-24.59949,-2.08008,0.00533,-3.50683,-1.20728,-1.9011,-25.79536,-0.39578,-2.21689,-16.46823,19.6394,-2.1081
1065,4.83233,0.0,0.0,12.84384,0.0,-0.0,13.96214,-4.74116,-0.5906,18.00323,9.8827,-6.13557,-30.53646,-1.2572,7e-05,-109.5853,3.73046,-0.01702,0.1188,18.41343,-2.98929,106.29166,-18.075,-15.58127,76.46942,26.04523,-40.28508,73.63013,-32.22498,39.84346,102.68346,0.0001,-96.07677,71.2804,0.00048,92.41624,-18.30635,2.25909,-0.00019,-24.58878,-3.18567,-0.0111,-3.64733,-1.08097,-2.09203,-25.93271,-0.20652,-2.34562,-16.63407,19.81693,-1.49736
1066,5.21043,0.0,-0.0,14.31173,0.0,0.0,14.58988,-4.09342,-0.4625,17.96345,9.90802,-6.2843,-30.58603,-1.37041,4e-05,-107.36191,3.7084,-0.00738,-1.20468,18.7003,-3.06097,108.11204,-17.91085,-14.92628,77.07294,26.48024,-40.93056,73.762,-33.63866,40.47754,102.77975,0.00262,-96.91243,71.18454,0.00135,92.19215,-18.61207,2.1884,9e-05,-24.05572,-4.38141,-0.01573,-3.83174,-1.00442,-2.01323,-26.11823,-0.16556,-2.24369,-16.69136,20.07148,-0.99874
1067,5.36461,-0.0,-0.0,13.08376,-0.0,0.0,15.15587,-3.68695,-0.04752,18.34513,10.14791,-6.01829,-30.6134,-1.61205,-4e-05,-105.01121,4.1417,0.00856,-2.47101,19.02714,-3.49782,109.63659,-17.87878,-13.77514,77.55769,27.00809,-41.54242,73.67823,-35.26814,41.13127,102.99554,0.00115,-97.12684,71.09753,0.00236,92.4942,-18.3993,2.18306,0.00163,-23.65013,-5.70167,-0.00892,-4.10005,-0.99595,-1.75292,-26.39018,-0.25643,-1.99965,-16.63869,20.41904,-0.65422
1068,5.57122,-0.0,-0.0,11.89095,0.0,0.0,15.60782,-3.7182,0.37813,18.51136,10.06103,-5.99497,-30.59471,-1.7809,-2e-05,-102.4602,4.96839,0.02171,-3.83669,19.42249,-3.88014,110.73887,-17.92902,-12.41132,77.8441,27.67268,-42.179,73.29182,-36.95454,41.68756,103.31097,-0.00286,-96.31392,70.81553,0.00249,93.28878,-17.83538,2.4622,0.00493,-23.72158,-6.95323,-0.00278,-4.51653,-1.0331,-1.47359,-26.81022,-0.39674,-1.75533,-16.56086,20.82473,-0.43924
1069,6.34045,0.0,-0.0,13.90443,-0.0,0.0,15.90242,-3.95373,0.61477,17.84123,9.26021,-6.70571,-30.54456,-1.793,9e-05,-99.5695,5.86254,0.02166,-5.30376,19.83434,-3.94972,111.42491,-17.96225,-11.23699,77.92875,28.53877,-42.97311,72.54662,-38.70903,42.03944,103.73997,-0.00542,-95.06378,70.30231,-0.00308,94.06685,-17.43998,2.8893,0.00662,-24.18949,-8.00349,-0.00107,-5.14722,-1.1038,-1.36659,-27.44234,-0.50274,-1.68316,-16.46271,21.19893,-0.28776
1070,7.77357,0.0,0.0,18.76357,-0.0,0.0,16.07539,-4.04316,0.67019,16.49154,8.32455,-7.95138,-30.49039,-1.69941,7e-05,-96.22234,6.42921,0.00831,-6.71808,20.17669,-3.76994,111.79194,-17.91157,-10.44808,77.90947,29.65935,-44.00004,71.38812,-40.65384,42.031,104.38963,-0.00522,-94.23833,69.59766,-0.01186,94.42008,-17.14831,3.12705,0.00775,-24.89986,-9.00866,0.00478,-5.9896,-1.17144,-1.51675,-28.28319,-0.50837,-1.84774,-16.24726,21.4597,-0.11894
1071,9.3687,0.0,-0.0,22.99861,-0.0,0.0,16.24686,-3.96599,0.63341,15.24992,7.97501,-9.15787,-30.42441,-1.59054,-0.00028,-92.35732,6.51151,-0.00667,-8.06912,20.45388,-3.54344,111.76608,-17.80332,-9.98375,77.98882,31.15402,-45.27082,69.78323,-42.84558,41.51604,105.36298,-0.00301,-94.15073,68.66443,-0.00982,94.55109,-16.41772,3.04281,0.00636,-25.87624,-10.09783,0.01083,-6.87794,-1.1888,-1.80707,-29.16776,-0.41434,-2.1229,-15.94894,21.62784,0.10575
1072,10.77016,0.0,-0.0,24.23021,0.0,0.0,16.43945,-3.92649,0.55243,14.59067,7.916,-10.04226,-30.27818,-1.53747,-0.00101,-87.8951,6.21586,-0.01715,-9.51399,20.74109,-3.45262,111.11082,-17.76295,-9.74802,78.40225,33.2107,-46.78505,67.78539,-45.22694,40.49658,106.67399,0.00177,-94.65048,67.49352,0.01027,95.22357,-15.18091,2.61851,-0.00033,-27.24922,-10.8285,-0.00246,-7.55283,-1.18962,-2.04302,-29.83917,-0.32563,-2.34148,-15.74578,21.80719,0.28353
1073,11.93053,0.0,-0.0,23.34405,0.0,0.0,16.5745,-4.00336,0.42158,14.20368,7.42375,-10.6813,-29.97549,-1.52749,-0.00152,-82.68156,5.72758,-0.02341,-11.11568,21.05399,-3.57414,109.66788,-17.95006,-9.69238,79.2986,35.87827,-48.53372,65.45634,-47.73162,39.03364,108.25599,0.01106,-95.59598,66.25841,0.02501,96.82779,-13.83654,1.69934,-0.01145,-28.91369,-10.56604,-0.02671,-7.91375,-1.2463,-2.16811,-30.19822,-0.33065,-2.4787,-15.72635,22.04883,0.18481
1074,12.43399,0.0,-0.0,22.53757,-0.0,-0.0,16.69152,-4.17801,0.22006,13.60706,6.73501,-11.08549,-29.48699,-1.44918,-0.00072,-76.58228,5.2236,-0.02096,-12.78598,21.32845,-3.83868,107.43259,-18.44355,-9.68347,80.66796,38.93386,-50.5234,62.6538,-50.34918,36.99101,109.96889,0.01911,-96.88603,65.19151,0.01368,98.56872,-12.6593,0.27772,-0.0167,-30.24032,-9.4222,-0.02158,-8.13974,-1.31759,-2.32731,-30.42166,-0.33627,-2.65301,-15.79381,22.2844,-0.35776
1075,11.8164,-0.0,0.0,22.58722,0.0,0.0,16.89735,-4.4935,-0.10436,12.96655,6.97393,-11.06746,-28.81386,-1.20459,0.00131,-69.7396,4.86307,-0.00381,-14.45057,21.53844,-4.08305,104.48468,-19.19555,-9.49365,82.3692,42.07318,-52.81124,58.96144,-53.04746,34.00333,111.62749,0.0159,-98.15749,64.36251,-0.00532,99.27451,-11.84518,-1.08068,-0.00786,-30.42537,-8.25552,0.00223,-8.53767,-1.24213,-2.71908,-30.81217,-0.11795,-2.98685,-15.77443,22.40439,-1.32405
1076,10.45435,0.0,0.0,22.25769,0.0,0.0,17.11703,-4.97024,-0.65373,13.08259,8.95156,-10.58297,-27.96368,-0.82564,0.00263,-62.78078,4.73967,0.0178,-16.10141,21.71404,-4.18709,101.03423,-20.10112,-8.91542,84.21976,45.16491,-55.42556,53.85944,-55.67144,29.68128,113.13397,0.0068,-98.85492,63.65551,-0.00886,98.86504,-11.62332,-1.54598,-0.00074,-29.26109,-7.88538,-0.00252,-9.34251,-0.8901,-3.38159,-31.60325,0.45883,-3.46645,-15.53492,22.30096,-2.59968
1077,9.27495,0.0,0.0,20.21693,-0.0,0.0,17.14507,-5.49442,-1.48791,14.53684,12.43431,-10.15779,-26.96671,-0.45129,0.00191,-56.58998,4.79354,0.02116,-17.70223,21.82941,-4.13018,97.50001,-21.04836,-7.89724,86.05714,48.26391,-58.23134,47.01238,-57.94461,23.84439,114.57449,0.0018,-98.77117,62.91433,-0.00036,98.22562,-11.9453,-0.81792,-0.00483,-27.35408,-8.50587,-0.02075,-10.60248,-0.28357,-4.1549,-32.84779,1.31302,-3.95249,-15.03539,21.84469,-4.07892
1078,8.79902,0.0,-0.0,17.11743,0.0,0.0,16.90851,-5.93367,-2.5632,17.03303,16.01629,-10.63481,-25.90574,-0.18437,0.00037,-51.6884,4.82058,0.0034,-19.16672,21.80948,-3.82135,94.32081,-21.86602,-6.71171,87.73914,51.47554,-60.94727,38.57888,-59.5606,16.76937,116.10542,-0.01056,-97.96185,62.1163,0.00161,97.63046,-12.41394,0.66649,-0.00432,-25.55403,-9.44436,-0.00823,-12.12346,0.42776,-4.83544,-34.35847,2.22901,-4.31334,-14.36756,20.9756,-5.63033
1079,8.89851,0.0,0.0,14.98624,0.0,0.0,16.51126,-6.28823,-3.74646,19.473,17.86333,-12.15424,-24.90138,-0.03343,-0.00065,-47.90751,4.67265,-0.01353,-20.41588,21.62942,-3.08753,91.66634,-22.34851,-5.8607,89.11964,54.82145,-63.30141,29.23769,-60.33132,9.17643,117.74462,-0.03285,-96.27831,61.43926,-0.00323,96.46288,-12.67998,2.20843,0.00329,-24.38458,-9.47101,0.01593,-13.55967,1.07911,-5.3172,-35.79188,3.0142,-4.51299,-13.68647,19.80388,-7.09891
1080,9.22832,0.0,0.0,14.74845,0.0,0.0,16.07641,-6.63765,-4.84821,20.50295,17.41805,-13.76066,-24.04485,0.01621,-0.00114,-44.73917,4.47133,-0.01019,-21.38335,21.2736,-1.99215,89.48779,-22.46005,-5.52018,89.99335,58.13034,-65.06825,19.69457,-60.28041,1.69408,119.29837,-0.03047,-94.03689,61.06751,-0.00242,94.79434,-12.8222,3.31001,0.00561,-24.06059,-7.82808,0.00275,-14.64812,1.57062,-5.63357,-36.88149,3.58884,-4.61998,-13.05022,18.48326,-8.37927
1081,9.54257,-0.0,0.0,15.31342,0.0,0.0,15.68548,-7.01326,-5.69611,19.4667,16.04882,-14.47947,-23.38658,-0.01458,-0.00104,-41.86291,4.49324,0.00818,-21.97996,20.64069,-0.96943,87.76231,-22.4325,-5.17083,90.02253,61.087,-65.91611,10.36272,-59.55358,-5.44663,120.48199,0.00059,-92.47601,60.90704,0.00057,93.82739,-13.16572,3.87005,0.00259,-24.58845,-4.99471,-0.0319,-15.33968,1.88676,-5.89313,-37.5729,3.97964,-4.74078,-12.42421,17.04655,-9.43703
1082,9.6795,0.0,0.0,15.44365,-0.0,0.0,15.43815,-7.33889,-6.17423,16.86509,15.52775,-14.2723,-22.99988,-0.05811,-0.00048,-39.18214,4.75487,0.01764,-22.1152,19.62818,-0.5213,86.46246,-22.53768,-4.12376,88.78147,63.45248,-65.38017,1.60964,-58.28872,-12.05092,121.08762,0.01638,-92.44653,60.65705,0.00427,94.41748,-13.70593,4.07974,0.00059,-25.52303,-2.34258,-0.0322,-15.72057,2.06206,-6.11106,-37.9516,4.22432,-4.8764,-11.83862,15.48596,-10.31809
1083,9.5364,-0.0,0.0,15.76187,-0.0,0.0,15.45368,-7.42747,-6.1901,13.70867,16.20236,-13.78106,-22.96574,-0.04484,-0.00018,-36.47655,4.91853,0.00823,-21.83596,18.29687,-0.84204,85.31879,-22.81071,-2.34894,86.01356,65.1802,-63.17687,-6.16817,-56.58718,-17.77073,121.04984,0.00164,-93.59851,60.19452,0.00592,96.30137,-14.09376,4.07617,0.00121,-26.12807,-1.13162,-0.01052,-15.87533,2.11199,-6.11532,-38.10763,4.27215,-4.86141,-11.45464,13.91335,-11.14279
1084,9.20497,0.0,0.0,17.80291,0.0,0.0,15.74172,-7.15019,-5.75431,10.57662,16.87163,-13.54908,-23.25056,0.01025,-8e-05,-33.3606,4.72887,-0.00668,-21.39806,16.88344,-1.70545,83.86933,-23.09173,-0.54673,81.91116,66.33662,-59.52141,-12.7071,-54.51044,-22.34452,120.44259,-0.01896,-95.17172,59.66901,0.00302,98.8326,-14.21558,3.85141,0.00302,-26.16646,-1.50028,-0.00534,-15.81794,2.01208,-5.69477,-38.06056,4.02061,-4.50928,-11.45533,12.53339,-12.00426
1085,8.97357,0.0,-0.0,21.2445,-0.0,0.0,16.11791,-6.665,-5.15869,7.22685,16.35209,-13.36717,-23.63906,0.01989,0.00016,-29.68972,4.26128,-0.01293,-21.0755,15.66076,-2.58048,81.90996,-23.2175,0.42084,76.99313,67.00782,-54.95334,-17.8107,-52.09879,-25.69678,119.43935,-0.0164,-96.33424,59.16259,0.00668,101.54868,-14.25672,3.55116,0.00438,-26.12494,-2.16937,-0.01334,-15.53114,1.75926,-4.8071,-37.79192,3.45065,-3.78235,-11.85833,11.485,-12.85434
1086,8.97425,0.0,-0.0,23.18369,-0.0,0.0,16.37715,-6.28784,-4.80703,3.18681,14.88486,-12.39242,-23.84588,-0.09648,-0.00024,-25.76888,3.68277,-0.01087,-20.96807,14.76256,-2.98881,79.6879,-23.1051,0.05435,71.53743,67.2318,-49.78852,-21.32568,-49.47044,-27.83736,118.21529,0.00671,-96.22495,58.46749,0.01728,103.96238,-14.27196,3.48646,0.00392,-26.39217,-1.60569,-0.02547,-15.07984,1.43025,-3.59007,-37.3604,2.68512,-2.7798,-12.48773,10.75513,-13.56328
1087,8.92889,0.0,0.0,20.68412,-0.0,-0.0,16.51071,-6.1201,-4.75029,-1.34197,13.64083,-10.08511,-23.75301,-0.36018,-0.00123,-22.0374,3.08115,-0.00596,-21.00249,14.12508,-2.9239,77.54305,-22.80317,-1.52788,65.39554,66.93597,-44.01166,-23.32889,-46.86962,-28.87011,116.85559,0.01751,-94.93017,57.26827,0.00839,105.38031,-14.25545,3.64638,0.00177,-26.59543,0.3773,-0.01762,-14.65585,1.14327,-2.24921,-36.95172,1.91117,-1.64736,-13.11996,10.25864,-14.10509
1088,8.39112,0.0,-0.0,13.85382,0.0,0.0,16.65603,-6.00256,-4.64711,-5.52447,13.18007,-6.96001,-23.51575,-0.72618,-0.00118,-18.72229,2.51954,-0.0017,-20.97412,13.62621,-2.75414,75.62656,-22.42501,-3.7441,58.66797,66.0268,-37.86746,-24.16526,-44.51368,-29.1033,115.35918,0.01227,-93.408,55.458,-0.02934,105.24763,-14.33224,3.57431,3e-05,-26.02583,2.65394,0.00727,-14.46227,0.95832,-0.9758,-36.76542,1.25692,-0.53915,-13.57395,9.97971,-14.57699
1089,7.19355,0.0,0.0,5.77866,0.0,0.0,16.89208,-5.81681,-4.24297,-8.63709,13.10662,-4.41249,-23.38433,-1.10401,0.00016,-15.89431,2.04215,0.00022,-20.64459,13.18673,-2.7304,74.02434,-21.96923,-5.93015,52.11956,64.60274,-32.08546,-24.28934,-42.39307,-29.04147,113.72913,0.01178,-92.0946,53.31654,-0.05046,103.78519,-14.55649,2.91236,0.00189,-24.58306,4.29429,0.01404,-14.52283,0.84357,0.10781,-36.82565,0.73956,0.41987,-13.77428,9.94925,-15.03479
1090,5.75235,-0.0,-0.0,-0.98173,-0.0,-0.0,17.13174,-5.6188,-3.65567,-10.65693,12.92308,-3.64126,-23.46353,-1.37891,0.00101,-13.68824,1.69773,0.00182,-19.90333,12.67119,-2.81416,72.89607,-21.36255,-7.4703,46.52844,62.95267,-27.23311,-24.10597,-40.31401,-29.1391,112.0416,0.00845,-91.02574,51.39011,-0.02425,102.03241,-14.95053,1.77554,0.00793,-23.13738,5.36801,0.0014,-14.59507,0.72107,0.95597,-36.89303,0.3044,1.15807,-13.82558,10.08842,-15.42759
1091,4.83715,0.0,-0.0,-6.52908,-0.0,-0.0,17.19761,-5.49548,-3.18343,-12.27086,12.46185,-4.57685,-23.66971,-1.44128,0.00055,-12.31237,1.60088,0.00189,-18.87533,11.89264,-2.83532,72.29589,-20.65068,-7.98349,42.0998,61.30274,-23.31639,-23.83167,-38.14627,-29.48528,110.37796,-0.00342,-90.54072,50.06721,0.0103,100.86877,-15.59844,0.67259,0.01061,-22.77281,6.27042,-0.01435,-14.31958,0.52156,1.54352,-36.61199,-0.10309,1.62597,-13.98216,10.22773,-15.67249
1092,4.73174,0.0,0.0,-11.76703,-0.0,-0.0,17.01658,-5.47825,-2.97735,-14.15569,11.75359,-5.90108,-23.88213,-1.25881,-0.00038,-11.89902,1.78783,-0.00338,-17.85954,10.8451,-2.65366,71.9745,-19.95311,-7.74901,38.66848,59.69727,-20.10435,-23.45742,-35.96235,-29.7705,108.72362,-0.00726,-90.66193,49.2564,0.01567,100.15726,-16.35381,0.18028,0.00435,-23.64039,6.98613,-0.01581,-13.5265,0.25323,1.85693,-35.81585,-0.47024,1.81418,-14.49773,10.3052,-15.70938
1093,4.96988,0.0,0.0,-16.24945,0.0,0.0,16.70541,-5.51569,-2.87519,-16.24505,11.0254,-6.27288,-24.11233,-0.95302,-0.00103,-12.45718,2.02345,-0.00719,-17.02806,9.77725,-2.32691,71.61294,-19.27653,-7.51461,36.05463,58.11335,-17.48873,-22.88054,-33.94032,-29.59048,107.01901,-0.00652,-91.01121,48.55868,-0.00158,99.1669,-16.86693,0.36875,-0.0007,-24.87005,7.27473,-0.00407,-12.37788,0.0136,1.96583,-34.66688,-0.73327,1.82405,-15.41467,10.41715,-15.52315
1094,5.16709,0.0,0.0,-18.8256,0.0,0.0,16.40751,-5.41509,-2.57919,-17.87213,10.65292,-5.55639,-24.50942,-0.74014,-0.00052,-13.9587,1.96592,0.00012,-16.1895,8.95155,-2.11214,71.21489,-18.51834,-7.65343,34.10243,56.57422,-15.47083,-22.06199,-32.19259,-28.74462,105.27863,-0.01099,-91.47517,47.74874,-0.01483,97.67421,-17.02366,0.72237,-0.00054,-25.6695,7.1476,0.00284,-11.1656,-0.13091,2.0234,-33.45467,-0.88881,1.82251,-16.48189,10.67361,-15.18118
1095,5.49008,-0.0,0.0,-19.35355,0.0,0.0,16.13527,-4.98662,-1.96711,-18.52473,10.75651,-4.72706,-25.19615,-0.75111,0.00154,-16.36779,1.53405,0.01248,-14.9627,8.42286,-2.21604,71.08968,-17.62981,-7.87052,32.60268,55.14674,-14.00051,-21.09183,-30.7096,-27.27072,103.59993,-0.00985,-91.94877,46.99696,-0.00953,96.2558,-16.99175,0.90584,0.00137,-26.07317,6.94102,0.00167,-10.0501,-0.224,2.1512,-32.33818,-1.02342,1.90547,-17.33317,11.09207,-14.81285
1096,6.02839,0.0,-0.0,-18.75425,0.0,0.0,15.86053,-4.31082,-1.10483,-18.27181,10.86276,-4.62228,-26.11311,-0.94399,0.0029,-19.5713,0.96807,0.01728,-13.17811,8.06917,-2.60035,71.47028,-16.65055,-7.81132,31.35165,53.88828,-12.95793,-20.12779,-29.41343,-25.31869,102.07545,0.003,-91.99048,46.58286,0.00017,95.52932,-16.88396,1.21535,0.00504,-26.48499,7.01334,-0.00216,-9.05676,-0.33802,2.36995,-31.34281,-1.21188,2.06467,-17.74385,11.60678,-14.48127
1097,6.35209,0.0,-0.0,-17.92937,-0.0,-0.0,15.63405,-3.68797,-0.12113,-17.55884,10.37263,-4.96303,-27.02546,-1.175,0.00172,-23.38908,0.5447,0.01614,-11.04898,7.76414,-3.00626,72.27487,-15.61284,-7.61005,30.25724,52.81076,-12.23203,-19.25086,-28.21815,-23.06004,100.74917,0.0143,-91.30968,46.51979,0.00188,95.53349,-16.67919,1.99414,0.00865,-26.96287,7.3558,-0.00388,-8.18204,-0.4879,2.66351,-30.4652,-1.46188,2.27951,-17.74399,12.12695,-14.11091
1098,6.10289,-0.0,0.0,-17.33755,0.0,-0.0,15.48066,-3.31979,0.8189,-16.72009,9.41318,-4.73744,-27.67937,-1.32718,-0.00021,-27.68744,0.378,0.015,-8.96882,7.46857,-3.15371,73.22521,-14.54509,-7.62472,29.30008,51.86263,-11.72518,-18.41791,-27.07451,-20.6551,99.66962,0.0116,-90.23851,46.55976,0.0001,95.91798,-16.42299,2.86574,0.00668,-27.2093,7.57381,-0.00467,-7.39179,-0.63981,3.04793,-29.67038,-1.7482,2.57774,-17.54992,12.58638,-13.58057
1099,5.54061,0.0,-0.0,-17.03502,0.0,0.0,15.28602,-3.16918,1.58842,-15.77369,8.75135,-3.42792,-27.97529,-1.37966,-0.00084,-32.39861,0.51011,0.00385,-7.18497,7.16856,-2.93182,74.09995,-13.52485,-7.79249,28.41951,50.94674,-11.33801,-17.55971,-25.97867,-18.25007,98.88345,0.00191,-89.38553,46.46293,0.00032,96.45198,-16.18412,3.12062,0.00072,-26.94836,7.39351,-0.00822,-6.64271,-0.74688,3.51477,-28.91405,-2.02422,2.96933,-17.3612,12.93419,-12.8397
1100,5.18259,0.0,0.0,-16.76137,0.0,-0.0,14.89898,-3.05076,2.19669,-14.62442,8.85036,-1.6949,-28.0169,-1.38929,-0.00049,-37.42213,1.02633,-0.02868,-5.63782,6.81111,-2.44355,74.8478,-12.65314,-7.56991,27.51779,50.00957,-11.04103,-16.65291,-24.9348,-15.97243,98.32721,-0.00335,-89.00286,46.1804,0.00263,97.22519,-15.83762,2.77353,-0.00262,-26.10074,7.12085,-0.00485,-5.98457,-0.77805,3.95895,-28.24703,-2.22136,3.36882,-17.17712,13.11057,-11.94411
1101,5.2691,0.0,-0.0,-16.44709,-0.0,-0.0,14.28096,-2.75231,2.76959,-13.15432,9.41052,-0.80496,-27.97828,-1.45003,-0.00021,-42.59381,1.90997,-0.06275,-4.10439,6.34961,-1.94477,75.49325,-11.97183,-6.61434,26.5318,49.10519,-10.89009,-15.68894,-23.95351,-13.87042,97.86215,-0.00439,-89.04527,45.84437,0.00305,98.35067,-15.18607,2.47502,-5e-05,-24.85064,7.43618,0.01079,-5.53686,-0.75304,4.26296,-27.79187,-2.31336,3.65985,-16.85805,13.09476,-11.01396
1102,5.62535,0.0,-0.0,-16.23289,0.0,0.0,13.5387,-2.21252,3.40045,-11.32167,9.80545,-1.36299,-27.93647,-1.59981,-0.00027,-47.76188,2.78812,-0.05653,-2.48093,5.81395,-1.60278,75.99819,-11.38735,-5.36981,25.41785,48.32372,-10.87855,-14.64655,-23.07711,-11.89319,97.46919,-0.00342,-89.46896,45.63647,-2e-05,99.55197,-14.31078,2.54898,0.00336,-23.67932,8.65273,0.01652,-5.35335,-0.74371,4.44403,-27.60372,-2.37329,3.83109,-16.35022,12.96864,-10.13206
1103,5.82489,0.0,0.0,-15.8082,0.0,-0.0,12.84643,-1.66084,4.01384,-9.41341,9.70328,-2.79326,-27.8642,-1.71736,-0.00027,-52.83788,3.02403,0.00018,-0.84463,5.32187,-1.2365,76.26427,-10.70085,-4.80505,24.119,47.68273,-10.85754,-13.55712,-22.33684,-10.00935,97.27258,-0.00065,-90.09095,45.67895,-0.00138,100.29509,-13.63796,2.74185,0.00221,-23.0617,10.30542,0.00284,-5.38941,-0.8304,4.66477,-27.63546,-2.53709,4.00271,-15.73582,12.89605,-9.28515
1104,5.63938,0.0,0.0,-14.70293,0.0,0.0,12.29336,-1.41388,4.4663,-7.84004,9.277,-4.14574,-27.72073,-1.61914,0.00025,-57.77578,2.24295,0.06137,0.72862,5.02932,-0.50243,76.25318,-9.75674,-5.53281,22.65526,47.11726,-10.69723,-12.55609,-21.7101,-8.27848,97.30308,0.00098,-90.52827,46.01859,0.00193,100.35056,-13.57179,2.7306,0.00127,-23.03452,11.5908,-0.00686,-5.56243,-1.0815,5.09017,-27.80132,-2.93052,4.3017,-15.08353,13.02884,-8.412
1105,5.30973,-0.0,0.0,-13.11979,0.0,0.0,11.80253,-1.51378,4.80578,-6.69321,8.87317,-5.02936,-27.48053,-1.29696,0.00074,-62.53552,0.75253,0.07069,2.27583,5.01111,0.60821,76.04136,-8.59225,-7.24991,21.18917,46.54916,-10.41916,-11.77497,-21.16615,-6.7256,97.36105,0.00126,-90.50916,46.59785,0.00492,99.98202,-14.0441,2.47071,0.00194,-23.25881,12.02046,-0.00351,-5.78177,-1.53241,5.74424,-28.0108,-3.59532,4.73707,-14.36104,13.39557,-7.49454
1106,5.14532,0.0,0.0,-11.57853,0.0,-0.0,11.25371,-1.72004,5.26828,-5.8229,8.6141,-5.59403,-27.12074,-0.94873,0.00018,-67.05783,-0.68513,0.0265,3.87806,5.16197,1.70893,75.72176,-7.43459,-9.06572,19.86323,45.95436,-10.07384,-11.19863,-20.70016,-5.26214,97.22703,0.00205,-90.11568,47.22794,0.00254,99.67178,-14.51918,2.08267,0.00023,-23.42168,11.61038,0.00154,-5.95804,-2.11331,6.50826,-28.17722,-4.4219,5.22545,-13.48866,13.85583,-6.58806
1107,5.05992,0.0,0.0,-10.08249,0.0,-0.0,10.64435,-1.81228,5.9441,-5.12822,8.42741,-6.07987,-26.63561,-0.73716,-0.00089,-71.27592,-1.54316,-0.01886,5.55721,5.27547,2.54101,75.29413,-6.49056,-10.29685,18.63274,45.37949,-9.63763,-10.68362,-20.30398,-3.82165,96.91805,0.00164,-89.66943,47.71127,-0.00293,99.83191,-14.57328,1.68316,-0.00234,-23.32146,10.77311,0.00181,-6.02446,-2.64274,7.22396,-28.23454,-5.18239,5.68892,-12.43399,14.20552,-5.74994
1108,4.76395,-0.0,-0.0,-8.26928,0.0,-0.0,10.04999,-1.77947,6.64041,-4.51058,8.27169,-6.66724,-26.04709,-0.62114,-0.00069,-75.19121,-1.88133,-0.02657,7.22494,5.2138,3.24925,74.66365,-5.79017,-10.84079,17.38745,44.89578,-9.12873,-10.07846,-19.97456,-2.4265,96.60378,-0.00018,-89.43999,48.03309,-0.00615,100.45074,-14.37232,1.35284,-0.00171,-22.82784,10.0769,0.00124,-5.9447,-2.95517,7.78461,-28.14408,-5.68327,6.09111,-11.28701,14.34162,-4.99721
1109,4.12174,-0.0,-0.0,-5.98755,0.0,-0.0,9.49566,-1.74564,7.11659,-3.8251,8.15417,-7.41253,-25.39775,-0.46088,0.00095,-78.88981,-2.0334,-0.0078,8.74026,4.96981,4.05954,73.71433,-5.28412,-10.91011,16.16369,44.52533,-8.68003,-9.32548,-19.75409,-1.06257,96.33842,-0.00158,-89.4809,48.39517,-0.00221,100.84081,-14.39542,1.09608,0.00112,-22.15932,9.82697,0.00154,-5.70836,-3.02625,8.17839,-27.89409,-5.89762,6.43011,-10.22921,14.30852,-4.35493
1110,3.18879,0.0,0.0,-3.51741,-0.0,-0.0,8.9574,-1.76974,7.30571,-3.10189,8.03027,-8.05624,-24.75962,-0.23396,0.00177,-82.40122,-2.14816,0.00505,10.08253,4.67121,4.97142,72.42701,-4.94925,-10.67475,15.08905,44.21653,-8.38935,-8.50572,-19.68816,0.33775,96.0288,-0.00148,-89.61317,49.0365,0.00966,100.26118,-14.84047,0.87343,0.00224,-21.8832,9.83531,0.00027,-5.3521,-2.97754,8.47061,-27.52315,-5.96268,6.72028,-9.34686,14.23946,-3.83243
1111,2.20407,0.0,-0.0,-1.49038,0.0,0.0,8.44394,-1.79493,7.37352,-2.56428,7.84795,-8.13764,-24.24253,-0.10963,0.00079,-85.59214,-2.09622,-0.00086,11.4139,4.54148,5.79085,70.90916,-4.75372,-10.17831,14.16445,43.89402,-8.18285,-7.76999,-19.74207,1.73049,95.63271,7e-05,-89.56149,50.01077,0.01632,98.86282,-15.58111,0.72795,-0.00066,-22.3068,9.67879,0.00214,-4.98252,-2.97524,8.74338,-27.14106,-6.06331,6.97482,-8.53236,14.27698,-3.34574
1112,1.44476,0.0,-0.0,-0.36763,0.0,0.0,8.00655,-1.78455,7.5928,-2.33395,7.63314,-7.4654,-23.9346,-0.25575,2e-05,-88.28061,-1.76983,-0.00958,12.87219,4.69332,6.35979,69.2418,-4.65571,-9.45341,13.26271,43.53992,-7.91536,-7.19257,-19.8125,2.92507,95.22691,0.00146,-89.19196,51.15869,0.01042,97.41176,-16.43387,0.80329,-0.00507,-23.17573,9.11698,0.00653,-4.70768,-3.09895,9.0755,-26.8556,-6.30296,7.23686,-7.67633,14.46531,-2.79077
1113,0.96442,-0.0,0.0,-0.06699,0.0,-0.0,7.65242,-1.73741,8.07783,-2.29283,7.43565,-6.34217,-23.79713,-0.60582,0.00012,-90.41262,-1.35851,-0.00619,14.37716,4.95438,6.72281,67.3717,-4.65443,-8.61613,12.30564,43.23221,-7.52709,-6.72249,-19.83242,3.80623,94.88225,0.00176,-88.56894,52.2952,0.00243,96.35527,-17.02175,1.17694,-0.0034,-24.06529,8.24437,0.00655,-4.5235,-3.29022,9.5492,-26.65624,-6.65837,7.60522,-6.8403,14.69342,-2.19643
1114,0.73095,-0.0,0.0,-0.28241,0.0,-0.0,7.28013,-1.63009,8.75604,-2.24081,7.24898,-5.34025,-23.69174,-0.94543,0.00014,-92.04993,-1.1732,0.00269,15.75322,5.05484,6.98381,65.21779,-4.7587,-7.79942,11.28356,43.07424,-7.02312,-6.2907,-19.8307,4.48663,94.62112,0.00101,-87.85007,53.36876,-0.00214,95.75542,-16.725,1.68702,0.00347,-24.69377,7.35501,0.00179,-4.33666,-3.44096,10.19166,-26.44256,-7.03951,8.14647,-6.12389,14.81645,-1.69927
1115,0.89572,-0.0,-0.0,-0.78748,-0.0,-0.0,6.75729,-1.49393,9.55598,-2.06298,7.00697,-4.96021,-23.5583,-1.18319,0.00011,-93.21299,-1.27501,0.00496,16.97285,4.97383,7.11957,62.80208,-4.91335,-7.06193,10.15629,43.07773,-6.39577,-5.90354,-19.85791,5.12407,94.50153,-0.00027,-87.23783,54.43172,-0.00573,95.64957,-15.28688,2.01569,0.00192,-24.81875,6.73119,-0.00223,-4.09293,-3.50719,10.90232,-26.16198,-7.36761,8.78389,-5.4988,14.8338,-1.34852
1116,1.54558,0.0,0.0,-1.37903,-0.0,-0.0,6.07743,-1.43351,10.40693,-1.688,6.64117,-5.36774,-23.4634,-1.37971,0.00025,-93.83234,-1.44393,0.00052,18.13806,4.92222,7.1005,60.20961,-5.03652,-6.38384,8.91275,43.14744,-5.68359,-5.58877,-19.8891,5.71613,94.59226,-0.0003,-86.9355,55.51678,-0.00743,95.9696,-13.27281,1.9767,-0.00618,-24.27563,6.48799,-0.00122,-3.81464,-3.49696,11.5067,-25.84673,-7.58461,9.35168,-4.88525,14.85161,-1.03896
1117,2.30497,-0.0,0.0,-1.8122,-0.0,-0.0,5.40499,-1.49209,11.16839,-1.0357,6.18283,-6.27207,-23.44344,-1.56338,0.00039,-93.85833,-1.42628,-0.00257,19.27084,4.98366,7.03254,57.46264,-5.15036,-5.65755,7.7216,43.17865,-5.07215,-5.3178,-19.86112,6.21348,94.83289,0.00075,-87.00512,56.59823,-0.00607,96.44843,-11.61337,1.66692,-0.0064,-23.32861,6.49118,0.00106,-3.54323,-3.40363,11.91299,-25.54481,-7.65012,9.76631,-4.28985,14.8823,-0.68718
1118,2.55936,0.0,0.0,-1.91306,0.0,-0.0,4.93127,-1.57061,11.73826,-0.2001,5.78139,-7.1176,-23.42874,-1.68192,0.00041,-93.33196,-1.10048,0.00031,20.29175,4.9942,7.04912,54.52891,-5.40433,-4.73947,6.86575,43.12548,-4.80556,-5.03904,-19.78479,6.69213,95.02875,0.00085,-87.25852,57.63659,-0.0031,96.83508,-10.82607,1.32582,-0.0001,-22.65505,6.38795,0.00298,-3.30367,-3.2435,12.19608,-25.27853,-7.60746,10.0912,-3.76547,14.82013,-0.37142
1119,2.09716,0.0,-0.0,-1.71204,0.0,0.0,4.68651,-1.52289,12.15564,0.43281,5.55054,-7.53541,-23.34563,-1.72696,0.00039,-92.34612,-0.5051,0.00645,21.18969,4.8242,7.17349,51.46913,-5.90496,-3.62416,6.46422,42.97806,-4.9396,-4.73896,-19.75579,7.27524,95.01857,0.0006,-87.39465,58.58216,0.00224,96.94016,-10.85666,1.13182,0.00366,-22.6981,5.85273,0.00837,-3.11485,-3.10867,12.50748,-25.06174,-7.59868,10.43298,-3.29327,14.62475,-0.20723
1120,1.32176,-0.0,-0.0,-1.36531,-0.0,-0.0,4.49944,-1.30138,12.53855,0.50061,5.42717,-7.60937,-23.17781,-1.77806,0.00014,-91.00014,0.1651,0.00918,22.04405,4.56757,7.37987,48.46995,-6.5662,-2.51283,6.32827,42.74581,-5.24391,-4.44006,-19.84907,7.96653,94.79035,0.00052,-87.30223,59.38591,0.00816,96.60778,-11.36618,1.20757,0.00299,-23.19003,4.94115,0.00965,-3.00607,-3.06513,12.89991,-24.92307,-7.70465,10.81616,-2.79868,14.37761,-0.14441
1121,0.85252,0.0,-0.0,-0.98103,-0.0,0.0,4.15049,-1.01459,13.00266,0.07453,5.29389,-7.69794,-22.93027,-1.9089,-0.00046,-89.35306,0.64093,0.00528,22.87848,4.39101,7.67692,45.66375,-7.19701,-1.65416,6.13636,42.48141,-5.41865,-4.17187,-20.0386,8.64508,94.44823,-0.00071,-87.14425,60.07649,0.00701,96.07997,-11.92601,1.69546,0.00146,-23.54999,4.1324,0.00331,-2.99141,-3.03527,13.27441,-24.87953,-7.81645,11.17759,-2.27051,14.14017,0.0131
1122,0.99372,0.0,-0.0,-0.57967,0.0,0.0,3.59751,-0.8385,13.60459,-0.39008,5.17436,-8.08109,-22.64161,-2.13277,-0.00093,-87.37345,0.75878,-0.0023,23.64726,4.36379,8.02827,43.00834,-7.68514,-1.16757,5.73186,42.2724,-5.39557,-3.94702,-20.23435,9.20693,94.12322,-0.00184,-86.97503,60.75155,-0.00452,96.10687,-12.2723,2.60217,0.00095,-23.61892,3.88527,-0.00165,-3.01329,-2.8853,13.52569,-24.87487,-7.77078,11.46903,-1.78558,13.8927,0.3991
1123,1.5052,0.0,0.0,-0.16041,0.0,0.0,3.0327,-0.79485,14.23896,-0.48585,5.10793,-8.80567,-22.4243,-2.42855,-0.00058,-84.98425,0.55483,-0.0081,24.37205,4.48307,8.34421,40.40897,-8.03277,-1.03301,5.23333,42.19888,-5.34955,-3.75776,-20.39161,9.67787,93.88449,-0.00079,-86.39449,61.46043,-0.01518,97.09863,-12.4608,3.64865,-4e-05,-23.70159,4.18102,-0.00398,-2.96149,-2.60805,13.67948,-24.79735,-7.57061,11.71701,-1.40325,13.62055,0.97357
1124,1.87144,-0.0,0.0,0.23788,0.0,-0.0,2.68995,-0.74709,14.70642,-0.1706,4.95872,-9.77872,-22.40462,-2.75695,0.00033,-82.15984,0.19594,-0.00805,25.12717,4.74949,8.62668,37.82749,-8.2772,-1.16649,4.85248,42.2883,-5.41355,-3.58733,-20.56238,10.18284,93.70077,0.00189,-85.0259,62.16079,-0.01007,98.30444,-12.5877,4.50534,-0.00056,-23.92997,4.57315,-0.0036,-2.77743,-2.3479,13.82582,-24.58911,-7.38346,11.95144,-1.13995,13.36675,1.61085
1125,1.75252,0.0,0.0,0.54745,0.0,0.0,2.64242,-0.67091,14.94309,0.31898,4.58276,-10.89048,-22.60302,-3.05102,0.00061,-78.94567,-0.15431,-0.00314,25.88051,5.15103,9.02796,35.23693,-8.45364,-1.45678,4.63279,42.4683,-5.48942,-3.39793,-20.81306,10.83747,93.49759,0.00355,-83.2762,62.77304,0.00459,98.45944,-12.56922,5.0587,-0.00014,-23.97968,4.63349,0.00044,-2.48342,-2.24435,13.99002,-24.27701,-7.34825,12.14382,-1.03474,13.17391,2.23308
1126,1.21832,0.0,-0.0,0.75502,0.0,0.0,2.76001,-0.65423,15.11001,0.78523,4.07949,-12.04591,-22.8945,-3.27107,9e-05,-75.42515,-0.41947,0.00254,26.5189,5.61994,9.65764,32.63969,-8.61163,-1.77075,4.41605,42.58078,-5.38794,-3.14203,-21.12288,11.68136,93.22401,0.00205,-82.0923,63.22614,0.00995,97.36004,-12.29442,5.36398,0.00012,-23.63983,4.37222,0.00751,-2.11598,-2.28448,14.16374,-23.89744,-7.44995,12.29133,-1.08376,13.02192,2.84835
1127,0.65454,0.0,0.0,0.89721,0.0,0.0,2.8241,-0.69515,15.48024,1.25687,3.71637,-13.153,-23.11424,-3.47937,-0.00038,-71.69566,-0.60443,0.00464,27.01158,6.05985,10.34797,30.1072,-8.81444,-2.02227,4.05281,42.50614,-5.07785,-2.81604,-21.41411,12.68594,92.87466,-0.0013,-82.0117,63.48286,0.0045,96.23573,-11.83154,5.5076,-7e-05,-23.39117,4.29981,0.00884,-1.70386,-2.3274,14.40238,-23.46781,-7.57825,12.49863,-1.17599,12.85329,3.48771
1128,0.36147,0.0,0.0,0.95964,-0.0,0.0,2.73515,-0.76415,16.19656,1.87977,3.64876,-14.09558,-23.21121,-3.74303,-0.00048,-67.85813,-0.77195,0.00019,27.42286,6.38344,10.81445,27.69709,-9.11885,-2.27054,3.57766,42.26502,-4.71867,-2.45335,-21.66119,13.81404,92.50527,-0.00387,-82.98215,63.57106,-0.00019,96.3658,-11.42171,5.4827,-0.00037,-24.05175,5.02103,-0.01806,-1.28486,-2.26303,14.77839,-23.014,-7.65766,12.87477,-1.22813,12.60899,4.13724
1129,0.32934,-0.0,0.0,0.90799,-0.0,-0.0,2.57346,-0.90408,17.16456,2.63553,3.81571,-14.70576,-23.2483,-4.00596,-0.00034,-64.00714,-0.97679,-0.0061,27.81771,6.51815,10.98768,25.42801,-9.54993,-2.62353,3.16476,41.96836,-4.50265,-2.05903,-21.93161,15.06611,92.20634,-0.0036,-84.75557,63.57605,-0.00118,97.71026,-11.28686,5.20516,0.00067,-25.85964,6.6379,-0.05386,-0.87852,-2.10962,15.26218,-22.55793,-7.69391,13.38525,-1.26912,12.23277,4.76062
1130,0.40579,0.0,0.0,0.75061,0.0,0.0,2.43518,-1.08798,18.19499,3.24432,4.07992,-14.78368,-23.25866,-4.15993,-0.0002,-60.19501,-1.17012,-0.00647,28.23422,6.45177,11.0271,23.35268,-10.06965,-3.05812,2.95182,41.71652,-4.5318,-1.59788,-22.3176,16.45507,92.02197,-0.00073,-86.75858,63.56718,-0.00126,99.03368,-11.52114,4.71754,0.00296,-28.13883,8.51493,-0.04469,-0.46223,-1.95552,15.74049,-22.09076,-7.72707,13.89095,-1.3212,11.72007,5.34494
1131,0.43797,-0.0,-0.0,0.4595,-0.0,-0.0,2.30051,-1.1469,19.12917,3.38269,4.37912,-14.18494,-23.18681,-4.16073,9e-05,-56.40487,-1.24261,-0.00227,28.69854,6.27701,11.15058,21.54808,-10.58029,-3.48205,2.92474,41.54579,-4.75894,-1.05397,-22.81652,17.91739,91.88806,0.00247,-88.07876,63.53943,-0.00145,99.35287,-12.03866,4.26599,0.00304,-29.96858,9.85666,-0.00527,-0.00396,-1.85568,16.14087,-21.59014,-7.7816,14.30353,-1.32198,11.15918,5.88594
1132,0.32259,0.0,-0.0,-0.01177,0.0,0.0,2.10264,-0.98052,19.88334,2.91491,4.77294,-12.94136,-22.97787,-4.03873,0.00058,-52.59146,-1.1511,7e-05,29.19568,6.13295,11.48477,20.01589,-10.98319,-3.87959,2.95491,41.40133,-4.9846,-0.49194,-23.28812,19.24294,91.65791,0.0059,-88.21589,63.44436,-0.00071,99.02163,-12.48305,4.18514,0.0019,-31.00159,10.4846,0.01494,0.50867,-1.79716,16.46559,-21.04348,-7.8465,14.6299,-1.23268,10.66441,6.37972
1133,0.09993,0.0,-0.0,-0.55773,0.0,0.0,1.85025,-0.7275,20.49681,1.9439,5.37524,-11.29904,-22.67656,-3.86313,0.00069,-48.74859,-0.91458,0.0009,29.65597,6.09178,11.95881,18.64061,-11.24303,-4.26425,2.91888,41.16521,-4.99135,-0.02682,-23.57665,20.19168,91.23055,0.00633,-87.63565,63.25304,0.00258,99.00971,-12.47046,4.64405,0.00459,-31.50002,10.7473,0.01408,1.059,-1.73227,16.73381,-20.46367,-7.88456,14.90569,-1.14052,10.2763,6.82491
1134,-0.06446,0.0,-0.0,-0.90994,0.0,0.0,1.59827,-0.59998,21.07872,0.75314,6.19498,-9.57068,-22.42717,-3.69418,0.00018,-44.94606,-0.53071,0.00453,30.05236,6.11009,12.39504,17.2977,-11.41412,-4.60743,2.80453,40.75076,-4.72761,0.30681,-23.65607,20.7502,90.64557,0.00067,-87.24825,62.95498,0.00567,99.52888,-12.0174,5.40256,0.00615,-31.81737,10.87539,0.01223,1.58653,-1.63427,16.96275,-19.90842,-7.87729,15.1569,-1.16285,9.9342,7.19395
1135,-0.05183,-0.0,0.0,-0.85267,0.0,0.0,1.34954,-0.65387,21.66811,-0.29968,7.06787,-8.00102,-22.38014,-3.55379,-0.00055,-41.31855,0.01063,0.00982,30.48362,6.10665,12.728,15.9896,-11.58926,-4.91556,2.72903,40.17661,-4.34043,0.60092,-23.61748,21.14342,90.01345,-0.00492,-87.45312,62.54107,0.00355,99.84439,-11.48048,5.99497,0.00245,-31.98891,10.64818,0.01221,2.04745,-1.51873,17.16306,-19.42144,-7.8431,15.38771,-1.29697,9.53877,7.44657
1136,0.12619,0.0,-0.0,-0.42125,0.0,-0.0,1.08344,-0.85476,22.21057,-0.87853,7.80875,-6.86672,-22.59532,-3.45751,-0.00091,-38.00018,0.6517,0.01143,31.07856,6.0982,13.02442,14.81149,-11.77859,-5.27636,2.79438,39.54991,-4.0205,0.93202,-23.57073,21.55936,89.42663,-0.00469,-87.93674,62.06781,-0.00207,99.06264,-11.12437,6.19674,-0.00071,-31.70537,9.61079,-0.00259,2.50331,-1.40072,17.32477,-18.94312,-7.79241,15.58314,-1.44388,9.06442,7.58719
1137,0.39005,0.0,0.0,0.12534,0.0,0.0,0.83431,-1.15753,22.62984,-0.71891,8.37127,-6.49489,-23.02109,-3.44133,-0.00067,-35.07125,1.23406,0.00599,31.85367,6.2121,13.36508,13.8342,-11.8787,-5.78484,2.91716,38.96883,-3.81624,1.2576,-23.59418,22.02726,88.97487,-0.0012,-88.19107,61.66326,-0.00375,96.85587,-10.86879,6.12638,-0.00111,-30.69933,7.6233,-0.03216,3.03503,-1.2586,17.46818,-18.3895,-7.71251,15.77025,-1.51739,8.58801,7.6697
1138,0.65301,0.0,-0.0,0.52857,0.0,-0.0,0.66483,-1.40914,22.95146,0.28488,8.78174,-6.99143,-23.5393,-3.55019,-8e-05,-32.57549,1.57021,-0.00268,32.70348,6.54077,13.75066,13.07506,-11.80456,-6.44673,2.92126,38.43976,-3.6371,1.53196,-23.7167,22.55979,88.70634,0.00072,-88.00478,61.34256,-0.00251,93.84808,-10.45296,5.94524,-0.00128,-29.16082,5.17237,-0.04153,3.61221,-1.07576,17.68762,-17.7803,-7.62237,16.04369,-1.49596,8.18216,7.7535
1139,0.84222,0.0,-0.0,0.70042,0.0,0.0,0.59125,-1.42954,23.37702,1.9645,9.01707,-8.08454,-24.04452,-3.80638,0.00027,-30.53584,1.5903,-0.00725,33.50163,7.03901,14.04727,12.51335,-11.58326,-7.15035,2.79967,37.90744,-3.43379,1.83184,-23.9052,23.22802,88.51524,0.00099,-87.55108,60.92784,0.00123,91.45061,-9.85668,5.68329,-0.00151,-27.65136,3.12641,-0.01716,4.18635,-0.8846,18.07557,-17.15528,-7.58567,16.47839,-1.43962,7.83891,7.86267
1140,0.90491,-0.0,-0.0,0.7056,-0.0,0.0,0.56508,-1.20231,24.03078,3.935,9.0454,-9.31041,-24.52481,-4.15051,0.00012,-28.91664,1.37078,-0.00663,34.22125,7.59445,14.14917,12.12272,-11.29103,-7.7923,2.74045,37.35716,-3.26914,2.26175,-24.08946,24.03703,88.19168,0.00056,-87.14165,60.30449,0.01084,90.78326,-9.37108,5.3513,-0.0004,-26.59714,2.16718,0.00867,4.81521,-0.72142,18.61967,-16.45841,-7.63135,17.04957,-1.43838,7.50974,7.98602
1141,0.88671,0.0,0.0,0.67476,0.0,-0.0,0.52971,-0.91257,24.78633,5.85497,8.91886,-10.35839,-25.04134,-4.48583,0.00017,-27.59144,1.05186,-0.00394,34.91714,8.15132,14.12267,11.88704,-10.98302,-8.35717,2.90571,36.84396,-3.21716,2.80424,-24.20469,24.84557,87.61567,-0.00066,-86.96204,59.60875,0.01398,91.66496,-9.18515,5.01844,0.00087,-25.97901,2.3025,0.01375,5.5673,-0.56654,19.21144,-15.63118,-7.70131,17.6627,-1.53233,7.15353,8.1281
1142,0.986,0.0,0.0,0.71631,-0.0,0.0,0.4774,-0.81943,25.52348,7.59408,8.75359,-11.24537,-25.61079,-4.80084,0.00079,-26.38829,0.80252,-0.00045,35.58672,8.72232,14.05646,11.75089,-10.70447,-8.82364,3.2906,36.40921,-3.30029,3.35584,-24.21057,25.50729,86.84359,-0.00081,-86.96825,59.00372,0.00547,92.97822,-9.16055,4.72641,0.00062,-25.52975,2.93382,0.00668,6.41298,-0.36809,19.73522,-14.71401,-7.70534,18.22788,-1.71783,6.75342,8.32516
1143,1.30989,0.0,-0.0,0.81991,0.0,-0.0,0.40979,-0.93934,26.20066,9.15712,8.64587,-12.08235,-26.15837,-5.10647,0.0009,-25.21442,0.75497,0.00278,36.16881,9.30284,14.02716,11.64727,-10.50739,-9.19814,3.74746,36.01307,-3.48675,3.84236,-24.10449,26.01662,86.04156,0.00018,-87.01276,58.43718,-0.0038,93.79669,-9.07286,4.4867,-0.00036,-25.03861,3.48273,4e-05,7.28782,-0.10796,20.12943,-13.77879,-7.60454,18.69345,-1.97158,6.33358,8.5918
1144,1.63552,-0.0,0.0,0.86845,0.0,0.0,0.28186,-0.94201,26.68491,10.55543,8.63421,-12.77468,-26.57628,-5.31535,-1e-05,-24.12957,0.9014,0.00357,36.65819,9.82481,14.19894,11.60646,-10.43431,-9.62825,4.08652,35.59046,-3.6822,4.22953,-23.94983,26.4478,85.35863,-0.00038,-87.09166,57.79173,-0.00637,94.01293,-8.92665,4.35851,-0.00063,-24.38923,3.81925,-0.0011,8.16835,0.17169,20.42505,-12.84837,-7.44967,19.07304,-2.24338,5.94539,8.87492
1145,1.65864,-0.0,0.0,0.78412,0.0,-0.0,0.06958,-0.5808,26.89089,11.77496,8.71643,-13.08548,-26.80164,-5.35277,-0.00072,-23.26075,1.10927,0.00177,37.10365,10.22973,14.65362,11.72788,-10.4789,-10.25613,4.23175,35.15244,-3.79581,4.51667,-23.86163,26.87405,84.79901,-0.00186,-87.28314,57.12694,-0.00326,94.06962,-8.94828,4.33736,-0.00022,-23.56888,4.09526,0.00159,9.05393,0.40442,20.77065,-11.9083,-7.35618,19.48248,-2.4932,5.6239,9.0662
1146,1.34567,-0.0,0.0,0.60491,0.0,-0.0,-0.15062,-0.00361,26.95624,12.80931,8.88519,-12.8783,-26.8834,-5.28886,-0.00072,-22.67717,1.23812,-0.0002,37.54972,10.55894,15.22507,12.05848,-10.56579,-11.02141,4.31367,34.7792,-3.86014,4.7844,-23.90275,27.38131,84.20586,-0.00067,-87.44947,56.59171,-0.00075,94.24725,-9.2329,4.25599,0.00037,-22.81128,4.38929,0.00259,9.95164,0.56315,21.32595,-10.93137,-7.40621,20.06264,-2.7278,5.37052,9.07689
1147,0.91871,0.0,-0.0,0.39348,0.0,0.0,-0.29022,0.48093,27.12394,13.7134,9.08293,-12.27529,-26.96536,-5.26807,-0.00028,-22.36301,1.27908,-0.00059,38.04569,10.90991,15.61456,12.55237,-10.61178,-11.71031,4.53822,34.51223,-4.03777,5.14651,-24.00039,28.01146,83.42509,0.00323,-87.33672,56.18671,-7e-05,94.49757,-9.53406,4.02522,-7e-05,-22.49318,4.62962,1e-05,10.89491,0.68349,22.05431,-9.88518,-7.55275,20.79235,-2.9661,5.17107,8.91005
1148,0.66375,0.0,0.0,0.15235,-0.0,-0.0,-0.36877,0.66697,27.57998,14.60784,9.12773,-11.61763,-27.15613,-5.38854,0.00054,-22.25841,1.39501,-0.00018,38.6284,11.33227,15.59216,13.10305,-10.60009,-12.11521,4.97577,34.29453,-4.49051,5.60265,-24.02685,28.68159,82.46251,0.00455,-86.95719,55.77279,0.00142,94.84114,-9.54244,3.86523,-3e-05,-22.69789,4.81976,-0.00306,11.91227,0.81514,22.68253,-8.77497,-7.65201,21.43206,-3.20465,5.01548,8.66697
1149,0.70126,0.0,0.0,-0.11612,0.0,-0.0,-0.477,0.5303,28.24751,15.54433,8.90022,-11.11754,-27.45057,-5.61903,0.00099,-22.31312,1.69847,-0.0002,39.27896,11.82437,15.23995,13.6426,-10.55234,-12.20728,5.5557,34.02106,-5.24995,6.01839,-23.96253,29.2533,81.41512,0.00184,-86.55,55.28697,0.00242,95.3674,-9.20928,4.08026,0.00305,-23.02867,5.1405,-0.00203,12.96184,0.93879,22.93921,-7.68341,-7.62689,21.71837,-3.41477,4.90856,8.49675
1150,0.85863,0.0,-0.0,-0.34809,0.0,-0.0,-0.651,0.21856,28.75316,16.39477,8.58472,-10.65767,-27.78719,-5.81147,0.00049,-22.50567,2.05877,-0.00029,39.94309,12.38051,14.94275,14.20423,-10.46341,-12.16677,6.21601,33.61987,-6.21601,6.26602,-23.92251,29.652,80.31727,-0.00085,-86.26692,54.85618,0.00055,95.96342,-8.72873,4.6352,0.00485,-22.99323,5.79115,0.00625,13.94852,0.96362,22.84089,-6.70947,-7.56899,21.63441,-3.57024,4.87901,8.47983
1151,0.87668,0.0,0.0,-0.50069,0.0,0.0,-0.84025,-0.1045,28.83656,16.98797,8.46557,-10.11068,-28.11818,-5.84975,-0.00032,-22.80518,2.29692,-0.00011,40.57304,12.97983,14.95365,14.82493,-10.3094,-12.12777,6.93878,33.07215,-7.26137,6.32807,-24.03279,29.89857,79.15421,-9e-05,-86.09649,54.66662,-0.00114,96.3356,-8.4172,5.15395,0.00216,-22.538,6.75075,0.01339,14.82241,0.85825,22.69459,-5.86111,-7.61594,21.4588,-3.70178,4.9663,8.53453
1152,0.67125,0.0,0.0,-0.6186,0.0,-0.0,-1.00156,-0.36008,28.5925,17.29665,8.58818,-9.57515,-28.41642,-5.73603,-0.00073,-23.15339,2.40888,-0.00024,41.14126,13.57285,15.1814,15.46337,-10.08059,-12.04046,7.67795,32.37041,-8.29154,6.29115,-24.32771,30.09566,77.9432,0.00359,-85.94374,54.73275,0.00069,96.14875,-8.60646,5.38415,-0.00149,-22.11544,7.62016,0.01008,15.63909,0.73749,22.78751,-5.03715,-7.76173,21.50348,-3.89168,5.17743,8.49991
1153,0.32291,-0.0,0.0,-0.75115,-0.0,0.0,-1.16062,-0.52923,28.2348,17.42129,8.82154,-9.1751,-28.65183,-5.5342,-0.00064,-23.51629,2.457,-0.00044,41.61834,14.10951,15.43353,16.05764,-9.78258,-11.87451,8.37357,31.48993,-9.22927,6.27893,-24.74858,30.35445,76.69695,0.00285,-85.84181,54.86651,0.00252,95.37246,-9.47926,5.41495,-0.0042,-22.11588,7.98176,0.00416,16.5115,0.75323,23.14115,-4.11395,-7.87172,21.84308,-4.21324,5.45738,8.2995
1154,-0.04286,-0.0,-0.0,-0.89017,0.0,0.0,-1.36108,-0.65353,27.89337,17.46697,9.0688,-8.86795,-28.77521,-5.29864,-0.00023,-23.92707,2.41813,0.00019,41.95482,14.55809,15.6518,16.60735,-9.43962,-11.73478,9.01161,30.42829,-10.03311,6.36472,-25.20491,30.67885,75.37794,-0.00531,-86.03462,54.88964,0.00151,94.37803,-10.92747,5.35759,-0.00431,-22.33756,7.89306,0.00067,17.50881,0.93736,23.58924,-3.04316,-7.8569,22.33185,-4.68322,5.70914,7.9936
1155,-0.30623,0.0,-0.0,-1.00295,0.0,-0.0,-1.62839,-0.78802,27.64586,17.49287,9.24496,-8.54595,-28.73542,-5.05509,0.00022,-24.43574,2.24309,0.00146,42.13214,14.91594,15.89997,17.18099,-9.08379,-11.6949,9.59501,29.25942,-10.7471,6.54047,-25.64329,31.01814,73.96294,-0.01042,-86.58336,54.7727,-0.00148,93.31616,-12.53057,5.07935,-0.00028,-22.30684,7.65265,-0.0019,18.60345,1.20319,23.97309,-1.87935,-7.74245,22.78868,-5.23087,5.85913,7.70198
1156,-0.41196,-0.0,-0.0,-1.03755,-0.0,0.0,-1.98855,-0.93373,27.55957,17.538,9.19756,-8.24423,-28.52106,-4.82363,0.00044,-25.02384,1.98805,0.00161,42.21878,15.20733,16.20269,17.84409,-8.74032,-11.65469,10.11729,28.11645,-11.50183,6.76405,-26.06964,31.4348,72.47666,-0.00407,-87.15788,54.55279,-0.00535,92.05908,-13.82552,4.38229,0.00253,-21.98366,7.39884,-0.00215,19.6946,1.47186,24.2107,-0.7401,-7.57375,23.10801,-5.72666,5.90138,7.48675
1157,-0.45232,0.0,0.0,-0.95549,0.0,0.0,-2.45231,-1.07024,27.6356,17.63834,8.84251,-8.14909,-28.17807,-4.61619,0.00032,-25.60201,1.80369,0.00012,42.32735,15.45259,16.49165,18.58769,-8.43252,-11.43621,10.61865,27.08541,-12.45145,6.98298,-26.51214,32.03317,70.90084,0.00704,-87.40461,54.22287,-0.00628,90.91022,-14.72027,3.35277,0.00059,-21.75576,7.1609,-0.00024,20.66998,1.73586,24.28727,0.25888,-7.35305,23.27326,-6.07647,5.88625,7.31334
1158,-0.61604,0.0,0.0,-0.86195,-0.0,0.0,-2.95648,-1.23274,27.86379,17.80779,8.34225,-8.40331,-27.76458,-4.43153,-0.00018,-26.07993,1.7654,-0.00111,42.50103,15.65443,16.64285,19.32171,-8.14334,-10.96463,11.16453,26.08404,-13.62383,7.11227,-26.98053,32.72971,69.13515,0.00745,-87.35099,53.75308,0.00013,90.60767,-15.36456,2.42781,-0.00397,-21.85179,6.9943,0.00095,21.45909,2.00266,24.24487,1.05337,-7.08822,23.32701,-6.28413,5.90529,7.12174
1159,-0.97507,0.0,-0.0,-0.95779,0.0,-0.0,-3.38609,-1.48548,28.34968,18.01485,8.00038,-8.94924,-27.28421,-4.29923,-0.00108,-26.42468,1.77277,-0.0009,42.64382,15.80345,16.51534,19.92589,-7.80896,-10.32254,11.72211,24.90678,-14.7981,7.08064,-27.45256,33.29201,67.11069,-0.00633,-87.3504,53.16775,0.00928,91.53246,-15.56599,2.09984,-0.00232,-22.13402,6.96364,0.00058,22.04306,2.27478,24.15607,1.63545,-6.80224,23.3388,-6.43483,6.02914,6.9032
1160,-1.36352,-0.0,0.0,-1.22718,0.0,-0.0,-3.73703,-1.73262,29.0586,18.17689,7.98215,-9.5064,-26.69549,-4.23295,-0.00132,-26.66076,1.65255,-5e-05,42.60593,15.88294,16.19185,20.3435,-7.41969,-9.71772,12.18366,23.46413,-15.67834,6.94542,-27.87275,33.62213,64.87714,-0.01354,-87.5129,52.50875,0.01045,93.13566,-14.89691,2.59541,0.01431,-22.40684,6.99801,0.00054,22.4361,2.61982,24.10819,2.03523,-6.46217,23.41477,-6.61238,6.19834,6.69341
1161,-1.5796,0.0,0.0,-1.40278,0.0,-0.0,-4.13909,-1.78856,29.61725,18.21064,8.1929,-9.76141,-25.98759,-4.1452,0.00022,-26.82535,1.33112,0.00045,42.35462,15.89361,16.03484,20.63284,-7.04201,-9.35931,12.53773,21.90364,-16.24648,6.88062,-28.19338,33.86903,62.54327,-0.00357,-87.49739,51.74541,0.00262,94.37806,-13.52681,3.72446,0.02561,-22.62545,6.90887,0.0012,22.68121,3.12509,24.18891,2.31188,-6.01663,23.66784,-6.81707,6.26714,6.51355
1162,-1.64835,0.0,0.0,-1.32767,0.0,-0.0,-4.62654,-1.75357,29.77402,18.11959,8.38156,-9.68456,-25.20963,-3.951,0.0022,-26.94192,0.90102,0.00041,41.98744,15.86706,16.22076,20.88192,-6.71589,-9.24078,12.89152,20.44318,-16.8125,6.98273,-28.44084,34.22717,60.19197,0.00669,-87.0876,50.838,-0.00573,94.75916,-12.30798,4.93357,0.0131,-22.80742,6.70808,0.0011,22.83,3.72724,24.41571,2.51685,-5.53072,24.09158,-6.99343,6.1868,6.34901
1163,-1.7369,-0.0,-0.0,-1.10195,0.0,-0.0,-5.07762,-1.92446,29.72729,17.99146,8.3234,-9.55198,-24.42702,-3.71961,0.00206,-27.0155,0.53158,0.00016,41.57457,15.8487,16.51409,21.08366,-6.41915,-9.12879,13.31501,19.17245,-17.69578,7.1523,-28.68993,34.70045,57.89064,0.00897,-86.44186,49.85133,-0.00822,94.51584,-11.81602,5.63902,-0.00176,-22.97801,6.65032,-4e-05,22.88649,4.2275,24.68463,2.63174,-5.15449,24.5185,-7.13338,6.05602,6.18052
1164,-1.91561,-0.0,0.0,-0.89482,0.0,0.0,-5.39976,-2.33591,29.78396,17.89313,7.95223,-9.63709,-23.67691,-3.62645,-0.00028,-27.01608,0.32428,-0.0,41.09528,15.88387,16.6148,21.13823,-6.11206,-8.83514,13.74401,18.04809,-18.94036,7.22234,-28.94874,35.11171,55.72367,0.01198,-85.73215,48.88154,-0.00527,94.07176,-11.81318,5.60852,-0.00416,-23.2237,6.83038,-0.00068,22.80677,4.52048,24.85453,2.58797,-4.9382,24.7798,-7.28843,6.00086,5.98593
1165,-2.16861,0.0,-0.0,-0.79079,0.0,-0.0,-5.61153,-2.73245,29.97706,17.81161,7.43182,-9.99006,-22.9749,-3.75556,-0.00221,-26.89661,0.24177,-7e-05,40.54493,16.00434,16.48343,20.9822,-5.76391,-8.40681,14.0407,17.00333,-20.33706,7.1504,-29.13097,35.32582,53.75025,0.01738,-85.04096,47.92228,1e-05,93.73152,-11.76395,5.00398,-0.00332,-23.59059,7.01277,0.00056,22.58067,4.69033,24.89324,2.37305,-4.79214,24.87504,-7.47157,6.06619,5.71716
1166,-2.5536,-0.0,-0.0,-0.8011,-0.0,-0.0,-5.77016,-2.94863,30.15073,17.71058,7.0857,-10.48227,-22.33758,-4.00439,-0.0019,-26.6642,0.17162,-0.00024,39.99305,16.20032,16.28544,20.68502,-5.37508,-7.99895,14.11034,15.99624,-21.63541,7.03075,-29.17818,35.39539,51.96578,0.0122,-84.68641,46.90827,0.00454,93.63097,-11.45036,4.1058,-0.00362,-23.91162,6.96606,0.00148,22.27101,4.85901,24.90115,2.06946,-4.63656,24.94091,-7.62159,6.19433,5.3591
1167,-3.12879,0.0,-0.0,-0.93688,0.0,-0.0,-5.91145,-3.0853,30.21655,17.58709,7.12223,-10.93802,-21.78225,-4.20016,-0.00024,-26.39787,0.05309,-0.00034,39.52814,16.42541,16.16574,20.41004,-4.99438,-7.68625,13.95883,14.97988,-22.69232,6.94584,-29.14338,35.42589,50.3563,-0.0084,-85.3184,45.83589,0.00418,93.68036,-11.01638,3.09629,-0.00226,-23.91694,6.73005,-0.0006,21.95314,5.05186,24.98718,1.77075,-4.48514,25.08839,-7.67352,6.28421,5.00603
1168,-3.69816,-0.0,0.0,-1.20766,0.0,-0.0,-6.07463,-3.29528,30.14641,17.45035,7.41886,-11.2259,-21.32979,-4.26348,0.0009,-26.16865,-0.07539,-0.00013,39.22969,16.65786,16.15892,20.30014,-4.67407,-7.4754,13.67775,13.91595,-23.49547,6.88374,-29.10872,35.389,48.94027,-0.02464,-87.25206,44.75362,-0.00175,93.60598,-10.64879,2.10408,0.00025,-23.51021,6.47159,-0.00329,21.65285,5.24984,25.18235,1.50739,-4.3663,25.33985,-7.60163,6.29799,4.77864
1169,-3.91173,0.0,0.0,-1.57161,-0.0,-0.0,-6.30352,-3.57723,29.92515,17.30797,7.64305,-11.32533,-20.99931,-4.26882,0.00071,-25.98371,-0.13576,0.00018,39.13483,16.92906,16.19691,20.37846,-4.41291,-7.36262,13.38298,12.83273,-24.11145,6.79006,-29.08094,35.17238,47.71075,-0.02178,-89.8623,43.70112,-0.00508,93.28198,-10.31797,1.29272,0.00117,-22.83419,6.36968,-0.00257,21.35307,5.46369,25.48376,1.26258,-4.26872,25.6962,-7.42162,6.28648,4.67446
1170,-3.7122,0.0,-0.0,-1.92245,-0.0,-0.0,-6.59928,-3.81581,29.60162,17.17533,7.60018,-11.28487,-20.77902,-4.34371,-1e-05,-25.82518,-0.11869,0.00027,39.17221,17.25263,16.17157,20.53964,-4.18164,-7.34865,13.13158,11.80091,-24.6033,6.61144,-29.01514,34.74822,46.60218,-0.00847,-92.08173,42.73639,0.0002,92.93723,-9.91553,0.8075,0.00132,-22.12868,6.67502,0.00153,21.04328,5.68544,25.87961,1.02425,-4.19552,26.14355,-7.19642,6.29309,4.58474
1171,-3.40387,0.0,0.0,-2.11643,-0.0,-0.0,-6.92793,-3.93269,29.21876,17.0572,7.39918,-11.10229,-20.63023,-4.49005,-0.00032,-25.70097,-0.11178,0.00012,39.21024,17.55758,16.08252,20.66072,-3.98814,-7.45988,12.90055,10.84913,-25.02461,6.30394,-28.89532,34.2118,45.55558,0.00359,-93.24412,41.93673,0.00822,92.76968,-9.6051,0.68825,0.00091,-21.57191,7.5271,0.00426,20.76393,5.85254,26.30335,0.8207,-4.18254,26.59808,-7.00122,6.286,4.43565
1172,-3.24039,-0.0,-0.0,-2.05101,0.0,0.0,-7.26736,-3.98761,28.74492,16.9444,7.27039,-10.73155,-20.52297,-4.57461,-0.00012,-25.63559,-0.19147,4e-05,39.17619,17.74688,16.07879,20.71153,-3.88587,-7.70413,12.65989,9.95544,-25.49349,5.87564,-28.75041,33.67483,44.55835,0.01148,-93.23021,41.29469,0.00941,92.52412,-9.76612,0.84932,-0.00159,-21.19657,8.61601,0.00325,20.5947,5.9264,26.67386,0.71685,-4.23861,26.97076,-6.86736,6.1946,4.25569
1173,-3.25278,0.0,0.0,-1.7774,-0.0,-0.0,-7.59072,-4.12936,28.1977,16.83466,7.35781,-10.20334,-20.43753,-4.52316,0.00013,-25.62185,-0.34367,3e-05,39.05509,17.81672,16.26503,20.7192,-3.90355,-7.99977,12.41796,9.10902,-26.16212,5.3962,-28.62843,33.17818,43.6222,0.01529,-92.24281,40.68179,-0.00186,91.58865,-10.47233,1.10505,-0.00296,-20.93275,9.22847,3e-05,20.58105,5.93903,26.98564,0.75761,-4.33203,27.26756,-6.79316,5.98757,4.13312
1174,-3.47608,-0.0,-0.0,-1.53998,0.0,0.0,-7.81412,-4.43714,27.74194,16.73811,7.6724,-9.66893,-20.35193,-4.43912,0.0001,-25.60486,-0.49871,-7e-05,38.84058,17.87737,16.48744,20.67609,-3.97774,-8.22179,12.17746,8.32568,-27.04077,4.9098,-28.55936,32.67256,42.7746,0.01283,-90.76628,39.96708,-0.01935,89.56956,-11.26514,1.21703,-0.00123,-20.6926,8.85384,-0.00338,20.67792,5.92496,27.25296,0.90092,-4.43534,27.51368,-6.77759,5.72732,4.13095
1175,-3.96435,0.0,0.0,-1.60357,-0.0,-0.0,-7.86705,-4.81693,27.49735,16.67227,8.06238,-9.28727,-20.25851,-4.46475,-0.0001,-25.53474,-0.58978,-0.00014,38.5779,18.0314,16.46123,20.5696,-4.00288,-8.33431,11.90535,7.59668,-27.90317,4.37429,-28.5122,32.02693,42.03603,0.00344,-89.56619,39.14681,-0.02178,87.0327,-11.63699,1.00129,-0.00114,-20.326,7.8429,-0.00325,20.7715,5.87383,27.4205,1.02267,-4.5398,27.65367,-6.78546,5.52769,4.22522
1176,-4.53339,0.0,0.0,-1.93552,-0.0,0.0,-7.81538,-5.11135,27.33384,16.64628,8.25885,-9.10789,-20.16619,-4.58304,-0.00015,-25.40963,-0.58365,-3e-05,38.35152,18.25843,16.13542,20.42906,-3.94371,-8.39257,11.56848,6.87907,-28.45731,3.72299,-28.42621,31.14802,41.38097,-0.00804,-89.32832,38.34669,-0.00396,85.30791,-11.49368,0.50387,-0.00321,-19.62663,7.20622,0.00649,20.76116,5.77851,27.45012,1.01498,-4.63948,27.64918,-6.74242,5.43284,4.34017
1177,-4.86861,0.0,0.0,-2.19368,0.0,-0.0,-7.78662,-5.30705,27.05462,16.6482,8.10998,-9.10867,-20.07514,-4.65864,-1e-05,-25.24688,-0.48388,0.0002,38.18736,18.46579,15.71545,20.27801,-3.83767,-8.40788,11.1721,6.16968,-28.65977,2.95142,-28.28859,30.1197,40.75988,-0.01388,-90.065,37.67374,0.0106,85.05971,-10.93354,0.04713,-0.00159,-18.62094,7.49998,0.0178,20.63776,5.66735,27.41683,0.88262,-4.7329,27.58021,-6.60895,5.39186,4.44516
1178,-4.9779,0.0,-0.0,-2.2214,0.0,0.0,-7.80082,-5.50707,26.68853,16.68251,7.73799,-9.26412,-19.97163,-4.6451,1e-05,-25.05339,-0.323,0.00038,38.08344,18.61825,15.32054,20.13728,-3.71326,-8.33562,10.75589,5.54443,-28.8344,2.12462,-28.12178,29.12064,40.15138,-0.00895,-90.96037,37.05683,0.00889,85.6134,-9.9526,-0.04055,0.00571,-17.72067,8.18509,0.01477,20.48779,5.57054,27.41643,0.72985,-4.82388,27.54699,-6.38188,5.35516,4.57301
1179,-5.10234,-0.0,-0.0,-2.28094,0.0,0.0,-7.80532,-5.74397,26.36279,16.78583,7.4112,-9.49487,-19.84546,-4.61597,-0.00011,-24.83527,-0.16895,0.00024,38.05104,18.75297,14.94481,20.04072,-3.57292,-8.20422,10.36127,5.08948,-29.408,1.33051,-27.91656,28.24188,39.56159,0.0027,-90.97495,36.30015,-0.00065,85.96987,-8.75849,0.27462,0.01031,-17.32646,8.3424,0.00733,20.40597,5.50469,27.468,0.65523,-4.9032,27.57314,-6.06541,5.308,4.74077
1180,-5.12247,0.0,0.0,-2.52066,0.0,0.0,-7.81719,-5.95347,25.95964,16.93489,7.30217,-9.63146,-19.69968,-4.59137,-8e-05,-24.59969,-0.10374,-0.0002,38.00291,18.90738,14.74712,19.9322,-3.41974,-8.14692,10.0035,4.80761,-30.48033,0.6263,-27.63843,27.42949,38.98651,0.00913,-89.84817,35.32492,-0.00422,85.876,-8.02121,0.80095,0.00418,-17.34128,7.757,0.00444,20.40535,5.4683,27.56606,0.67085,-4.97043,27.65302,-5.74149,5.23605,4.90115
1181,-4.6692,0.0,0.0,-2.65068,0.0,-0.0,-7.88504,-6.07615,25.25581,17.01568,7.33761,-9.55242,-19.53306,-4.50657,0.00015,-24.3431,-0.13739,-0.00044,37.76556,19.08588,14.92751,19.6568,-3.25114,-8.26547,9.66889,4.60861,-31.69408,-0.00161,-27.28215,26.53652,38.40376,0.00528,-88.36549,34.27454,0.00041,85.65079,-8.23617,1.39387,-0.00553,-17.28975,6.99735,0.00163,20.42444,5.41194,27.71788,0.71517,-5.07448,27.77674,-5.55912,5.15123,4.98641
1182,-3.86302,0.0,-0.0,-2.44659,0.0,-0.0,-7.95324,-6.12959,24.41423,16.97771,7.29332,-9.34045,-19.31452,-4.37661,9e-05,-24.05868,-0.17783,-0.00013,37.28914,19.26129,15.29947,19.15387,-3.06195,-8.50232,9.34113,4.39852,-32.60733,-0.62259,-26.88514,25.46112,37.80609,-0.00016,-87.2624,33.34204,0.00142,85.33879,-9.03802,2.03133,-0.00729,-16.88736,6.5807,0.00086,20.39775,5.27198,27.89536,0.71579,-5.26581,27.89643,-5.5566,5.10064,4.98277
1183,-3.2979,0.0,0.0,-2.10241,0.0,0.0,-7.90439,-6.1941,23.91487,16.91052,7.10617,-9.20261,-19.00893,-4.31099,-0.00045,-23.76676,-0.14031,0.00031,36.71111,19.38863,15.43571,18.55986,-2.87667,-8.69409,9.0168,4.16574,-33.12191,-1.27722,-26.50213,24.27664,37.24381,-0.00052,-86.4183,32.56062,-0.00426,84.64413,-9.63745,2.67957,-0.00111,-16.2256,6.48495,0.00125,20.29914,5.05992,28.05369,0.63871,-5.51857,27.97388,-5.60116,5.0963,4.945
1184,-3.27748,0.0,0.0,-1.87062,0.0,-0.0,-7.73354,-6.26886,23.91421,16.89292,6.98421,-9.24509,-18.63799,-4.33191,-0.00065,-23.52514,-0.0402,0.00032,36.21901,19.43748,15.25076,18.0888,-2.7404,-8.75574,8.67971,3.96846,-33.42843,-1.92231,-26.18155,23.13447,36.83229,-0.00044,-85.54784,31.80244,-0.00725,83.66528,-9.70671,3.19697,0.00342,-15.42148,6.46341,0.00046,20.14453,4.85483,28.20413,0.50423,-5.76212,28.0464,-5.53535,5.10361,4.92548
1185,-3.54641,0.0,-0.0,-1.74887,0.0,0.0,-7.5941,-6.21995,24.07179,16.89995,7.1116,-9.39907,-18.26584,-4.33716,-9e-05,-23.37973,0.05318,7e-05,35.92076,19.41383,15.05367,17.8522,-2.66577,-8.76344,8.29283,3.87279,-33.67532,-2.49466,-25.93466,22.03644,36.68956,-0.00221,-84.85642,30.95164,-0.0012,83.00063,-9.47065,3.41467,0.00235,-14.4724,6.40689,-0.00058,19.96884,4.70665,28.39076,0.35696,-5.96416,28.17247,-5.3096,5.1049,4.91133
1186,-3.73907,0.0,0.0,-1.64011,0.0,-0.0,-7.636,-5.96814,24.10172,16.89527,7.40275,-9.54303,-17.91229,-4.27168,0.00037,-23.31446,0.10374,-7e-05,35.78216,19.35311,15.03666,17.774,-2.61763,-8.82761,7.83348,3.92071,-33.86084,-2.98143,-25.71302,20.87418,36.84173,-0.00177,-84.68213,30.01344,0.00752,83.01615,-9.20713,3.31033,-0.00017,-13.51326,6.33561,-0.00075,19.79451,4.59394,28.6211,0.22025,-6.14733,28.35197,-4.99485,5.10901,4.86037
1187,-3.78597,0.0,0.0,-1.57284,-0.0,-0.0,-7.83961,-5.57731,24.11042,16.9063,7.65239,-9.63951,-17.54675,-4.20695,9e-05,-23.28654,0.12071,-2e-05,35.69299,19.29518,15.05007,17.70931,-2.54824,-8.95091,7.32367,4.10627,-33.92277,-3.38957,-25.45828,19.70867,37.17861,0.00171,-85.24811,29.0427,0.0099,83.47433,-8.9894,3.06476,-0.00106,-12.85203,6.29355,-0.00027,19.62911,4.45525,28.86152,0.09348,-6.35823,28.53246,-4.68588,5.11188,4.77993
1188,-3.89145,0.0,0.0,-1.67464,-0.0,0.0,-8.04707,-5.13922,24.28342,16.98538,7.7703,-9.74344,-17.18052,-4.2193,-0.0004,-23.29019,0.1181,0.00016,35.62645,19.26146,14.90705,17.63967,-2.43488,-9.05865,6.8325,4.36562,-33.81722,-3.71732,-25.17877,18.78221,37.50526,0.00312,-86.72107,28.06439,0.00485,83.88065,-8.76732,2.94071,-0.00021,-12.64119,6.27612,-1e-05,19.47456,4.23914,29.05352,-0.0342,-6.6259,28.6414,-4.38459,5.09303,4.72879
1189,-4.15721,0.0,-0.0,-1.91966,0.0,0.0,-8.15141,-4.71915,24.52904,17.12118,7.76954,-9.88282,-16.87636,-4.26227,-0.00024,-23.35155,0.11087,0.00034,35.61684,19.23474,14.69964,17.63868,-2.30934,-9.10284,6.42876,4.63918,-33.56524,-3.98136,-24.92678,18.18004,37.70265,-5e-05,-88.71584,27.11849,-0.00342,83.84568,-8.48275,3.08641,0.00119,-12.68789,6.19398,-0.00036,19.32616,3.95539,29.13342,-0.17923,-6.91998,28.62162,-4.04848,5.0301,4.73938
1190,-4.39106,0.0,-0.0,-2.03103,-0.0,0.0,-8.19226,-4.42949,24.64277,17.22338,7.66353,-10.0059,-16.65552,-4.21835,0.0003,-23.4922,0.1474,0.00018,35.61071,19.16765,14.64325,17.6971,-2.24806,-9.0745,6.10856,4.9412,-33.24393,-4.20727,-24.71331,17.68786,37.85635,-0.0049,-90.08576,26.29,-0.00765,83.29474,-8.15105,3.40414,0.0013,-12.66185,6.00434,-0.00119,19.19189,3.69099,29.08974,-0.33238,-7.15463,28.49124,-3.72811,4.90825,4.76472
