PaulMeinheit/Bachelor_Muay_Thai/processed_Data/N4/teep/sliced/JointAngles/sliced5.csv
Unnamed: 0_level_0,L_MTP_ANGLE,L_MTP_ANGLE,L_MTP_ANGLE,R_MTP_ANGLE,R_MTP_ANGLE,R_MTP_ANGLE,L_ANKLE_ANGLE,L_ANKLE_ANGLE,L_ANKLE_ANGLE,R_ANKLE_ANGLE,R_ANKLE_ANGLE,R_ANKLE_ANGLE,L_KNEE_ANGLE,L_KNEE_ANGLE,L_KNEE_ANGLE,R_KNEE_ANGLE,R_KNEE_ANGLE,R_KNEE_ANGLE,L_HIP_ANGLE,L_HIP_ANGLE,L_HIP_ANGLE,R_HIP_ANGLE,R_HIP_ANGLE,R_HIP_ANGLE,L_SHOULDER_ANGLE,L_SHOULDER_ANGLE,L_SHOULDER_ANGLE,R_SHOULDER_ANGLE,R_SHOULDER_ANGLE,R_SHOULDER_ANGLE,L_ELBOW_ANGLE,L_ELBOW_ANGLE,L_ELBOW_ANGLE,R_ELBOW_ANGLE,R_ELBOW_ANGLE,R_ELBOW_ANGLE,L_WRIST_ANGLE,L_WRIST_ANGLE,L_WRIST_ANGLE,R_WRIST_ANGLE,R_WRIST_ANGLE,R_WRIST_ANGLE,NECK_ANGLE,NECK_ANGLE,NECK_ANGLE,NECK_ANGLE_SHADOW,NECK_ANGLE_SHADOW,NECK_ANGLE_SHADOW,Trunk_Joint_Angle,Trunk_Joint_Angle,Trunk_Joint_Angle
ITEM,X,Y,Z,X,Y,Z,X,Y,Z,X,Y,Z,X,Y,Z,X,Y,Z,X,Y,Z,X,Y,Z,X,Y,Z,X,Y,Z,X,Y,Z,X,Y,Z,X,Y,Z,X,Y,Z,X,Y,Z,X,Y,Z,X,Y,Z
1818,-6.25573,0.0,0.0,-0.57889,0.0,-0.0,-11.28877,-8.07736,26.71004,20.4463,5.7445,-8.28255,-13.22941,-2.42726,5e-05,-28.6938,-0.41024,-0.00044,36.35867,20.50863,13.73702,17.78522,0.37342,-8.9154,10.56219,13.72405,-25.04247,-1.02628,-21.96234,14.96579,45.45272,0.00139,-93.76958,36.87288,-0.00132,85.3205,-5.78932,5.78539,0.00069,-14.41931,7.54863,0.00116,12.96428,1.23692,30.31046,-6.45781,-9.87484,28.82676,-5.16035,4.34684,4.32223
1819,-6.41827,0.0,-0.0,-0.90724,0.0,-0.0,-11.32138,-8.03116,26.78882,20.60608,5.45808,-8.35025,-13.17618,-2.46107,4e-05,-28.40622,-0.51465,0.00038,36.37782,20.50467,13.55242,17.63756,0.54263,-8.98355,10.7472,13.87902,-25.3357,-1.0612,-21.86998,14.74967,45.5383,-0.0004,-94.36303,37.00594,0.00113,85.96692,-6.62125,5.74997,-6e-05,-14.29706,7.63518,5e-05,12.9534,1.13735,30.20229,-6.49452,-9.93276,28.68959,-5.13883,4.46272,4.34726
1820,-6.3869,0.0,-0.0,-1.04376,0.0,-0.0,-11.42712,-8.19816,26.93667,20.69695,5.21799,-8.52406,-13.12771,-2.43837,6e-05,-28.24423,-0.45385,0.0005,36.43353,20.43112,13.26981,17.544,0.61182,-8.87773,10.99295,14.06194,-25.58097,-1.04036,-21.80509,14.69834,45.54362,-0.00075,-94.50681,37.00609,0.00135,86.34701,-7.02301,5.74625,-0.00056,-14.18398,7.41717,-0.0001,13.06592,1.11063,30.20834,-6.38245,-9.95996,28.68635,-5.1622,4.55174,4.29408
1821,-6.06628,0.0,0.0,-0.87108,-0.0,-0.0,-11.62334,-8.39602,26.92656,20.69803,5.17987,-8.77355,-13.12823,-2.34455,1e-05,-28.19007,-0.35217,0.00022,36.5703,20.33872,13.08984,17.53994,0.63169,-8.71844,11.22453,14.20669,-25.56824,-1.05299,-21.76565,14.74872,45.58533,-0.00024,-94.30177,36.9598,0.00051,86.48975,-6.77976,5.79452,8e-05,-14.06555,7.20813,0.00012,13.20702,1.12277,30.26204,-6.23069,-9.96638,28.74185,-5.16497,4.63137,4.2437
1822,-5.57825,0.0,0.0,-0.48251,0.0,0.0,-11.90229,-8.32968,26.61873,20.62961,5.4713,-8.98015,-13.17469,-2.22773,-2e-05,-28.20454,-0.35315,9e-05,36.77907,20.27041,13.14732,17.61792,0.65525,-8.68011,11.38183,14.31593,-25.33772,-1.17181,-21.71971,14.79678,45.73651,0.0005,-94.08939,36.92105,-3e-05,86.44466,-6.14161,5.90837,0.00101,-13.92987,6.97754,-0.00046,13.27776,1.16957,30.29195,-6.15168,-9.9322,28.78629,-5.10389,4.70001,4.23221
1823,-5.16296,0.0,0.0,-0.15137,0.0,-0.0,-12.17276,-8.00764,26.14394,20.54555,5.98538,-9.0748,-13.22016,-2.15915,-0.0,-28.23998,-0.47974,7e-05,36.96186,20.26843,13.36929,17.68883,0.72288,-8.81253,11.46154,14.43633,-25.11196,-1.40514,-21.66839,14.8564,45.96507,0.00044,-93.94811,36.93189,5e-05,86.25524,-5.61727,6.04029,0.001,-13.76647,6.5071,-0.00138,13.27939,1.25746,30.28656,-6.14595,-9.84753,28.81081,-5.03091,4.7624,4.25507
1824,-5.02206,-0.0,0.0,-0.09635,0.0,0.0,-12.30594,-7.719,25.77982,20.49964,6.42825,-9.07401,-13.21851,-2.17544,-4e-05,-28.23955,-0.62315,2e-05,37.03653,20.34582,13.52885,17.67058,0.83767,-9.00438,11.52862,14.5611,-25.04098,-1.66307,-21.66235,15.04369,46.17945,-0.0004,-93.61133,37.00136,0.00016,85.94965,-5.61532,6.09295,0.00103,-13.6496,5.77554,-0.00066,13.28255,1.32701,30.28778,-6.13857,-9.78234,28.83545,-5.02257,4.85046,4.29767
1825,-5.17418,-0.0,0.0,-0.27493,0.0,0.0,-12.27306,-7.65331,25.66196,20.51842,6.62404,-9.01599,-13.16598,-2.24497,-7e-05,-28.16649,-0.66339,7e-05,37.02234,20.43508,13.49598,17.56689,0.93238,-9.12967,11.65802,14.61606,-25.0962,-1.80598,-21.73057,15.39656,46.31282,-0.00054,-93.09806,37.07199,-0.00015,85.66573,-6.26092,6.06766,0.00105,-13.70431,5.13299,0.00045,13.33636,1.29415,30.33238,-6.07835,-9.82816,28.86704,-5.09124,4.97648,4.33805
1826,-5.50902,0.0,-0.0,-0.48347,0.0,0.0,-12.16291,-7.7497,25.67237,20.59531,6.62635,-8.948,-13.11048,-2.29571,-3e-05,-28.04467,-0.56555,0.00018,36.99998,20.45421,13.3963,17.44625,0.93459,-9.13281,11.84939,14.55371,-25.13974,-1.76243,-21.83287,15.83794,46.37077,-0.00019,-92.96319,37.06435,-4e-05,85.66214,-7.31753,6.09387,-0.00031,-13.89528,5.05319,-0.00024,13.41752,1.15214,30.38467,-5.99571,-9.97947,28.86918,-5.18714,5.10388,4.36199
1827,-5.98462,0.0,0.0,-0.62496,0.0,0.0,-12.03581,-7.93757,25.688,20.70218,6.51554,-8.93911,-13.09959,-2.28917,-0.0,-27.9356,-0.35695,0.00016,37.00884,20.39496,13.40053,17.36308,0.84331,-8.98372,12.03109,14.4273,-25.05175,-1.588,-21.91011,16.32141,46.40849,0.00015,-93.61684,36.94125,0.001,86.05046,-8.23049,6.22772,-0.00116,-14.01124,5.63318,0.00019,13.4461,0.96878,30.36356,-5.98188,-10.14538,28.78703,-5.25603,5.17545,4.38011
1828,-6.52576,0.0,0.0,-0.76206,-0.0,0.0,-11.89022,-8.25064,25.75243,20.80674,6.28667,-8.99098,-13.12051,-2.24191,1e-05,-27.86972,-0.11529,1e-05,37.02417,20.29882,13.47954,17.31601,0.71557,-8.74559,12.1506,14.34757,-24.85145,-1.4106,-21.94436,16.85742,46.48278,0.00052,-94.71885,36.73466,0.00169,86.6395,-8.50228,6.28862,-0.00227,-13.93961,6.49049,0.00104,13.3593,0.79573,30.25566,-6.09903,-10.27265,28.62514,-5.2731,5.16846,4.40363
1829,-6.78054,0.0,-0.0,-0.91803,0.0,0.0,-11.79896,-8.62098,25.86424,20.88409,6.01575,-9.0012,-13.124,-2.18091,2e-05,-27.82473,0.01106,-0.00015,37.01551,20.21149,13.54423,17.27044,0.62681,-8.64176,12.20843,14.3665,-24.66255,-1.33884,-21.96028,17.41065,46.63839,0.00074,-95.63278,36.54913,0.0013,87.22589,-8.15966,5.98369,-0.00498,-13.80655,7.25757,-0.00054,13.17145,0.62273,30.14753,-6.31733,-10.39971,28.46289,-5.24539,5.12603,4.42411
1830,-6.47774,0.0,-0.0,-0.99051,0.0,0.0,-11.84745,-8.86273,25.88874,20.93167,5.89446,-8.96612,-13.11275,-2.14408,4e-05,-27.76689,-0.07195,-0.00027,36.97494,20.20688,13.6151,17.18412,0.65777,-8.78605,12.21813,14.42694,-24.54564,-1.40394,-21.99613,17.8831,46.88837,0.00082,-96.1596,36.50726,-0.00014,87.89201,-7.76884,5.22738,-0.00178,-13.7424,7.91941,-0.00209,12.95735,0.42686,30.12953,-6.54683,-10.57833,28.37916,-5.22125,5.13523,4.43768
1831,-5.99558,0.0,0.0,-0.93413,0.0,0.0,-11.94704,-8.84828,25.78022,20.96952,5.97213,-9.04584,-13.14949,-2.20665,0.0002,-27.68674,-0.27444,-0.00024,36.92614,20.36486,13.69632,17.05123,0.85311,-8.97541,12.19748,14.43706,-24.45739,-1.55559,-22.06657,18.1794,47.16868,0.00054,-96.37205,36.64149,-0.0023,88.85885,-7.85894,4.33099,0.00565,-13.63808,8.58487,-0.00063,12.79558,0.23554,30.20001,-6.70771,-10.78221,28.38176,-5.24538,5.25599,4.46539
1832,-5.99566,0.0,0.0,-0.87377,0.0,0.0,-11.93795,-8.56571,25.62058,20.99638,6.08877,-9.2687,-13.26121,-2.40758,0.00041,-27.58271,-0.43972,-7e-05,36.92633,20.65697,13.72185,16.92702,1.14885,-9.00342,12.17387,14.36216,-24.34573,-1.7235,-22.14793,18.27927,47.36903,0.00026,-96.21301,36.86653,-0.00324,90.20423,-8.31667,3.83107,0.00635,-13.2884,9.22446,0.00198,12.71506,0.10932,30.26382,-6.78459,-10.92249,28.4001,-5.27991,5.45526,4.52812
1833,-6.5566,0.0,0.0,-0.94526,0.0,-0.0,-11.79709,-8.16775,25.4698,20.97415,6.13954,-9.42946,-13.40862,-2.67204,0.00028,-27.44192,-0.51713,5e-05,37.00662,20.93494,13.68586,16.85269,1.39494,-8.95776,12.15475,14.23112,-24.20581,-1.87585,-22.22511,18.33622,47.45541,0.00024,-95.69646,37.07118,-0.0016,91.65614,-8.59487,4.0149,0.00493,-12.71441,9.70372,0.0019,12.6784,0.07978,30.22373,-6.83051,-10.93695,28.35157,-5.25074,5.63296,4.61347
1834,-7.08134,0.0,0.0,-1.1288,0.0,0.0,-11.63149,-7.921,25.33332,20.90157,6.17616,-9.39935,-13.56487,-2.88932,1e-05,-27.27154,-0.53749,0.0001,37.11844,21.08717,13.66719,16.78597,1.48824,-9.01491,12.12406,14.09633,-24.09858,-1.99504,-22.32608,18.65462,47.51877,-0.00037,-95.07081,37.18167,0.00041,92.54461,-8.49718,4.58591,0.00471,-12.22984,9.86808,0.00053,12.6419,0.11648,30.08016,-6.89095,-10.85439,28.22626,-5.17141,5.72258,4.68766
1835,-6.98935,0.0,0.0,-1.30555,0.0,-0.0,-11.5638,-7.94558,25.16158,20.8528,6.2055,-9.30561,-13.75805,-3.02317,-0.00012,-27.12776,-0.50334,6e-05,37.17903,21.13414,13.76355,16.64735,1.44499,-9.15934,12.08075,14.0015,-24.11583,-2.04796,-22.46607,19.39101,47.66198,-0.00089,-94.59588,37.15365,-0.00059,92.32943,-8.32172,4.95472,0.0027,-12.15391,9.61431,0.00246,12.61497,0.13819,29.92166,-6.94539,-10.78089,28.08158,-5.1481,5.73915,4.72903
1836,-6.41013,0.0,-0.0,-1.42546,0.0,0.0,-11.60933,-8.11403,24.90767,20.90865,6.09135,-9.34298,-14.02132,-3.10325,-0.00014,-27.08152,-0.3736,-0.00022,37.17996,21.14042,13.99623,16.43446,1.33396,-9.24528,12.04812,13.9476,-24.25599,-2.01698,-22.59581,20.31837,47.87028,-0.00024,-94.46975,36.99997,-0.00269,91.29172,-8.30703,4.86363,0.00124,-12.48104,9.0728,0.00487,12.61389,0.07857,29.82474,-6.96786,-10.8046,27.96828,-5.24253,5.72954,4.72876
1837,-5.98558,0.0,0.0,-1.52007,0.0,-0.0,-11.66836,-8.21963,24.60764,21.06296,5.76702,-9.53169,-14.34594,-3.15897,-0.00021,-27.14549,-0.14851,-0.00051,37.22054,21.13396,14.27917,16.25836,1.20314,-9.22714,12.03358,13.88818,-24.39776,-1.92952,-22.64788,21.03895,48.04473,0.00058,-94.87651,36.85326,-0.00264,90.33885,-8.44216,4.53426,0.00047,-12.92947,8.66581,0.0026,12.59592,-0.04105,29.80505,-6.99709,-10.9107,27.90857,-5.37824,5.71925,4.68668
1838,-6.03073,0.0,-0.0,-1.61414,0.0,-0.0,-11.64361,-8.13872,24.33168,21.22284,5.44244,-9.73091,-14.70233,-3.20637,-0.00021,-27.24912,0.07688,-0.00036,37.39796,21.14124,14.52053,16.22439,1.09145,-9.20246,12.00298,13.78852,-24.45924,-1.85587,-22.60829,21.3734,48.14197,0.00047,-95.68809,36.92207,-0.00336,90.10149,-8.75158,4.28888,-0.00126,-13.28756,8.75123,-0.0011,12.50516,-0.13409,29.83543,-7.0884,-11.00854,27.90594,-5.42369,5.71622,4.61664
1839,-6.45422,0.0,-0.0,-1.77243,0.0,0.0,-11.45103,-7.9037,24.1885,21.33275,5.39032,-9.87073,-15.06948,-3.28962,0.00015,-27.30719,0.20473,-4e-05,37.69896,21.19572,14.61829,16.30949,1.03777,-9.23419,11.92262,13.67537,-24.50435,-1.86849,-22.51778,21.44361,48.21066,-0.00054,-96.19958,37.3074,-0.00367,90.38733,-9.30436,4.25651,-0.00396,-13.52656,9.23797,-0.00198,12.35238,-0.1453,29.85479,-7.2384,-11.0256,27.92069,-5.33233,5.72383,4.52532
1840,-7.07669,0.0,0.0,-2.05429,0.0,-0.0,-11.06994,-7.64037,24.27967,21.43276,5.57514,-10.01318,-15.41072,-3.46471,0.0005,-27.29707,0.23651,7e-05,38.01209,21.28576,14.47638,16.3969,1.04298,-9.28377,11.81065,13.60136,-24.63476,-1.9714,-22.4298,21.44833,48.30107,-0.00193,-95.76073,37.90457,0.00022,90.54822,-9.8466,4.39553,-0.00423,-13.61023,9.73989,-0.00065,12.20076,-0.09163,29.81085,-7.39448,-10.9603,27.89686,-5.17819,5.73325,4.41227
1841,-7.51682,0.0,0.0,-2.3455,0.0,-0.0,-10.65983,-7.44647,24.54698,21.55655,5.74382,-10.16599,-15.6637,-3.72145,0.00025,-27.25232,0.23051,4e-05,38.19935,21.35819,14.17968,16.38748,1.055,-9.31506,11.71645,13.564,-24.84216,-2.10031,-22.39281,21.47012,48.3963,-0.00186,-94.6226,38.53901,0.00283,90.33128,-9.78982,4.67458,0.00111,-13.44781,9.99712,-0.00034,12.11375,-0.01549,29.72505,-7.49207,-10.85979,27.84055,-5.08825,5.72354,4.32001
1842,-7.47397,0.0,-0.0,-2.49998,-0.0,0.0,-10.37722,-7.38212,24.85127,21.66083,5.802,-10.24086,-15.82183,-3.98283,-0.00017,-27.20739,0.22295,2e-05,38.20681,21.38473,13.92783,16.26698,1.02268,-9.31921,11.66011,13.4801,-25.03596,-2.20336,-22.45187,21.52517,48.42692,-0.00053,-93.58157,39.11884,0.00071,90.058,-8.87013,5.14585,0.00893,-13.09715,9.98071,-0.0015,12.13803,0.05395,29.63909,-7.47883,-10.76552,27.78185,-5.12153,5.69177,4.32949
1843,-7.15129,-0.0,0.0,-2.53027,0.0,0.0,-10.17107,-7.42024,25.07147,21.68477,5.85858,-10.19306,-16.00115,-4.17665,-0.00031,-27.18129,0.21308,4e-05,38.16205,21.39342,13.81401,16.12254,0.95504,-9.30713,11.61378,13.26585,-25.16976,-2.25753,-22.62731,21.72024,48.33886,-7e-05,-93.0537,39.60311,-0.00147,89.9277,-7.54035,5.77202,0.00975,-12.8754,9.74526,-0.00108,12.27768,0.0839,29.51875,-7.3589,-10.6969,27.67671,-5.19132,5.6743,4.46632
1844,-6.84257,0.0,-0.0,-2.46319,0.0,-0.0,-9.94402,-7.4291,25.06222,21.61604,5.96023,-10.07756,-16.33913,-4.27914,-0.00043,-27.1946,0.18854,7e-05,38.26073,21.42521,13.83971,16.06845,0.89337,-9.33618,11.54627,12.94806,-25.30981,-2.20841,-22.87819,22.23079,48.15411,-0.00013,-92.86168,39.92363,-0.00151,89.63265,-6.44073,6.30076,0.00253,-13.1215,9.35385,0.00196,12.46629,0.03441,29.30352,-7.21189,-10.6711,27.45351,-5.1707,5.70227,4.65191
1845,-6.51572,0.0,0.0,-2.28265,-0.0,-0.0,-9.72138,-7.31905,24.7851,21.49911,5.9721,-9.99917,-16.83258,-4.3248,-0.00049,-27.24451,0.16211,6e-05,38.53459,21.48365,13.98385,16.10924,0.84756,-9.44959,11.46798,12.6644,-25.61474,-1.99432,-23.10863,23.09669,47.95469,0.0003,-92.59921,40.03848,-0.00176,88.87668,-5.7995,6.47251,-0.00309,-13.83314,8.8882,0.00413,12.60806,-0.09027,29.02536,-7.12732,-10.69468,27.14424,-5.06503,5.74793,4.78458
1846,-6.08268,-0.0,0.0,-2.06338,-0.0,-0.0,-9.56941,-7.0631,24.40719,21.41178,5.75077,-9.99604,-17.35473,-4.38629,-0.00023,-27.28004,0.16646,3e-05,38.83799,21.54877,14.18366,16.12417,0.79867,-9.62571,11.41312,12.53237,-26.19682,-1.65461,-23.23703,24.11989,47.8127,0.00049,-92.06643,40.02478,-0.00198,87.98203,-5.51929,6.32271,-0.0032,-14.66163,8.44956,0.00293,12.65825,-0.22097,28.81726,-7.12201,-10.74734,26.89994,-4.9956,5.75813,4.84833
1847,-5.57796,0.0,0.0,-1.89249,0.0,-0.0,-9.4803,-6.67239,24.11203,21.41915,5.32499,-9.98504,-17.81644,-4.52087,0.00019,-27.25578,0.21059,3e-05,39.02441,21.60461,14.3588,15.99281,0.72737,-9.84,11.3989,12.53996,-26.99222,-1.33062,-23.26159,25.0094,47.7357,0.0003,-91.42,40.0303,-0.00213,87.59002,-5.51892,6.14864,-0.00157,-15.26319,8.10584,0.00066,12.63354,-0.29032,28.77586,-7.15841,-10.79857,26.83639,-5.05136,5.72046,4.90587
1848,-5.01594,-0.0,0.0,-1.7443,-0.0,0.0,-9.37297,-6.2877,23.95214,21.52674,4.86154,-9.92436,-18.23365,-4.73061,0.00045,-27.18482,0.27358,3e-05,39.068,21.62241,14.43821,15.69936,0.61415,-10.10342,11.41722,12.58386,-27.8474,-1.13873,-23.24348,25.60271,47.65461,-1e-05,-90.9376,40.14883,-0.00289,87.77877,-5.74921,6.16866,-0.00117,-15.56138,7.82345,-0.00011,12.55083,-0.28675,28.8136,-7.23431,-10.80799,26.87377,-5.2091,5.66313,4.98892
1849,-4.40612,0.0,-0.0,-1.57683,0.0,-0.0,-9.18616,-6.02071,23.85407,21.6754,4.56172,-9.92864,-18.65538,-4.9682,0.00033,-27.10607,0.32319,-4e-05,39.04745,21.57757,14.41868,15.3245,0.46318,-10.4097,11.44285,12.58584,-28.65682,-1.08395,-23.22937,25.93306,47.48795,-0.00115,-90.79194,40.40719,-0.00261,87.98394,-6.00281,6.32183,-0.0009,-15.67686,7.5643,0.00024,12.41762,-0.23033,28.74061,-7.37662,-10.7302,26.8233,-5.38014,5.61535,5.05054
1850,-3.86317,-0.0,-0.0,-1.41055,-0.0,0.0,-8.94232,-5.72173,23.68246,21.79168,4.57369,-10.10754,-19.10302,-5.18047,-7e-05,-27.0281,0.33127,-0.00011,39.0453,21.50954,14.41938,14.95363,0.333,-10.68086,11.44828,12.52844,-29.3391,-1.06917,-23.22966,26.17381,47.23807,-0.00249,-90.95442,40.8269,-0.00043,87.79194,-5.96119,6.44637,-0.00015,-15.71335,7.43158,0.0007,12.28713,-0.1535,28.52207,-7.54016,-10.58385,26.64059,-5.51771,5.59586,5.03972
1851,-3.58839,0.0,0.0,-1.28917,0.0,-0.0,-8.66957,-5.23071,23.40513,21.84228,4.84121,-10.41502,-19.58622,-5.35361,-0.00027,-26.92734,0.3155,-5e-05,39.10953,21.48932,14.51552,14.62646,0.2809,-10.80953,11.4397,12.40374,-29.85349,-0.95461,-23.27327,26.5795,46.97384,-0.00207,-91.1147,41.4159,0.00372,87.19576,-5.5507,6.54594,0.00033,-15.7174,7.57557,0.00073,12.23635,-0.10562,28.30269,-7.62576,-10.46433,26.44724,-5.62716,5.62441,4.96209
1852,-3.71134,0.0,-0.0,-1.25079,0.0,0.0,-8.33046,-4.71055,23.12977,21.83314,5.11146,-10.71979,-20.11624,-5.51144,-9e-05,-26.78316,0.3397,0.00018,39.27617,21.52924,14.60467,14.36048,0.28637,-10.77286,11.4702,12.19955,-30.32993,-0.65623,-23.39552,27.31352,46.71429,0.00051,-90.86155,42.11476,0.00735,86.28297,-5.14715,6.73644,-0.00056,-15.76404,8.02466,-0.00015,12.2653,-0.11159,28.15187,-7.62303,-10.41868,26.30095,-5.68678,5.71057,4.86785
1853,-4.12168,0.0,-0.0,-1.31872,-0.0,-0.0,-7.91212,-4.43941,22.90653,21.79577,5.24032,-10.93375,-20.6861,-5.67737,0.00023,-26.6117,0.41653,0.00029,39.55288,21.58861,14.58184,14.17212,0.28655,-10.67699,11.58318,11.93419,-30.98419,-0.20271,-23.54255,28.2321,46.40503,0.00382,-90.10272,42.77978,0.00491,85.35374,-5.18983,6.99267,-0.00215,-15.90633,8.64741,-0.00064,12.30289,-0.13649,27.98951,-7.61468,-10.38682,26.13712,-5.64765,5.83257,4.81623
1854,-4.51281,0.0,0.0,-1.48394,0.0,-0.0,-7.50094,-4.43994,22.65841,21.79265,5.33877,-11.06497,-21.27027,-5.85234,0.00037,-26.47295,0.46552,0.00015,39.90617,21.63361,14.48319,14.07103,0.2549,-10.66425,11.76194,11.6435,-31.8364,0.34641,-23.58592,29.01157,46.0126,0.00516,-89.18883,43.23293,-0.00065,84.92545,-5.67906,7.10711,-0.00061,-16.05158,9.1926,0.00089,12.32781,-0.12599,27.79255,-7.62246,-10.30979,25.95254,-5.50689,5.94649,4.82273
1855,-4.59342,0.0,0.0,-1.63808,-0.0,0.0,-7.19573,-4.53024,22.31617,21.86319,5.50973,-11.19044,-21.84675,-6.01896,0.00013,-26.41885,0.42461,6e-05,40.26443,21.6488,14.40602,14.02102,0.19858,-10.77065,11.96189,11.32587,-32.67655,0.99088,-23.46413,29.52884,45.55335,0.003,-88.61617,43.39373,-0.00218,85.12196,-6.33028,6.90076,0.00326,-16.01347,9.4127,0.00186,12.38504,-0.06722,27.64608,-7.58627,-10.20456,25.83302,-5.33889,6.01015,4.84434
1856,-4.25462,0.0,-0.0,-1.5572,-0.0,0.0,-7.0226,-4.55783,21.8664,21.95936,5.65834,-11.36694,-22.41542,-6.14756,-0.00046,-26.42356,0.33144,0.0001,40.54168,21.61377,14.42781,13.92157,0.11699,-10.91506,12.15465,10.94415,-33.31481,1.7099,-23.2354,29.936,45.02667,-0.00162,-88.70344,43.39219,-0.00111,85.49829,-6.95286,6.41609,0.00475,-15.68193,9.19545,-0.00103,12.47464,-0.00977,27.55893,-7.50777,-10.12079,25.76976,-5.23679,5.99678,4.83989
1857,-3.63568,0.0,0.0,-1.1421,-0.0,-0.0,-6.94692,-4.42844,21.34221,22.0189,5.664,-11.59423,-22.99986,-6.22734,-0.0008,-26.39552,0.24949,0.00013,40.7188,21.51339,14.54352,13.68256,0.02137,-11.0216,12.31452,10.49797,-33.72977,2.37903,-22.98625,30.39803,44.43221,-0.00578,-89.47455,43.49345,0.00057,85.58245,-7.40121,5.84887,0.00213,-15.09664,8.60254,-0.00538,12.5357,-0.01113,27.43773,-7.46706,-10.08063,25.65359,-5.2242,5.91634,4.81427
1858,-3.00902,0.0,0.0,-0.62257,0.0,0.0,-6.88026,-4.08883,20.86705,22.06155,5.55973,-11.86431,-23.62171,-6.30891,-0.00011,-26.26466,0.18596,0.00013,40.8744,21.39066,14.62175,13.31245,-0.02526,-11.08121,12.41308,10.0586,-34.00032,2.89468,-22.75998,30.95452,43.84676,-0.00604,-90.71577,43.87385,0.00256,85.30179,-7.50464,5.30664,-0.00185,-14.45581,7.90941,-0.00548,12.54931,-0.04551,27.25361,-7.48616,-10.0499,25.46594,-5.24697,5.83631,4.79745
1859,-2.50864,0.0,0.0,-0.30713,-0.0,0.0,-6.71688,-3.60137,20.55894,22.13192,5.47591,-12.15677,-24.28148,-6.45625,0.00107,-26.03139,0.10933,4e-05,41.09808,21.31572,14.54138,12.89806,0.0269,-11.14112,12.45646,9.70633,-34.21808,3.30284,-22.57199,31.58627,43.36634,-0.00211,-92.00552,44.49359,0.00298,84.89293,-7.25581,4.78612,-0.00377,-14.06351,7.53846,-0.00289,12.55948,-0.03122,27.05818,-7.5074,-9.96947,25.28448,-5.23283,5.83392,4.79405
1860,-2.06792,0.0,-0.0,-0.23459,-0.0,-0.0,-6.42822,-3.11763,20.34584,22.22236,5.49213,-12.39972,-24.96935,-6.64257,0.00113,-25.73467,-0.00641,-0.00019,41.41547,21.26357,14.36251,12.51349,0.11778,-11.3069,12.46657,9.45356,-34.45398,3.71822,-22.4202,32.24995,43.00597,0.00227,-92.82362,45.16437,0.00203,84.55025,-6.87937,4.32686,-0.00257,-14.04837,7.68824,-0.00285,12.58856,0.03978,26.84342,-7.50929,-9.82905,25.10448,-5.12754,5.90628,4.75643
1861,-1.63633,0.0,-0.0,-0.215,0.0,-0.0,-6.06948,-2.74088,20.01941,22.30551,5.5737,-12.5325,-25.67091,-6.75957,-0.00036,-25.4067,-0.16606,-0.00044,41.79197,21.12444,14.26424,12.1684,0.13573,-11.67236,12.42217,9.23529,-34.71258,4.20089,-22.26515,32.87029,42.73058,0.00333,-93.05552,45.68811,0.00036,84.40263,-6.63259,3.95788,-0.0003,-14.11278,8.07653,-0.00307,12.6134,0.08765,26.54057,-7.53083,-9.67992,24.83266,-4.91236,5.97183,4.64149
1862,-1.29371,0.0,-0.0,-0.09078,0.0,-0.0,-5.67762,-2.51011,19.51243,22.38337,5.64438,-12.62813,-26.3669,-6.75851,-0.0016,-25.06794,-0.33536,-0.00038,42.15524,20.86027,14.30743,11.81467,0.05271,-12.15768,12.28682,8.96165,-34.91188,4.74945,-22.06503,33.40183,42.52188,0.00142,-93.1636,45.97609,-0.00098,84.64735,-6.63007,3.59795,0.00131,-13.85085,8.28906,-0.00305,12.61559,0.05614,26.15149,-7.59292,-9.57529,24.45122,-4.63657,5.96959,4.49176
1863,-1.13819,0.0,-0.0,0.13606,0.0,-0.0,-5.2221,-2.46426,19.01472,22.47551,5.69093,-12.88301,-27.04676,-6.73667,-0.00093,-24.73298,-0.44493,-3e-05,42.42528,20.5582,14.33817,11.38778,-0.06474,-12.5031,12.07588,8.60464,-34.97538,5.32999,-21.83759,33.90134,42.37798,-8e-05,-93.46904,46.07956,-0.00088,85.23123,-6.86771,3.22015,0.00169,-13.34306,8.19219,-0.00264,12.58115,-0.03238,25.76228,-7.69403,-9.52368,24.04985,-4.39121,5.91943,4.40171
1864,-1.15621,0.0,-0.0,0.35598,-0.0,0.0,-4.67459,-2.58074,18.72589,22.57338,5.7417,-13.40409,-27.71398,-6.82885,0.00072,-24.38697,-0.46579,0.00011,42.57458,20.32594,14.20897,10.86121,-0.14096,-12.54989,11.84641,8.23309,-34.93325,5.87209,-21.63444,34.4492,42.28914,-5e-05,-93.79194,46.09811,0.00046,85.68973,-7.26648,2.95802,0.00053,-13.08256,7.77932,0.0012,12.47469,-0.12736,25.42709,-7.85821,-9.49645,23.69769,-4.2036,5.88455,4.40878
1865,-1.21145,0.0,-0.0,0.45832,-0.0,-0.0,-4.08812,-2.69014,18.55865,22.63314,5.75673,-14.04997,-28.3824,-7.02743,0.00098,-23.97253,-0.44835,-0.00016,42.6745,20.17579,14.01712,10.26371,-0.15671,-12.46125,11.66189,7.92232,-34.89349,6.26438,-21.47279,34.96177,42.21758,0.00023,-93.99982,46.1394,0.00268,85.69011,-7.65088,2.87309,-0.00067,-13.28869,7.0004,0.00589,12.28822,-0.21305,25.1187,-8.09704,-9.4695,23.37434,-3.9951,5.89817,4.46268
1866,-1.16425,0.0,0.0,0.42641,0.0,-0.0,-3.55856,-2.60271,18.26684,22.62539,5.61058,-14.60135,-29.0654,-7.2063,-0.00027,-23.43475,-0.42895,-5e-05,42.84315,20.00563,13.93913,9.6416,-0.16505,-12.51235,11.58045,7.67185,-34.95927,6.41996,-21.32689,35.21518,42.10599,-0.00015,-94.25448,46.3722,0.00306,85.4551,-7.81578,2.8015,-0.00123,-13.66938,6.02705,0.00473,12.09224,-0.29796,24.79288,-8.34734,-9.43544,23.03475,-3.667,5.92528,4.48822
1867,-1.02077,-0.0,-0.0,0.35992,0.0,-0.0,-3.10062,-2.29463,17.82763,22.57246,5.23396,-15.04451,-29.74517,-7.32644,-0.00093,-22.78598,-0.37603,0.00073,43.10552,19.7191,13.91726,9.0132,-0.22842,-12.72706,11.58921,7.45358,-35.16162,6.39572,-21.16629,35.15329,41.95486,-0.00057,-94.71078,46.94208,-0.00302,85.51909,-7.71697,2.56293,-0.00183,-13.85506,5.35204,0.0008,11.95481,-0.35738,24.4267,-8.54289,-9.36306,22.66597,-3.20516,5.90202,4.46402
1868,-0.90184,0.0,0.0,0.37436,0.0,-0.0,-2.63666,-1.82864,17.40719,22.53232,4.76134,-15.54655,-30.37773,-7.46659,-0.00037,-22.11798,-0.28943,0.00105,43.34405,19.34924,13.7889,8.37433,-0.3336,-12.89408,11.55837,7.27236,-35.40019,6.38869,-20.99213,35.01918,41.87081,9e-05,-95.32635,47.79008,-0.00987,86.14516,-7.55979,2.2161,-0.00157,-13.74905,5.31147,0.00062,11.82689,-0.34211,23.99122,-8.73391,-9.19604,22.25817,-2.69251,5.81276,4.44625
1869,-0.85272,0.0,0.0,0.50309,0.0,0.0,-2.10754,-1.25879,17.0657,22.53901,4.40252,-16.21653,-30.95485,-7.66918,0.00031,-21.53305,-0.24341,0.00056,43.44767,19.00098,13.56159,7.73763,-0.41346,-12.86063,11.3654,7.14142,-35.47091,6.54905,-20.83392,35.05644,41.97966,0.00055,-95.85728,48.67916,-0.00662,87.00134,-7.57092,2.0308,-0.00094,-13.49806,5.60571,0.00134,11.61285,-0.2429,23.46465,-9.01828,-8.91795,21.79438,-2.23306,5.69764,4.49284
1870,-0.77364,-0.0,0.0,0.72976,0.0,-0.0,-1.51857,-0.76043,16.75908,22.53715,4.18596,-17.00544,-31.53689,-7.89273,0.00053,-21.05694,-0.30115,-2e-05,43.45929,18.71619,13.32907,7.13427,-0.42891,-12.69149,11.04806,7.05003,-35.24355,6.83506,-20.71557,35.22526,42.30585,-0.00086,-96.09156,49.41858,0.00223,87.59777,-7.70586,2.18154,-0.00036,-13.32249,5.5581,0.00103,11.34743,-0.1069,22.87657,-9.3592,-8.58313,21.28624,-1.8688,5.59522,4.57757
1871,-0.54832,-0.0,0.0,1.0193,0.0,0.0,-0.89822,-0.57375,16.42461,22.42055,4.02872,-17.80475,-32.19743,-8.07093,0.00021,-20.63139,-0.47137,-0.0005,43.49609,18.45127,13.13716,6.56363,-0.39438,-12.59124,10.77053,6.9879,-34.84798,7.09059,-20.6349,35.3188,42.74893,-0.00276,-96.08568,50.00107,0.00638,87.90889,-7.76403,2.5313,0.00093,-13.32801,4.94417,0.00144,11.17577,-0.01419,22.28269,-9.60772,-8.28607,20.75799,-1.56499,5.50976,4.61738
1872,-0.1724,0.0,0.0,1.25513,0.0,-0.0,-0.27144,-0.71549,15.97138,22.17545,3.94375,-18.58628,-32.9256,-8.17162,-0.00022,-20.194,-0.72583,-0.00085,43.56557,18.1418,13.00649,5.96656,-0.35898,-12.68485,10.63347,6.96995,-34.54687,7.21305,-20.55778,35.21947,43.1965,-0.00254,-96.02438,50.56738,0.00371,88.26497,-7.66901,2.79571,0.00148,-13.40773,4.40016,0.00194,11.14421,-0.04489,21.70877,-9.71784,-8.11074,20.205,-1.27147,5.41559,4.5685
1873,0.24453,0.0,0.0,1.28472,0.0,0.0,0.31259,-0.92283,15.34107,21.90947,4.00027,-19.36215,-33.61075,-8.2106,-0.00033,-19.76782,-1.02715,-0.00073,43.56036,17.74561,12.96083,5.30518,-0.38417,-12.91329,10.54881,7.02106,-34.38633,7.20276,-20.43836,34.9424,43.67365,0.00324,-96.10578,51.28156,-0.0032,88.89359,-7.3765,2.814,0.00014,-13.35889,4.72618,0.00454,11.1273,-0.20462,21.15544,-9.8151,-8.06254,19.62534,-0.96618,5.26667,4.4704
1874,0.54751,0.0,-0.0,1.12285,0.0,-0.0,0.7755,-0.92787,14.60379,21.7005,4.19094,-20.06606,-34.15323,-8.21029,-0.00016,-19.4627,-1.34259,1e-05,43.41411,17.25104,13.00121,4.63506,-0.50566,-13.12351,10.36883,7.17004,-34.21894,7.11673,-20.25805,34.53467,44.2946,0.01376,-96.51745,52.17065,-0.00871,89.77979,-6.75118,2.6019,-0.00208,-13.10986,5.78681,0.00649,10.99202,-0.37875,20.63883,-10.0248,-8.04017,19.0752,-0.64731,5.02893,4.39691
1875,0.65026,-0.0,0.0,0.99362,0.0,-0.0,1.10075,-0.74909,13.97065,21.49208,4.4007,-20.65575,-34.56007,-8.19111,9e-05,-19.375,-1.6105,0.00075,43.15953,16.69051,13.03419,4.02481,-0.69015,-13.1352,10.09713,7.4445,-34.06717,7.03254,-20.03357,34.01591,45.07796,0.01574,-96.98051,53.07621,-0.0063,90.64238,-5.79627,2.29387,-0.00178,-12.81615,6.52412,0.00315,10.74223,-0.43524,20.18078,-10.33414,-7.92839,18.62306,-0.33569,4.73728,4.38661
1876,0.62298,0.0,-0.0,1.07555,0.0,0.0,1.39458,-0.64215,13.60944,21.16786,4.49778,-21.21275,-34.90636,-8.15861,5e-05,-19.52458,-1.76172,0.00064,42.85755,16.11567,12.93256,3.48153,-0.86411,-12.84751,9.85011,7.83132,-34.15109,7.01052,-19.79403,33.37594,45.9516,-0.00033,-96.57136,53.80602,0.00087,91.0479,-4.75334,2.03385,0.00026,-12.71435,6.23241,0.00129,10.46061,-0.37596,19.73311,-10.66702,-7.71192,18.22303,-0.04916,4.4857,4.43092
1877,0.63024,0.0,-0.0,1.33054,0.0,-0.0,1.77904,-0.78386,13.45015,20.66185,4.45059,-21.78748,-35.22151,-8.06461,-0.00031,-19.90933,-1.80387,-0.00046,42.55103,15.51124,12.68632,3.01938,-1.01442,-12.37986,9.68194,8.26487,-34.55253,7.05392,-19.56499,32.61264,46.89634,-0.02034,-94.76981,54.28711,0.00391,90.91936,-3.81773,1.77274,-0.00204,-12.89592,5.37158,0.00174,10.18672,-0.31889,19.16217,-11.00558,-7.45261,17.70669,0.25597,4.32148,4.49555
1878,0.83792,0.0,-0.0,1.73123,0.0,-0.0,2.24569,-1.11578,13.3484,19.9567,4.29343,-22.32396,-35.43931,-7.88951,-0.0003,-20.58405,-1.79556,-0.00236,42.25871,14.7911,12.33981,2.72462,-1.21677,-11.90233,9.57742,8.69374,-35.08486,7.12279,-19.36849,31.79911,47.9616,-0.02419,-92.31008,54.56143,0.00288,90.62595,-3.00977,1.27545,-0.00704,-13.23401,4.8076,-0.00036,9.89857,-0.33721,18.38506,-11.38318,-7.18819,16.96972,0.65612,4.18426,4.5301
1879,1.34816,-0.0,-0.0,2.49952,0.0,0.0,2.69401,-1.44681,13.33302,19.02203,4.0499,-22.78596,-35.48344,-7.73726,-9e-05,-21.6714,-1.77765,-0.00353,41.97565,13.92805,11.86605,2.72119,-1.52567,-11.37059,9.53076,9.13919,-35.51372,7.17059,-19.22411,31.06794,49.19371,-0.00897,-90.3987,54.73786,0.00207,90.40012,-2.53789,0.44183,-0.00268,-13.48655,4.73961,-0.00202,9.55566,-0.39029,17.47028,-11.828,-6.90485,16.09169,1.17599,3.98856,4.48795
1880,2.0121,0.0,-0.0,3.78099,0.0,0.0,3.09781,-1.63431,13.49005,17.81278,3.80592,-23.15652,-35.37387,-7.71859,-0.00031,-23.3,-1.81305,-0.00011,41.66535,13.02282,11.27306,3.08444,-1.88299,-10.67163,9.51592,9.64559,-35.75656,7.13889,-19.13741,30.46358,50.59859,0.01333,-89.63408,54.97885,0.00024,90.30011,-2.93824,-0.48993,0.00967,-13.48239,4.83207,-0.0017,9.13063,-0.41461,16.53107,-12.35087,-6.5843,15.20241,1.76695,3.7327,4.37586
1881,2.38279,0.0,0.0,5.17843,0.0,-0.0,3.51423,-1.69497,13.73877,16.29733,3.73803,-23.35465,-35.18568,-7.77545,-0.00042,-25.50965,-1.98537,0.00757,41.24145,12.17704,10.70526,3.76001,-2.19789,-9.91574,9.44421,10.20141,-35.85693,6.97084,-19.08494,29.88018,52.11876,0.02542,-89.83679,55.41498,-0.00561,90.59439,-4.39249,-1.08927,0.00828,-13.27029,4.9167,-0.00104,8.64069,-0.40892,15.60435,-12.93079,-6.23897,14.33704,2.33188,3.48169,4.25274
1882,2.17241,-0.0,0.0,6.21594,0.0,-0.0,3.90986,-1.72029,13.90775,14.37536,3.93744,-23.3481,-34.9394,-7.73617,-0.0,-28.2091,-2.2552,0.00963,40.64474,11.3494,10.27065,4.62302,-2.48031,-9.31049,9.26077,10.75979,-35.94157,6.69416,-19.03048,29.21388,53.6263,0.0151,-90.27117,55.99946,-0.00931,91.35581,-6.25121,-1.04659,-0.0055,-13.05819,5.03548,-0.00087,8.14273,-0.43228,14.70364,-13.51231,-5.92892,13.48628,2.79445,3.2764,4.14912
1883,1.63504,-0.0,-0.0,7.11639,0.0,0.0,4.15182,-1.74349,13.95324,11.83043,4.31105,-23.25414,-34.61901,-7.52717,0.00036,-31.2564,-2.42933,0.00034,39.95805,10.42924,9.89085,5.66068,-2.82145,-8.81347,9.0615,11.30197,-36.21314,6.45002,-18.96673,28.50048,54.96778,-0.00684,-90.10491,56.5085,-0.00489,91.92914,-7.62306,-0.44337,-0.00829,-13.00213,5.09817,-0.00065,7.65989,-0.56139,13.90098,-14.06936,-5.75222,12.68863,3.18745,3.10843,4.04645
1884,1.20217,0.0,0.0,8.10053,0.0,-0.0,4.23986,-1.77113,13.9249,8.60882,4.73887,-23.15885,-34.26221,-7.1966,0.00019,-34.58337,-2.3891,-0.00868,39.31798,9.39626,9.48429,6.97745,-3.26766,-8.21965,9.0167,11.82504,-36.76706,6.37566,-18.92204,27.86827,56.06111,-0.0152,-89.22703,56.74196,-0.00109,91.6212,-8.07385,0.21478,-0.00173,-13.12844,4.90381,0.0012,7.16294,-0.80036,13.28471,-14.62553,-5.74572,12.02438,3.60442,2.95948,3.91291
1885,1.00454,-0.0,-0.0,8.29319,0.0,-0.0,4.34225,-1.80884,13.78877,5.0743,5.18596,-22.96563,-33.93299,-6.76078,0.00013,-38.21348,-2.24586,-0.00471,38.73267,8.31206,9.14169,8.61707,-3.78003,-7.53674,9.18229,12.30313,-37.39954,6.48574,-18.92394,27.41842,56.9704,-0.00514,-88.42075,56.6994,-0.00138,90.66171,-7.67889,0.3745,-0.00274,-13.36891,4.37978,0.00401,6.65345,-1.03085,12.8612,-15.17666,-5.80239,11.54315,4.05525,2.82346,3.68955
1886,0.99287,-0.0,-0.0,6.64502,0.0,0.0,4.53551,-1.80404,13.47924,1.70106,5.59339,-22.52905,-33.63194,-6.20489,0.00063,-42.1648,-2.15818,0.00596,38.11243,7.23403,8.94976,10.51904,-4.29115,-6.93674,9.47701,12.70764,-37.77443,6.70977,-18.97289,27.15492,57.84312,0.00664,-88.3692,56.53825,-0.00044,89.89262,-6.84118,-0.01892,-0.00721,-13.57887,3.67727,0.00522,6.18182,-1.13281,12.52366,-15.67751,-5.77145,11.19017,4.45424,2.70873,3.312
1887,1.18499,0.0,0.0,3.37402,0.0,0.0,4.70919,-1.73621,13.05574,-1.3531,5.83615,-21.74698,-33.3259,-5.59442,0.00087,-46.36874,-2.10739,0.00837,37.43243,6.22071,8.79466,12.61513,-4.72694,-6.4375,9.83639,13.04897,-37.79054,6.99425,-19.04417,26.99644,58.7594,0.00564,-88.88377,56.41189,0.00142,89.8614,-6.07365,-0.42453,-0.00482,-13.741,3.1269,0.00345,5.76926,-1.12296,12.12568,-16.11868,-5.61407,10.82277,4.7244,2.64999,2.78549
1888,1.57403,0.0,-0.0,-0.37843,0.0,-0.0,4.77411,-1.72474,12.67783,-4.14904,5.85199,-20.42079,-33.04025,-5.04442,0.00012,-50.698,-1.96234,0.00135,36.75673,5.35931,8.46655,14.85662,-5.0019,-5.92949,10.27945,13.39536,-37.6782,7.30651,-19.10578,26.85236,59.70738,-0.00374,-89.37666,56.40309,0.00178,90.49009,-5.68318,-0.22433,-0.00146,-14.19067,3.08197,-0.0059,5.38573,-1.10923,11.59901,-16.53858,-5.40487,10.3371,4.84356,2.69876,2.18728
1889,2.03741,-0.0,-0.0,-3.521,0.0,0.0,4.78694,-1.86116,12.4444,-6.60972,5.68588,-18.26251,-32.83199,-4.60094,-0.00076,-55.07425,-1.66573,-0.00495,36.12996,4.7091,7.89834,17.20868,-5.08607,-5.39109,10.8221,13.83666,-37.71909,7.58298,-19.14393,26.67152,60.67574,-0.00333,-89.79318,56.5732,0.0011,91.32783,-5.59698,0.70798,-0.00051,-15.21413,3.69573,-0.02037,5.00309,-1.15398,11.00661,-16.96219,-5.22503,9.76856,4.84196,2.86825,1.60578
1890,2.4495,0.0,0.0,-5.38001,-0.0,-0.0,4.83259,-2.05203,12.2792,-8.41069,5.41239,-15.23226,-32.67751,-4.20465,-0.00049,-59.54433,-1.26647,-0.00479,35.50404,4.21774,7.27255,19.68861,-5.07823,-4.87347,11.43781,14.40415,-37.96287,7.77055,-19.1803,26.45242,61.67637,0.01125,-90.62141,56.98173,-0.00017,92.02155,-5.51944,1.93704,0.0013,-16.41192,4.76691,-0.01907,4.62504,-1.22298,10.4827,-17.37556,-5.09294,9.25494,4.79056,3.08294,1.08989
1891,2.67602,0.0,0.0,-5.77415,0.0,0.0,4.94817,-2.19674,11.99571,-9.24749,5.13605,-11.73412,-32.48492,-3.76993,0.00071,-64.21519,-0.84747,0.00031,34.75263,3.76956,6.86699,22.32467,-5.13336,-4.39807,12.12021,15.06703,-38.29282,7.9321,-19.26425,26.27736,62.71924,0.02098,-91.90872,57.62015,-0.00337,92.60807,-5.26368,2.83681,0.00076,-17.01049,5.8872,-0.00097,4.26194,-1.24305,10.11206,-17.7616,-4.97266,8.90252,4.70447,3.22847,0.6328
1892,2.56701,-0.0,0.0,-5.00012,-0.0,-0.0,5.1605,-2.31542,11.4872,-9.16457,4.9926,-8.36138,-32.24068,-3.30445,0.00119,-69.08807,-0.4454,0.00192,33.80025,3.35013,6.75597,25.07898,-5.29997,-3.97925,12.89535,15.80839,-38.65668,8.24332,-19.44011,26.2813,63.82158,0.00745,-92.81747,58.34318,-0.00549,93.22179,-4.8944,3.1054,-0.00219,-16.76345,6.73993,0.00962,3.90171,-1.19367,9.8594,-18.13495,-4.83214,8.68609,4.49484,3.29643,0.19968
1893,2.23218,0.0,0.0,-3.71725,0.0,0.0,5.42856,-2.37349,10.81108,-8.48063,5.02361,-5.57892,-32.03431,-2.92799,0.00046,-73.99686,-0.00513,-0.00564,32.76302,3.08182,6.73001,27.9199,-5.49622,-3.66336,13.7416,16.63803,-39.04876,8.86841,-19.72503,26.53798,65.01608,-0.02173,-92.46157,58.89917,-0.00338,93.57335,-4.50148,3.06954,-0.00097,-16.07249,7.07319,0.00431,3.53177,-1.13192,9.62946,-18.51604,-4.68863,8.49551,4.12525,3.42788,-0.23049
1894,2.04331,0.0,0.0,-2.58369,0.0,0.0,5.61196,-2.27622,10.10079,-7.44215,5.11711,-3.65111,-31.90653,-2.72882,-0.00012,-78.73701,0.50389,-0.01135,31.82588,3.05298,6.56758,30.88331,-5.66005,-3.53227,14.54825,17.54765,-39.32447,9.85353,-20.10917,27.03749,66.35345,-0.03353,-91.04269,59.09274,-0.0023,93.29855,-3.98381,3.28998,0.00499,-15.42702,6.73074,-0.00328,3.18649,-1.11174,9.37881,-18.87462,-4.57583,8.27009,3.6964,3.74981,-0.65514
1895,2.15409,0.0,-0.0,-1.89136,-0.0,0.0,5.64142,-2.13403,9.4642,-6.09662,5.11943,-2.63078,-31.81157,-2.62665,-8e-05,-83.21336,0.96848,-0.00486,31.0084,3.19362,6.28046,33.97747,-5.84456,-3.66888,15.21768,18.50443,-39.27904,11.08911,-20.54038,27.71443,67.8522,-0.00575,-89.91579,58.95955,-0.00183,92.76041,-3.28343,3.82241,0.0076,-15.06238,6.03064,-0.00303,2.92769,-1.11764,9.12352,-19.14737,-4.48539,8.03058,3.30581,4.2234,-1.07884
1896,2.27932,0.0,0.0,-1.57129,-0.0,-0.0,5.63397,-2.23498,8.91112,-4.45791,4.95967,-2.26693,-31.7594,-2.43723,-0.00025,-87.43839,1.25333,0.00605,30.21741,3.37376,6.04068,37.14484,-6.14408,-4.08171,15.83861,19.46113,-38.97423,12.34762,-20.93967,28.40265,69.36206,0.0304,-90.16301,58.74108,0.00062,92.5821,-2.71216,4.22094,0.00394,-14.93371,5.53961,0.0,2.76086,-1.12183,8.85642,-19.3283,-4.38889,7.7808,2.96175,4.7129,-1.52289
1897,2.07173,0.0,-0.0,-1.34433,0.0,-0.0,5.74528,-2.6787,8.31777,-2.6394,4.70251,-2.04339,-31.82564,-2.06655,-0.00102,-91.43011,1.36278,0.00833,29.41549,3.54391,5.96181,40.32598,-6.61334,-4.70467,16.67063,20.35005,-38.7747,13.44012,-21.30057,28.90732,70.56847,0.02935,-91.16196,58.64225,0.00223,92.58162,-2.71602,4.2367,0.00193,-14.8604,5.29386,0.00059,2.6104,-1.15804,8.52384,-19.49658,-4.29735,7.45816,2.62842,5.15318,-1.99084
1898,1.60636,0.0,0.0,-0.96082,0.0,-0.0,5.99131,-3.24319,7.5614,-0.78255,4.54067,-1.50945,-31.98961,-1.60742,-0.00106,-95.16196,1.41436,-0.0003,28.58699,3.73545,5.96741,43.47458,-7.26299,-5.45688,17.85482,21.09775,-38.93207,14.38754,-21.733,29.22083,71.27564,0.00673,-91.26582,58.64347,0.00208,92.15694,-3.28651,4.12153,0.00116,-14.75141,4.89212,-0.0007,2.39461,-1.28398,8.0867,-19.73685,-4.24945,7.00461,2.24728,5.61025,-2.45748
1899,1.28079,-0.0,0.0,-0.49324,0.0,-0.0,6.30252,-3.63121,6.71237,1.01352,4.64897,-0.6032,-32.10742,-1.24949,-4e-05,-98.6116,1.47735,-0.00873,27.65688,3.99475,5.85284,46.56561,-8.03591,-6.27672,19.23752,21.71337,-39.32897,15.38234,-22.34738,29.51891,71.63077,-0.00606,-89.95168,58.58494,0.00034,91.29248,-3.90898,4.22969,-0.00013,-14.67107,4.25688,-0.00136,2.10332,-1.49426,7.55155,-20.05784,-4.24254,6.42823,1.7418,6.18962,-2.87257
1900,1.26122,-0.0,-0.0,-0.21614,-0.0,0.0,6.66382,-3.71814,5.99531,2.66691,4.99437,0.37964,-32.05774,-1.12497,0.00038,-101.81569,1.45055,-0.00519,26.53372,4.33953,5.47353,49.62806,-8.81254,-7.17412,20.57,22.37584,-39.73724,16.58541,-23.13358,29.95333,71.99999,-0.00684,-88.31473,58.38241,-0.00021,90.40791,-4.15445,4.6146,0.00069,-14.72379,3.67068,-0.00109,1.7901,-1.70185,6.93783,-20.40168,-4.20321,5.78002,1.04538,6.88905,-3.17171
1901,1.36597,0.0,0.0,-0.14755,-0.0,-0.0,7.08662,-3.59464,5.57409,4.15082,5.41553,1.09104,-31.82672,-1.23828,-0.00029,-104.84144,1.15978,0.00719,25.16651,4.73542,4.81939,52.69012,-9.53096,-8.24209,21.75924,23.3086,-40.09642,18.03299,-23.99486,30.60141,72.66866,0.00266,-87.5156,58.08362,0.00125,89.73532,-4.06437,5.13852,0.00098,-14.92602,3.22642,-0.00064,1.49859,-1.81217,6.26164,-20.72062,-4.04991,5.11084,0.10927,7.58041,-3.346
1902,1.44733,0.0,0.0,0.02581,-0.0,0.0,7.52724,-3.4378,5.43709,5.54602,5.87405,1.41927,-31.47706,-1.49816,-0.00094,-107.6899,0.59481,0.01363,23.55335,5.15882,3.97385,55.69736,-10.22687,-9.53312,22.8793,24.51018,-40.46978,19.71326,-24.85921,31.5351,73.63995,0.0128,-87.73504,57.73519,0.00109,89.20662,-3.97276,5.75062,-0.0018,-15.20698,2.74388,0.00037,1.23983,-1.8135,5.57835,-21.00113,-3.79276,4.47668,-1.0883,8.1916,-3.4494
1903,1.54558,0.0,0.0,0.49207,0.0,-0.0,7.94138,-3.32339,5.43077,6.95476,6.43632,1.54688,-31.1055,-1.78785,-0.00072,-110.25023,-0.03714,0.00757,21.76166,5.69889,3.12373,58.58122,-10.90499,-10.95609,24.0322,25.72659,-40.87815,21.64203,-25.69838,32.77258,74.70386,0.00749,-88.29547,57.26177,-0.00386,88.66376,-4.05049,6.38041,-0.00466,-15.52141,2.15407,0.0017,1.05699,-1.78043,5.0263,-21.19864,-3.55324,3.97747,-2.49752,8.83866,-3.47397
1904,1.67548,0.0,-0.0,1.02021,-0.0,-0.0,8.36452,-3.22215,5.34173,8.38322,7.05734,1.71067,-30.79909,-2.00059,6e-05,-112.40014,-0.5343,-0.00126,19.90756,6.4452,2.52502,61.37692,-11.53702,-12.34583,25.20905,26.74083,-41.18951,23.85404,-26.47333,34.19465,75.69024,-0.00649,-88.37799,56.47974,-0.01078,88.13123,-4.07686,6.70989,-0.00537,-15.83297,1.58647,0.00192,1.02978,-1.79381,4.77328,-21.23263,-3.46982,3.7379,-4.00411,9.65975,-3.34774
1905,1.73584,0.0,0.0,1.32984,-0.0,-0.0,8.86148,-3.17246,5.05146,9.74949,7.5994,1.88706,-30.57797,-2.07539,0.00053,-114.11775,-0.8903,-0.00345,18.05997,7.30598,2.27314,64.16827,-12.18254,-13.60298,26.30848,27.5701,-41.23217,26.341,-27.13758,35.59319,76.5647,-0.00829,-88.03404,55.24645,-0.01036,87.8735,-3.88097,6.41072,-0.00462,-15.98976,1.06587,-0.00036,1.16706,-1.86711,4.85429,-21.09504,-3.56834,3.78515,-5.52316,10.62025,-3.09617
1906,1.79933,0.0,-0.0,1.68691,0.0,0.0,9.4161,-3.25728,4.71934,10.96407,8.06176,1.81266,-30.40717,-2.09871,0.00027,-115.43179,-1.18399,-0.00158,16.25734,8.13704,2.05745,66.97206,-12.93657,-14.73838,27.31452,28.35923,-41.10705,28.9864,-27.68365,36.77833,77.32957,-0.00055,-87.95262,53.64215,0.0032,88.22401,-3.75379,5.60777,0.00109,-15.80215,0.45363,-0.00454,1.37102,-1.93686,5.05123,-20.88771,-3.70745,3.94121,-7.01322,11.61825,-2.85283
1907,2.21275,0.0,-0.0,2.70702,0.0,0.0,9.93855,-3.39495,4.65663,12.00997,8.59941,1.35534,-30.28159,-2.26879,-5e-05,-116.32565,-1.3987,-0.00074,14.60371,8.96551,1.38855,69.74174,-13.80219,-15.81533,28.35749,29.21397,-41.20961,31.59878,-28.14395,37.66184,77.9963,0.00038,-88.17934,51.96039,0.02009,89.38006,-4.01321,4.8927,0.00605,-15.29933,-0.16422,-0.00552,1.54275,-1.92777,5.00445,-20.71698,-3.68133,3.9013,-8.40626,12.64758,-2.6848
1908,3.12149,0.0,0.0,4.36513,0.0,0.0,10.36747,-3.4026,4.92273,12.97464,9.24667,0.70863,-30.23835,-2.64756,0.00031,-116.75298,-1.49894,-0.00091,13.17418,9.93592,0.21914,72.41186,-14.67532,-16.92018,29.56046,30.15903,-41.81543,34.0514,-28.55847,38.33159,78.60686,-0.00378,-88.26489,50.46416,0.02339,91.10562,-4.5295,4.87743,0.00332,-14.82815,-0.36154,-0.00308,1.65451,-1.84449,4.51402,-20.61526,-3.41854,3.47842,-9.65208,13.7499,-2.49826
1909,4.22265,0.0,-0.0,5.79503,0.0,-0.0,10.7039,-3.28817,5.25876,13.97915,9.76412,0.14859,-30.2598,-3.07713,0.00062,-116.73191,-1.55541,-0.0013,11.86457,11.09399,-0.9751,74.942,-15.44762,-18.12015,30.89157,31.17926,-42.79313,36.35119,-28.95058,39.01043,79.19239,-0.00157,-88.34496,49.18505,0.00911,92.62589,-5.05164,5.73478,-0.00199,-14.76756,0.06688,-0.00372,1.69343,-1.78143,3.69973,-20.59179,-3.05165,2.74803,-10.80324,14.90023,-2.17689
1910,5.16769,0.0,-0.0,6.4617,-0.0,0.0,11.01026,-3.25015,5.40432,15.09739,9.84946,-0.25026,-30.23398,-3.37976,0.0003,-116.41135,-1.60624,-0.00159,10.43829,12.29191,-1.77626,77.35855,-16.14743,-19.27662,32.1839,32.26787,-43.77804,38.5591,-29.32239,39.82967,79.77011,0.00686,-88.95111,47.9626,-0.01372,93.16807,-5.60745,6.98646,-0.00383,-15.09473,0.74675,-0.00207,1.62282,-1.82941,2.82606,-20.67686,-2.76478,1.92079,-11.98171,15.98998,-1.77249
1911,5.90087,0.0,0.0,6.88811,0.0,-0.0,11.41451,-3.40853,5.28339,16.29278,9.48904,-0.61877,-30.08102,-3.53894,-0.00028,-116.0059,-1.4922,-0.00134,8.7355,13.34729,-2.16301,79.74865,-16.88753,-19.98322,33.28418,33.40776,-44.47408,40.70208,-29.67302,40.68263,80.35205,0.0096,-89.93443,46.60993,-0.03085,92.69044,-6.15251,7.83109,0.00024,-15.44384,1.15669,0.00571,1.45043,-2.01364,2.05565,-20.86036,-2.64299,1.13763,-13.27248,16.92011,-1.43595
1912,6.53025,0.0,0.0,7.67562,0.0,0.0,12.03339,-3.71631,4.93616,17.37194,9.07612,-1.12311,-29.89523,-3.66611,-0.0007,-115.64173,-0.98613,-0.00158,6.85725,14.27236,-2.3174,82.2276,-17.67838,-19.86909,34.18344,34.53093,-44.79265,42.77524,-30.0104,41.39595,80.86833,0.00235,-90.20016,45.04622,-0.02657,91.94258,-6.19938,7.92883,0.00159,-15.73127,1.22782,0.00919,1.24512,-2.30101,1.41428,-21.07407,-2.66548,0.43486,-14.62859,17.70746,-1.20799
1913,7.11181,-0.0,0.0,8.39922,0.0,-0.0,12.84722,-4.07442,4.38805,18.1017,9.08816,-1.75874,-29.89144,-3.8337,-0.00049,-115.28563,-0.02065,-0.00288,5.07137,15.23534,-2.33593,84.8533,-18.4354,-18.89503,35.00976,35.58357,-44.9131,44.7718,-30.33662,41.9408,81.17036,-0.00165,-88.91272,43.34793,0.00135,91.93198,-5.46506,7.70796,-0.00022,-16.47053,1.46828,-0.00682,1.04795,-2.59755,0.87146,-21.27701,-2.73382,-0.18015,-15.92198,18.45852,-0.99114
1914,7.69059,0.0,0.0,8.13746,-0.0,-0.0,13.68334,-4.40456,3.67937,18.42718,9.64863,-2.30565,-30.21009,-4.02998,0.00037,-114.7822,1.232,-0.00485,3.56875,16.32787,-2.23494,87.59484,-19.11386,-17.36008,35.88897,36.62325,-45.20659,46.67627,-30.65153,42.34535,81.20969,-6e-05,-86.74698,41.67524,0.02475,93.18904,-4.58667,7.81868,-0.00241,-18.14244,2.39646,-0.03715,0.83841,-2.79381,0.38615,-21.48869,-2.73121,-0.70372,-17.07057,19.25209,-0.66228
1915,8.43996,0.0,0.0,6.75124,0.0,-0.0,14.34845,-4.65133,3.00098,18.52461,10.47596,-2.59729,-30.79056,-4.2587,0.00135,-113.95025,2.48214,-0.00628,2.3923,17.44678,-2.13419,90.44807,-19.74765,-15.65585,36.76231,37.78302,-45.85056,48.43871,-30.98663,42.52045,81.17247,-0.00133,-85.25211,40.11137,0.01402,95.18305,-4.38532,8.54797,-0.0101,-20.26394,3.6911,-0.03904,0.57618,-2.87236,-0.06348,-21.74954,-2.63327,-1.14947,-18.01344,20.06209,-0.19116
1916,9.64953,0.0,-0.0,5.21985,0.0,0.0,14.75664,-4.76086,2.56853,18.63556,11.14805,-2.75772,-31.40858,-4.53241,0.00126,-112.736,3.70484,-0.00082,1.43235,18.34711,-2.1613,93.45052,-20.41694,-13.78373,37.32782,39.17182,-46.53829,49.96202,-31.40011,42.2844,81.40216,0.00108,-85.18241,38.57687,-0.01422,96.88769,-4.68916,9.70567,-0.00979,-21.45148,4.19034,-0.029,0.2114,-2.91379,-0.468,-22.11143,-2.51814,-1.53932,-18.66894,20.73425,0.29048
1917,11.39853,0.0,0.0,4.73881,0.0,-0.0,14.97263,-4.68404,2.32513,18.87258,11.33293,-3.10813,-31.87035,-4.78091,-0.0001,-111.25208,5.20903,0.01192,0.4797,18.83295,-2.14815,96.60651,-21.12449,-11.34895,37.29586,40.83628,-46.84266,51.12843,-31.92451,41.49989,82.16698,0.00873,-86.07424,36.93819,-0.01584,98.19881,-4.65911,10.79485,0.00045,-20.78263,3.12204,-0.0563,-0.31937,-2.98594,-0.82231,-22.63936,-2.45049,-1.89439,-19.00306,21.05658,0.63633
1918,13.13195,0.0,0.0,5.63185,0.0,0.0,15.19105,-4.48821,1.98989,19.15603,10.92531,-3.90305,-32.18838,-4.91677,-0.00111,-109.58232,6.94112,0.01359,-0.54114,18.97192,-1.7221,99.90059,-21.67469,-8.49143,36.74276,42.73872,-46.78661,51.86977,-32.556,40.22913,83.44251,0.01052,-87.1479,35.22865,0.0148,100.0443,-4.01068,11.36541,0.00216,-19.01285,1.17874,-0.05613,-1.05073,-3.07506,-1.17296,-23.36733,-2.39996,-2.25248,-19.0476,20.94415,0.93792
1919,13.97058,0.0,0.0,7.35645,0.0,0.0,15.58935,-4.40618,1.43344,19.29593,10.12056,-5.04361,-32.49387,-4.99509,-0.00078,-107.64987,8.25599,-0.00359,-1.51774,19.03769,-0.80644,103.25687,-21.86066,-6.1474,35.99949,44.76451,-46.72303,52.20668,-33.30635,38.8129,84.93756,0.00252,-87.98762,33.70155,0.03242,102.93533,-3.32969,11.41492,-0.00224,-18.00654,-0.06339,-0.02063,-1.92147,-3.10724,-1.63808,-24.23095,-2.2534,-2.69473,-18.85959,20.53208,1.43856
1920,13.61418,0.0,-0.0,9.21555,0.0,0.0,16.16236,-4.61244,0.83957,19.18013,9.38307,-6.05374,-32.81199,-5.19865,0.0002,-105.3654,8.84644,-0.01463,-2.41524,19.20917,0.19341,106.4934,-21.72379,-4.78554,35.16413,46.81433,-46.73735,52.17746,-34.23382,37.68251,86.3709,-0.00934,-88.48859,32.6505,0.01483,106.21597,-3.33332,11.39813,-0.00485,-18.9216,0.26872,-0.03167,-2.75934,-3.0204,-2.32216,-25.05404,-1.91382,-3.29417,-18.51235,20.02529,2.17647
1921,12.69024,0.0,0.0,10.71476,0.0,0.0,16.72617,-5.00024,0.4227,18.85538,9.23777,-6.57293,-33.04706,-5.61883,0.0003,-102.78513,9.12649,-0.00368,-3.39465,19.43913,0.81668,109.3934,-21.44364,-3.803,34.01596,48.86784,-46.52146,51.72784,-35.39972,36.99271,87.68571,-0.01494,-88.78353,32.25486,-0.00933,108.84325,-4.04002,11.66107,-0.00449,-21.2694,1.66999,-0.0501,-3.39369,-2.84573,-3.12085,-25.66725,-1.44973,-3.9663,-18.10595,19.52262,2.8958
1922,12.339,0.0,-0.0,11.89266,0.0,-0.0,17.00475,-5.3103,0.07592,18.32084,9.88904,-6.79512,-33.14656,-6.08314,-0.00028,-100.04224,9.38721,0.00819,-4.63367,19.6012,1.04941,111.78841,-21.12167,-2.57795,32.44526,50.90777,-45.80919,50.71694,-36.81151,36.41552,89.01485,-0.00733,-89.25758,32.53272,-0.0141,110.27456,-4.68753,11.90389,-0.00052,-23.68074,2.8427,-0.01944,-3.81095,-2.69615,-3.74265,-26.06587,-1.07599,-4.48452,-17.76982,19.02449,3.35321
1923,13.26934,0.0,0.0,13.50117,0.0,0.0,16.80769,-5.44903,-0.49681,17.42196,11.03337,-7.21822,-33.15414,-6.28733,-0.00035,-97.20154,9.44175,0.01184,-6.14406,19.61436,1.22346,113.60806,-20.81417,-1.13781,30.63881,52.86755,-44.63111,49.03342,-38.43122,35.32172,90.52782,0.01069,-90.26034,33.28081,-0.00646,110.59511,-4.55186,11.40637,-0.0087,-25.15725,2.61234,0.01068,-4.14174,-2.64038,-4.0835,-26.38585,-0.89545,-4.77857,-17.61367,18.51866,3.57393
1924,14.85261,-0.0,-0.0,16.11621,-0.0,-0.0,16.28544,-5.55936,-1.33156,16.13284,12.21048,-8.09533,-33.133,-6.10935,-8e-05,-94.18839,9.18415,0.01894,-7.76519,19.47019,1.49396,114.85693,-20.62655,0.27953,28.722,54.75246,-43.07521,46.65363,-40.22602,33.27644,92.29413,0.02403,-91.72789,34.1569,-0.00401,110.19232,-3.67031,9.83975,-0.02422,-25.54739,0.55731,-0.00014,-4.49871,-2.62708,-4.39261,-26.7327,-0.76628,-5.05939,-17.63295,18.02778,3.72557
1925,15.68427,-0.0,0.0,19.16563,0.0,0.0,15.83653,-5.77109,-2.16147,14.70652,13.48281,-9.19565,-33.12332,-5.69514,-9e-05,-90.72909,8.70309,0.01201,-9.29341,19.297,1.70962,115.48145,-20.66307,1.37211,26.40608,56.72445,-40.95509,43.56086,-42.17537,30.39544,94.2216,0.01982,-93.20239,35.0296,-0.00675,109.40372,-2.59805,7.80212,-0.01941,-25.26427,-2.64462,-0.01684,-4.87786,-2.53796,-4.91292,-27.0933,-0.48717,-5.50687,-17.69717,17.63672,3.88421
1926,15.3731,0.0,0.0,21.59345,0.0,0.0,15.63602,-6.01252,-2.7403,13.29155,15.54512,-9.88527,-33.13543,-5.28214,-0.00041,-86.35846,7.91013,-0.04087,-10.60485,19.30993,1.65288,115.2956,-20.94943,1.5716,23.06264,58.96019,-37.80886,39.67861,-44.20007,27.1658,96.18472,0.0006,-94.19044,36.11369,-0.00271,108.35452,-1.82515,6.4332,-0.00145,-24.9134,-5.44036,-0.0102,-5.21154,-2.29124,-5.58972,-27.40074,-0.00322,-6.03971,-17.66191,17.46069,3.99511
1927,15.01176,0.0,0.0,23.31255,0.0,-0.0,15.44822,-6.14348,-3.03779,11.58398,18.36538,-9.54952,-33.13646,-5.01303,-0.00089,-80.64892,6.73734,-0.09813,-11.70261,19.58337,1.17694,114.11035,-21.42622,0.47023,18.06232,61.43057,-33.17154,34.98927,-46.11925,24.01749,98.2209,-0.02198,-94.40459,37.58195,0.01181,106.95668,-1.63875,6.30494,0.00349,-25.09191,-6.56634,-0.00851,-5.51227,-1.91602,-6.23852,-27.67531,0.58897,-6.49849,-17.49468,17.52888,3.92458
1928,15.65072,0.0,0.0,25.07537,-0.0,0.0,14.9679,-6.20526,-3.25046,9.35903,19.96543,-8.40643,-33.07173,-4.82827,-0.00123,-73.52761,5.68298,-0.05391,-12.73684,19.97009,0.31518,111.86835,-21.97841,-1.53383,11.07871,63.83173,-26.77895,29.66491,-47.72888,21.09583,100.42593,-0.02631,-94.01277,39.24687,0.02431,105.10056,-2.1155,6.78967,0.00121,-26.05,-6.09631,-0.02454,-5.93561,-1.52384,-6.76368,-28.07775,1.15013,-6.83682,-17.31223,17.73657,3.50697
1929,17.07878,-0.0,-0.0,26.63166,0.0,0.0,14.15686,-6.42616,-3.66441,7.36828,18.07721,-7.86034,-32.90417,-4.50842,-0.00053,-65.44568,5.48474,0.07367,-13.94602,20.29534,-0.66892,108.65256,-22.51625,-3.47402,2.23966,65.72738,-18.6237,23.97394,-48.88694,18.20541,102.64342,-0.0058,-93.66028,40.73679,0.01932,103.01002,-2.95883,6.78898,0.00599,-27.25342,-5.16265,-0.02679,-6.64917,-1.17012,-7.15655,-28.77649,1.62578,-7.06743,-17.28242,17.93847,2.61788
1930,18.21719,0.0,0.0,26.18306,0.0,0.0,13.22289,-6.94135,-4.40099,6.65104,12.78648,-9.08677,-32.61686,-3.89765,0.0015,-57.34785,6.09171,0.11752,-15.45041,20.51101,-1.45373,104.75966,-23.01992,-4.72323,-7.75586,66.80717,-9.185,18.09361,-49.50184,14.93893,104.44601,0.00867,-93.63243,41.80508,0.0004,101.43019,-3.59686,5.93952,0.00479,-27.70042,-4.69929,-0.01627,-7.66701,-0.78682,-7.44783,-29.78529,2.09053,-7.19294,-17.43178,18.0179,1.28326
1931,18.24962,0.0,-0.0,22.65518,0.0,-0.0,12.39774,-7.58324,-5.27991,7.35041,6.14014,-11.66226,-32.19275,-3.09696,0.00312,-50.38485,6.64286,0.03899,-17.11303,20.63405,-1.86451,100.79475,-23.4766,-5.30274,-17.70968,67.09634,0.37341,12.05515,-49.53548,11.08839,105.44992,0.00819,-93.367,42.45661,-0.01324,101.19108,-3.70148,4.81646,-0.00287,-27.04481,-4.52829,-0.005,-8.86781,-0.32224,-7.68697,-30.98186,2.61096,-7.23961,-17.54837,17.87927,-0.24437
1932,17.35717,-0.0,0.0,17.02823,0.0,-0.0,11.72948,-8.04516,-5.98061,9.11062,-0.10437,-14.46532,-31.62536,-2.4041,0.002,-45.36886,6.59456,-0.03076,-18.66828,20.67735,-1.95438,97.42507,-23.87785,-5.41669,-26.63356,66.88212,8.86315,5.82643,-49.09379,6.92052,105.574,0.01402,-92.3746,42.86535,-0.01174,102.18127,-3.47972,4.09711,-0.00382,-25.97252,-3.86284,0.0045,-10.13948,0.14223,-7.91317,-32.25144,3.12642,-7.27437,-17.3499,17.49534,-1.62172
1933,16.55751,0.0,0.0,10.78053,-0.0,0.0,11.03136,-8.19718,-6.37017,11.32763,-4.87781,-16.8609,-30.95983,-2.05281,-0.00104,-42.2923,6.1902,-0.03287,-19.92795,20.67283,-1.91348,94.94102,-24.27903,-5.20224,-34.27706,66.35127,15.89578,-0.55837,-48.41803,2.92611,105.01947,0.0213,-91.07838,43.15699,-0.00053,103.08562,-3.288,3.89866,-0.00067,-25.27257,-2.4125,0.00114,-11.43179,0.50755,-8.13443,-33.54107,3.54814,-7.34196,-16.76862,16.95502,-2.70495
1934,16.83202,0.0,-0.0,5.35773,0.0,0.0,10.06099,-8.17435,-6.66946,12.68417,-6.66551,-18.81158,-30.30273,-2.00845,-0.00237,-40.39867,5.86461,-0.00921,-20.85991,20.68457,-1.79474,93.14616,-24.749,-4.8828,-40.59424,65.4782,21.55652,-6.88686,-47.68123,-0.57577,104.0574,0.01146,-90.49001,43.2851,0.00715,102.73045,-3.22216,3.99409,0.00123,-25.05716,-0.44205,-0.00366,-12.68993,0.78243,-8.31691,-34.79701,3.87149,-7.4077,-16.04422,16.39062,-3.60492
1935,18.21267,-0.0,0.0,2.55518,-0.0,0.0,8.79702,-8.22641,-7.2387,11.64905,-4.22288,-20.33284,-29.78557,-2.04827,-0.00122,-38.7845,5.7787,0.00955,-21.57111,20.80058,-1.43149,91.59388,-25.29269,-4.74157,-45.18735,64.35662,25.66012,-12.82911,-46.84084,-3.52598,102.84288,-0.01088,-91.3247,43.12315,0.00458,101.2316,-3.27385,4.29816,0.00053,-24.99279,1.79396,0.00204,-13.83781,1.03103,-8.40536,-35.94709,4.1351,-7.39605,-15.54242,15.9041,-4.44465
1936,19.67003,-0.0,-0.0,2.06743,0.0,0.0,7.5331,-8.51163,-8.20175,8.00747,1.13494,-20.95101,-29.51648,-2.02883,-0.0001,-36.92402,5.84766,0.01957,-22.17776,21.09835,-0.76253,89.91017,-25.84487,-4.8952,-47.62437,63.35714,27.82911,-18.17637,-45.73337,-5.98903,101.38124,-0.02307,-93.28151,42.62582,-0.00354,99.35585,-3.55562,4.84759,-0.00253,-24.88683,4.06049,0.008,-14.85002,1.28616,-8.36845,-36.96823,4.35756,-7.26546,-15.45243,15.5716,-5.22598
1937,20.09796,-0.0,0.0,0.27327,0.0,-0.0,6.65051,-8.97666,-9.38251,3.27062,5.82469,-20.39869,-29.53169,-1.97466,-2e-05,-34.69307,5.82475,0.01867,-22.63688,21.55784,-0.0234,88.02175,-26.29882,-5.22753,-47.87373,62.80552,27.96917,-22.91041,-44.27873,-8.01143,99.60827,-0.01924,-95.31673,41.86509,-0.01411,97.49879,-4.1818,5.48289,-0.00365,-24.9187,6.01023,0.00262,-15.75098,1.51261,-8.18377,-37.88453,4.4978,-7.00837,-15.65494,15.42524,-5.94147
1938,19.36786,0.0,-0.0,-5.26121,0.0,0.0,6.28296,-9.40105,-10.54312,-0.68683,7.59057,-19.3909,-29.77323,-1.94653,-0.00016,-32.08922,5.42253,0.00559,-22.81846,22.02414,0.48328,86.07098,-26.56204,-5.4923,-46.26735,62.67768,26.38384,-26.97813,-42.58505,-9.59263,97.49947,-0.01934,-96.7895,40.89674,-0.02193,95.8932,-5.0941,5.88866,0.00022,-25.37839,7.46295,-0.00819,-16.5046,1.60949,-7.79012,-38.65876,4.43921,-6.60616,-15.959,15.41382,-6.64655
1939,18.07431,0.0,-0.0,-12.24898,-0.0,0.0,6.28812,-9.59439,-11.53267,-3.47116,7.31822,-18.6077,-30.13642,-1.9627,0.00028,-29.03859,4.52991,-0.01491,-22.72002,22.28937,0.58971,84.12513,-26.64895,-5.50518,-43.29727,62.69867,23.58764,-30.16478,-40.89684,-10.77524,95.12102,-0.02032,-97.70909,39.66365,-0.01501,95.12939,-6.06974,6.00058,0.00322,-26.16471,8.60137,-0.01116,-16.99083,1.50582,-7.13916,-39.16935,4.09769,-6.04108,-16.37993,15.42771,-7.40507
1940,16.56804,-0.0,0.0,-17.06333,0.0,0.0,6.4986,-9.56697,-12.27732,-6.29885,7.06794,-17.87874,-30.51313,-2.02504,0.00159,-25.44354,3.29523,-0.03183,-22.45183,22.19518,0.24965,82.1373,-26.74104,-5.30486,-39.39448,62.64014,20.00556,-32.3255,-39.44521,-11.72978,92.59617,0.01108,-97.81608,38.12635,0.00906,95.80598,-6.85259,6.11396,0.0017,-26.68142,9.76863,0.00016,-17.14352,1.27052,-6.30058,-39.34774,3.56317,-5.35217,-17.01888,15.36042,-8.26007
1941,14.95649,0.0,0.0,-19.19949,0.0,-0.0,6.80325,-9.47883,-12.73925,-10.23532,7.768,-16.75371,-30.73467,-2.15778,0.00296,-21.37602,2.02503,-0.03205,-22.13111,21.67592,-0.45161,80.15907,-27.05957,-5.0599,-34.87533,62.43167,15.89642,-33.62089,-38.29501,-12.72855,90.10606,0.05753,-96.61588,36.38373,0.03324,97.91882,-7.24586,6.4373,0.00052,-26.47945,11.13862,0.01551,-17.04538,1.06681,-5.46031,-39.273,3.05694,-4.6503,-17.81426,15.13766,-9.20909
1942,13.77643,0.0,-0.0,-20.82084,-0.0,-0.0,7.04889,-9.41773,-12.90382,-14.88385,8.78579,-15.158,-30.55851,-2.42293,0.00212,-17.19132,1.02965,-0.01335,-21.91933,20.80494,-1.25163,78.36813,-27.62211,-4.94465,-30.22456,62.05607,11.67658,-34.35558,-37.34424,-14.0074,87.92503,0.05694,-94.62162,34.51208,0.04185,100.75933,-7.14872,6.77572,0.00041,-25.79829,12.49059,0.01563,-16.8503,1.00229,-4.79635,-39.09584,2.746,-4.05947,-18.59852,14.74855,-10.15667
1943,13.81727,0.0,0.0,-23.763,0.0,0.0,7.0935,-9.27647,-12.79511,-18.84409,9.06109,-13.47582,-29.82872,-2.88081,-0.0022,-13.44405,0.53208,0.01074,-21.96315,19.80968,-1.82109,76.90929,-28.19485,-5.15313,-26.07481,61.5083,7.92812,-34.66015,-36.50124,-15.58257,86.27193,0.01193,-93.41887,32.42614,0.02843,103.27274,-6.66317,6.80054,-0.00155,-25.23118,13.36735,0.0039,-16.65401,1.05159,-4.35385,-38.9117,2.62409,-3.63085,-19.25348,14.28363,-10.9499
1944,14.96741,0.0,-0.0,-27.68559,-0.0,0.0,7.00939,-8.93326,-12.41047,-21.13453,8.29501,-12.17354,-28.62856,-3.52837,-0.00694,-10.72783,0.62835,0.01956,-22.22064,18.93594,-2.01942,75.84276,-28.50582,-5.79744,-22.53361,60.86567,4.75167,-34.48344,-35.80261,-17.16509,85.04078,-0.02358,-93.98645,30.07755,-0.00511,104.61234,-6.13437,6.41496,-0.00202,-25.23088,13.60087,-0.00255,-16.43505,1.10562,-4.02894,-38.70114,2.55103,-3.30942,-19.72528,13.88885,-11.47624
1945,15.76069,0.0,0.0,-30.41382,-0.0,-0.0,7.12104,-8.48208,-11.69222,-21.87942,7.08732,-11.396,-27.24617,-4.27126,-0.00712,-9.49809,1.1838,0.00665,-22.5067,18.28447,-1.99228,75.1568,-28.47408,-6.77406,-18.93546,60.28162,1.54121,-33.82005,-35.33018,-18.29729,83.82671,-0.02918,-95.66019,27.6393,-0.03516,104.5835,-5.89684,5.80612,0.00105,-26.09242,13.50127,-0.00374,-16.10594,1.07343,-3.66767,-38.37903,2.38435,-2.98706,-20.04698,13.65074,-11.74361
1946,14.88884,-0.0,0.0,-30.25917,-0.0,0.0,7.67393,-8.12153,-10.70669,-21.82512,6.36593,-10.9001,-26.00543,-4.9584,-0.00267,-9.8357,1.81075,-0.00508,-22.67581,17.79216,-1.9295,74.77074,-28.21817,-7.75925,-14.67389,59.85953,-2.24129,-32.79912,-35.08222,-18.71128,82.31425,-0.01283,-97.12453,25.3561,-0.03836,103.66644,-5.99588,5.28994,0.00295,-27.79639,13.43646,-0.00628,-15.65486,0.92929,-3.19835,-37.93453,2.07309,-2.60718,-20.32905,13.51946,-11.88045
1947,12.90973,0.0,0.0,-28.10532,0.0,-0.0,8.50362,-7.86768,-9.72776,-21.52542,6.72572,-10.37963,-25.10178,-5.47377,0.00159,-11.3804,2.12916,0.00466,-22.60735,17.32891,-1.81043,74.65231,-27.8622,-8.26008,-10.02827,59.56853,-6.33155,-31.59686,-34.94854,-18.66566,80.58773,0.00834,-97.72347,23.36992,-0.01729,102.67451,-6.25378,5.12373,0.001,-29.61914,13.45242,-0.00653,-15.19912,0.69814,-2.68166,-37.48417,1.6633,-2.21657,-20.57397,13.35448,-12.01042
1948,11.53906,-0.0,-0.0,-26.31195,0.0,0.0,9.23313,-7.55836,-8.98981,-20.93761,8.00789,-9.80721,-24.5556,-5.79375,0.00288,-13.63342,2.10691,0.02136,-22.13467,16.83132,-1.53857,74.85073,-27.42588,-7.92467,-5.85352,59.32954,-9.95898,-30.36281,-34.79775,-18.79093,79.00193,0.01656,-97.56808,21.79396,0.00719,102.35932,-6.6126,5.3484,-0.00282,-30.49411,13.43404,-0.00377,-14.83759,0.43899,-2.22664,-37.12634,1.25096,-1.89373,-20.6209,13.09319,-12.14906
1949,11.44437,0.0,0.0,-25.76249,0.0,0.0,9.74578,-7.1645,-8.43989,-19.79988,9.39919,-9.24532,-24.286,-5.95144,0.00231,-16.30465,2.12459,0.01815,-21.22676,16.35794,-1.22788,75.25636,-26.92997,-6.98851,-2.59984,59.08798,-12.73409,-29.18173,-34.60152,-19.44678,77.81505,0.00755,-97.22601,20.77714,0.0135,102.96357,-7.31498,5.68949,-0.00279,-30.0333,13.43606,0.00046,-14.51233,0.21791,-1.88003,-36.80358,0.91493,-1.65684,-20.43466,12.84119,-12.24669
1950,11.67403,0.0,-0.0,-25.15945,-0.0,0.0,10.26049,-6.89476,-7.89509,-18.37272,10.02449,-8.50466,-24.21169,-5.95514,0.00146,-19.35375,2.63765,-0.00738,-20.09766,15.96432,-1.08425,75.60097,-26.4491,-6.12185,-0.03028,58.79528,-14.8974,-28.02383,-34.45708,-20.33424,77.02874,-0.00471,-97.29079,20.32173,0.00413,103.92021,-8.57127,5.72736,0.00617,-28.84108,13.57945,0.00359,-14.09719,0.07066,-1.60588,-36.39049,0.67469,-1.45901,-20.22297,12.71867,-12.24552
1951,11.19067,0.0,-0.0,-23.20797,0.0,-0.0,10.99163,-6.89947,-7.33737,-17.2902,9.64212,-7.48441,-24.31533,-5.76854,0.00025,-22.85455,3.70905,-0.02928,-18.90997,15.58225,-1.06722,75.8604,-25.93941,-5.77398,2.17195,58.44308,-16.74897,-26.74757,-34.47561,-20.81595,76.49992,-0.00719,-97.67242,20.15657,-0.00384,104.35416,-10.28009,5.38567,0.01149,-27.84822,13.79369,0.00129,-13.57566,0.00109,-1.31219,-35.87129,0.4989,-1.21366,-20.11246,12.68315,-12.07836
1952,10.03831,-0.0,-0.0,-20.32519,-0.0,-0.0,11.9093,-7.08043,-6.86759,-16.66637,8.84458,-6.58125,-24.63439,-5.39195,-0.00167,-26.88186,4.95377,-0.02595,-17.57895,15.12634,-0.93272,76.2987,-25.16783,-5.9035,3.94853,58.09101,-18.18646,-25.20311,-34.66761,-20.52335,76.08739,-0.00097,-97.62564,19.9996,-0.00548,104.05472,-12.16367,5.17074,-0.00099,-27.60851,13.9189,-0.00175,-13.04462,0.00268,-0.87225,-35.34319,0.33346,-0.80601,-19.98619,12.60594,-11.71093
1953,8.9171,0.0,-0.0,-17.80251,0.0,0.0,12.81062,-7.25321,-6.519,-15.95885,8.53008,-6.22825,-25.15024,-4.91651,-0.00277,-31.435,5.96482,-0.00647,-16.02601,14.63145,-0.54763,77.04163,-23.96749,-6.24079,5.07842,57.7991,-18.86215,-23.38759,-34.95232,-19.58231,75.7136,0.00567,-96.683,19.8947,-0.00294,103.59872,-13.71085,5.64175,-0.01177,-28.01097,13.8186,-0.00127,-12.57958,0.05775,-0.18939,-34.88041,0.1253,-0.15331,-19.72995,12.42942,-11.21428
1954,8.27948,-0.0,0.0,-16.23782,-0.0,-0.0,13.50694,-7.33785,-6.23613,-14.57921,9.05748,-6.45599,-25.69556,-4.47113,-0.00173,-36.40813,6.63143,0.00676,-14.39116,14.17616,-0.00912,77.91632,-22.46018,-6.6124,5.56918,57.5638,-18.63806,-21.47231,-35.25495,-18.32006,75.37116,0.0062,-95.34961,20.10328,-0.00074,103.49988,-14.29994,6.67803,-0.00216,-28.46834,13.34279,-0.00162,-12.16556,0.12868,0.69974,-34.46478,-0.14647,0.69623,-19.38853,12.1416,-10.73621
1955,8.03357,0.0,-0.0,-15.21385,0.0,-0.0,13.9352,-7.34222,-5.93113,-12.33412,9.96223,-7.152,-26.05157,-4.13333,6e-05,-41.60349,7.03452,0.00507,-12.84981,13.75228,0.5294,78.72668,-20.92062,-7.05542,5.70823,57.35117,-17.82205,-19.61408,-35.54762,-16.94888,75.10833,0.00272,-94.73217,20.67595,6e-05,103.72562,-13.94299,7.54364,0.0051,-28.55876,12.49431,-0.00447,-11.735,0.17471,1.61684,-34.02728,-0.45182,1.56224,-19.01804,11.6979,-10.34991
1956,7.90496,0.0,-0.0,-14.14495,0.0,0.0,14.13741,-7.25934,-5.50299,-9.43862,10.54951,-8.26017,-26.1263,-3.88992,0.00092,-46.771,7.25791,-0.0096,-11.39272,13.30325,1.04551,79.43714,-19.49764,-7.68968,5.81523,57.14134,-16.96604,-17.83163,-35.82024,-15.58288,74.96676,0.00099,-95.46357,21.33311,-0.00109,104.17033,-13.45953,7.59721,0.00412,-28.40525,11.5474,-0.00366,-11.25131,0.1756,2.38272,-33.53386,-0.74146,2.27128,-18.5512,11.08302,-9.95826
1957,7.70954,0.0,-0.0,-12.99985,0.0,-0.0,14.19367,-7.11812,-4.88338,-6.31408,10.51407,-9.62813,-25.9909,-3.6572,0.00105,-51.68959,7.32651,-0.02589,-9.91872,12.83841,1.61027,80.02702,-18.16168,-8.55922,6.0517,56.89069,-16.45539,-16.11094,-36.07188,-14.3718,74.87556,-0.00155,-97.22996,21.82409,-0.00525,104.97043,-13.56439,6.7579,0.00964,-28.30538,10.77831,-8e-05,-10.75528,0.1542,2.93056,-33.0288,-0.96895,2.77016,-17.9011,10.40578,-9.41271
1958,7.30282,0.0,0.0,-11.93515,0.0,0.0,14.18173,-7.06438,-4.14456,-3.45165,9.9934,-10.91876,-25.79516,-3.33133,0.00084,-56.25156,7.07683,-0.01638,-8.39308,12.43651,2.2532,80.37127,-16.83679,-9.71583,6.4319,56.50607,-16.28743,-14.47374,-36.32753,-13.44979,74.64104,-0.00601,-99.20728,22.2077,-0.00771,105.90823,-14.19424,5.50056,0.01144,-28.29799,10.20725,0.00154,-10.30955,0.18211,3.26442,-32.57641,-1.06965,3.08974,-17.10363,9.83919,-8.70283
1959,6.76032,0.0,0.0,-10.84954,-0.0,-0.0,14.11112,-7.2366,-3.45658,-1.26696,9.3182,-11.74996,-25.67768,-2.87048,4e-05,-60.46852,6.12642,0.02727,-6.81602,12.1453,2.91346,80.37865,-15.46743,-11.3031,6.87023,55.94237,-16.20967,-12.92562,-36.6279,-12.75674,74.10782,-0.00222,-100.51895,22.72346,0.00065,106.14135,-14.90373,4.56509,0.00235,-28.19454,9.79817,0.00198,-9.94475,0.30955,3.40974,-32.20767,-1.00677,3.27254,-16.26093,9.44302,-7.97186
1960,6.42602,0.0,0.0,-9.69815,0.0,0.0,13.90735,-7.62761,-2.86894,0.13539,8.65823,-11.89091,-25.70538,-2.34997,-0.00088,-64.408,4.38058,0.05977,-5.15412,11.94048,3.47837,80.11838,-14.04989,-13.24853,7.19956,55.29788,-16.02522,-11.46065,-36.98114,-12.09414,73.32182,0.00915,-100.67853,23.5419,0.01766,105.13468,-15.44737,4.36934,-0.00523,-27.79679,9.68977,0.00399,-9.70293,0.48875,3.45563,-31.96374,-0.85831,3.38292,-15.39862,9.11021,-7.37352
1961,6.50168,-0.0,0.0,-8.77703,0.0,0.0,13.51567,-8.10259,-2.26362,0.98231,7.90775,-11.30782,-25.86122,-1.92633,-0.00085,-68.14892,2.49896,0.0388,-3.35803,11.804,3.81124,79.72501,-12.71318,-15.02453,7.24458,54.71855,-15.70302,-10.07481,-37.3476,-11.39052,72.48737,0.01147,-100.0829,24.61499,0.02243,103.40637,-15.7199,4.64682,-0.00433,-27.06532,9.87084,0.00346,-9.63706,0.62437,3.53958,-31.89523,-0.76459,3.51199,-14.45595,8.73048,-6.96458
1962,6.94944,0.0,0.0,-8.47716,-0.0,0.0,12.94957,-8.46839,-1.5771,1.56616,7.04243,-10.13664,-26.0798,-1.72764,1e-05,-71.75953,1.32369,-0.00671,-1.40409,11.7694,3.7903,79.26391,-11.66154,-16.10893,6.95625,54.23285,-15.28928,-8.72982,-37.71217,-10.66864,71.74699,0.00371,-99.56927,25.65157,0.0081,102.00365,-15.55716,4.94033,0.00016,-26.18782,9.91554,-0.00398,-9.7007,0.68386,3.70807,-31.95455,-0.77335,3.69047,-13.38928,8.33019,-6.70991
1963,7.64682,0.0,0.0,-8.719,0.0,-0.0,12.26904,-8.56896,-0.95782,2.01134,6.31282,-8.74583,-26.292,-1.72573,0.0005,-75.26743,0.98907,-0.02386,0.68605,11.82474,3.45652,78.75612,-10.96533,-16.5028,6.54327,53.76247,-14.95839,-7.36024,-38.12616,-9.829,71.03458,-0.00385,-99.47141,26.28699,-0.00419,101.56455,-15.00205,5.09317,0.00334,-25.54075,9.4484,-0.00768,-9.7232,0.71795,3.86496,-31.97296,-0.8012,3.84859,-12.21723,7.97729,-6.53579
1964,8.25727,0.0,0.0,-8.74769,-0.0,-0.0,11.61153,-8.39649,-0.59318,2.28285,5.99512,-7.67126,-26.44488,-1.748,0.00027,-78.6408,1.11401,-0.01516,2.82014,11.84358,3.05906,78.20589,-10.50695,-16.45217,6.39123,53.25478,-15.06523,-5.8921,-38.6287,-8.76313,70.19376,-0.00829,-99.63808,26.33624,-0.00365,101.9004,-14.52397,4.89329,0.00659,-25.52355,8.56189,0.00094,-9.55482,0.78495,3.93792,-31.80235,-0.76681,3.94148,-10.99341,7.62879,-6.38016
1965,8.38072,0.0,0.0,-7.94498,-0.0,0.0,11.13491,-8.0961,-0.43104,2.37032,6.19883,-7.23547,-26.51165,-1.68025,1e-05,-81.79575,1.53938,-0.01293,4.8359,11.71954,2.81261,77.5192,-10.13035,-15.97025,6.67251,52.73918,-15.82299,-4.27501,-39.18315,-7.5721,69.2112,-0.00665,-99.82358,25.93536,-0.00218,102.19422,-14.54352,3.95365,0.01135,-26.22437,7.56234,0.01091,-9.20733,0.88329,4.00057,-31.45272,-0.69951,4.0367,-9.80143,7.18662,-6.22893
1966,7.84317,0.0,-0.0,-6.51748,0.0,0.0,10.89572,-7.83492,-0.24171,2.37636,6.79445,-7.25333,-26.51392,-1.59081,6e-05,-84.65122,2.26119,-0.01517,6.58998,11.5256,2.74992,76.52369,-9.75809,-15.05919,7.11787,52.27851,-16.99551,-2.60294,-39.74174,-6.46381,68.23046,0.00341,-99.64945,25.50473,-0.00115,101.71289,-14.86027,2.46727,0.00622,-27.21917,6.72211,0.00962,-8.81752,0.97564,4.12142,-31.05921,-0.65978,4.18351,-8.74253,6.64884,-6.09614
1967,6.59098,0.0,0.0,-4.87533,0.0,0.0,10.85322,-7.69411,0.07008,2.39529,7.3723,-7.18208,-26.5121,-1.61567,0.00035,-87.18459,2.97847,-0.0062,8.07448,11.46225,2.86771,75.14188,-9.40058,-14.09975,7.34919,51.90165,-18.15708,-1.09492,-40.33143,-5.51102,67.31932,0.01198,-98.91107,25.44091,0.00475,100.54828,-14.89277,1.46234,-0.0017,-27.89479,6.31199,0.00223,-8.49029,1.05264,4.20648,-30.72927,-0.62069,4.29139,-7.85498,6.11306,-5.95933
1968,5.11115,0.0,0.0,-3.11894,0.0,-0.0,10.82311,-7.68939,0.4494,2.45562,7.55042,-6.56838,-26.5255,-1.81771,0.00057,-89.42667,3.36083,0.00328,9.44107,11.62421,3.11646,73.48709,-9.14526,-13.4788,7.33033,51.57867,-19.15386,0.18139,-41.01661,-4.63616,66.33074,0.0043,-98.14648,25.71455,0.00602,99.52406,-14.31726,1.84439,0.01195,-28.05928,6.37776,-0.00024,-8.23723,1.1302,4.1268,-30.47817,-0.51875,4.247,-7.04856,5.63882,-5.77166
1969,4.62913,-0.0,0.0,-1.3696,0.0,-0.0,10.49335,-7.80726,0.89904,2.55597,7.35888,-5.43537,-26.47214,-2.15435,0.00022,-91.43158,3.44092,0.00286,10.84497,11.83468,3.30366,71.74864,-9.11077,-13.09089,7.28381,51.25133,-20.085,1.40296,-41.79952,-3.78748,65.086,-0.01707,-98.20795,25.92027,0.00312,99.27181,-13.23026,3.45083,0.03185,-28.09253,6.50258,0.00232,-8.04847,1.19516,3.90905,-30.29521,-0.37622,4.07009,-6.18697,5.14168,-5.5488
1970,5.58366,0.0,0.0,0.14832,0.0,0.0,9.80536,-7.97344,1.42207,2.60186,7.03672,-4.25442,-26.24726,-2.50769,-0.00032,-93.24332,3.29318,0.00313,12.26886,11.82022,3.32225,70.01962,-9.32166,-12.69278,7.25658,50.86687,-20.96144,2.72258,-42.61858,-3.02043,63.64633,-0.02278,-99.1046,25.77843,0.00232,99.6032,-11.9187,5.14262,0.02507,-28.35547,6.17229,0.00673,-7.94638,1.20155,3.69286,-30.19879,-0.28846,3.87245,-5.22278,4.4844,-5.37929
1971,6.80628,-0.0,-0.0,1.27878,0.0,-0.0,9.12528,-8.07122,1.9408,2.44122,6.63038,-3.49198,-25.85304,-2.79856,-0.00058,-94.8652,2.80801,0.00844,13.56901,11.53988,3.26772,68.25114,-9.6531,-12.34316,7.07943,50.39312,-21.68556,4.08153,-43.42243,-2.44411,62.25356,-0.00282,-99.98526,25.41807,0.00084,99.88005,-10.63256,5.68651,-0.00425,-28.64491,5.37898,0.00591,-7.95345,1.14156,3.57603,-30.20892,-0.29975,3.74163,-4.21521,3.65945,-5.33049
1972,7.141,-0.0,0.0,1.98135,0.0,0.0,8.79103,-8.06602,2.41252,2.04307,6.08558,-3.21363,-25.40298,-3.05534,-0.0007,-96.25716,2.07803,0.00841,14.64059,11.18911,3.22314,66.3076,-9.95346,-12.08879,6.74711,49.82115,-22.29913,5.31988,-44.1978,-2.16024,61.00083,0.01341,-100.39762,25.16961,-0.00058,99.82526,-9.4809,4.67445,-0.02538,-28.53234,4.63943,0.00172,-8.01731,1.09175,3.5743,-30.27293,-0.34519,3.72116,-3.2767,2.78605,-5.37124
1973,6.6478,0.0,0.0,2.27932,0.0,0.0,8.76598,-8.0572,2.76773,1.5615,5.49201,-3.15491,-25.03125,-3.28877,-0.00036,-97.34725,1.51533,0.00115,15.48942,10.93617,3.25384,64.06554,-10.16913,-11.68779,6.49973,49.15432,-22.96988,6.34254,-44.96831,-2.18818,59.75319,0.00573,-100.81593,25.2223,-0.00163,99.77681,-8.52783,2.74167,-0.0216,-28.06227,4.3849,0.00121,-8.00511,1.15164,3.67212,-30.25815,-0.3268,3.83436,-2.50609,1.97035,-5.39455
1974,6.1318,0.0,-0.0,2.19093,0.0,0.0,8.77509,-8.15531,2.8662,1.21205,5.0158,-3.0496,-24.83327,-3.4365,0.00021,-98.06705,1.41569,-0.00388,16.24671,10.78931,3.44783,61.54662,-10.35734,-10.92701,6.44839,48.41025,-23.72303,7.17428,-45.80216,-2.40989,58.41618,-0.0146,-101.83859,25.48226,-0.00276,100.15197,-7.9019,0.93583,-0.00443,-27.72046,4.56268,0.00031,-7.84352,1.33607,3.8488,-30.0916,-0.22299,4.06768,-1.88515,1.23713,-5.31967
1975,6.45768,-0.0,-0.0,1.85063,0.0,0.0,8.54167,-8.3613,2.73928,1.09629,4.74021,-2.80397,-24.84215,-3.50816,0.00042,-98.40419,1.68742,-0.00297,17.12003,10.65554,3.70238,58.93905,-10.63631,-9.91485,6.36225,47.63266,-24.33107,7.92055,-46.76885,-2.64847,57.08425,-0.02237,-103.3612,25.69666,-0.00119,100.90514,-7.69976,-0.06447,0.0049,-27.81188,4.83914,-0.0014,-7.62795,1.54041,4.07741,-29.86944,-0.12037,4.35656,-1.26188,0.5376,-5.17645
1976,7.73006,-0.0,0.0,1.47899,0.0,-0.0,8.03833,-8.58207,2.60578,1.19729,4.68573,-2.47715,-25.01189,-3.59543,0.00037,-98.38992,1.99965,-0.00091,18.1898,10.44511,3.8103,56.38012,-11.07661,-8.96943,5.91481,46.86911,-24.49936,8.68026,-47.86395,-2.78292,55.89375,-0.00913,-104.55309,25.71361,0.00113,101.61989,-7.80853,-0.30881,0.00249,-28.21901,4.91743,-0.00071,-7.50164,1.62353,4.32876,-29.73558,-0.13852,4.62059,-0.52987,-0.20918,-5.0681
1977,9.24008,0.0,0.0,1.14942,-0.0,0.0,7.5305,-8.67619,2.60271,1.47986,4.85041,-2.17983,-25.25231,-3.73468,0.00023,-98.04472,2.11441,-0.00149,19.33638,10.13122,3.79988,53.83526,-11.62481,-8.28075,5.00453,46.12175,-24.13782,9.4877,-49.02155,-2.77073,54.87968,0.00876,-104.60944,25.60771,0.00091,101.96872,-7.91089,-0.39168,-0.00262,-28.72084,4.73423,0.00055,-7.47757,1.54783,4.55534,-29.70457,-0.29428,4.8016,0.2709,-1.05508,-5.04552
1978,10.73303,-0.0,0.0,0.84559,0.0,0.0,7.21101,-8.5149,2.72892,1.85529,5.12604,-1.99215,-25.5025,-3.90949,0.00019,-97.37315,2.09581,-0.00331,20.45009,9.75578,3.87855,51.28048,-12.16341,-7.72066,3.79366,45.35441,-23.45488,10.35527,-50.19567,-2.63562,53.97409,0.01391,-103.60924,25.50601,-0.00107,101.95345,-7.80782,-0.72231,-0.00535,-29.25299,4.48402,0.00039,-7.46257,1.43849,4.67515,-29.686,-0.4408,4.87112,1.08391,-1.99099,-5.03297
1979,12.5096,-0.0,-0.0,0.61506,0.0,-0.0,7.01468,-8.14923,2.94664,2.1388,5.29199,-1.97643,-25.74833,-4.10481,0.00022,-96.37387,2.14032,-0.00396,21.51665,9.40567,4.15591,48.77047,-12.60486,-7.09297,2.54588,44.57155,-22.79813,11.35122,-51.3667,-2.4566,53.05291,0.00712,-102.38007,25.36446,-0.00341,101.75966,-7.69422,-1.05508,-0.00479,-29.78244,4.34311,-5e-05,-7.39646,1.48797,4.62556,-29.62134,-0.37625,4.84395,1.89334,-2.95977,-4.9019
1980,14.25924,0.0,-0.0,0.58715,0.0,-0.0,6.86393,-7.84572,3.21519,2.18845,5.19365,-2.19578,-25.9964,-4.27117,6e-05,-95.01775,2.33582,-0.00107,22.51795,9.16364,4.55923,46.28648,-12.91379,-6.42904,1.47525,43.84602,-22.41142,12.54107,-52.48151,-2.36004,51.99152,0.00022,-101.52744,25.06149,-0.00344,101.64008,-7.88192,-1.02084,-0.00447,-30.17913,4.33804,-0.00037,-7.29782,1.78327,4.44572,-29.52803,-0.0349,4.78925,2.66169,-3.88408,-4.63426
1981,15.14024,-0.0,-0.0,1.02594,-0.0,0.0,6.82013,-7.82687,3.52048,2.04942,4.9106,-2.70522,-26.256,-4.33778,-0.00027,-93.24425,2.70572,0.00813,23.40796,9.06185,4.93412,43.71076,-13.07914,-5.84907,0.65805,43.23859,-22.31626,13.85378,-53.4811,-2.47015,50.71644,-0.00142,-101.04712,24.61342,0.00084,101.95412,-8.30184,-0.69327,-0.00375,-30.43464,4.5751,-0.00274,-7.21903,2.20931,4.28036,-29.45503,0.422,4.79748,3.3449,-4.69701,-4.3329
1982,14.70248,0.0,0.0,2.1963,0.0,0.0,6.99588,-8.03764,3.88444,1.92938,4.63764,-3.54158,-26.51975,-4.30531,-0.00039,-91.01683,3.22941,0.01704,24.15601,9.08668,5.23615,40.98793,-13.0939,-5.37296,-0.00506,42.73471,-22.34641,15.13932,-54.39659,-2.76333,49.25581,-0.00264,-100.78191,24.10155,0.00487,102.83775,-8.53123,-0.2965,-0.00024,-30.76304,5.159,-0.00689,-7.19208,2.54233,4.31335,-29.42827,0.71778,4.95401,3.95725,-5.37909,-4.03255
1983,13.09482,-0.0,0.0,3.93617,-0.0,0.0,7.46992,-8.21173,4.32083,2.05412,4.40817,-4.65827,-26.7464,-4.25744,-0.00013,-88.38253,3.69204,0.01005,24.78251,9.20325,5.60602,38.24271,-12.97444,-5.05648,-0.7059,42.28138,-22.28427,16.35944,-55.33295,-3.04682,47.74535,-0.00522,-100.68755,23.51319,0.00172,103.77676,-8.31466,0.18861,0.00412,-31.22698,5.74263,-0.00703,-7.18938,2.65896,4.6616,-29.41428,0.69412,5.3202,4.582,-5.97695,-3.61306
1984,10.96926,0.0,-0.0,5.58354,0.0,-0.0,8.19453,-8.13612,4.83187,2.48966,4.13464,-5.87567,-26.85785,-4.25192,0.00013,-85.44125,3.79251,-0.01237,25.33155,9.34557,6.18657,35.66179,-12.78317,-5.05369,-1.56742,41.82909,-22.00859,17.6257,-56.34824,-3.17892,46.32102,-0.00469,-100.67325,22.83432,-0.00629,104.09264,-7.8462,0.84834,0.00519,-31.55268,5.69075,-0.00452,-7.14438,2.61253,5.25476,-29.3472,0.42712,5.85123,5.29246,-6.56304,-2.9695
1985,9.20485,0.0,0.0,6.48094,0.0,-0.0,8.96127,-7.86636,5.44352,3.08279,3.86969,-6.97663,-26.79513,-4.25234,0.00025,-82.24979,3.52499,-0.02656,25.80071,9.41324,6.88724,33.25948,-12.61448,-5.37921,-2.5984,41.32488,-21.49282,19.07129,-57.40047,-3.21252,45.046,0.00121,-100.52287,22.17001,-0.00723,103.91083,-7.39409,1.50389,0.00129,-31.54169,4.9187,-0.00407,-7.03078,2.49826,5.86401,-29.20879,0.09144,6.37163,6.05036,-7.16814,-2.20248
1986,8.13442,0.0,-0.0,6.39024,-0.0,0.0,9.57864,-7.66105,6.17628,3.60962,3.7934,-7.86521,-26.62472,-4.20928,0.00023,-78.7851,3.25497,-0.01538,26.16449,9.34846,7.40061,30.85955,-12.52425,-5.7901,-3.73565,40.73886,-20.75457,20.67849,-58.4033,-3.36049,43.97725,0.00748,-100.05875,21.64934,3e-05,104.10342,-6.85983,1.73653,-0.00636,-31.41729,4.06763,-0.00179,-6.88263,2.34638,6.29531,-29.04205,-0.21181,6.71339,6.71803,-7.76446,-1.52581
1987,7.41506,0.0,0.0,5.5351,0.0,-0.0,10.0085,-7.65595,6.93485,3.94645,3.95566,-8.5546,-26.53679,-4.14706,3e-05,-75.01353,3.33406,0.00986,26.47916,9.22305,7.53682,28.35054,-12.4643,-6.00727,-4.82418,40.11489,-19.93128,22.16525,-59.31424,-3.88929,43.15706,0.00505,-99.54402,21.32232,0.00443,105.17813,-6.06053,1.30378,-0.01347,-31.63093,3.71651,-0.00122,-6.70791,2.19079,6.49826,-28.85858,-0.43239,6.84253,7.20473,-8.30904,-0.9871
1988,6.83852,0.0,0.0,4.42567,0.0,0.0,10.27389,-7.71957,7.51839,4.10053,4.2282,-8.99711,-26.66865,-4.12834,5e-05,-70.9799,3.76888,0.02471,26.87299,9.19177,7.47542,25.85282,-12.3319,-5.96726,-5.66349,39.53515,-19.22678,23.11742,-60.16986,-4.89253,42.51228,-0.00574,-99.70351,21.22007,0.00204,106.65957,-5.23069,0.45883,-0.01033,-32.41443,3.88721,-0.00475,-6.43125,2.11295,6.54341,-28.58012,-0.52149,6.85497,7.56245,-8.79051,-0.42411
1989,6.64661,0.0,0.0,3.53664,0.0,0.0,10.3636,-7.70118,7.83687,4.1625,4.50824,-9.02548,-26.95402,-4.19526,0.00027,-66.80542,4.29802,0.01936,27.39899,9.35041,7.53724,23.56557,-12.07856,-5.83825,-6.2202,39.02676,-18.64062,23.33452,-61.00513,-6.20376,41.91279,-0.01353,-100.8252,21.40356,-0.00069,107.72718,-4.79528,-0.30347,-0.00092,-33.42006,4.22253,-0.00535,-5.9791,2.14468,6.58651,-28.1259,-0.50834,6.90683,7.91408,-9.23607,0.28027
1990,7.05046,0.0,0.0,3.09433,-0.0,-0.0,10.24471,-7.6236,8.01888,4.23709,4.78615,-8.48662,-27.19421,-4.36008,8e-05,-62.59523,4.65755,0.00346,27.97316,9.65902,7.81725,21.55023,-11.74925,-5.86117,-6.68502,38.53432,-17.96161,23.03573,-61.77065,-7.59642,41.28016,-0.00863,-102.15558,21.87741,-0.00054,108.08923,-4.81054,-0.70286,0.00323,-33.84185,4.27595,-0.00664,-5.39813,2.24304,6.77255,-27.53599,-0.48731,7.11611,8.33555,-9.69111,1.05128
1991,8.0064,0.0,0.0,3.12822,-0.0,0.0,9.89436,-7.53961,8.22201,4.36162,5.06581,-7.43232,-27.26873,-4.59964,-0.00041,-58.3694,4.74727,-0.00769,28.48257,10.00358,8.18603,19.71255,-11.41661,-6.17424,-7.19028,37.9851,-17.1258,22.68347,-62.39262,-8.88714,40.56031,0.00507,-102.67535,22.52931,-0.00121,108.01241,-4.94202,-0.80045,0.00275,-33.2452,3.82689,-0.01334,-4.83621,2.39555,7.10462,-26.95757,-0.47102,7.48093,8.80235,-10.18095,1.75214
1992,9.24874,0.0,0.0,3.49115,0.0,0.0,9.39039,-7.4363,8.46816,4.52314,5.36253,-6.18036,-27.24122,-4.8535,-0.00043,-54.1113,4.63219,-0.00812,28.90735,10.32466,8.51074,17.94263,-11.08236,-6.75013,-7.6664,37.36244,-16.29068,22.59397,-62.8732,-9.8739,39.76023,0.01325,-102.19205,23.22302,-0.0022,107.76256,-4.89992,-0.80565,0.00214,-32.21434,3.0719,-0.01039,-4.41814,2.62539,7.47212,-26.52019,-0.39628,7.9076,9.22927,-10.66887,2.32826
1993,10.02536,0.0,-0.0,3.80867,0.0,0.0,9.00717,-7.38529,8.78621,4.7638,5.73491,-5.14468,-27.23313,-5.07358,-6e-05,-49.86856,4.41253,-0.00486,29.30717,10.64752,8.73265,16.24735,-10.68361,-7.47676,-8.09971,36.70172,-15.46257,22.74616,-63.28256,-10.35848,39.05341,0.00822,-101.34959,23.92867,0.00126,107.26001,-4.75427,-0.68864,0.00075,-31.77553,2.40735,0.00206,-4.16102,2.89746,7.82548,-26.24351,-0.27694,8.33696,9.58553,-11.08538,2.80735
1994,9.49253,0.0,0.0,3.77492,0.0,-0.0,9.00872,-7.48903,9.30822,5.15753,6.21654,-4.60888,-27.23407,-5.2602,1e-05,-45.74906,4.11546,-0.00525,29.69914,10.97701,8.84886,14.70357,-10.21055,-8.2868,-8.64048,36.04365,-14.42927,22.86993,-63.67912,-10.32317,38.66505,-0.00027,-100.80157,24.73727,0.00715,106.36416,-4.8333,-0.09067,-0.00599,-32.31526,2.138,0.00508,-3.9735,3.13797,8.22864,-26.03282,-0.20533,8.80044,9.92211,-11.42727,3.24278
1995,7.74822,0.0,-0.0,3.48706,-0.0,-0.0,9.32237,-7.6358,10.05748,5.68346,6.68418,-4.70512,-27.13572,-5.41057,-0.00012,-41.82809,3.75197,-0.00487,30.02703,11.23297,8.91816,13.30773,-9.75285,-9.18352,-9.32413,35.41599,-13.1623,22.61208,-64.06886,-10.09892,38.6407,-0.00267,-100.73404,25.76422,0.00571,105.34476,-5.33378,1.09561,-0.01391,-33.39709,2.42787,-0.00225,-3.7199,3.32585,8.71001,-25.7502,-0.21157,9.31643,10.25695,-11.78059,3.66522
1996,5.73248,-0.0,0.0,3.21161,0.0,-0.0,9.63731,-7.62293,10.84378,6.21272,6.88699,-5.52631,-26.93392,-5.49497,-1e-05,-38.11582,3.41454,0.00282,30.27612,11.3438,8.99737,11.97468,-9.39402,-10.1322,-9.9427,34.82396,-11.92936,21.75008,-64.41557,-10.21118,38.83735,-0.00067,-101.0685,27.05669,-0.00479,104.68796,-6.08672,2.32461,-0.00989,-34.40262,3.23901,-0.00557,-3.34595,3.47698,9.1712,-25.34696,-0.24405,9.7999,10.52345,-12.21166,4.05968
1997,4.16584,-0.0,-0.0,2.96194,0.0,-0.0,9.77328,-7.42462,11.44189,6.60153,6.6853,-7.04842,-26.78878,-5.50461,0.00022,-34.60799,3.16966,0.00969,30.52492,11.34994,9.07453,10.6469,-9.10763,-11.07751,-10.28518,34.251,-10.95105,20.41907,-64.65731,-10.88771,39.09363,0.00103,-101.69033,28.56395,-0.01056,104.46535,-6.73664,2.93598,0.00115,-35.06781,4.25596,-0.00211,-2.95578,3.57742,9.50665,-24.93458,-0.27628,10.14796,10.64575,-12.68657,4.36832
1998,3.11423,0.0,-0.0,2.51195,0.0,0.0,9.78694,-7.14747,11.76368,6.7637,6.22424,-8.97957,-26.87743,-5.46349,0.00026,-31.34397,2.90278,0.00515,30.87077,11.35422,9.10565,9.35665,-8.7837,-12.04487,-10.34676,33.6902,-10.22608,19.06554,-64.74377,-11.80909,39.31998,0.0004,-102.39219,30.15413,-0.00237,104.24667,-7.07899,2.83951,0.00532,-35.54882,5.08216,0.00076,-2.68127,3.61065,9.72882,-24.645,-0.32842,10.36602,10.61382,-13.1295,4.52733
1999,2.40255,-0.0,0.0,1.7777,0.0,-0.0,9.76936,-6.88582,11.87675,6.66455,5.8224,-10.87313,-27.23077,-5.3924,5e-05,-28.41542,2.43634,-0.00579,31.34749,11.41162,9.08836,8.21776,-8.3404,-13.04437,-10.25152,33.1592,-9.74701,17.99535,-64.68821,-12.54476,39.45829,-0.00118,-102.83952,31.69344,0.00821,103.66823,-7.27156,2.47444,0.00196,-36.11853,5.49648,0.00218,-2.49894,3.6174,9.91581,-24.44978,-0.39194,10.54164,10.48691,-13.50469,4.54782
2000,1.91002,0.0,0.0,0.9827,0.0,-0.0,9.70281,-6.66525,11.87059,6.29758,5.70141,-12.33006,-27.71838,-5.27351,-0.00043,-25.90913,1.74805,-0.01164,31.8913,11.4982,9.11623,7.32374,-7.80511,-14.02668,-10.03965,32.67132,-9.65421,17.03588,-64.55101,-13.10741,39.42274,-0.00028,-102.7463,33.16256,0.00533,102.90942,-7.72538,2.36262,-0.00585,-36.812,5.49923,0.00353,-2.27992,3.65934,10.10726,-24.21722,-0.42444,10.73453,10.31959,-13.81806,4.52431
2001,1.51105,0.0,0.0,0.40667,0.0,-0.0,9.5422,-6.45966,11.79247,5.74862,5.84736,-13.1566,-28.16439,-5.07964,-0.0007,-23.83983,1.0288,-0.0077,32.40504,11.55574,9.29403,6.66955,-7.29071,-14.91411,-9.61466,32.20996,-10.01003,15.8489,-64.35522,-13.81544,39.15182,0.0035,-102.06191,34.66469,-0.00757,102.43472,-8.60219,2.65611,-0.01193,-37.42999,5.2845,0.0029,-1.96478,3.72232,10.32016,-23.88671,-0.44536,10.95515,10.127,-14.09053,4.52773
2002,1.21636,0.0,-0.0,0.14808,-0.0,-0.0,9.29533,-6.30213,11.80749,5.26563,6.09749,-13.54278,-28.44839,-4.86462,-0.00033,-22.15655,0.57386,0.0017,32.87641,11.55846,9.54789,6.24021,-6.90199,-15.45679,-8.95291,31.73658,-10.55446,14.4827,-64.05917,-14.71437,38.75707,0.00466,-100.93971,36.26758,-0.01118,102.28122,-9.52381,2.89663,-0.00855,-37.81635,5.10768,0.00064,-1.59311,3.70531,10.62802,-23.49262,-0.57578,11.23383,9.97108,-14.34752,4.56264
2003,1.25601,0.0,0.0,0.13511,0.0,-0.0,8.98226,-6.30007,12.19864,5.15283,6.30882,-13.95103,-28.5407,-4.75754,6e-05,-20.7953,0.53717,0.00778,33.36543,11.53962,9.64631,6.06624,-6.66399,-15.3668,-8.26597,31.21558,-10.86096,13.36996,-63.63586,-15.47375,38.49589,0.00037,-99.65962,37.8761,4e-05,101.96566,-10.00663,2.51357,-0.00498,-37.89787,4.99421,-0.00243,-1.22915,3.53928,11.12763,-23.09188,-0.91568,11.63468,9.96231,-14.60137,4.61891
2004,1.76722,-0.0,-0.0,0.24881,0.0,-0.0,8.62288,-6.46567,13.03979,5.53026,6.41949,-14.67547,-28.51711,-4.82745,0.00014,-19.67843,0.76679,0.00651,33.87326,11.55938,9.464,6.09748,-6.50953,-14.7742,-7.83292,30.61863,-10.65727,12.80028,-63.11763,-15.87618,38.50716,-0.00343,-98.62711,39.32972,0.00809,101.21445,-9.97728,1.67495,-0.00494,-37.56848,4.72547,-0.00686,-0.94236,3.29098,11.80822,-22.75367,-1.39888,12.17307,10.09086,-14.82769,4.67875
2005,2.58005,0.0,0.0,0.39107,0.0,-0.0,8.28245,-6.6758,14.05713,6.25364,6.3947,-15.63028,-28.51478,-4.9947,0.00023,-18.70432,0.96825,0.00162,34.31831,11.65768,9.1456,6.16195,-6.34023,-14.17123,-7.73906,29.91616,-9.9179,12.60818,-62.55064,-16.03981,38.70502,-0.00299,-98.1324,40.60747,0.00297,100.35098,-9.66,1.20735,-0.00033,-36.90268,4.23034,-0.00827,-0.80433,3.11911,12.52786,-22.55842,-1.8251,12.77673,10.19092,-14.98284,4.70583
2006,3.29687,-0.0,0.0,0.46306,0.0,0.0,8.05449,-6.80465,14.89034,7.09489,6.25343,-16.49462,-28.61552,-5.09126,7e-05,-17.81522,0.98332,-0.00189,34.6326,11.81095,9.00454,6.12989,-6.14036,-13.92951,-7.85469,29.10272,-8.78078,12.41667,-61.96745,-16.09965,38.98448,-0.0008,-98.10418,41.84301,-0.00522,99.76941,-9.23276,1.60849,0.0063,-36.28783,3.73248,-0.00371,-0.82044,3.13577,13.1419,-22.52162,-2.03661,13.35279,10.12517,-15.07266,4.67654
2007,3.50273,0.0,0.0,0.3875,0.0,-0.0,7.97821,-6.79368,15.36351,7.91517,6.14784,-16.92711,-28.78985,-5.0088,-0.00036,-17.03815,0.83805,-0.00249,34.80826,11.94296,9.26581,6.01036,-6.00463,-14.13817,-7.99106,28.21813,-7.47764,12.07151,-61.39223,-15.97677,39.36135,0.00222,-98.37196,43.1202,-0.0054,99.3964,-8.8105,2.4568,0.00665,-35.9918,3.44209,0.00069,-0.88271,3.30336,13.629,-22.53815,-2.06051,13.86697,9.89655,-15.16446,4.59076
2008,3.15312,0.0,0.0,0.1934,0.0,-0.0,7.98401,-6.6915,15.56367,8.66621,6.21588,-16.84877,-28.95605,-4.80721,-0.00037,-16.41213,0.63993,-0.00126,34.90299,12.01993,9.83048,5.89689,-6.01149,-14.63644,-7.99638,27.32335,-6.28685,11.74059,-60.82817,-15.56149,39.83777,0.00475,-98.87401,44.36527,0.00077,98.87711,-8.52222,2.88031,0.00224,-35.87663,3.3852,0.0019,-0.83257,3.43923,14.0914,-22.4434,-2.10439,14.34646,9.60063,-15.29009,4.45527
2009,2.67311,0.0,0.0,-0.00523,-0.0,0.0,7.94362,-6.61026,15.72412,9.33926,6.37311,-16.54099,-29.04725,-4.66343,-4e-05,-15.92803,0.50469,0.00019,35.02452,12.099,10.35462,5.89543,-6.12684,-15.10152,-7.74855,26.49395,-5.48839,11.60261,-60.24055,-14.97326,40.27253,0.00376,-99.31287,45.47209,0.0033,98.07722,-8.39278,2.55915,7e-05,-35.76775,3.57671,0.00114,-0.5637,3.35495,14.61992,-22.12522,-2.37686,14.80639,9.34056,-15.40026,4.29713
2010,2.35926,0.0,-0.0,-0.11628,-0.0,-0.0,7.79231,-6.52549,15.93,9.94864,6.47829,-16.23441,-29.03724,-4.68375,3e-05,-15.56042,0.47529,0.0007,35.20055,12.2444,10.67675,6.01867,-6.28503,-15.41827,-7.18295,25.8212,-5.279,11.55251,-59.59367,-14.5038,40.50327,0.00213,-99.13658,46.4505,-0.00128,97.22007,-8.28599,2.06362,0.00094,-35.78189,4.1008,-0.00192,-0.07669,3.04424,15.18045,-21.5883,-2.87133,15.21334,9.12318,-15.45774,4.17615
2011,2.08421,-0.0,0.0,-0.11463,0.0,0.0,7.5632,-6.3055,16.05691,10.52745,6.56338,-15.8863,-28.95675,-4.82449,-9e-05,-15.30311,0.50607,0.00036,35.32676,12.46196,10.96351,6.15955,-6.47149,-15.71547,-6.38423,25.32495,-5.59648,11.26258,-58.92109,-14.33088,40.55251,0.00207,-98.27136,47.4491,-0.00613,96.54462,-8.08478,2.01585,0.00279,-36.07407,4.8821,-0.00466,0.5289,2.69443,15.68392,-20.93895,-3.38102,15.55358,8.85791,-15.48523,4.14107
2012,1.792,0.0,-0.0,-0.03102,0.0,-0.0,7.31332,-6.01138,16.04897,11.12225,6.68933,-15.51819,-28.88403,-5.0001,-8e-05,-15.13883,0.56742,-4e-05,35.3427,12.75278,11.36365,6.24143,-6.65834,-15.89921,-5.5739,24.88532,-6.06999,10.46709,-58.30971,-14.41183,40.61353,0.00144,-97.34682,48.66929,-0.00288,95.97575,-7.81692,2.29014,0.0024,-36.46144,5.55079,-0.00278,1.11121,2.47376,16.11642,-20.31713,-3.7444,15.87565,8.50769,-15.4753,4.17285
2013,1.61534,0.0,-0.0,0.08476,0.0,0.0,7.08367,-5.86154,15.93861,11.75534,6.82454,-15.20325,-28.88935,-5.1478,-1e-05,-14.99642,0.65882,-0.00018,35.2914,13.14818,11.86354,6.24721,-6.75788,-15.78088,-4.91992,24.35366,-6.33632,9.13568,-57.80764,-14.64502,40.82004,0.00097,-96.87802,50.20253,0.00724,95.2599,-7.54338,2.41497,-1e-05,-36.48721,5.75261,-0.0013,1.55583,2.37255,16.52552,-19.83199,-3.98782,16.22003,8.10828,-15.35144,4.20128
2014,1.52402,0.0,0.0,0.1873,0.0,0.0,6.89625,-5.91442,15.69687,12.39682,6.94156,-14.77429,-28.98459,-5.23451,-1e-05,-14.79329,0.74417,-0.00023,35.2132,13.66324,12.41191,6.14449,-6.70179,-15.54403,-4.37407,23.70457,-6.40688,7.46624,-57.38338,-14.9843,41.10074,0.00066,-96.73285,51.88098,0.01199,94.33021,-7.27493,2.3418,-0.00125,-35.8995,5.4848,-0.00406,1.82106,2.28699,16.92301,-19.52633,-4.21221,16.55958,7.67456,-15.05926,4.19201
2015,1.42769,-0.0,0.0,0.21559,0.0,-0.0,6.72017,-6.09064,15.40969,13.01569,7.01326,-14.11247,-29.12344,-5.29417,-1e-05,-14.52776,0.80903,-0.00016,35.18634,14.24184,12.86467,5.99284,-6.51575,-15.43896,-3.7441,23.03666,-6.59874,5.81259,-56.96838,-15.35833,41.28864,0.00058,-96.52567,53.34103,0.00571,93.37314,-7.02986,2.36022,-0.00065,-34.97831,4.99027,-0.00528,1.94301,2.1795,17.26576,-19.36985,-4.4369,16.84032,7.25068,-14.64414,4.1769
2016,1.39869,0.0,0.0,0.10556,0.0,0.0,6.47815,-6.37349,15.3539,13.62754,6.96535,-13.46282,-29.24054,-5.38505,-0.0,-14.27617,0.907,5e-05,35.3589,14.76312,13.00887,5.98357,-6.29251,-15.36354,-2.8869,22.46341,-7.15837,4.48833,-56.53605,-15.60083,41.30468,0.00101,-96.1312,54.35445,-0.00315,92.6315,-6.83667,2.53102,0.00033,-34.26417,4.6246,-0.00297,2.02048,2.10349,17.50477,-19.26806,-4.59449,17.03584,6.94127,-14.22417,4.17531
2017,1.48244,0.0,-0.0,-0.13662,-0.0,-0.0,6.14078,-6.71416,15.65077,14.24154,6.74361,-13.0799,-29.2974,-5.5034,-2e-05,-14.09626,1.06248,0.00013,35.76223,15.14189,12.84089,6.21235,-6.0961,-15.16051,-1.80699,22.01625,-8.03107,3.5448,-56.12083,-15.55241,41.18984,0.00061,-95.79686,55.03999,-0.00715,92.26591,-6.74312,2.59474,0.00144,-34.04083,4.87074,-0.00238,2.19829,2.10763,17.62698,-19.07645,-4.63496,17.15151,6.77292,-13.89034,4.14873
2018,1.56532,-0.0,0.0,-0.39588,0.0,0.0,5.75438,-6.92289,16.09726,14.8008,6.40681,-12.90247,-29.28107,-5.58944,4e-05,-13.97473,1.21064,8e-05,36.20658,15.39821,12.61622,6.55418,-5.91697,-14.93046,-0.63852,21.61897,-8.91515,2.85094,-55.72623,-15.21635,41.01025,-0.0007,-95.82642,55.62182,-0.00574,92.1953,-6.89427,2.43222,0.00226,-34.11046,5.80604,-0.00287,2.58994,2.16654,17.69216,-18.67573,-4.60369,17.23385,6.63546,-13.64557,4.05997
2019,1.59479,0.0,0.0,-0.54631,-0.0,0.0,5.34027,-6.89914,16.47803,15.23558,6.10603,-12.83302,-29.1589,-5.60703,0.00016,-13.86074,1.27926,1e-05,36.479,15.59074,12.52122,6.84658,-5.72686,-14.77629,0.43369,21.15666,-9.49587,2.31504,-55.27721,-14.77288,40.80838,-0.00129,-96.10047,56.12216,-0.00152,92.06324,-7.44353,2.33686,-0.00081,-34.01148,6.55794,-0.00526,3.1468,2.22689,17.83916,-18.10046,-4.6007,17.39314,6.4329,-13.44587,3.92506
2020,1.67214,0.0,0.0,-0.59191,0.0,-0.0,4.86833,-6.78887,16.80222,15.53738,5.92027,-12.9749,-28.90423,-5.59743,9e-05,-13.71718,1.25724,-0.00012,36.55264,15.75951,12.48294,7.06776,-5.50879,-14.56055,1.29553,20.59325,-9.70761,1.89506,-54.7256,-14.41171,40.64156,-0.0013,-96.18059,56.45172,0.00084,91.67868,-8.31887,2.63652,-0.00631,-33.50568,6.16182,-0.01439,3.66635,2.2888,18.20338,-17.53722,-4.67475,17.75599,6.18856,-13.24869,3.79013
2021,1.83926,0.0,-0.0,-0.64816,-0.0,-0.0,4.34627,-6.7568,17.14546,15.74086,5.75333,-13.3847,-28.58455,-5.63539,-0.00011,-13.54098,1.16237,-0.00034,36.55124,15.97059,12.36033,7.27892,-5.218,-14.13429,1.99308,20.00216,-9.77318,1.53592,-54.13298,-14.16587,40.57583,-0.00161,-96.05328,56.64171,0.00011,91.35432,-9.20239,3.24767,-0.00596,-32.79358,4.83119,-0.01488,3.99943,2.38134,18.7979,-17.13122,-4.80295,18.34538,5.95468,-12.9946,3.68003
2022,2.01165,0.0,-0.0,-0.82469,0.0,0.0,3.83891,-6.81137,17.49756,15.87548,5.45193,-13.88458,-28.32644,-5.75093,-9e-05,-13.36695,1.01277,-0.00048,36.60415,16.31178,12.11932,7.52033,-4.7887,-13.57426,2.67697,19.47912,-9.95229,1.20843,-53.59095,-13.93412,40.63152,-4e-05,-96.34731,56.8179,-0.00178,91.49136,-9.80672,3.76348,-0.00052,-32.20277,3.58583,-0.00318,4.19017,2.48428,19.49147,-16.8527,-4.95621,19.03143,5.72692,-12.60379,3.5741
2023,2.10288,0.0,0.0,-1.14655,0.0,0.0,3.39569,-6.91063,17.81927,15.95635,5.04489,-14.22096,-28.16285,-5.91258,-3e-05,-13.26528,0.8252,-0.00025,36.74358,16.79794,11.80198,7.8026,-4.21698,-13.08063,3.43772,19.0828,-10.33027,0.90833,-53.11318,-13.62977,40.80746,0.00332,-97.41833,57.05006,-0.00215,91.96661,-10.06389,3.83299,0.00225,-31.87343,2.95604,0.00495,4.37131,2.54502,20.11032,-16.59159,-5.12111,19.63272,5.46994,-12.05295,3.43593
2024,2.02361,0.0,0.0,-1.51989,0.0,0.0,3.00675,-7.04034,18.08294,15.99487,4.79975,-14.2591,-27.98984,-6.05414,-0.00022,-13.30943,0.59597,0.00035,36.86602,17.34706,11.5069,8.10551,-3.59176,-12.78424,4.2283,18.84878,-10.84092,0.57255,-52.63907,-13.26548,41.11314,0.00292,-98.59597,57.35383,-0.00048,92.27429,-10.03004,3.44711,0.00067,-31.81776,2.80276,0.00432,4.60668,2.55094,20.55082,-16.29906,-5.27281,20.04754,5.14738,-11.43162,3.27299
2025,1.67155,0.0,0.0,-1.8096,-0.0,-0.0,2.62208,-7.16131,18.27343,16.0043,4.89647,-14.05417,-27.68824,-6.12124,-0.0004,-13.51752,0.33171,0.00083,36.82284,17.86389,11.35372,8.37641,-3.02426,-12.65693,4.96088,18.76935,-11.37836,0.08347,-52.11946,-12.90346,41.51082,-0.00206,-98.93679,57.74776,0.00025,92.25683,-9.81348,2.89997,-0.00104,-32.05778,3.02025,-0.00129,4.88091,2.52777,20.81007,-15.99154,-5.38681,20.28227,4.74323,-10.86794,3.14248
2026,1.06902,0.0,-0.0,-1.94078,0.0,0.0,2.19364,-7.17675,18.38438,15.9766,5.15151,-13.74748,-27.23284,-6.09957,-0.00018,-13.81949,0.09409,0.00059,36.58323,18.28921,11.37665,8.57229,-2.57669,-12.60078,5.62081,18.75944,-11.89149,-0.60307,-51.57118,-12.57533,41.89648,-0.00422,-98.34756,58.18674,-0.00074,92.18054,-9.63313,2.45212,-0.00069,-32.57316,3.61871,-0.00607,5.16114,2.48286,20.95045,-15.69424,-5.47872,20.39784,4.29391,-10.41204,3.07334
2027,0.44197,0.0,0.0,-1.84912,0.0,0.0,1.68571,-6.97516,18.35066,15.8523,5.29237,-13.35329,-26.67153,-5.97469,0.00073,-14.1029,-0.06704,5e-05,36.25604,18.5817,11.53904,8.69487,-2.24973,-12.66084,6.25912,18.70571,-12.40495,-1.38791,-51.02699,-12.26946,42.17962,-0.00189,-97.32642,58.54296,-0.00087,92.09867,-9.74883,2.1726,-0.00018,-33.2257,4.35315,-0.00454,5.40923,2.38509,21.04693,-15.43668,-5.6044,20.45338,3.86403,-10.02415,3.00441
2028,0.07212,0.0,0.0,-1.53668,0.0,0.0,1.09157,-6.59839,18.16736,15.59694,5.29508,-12.8514,-26.04191,-5.7434,0.00133,-14.30815,-0.16151,-0.00022,35.95876,18.72469,11.7522,8.78882,-2.00554,-12.91535,6.91406,18.53778,-12.92254,-2.12766,-50.47036,-11.96333,42.34687,0.00071,-96.18345,58.76754,-0.0004,91.8522,-10.22223,2.04237,-0.00082,-33.78563,4.90179,0.00112,5.57062,2.19557,21.13948,-15.2697,-5.81441,20.47247,3.49301,-9.64534,2.84861
2029,0.02859,0.0,-0.0,-1.26998,-0.0,-0.0,0.48295,-6.36629,18.12496,15.31901,5.21948,-12.48812,-25.3518,-5.50856,4e-05,-14.46809,-0.18357,-0.00035,35.72792,18.76455,11.79885,8.9214,-1.80038,-13.1178,7.57306,18.23804,-13.35309,-2.7779,-49.87143,-11.67802,42.45399,0.00187,-95.22918,58.94157,-0.00089,91.65313,-10.77902,1.9826,-0.00125,-33.96131,5.24775,0.00531,5.5987,1.9273,21.21829,-15.24106,-6.09316,20.45052,3.19437,-9.24747,2.62282
2030,0.08573,0.0,0.0,-1.33836,0.0,-0.0,-0.04506,-6.55728,18.47717,15.17136,5.03444,-12.53899,-24.62239,-5.383,-0.00167,-14.64492,-0.1166,-0.00043,35.52504,18.78586,11.57845,9.12733,-1.6094,-12.92533,8.21747,17.8469,-13.63906,-3.38094,-49.26069,-11.46957,42.56739,0.00208,-94.87875,59.08113,-0.00138,91.89159,-11.03653,1.93143,-0.00082,-33.61672,5.51629,0.00565,5.50403,1.68023,21.28269,-15.33672,-6.34696,20.42262,2.95693,-8.83832,2.45171
2031,-0.01252,0.0,0.0,-1.60457,0.0,-0.0,-0.49517,-7.01734,18.95755,15.15133,4.79893,-12.82955,-23.88824,-5.28992,-0.00095,-14.84775,-0.02204,-0.00024,35.27784,18.82085,11.40464,9.36586,-1.43829,-12.44923,8.87305,17.46429,-13.90252,-3.93497,-48.71658,-11.31269,42.69036,0.00123,-95.00432,59.07045,-0.00096,92.36514,-10.91722,1.97886,0.00025,-33.05473,5.65618,0.00254,5.37118,1.56721,21.41892,-15.45591,-6.50102,20.51024,2.7335,-8.44383,2.42143
2032,-0.26541,0.0,-0.0,-1.70544,0.0,-0.0,-0.9508,-7.409,19.15822,15.14129,4.71723,-12.97707,-23.16753,-5.07666,0.00118,-15.0323,0.00954,7e-05,34.96352,18.8216,11.59954,9.57765,-1.31249,-12.08212,9.56982,17.16077,-14.29367,-4.39267,-48.2724,-11.10733,42.75457,-0.00023,-95.18798,58.87491,-0.00183,92.41265,-10.68684,2.21445,0.00077,-32.7075,5.53286,-0.00017,5.30598,1.5947,21.75169,-15.47511,-6.59347,20.83306,2.49288,-8.07893,2.47953
2033,-0.49517,0.0,-0.0,-1.56578,0.0,-0.0,-1.44543,-7.62511,19.0997,15.07707,4.87459,-12.9379,-22.49539,-4.7468,0.00182,-15.15063,-0.02967,0.00014,34.67377,18.74096,11.99277,9.74459,-1.22581,-11.96453,10.27146,16.89706,-14.77393,-4.78146,-47.87292,-10.8352,42.71577,-0.00156,-95.52623,58.63309,-0.00234,91.81808,-10.5554,2.49674,0.00014,-32.70149,5.22517,-0.00171,5.34256,1.6727,22.27699,-15.36309,-6.70651,21.35524,2.25842,-7.72001,2.49571
2034,-0.62791,-0.0,0.0,-1.4124,0.0,0.0,-1.92463,-7.71391,19.03771,14.98104,5.09434,-12.96708,-21.95645,-4.42369,0.00061,-15.17301,-0.07818,5e-05,34.52417,18.62944,12.20171,9.84702,-1.10126,-11.95217,10.89374,16.59897,-15.21412,-5.19658,-47.44598,-10.56475,42.6442,-0.00232,-96.18449,58.461,-0.00089,91.06104,-10.42637,2.56709,-0.00105,-33.08351,5.12749,-0.00651,5.39223,1.72182,22.81964,-15.23496,-6.85198,21.88379,2.04608,-7.30113,2.40253
2035,-0.75492,0.0,-0.0,-1.43108,-0.0,0.0,-2.33034,-7.69653,19.07059,14.90071,5.12319,-13.21676,-21.60199,-4.19929,-0.00063,-15.09991,-0.08686,5e-05,34.50657,18.60585,12.12593,9.84726,-0.85731,-11.89965,11.38901,16.26627,-15.58685,-5.68124,-46.96562,-10.32783,42.67374,-0.0028,-96.75492,58.3189,0.00135,90.74747,-10.07147,2.37205,-0.00207,-33.93222,5.60807,-0.01378,5.32035,1.7137,23.2094,-15.25121,-6.99664,22.24826,1.83191,-6.77224,2.25577
2036,-0.95137,0.0,-0.0,-1.55832,0.0,-0.0,-2.6917,-7.59158,19.10437,14.85014,4.87593,-13.53953,-21.35747,-4.07851,-0.00084,-14.97774,-0.0652,8e-05,34.51108,18.70924,11.96362,9.76629,-0.52241,-11.83839,11.78006,15.95791,-15.91327,-6.20196,-46.41934,-10.10138,42.87557,-0.0025,-96.91195,58.13501,0.00341,91.08546,-9.40733,2.13324,-0.00065,-34.95791,6.52908,-0.01084,5.10632,1.67005,23.41889,-15.43669,-7.11104,22.43039,1.6128,-6.19031,2.13958
2037,-1.14462,-0.0,-0.0,-1.57322,0.0,-0.0,-3.11374,-7.41698,18.9428,14.79545,4.50232,-13.63154,-21.09604,-3.99535,-0.00028,-14.87802,-0.07878,9e-05,34.46109,18.84879,11.97677,9.69372,-0.2167,-11.95456,12.11798,15.71975,-16.13948,-6.70275,-45.78843,-9.84951,43.22191,0.002,-97.0849,57.95472,0.00328,91.78027,-8.60438,2.06309,0.00247,-35.53259,7.30697,-0.00032,4.87229,1.66328,23.50819,-15.65797,-7.1487,22.51223,1.41618,-5.69718,2.04078
2038,-1.23092,0.0,0.0,-1.40365,0.0,-0.0,-3.63639,-7.20799,18.47275,14.71891,4.22663,-13.41046,-20.78593,-3.88464,0.0003,-14.85192,-0.16193,0.00014,34.36094,18.92952,12.25709,9.6831,-0.01829,-12.31375,12.4461,15.55729,-16.22773,-7.12332,-45.09917,-9.54698,43.62624,0.0077,-97.74931,57.8667,0.00164,92.30349,-8.04052,2.17983,0.00301,-35.26724,7.38908,-0.00267,4.73836,1.72352,23.53288,-15.78564,-7.10094,22.55681,1.23192,-5.35984,1.86684
2039,-1.27074,-0.0,-0.0,-1.25301,0.0,0.0,-4.14087,-7.10893,17.89083,14.66924,4.09554,-13.18508,-20.49524,-3.76157,0.00033,-14.90556,-0.22842,6e-05,34.25071,18.96089,12.59802,9.70286,0.09769,-12.6462,12.80889,15.46011,-16.3225,-7.43017,-44.43301,-9.21152,43.97979,0.00738,-98.40999,57.83422,0.00012,92.32177,-8.07852,2.43898,-0.00052,-34.37109,6.66627,-0.0131,4.73207,1.74504,23.52971,-15.79145,-7.07968,22.56142,1.0116,-5.08875,1.57991
2040,-1.40601,0.0,0.0,-1.31756,-0.0,-0.0,-4.48328,-7.24664,17.5398,14.69216,3.97016,-13.27228,-20.27368,-3.69199,9e-05,-15.00502,-0.16056,-0.0002,34.16666,19.01405,12.72101,9.71067,0.19996,-12.63347,13.23679,15.43606,-16.65984,-7.68232,-43.85242,-8.89605,44.22986,0.00203,-97.99311,57.7303,-0.00208,91.81877,-8.75643,2.82914,-0.00471,-33.46545,5.65999,-0.01054,4.81188,1.60289,23.52811,-15.71813,-7.21224,22.50968,0.75321,-4.75768,1.26096
2041,-1.64548,0.0,-0.0,-1.58499,-0.0,-0.0,-4.64711,-7.5454,17.54727,14.76528,3.79279,-13.63546,-20.08944,-3.7075,-2e-05,-15.09763,0.03265,-0.00027,34.12135,19.1251,12.58714,9.70971,0.33155,-12.28022,13.7038,15.50423,-17.27745,-7.99307,-43.3408,-8.63195,44.46592,-0.00448,-96.30222,57.49984,-0.00368,91.00862,-9.73772,3.27174,-0.00429,-33.03437,5.19023,-0.00197,4.88259,1.33582,23.53969,-15.65779,-7.4664,22.42615,0.52388,-4.34855,1.02242
2042,-1.87339,0.0,0.0,-1.98578,0.0,-0.0,-4.70688,-7.83398,17.78815,14.86539,3.71512,-14.03065,-19.87794,-3.7986,-9e-05,-15.14754,0.22178,-0.00013,34.10262,19.27015,12.33172,9.72577,0.49769,-11.86316,14.1643,15.65609,-17.94025,-8.38988,-42.82481,-8.4092,44.84909,-0.00749,-94.42484,57.17917,-0.00153,90.38049,-10.60274,3.61566,0.00027,-33.02747,5.61452,-0.00057,4.83043,1.09584,23.55992,-15.71821,-7.69821,22.36029,0.38189,-3.93791,0.88325
2043,-1.98371,0.0,0.0,-2.48719,-0.0,0.0,-4.73617,-8.03963,18.09302,15.02792,3.87173,-14.28469,-19.60525,-3.95087,-0.00035,-15.17889,0.30098,-1e-05,34.07708,19.40364,12.04668,9.77253,0.67142,-11.64357,14.61768,15.83992,-18.39066,-8.79722,-42.24697,-8.21203,45.44137,-0.00313,-93.49554,56.81903,0.00297,90.43781,-11.15581,3.83676,0.00337,-32.99093,6.43379,-0.00342,4.60807,0.95401,23.62552,-15.93781,-7.85404,22.37205,0.30843,-3.59409,0.77186
2044,-1.96564,0.0,0.0,-3.00542,-0.0,0.0,-4.76198,-8.21904,18.40959,15.26405,4.13169,-14.40463,-19.2719,-4.14855,-0.00072,-15.26923,0.28657,1e-05,33.97986,19.505,11.75592,9.83785,0.81294,-11.61828,15.06293,15.98748,-18.56973,-9.17307,-41.60923,-8.03872,46.1863,0.00481,-93.80083,56.48002,0.00444,91.14613,-11.52302,4.08426,0.00197,-32.58956,6.77798,-0.01021,4.26943,0.86715,23.84086,-16.24917,-8.0109,22.54487,0.22657,-3.31952,0.64885
