PaulMeinheit/Bachelor_Muay_Thai/processed_Data/E_01/E_01_Teep/scaled/JointMoments.txt/scaled1.csv
R_KNEE_MOMENT,R_KNEE_MOMENT,R_KNEE_MOMENT,L_KNEE_MOMENT,L_KNEE_MOMENT,L_KNEE_MOMENT,R_HIP_MOMENT,R_HIP_MOMENT,R_HIP_MOMENT,L_HIP_MOMENT,L_HIP_MOMENT,L_HIP_MOMENT,R_ANKLE_MOMENT,R_ANKLE_MOMENT,R_ANKLE_MOMENT,L_ANKLE_MOMENT,L_ANKLE_MOMENT,L_ANKLE_MOMENT,WAIST_JOINT_MOMENT,WAIST_JOINT_MOMENT,WAIST_JOINT_MOMENT,NECK_MOMENT,NECK_MOMENT,NECK_MOMENT,L_SHOULDER_MOMENT,L_SHOULDER_MOMENT,L_SHOULDER_MOMENT,R_SHOULDER_MOMENT,R_SHOULDER_MOMENT,R_SHOULDER_MOMENT,L_ELBOW_MOMENT,L_ELBOW_MOMENT,L_ELBOW_MOMENT,R_ELBOW_MOMENT,R_ELBOW_MOMENT,R_ELBOW_MOMENT,L_WRIST_MOMENT,L_WRIST_MOMENT,L_WRIST_MOMENT,R_WRIST_MOMENT,R_WRIST_MOMENT,R_WRIST_MOMENT
X,Y,Z,X,Y,Z,X,Y,Z,X,Y,Z,X,Y,Z,X,Y,Z,X,Y,Z,X,Y,Z,X,Y,Z,X,Y,Z,X,Y,Z,X,Y,Z,X,Y,Z,X,Y,Z
11.051760000000002,-56.14198000000001,5.333500000000001,-13.755740000000001,8.29858,2.51631,-37.655,-45.97404000000001,5.40559,-12.016360000000004,8.968260000000003,3.4754200000000006,-1.0669100000000002,-6.840370000000001,2.045500000000001,-18.02824,9.874580000000002,3.0345900000000006,-21.36408000000001,8.154740000000002,0.9904600000000001,20.4511,-13.952440000000001,-1.06954,6.262500000000002,-0.4589500000000001,-0.7716200000000001,6.212160000000002,-4.813270000000002,1.0838700000000001,0.9777500000000002,-1.3612700000000002,-0.59244,1.45455,1.0725400000000003,-0.014290000000000004,0.25923,-0.12033,-0.17111,0.15519000000000002,0.13547,0.00723
8.08220883420248,-57.95497609910306,6.160665583216766,-16.214256222227935,8.536762758396144,2.6465452689403826,-43.25361713281,-48.16879174815204,5.28418441329204,-5.61705697779598,7.165561723611852,3.8063282585073135,-1.9064565354792045,-6.458976764790998,2.1172877539398334,-20.719288488763368,11.07162532405363,3.2814558201977806,-15.840983591017723,2.0638374515787596,-1.424641078530888,18.68183195323429,-0.4474230502646454,-1.714448695197463,7.24800666974908,-0.8004283344637317,-1.5177416657143388,5.947839564303406,-5.6943915543303385,0.4611274671970086,0.2719397983788557,-0.5818665654877959,-0.11659812661945812,1.1980867623879736,0.9806728512520565,-0.10614165258569726,0.07196629034021534,0.07421504903046687,-0.06375593358583229,0.0674349392087887,0.040076274861066186,0.026936660708991218
2.8343029146794088,-59.63733703269553,7.276198195948296,-17.88207702738334,7.913455239099735,2.4104042370796384,-52.8255719840941,-51.16331103146316,6.971688433072681,2.4660201259586296,5.454691446013786,3.900452028275451,-3.89092782822717,-4.379226186084975,1.7880680714360586,-21.912543305767255,11.381415019721464,3.1503466386495194,-13.824679312725133,-1.4048345810418805,-2.1362013961356228,27.00423059643229,-2.2043813452055816,0.7018085795362857,7.596071242172736,-0.8536504076171534,-0.9272701795326007,5.309313608710908,-6.136523237915073,-1.1487975728847226,0.2386708797113269,-1.1745787437915791,0.027831443827300757,2.0020748190048634,0.8836528988888742,0.05754207573631271,0.0722976235043173,-0.07389741682956827,0.00762513746779317,0.19947691387270133,-0.025958987728405186,0.03383306940552601
-4.312797141389037,-62.84655462934499,8.651149392398034,-18.152938246582107,7.921056443500088,2.1127329748333477,-68.98816786868221,-53.2901866163807,8.649002386970015,10.430034453634967,2.9293399151502197,4.096857138303179,-6.745294691050018,-0.8535196599248263,1.104852191564117,-19.978571664384578,10.004301855031137,2.426889898009173,-18.217752146871394,2.00432078605242,-0.6485048671171618,31.429499652803198,-5.187205258683038,1.5085870037082443,7.50118735119379,-1.3108527034853246,-0.7649637565883617,5.7583616171126595,-5.721488641528332,-1.1717664390151898,0.9043880651049606,-1.8081084585613119,-0.23082807240624326,2.9727856933731593,0.7787641572085976,0.3771771145238531,0.22405297767661397,-0.23040949076226236,-0.0019485739982234452,0.4205743243781244,-0.04032701634196625,0.05831288326175964
-11.221562178859415,-67.97580778121451,9.99285017308273,-17.476485602319535,7.955459152283833,1.726819685993991,-84.94907206570474,-53.361692994857066,9.298198611873367,19.91526801525984,-1.4455621680964756,3.391502200622807,-10.39167974612754,3.892620958611377,0.24041643888213293,-14.73551905070287,6.840258982092778,1.210173490210756,-15.180194429289491,10.388410095776878,0.39730494056181165,16.557852783527732,-7.749287070593739,3.3492696218339986,7.277316634167397,-1.4859119784360073,-1.3701693678617477,8.033270929003095,-6.0538877055248586,1.1777952399236726,1.4044903170893894,-1.496149365386482,-0.5871539070254606,2.4702768256108483,0.8299679804980064,0.156316141728328,0.3460246263301837,-0.17755788055609167,-0.09415382760425757,0.4167005019378577,-0.024743094159252212,0.048245823098973385
-17.803144921501378,-72.26697281722356,11.194217040561153,-14.892666322621753,6.212894160297884,1.3894992894439497,-96.1475805678686,-55.06601697820894,10.049123507024179,33.25132905193958,-9.005139932852854,1.2679123604330185,-14.54809838379889,9.782691882604597,-0.897069893431619,-7.647682264247743,2.9519399062449976,0.2614037381783376,-3.0738287529337507,10.084656285371901,0.6483301409323224,5.531485898945623,-9.577343400659837,1.90253327463168,6.586431388804044,-0.7240561150510499,-0.4986054529362192,7.210205849875986,-6.218556850015182,0.8214233273169276,0.6060860550054186,-1.3688043539103307,-0.45209286985422936,1.4707027770858963,1.0982682850597196,-0.11048379704893742,0.21724160937233172,-0.15323420508550448,-0.12801699906713346,0.1465799151003625,0.08539480706849521,-0.007483022086528096
-24.593058574458304,-75.19890955699417,12.295343428450938,-7.271854427926611,2.662899063958236,1.0095433702596108,-109.31012801964253,-55.612198820484295,10.70870714739572,52.92796123406307,-19.678962985351923,-2.4196715290279975,-18.668955429653188,16.236054806427248,-2.4455249656418823,-1.1774803525680977,-0.0169406884191744,0.20849757960743734,8.22930842911178,5.921569335170676,-3.002467716378511,10.724366731725652,-18.537565805001037,0.14581752159733424,7.180308642191875,-0.7794875695564967,0.26723029317007463,6.0629370417586745,-6.6038788772611525,-0.5601869219106371,-0.36690466292518575,-1.7960344484821658,-0.1042850873401064,1.1170590585774571,1.1461354028817001,-0.19425846582608308,0.05775078553280235,-0.23667011518891043,-0.07561258208493907,-0.07420748250910288,0.0726217558772456,-0.053158097528164944
-28.427810584671334,-76.5305491617945,12.79861946418054,1.772704980694983,2.141280451976909,0.3665670221599426,-120.81388142658217,-51.076832351076696,10.000042796621317,63.934491553339896,-21.085656492252017,-1.906023042403611,-22.661590939642355,22.75343828368378,-4.026643497770393,1.8344008598149568,-0.8260107774700797,0.5023008085066993,4.132713314093805,9.143597095595824,-3.7244348445182522,5.853011840952065,-17.03745378681037,-0.044367368305896125,9.29725909223861,-1.8357647071646497,-0.6885067776840673,7.909496989573012,-6.857787084078868,0.3625690495392931,-1.0375665217799603,-1.9059092981695744,0.06664019750553095,1.530115180652084,1.4156679507101335,-0.37362979720081,-0.024191786843097363,-0.25680482267316,-0.08455226299428549,0.15174199027108778,0.0174621801116173,-0.028929822229796613
-28.137659460214113,-75.25426036596092,12.657907834228473,8.52059181573322,0.5492083315464763,-0.5733468680102357,-125.38456358384079,-43.29842883344389,8.232545768973619,67.61504259620732,-19.74993657309278,1.8797278412075062,-26.203067628423604,28.804228447881915,-5.143778516692227,2.3182340274567377,-0.7407777778350513,0.5686391580991563,-2.8705191583231975,14.321703103995274,-1.5492926575330739,-3.8204738615585145,-9.796457480890995,1.6838227006605657,8.566669576770872,-1.949836203851215,0.094314372892596,7.739402742123928,-6.235232652923831,0.5089418322032795,-0.8466108141163557,-2.3943670419390046,0.09024640892747432,1.1961717639323934,1.8148983090465651,-0.6493711009160579,0.019447141612228717,-0.3782474747402984,-0.015997353771284653,0.2049836808353854,0.1165907390750757,-0.04265585171151287
-23.6846018072417,-73.91632929072865,12.510871930912064,11.894913157857927,-1.4408583143902998,-1.3390135786501713,-119.48629907866626,-39.37536268993225,8.406001444046028,73.67970528488041,-19.96138075900946,4.365965233776159,-28.854702024449104,34.08379340903188,-5.673880077200821,2.3830224193034524,-0.8744654648758823,0.43079067538238824,6.32906572125397,19.268091709761382,3.1318109399675635,6.8163721736625265,-15.61204756876374,4.555784030524789,6.9558676227509375,-1.4584406778163403,1.4483550901687683,5.491971384322903,-3.7096719984819257,0.3539085224432298,-0.5480689828601136,-2.580015991013381,0.17080369869975973,1.3352810109546616,1.7991128239153449,0.03575996925996889,0.027970770381241045,-0.39810399065194413,0.10643241728622092,0.2828136496882043,0.2669661255986633,0.08396747996415609
-16.47509816212715,-73.82011887160198,12.610425060477437,17.012239100583063,-3.404779917203041,-2.028516270223313,-112.29088618221603,-39.79503665203801,8.373045107016736,79.0021199389027,-24.130236692607387,0.47779772063705117,-30.64751880968491,38.79754273203106,-5.79096122136612,3.033105589852593,-0.9354535122544296,0.4290568383524691,13.98721251954953,12.714860884174167,-3.909371928218631,9.066877189534281,-23.655726374759286,3.5152358066002516,6.904756400485822,-1.4474194207882793,0.7741427939415875,4.586898582455877,-2.544329070627778,1.2387517337865144,-1.2966316264217184,-1.7224864434583385,0.5905940434887352,1.7814440572790433,0.8813441312182747,0.8018984765519316,-0.15398298173341787,-0.22357492879132498,0.16573969864577162,0.3433003296264013,0.14225459535659218,0.17045668964417027
-8.456190423235153,-71.3871073462792,12.484870180786137,23.21382589308953,-2.5687733991638226,-2.8211278966172983,-107.55958742106141,-40.1376846046165,4.836302433359051,86.20362162853947,-26.882711773564704,-1.2527571955596883,-31.34741587556116,42.50170511388294,-5.358725485941489,3.930342830305091,-0.6324328400042548,0.6424308254063926,19.975089708738523,2.059919446938644,-14.563031209877849,-9.037382738514129,-21.294496236176435,4.5199107090012705,6.069246600026001,-1.3141902104487342,0.9853070965325964,5.010936492701576,-3.9862670760197325,1.6320098302998425,-1.8093553610922075,-1.3976055943725825,0.9105141796760047,0.7502204051169736,0.4390457837673725,-0.086916541047556,-0.22206409522371326,-0.159456171640448,0.18800827660800035,0.07233482557651018,0.004666406314538987,-0.05875973215532977
-0.4282628187028801,-64.2265641830836,11.777108826280035,21.64218545215685,2.4352872523533065,-3.4269900894711847,-98.2157182558095,-28.625477554388386,5.0261685667751665,86.08372944168278,-19.48994153599053,7.112452855997939,-31.13446201511673,44.75054048278914,-4.530322755768729,3.319058335190275,-0.2327136936879207,0.4892086470093897,24.892964120595373,22.774851491247308,-6.4173650069511,-14.045841565843652,-10.326982541786588,1.347999860424831,5.505207433574133,-1.7329544953740705,0.8536927366922156,5.015398815649353,-5.019490335507931,-1.7735455263174815,-0.9134423193013842,-1.9410813885311362,0.35634067469063435,0.8970576842057234,1.4876848553581672,-0.6844535570903338,0.02968261016938643,-0.2789563602703623,0.08125354115211275,-0.02803270980365409,0.0946551764932975,-0.1926107353337535
5.738130452598784,-59.946989822736555,11.577224340418473,17.488314512122717,0.8951381675989225,-3.0815011891446535,-86.62338556773763,-23.981490826639558,7.192119871361208,73.90431547288591,-18.012165789662806,10.943060501055207,-30.676413300931944,46.3718969964279,-4.161127134974998,2.3204441483193645,-0.500742557161471,-0.37462019837882987,18.44020473019003,31.17152850121949,5.93807000719865,-19.433024856719605,-14.06241154720862,-4.897366040016368,5.657179495450842,-1.2448704339164431,1.0575838930908474,5.794414281988916,-4.78970926404444,-3.701898676454328,-0.663573506906106,-1.633228783258501,0.16760356458289644,2.5024405222599304,2.479518140087457,0.1135775949778826,0.08096936130388652,-0.13624567686705163,0.03225414536599646,0.28162382085884297,0.24603847745004337,-0.0324049871425409
11.653157788474257,-58.69892234666902,10.855123708373148,15.724298336251508,-1.6442705350292148,-2.498565371936077,-68.75725915975467,-27.653489192947674,5.452340287748957,67.94723317068166,-22.770155447558185,6.947094384357511,-30.071085456790343,48.150343448697605,-4.55017039916529,2.4567873423691764,-0.610115738479814,-0.7797410256788738,32.03392412455211,17.557544670206926,9.365821121540053,-18.32135066722737,-25.813465141451957,0.9177461530472929,4.349809900781792,-0.5107229829200206,2.285066220566664,5.648777926943164,-4.16357585044475,0.2630887452859263,-1.7936467951285273,-1.2065597064256972,0.6503814391465105,1.07004381664883,1.9392491844066597,-0.12158124892035968,-0.28148727440136184,-0.050207592174629626,0.12768126862043058,0.11328112178548906,0.24271732086550862,0.003067818532649535
18.02397503367751,-56.9542002282392,9.57578533237417,11.732158193229393,2.5180552368242566,-1.04852412408673,-54.398796119631136,-28.645648287818645,3.0647249712477587,64.93400544005175,-18.457404432088765,4.97325036149744,-29.17779008899524,49.44548682426557,-5.190231643699159,2.9050754662908385,-0.24486584060133545,-0.08922144085421772,43.78445718427834,15.191895418797877,6.089074687630534,-5.357829361431912,-25.89216950693883,5.512402150379054,3.565902240379878,-0.8596808631811492,2.710144224195521,4.27470506569365,-3.4253421614502066,1.650917394959393,-2.155698250929113,-1.6055554288563525,0.6737789026294243,0.20185475432690123,1.0700479079288805,-0.3724467619695301,-0.41726221650616346,-0.15763481636745716,0.1735797573164328,0.024530613771322717,0.10994987129719656,-0.023517280341998077
26.08664566642886,-54.67185771982671,8.11745327731411,5.284916277289897,5.175733545805789,0.8158472007269378,-43.08392922926399,-26.07752710743184,1.7092866330558087,46.98302225942673,-6.303590759036373,5.512855593507761,-27.825872422952415,49.96739340168374,-5.454543467856805,2.58302030981484,-0.06740869016954212,0.4498586513459246,25.887774309260134,25.288165879913898,5.950298730881352,-6.946182883473945,-20.055083303579927,2.838779127136477,5.223117900664391,-1.4245693027174675,1.6194638979402423,3.4941106965221618,-3.5268877434556822,0.5649240374429179,-1.44102233634158,-1.7276809425885284,0.5150317663289614,0.19915458288479493,0.763004306769943,-0.1943416264345968,-0.12178179432317003,-0.1645821586949214,0.11282607164630745,-0.09676610122227286,0.030216882513543226,-0.04728818993706439
35.449844408305324,-51.45974563005618,6.504341132172745,1.9592694754041058,3.250068466603968,1.3373631920187268,-27.95262814196172,-20.767390256468993,1.6748028142285663,23.161006275831806,-1.08160928064879,5.251294613024068,-25.90463993250373,49.86611070719762,-5.145783137877847,1.8383322806570284,-0.10873376341158883,0.5541302540489274,5.400922299331177,29.15791884464713,7.662009426467175,-3.6746870888405465,-21.965110720096035,1.3882797484908593,6.270257955592479,-1.7429678158116915,-0.6111761266253221,3.611244661391014,-4.189413335698616,0.14265375031336056,-1.0872582034954625,-1.3861732762442318,0.16442172149400586,-0.41268027428460324,1.1434616564382423,-0.7679090298914741,0.00205065611834146,-0.1520015893495517,-0.05281682285943493,-0.27659480341867837,0.09992649429425855,-0.16278223380513546
44.06748178441524,-48.68909608578942,5.384922014637631,0.006419717922395013,3.537731816814805,2.2030313231514,-10.676398059291287,-17.41314011603509,2.1283299895276464,7.53887112730028,0.5629999466142983,3.34985040064862,-23.76548956419345,49.380350550545856,-4.393477598360841,1.3535919541774626,-0.13783160791514212,0.910283201212915,4.143655984104455,28.58868804013693,3.5926195866257666,8.764347077255973,-29.523573195700298,-3.4216493694017793,5.881715917184635,-2.028936362341305,-1.1918300190775242,4.3936338898421505,-4.1352976832519115,-0.1728743631898832,-0.9582694062352243,-1.6347588009769676,-0.22519867315629355,0.5813610593725976,1.5216971219822018,-0.24258267669652722,-0.01567900518459659,-0.2562010168890148,-0.12061485698286442,0.0982156146337823,0.1728322988686868,0.009689682831126924
49.911522214440495,-47.21258261166571,5.199284537233173,-3.26164817839676,4.589511446164033,3.4467021360037284,4.391016951846205,-18.025015247236922,1.4193336972731383,-2.894726966642686,4.950872235148131,1.130070941223889,-22.01110692238982,49.447981954764515,-3.671143313483804,0.7127342945841721,-0.13071916596642538,1.156772396759517,11.408387770706213,28.209183442087063,-7.887609601344974,5.985991667156598,-35.9359840853993,-9.95190911290912,5.319237060024808,-1.8887080910786915,-0.5868607059547104,5.8205257902175935,-5.4623172063468015,-0.1727657939595849,-0.864524936814428,-1.675119342342274,-0.09337303679352317,1.756017381742701,1.2264816766319706,0.7117188670248167,-0.03662152321489375,-0.2617482822884927,-0.026569511265285582,0.290376109966194,0.10482492391926382,0.1445385726155636
53.28904925785032,-45.11205710901381,5.0673010096740105,-7.240392812272242,5.9895445361019295,5.319782172352928,17.97170999778185,-17.402991505116354,0.9915441053431312,-14.143342824354638,4.872318716286512,11.73639764337007,-21.1607644315356,50.79329600101232,-3.545173992221588,-0.2212159536337547,-0.06690310317282261,1.2741075229335355,13.578673499287076,27.896899392252305,4.8246685559393905,10.476531367646006,-51.070513386063105,-11.070502149206327,5.61491392429422,-1.779781846059455,-0.23578195060468926,6.835934168769938,-6.743684411780358,-1.0488616372170207,-0.9260350156379851,-1.7125228573221758,-0.11718214794958036,2.2499514823796423,1.24584573299892,0.6599245515374588,-0.08543865541990199,-0.2592371092317392,-0.0013181335701355247,0.1904337599161505,0.012086753950644834,0.011947550560614886
57.19693943544798,-42.69769772817,4.459457842936942,-12.128003373810746,4.329213768004255,3.9305021929804167,28.61540444006795,-13.228036122873746,1.4784373640305644,-36.2558485920907,8.801372831814305,10.894127599911075,-21.313038417391432,53.85398997876521,-4.050201186591931,-1.38115228259985,0.20929632730257303,0.8155422039815754,-5.19132417928517,29.242176080685276,1.9776305984623899,37.923407727986046,-52.86557209744261,-11.344108509062442,6.03717834884981,-1.8678392587222499,0.8802407533294185,6.66849240868239,-6.479279318155596,-2.749966155747518,-0.9040950920222267,-2.253296626808641,-0.7981881365456278,2.7335198910981404,1.6464035897392237,0.5385721111425017,-0.08033636829762539,-0.29715612073433506,-0.1129917511726941,0.3305865893111171,0.0837608936458375,-0.021432303488724692
63.694492182444066,-43.87884627494182,4.146188586128167,-17.1045900300084,5.228249302765901,4.839678439076527,34.34693667468025,-16.294120404398033,0.19329825959374036,-54.27292544274141,12.076353916081361,16.077425117533164,-22.05435820749693,58.10818158040453,-4.978532341998007,-1.9934399737042119,0.5104167319836725,0.6138158850372628,-30.354137895848975,22.304005979874244,6.291758320283792,65.14092814032152,-15.405268211649176,-9.116493874194369,5.0076098535334985,-1.7431497796074478,1.4208444650829652,7.343378623339638,-7.330314529982941,-5.819779592864429,-0.6594114413422785,-2.367383054281336,-1.4321539771585419,3.8802220632064026,2.378779825593921,1.2588084211402246,-0.13163262334217596,-0.22107517825566622,-0.12049566011047498,0.5771217290226549,0.21072341644674558,0.15852109269327755
69.36992531072015,-45.069725433490085,3.6547447897470096,-25.040245730080873,9.134726352440472,12.425795588343957,40.64131080865012,-17.96227544188743,-1.183364498393792,-62.30517413805683,7.108886136446511,38.47143499654504,-22.933834115265782,62.46421120995734,-6.249078319072165,-2.1932251018877515,0.25012082077492037,1.3321966548881397,-35.93098046161843,17.758829337362837,37.82361083150997,55.65038870592583,2.0841781069586434,-1.5909853581730269,5.6267590216501295,-2.2659796059861868,0.4034528291290022,7.91887431316403,-9.17074421546512,-5.882144382888083,-0.3358432293605681,-2.5846176243643075,-1.3696572508185227,3.680016331153698,2.2718592641476367,1.2985404520750439,-0.10862025624932257,-0.25691453328837927,0.017863826930511594,0.3643279186369097,0.1225493716772008,0.12709651003314848
72.89008265693008,-45.266341158023714,3.0792884979488258,-39.37991597919078,7.677728271801181,10.401700768885007,50.00248056805234,-18.97704044554837,-0.5694964391546574,-67.42045368601104,5.832618592208669,28.574955230280224,-23.352891990214815,65.93599820549846,-7.617505830807692,-2.83076882684615,0.10778103492598912,1.168911049263112,-32.664285352317464,17.28696506696134,33.042219986177905,43.379541034131705,-18.283129749678025,-5.366917693800844,7.149611686845348,-2.5526108558224743,-0.9250056845621075,6.0912004893614,-9.202506072611147,-3.1757120800658316,-0.10712949397287828,-2.4488828831400773,-1.084047867414672,1.9314921804646108,1.241467615628799,0.7512200561786373,0.11607609144209913,-0.3545240717350666,-0.07577741330380723,-0.0679554993392273,-0.005380409936673534,-0.03176813667095743
75.81266039091899,-45.08786024860685,1.878312934054688,-42.3904977596112,0.7385891350841063,-6.0551764691999095,58.61816366600997,-17.367185487625683,-1.5038747045286363,-61.83454513395432,10.131537632693025,-16.51309619806867,-23.156399856883557,68.07078957156776,-8.945477143009162,-2.8705677839231036,0.38220160482810606,-0.43553272552799704,-22.558674407243064,25.00801425708702,-17.786956106106572,44.19043635262279,-41.00974662149301,-11.35942343134755,7.08721951367568,-1.6616462549631048,-0.697576631723522,4.56203037287275,-7.084081229375352,-1.278596803174469,0.008573535510148379,-1.6930401742133814,-1.351653823791196,1.6078593439759403,0.7996830154177262,1.204660852079715,0.18741706781286757,-0.16079043738107338,-0.23594778286553958,0.036530388879846824,0.016403544429689353,0.1220952506109621
79.26084151495715,-44.26969457062571,-0.1424766235956511,-18.141325778232485,-3.202038797562366,-12.128842483121488,71.60082398535637,-11.714027148970924,-2.9058206339259334,-23.799914002650226,6.917730596509217,-30.07661131225088,-22.785196673501844,69.21364409737328,-10.158165238982507,-0.875933166372972,0.1585000565209521,-0.9101498580617775,36.3833483392678,37.99652966646742,-34.01460821234216,30.710320692999588,-58.67635048071302,-6.161824153761278,7.019547706881766,-1.6589122621158365,0.8482708110936145,5.047706407272756,-6.016035225743878,0.7413584953155689,-0.4872983970748288,-2.081636588803623,-1.547958415062458,2.1310019772897473,1.682159165282567,0.9444731788928991,0.06636068393824021,-0.1493299324622527,-0.2122692373517429,0.3229230271018173,0.202571642693515,0.18957507600425338
82.04775438397135,-45.34318647494367,-0.8362706030753594,11.6893826851678,-1.9933475584286307,-1.209677394284077,74.0348947024909,-21.968418831622316,-4.233091442939302,28.68069732244361,-1.8976972098015115,-8.043222290223252,-22.769901692879404,70.37864045013862,-11.081112850716025,1.134034752782609,-0.7311886874426671,0.43826538722899366,91.98879067416269,15.789470775884746,-15.099243678157588,30.868080463739982,-19.986041988624894,6.8797729069354165,7.701653509169011,-2.448914600273938,-0.008894074903958982,5.92939775415879,-7.063737222156991,0.6785849779027253,-1.3533245193484278,-2.1348152050150753,-0.010054803190325746,2.5815993850786456,2.6291199804160295,-0.04056117808927163,-0.08426256635064742,-0.2392889695961576,0.1264426585064302,0.39093572207868943,0.34339569600996217,-0.011607051347816085
84.11425568803668,-49.136646822883705,-0.16174633775949177,22.002384080914997,-1.7808928324709008,4.380526673232421,70.03368781002695,-33.75428351728348,-4.153746814210171,49.251128301290066,-4.221871100681249,-0.9039091743422939,-23.031494963738837,71.71516880903799,-11.78528530567305,1.3008403288710566,-1.4302009277881547,1.529769336015593,104.41229156047751,-5.866081973464545,-16.067774259547686,37.08496124405906,15.487565231583678,12.021141474945953,7.276408674620583,-2.4883136929917957,-1.2414023390958453,5.080573832727572,-6.431394379328778,-0.07425301632230587,-2.7346941963630997,-1.3657829199919136,1.4209324742162899,2.421276200089916,2.0467480652019723,0.18688003177506968,-0.3292094225103599,-0.18949818021149387,0.2335754583094621,0.23710918846164308,0.22782661268915674,-0.09461834529029022
86.37265733744738,-53.39649986515702,-0.5239496055415658,13.541607663267996,-2.309418288562141,-2.6518019924075538,81.98174246856728,-27.43904168310892,-3.9647473984468564,38.75910905126953,2.6608315901806985,-20.30730000944569,-23.13269593823394,72.00292097071357,-12.456240065028842,1.3411777270610805,-0.674311745453919,0.7367399813464797,117.96193976133597,18.795795783857937,-36.461079944439334,29.09706203149446,-37.311641629219714,-0.004217418569628623,6.5948241599179696,-2.5649987745252316,1.4197728464961008,3.6972647978884483,-5.21792236772503,1.966580144911428,-2.608470574367324,-2.367072549669292,0.11171422847589099,1.8017670987721905,1.3160767322951232,0.6999880364339883,-0.28136653179194376,-0.36675124575184653,0.011891719905899252,0.13518873247720362,0.0569234215647564,0.057214559141382404
87.81946559645961,-57.566077458839544,-1.6178416597823455,2.130805140580713,0.06415004117105902,-7.166677664088707,98.61513973012049,-25.916523609429568,-3.796782459308407,23.196667687794275,6.869630270651748,-27.253680934794424,-22.959014737264045,70.00949631970218,-12.902656757584102,1.944056179103999,0.934271996392773,-0.9997570912329339,132.9471281170243,33.82419674605285,-38.15117101275858,25.395765785487498,-60.511113023886715,-6.955409334966501,8.71450888553323,-3.0488334381489177,0.6990647159756437,3.265976248931494,-5.148816450219036,3.762282258527474,-1.3216913238845691,-2.9066584670216304,-1.4907112972299186,1.6212941869007693,1.7704578513078386,0.05327519825337736,0.03869879697120869,-0.36835082572357686,-0.2481916788100068,0.2542624025417845,0.14657162032989043,0.113932381558792
87.80866143710399,-62.89788643453359,-1.5435360903848976,1.704950333189383,1.104166057987095,-4.869693905731761,107.6952595981671,-38.632947769296514,-1.2906348779917158,41.70226048724547,-3.9389393440681535,-4.662873500185857,-22.230041172263686,66.1366810314441,-12.88720632869503,1.945230491493075,1.5191717181819975,-1.8801411728100599,167.99221205663417,10.253547448322196,0.0202775239243852,13.383899602779737,-29.81474000406207,-1.5901572823095882,10.280814802780142,-3.4971870528208875,-1.5812664435311699,3.369858883800925,-5.072812910946131,3.0785163710212884,-1.1017283937017472,-2.703890582321725,-1.586452091931027,1.724490996677838,2.4716770336641285,-0.6840632738452636,0.12945109461021617,-0.29823168873508593,-0.3169282097794305,0.33582058298219997,0.3499849999250531,0.005213216939935957
86.51102028630015,-66.31091085915607,-0.9908176595295564,-5.152041925978498,0.07360879004420201,-4.703599808902869,107.91187257023896,-51.618627540440826,0.8310801945264926,44.46159754061649,-12.58847012641274,10.048781368326722,-20.955137174238907,62.3725337519508,-12.467237342598915,-0.09161130161344219,0.7075433624534688,-1.4030277449624355,172.05664793522425,-12.642466043900333,29.499062866634898,-14.571009687075001,-2.250912671453274,2.9934136142511707,8.977814380391946,-3.2415718057625837,-0.6428728538102498,4.038345313278164,-5.536819657582756,1.0095186765198219,-1.7851622206052788,-2.4965000792641057,-0.21654607534628909,2.039097689211333,2.56438909132057,-0.36816512548456576,-0.07370310482556891,-0.336017880898443,0.00416740414452757,0.2817323636213415,0.37805512043646694,-0.06556115002397359
86.33388630074695,-66.87566844673536,-1.1357805743308804,-14.48184268266555,0.2969332524339301,9.497398323186934,107.45654415717223,-59.16976254104419,-0.49733274664867744,26.712057356985138,-10.507467099520856,30.384923554764093,-19.937617071234065,60.5378691691084,-11.771881052265762,-2.7332306072525387,-0.6692416868349803,1.7397956952044156,161.88052386306535,-15.987223715298455,47.70981501912752,-56.59813503661226,4.326536008308069,0.7118913976825665,7.757756049785254,-2.5939981772405556,0.8238730736311706,4.175200493917325,-5.479216623552785,0.5674863644070691,-2.76091080883661,-1.9558151148744072,1.0700347987995502,2.1012401481019065,2.273496673200744,0.1548874025760965,-0.3030977589568547,-0.22676308571329595,0.2599959542265801,0.26278730713662396,0.3022229637072114,0.012099112000288254
88.31823507272811,-68.1671875734398,-0.819578871347262,-21.386490213974447,2.5356593124051954,15.209989036154306,105.10861368938775,-63.2445358245052,-0.8739217217393747,3.3566666334267192,0.24120498119378928,25.87754302580538,-19.921318972541545,60.81680676265174,-10.955610704941238,-3.2942680370947053,-0.4455730432094102,2.436158509095719,138.56692160306883,-8.356428815028899,30.179355873918706,-70.34203493515375,-8.258101656452375,-6.698007170688251,7.787764547759426,-2.494886745984925,0.26859787207685,3.3369175419729467,-4.908318277314305,1.2094186000788252,-3.1801981182663663,-1.7446391663860694,1.0378057983153075,1.5562657656669372,1.7779068212480478,-0.11347056814719259,-0.35476653270795516,-0.26479048931049315,0.11132447301262594,0.15766280739429625,0.17595023960599102,-0.022921384560954036
87.96118590925133,-68.68846392823531,0.16812044408276305,-28.470060222971256,3.775158012335835,7.341828913218114,95.32626702556067,-57.75761112803766,-0.5394498753220672,-23.092671449820966,3.9897449007171053,2.9306496340731805,-20.89068613294087,62.20109498823097,-10.23892343362903,-3.0295964044907464,0.41364274440440574,1.025656971586737,91.48299036730934,0.9565962639509311,-0.009917970033113122,-48.917469539746236,-17.765986837225864,-4.936004227451504,7.134317511135075,-1.9729519187595956,-0.9185167947456262,2.7745245700007635,-4.642108880780802,0.3365145267295727,-2.3104930890341278,-1.2101760513451867,0.6784663472228525,1.0919680240182685,1.820671913388159,-0.9494981172207141,-0.21586348240160466,-0.21683959860193933,-0.004860152232430703,0.0702774266755086,0.18142745014366513,-0.17332404988202837
85.51685411769121,-69.83425779119588,1.348705322914007,-24.082212039251502,1.1444858404489244,-2.0934424596707473,89.41316557047114,-50.5880795400282,-1.2351158268225977,-14.235893306570084,-3.6406203735453815,-15.769791468480742,-22.60634681826038,63.88670937795356,-9.887190698501856,-2.459832972493029,0.5471524970522371,0.0053468837148108045,93.95071325354851,5.117747082905873,-19.32879367847376,-51.23585439898668,-7.620058233085286,0.19827317696227426,6.99106327858418,-1.8476931041834515,-0.9092686745435546,3.5737086263819395,-5.439474135763563,-0.37167296026271424,-1.8897211066790776,-1.2199828565224595,0.3866802853008916,1.5032873676439726,2.4977164191461765,-0.8273530487282018,-0.162540861573196,-0.19395829041662271,-0.009682618946521903,0.20552496918611746,0.30402245661446237,-0.0658557579724998
79.78430249292089,-71.66778937392068,3.6357314951195416,-11.156922521955355,-2.0778804925927608,-8.308107417127331,75.77921302808844,-58.78379177634675,0.7873137997199937,13.177284077000836,-6.483555206022167,-23.700216599540724,-24.94442212456389,65.59102650490888,-10.101737833882021,-0.8628752546368648,0.3118666314883913,-0.9199226342737354,109.2645290633045,-8.122385976306264,-26.65738755881216,-64.72787356854253,12.390476500986265,-1.4488941487299807,7.391857822264373,-1.8948199415552478,-0.6889672252638264,3.9144308593291566,-6.3777939737274,0.20730952180095355,-2.3216792128225534,-1.2152592769342245,0.5986213136296799,1.56609844343656,2.4743291148615887,-0.16620911262203245,-0.21177399009600134,-0.13537095756287293,0.023219127239548866,0.16151687193028036,0.3076954065879782,0.04323978905278096
71.4246570132525,-70.07072309276758,5.357382297204538,0.6982085232495261,-0.2722995648512264,-1.662641164656537,58.79948115594249,-68.68182421093901,4.947657492428958,34.679619777232816,-3.291340553264196,-9.170686326948205,-27.164167088778022,66.44595237547799,-10.665110230717586,0.8677984150152331,0.09059026317304338,-0.5019762506715948,114.53215100655324,-21.04328131757984,-8.146747698524964,-66.4694704121688,18.507285054938784,3.5368774603626765,6.470494923294815,-1.5943767119527725,0.8154494222638264,3.126898430532713,-6.92162898107434,1.32219301717334,-3.0388026596473092,-0.9346711584275209,1.5601655534254255,0.809160281367765,1.9393002922480789,-0.8107037451571706,-0.3081634356091311,0.018037905510821902,0.23213032663920452,-0.06755964611860885,0.19007545685959323,-0.14768531524659673
63.76909084360079,-64.04754089591283,4.758479905160014,3.344249772438299,1.2661801931018675,1.8259002774961315,47.507532315925864,-57.198395590169405,4.902228573347002,37.53319953473295,-5.035945998385091,-5.536288077717583,-28.55948433903706,66.23770790765951,-10.988054001983214,1.5459902304092574,-0.03714888213137048,0.06279570148505426,107.35231413517188,-7.8494654604946215,-4.476325812568967,-78.33932797803443,3.2137372077069166,5.936963345006929,5.926657266021079,-2.132205025758661,1.0052779803346341,3.195874951434272,-6.623606774516882,1.5065460887419353,-2.505629142361968,-1.5547637649567714,1.1204460991243765,0.8530984056569122,2.198340616419595,-1.2933177222743266,-0.1719573988521872,-0.1388718558893182,0.2092202138234068,0.04462728510334367,0.24637342881055052,-0.18170143819312592
56.5971599056306,-58.387672740070954,4.249085569145695,0.6868365647566362,-1.6843687695647145,-1.7080501576222973,36.226802996636124,-46.3573073888123,3.026535292532105,29.790533396396782,-9.99843687683934,-11.542333824754364,-29.44131348980344,65.39414749881621,-10.788464525385013,1.4234007805370976,-0.19588771825947623,-0.4985125706889507,87.23588437156178,0.7578246132296849,-13.168147170618873,-81.73991317142308,-16.995865487258108,-0.19927642628545658,6.38427953912658,-2.7112327380168435,0.1519940810742042,4.128599725956726,-7.086963942649513,1.7580608156937518,-1.9794918493834894,-2.065030806794461,0.601822874470157,1.4454957683644385,2.3327729197087455,-0.7011578086553681,-0.07648317486281571,-0.33333743580748326,0.13251135850405732,0.1734474795889165,0.2515726178691622,-0.07496823475462253
50.006541616094424,-54.87587788760451,4.83148046863963,4.549764769454659,-3.5673448270936166,-3.6201216932991858,26.479986648363937,-44.340103614395396,3.364733124550054,38.25056384511874,-11.549174059999217,-13.792500868237534,-30.184051089468973,64.1343646034298,-10.186189443946429,1.4399049172792033,-0.39406583447790483,-0.9593138080837645,91.87284627002363,-1.0505716026876237,-17.04966101546068,-69.16295415833227,-17.691447006457622,2.9068988617210425,5.568042425870103,-2.263680480979214,1.3089143102584868,4.13605880234182,-7.784530991349856,2.617934878714654,-2.8647042614070397,-1.7320816208832555,1.0410593203888685,1.1919986562493232,1.978492193255548,-0.5567822451804901,-0.3510733117930842,-0.2646538936719907,0.2103045935707193,0.05211757793659429,0.10209467934716478,-0.036501010400555325
44.910643155486866,-50.251371639336206,4.717205502754,10.692087249440988,-0.8865218181585203,-1.95807147946406,17.749115370684283,-36.21460762864385,2.419350583683709,52.63590658003292,-8.63897418308993,-6.296994973658461,-30.61475307649413,62.758894211271546,-9.442858118020968,1.8279363071020034,-0.39996988066616207,-0.5580616855688203,104.09942868005346,11.909673522665598,-10.26801381153676,-65.22355438602783,-14.453554543226277,6.0879771961781195,5.701213762617507,-2.363547864723455,0.9231839909316619,3.5210047752487985,-7.420323574658705,2.5761793946501412,-2.961377188879466,-1.808852245883551,0.2010705097651321,0.6836746876150651,1.8975864347330116,-0.739713601722774,-0.3669273364337436,-0.2602658095113128,-0.039433577709248074,-0.009743388959424535,0.07152105835508105,0.013768960624194977
40.51849700559403,-47.04352137073163,4.944976187147338,11.957148579143118,2.527140423387459,-0.5177374880890044,5.159722839637809,-33.67477728590595,1.6709671391343157,58.65929074694103,-5.637060662827436,2.332844226417443,-30.67676978634608,61.46308238429794,-8.879371201382003,1.9588628105390349,-0.36656823015396556,-0.26001870121675386,98.15534757526302,20.554688281288186,-1.618371889785771,-65.53641340609639,-13.691170392472152,2.920030335637578,6.846933345853611,-2.518099955595815,0.5060662247834434,3.9377967206283953,-7.760932081778007,2.4565619496002533,-2.478526901716861,-1.8959264552850326,-0.23216840623143217,0.9813110526045027,1.9646528688030416,-0.6805559140564527,-0.2290771055341683,-0.23257492206159833,-0.12680177774823234,0.038995000305337715,0.12970308131046787,-0.04160956931834752
35.59304929677026,-44.70677283911554,5.562847885759056,12.875986184247292,4.773065904613132,0.15051754191835579,-9.419685974083563,-35.371059735931496,2.598130411619525,63.20552761695239,-7.013819223958779,1.6399929707620184,-30.78680600498491,60.223632195765674,-8.597636994885892,2.177245832892477,-0.1949882344574742,0.4380712471600617,88.25947205739784,16.060144173917532,-2.752209979307776,-56.835496579119884,-5.013086273952105,4.456901893518682,6.0228717368685025,-2.122565903665651,0.9862860979748569,3.9057171387356453,-7.182380980449287,1.7326761637104873,-2.1418192116086443,-1.607369790287107,0.40853829263311664,1.092122961618743,2.034515242507896,-0.9225314907521057,-0.19879798216711028,-0.19074889025608993,0.08260992472542047,0.06344848206947233,0.1629238564870091,-0.1277818259163919
30.58386623531934,-43.27364071758716,5.921066407652942,15.210331341006917,3.6343750067386287,-0.6068943281433449,-18.607930952430852,-35.426494862602624,2.888747466332964,67.73024583953301,-11.27663183894619,-0.9786827467540662,-31.016922435442225,58.60165682808426,-8.489830430246156,2.7562285141358074,-0.2676224058803302,0.7846237524756391,88.5011231237924,10.89425171814895,-5.70410540946537,-58.76264164743673,-11.523355363771314,5.540915490720568,4.554624923199706,-1.6168081730355284,1.2344300521635714,3.4811900536619325,-5.904928407678745,1.8013559859043682,-2.1995014083546383,-1.1636034006785563,0.9669426625257213,1.0179672872915186,1.9022552517674958,-0.6984051155864505,-0.26725445962648475,-0.1687494540574107,0.19683281778199616,0.13502799099536844,0.1863395033303743,-0.047585883683862296
24.112465329548883,-43.102775358112154,6.444451481007497,18.55969660166242,1.5118828962672932,-1.9450715367817097,-29.09744318435935,-31.784243237679622,3.2515687530573705,70.58167926981858,-9.738792512846665,5.65489427626803,-31.22279827642042,56.190170540447575,-8.556759933507685,3.3338375732959915,-0.8329191669331967,0.5074791893332604,83.92146415293799,16.08392363189037,0.4831916014323435,-53.3049979335918,-22.743603070207307,4.222880429807322,5.970936831851752,-1.7299153832745446,2.8060558258183588,3.5276823489224665,-6.111790919081774,2.8348678457298617,-2.466735066530209,-1.5627276486788308,0.9988382848576639,1.0413635329306747,1.345901485722653,-0.0081793604864607,-0.27993332516062636,-0.1847745192311489,0.25512739836636816,0.14537846472780705,0.15271264995559214,0.046213368047762514
15.67965349525886,-43.3194663972294,7.033061490904686,18.99278236630155,1.0785242407784434,-2.370572558064222,-43.67735877097719,-27.378014929563648,3.3179353119816586,68.33962482360973,-7.005391230869208,9.930752372945951,-31.05385462366188,53.09361212200224,-8.847624711996723,3.3125475221597522,-1.0537733199444381,0.45688837117477127,65.75739529187992,22.070395270439796,2.008605632663337,-40.481693876852695,-28.980526565748814,4.909838084279319,5.9276582008198755,-1.5683186948223078,3.602796342848107,3.5842715449987947,-6.575715328969441,2.7814991471670716,-2.167360880256683,-1.8612324658432022,0.5155793012001636,0.9441535058419259,1.0938577183999352,-0.23178651965370767,-0.1848649727778282,-0.22872839154412145,0.14659164046653778,0.09523206933594533,0.10749174673342295,-0.04938835564271735
7.949229704575286,-43.90900552846939,7.340063629537468,15.6027948117557,2.8718740002616694,-2.0127488711201247,-55.81612636777568,-27.06275505012422,3.612847673557626,63.41405753294076,-6.734623254006291,6.939314795150058,-30.45283404975762,49.30309667120114,-9.168409368115865,2.738806307704176,-0.5324674473645471,0.6925509602544494,48.487666121030045,22.541929134033094,-1.1638439110180112,-39.58157776054809,-23.8783312637992,5.483179934439835,4.690615720168116,-1.9997748015215953,1.456119534988731,3.8002093312813012,-6.624160644739662,1.7963592197667926,-1.2994558978571344,-2.1475879419082737,-0.515933296043719,1.2022496769208988,1.1085243685322446,-0.32478390142193925,-0.08191387834311728,-0.34056081337068617,-0.05753772983404608,0.16044046869302,0.014075633977085045,-0.037901943360298396
2.6721556105909747,-44.45836561406875,7.035043776504798,13.25713471251669,4.410065952948883,-1.9723838961615905,-61.15465003257879,-26.534564074922578,2.200677425563994,60.85419156649945,-7.397500487423254,5.153125841253302,-29.42406874995614,44.815446017353786,-9.124460567148033,2.0550380750243677,0.09524443203200116,0.7829148943291961,44.0185591113826,24.272333955143964,-3.1124248582997076,-43.85711547011333,-15.838815454165752,1.7678080134845762,5.885705982751966,-2.4964319525159153,0.19772202648122222,3.1436471307944167,-5.697741004591678,1.200622202596826,-1.4236532680968128,-2.1722282712331342,-0.3936332185164786,0.780875991972832,1.1028266720330018,-0.33094732442867975,-0.02944300111712278,-0.3723484218504214,-0.1057279140984689,0.0016330188147371054,-0.004127753110695971,-0.015128766214364467
-2.6316847039712234,-44.71532769794686,7.182096546085678,13.457325025996216,3.522081653577131,-2.255435682561956,-65.09869696389231,-26.13639977318091,3.000351509638041,64.58535567881364,-8.700371726639471,5.865786045445443,-28.030357361208274,39.568582618659924,-8.698886138085625,1.8289163415213916,-0.03432857130422164,0.6662292332615922,49.60610729481485,24.76006379089493,-0.8150666975174644,-36.380727790378806,-23.494867295619592,-0.8310622371316662,6.178143799932608,-1.573245170861683,0.10691839670142653,2.257009416690499,-4.325552581059696,1.4403461934636117,-1.7544251343586543,-0.8685832440632152,1.0408937227422637,0.014218824781241937,1.2707919159165537,-0.7116397236805039,-0.052682255294408856,-0.13247859707309487,0.10095050849257545,-0.14427437409121804,0.1647159354152946,-0.08941786578804344
-7.396452871269999,-44.00730181272805,7.460658407510563,12.635802507055056,2.8506999977919536,-2.289735530378564,-65.44154203965796,-24.866037142448395,4.7551666621667215,64.75395824443318,-7.243806228615423,8.168133616501319,-26.04408870528539,34.1392060653249,-7.952229868169803,1.8532667107655543,-0.3393086504279041,0.4443402480157855,55.17309885884841,26.265123161048454,3.728138295789004,-37.116272516516865,-33.66644981186342,1.2520676192312477,4.529348546078476,-0.6427821356943432,-0.40643531698341356,2.94949526640227,-4.969354204074666,2.1209884835726442,-1.6362994622077403,0.1707184066917582,1.3321533644969303,0.2695418184299193,1.1616966871876737,-0.5911076841786892,-0.13862377753050598,0.07174131775754884,0.13745084199395677,-0.09622549563739084,0.16818622912057057,-0.10520375879830401
-10.530501577426396,-43.98612882736567,7.749516757436964,12.28744144638412,2.415839292972772,-2.2471540573076028,-67.42017792489919,-30.924414235018254,5.6583568241107844,60.81473405534408,-6.4067840632175646,7.5697075121970485,-23.756195598794807,28.998206488739513,-7.143081486792478,2.0057858147641254,-0.4457849189366888,0.3090505560747455,47.562598480171175,16.56972145117453,4.31566718377065,-31.069356162220824,-31.169356982700346,3.9710898840497357,4.720794186669124,-1.0430704578887224,0.03406011310058065,4.1011445528286945,-5.981697310927991,1.9076324203691266,-1.326155083905491,-0.6724951381861098,0.5838013270646976,1.3821739422109431,0.7826639113812816,0.16437482745364285,-0.2077341551441206,-0.0012102394026492634,0.14206928211727138,0.09535131230574731,0.023851962988844507,-0.006503051652055323
-11.675579641405745,-42.61729889390844,7.388271506622598,11.850901513416963,1.1435963615230367,-1.9347605027749961,-69.2724762789311,-32.240955240689146,5.703474963868226,51.76684135511204,-6.541194202036505,3.8352617078285176,-21.451469480379586,24.316975793221207,-6.4147594423678465,1.489798435525696,-0.28266499228082426,0.41826743488942014,28.64899897649693,13.188240690331424,-0.7822298088528046,-12.10127188815421,-13.51407919455712,3.268597917197441,6.3541159079907565,-1.8209340047386777,0.8592258086019153,3.970144301313286,-5.924151519051329,1.3948139909505384,-1.0388518078512885,-1.981676344201708,-0.14568727388869956,1.5670619296699992,0.5911494449500874,0.4520024184713786,-0.11136976426933651,-0.131435970688743,0.07742152916778294,0.1841513398936196,-0.06791147694647996,0.10514726933788231
-12.155884524120546,-38.196249134601885,6.304940860116423,8.85583694458223,1.5150579293295943,-1.3434976635336096,-66.19460696151987,-22.72446753048161,4.073324745259769,41.05718429638187,-4.008543244370219,3.149498817043291,-18.95819077809441,20.235171536852565,-5.6742328573386285,-0.9406212498481681,0.9815878248708273,0.6593062876080364,17.698611755396772,24.518030298316308,-5.197470699599945,-11.689367019333641,-6.5427210790237185,2.684937571309699,6.206109221888808,-1.9197781214695062,0.6613053900872682,3.950292082229267,-6.281100252342807,1.042406407171222,-1.0567696068274808,-1.8983872077514308,-0.025952774466780647,1.181329565322672,1.0362168954189168,-0.20061757642705752,-0.006138043444848546,-0.14019418165166053,0.005660207715060683,0.14353351190323765,0.054568500648142566,-0.003592726785602994
-11.63288234420663,-33.63362342269547,5.517689351779493,6.253502759489332,2.925825577751181,-1.0780080021036942,-59.85909135876344,-19.492312192435374,2.958884138921214,36.079881725661316,-2.49266143871217,3.849278422985134,-16.079600875746156,16.51704861301097,-4.732922491484147,-6.10070432498417,4.084978329281778,0.9015924212227772,20.469501749113903,23.396135044206694,-4.21778769291491,-15.7952263138229,-21.53030248188965,6.9096566456419835,5.510110930438196,-1.8134556995010673,-0.334337155566415,4.139617304801454,-6.800439890133469,1.8182689444710165,-0.8568401973923114,-1.2882917570150014,0.2984439966095397,0.8052209279695349,0.7261426345266033,-0.36153343048887804,0.05847492109076902,-0.18516982041231453,-0.0032935949312763385,0.07100402935442918,-0.013353101708311865,-0.03532513898256002
-10.365760130921094,-29.90383807572807,5.179738986461851,3.4362406366614153,2.4663918771480726,-1.0543293832759535,-55.72769248791759,-22.58619460372652,2.772031670490666,30.888785412343438,-2.2504978819168477,3.6857397532349228,-13.244465437866694,12.821354707725265,-3.6526607792954535,-15.484173358038465,9.477043917408523,1.054973958359289,13.884040921660853,8.744392483394707,-3.574495703191227,-12.638414040729883,-31.279979109079378,6.920188699736347,4.974612812533235,-1.541244431845495,-0.46600100493286306,4.02575098543494,-6.264139332655801,1.6829133164767252,-0.6482485448828265,-1.2236132994660684,0.055287264616079315,0.9828123645580418,0.5364182924737192,-0.0384164695444717,0.012524836902901447,-0.2344351309487197,-0.03317299595675101,0.06418506900952603,-0.06733656835882741,0.03432143735693664
-7.43524698365192,-27.301955585565736,4.824432993726857,-2.885817798124292,1.7600453777250864,-0.5419165249717383,-45.332930388949,-19.664482199106434,2.40159443127954,18.185656634277663,4.487113836307547,6.031396717527988,-10.701448844492072,9.184380089437367,-2.560499464272275,-26.57737522129154,15.759054101369564,1.382147260009589,2.9963973082206397,11.011103958198754,-0.8019329768690449,2.3378529082084287,-20.67183851132599,4.015537004043266,4.295033278732635,-1.0136402438954242,1.1034975036172776,3.6728896231561734,-5.543951307136428,-0.8637694036681737,-0.5864765645077424,-1.991057850561836,-0.5935618455557439,1.9041973217548827,1.367242237885376,-0.01864156312080381,-0.1346973306171149,-0.27645088996886324,-0.05250210996832095,0.20430218195373462,0.16957704897027628,-0.0005417536686508138
-3.849545149596132,-24.307822016060083,4.434568212189733,-6.869417553968779,1.9617433376140727,-0.24858686030042665,-34.36545409832278,-14.525064580506996,3.2828457294758646,3.6523835693541513,14.095039928988143,7.489833634382602,-8.334191656166427,6.058682779330209,-1.6127997194199195,-35.11791115917728,20.550033527056893,1.878518626561372,-11.122945058207133,19.504916152888434,3.1637796382623113,12.028232664537759,-9.413507644098498,5.307448732679146,4.5072686695639455,-1.1756543869561153,2.000828126907378,3.2741691097721377,-5.726049298647913,-1.5040147585886907,-0.9087064027270635,-2.486227317451434,-0.24665088232152915,1.8231009276301395,1.4086744145048504,-0.06216463372906393,-0.18148409953639347,-0.3147177098090885,0.04846641027621666,0.17993847150662576,0.19923196421091025,-0.00610120428272973
0.592274846014928,-21.141785166594158,3.644158024858819,-5.005102680467444,3.4733941067489935,-0.5689144411481543,-26.662580722796427,-13.220745898355078,2.611203326548392,-5.752279106933482,21.865490977646395,6.511710132951808,-6.096041653378039,3.7158337794660463,-0.8789706774339879,-41.52221822139755,24.03458152183394,2.531737127260041,-29.278490294200495,16.07149655473563,0.6573631947024848,16.210585536760536,-1.8586949232603354,0.46079150514756523,5.744960724700814,-2.5111876525887338,-0.4123836414544827,3.4571593628073454,-5.815767581202734,0.18222862190957662,-0.7559385470747062,-1.8835871117037295,0.18925446097281917,1.542594314084794,0.25738693845893035,0.30295639727257073,-0.0003947635885592413,-0.26561552088578655,0.030787394811074183,0.16768552549812638,-0.06732066890494437,0.054501227602297475
3.9881633222062827,-19.93790370632922,3.0551811502873245,-0.5046815547158678,5.326106759429301,-0.7349477915917731,-22.146782887751304,-12.579073799015873,0.9237698083655195,-7.737100813239107,30.329939482774595,6.42632039737844,-4.105157462686878,2.079009021816735,-0.4820043902515286,-47.359965765865816,27.523641544939125,3.5947567623278194,-40.389901970951456,16.898733028583898,-3.906376572481755,28.86511287191652,-11.39070825769865,-3.636043986327821,6.262717645165052,-2.100581840561617,-1.168013730578328,4.122803036249729,-6.154881177633942,0.1393646907894344,0.056615202962701644,-1.4184488843157226,-0.4107919907859915,2.2033366457616794,0.11033772076494028,0.4526625117696377,0.180765367755205,-0.14631981500774854,-0.14034959519221663,0.2971468428967031,-0.1378082989456515,0.07511989827834478
5.108617941134767,-18.81471459360422,2.7175573862161864,3.262931511170145,6.611136660743972,-0.14071018297592772,-17.46696470748136,-10.121870298958504,0.7264355327244655,-9.293195199690818,37.207190990663435,7.705565608711196,-2.6049323886326334,0.97485045580324,-0.4008757191096071,-52.39572233732885,30.962162493539218,5.051582629078649,-42.866102917383934,21.199091898680553,-2.489773559891613,30.086782248351625,-22.71711267912594,0.12295625241825506,5.513656955010268,-0.6000915266240443,0.16349928201228853,4.38129086412735,-6.5727680830748545,-0.7783977334364284,0.5681631933877922,-1.2920279852454835,-0.6394179626142841,2.5494351622342495,0.713433797021912,0.18127537387595022,0.14528533161230517,-0.04129306147798297,-0.08732176151027074,0.28284926227084783,0.02831657604853257,-0.0036962363865134487
5.0530989932943795,-16.497285161743697,2.1849077669234167,7.056348526032657,8.666080378097162,0.7105086061126754,-11.906393941180186,-9.108767177923479,0.49106157309443144,-13.204355189007547,43.89485815758802,8.995534745516428,-1.6562051910409754,0.23089636354883325,-0.4246513792857417,-56.28000013379608,33.425581751680916,6.588066554295889,-47.65264749647491,22.415845778832523,1.6677427897204915,26.701036180737482,-19.493374813439036,-0.4835226391437173,5.769397447968213,-0.347132741763664,0.1660900453264732,4.1234951500613,-6.35678303924237,-0.8969105753985595,0.573072140835714,-1.0176029312387778,-0.39534565687133466,2.6144526006392184,0.5757116617549698,0.33087293368157955,0.044225084088303,0.057221160826092944,0.028751486983403744,0.256868105600367,-0.01559775367163339,0.04184110085853367
4.659030517441401,-12.951220130053299,1.602881015070585,10.472947955479126,10.182053478264505,1.307475458555139,-8.769055943901316,-5.855555954825635,0.6651551172384248,-15.018309297687738,48.59157431878951,8.724474417891013,-1.0261357687455293,-0.1667436894000948,-0.3672757017929173,-59.920256109814474,34.89213184806767,7.785469242725924,-54.3256998281796,26.65021147043781,1.777212956598132,35.742649392197265,-13.383302947543429,-6.849665145002344,5.82218704741798,-1.807255028777666,-1.0546890239917177,3.5427213627890337,-5.947416286504929,-1.9982516332204252,0.9016465392656862,-1.5517887473933913,-0.5550580960105278,2.6876018694682013,0.9468610362683676,0.010404411485285547,0.20370836708437076,-0.1127491350118524,-0.03528850622275626,0.22341435300394846,0.02401220235424812,0.016006985741189337
4.267011596133131,-10.803097364338337,1.2410142041745864,11.767506291484478,11.73562379612956,1.8438815850395645,-6.022075934778434,-4.798908625541764,0.24414328238867009,-16.288772359380264,54.14825441094011,9.900506803452723,-0.6065835351616269,-0.4156377740579644,-0.29103787764950684,-63.957651568313224,35.906007989320415,8.538662084508335,-58.71392576302744,31.31556608835553,2.6819141387328864,46.839680265884304,-24.828141438373127,-6.124159503932337,3.963563030638768,-2.648139349287436,-1.0011224726851762,3.3506218909520906,-5.617107335973343,-1.5938125331461155,0.6746224344822649,-2.1892374649644335,-0.4783039870996178,2.18836775546801,1.0135172548687081,-0.15956457109125624,0.1966152243197757,-0.30569704137552056,-0.041926442814756625,0.09988849083012717,0.13798515978905665,-0.06000478805167126
2.7655881375635865,-10.531615127092694,1.474323400997649,12.074090556134944,11.896000538287458,2.2026553649547975,-7.858386634922385,-8.709661348270018,0.03093662040424892,-17.094502902636435,59.08666277270288,11.9492453789199,-0.3986657985747251,-0.5854335378498619,-0.2490727956234485,-67.7894391078866,36.40711325012288,8.793683688705658,-65.64228457673562,28.581023114286637,6.178707947165792,53.37711450963567,-32.36455786994875,0.7841119975302873,2.497928810523371,-1.7813603030323262,-0.31808982475565384,4.207342424714703,-6.075009907708393,-0.30078660971442794,0.42683337012101946,-1.831278310429101,-0.33300313072398546,2.2999661626118337,0.4238365673870922,0.1471854612828273,0.01179374681143769,-0.22650335607766253,0.04192135444393927,0.21945542960153538,0.07462278160350952,-0.0568509564613056
1.1391263956789877,-9.008434680410799,1.5109125939142267,12.0045492803177,10.42021336745273,2.3247649981932597,-11.978748165246655,-7.695192571854692,0.29369960102447834,-17.27184506560251,59.36506799630862,12.559726195475752,-0.29872097220223054,-0.6670597869609846,-0.2522422006476822,-70.42055963590782,36.500909554782154,8.673171212984478,-72.76861830427544,25.699427754332707,6.566747102037936,55.609012227021104,-25.818913049692327,2.0435408024307966,3.631259151100976,-0.8022430506359813,-0.4395772357308572,4.052614492157876,-5.8977658199327,-1.0986431423951557,1.1841216299242632,-1.737970747212494,-1.1004369084293164,3.0081186417435926,0.5553452495966846,0.1970171835724703,0.15598093647969632,-0.16649939884435064,-0.15150017873972269,0.440799451234324,0.05211858765395849,-0.005681073187482967
1.4428407532777618,-7.068437532490722,1.012562676943774,11.987052959396216,8.490543500177527,2.2130613988391166,-6.871926762635324,-5.549575617603984,0.9783671658899408,-17.65286211023338,57.18834792897236,11.458331553062088,-0.2330914575014168,-0.7867445571844681,-0.3137257667341126,-71.60699519147063,36.54945186901008,8.454734658821497,-70.25466646356824,20.556910736452195,5.346946631034643,60.37531018198289,-23.90905345549745,-4.969113870888351,5.912511694582582,-1.7617973089641028,-1.154717105289755,3.2440795389952166,-5.535197299093126,-2.4344311979471427,1.642424145092341,-2.1515350818458914,-1.1761190859358694,3.075874790707393,1.0349964460501857,-0.22878335088497564,0.3525512776230678,-0.2353879074276318,-0.21618631735218216,0.4152451526964231,0.0832684257700302,-0.038402050322933076
2.417293629628284,-6.855187593449375,0.705324994771464,11.702116463666153,8.336357847924699,1.8170232940150328,1.2636377914975128,-9.424152887504022,1.0457619685117616,-19.62928025011462,60.44500921065368,11.18315977198294,-0.1009267587104499,-0.8949245920696657,-0.3185822157036761,-71.98456144706321,36.54213382257016,8.162423272642487,-66.15028330838506,14.501322167864107,6.682521477561354,67.21801827018491,-20.46541032398102,-10.702824560513177,6.018582849818474,-2.8213508728056658,-0.9759767236395019,3.5161156498963333,-6.198904494291903,-2.5773745568394846,1.1599373210495016,-2.424631967499383,-0.3939687712848655,3.3772502413203536,0.9786997778764648,-0.2108082465284952,0.3035117795595114,-0.33916595542339967,-0.047370600206469424,0.4107118565679994,0.030245457973284092,-0.02699466263583368
2.1386198641832594,-5.858079100899111,0.5269673989154189,11.676808878884584,8.24965493717612,1.5039437178117212,0.7864243828545575,-9.056611014913885,0.48058977774227934,-18.09770778373876,63.52091625349643,12.578956252602591,0.03454067971721574,-0.8378906960893001,-0.2952852899609735,-72.08654854607846,36.37491688548049,7.876876461954759,-67.14428390387178,14.849030876459665,7.0619337690050346,65.54514766848715,-15.187898545252368,-10.341099138969717,5.30359451744702,-2.4756215729905415,-0.5278311013370066,3.3994161899794118,-6.3004708680612405,-1.7354444784510448,0.7409211402074963,-2.0790905064353122,0.0003294348854934069,3.3039837121173847,0.39593379268785306,0.3809606809176453,0.16933587281258253,-0.245637673272132,0.03557137163284195,0.3430360247507877,-0.1038303997793877,0.10120252938816965
0.9107409036767993,-3.561922813621425,0.35072116768709577,11.3968433056759,6.972736304110785,1.4013876523737279,-6.160517193330367,-1.8702502281895483,0.37598934904847053,-19.197275405239054,63.84968980040847,12.445547979003685,0.042272046201026696,-0.6228714416722528,-0.3199581380950539,-71.97669441152946,36.04766486664367,7.7194757732456605,-77.46076203163064,24.451212576205986,4.394884476168993,59.56574919684357,-16.96399058928159,-5.582440099283553,4.28133937254086,-1.1488804265302657,-0.34641173500077743,2.89457260932365,-5.926557639598165,-0.6403415304532833,1.2020075648321804,-1.838906744901525,-0.5776468561098382,2.378553656609263,-0.16890149879009966,0.7080506775665367,0.14329532308850623,-0.14261849358184817,-0.06107789813466115,0.11127386152019822,-0.19331364007483615,0.1659906723358586
0.9400196667266774,-3.262360985572566,0.06984847283817998,11.631035650227943,6.7139894994370195,1.3914877606762197,-4.838781355925491,-3.3412590343850264,-1.2360578491801213,-24.007905458749732,66.44690552816122,12.496191522493012,0.0504286245219432,-0.437149099886757,-0.3571938009332842,-71.3418334824117,35.69129228516546,7.661586482606166,-81.49085723582006,26.103309973494813,5.290760863606424,57.78132583547522,-17.902971896607582,-2.434574359135811,4.115623924025679,0.03384635824167113,0.5258431547412247,3.2359187539833285,-5.693050917803929,-0.5561985838861995,1.6468371129006167,-2.3035207447344006,-0.637117536302312,2.2183361748459665,0.06330694139529612,0.32481382066187164,0.17215323239333669,-0.21068477959337759,-0.019648152008584597,0.10448530416064128,-0.10339342844022609,0.065666338136736
1.2312753489170762,-4.3553951414199465,0.36163333728367214,12.37793542904504,6.873895544352604,1.2175475327354786,-4.363788473432943,-8.198786502558843,-0.5208610565851355,-25.494101440204922,67.64543564934762,11.882602314389136,0.09411608747196083,-0.4587147267846574,-0.3176898957090809,-70.20020326197174,35.11321162760566,7.532502014004345,-81.97528194645575,21.058596328395126,7.410260789411904,68.8209904643111,-16.703645934028597,-5.799564093573655,4.5708985249600556,-0.8503455361173852,0.19351079521806233,3.1656176356997605,-5.6978310486687915,-2.1169533366983853,1.719463406672026,-2.6281946555986746,-0.5389561759220914,3.1620327356836158,0.784063694721702,-0.26553670431382753,0.21102306423457362,-0.27880195960494936,-0.02478582920200401,0.33472603087923836,0.04437574523733479,-0.05020233317034224
1.3644222473479801,-3.9104354314880276,0.3322980342493894,13.166321130151438,7.177767558084353,1.1693103777238802,-4.621780424467078,-6.661793535220125,-0.06611901672428051,-25.524853811247535,65.82838321335737,11.453390572338229,0.12909779981178232,-0.39703176390577705,-0.3012628483706442,-68.30207747299796,34.23370517775881,7.4155026630313765,-83.61595558371836,20.032534393234453,6.893447228253302,77.774910397981,-15.273933477840684,-7.232958413590738,5.126729149790934,-2.0949156347512488,-1.2579457123410718,3.0797364791498367,-5.870221881377237,-2.5930338267567605,1.9626298274591858,-2.1038516021177154,-0.9621570227983577,3.561161413331805,0.983763609733625,-0.37562124272160496,0.29369503710555034,-0.16857419178481176,-0.17119223275271853,0.4013164340160012,0.09593212490697978,-0.0715436735530206
1.215313497641779,-2.9381568280446007,-0.01289648072560821,14.591802159358295,7.788701125003182,1.045083565176355,-4.770018468786286,-1.8506811103459955,-0.8376513236260562,-21.428930489873167,67.53233720015163,12.617429115364057,0.061343115180121345,-0.1488590864472219,-0.4283817041405575,-65.62195536802452,32.943246068238324,7.318898431758546,-78.60118367387592,29.952162460074568,5.746175849760445,81.25702043521605,-22.834979960240304,-3.195767648310358,4.978642376760894,-1.7105832656193856,-0.8254573279236258,3.4226672775155547,-5.973840251133865,-1.8495376692703636,2.2170008045900746,-2.4653597667748595,-0.8869436567576509,3.7140801557407115,0.6625364631678211,0.00841621506188811,0.3649585561197873,-0.2603149207507705,-0.1399735864013592,0.4364041528389224,0.06537545968993756,-0.02884406060072675
0.25455388272059365,-4.113122167725203,0.17439608494143868,14.911287815705608,7.490409057956254,1.040399299246665,-6.836972858792825,-4.23523923297367,-1.4016321307686679,-21.76549799492208,67.26269298170509,12.842652387092771,-0.16060305276516748,0.029000851959191016,-0.6269839658354456,-62.693223838428764,31.367418341396586,7.159060498994892,-77.65030864478493,27.464820979176043,5.527043114201174,79.82046731340573,-28.009513262896956,-2.6709156910649074,3.485172415823276,-1.2374903777593707,-0.14580019022326102,3.719485465354054,-5.848608292286916,-1.3065874911845226,2.3505064172109944,-2.752635304328536,-0.7156519367925079,3.9162418090202396,0.32418452866296693,0.2642947842682301,0.3644476961475273,-0.32292264064683995,-0.05368453018424568,0.5163550445560863,-0.008918474938278203,0.006946656238857554
-0.1936439313814335,-5.857715864191212,0.6648946027524312,13.763819504927813,6.390076843068034,1.1391817626715848,-7.680593104398786,-7.907921330556664,-0.053266592089857644,-26.10373774110629,63.17184697371903,11.054073772247042,-0.3908839565057863,0.11077713404987644,-0.7212719774752988,-59.91619530669285,29.73520758582904,6.965327155275543,-81.1452196923905,17.84077032592012,4.908199510529642,66.16352695434753,-24.83412663301197,-3.5688414494671297,3.4090267994605803,-1.4369032979775456,-0.426713673103396,3.6507344732158726,-5.007732598772117,-0.9831686576582019,2.183674061914642,-2.5439403998773127,-0.7919949373187751,3.5808121788380234,0.3054395502374534,0.19371526172687828,0.33654601716869537,-0.26671897284798673,-0.12680377849089375,0.4815523879583215,-0.04170903783265484,0.029974031028204437
0.025059579747088525,-5.69045518819469,0.6955918814533737,12.929496787691576,5.216066896104071,1.010005372193576,-6.9943816694380265,-6.12737641136034,1.0710870792658238,-22.61633691685247,60.35615149629759,11.029232828241808,-0.6593308463646386,0.4320851906190466,-0.7432299835225686,-57.1690082214991,28.213659358212034,6.588555456290689,-74.91086754403123,17.927064224478293,5.338183806127889,62.322793950232686,-15.641225769594017,-5.515175681190155,3.4050382627602875,-1.5042043723074296,-0.18542119662141784,3.6568456026991987,-5.020925843976227,-0.9884707197624756,1.9445133031932056,-2.535090529848082,-0.4294486007075732,3.1446782909238613,0.5394831129942438,-0.11145178055122681,0.2929291494741264,-0.3133513941376129,-0.022271870470912242,0.3326471885838845,0.023067488554570238,-0.03861649564401251
0.07374634308825892,-5.683600332508098,0.5295579237880881,12.268358403218308,3.9968180971932425,0.9245318374575371,-7.177893897968552,-5.713595567252965,-0.035437672457987554,-23.11646193346961,55.621747689569006,10.624312778236117,-1.0544633655609124,1.0875541895236949,-0.810540426742822,-54.35252750452631,27.008496759945352,6.202480046834026,-75.42017120184836,15.1338259210981,5.134481578572426,73.74081877058286,-8.445781585992046,-6.144160860164925,3.955902520010434,-1.895872332198547,-0.2223194856073906,3.5670422113797238,-5.648120433768951,-1.3885785380244275,2.1129883404156664,-2.5272024494310905,-0.2335420685657579,3.411632391588217,0.7471654740641829,-0.19719347981868432,0.33977746511965035,-0.29600317299072637,0.03346544662196297,0.34624164732917234,0.07821099411775526,-0.0711620104581445
-0.19933363493338757,-7.40912130469257,0.7751477471087915,11.473276282415508,2.8228750235494036,0.7660783681924471,-8.876715321024635,-7.204597083976296,-0.6087977363304982,-24.312406424214466,50.41100323623945,9.537351634138325,-1.5501456182013236,2.038994743742277,-0.9743681271053681,-51.49301247614833,25.853104700599484,5.831114239798236,-75.70732400169938,11.7338873670591,4.073759149287434,75.00660008804381,-8.731095911234592,-6.091864514286969,5.438115489884069,-2.040577858532862,-0.7360627507675226,3.6364446497614242,-5.476956757173237,-1.1136409248353845,2.2331891144867972,-2.30531068689883,-0.4255409655000548,3.5656365704910225,0.6801948518774118,0.024358781156563744,0.39057638175066867,-0.19977084641931628,-0.09104127034133758,0.40288765618563743,0.030414717804875004,0.008687359629147929
-0.5158371627222011,-9.580871023950085,1.270698221196432,10.35640023237768,1.8742950649307468,0.5949350767033061,-10.221082723675446,-6.867344955442919,0.32689067864039456,-20.331740757262423,47.0659491168468,9.729969194011511,-2.090064627158033,3.2869576591926966,-1.166622523075148,-48.12214056783589,24.296780798734083,5.427065365002859,-66.84637649940751,14.448288063258694,4.071851737896299,61.944537743073376,-12.750617255954976,-4.167760741351095,5.097054299599757,-1.869494019968728,-0.6665777268736044,4.034975991413069,-5.160147656308116,-0.4488043810474288,2.0876842669405615,-2.2094013922110713,-0.39087773816368865,3.3413658712822154,0.5962962148857266,0.13099355492255976,0.3502212498357953,-0.20176146820347296,-0.08853883482878622,0.39721821843141825,-0.000589000296605044,0.04974308251019904
-0.5650220274508058,-10.913351022240732,1.647195614570285,8.397688671204062,2.2563239117607305,0.7107954491651873,-11.15175122972885,-6.126817154660817,1.6206134072647098,-20.253024637683648,45.78506852005835,9.591893985611089,-2.5879273969111285,4.520978130114587,-1.2732842228137937,-44.14664191821332,22.200818274651652,5.206611450094163,-63.747636155324386,17.664534512671175,5.29332727262857,62.41172493684433,-11.369660389335897,-1.9379622392105913,4.786280673127538,-1.276977454787123,0.026486173571227435,3.9189889302012046,-4.973720250058521,-0.6051723277183458,2.084689707640438,-2.691638930792166,-0.03387343542014442,3.274133280637221,0.7216680803294048,-0.04047021498632714,0.32816224857769005,-0.3092692049728707,0.01529815402431441,0.41655523200655,0.028401930956583738,0.014130657266956842
-0.2236863481085768,-12.010166146109523,1.9854291645476208,6.015069056202804,2.784562140586752,0.9897709566568121,-14.769888152283356,-8.149741632097612,1.9768801693297615,-24.233660108914204,43.903394702256236,8.301567512338169,-3.1277304541475797,5.936660672482729,-1.206767434335092,-40.154853234070885,20.03178824973656,5.118895329626541,-68.22330618579582,17.77536870162301,5.548890052970136,68.71965364260437,-6.633446556655295,-1.2865516362791136,4.5420888603916305,-1.0646637928899827,0.037198203684341194,4.124707831449836,-4.8089262141951865,-0.5551516138707882,2.16831500694165,-2.593943547651592,-0.06972689744421863,3.088573794624534,0.8604925382001364,-0.2695584853830304,0.3423399754124184,-0.29547142796693876,0.012786232467259934,0.38042008845978265,0.06118827621432826,-0.030173500611950472
0.6188091230914273,-13.927470038358761,2.32931085522557,4.767766184156513,2.134579095074571,1.2694605933296716,-18.22328495059215,-13.465100503308776,0.424324219083357,-22.369885126395854,37.024539588874184,7.991942489804326,-3.7790974038449585,7.831357796388261,-0.9785500703955877,-36.724704006913996,18.329966925498162,4.973787790875052,-64.26653861670391,9.908696184758652,3.0007322458739822,53.308781763620274,-1.4734602229825986,-0.9411927846899346,3.6776718790586314,-1.5443887197163795,-0.7582177753287033,3.987048473824336,-4.947924708061194,-0.4647414948222409,2.089352799729485,-1.7396258972877838,-0.5968526929209067,2.7936427493556724,0.8377521232203335,-0.29269476802348826,0.29437389281922727,-0.13535999792584685,-0.09846115265958096,0.30718433818442575,0.06824762238902342,-0.04044379521091042
0.9182996866803397,-14.5085569356318,2.6961146392744655,2.9415311750522024,1.4767485155843783,1.3999715368804133,-19.790911951775904,-13.03368619616214,1.2415690815746865,-18.665530003769945,30.977699033666266,7.6933254466259395,-4.643545603013112,9.879579449698218,-0.8190289817394849,-33.954126397217216,16.921442969838395,4.732790337554272,-55.34722392265773,11.336992139349002,1.6048178386861667,44.473487970206875,-3.837499533023899,-3.992603035694359,4.437303403579488,-1.2123110785540254,-0.7737894031953756,3.249739451606909,-4.978692275180489,-0.7637230267631554,2.0158180630489775,-1.5457308586067333,-0.5166040820546158,2.691602177086552,0.6522711144858625,-0.19643033878688462,0.2986986611154378,-0.08270072559289528,-0.10628613640561546,0.31371254945963367,0.03310587179568036,-0.038314175502450656
0.9777897820709305,-14.067107630682182,2.745014154926213,0.7415241472370572,1.4933345819889452,1.642229225862451,-17.65427373280251,-10.51614904437842,1.9946253373727452,-19.463166453725616,28.266065155524377,7.881451420973111,-5.592870443849489,11.850111536693694,-0.7666802433789931,-31.526959275113647,15.676575932302928,4.574778400447384,-49.41321616332927,16.182590914750364,2.6381027902432255,49.75878144654033,-19.279655432391994,-3.4330931463154113,5.079017397282636,0.08793055594800271,0.5917836274999799,3.609046691102772,-4.267102133688871,-0.2591586731552461,1.8839352732785233,-2.287353396858452,0.44131193480784403,2.748282235013506,0.48133190855280295,-0.005171120642352406,0.3255079518556493,-0.20356201377195546,0.08248626982749502,0.3166452295243013,0.008616222540048686,-0.029603145387216773
0.45646567782735464,-15.242048011592871,3.086827673914073,-1.5138780218930394,1.8218128571579377,1.9407652486045466,-17.33787713799066,-15.140029667169609,2.3907929087800883,-22.374244398351202,25.109007454092037,7.0938492698572295,-6.349052737426999,13.798098272760322,-0.7114705544691489,-29.338052417685372,14.53432703020811,4.53748751422692,-46.61939062040967,10.358133634212665,3.8047617600594186,49.96804641322291,-17.139426325464385,-0.447836827031403,4.199070168583024,0.6480289886565599,1.0357033154036073,4.053672209479427,-4.0527181708691105,0.23338537299344866,1.9911247208336007,-2.7867470643438375,0.5045497362540589,2.7597862642193287,0.4170987423501562,0.16690205973979194,0.35308450585226364,-0.30895523360854915,0.08286627759288093,0.30832853390886317,-0.012754843598718882,0.018080135353586192
-1.3641739883095432,-17.25841914738797,3.7288966539551875,-3.4195590261480118,2.0651706499083087,2.11411960658047,-24.06381295074513,-20.908452867471624,3.5341864175789928,-19.18636664039555,20.8868791745706,5.525239905805456,-6.826634141971843,15.556227294942072,-0.7347420465165626,-27.159387012569574,13.379646477170533,4.536783509270679,-45.02143941451782,4.972605671240529,1.7954311218160701,50.809353369148,3.8043738905616418,-4.482182536645742,4.158992845610049,-1.0345268050821892,-0.2204171870575907,4.298419107828674,-4.751185884557523,0.14289800422294363,2.0179161024591408,-2.094018236109477,-0.17812232729746294,2.8336030399535903,0.579521999554624,0.1020425805261662,0.3308084704937685,-0.19912331350997958,-0.0515649413536094,0.33838007071403775,-0.004446110552075112,0.051174920833876265
-2.899337307588418,-18.162296273955697,3.7911330627276567,-5.430697933899639,2.3492134323252776,2.350607535744076,-25.92870393898384,-21.72366893666845,3.433174833028061,-14.490085828867585,17.450792306440377,5.641852228147228,-7.200821267230653,16.967188269657676,-0.8716633849717825,-25.0277337494063,12.245969092597038,4.421377727838055,-37.10905954351442,7.1396470894397215,2.1132044035092914,44.520042577066015,4.328824246293857,-6.593884956560171,4.701049307125456,-3.3530599821623137,-1.4151671900691545,4.368109008175146,-4.703616706782007,-0.09283824155677224,1.5261629792975338,-1.2955264333786052,-0.529758647479649,2.8512568852441813,0.8127184383543407,-0.12068049968788215,0.24829557511788497,-0.10098312894284092,-0.1480971235809981,0.36451144001244523,0.06884836182574777,-0.008111293873097964
-3.780745774545293,-18.522568419854014,3.717812284112466,-8.44863854977485,3.1384638144876824,2.483308289890302,-26.53649410456275,-21.926898572370895,3.834305034270551,-15.309994144116807,14.526388930958301,5.10523236145165,-7.5824198045413915,17.99471739512975,-0.963188944350451,-23.262393992043826,11.132075801839427,4.092662928908478,-31.82548275861479,9.857056577327752,2.349234288253647,31.59394845685396,-6.466947307645933,-4.61902572187041,4.0566199523948665,-3.824762040375329,-1.8782170361651098,3.6798268501459908,-4.061619131943157,-0.16549718661130994,1.6209110868565775,-0.9991031603249948,-0.9170789884694506,2.334102457688907,0.7007996339905459,-0.20253254600909149,0.26422915559971133,-0.07964295600759777,-0.20721536236834226,0.2572037708384642,0.0977644517170725,-0.07883486451337451
-4.744403142702992,-19.436676649866577,3.646404371578333,-10.303732238721642,3.758336341288522,2.5157736653270657,-31.131257803337807,-25.56178003555189,3.412697160354765,-16.810520334770366,12.167992396269524,4.760558001353296,-8.072827778098596,18.716577407779674,-0.9739654610969317,-21.897184360490428,10.226077771656948,3.759309543291249,-32.60005927703402,8.523457280927301,0.8560495382300299,35.74451051556945,-5.172765222577582,-2.5919870355116608,3.7822178189183733,-1.303447568441574,-0.6245055927411631,2.541864500610421,-3.843682125892132,-0.3890478337971115,1.9469814587475083,-1.4449256326809858,-0.3646040041211576,1.989049131193632,0.3910892490662403,0.0593660182835442,0.24576153464159559,-0.07494812006887847,-0.03183022322936951,0.14647937665683652,0.028196827163360343,-0.022445990890802524
-5.405378652971773,-20.77687289177826,3.5340515175068345,-10.17581401733261,2.66239382039953,2.2661773912732475,-29.95790508547737,-28.722767228397288,3.250498858857871,-14.164104220445722,8.865675944709162,4.102938724917406,-8.5011731184115,19.207203453285658,-1.0052287523750876,-20.374493289968534,9.32370213501998,3.432045526394507,-22.888682397105548,8.024431608243612,1.2255446867556081,38.58915214889438,-5.22044229940419,-0.1021188571052645,3.8540779109266756,0.7846181082470552,0.8478355013167841,2.8306533013495665,-4.165846034451765,-0.369645285219078,1.894552040583251,-2.195372253764597,0.4683124845684312,2.14701268281033,0.25529251995374674,0.08602373794212755,0.2799981472127992,-0.19079943588003612,0.11991106540429447,0.19603279502113793,-0.05364368978758111,0.01796343117003755
-7.531800446218763,-22.377359593617882,3.6973373560584313,-10.314089617319938,1.7142125513351145,1.929190509728438,-31.684986111541317,-30.778419335450188,4.651153309380821,-10.772574176170469,7.003278930775617,3.538466064081895,-8.887894288685985,19.580815813925955,-1.1773879322680285,-18.573095497990916,8.23986666524186,2.986743185073197,-17.04994164778335,10.219897304292857,2.45843040453463,24.497673957478018,-9.971764115413823,0.9008654723688669,4.329793253266739,1.0027575540759133,0.46687910352616824,4.3537649413032495,-4.399210515613709,0.18006996142855744,1.7742038837769063,-1.9496268987935854,0.15527820263112035,2.2984451096402387,0.5414426980083089,-0.1776048806389892,0.34365139611054873,-0.16599617102386846,-0.036025608116499575,0.28311767673099997,0.0059661705210871455,-0.023797862143592103
-9.766304641286522,-24.597547248882016,3.732563658323885,-11.29953911202427,2.236907262826021,1.7105127386670889,-36.941126025712585,-35.28519772944104,4.595959478015048,-11.224771691234416,6.727024477888976,2.8836214618961375,-9.356056008982396,19.945176312804048,-1.3928498078267324,-16.722876204428108,7.176899500816655,2.484223448789952,-19.11544992072904,10.635232110871776,1.8654453432879976,20.40459030110619,-0.6489990929680394,-1.5525252140172905,5.5302806255140835,-0.36230426327590615,-0.47838078481178214,4.9375239583932,-4.9017109678988335,0.7359463271850707,1.465810590556911,-1.5343228358309444,-0.19105408848034153,2.0671646350146484,0.6737484710929663,-0.06856592097147228,0.3037606576281621,-0.11737484847461481,-0.1610675066831225,0.23380728185427724,0.057804794658733984,0.01712431681341082
-10.19951647694795,-26.83414825366037,3.635683322138928,-12.329404709042484,1.768559621861965,1.5121978809046361,-39.31523203822236,-37.94238188243662,4.058221421932902,-13.623657680134194,3.0133073626944844,1.7979362388078386,-9.88143198280822,20.25357598692946,-1.4396124058577215,-15.05548069572297,6.3369601391100945,1.9697857001563837,-20.76095683170525,7.804926122688053,-0.04667422517533899,21.79696445259447,0.4981713170307863,-0.8455965762847586,4.613957529965476,-1.3361672605864983,0.006249600539385416,4.598506723193297,-4.694997193606005,0.6614874919155898,1.6107635896525925,-2.060629842466728,0.21792703620221118,2.105802733478265,0.5299815702005344,0.09395560411144101,0.214537084742716,-0.2090877415431072,0.051079374222211385,0.2115268122138801,0.02649930214313543,0.03964671035639252
-10.457177744771291,-28.323531690785437,3.6938994701958974,-10.99413505157454,0.7607419331058582,1.2846317825924398,-38.96140606011546,-36.46734599226804,5.095561742674374,-11.374009713226032,-0.4192906567504533,1.293077596241055,-10.398367044514782,20.228598431030715,-1.4046232377575119,-13.71517333527207,5.8038508530160255,1.7106097396878208,-14.956730056002689,9.52964754681428,0.3130415151248866,19.8384899385761,-7.934933081706876,1.5373391227788187,3.68795960426174,-0.8374585560933465,0.5908309938451282,4.435588418919146,-3.5132277460397154,0.6785888014493956,1.5106595890114005,-2.190551619875963,0.5267684603287902,2.0998758032096143,0.41432512269038635,0.023137054648811554,0.12661900355345354,-0.2029778026887164,0.164921537630351,0.2255617679935142,-0.010461132216365883,0.013237304282858041
-12.004802364011146,-30.29460208124307,3.8299274911186103,-9.06444086225802,0.10839611698812184,0.9028306600386767,-42.19701028991377,-41.327557088508286,5.458617198497122,-7.258676987394506,-1.02057752517599,0.6949613280324729,-10.502664703109334,19.97174342910945,-1.4476744060228808,-12.652463963233556,5.319140600003887,1.4944420472913649,-12.416558562195496,5.814881020573186,0.825913081922116,24.82086046466155,-4.611631416456966,-1.9425512387620674,6.06334275121017,-0.03259631259488685,0.31775070076868545,4.086185608226248,-3.7054138425945475,0.26817232872251556,0.7847400450452836,-1.6233741138678022,0.728340500402488,2.0015501746574227,0.4822624527596353,-0.14091098187631315,0.1523246731688407,-0.1691392696295348,0.11573078309728559,0.24104516401069695,0.02645883724440446,-0.04009112065692758
-13.425127837292383,-32.312919498754106,3.8759547191264345,-8.63946918060262,0.0021418181031620264,0.6744772976444903,-47.50874895035686,-49.03536514060357,4.595133171408145,-2.4703773755486904,-1.373061900939276,1.5547677344691064,-10.182889320658562,19.98129504806211,-1.473317024032092,-11.674485513672648,4.850535006485834,1.1170845372837999,-10.156393545325189,-0.34451532882576935,0.6245883887601079,26.790598596062463,2.618424437643715,-3.207599551796846,6.119178632516289,0.6487788606859674,0.1091119136961496,4.003019491157937,-5.213558471311759,-0.5432213045136012,1.0779647625676185,-1.4706794467737538,0.3602754109836666,2.2623787054493962,0.7289028574634269,-0.24836734144415826,0.2022035418086466,-0.09907600782078796,0.01295610488618461,0.2471518053524714,0.08756855592266562,-0.06760169742338024
-12.91970705848996,-33.40893547748858,3.7784977763270686,-8.896237283106558,1.1401602466410299,0.6858584377455916,-46.56907583721831,-48.90125476688419,4.44435314333829,-3.1499059640488505,1.4426122639366197,2.0502863706010332,-10.0056267496409,20.036093028508727,-1.3900378856850086,-10.608965650773824,4.498943573391744,0.94766756671775,-9.021173913104695,6.222175907718774,0.6069030051757136,20.482680349075668,-6.582706400581344,1.486428577623106,3.135559212926267,-0.001421191400204875,0.0025720574893265463,3.9565991822956144,-5.194224510938369,-0.48201936018066466,1.9419082944482728,-1.8265124369754997,-0.3187570648569363,2.44685366419172,0.5685224594450111,0.013962437994416935,0.27481553690661853,-0.15661648368179157,-0.04891370574162664,0.2678013721436193,0.03407425678817832,0.0037263301986613074
-11.834512363707145,-33.00874358232447,3.507737669084437,-8.187301432483421,1.779046061544542,0.5973647161093858,-40.49986627411167,-42.80712214021596,4.5192626481726395,-6.479698805713868,5.350022246367434,0.9370803911419654,-10.132695514342922,19.939728231653564,-1.3216155225385042,-9.453329180794501,4.14005846835269,1.0056742633016353,-7.115451807993526,19.24916457527013,0.6557558584518115,14.470470905684707,-14.049825810634971,2.3139894026614662,2.99770100092647,-1.4526079352025145,-0.6525082450883153,4.109736566844309,-4.005396965579509,0.8145609184315732,1.7897924272862997,-1.6333392855199105,-0.5130484880660107,1.844606094937491,0.03929929697823546,0.34541529425149897,0.337409126736992,-0.20611648514417735,-0.10451966469595725,0.1761073970872362,-0.07169073332580483,0.07019811291414692
-12.330838618813328,-32.701315119253124,3.5309483968358397,-6.395998015826695,1.3036817459152408,0.5093158642555581,-43.762557696608425,-43.41957208428156,4.958532140683867,-2.352898211113966,4.423386202358391,0.6896415404858638,-10.16915165569365,20.34968227928331,-1.3413395004550057,-8.44861862708095,3.831811318400755,1.0472462430603215,-4.844150818752461,15.896662480047056,0.7509558707379363,10.452714265365527,-3.51821823698622,-4.142233483172334,6.4165154558080735,-1.57067657401647,-0.9771395823417911,4.524383594398364,-4.321440489290896,0.4799186835566945,1.1815166112388233,-1.6239831255277,0.018175059546029403,1.8527227692785417,0.3491745959134414,-0.06077803963908694,0.2708673714038557,-0.18441535043749613,-0.05700577764606487,0.1858295289214497,-0.022269942836985603,-0.0069571082286959815
-12.777019530342049,-32.359059780439914,3.597917020007399,-6.118526926168079,0.3116939595343987,0.566654219871443,-49.270672122352984,-47.460552412226804,5.136022224219771,1.0241564657749413,-2.9180227957855864,0.23514198334365585,-10.143446570997778,21.439307696402995,-1.3500510772070737,-7.982715767317701,3.6249311981121113,0.9013925411437628,-8.416632263610893,-1.147711869650994,-0.17531638189248405,9.239347534245276,4.160003380276464,-5.390019121881623,4.83354654113412,-3.1660844579133633,-1.2262748543366475,5.489831818800151,-5.042689319769144,0.2722592306884101,1.387403708519444,-1.5136622839416776,-0.03957716781485093,2.107966629370735,0.7698445435197656,-0.40090942820929026,0.215444830071115,-0.14781790162112146,0.038329586278306786,0.23748124199978526,0.044433021330428826,-0.058117724329507896
-11.548384363023647,-31.429588466009918,3.0872833215891604,-7.18967161795028,0.007242437311164194,0.5726083772920305,-44.771636235645936,-45.47798869396342,3.93725415597218,-2.548948510588467,-5.825517704550376,-0.48438451231885576,-10.355913008988427,22.62116964846358,-1.4757599004688646,-7.8509054548424455,3.5367222203511424,0.706126181369525,-8.529954811676525,-2.6274196160035066,-0.8860408198687759,15.310951522470637,-4.656854923789985,2.2717937243957813,4.054119906036087,-1.1140753602769045,-0.2635755212226729,5.874948041896526,-4.633984202143397,1.0988763334060037,1.4515853775038399,-1.7663275099121958,-0.004660584280092065,1.8428216811112852,0.7127567614494531,-0.15430739207713662,0.24459893964991442,-0.15236268034694406,0.005909889564923769,0.2146619869669018,0.06824490643965997,-0.0027418952767778934
-9.787586947418218,-31.265705174694936,2.4615132094289622,-6.428205353280257,0.09723435447940135,0.24214250667147139,-41.522463618818634,-43.06841527320285,3.1281488678583558,-3.7225850378691563,-0.6549030367866183,0.22507962406311696,-10.685468235639568,23.345865505565786,-1.7461232949927672,-7.780754977375273,3.474141385323431,0.5634826373396458,-6.582856312121821,7.930110755416144,0.3311523344467076,14.189212274210856,-14.919400828319953,3.5220558270055733,6.057749142250588,0.7346609797729056,0.01803673580993859,4.779154851059923,-4.405947373883736,0.718370648841642,1.06274208410275,-1.6089559608059874,0.1929174847706331,1.8034710378273193,0.4952894290696887,0.11390517917154722,0.23337762207725798,-0.09014041751620235,-0.04474677499762554,0.19279414869103156,0.030228791922811873,0.04942397628088323
-9.040306404603413,-31.514624610684827,2.184686542504606,-5.591760184653043,-0.772548002872386,-0.18590907760529304,-44.64841019598474,-43.02296927002789,3.355084519243705,-1.4226366508430182,0.5491403826197162,0.18766981610328512,-10.925022280289056,23.63347652924875,-2.0060963683277038,-7.845721659846106,3.3096515756284255,0.36525879619139656,-5.626002075069026,10.843518618173734,-0.004251099741357274,8.893343753132378,-12.654162318581955,0.827307149732269,5.074200427414191,0.04313345306448032,-0.14659204955908972,4.444812037412174,-5.056983315644833,-0.041317497889794524,1.202001897482902,-1.5915596489096222,-0.020047796734233764,2.125229965854703,0.4134257496435353,0.03661077572577695,0.19938548089238695,-0.06505688320849008,-0.06105628309620454,0.2148670872445889,-0.01530263468708839,0.018214303552526658
-8.865775749824387,-30.81146348598604,1.9585646251930824,-6.384931730688038,-1.349161624748694,-0.1795568760679556,-44.93115011445597,-40.32253899611179,2.7780302167933906,-0.7830849773778922,-2.6192001748441616,-0.032146426988943086,-11.04303154652907,23.699824679229295,-2.131538768794658,-7.9234379172412295,3.229535483059873,0.2377974282928445,-2.363506162604639,10.333671939422842,-1.7795650696452163,15.461327136474981,-10.387185014114603,0.41037921857390847,2.7994254528906004,-0.3631269289639715,0.42710298109188793,4.277483152978859,-5.044592229009162,-0.4732709860693896,1.3093387508322922,-2.018092107250141,0.044232024895657605,2.3918843784463757,0.394958456389475,-0.04032872914386968,0.18979266095047637,-0.2234543108870561,0.0440300167649774,0.23166404801955537,-0.02638432547947013,-0.022310875331602552
-8.465953491953448,-30.818635343169863,1.8521598748171064,-7.150731808050845,-0.7366248689406331,0.15658469878589662,-42.24103757530461,-40.15925147238133,2.015545817637549,-1.5959087063541333,-2.4124456793038367,0.9956508169582423,-11.07869227652438,23.513396322853588,-2.1446795189303316,-7.957872434954271,3.2819941297418587,0.3566164069688937,-1.7038350859173277,7.793996447234131,0.10499454512221992,21.699649032058794,-7.73069225720112,-0.653905941148053,4.015162859629811,-1.185187825843813,-0.1187910406472167,4.867216424425057,-4.14541797574601,0.32826119994459374,0.7327480753347928,-1.6069308309747656,0.2714497497758539,2.0537852970054393,0.3660255415430267,-0.13190784921372045,0.10006078765065272,-0.17235828260645927,0.06700660273363515,0.2194135880689203,-0.019709509989433657,-0.04537510467673769
-8.030741976430816,-31.55323460237459,2.039240919850694,-7.640979037325372,-0.4310227580696462,0.2826243176527063,-44.613427722159734,-41.06983427007032,2.4125916006492014,-3.7366232002864597,-1.356204870606309,0.8810205749368314,-11.122627838433042,23.50661976149212,-2.0773421811081554,-8.355832316574205,3.4119061662959846,0.5107982676421459,-10.293630857100945,7.643755470867102,1.0158260264907228,18.43007619072506,-3.733502318921822,-4.346624413877346,6.935552846684209,-1.2536097570548288,-0.9015505263075868,4.686086947769831,-3.8626993729553605,0.11241805387952819,0.326786149772535,-1.0253794250683663,0.3243883709100454,1.9642024983449498,0.5770339550115858,-0.26520342974066596,0.13967006683699112,-0.026222133299773354,-0.05146424446107438,0.23625210929583776,0.027198481671163777,-0.06025901196745754
-7.611737170122338,-32.398832341516865,2.262724250991767,-7.522266120215414,-0.4422253137296246,0.10181043727912976,-48.771056962967705,-41.096039621536036,3.251807243008002,-4.293051718978295,-0.7196516151594786,0.045370546632972845,-11.394145787528043,24.070202388115693,-2.0772598566315215,-9.13011418788324,3.7066008335035945,0.5705350219412,-16.301981891978077,9.367144930194177,0.07005923996168348,7.084229228229951,-3.9435792253108515,-1.7454384021041622,6.185790580276092,-0.5757663198071333,-0.3851130161845094,4.594760890402209,-4.256074941412201,0.04681627357770974,0.9224875957888063,-1.6115401007404766,0.12276898408049135,2.1742242090015336,0.6691589746195664,0.06030809760080289,0.25675515948263994,-0.1804420206645633,-0.03516837657582171,0.2569313436423243,0.0319498796101859,0.052645712514232335
-5.581016822704758,-31.911925945845727,1.879476516553853,-7.681558743218763,0.22294377702637314,0.16162275120338745,-43.40867607464672,-38.34625089335373,2.4711858171297747,-4.153738089576863,-0.31886169089332905,-0.1712482496187636,-12.112677275656196,25.06123898713158,-2.118645649410398,-10.02022502738723,4.2307229595614215,0.7488464273424649,-7.949615051754302,12.373579742741505,-1.1775143107139796,10.416138331690759,-13.057862073610206,0.9138643664842178,3.0328034205103274,-0.8250622236043963,-0.010950008097443118,4.839417376334458,-5.3982586278212334,-0.04392879984312305,1.4277771170429951,-1.8986119799567354,-0.19383222241922565,2.3564131123832004,0.546025730758716,0.25880882183237885,0.24233063260445917,-0.25839899063415606,0.008790290836175378,0.2388975229196687,-0.03521571711515751,0.12528073985352334
-2.523674614101404,-30.48049810737758,1.3724695476648394,-7.624631251766103,0.5501050233046274,0.4258442676576805,-36.49075047210799,-33.70334954336953,1.3097742816881315,-3.3172349418294416,-0.49157940968246855,0.44341922061932404,-12.799862754123437,25.891935061426835,-1.979452344678915,-10.709653564691482,4.769854829798624,1.0725700719704856,1.509036058586238,15.93775700452495,-1.8845631910752347,18.89091590343749,-18.52573591794399,-0.8197225248216629,3.974001559685055,-0.3705185968669289,-0.06257385083987056,4.571427292593855,-5.849906659844328,-0.3739919254126053,1.0506502340235764,-1.4960621635743085,-0.0715197130879691,2.1133373466166727,0.31949258742712916,-0.029970467732333528,0.11693217789110531,-0.09199474968964752,0.0005265081595266092,0.19948137611242647,-0.07898117873101189,0.019876948352017334
-0.6810151754962661,-29.75301502918031,1.5793910236974955,-7.277020822408675,0.14909733366686223,0.4627713251330541,-38.8991854815494,-31.826798709951202,2.012615451397671,-2.135179614941701,-0.48109397883936,0.5963652423784402,-12.828500207890704,26.288729558717034,-1.7154817662709814,-11.411122398569209,5.296687902132015,1.32916159557618,-5.110047121907044,12.652991094963733,-2.2465504185716427,16.00591672407893,-12.423935013606348,0.8926117136831572,6.923589469783821,0.13304431187751234,-0.3635318318179793,5.275261988891917,-4.757316645893015,0.4065979168002451,0.8396363252521151,-1.4563677944406292,-0.05781907084172548,1.6368857047246923,0.49690801857648637,-0.40152538522622017,0.13752185527107372,-0.06653533760657566,-0.07295678153215696,0.14014690334697658,0.01984359343664576,-0.10379132081020095
1.2815241023182482,-29.915748284793672,1.7879838734006892,-8.435767574773607,0.5576148556194355,0.6763303312607177,-39.34716311790064,-31.232769300999372,2.615802796771703,-4.559422263776265,1.264696012002596,1.4830036794133807,-12.653666160920073,26.653457791576688,-1.5233404243348556,-13.172397822141566,6.233157549702286,1.6415044192406953,-13.88249501944351,10.63871582266345,-0.870813256792164,16.859464386034077,-2.700065165055812,0.2893883305745658,6.449037974175296,-1.0364451225098554,-0.40259537309700805,5.293211358288216,-4.0461036016569665,0.4950999094365297,0.7661719835213882,-1.7079280479100611,0.1631574746401239,1.8758980582293105,0.689003059767416,-0.3316019035042383,0.14777950364897688,-0.16858758145304217,0.010489999634731406,0.20196925133592142,0.08552726289923603,-0.0955555502409657
3.519258985095805,-31.122611057176698,1.6747242540727427,-10.855973584463376,1.6580993329344624,1.193981186392978,-37.04789967302817,-30.880605766062658,1.254911971383074,-10.525637022029795,4.013199287051388,3.2532716846692997,-12.489438007952502,26.8582295896082,-1.4154211759343185,-16.23231383918131,7.797347516161542,2.1742497217734447,-19.371875029582146,13.882956111671882,1.8081080635786928,18.607501173002635,-5.4421885332278155,-1.1597271929594297,4.1038426660144856,-2.284266008782337,-0.3862425117951229,4.78663126482268,-4.4881838175374416,0.2797532289750908,0.993076559397115,-1.935609656516556,0.17601350925618833,2.4465892571665075,0.37766462374173726,0.27574793187330654,0.17239402842007293,-0.26315098322098057,0.09340381991695912,0.3495500846413804,-0.03481104503454323,0.0837300914930016
5.335341458034372,-33.175179146518765,1.9375021144979596,-11.965374015685775,3.1736041126550125,1.7632474264822149,-37.559298555193635,-30.988779119092325,1.0495706075418885,-13.873952195116908,5.951111906756854,3.5415654830823255,-12.054710013817008,26.18585999639778,-1.1688767890705738,-19.51076248611092,9.652790358398754,3.040290065145139,-25.46680252705259,13.31130267145654,1.6062388688152063,19.302590399509953,-15.508924062320395,4.06588973286408,3.2887684270495927,-0.8981187223719553,0.2745494360646042,5.578291211351699,-5.294011409645998,1.0143985965669913,1.289085357051846,-2.0642685935540994,-0.09334421619878662,2.153686445861256,0.1693134040064578,0.4172391962539907,0.18960550870322526,-0.23205189034583545,0.043633120173958324,0.27576007913826306,-0.10304257128634065,0.14297841593179092
7.270679149637215,-35.62122294671689,2.39143999595676,-11.966878154369748,5.5908348583476934,2.4069641008562352,-36.670996475632684,-28.954652847483235,2.6518128968343437,-10.364857882027115,7.9739707870057925,3.3035069637474077,-11.658793428851473,25.13111733296895,-0.8557704674261738,-22.132534953297363,11.289604871544476,4.019156345703288,-22.52219224003299,14.062692981490954,-0.7712925497983009,19.500243463888633,-14.045260141561226,3.744939743792469,5.166831451398723,0.03352848913769654,0.5535497671194293,5.55220267323954,-5.203958961392234,0.22463042118363752,1.1681367919478611,-2.086864217156243,-0.07756053532265605,2.189634650624752,0.5862383831845109,-0.1396330466325021,0.23666075185950317,-0.2004348985967746,-0.025760470066046804,0.23614216063955162,-0.0038830085987100315,-0.008304084907354719
8.526554190558508,-38.33523723167015,2.8743848798001643,-13.086094370473702,7.268707385088636,2.948874532341916,-35.96338424126355,-29.009247912383774,3.106625614247673,-5.725865736504534,9.429464534261832,4.3894934068017735,-11.701926167408365,24.414476913364094,-0.5440430104140751,-24.279194828710658,12.583981401016544,4.638075311812621,-15.256347437726632,14.827488229241554,-2.3813829221922784,30.67502465951537,-9.06042832970378,-0.8489438851261033,6.112695356818601,-0.7246926092553504,-0.09113902431749575,4.943463769632748,-4.895602448141646,-0.48949911123627027,1.2095565393981607,-1.84771688724159,-0.15286619868346724,2.4577792035726325,0.7737532482157782,-0.18192879100624004,0.24955223613323826,-0.15405162562274094,-0.036460571634709275,0.2433159741309616,0.055057438242166724,-0.04246595227706742
7.606163407907781,-40.225392637291975,3.8299355428660062,-15.462606953527569,8.155301033676318,3.334505208602276,-41.324662327403004,-31.28586087158429,4.213190748577105,-9.645067320094757,11.292061024263614,5.620015535131817,-12.028027594472782,23.4887614686591,-0.2479452512780584,-26.936776375082818,14.19302419713189,5.06742672174975,-23.49124850160137,15.90465292472812,-0.1969188602701358,35.59729555724576,-19.812495277496005,2.6794541351301415,5.855605093018156,-0.9242274972825891,0.3456785266417879,6.066166886508527,-4.819571322718187,1.443245990805532,1.0904047853428356,-2.1765682902669123,0.08869204097837699,2.172786510584296,0.28292242839731946,0.41547472353667136,0.22549848141855877,-0.22021561477385593,0.049102878720681635,0.19581482515665272,0.016790671047377567,0.0534632761484069
6.02704655769637,-42.36868584840259,4.664518967325196,-17.89646357939919,9.330882517151787,3.4990029024335976,-47.89202775322894,-34.76730839893187,4.184237431572369,-17.95663545773131,13.422201474868508,5.165732354806006,-12.393540899241716,22.282097572956406,-0.105627611048546,-30.79431151459795,16.769905798392664,5.5670905345101644,-42.95401374723262,13.18000787728059,-0.987579392518013,34.951907489479275,-23.073665653012522,1.114318714659873,5.9466724179112775,-1.7928094406785644,0.10308071872857232,6.5192581363460755,-5.356819104298844,1.1494825895663638,1.1445802138952,-2.5841138320308894,-0.007727255628055294,2.4997873127027623,0.3974444854172632,0.3283959471281855,0.26529416303659786,-0.30438916205626887,0.020810807748437122,0.31638255463983267,0.0031135818269658684,0.0601491218012124
6.14523,-45.57004,4.90212,-19.38573,11.17311,3.53831,-48.6914,-39.13036,2.73312,-16.98287,14.06745,4.30707,-12.59401,21.18413,-0.09768,-34.97389,19.95319,6.12387,-43.95574,5.22545,-4.85099,40.4942,-11.76582,-5.09457,6.32949,-2.26448,-0.7275,5.23435,-6.15361,-1.34355,1.76675,-2.82848,-0.76247,2.87176,0.91995,-0.13908,0.35845,-0.35286,-0.13755,0.35624,0.01767,0.0111
,,,,,,,,,,,,,,,,,,,,,,,,,,,,,,,,,,,,,,,,,
,,,,,,,,,,,,,,,,,,,,,,,,,,,,,,,,,,,,,,,,,
,,,,,,,,,,,,,,,,,,,,,,,,,,,,,,,,,,,,,,,,,
,,,,,,,,,,,,,,,,,,,,,,,,,,,,,,,,,,,,,,,,,
,,,,,,,,,,,,,,,,,,,,,,,,,,,,,,,,,,,,,,,,,
,,,,,,,,,,,,,,,,,,,,,,,,,,,,,,,,,,,,,,,,,
,,,,,,,,,,,,,,,,,,,,,,,,,,,,,,,,,,,,,,,,,
,,,,,,,,,,,,,,,,,,,,,,,,,,,,,,,,,,,,,,,,,
,,,,,,,,,,,,,,,,,,,,,,,,,,,,,,,,,,,,,,,,,
,,,,,,,,,,,,,,,,,,,,,,,,,,,,,,,,,,,,,,,,,
,,,,,,,,,,,,,,,,,,,,,,,,,,,,,,,,,,,,,,,,,
,,,,,,,,,,,,,,,,,,,,,,,,,,,,,,,,,,,,,,,,,
,,,,,,,,,,,,,,,,,,,,,,,,,,,,,,,,,,,,,,,,,
,,,,,,,,,,,,,,,,,,,,,,,,,,,,,,,,,,,,,,,,,
,,,,,,,,,,,,,,,,,,,,,,,,,,,,,,,,,,,,,,,,,
,,,,,,,,,,,,,,,,,,,,,,,,,,,,,,,,,,,,,,,,,
,,,,,,,,,,,,,,,,,,,,,,,,,,,,,,,,,,,,,,,,,
,,,,,,,,,,,,,,,,,,,,,,,,,,,,,,,,,,,,,,,,,
,,,,,,,,,,,,,,,,,,,,,,,,,,,,,,,,,,,,,,,,,
,,,,,,,,,,,,,,,,,,,,,,,,,,,,,,,,,,,,,,,,,
,,,,,,,,,,,,,,,,,,,,,,,,,,,,,,,,,,,,,,,,,
,,,,,,,,,,,,,,,,,,,,,,,,,,,,,,,,,,,,,,,,,
,,,,,,,,,,,,,,,,,,,,,,,,,,,,,,,,,,,,,,,,,
,,,,,,,,,,,,,,,,,,,,,,,,,,,,,,,,,,,,,,,,,
,,,,,,,,,,,,,,,,,,,,,,,,,,,,,,,,,,,,,,,,,
,,,,,,,,,,,,,,,,,,,,,,,,,,,,,,,,,,,,,,,,,
,,,,,,,,,,,,,,,,,,,,,,,,,,,,,,,,,,,,,,,,,
,,,,,,,,,,,,,,,,,,,,,,,,,,,,,,,,,,,,,,,,,
,,,,,,,,,,,,,,,,,,,,,,,,,,,,,,,,,,,,,,,,,
,,,,,,,,,,,,,,,,,,,,,,,,,,,,,,,,,,,,,,,,,
,,,,,,,,,,,,,,,,,,,,,,,,,,,,,,,,,,,,,,,,,
,,,,,,,,,,,,,,,,,,,,,,,,,,,,,,,,,,,,,,,,,
,,,,,,,,,,,,,,,,,,,,,,,,,,,,,,,,,,,,,,,,,
,,,,,,,,,,,,,,,,,,,,,,,,,,,,,,,,,,,,,,,,,
,,,,,,,,,,,,,,,,,,,,,,,,,,,,,,,,,,,,,,,,,
,,,,,,,,,,,,,,,,,,,,,,,,,,,,,,,,,,,,,,,,,
,,,,,,,,,,,,,,,,,,,,,,,,,,,,,,,,,,,,,,,,,
,,,,,,,,,,,,,,,,,,,,,,,,,,,,,,,,,,,,,,,,,
,,,,,,,,,,,,,,,,,,,,,,,,,,,,,,,,,,,,,,,,,
,,,,,,,,,,,,,,,,,,,,,,,,,,,,,,,,,,,,,,,,,
,,,,,,,,,,,,,,,,,,,,,,,,,,,,,,,,,,,,,,,,,
,,,,,,,,,,,,,,,,,,,,,,,,,,,,,,,,,,,,,,,,,
,,,,,,,,,,,,,,,,,,,,,,,,,,,,,,,,,,,,,,,,,
,,,,,,,,,,,,,,,,,,,,,,,,,,,,,,,,,,,,,,,,,
,,,,,,,,,,,,,,,,,,,,,,,,,,,,,,,,,,,,,,,,,
,,,,,,,,,,,,,,,,,,,,,,,,,,,,,,,,,,,,,,,,,
,,,,,,,,,,,,,,,,,,,,,,,,,,,,,,,,,,,,,,,,,
,,,,,,,,,,,,,,,,,,,,,,,,,,,,,,,,,,,,,,,,,
,,,,,,,,,,,,,,,,,,,,,,,,,,,,,,,,,,,,,,,,,
,,,,,,,,,,,,,,,,,,,,,,,,,,,,,,,,,,,,,,,,,
,,,,,,,,,,,,,,,,,,,,,,,,,,,,,,,,,,,,,,,,,
,,,,,,,,,,,,,,,,,,,,,,,,,,,,,,,,,,,,,,,,,
,,,,,,,,,,,,,,,,,,,,,,,,,,,,,,,,,,,,,,,,,
,,,,,,,,,,,,,,,,,,,,,,,,,,,,,,,,,,,,,,,,,
,,,,,,,,,,,,,,,,,,,,,,,,,,,,,,,,,,,,,,,,,
,,,,,,,,,,,,,,,,,,,,,,,,,,,,,,,,,,,,,,,,,
,,,,,,,,,,,,,,,,,,,,,,,,,,,,,,,,,,,,,,,,,
,,,,,,,,,,,,,,,,,,,,,,,,,,,,,,,,,,,,,,,,,
,,,,,,,,,,,,,,,,,,,,,,,,,,,,,,,,,,,,,,,,,
,,,,,,,,,,,,,,,,,,,,,,,,,,,,,,,,,,,,,,,,,
,,,,,,,,,,,,,,,,,,,,,,,,,,,,,,,,,,,,,,,,,
,,,,,,,,,,,,,,,,,,,,,,,,,,,,,,,,,,,,,,,,,
,,,,,,,,,,,,,,,,,,,,,,,,,,,,,,,,,,,,,,,,,
,,,,,,,,,,,,,,,,,,,,,,,,,,,,,,,,,,,,,,,,,
,,,,,,,,,,,,,,,,,,,,,,,,,,,,,,,,,,,,,,,,,
,,,,,,,,,,,,,,,,,,,,,,,,,,,,,,,,,,,,,,,,,
