PaulMeinheit/Bachelor_Muay_Thai/processed_Data/E_01/E_01_Teep/scaled/JointMoments.txt/scaled5.csv
R_KNEE_MOMENT,R_KNEE_MOMENT,R_KNEE_MOMENT,L_KNEE_MOMENT,L_KNEE_MOMENT,L_KNEE_MOMENT,R_HIP_MOMENT,R_HIP_MOMENT,R_HIP_MOMENT,L_HIP_MOMENT,L_HIP_MOMENT,L_HIP_MOMENT,R_ANKLE_MOMENT,R_ANKLE_MOMENT,R_ANKLE_MOMENT,L_ANKLE_MOMENT,L_ANKLE_MOMENT,L_ANKLE_MOMENT,WAIST_JOINT_MOMENT,WAIST_JOINT_MOMENT,WAIST_JOINT_MOMENT,NECK_MOMENT,NECK_MOMENT,NECK_MOMENT,L_SHOULDER_MOMENT,L_SHOULDER_MOMENT,L_SHOULDER_MOMENT,R_SHOULDER_MOMENT,R_SHOULDER_MOMENT,R_SHOULDER_MOMENT,L_ELBOW_MOMENT,L_ELBOW_MOMENT,L_ELBOW_MOMENT,R_ELBOW_MOMENT,R_ELBOW_MOMENT,R_ELBOW_MOMENT,L_WRIST_MOMENT,L_WRIST_MOMENT,L_WRIST_MOMENT,R_WRIST_MOMENT,R_WRIST_MOMENT,R_WRIST_MOMENT
X,Y,Z,X,Y,Z,X,Y,Z,X,Y,Z,X,Y,Z,X,Y,Z,X,Y,Z,X,Y,Z,X,Y,Z,X,Y,Z,X,Y,Z,X,Y,Z,X,Y,Z,X,Y,Z
12.965350000000003,-12.68891,-0.5191200000000002,-33.48527000000001,29.358860000000004,9.609130000000002,6.039430000000001,-13.48502,-1.3765999999999998,-52.978870000000015,49.00983000000001,16.078,-4.022310000000002,17.77006,-0.87185,-67.17006000000002,39.94574,14.102360000000001,-73.36246000000001,11.463580000000002,4.8525100000000005,65.97029000000002,-6.53524,-4.8061300000000005,4.09206,-1.1332300000000002,-0.28261000000000003,4.18968,-2.784190000000001,-1.7975900000000002,1.5047400000000002,-1.7307200000000005,-0.60374,3.4650300000000005,1.5134900000000002,0.6363300000000002,0.20645000000000005,-0.17432000000000006,-0.03493000000000001,0.45646000000000003,0.22868000000000005,0.008040000000000002
13.416164348210476,-15.67593526077627,-0.6155064210921949,-34.34148345596581,35.16348233275592,11.094120809873806,6.140120589168972,-14.891747114075617,-0.8821497788176146,-57.16921386918621,55.56326016226375,17.889610853735704,-3.262456467180219,15.583882499578948,-1.213882742345265,-74.01924989416098,45.002073231391755,16.05835064953206,-81.38465488736506,9.448232972369272,4.62684448996351,77.77928433111765,-0.3299097466747459,-10.851150681178781,3.768820543571878,-1.6394894344169808,-1.000732783157279,3.763114852214414,-3.8218510916010255,-3.304128142716311,1.4367880083653732,-1.4308640412664395,-0.7461944019790475,3.769151938826136,1.638094602875595,0.621872723570573,0.22490399938806516,-0.2160070440252998,-0.08885756844021238,0.5308175983328868,0.23202754511053214,-0.004397872269682101
13.228795119630048,-19.16393802372504,-0.49931935005265404,-35.04560734697883,37.874684814803935,11.4635251308343,0.77420472114911,-14.11987642854527,-0.874961136248918,-50.49357431457864,55.05611017622059,17.397543489864905,-3.3095245403512736,15.352262092138538,-1.7908291255454172,-79.05944620032116,48.467352900566794,17.065221697531882,-79.03348764854876,9.702954218563253,-1.6354100143830148,82.4724776338071,-1.797737897934915,-11.267861000718376,3.567372515918808,-1.5463187787903854,-1.3531077846404886,3.7509765309941594,-4.988905567838582,-3.8214020000223514,1.5524299064924394,-1.2540544166179566,-1.028689306289476,3.3750034600048657,1.4193171771521393,0.6085731316385928,0.2687112775229296,-0.21263880497074686,-0.18940653718508005,0.39890124868559756,0.09954144733409431,0.029890959178586595
13.454736322325605,-24.541152473051447,-0.18102648971529922,-36.10882830158914,36.18454079788876,10.344514146712298,-4.710947034859754,-20.51274135989402,-2.2239218386877857,-36.88946275120414,50.98068125230717,17.417018501561692,-4.846335151530639,18.33404406190193,-2.5929330831483646,-81.42671163535218,50.0161917684378,16.58952938887243,-63.371696800388456,7.030022433374111,-5.559660574064864,78.8379657714078,-1.9128604671967122,-3.4563709820616815,3.5669402884998247,-1.1254776086295115,-1.1597978354637524,4.172724665050496,-4.829758842901034,-2.6459031572715466,1.6571151373382573,-0.9899174952385255,-0.9799404641354611,2.6374401987850717,1.1261844016269587,0.5575176160625029,0.2582248267160539,-0.08421892046651798,-0.15453407855300774,0.21944276977411661,-0.0020291944325885017,0.052075368672504875
12.37713824317929,-33.43936651073779,1.3542912348743703,-36.01815389971403,30.25585761025043,7.810695627275816,-10.027591379586923,-37.69158218787528,-1.4908350492694467,-23.32248701487561,43.9146408861906,16.979077934777614,-8.4146634011624,24.23130342915313,-3.591149800230342,-76.83022778543423,47.175239856848656,14.007935879326228,-37.57402271090914,-3.4488269986898503,-2.4695873927246366,67.07690367273851,-10.814678576222173,3.9431592594129277,3.267587420974818,-0.7622777401463859,-0.30655888971435696,4.804264892971081,-3.9421320329711405,-1.1242440012112835,1.3149952792069564,-1.1039594404678454,-0.6671574799525357,2.3510022911692516,1.105458706681927,0.5654760283543503,0.23085950218847492,-0.019036481268360668,-0.07483231966613753,0.24361959065067304,0.04061685484690435,0.06166443961177731
6.053720821668263,-43.06424568220953,4.765055305378975,-36.26671685010516,22.649706167203423,5.1122190434717165,-29.13700612632159,-47.19086724240418,1.8367625870809738,-27.04564527554209,36.164678106498855,14.352704613421771,-13.459352141738009,31.302810016793867,-4.408032333593636,-59.61096245528919,36.430693975652844,8.931678345267148,-38.68817358085685,5.184738012763613,3.829497057464694,51.09698053869615,-27.343805689877456,2.7134339141016577,3.461852604043547,-0.7435019929621639,0.764495993405599,5.193978068233477,-3.909866600688526,-1.0319456791062036,0.8402818425541236,-1.9813769106040247,-0.5332601015608593,2.5471042279640597,1.1834802653844156,0.5365890911453157,0.22874932804499856,-0.22153394181899322,-0.04484769590074046,0.40683075615594294,0.02650950613065044,0.08686582611861826
-2.1836389152941167,-51.85405174184643,8.168789109455812,-35.128384497250046,16.968360362109664,3.6709221777940315,-57.83828028312774,-47.41023728740814,5.29379631070545,-29.373966062228302,26.004238569610997,9.274950916669406,-18.211375828876783,37.93370791517653,-5.504623762311499,-34.10666930943235,20.041817531574388,3.5413959781334174,-50.07651677876411,26.14757853905688,9.905676102183875,30.847996344440464,-22.075062888968247,-5.602481585574743,4.5843223685689996,-1.2788392345909612,0.9685670106382049,4.093911210573859,-3.5464562526120114,-2.3678884666585556,0.08428847506253727,-2.7412981586514586,-0.6091437575409916,2.1120186879987104,1.5956577562731202,0.01729567193365012,0.06441707399144331,-0.48264281216855076,-0.054616192108238204,0.3541629768353245,0.07380335497466521,0.008282855154686847
-6.3943964724209525,-62.16769624185116,9.587563935028083,-25.124698306838013,12.219678371555744,2.785276857762566,-74.78726536036258,-52.44173260257288,5.0163501261033945,-2.462603917672949,9.276118228308517,5.235822971278989,-21.646687371369637,43.596720886687315,-7.612341878829713,-12.802784160427057,6.492427323423936,0.7662916508015167,-24.834762517813754,18.657409045003227,11.499990185443249,10.20696667271532,-7.064697993109757,-6.527152487238545,5.361400045723844,-1.761761040344018,0.39984502688171825,2.8806970347170124,-2.4661180574446715,-2.7768526639898337,-1.186211100161893,-1.9151042161015701,0.03392355281380683,1.2881443553607301,2.1761682293927462,-0.367591090358214,-0.18914077923860811,-0.351063920738915,0.04332359874307011,0.13799860564540495,0.2817116015615067,-0.08555176704249946
-8.108011127007659,-71.79604441470896,9.94031769994588,-9.009017752704931,6.982520725309728,1.550008619058035,-85.05595307687348,-48.63044540926997,3.4396453713579884,32.121000064386216,-5.48958431852051,4.952099098526532,-24.436211060731374,48.02109046143834,-10.065044896991395,-1.1985171286045049,0.09590127886844371,0.5193001531397761,5.4984800892933725,13.559014467154887,9.371504565116204,4.031217417636379,-7.754309145776066,-2.8614400732984646,6.042637830435323,-1.9858288839449216,-0.4121974374625333,4.537696218218491,-2.924156695902119,-0.1615040404449209,-2.1064970756149544,-0.4031675396495625,0.9418857572498549,0.6614422873153607,1.9709399040403905,-0.4663431564484858,-0.2081756242268992,-0.012158939797756082,0.08988139838772144,0.05840914343394618,0.3436981753683782,-0.11161486374684904
-7.075517884737104,-77.16741576351379,9.4819312155327,1.767576642375751,2.849752410264856,0.0703360282642409,-88.944756170024,-33.25399989424694,4.8404441998788545,49.86072807130765,-14.89141059073687,3.3000696439324364,-26.865250172226865,50.4120734224989,-12.010398139044684,2.3477114690529377,-1.3834247156574335,0.548739822347153,15.043124284336798,24.88764431339944,4.243123744775271,1.5961685039043405,-25.47290897377093,1.8442207028593411,6.741809141015394,-1.9937345446854735,-0.2445316912112863,7.206389000399334,-5.072772667670637,2.422135263276224,-1.1297130798031527,-0.8933739537185161,0.6245483133633704,0.6585404230053686,1.1368861757397433,-0.38934833745901887,0.14775251145243745,-0.11373080638181966,-0.008361453069330952,0.14974323062913003,0.08681806449134541,-0.043523689429527466
-5.020470633163318,-81.42402063782056,9.582862809452696,9.154117536125526,-0.9921977816522716,-1.371622120160727,-85.8898756433636,-34.03476728608805,7.256447408078465,61.6313668397672,-22.284706694227545,-0.9249876019498003,-28.630400819308772,51.47032580035412,-13.226197261119436,3.103903568782737,-1.5692203004922305,0.36007427938218745,25.28201517118601,15.24163793688972,-2.5359876501705885,3.3668392890806293,-27.26240053538499,6.894570935533161,5.941101193343356,-1.5770022087330968,0.6910668358832153,6.284095294910522,-5.141293198666276,2.279239347282766,-0.19987495157748286,-1.7150869814217522,0.219889771903142,0.8147698390432815,0.4066030156122181,-0.04344877581051642,0.19910352476893872,-0.21775081819154082,0.09062201078223571,0.16274344337885294,-0.10105699895452964,0.025624158559697456
-0.8111285879622251,-85.39062572293057,9.776696814167867,16.71825672291111,-1.932414170311526,-2.947472414717279,-78.30030567401731,-47.161565278196356,4.5793563406674105,67.24341766701065,-20.667973027420565,1.0109188218712868,-29.585435660321323,52.79685958218464,-13.666456231588235,3.3630008560758458,-1.069673808590773,0.5190439237480808,34.9120747359639,-2.5043085063024857,-4.332984440192123,-7.112286661491327,-16.56165387191087,6.511132200894688,5.545203989624064,-1.0239679753569835,1.8248554107260233,4.173564574527614,-3.4739035267919784,1.896286880162959,-1.369659226642421,-1.6712047770554295,0.6267490484373578,0.527819372622123,0.3304254132732986,0.2388147006363233,-0.2152626392338979,-0.138555919808436,0.27880140209231613,0.06839661967337138,0.0041719267463559235,0.06079263399249382
7.8310515547512765,-83.56655401529508,8.489293332305033,18.544068727425746,2.20783773149979,-4.182357358769494,-68.32459453831754,-42.24423883076465,0.26783807134589466,65.74894943217794,-12.733654604275689,10.526884169218045,-29.983997711086467,55.99636761318971,-13.410813879441077,2.9888106318202956,-0.39837796153133626,0.6419768282560829,42.16391978606344,11.395934727473922,2.9351697590127195,-34.10392620101223,-16.930894738307934,2.191776060047917,6.157045590708142,-1.5272209017739393,0.7593093517974652,3.992887669009184,-2.792160714644775,1.529266650178821,-1.870911410278777,-1.4328301241725712,0.37965829414091334,0.4273324709997598,0.9513760926710292,-0.054037700596896256,-0.21974482532912562,-0.17590940154736,0.05835161723408795,-0.014457087473758404,0.13337433633373216,-0.0213840419169172
16.5935844308331,-79.02253394824957,7.568067838653951,16.439607949919377,3.202395409725487,-4.063761472643585,-66.41351191519607,-29.64967295699698,-0.10154776772646647,64.63871790279313,-13.7835320573424,14.150917834541586,-30.0658484345736,61.19886691108818,-13.345606605685816,2.5541520804721025,-0.5150587400642559,0.29767456729475056,38.25866102345948,29.37037456600395,9.172812526734614,-34.31542795502255,-26.69753605221664,1.0010685476489647,5.2965573875121885,-1.8547235864881928,-0.30171369739711384,4.538066123734999,-3.833118575286697,1.15911315323871,-1.3168064368950585,-1.296047850893319,-0.027913557843712467,0.06912101164424089,1.224892221489358,-0.5165424946484157,0.005081522129346963,-0.22331740702652106,-0.14499156861769247,-0.10509850506730364,0.07891857914380353,-0.07941937938886098
25.85370050073828,-75.14574554689007,6.492716986744516,16.881479679444688,0.18365158158622324,-3.586346949257138,-57.54500103557157,-22.705657727405878,-0.21353543027418687,70.74912927005319,-21.601321946835867,7.110766794642725,-29.829046144747302,66.90136577064217,-13.560765139086936,2.779445046777138,-0.9663072876217945,-0.1627919620116082,51.14816031782511,28.412215528014208,2.3875675510971672,-31.61721644447876,-34.60857042054169,2.92940017966208,5.028030053585225,-1.9279688012321123,0.637884651730432,4.999797719027061,-5.239701811326741,0.13816418147601967,-1.8023335519176018,-1.672516135162477,0.4006040637861579,0.4648763950030692,1.339450335409167,-0.4005761915102048,-0.15739322438181608,-0.3109500186248168,0.05662120849308777,0.036108215137614474,0.1263771152683201,-0.06190703156219292
37.362608733207146,-70.55379280933539,4.398056328908514,16.96705583989887,-0.7654325526020604,-3.189622933037088,-34.49898484991313,-22.552606870961583,-1.119340630813947,65.56577262932709,-20.047367794210995,0.5923997250509914,-29.29054140551591,72.00583901085793,-13.406793137031435,2.940797255249158,-1.0398499634394487,-0.5092299856540431,65.49653297706809,25.267843459002158,-3.8316174085472827,-36.29793501025306,-33.56470671580064,6.233996931339496,5.600668283604302,-2.0014668241546927,1.0055802196032952,5.988188123110037,-5.582198640834801,0.9159950587081789,-2.2731739234820876,-1.8276876819363441,0.5914158222808039,1.164469411196405,1.3756725157723977,0.07696228660364955,-0.2813371496006169,-0.36722586683856634,0.11576778649444949,0.2249292036840788,0.2049042747976487,0.015666846651907797
45.87785744294924,-64.49772334288261,3.241915829519724,12.408752602216868,-0.284234904209283,-1.9494119267609564,-24.199163129006262,-29.644944285809675,-4.388480759709432,43.59746848657981,-10.10646298992448,0.29999439120134014,-28.260984652895566,75.87549960280346,-12.841770414029895,2.6018198240149615,-0.8611100198503507,-0.6132155031844649,38.89670073087905,16.011702258949388,-10.230059043297599,-28.194480380199664,-21.47163552749598,1.0429605522156884,6.550073325150042,-2.0550619900234306,-0.5150044994774764,6.536519517464322,-5.6059141534624075,2.7779384591830967,-1.4721180931167603,-0.834785518447107,0.738223964484248,0.6854884937101348,0.9291552777075934,-0.19970612030892457,-0.04826884713765708,-0.06146764910544703,0.0949406304673189,0.11674902564795013,0.03186173201190575,-0.022074818983397415
51.959977688304804,-57.202713359231275,1.8924075582053232,7.043601888152737,1.3532271589490035,-0.16627407033760533,-17.519863262609118,-26.346380672583635,-6.824469313634779,25.66098391303544,-1.3265995041528946,8.169495543679131,-27.01515544212582,77.79540369176485,-12.130257438095686,2.266981166006213,-0.7169997966448255,-0.14216295279075927,15.145969475908263,20.126473464439673,-5.066431448486358,-14.90099967492699,-17.482626048302187,-2.083856236590319,6.869479588856787,-1.9489928511689667,-0.7440017512999852,6.4153359075165906,-6.137452349558671,2.3579647492552795,-1.2992415811239681,-0.44303544748224927,0.8032897788834289,0.618716894497471,0.8372940576918794,-0.18991320545277957,-0.055031154512369757,0.15931403567313587,0.1665977964720595,0.05373657703790644,-0.10107769867972112,0.008299339745441546
58.54521840703817,-53.52466933931967,0.42820656996054635,6.606996606623773,0.9753984413178903,0.8329343341181771,6.356937576061252,-19.45272805385038,-5.265897648970546,22.658194609120603,-1.8794945625961732,5.33399242473938,-25.80183396664925,77.95604379182176,-11.315510626036202,2.522226101801449,-0.9332631434628506,0.5631592758699172,41.646560303369924,27.343277951398427,-3.717175622317843,-7.135016334305936,-20.622228228498038,2.4325196066313834,6.791027152380235,-2.2363607736474433,1.4849728751412568,5.83050452035765,-6.833204252892147,-0.3632932737229742,-2.2579036678961115,-2.0938053453770755,0.4616488178550128,0.8457087425511951,1.541185922150511,-0.3959080835569975,-0.27229592300864164,-0.2697614690558208,0.15763514502599735,0.04402721205999438,0.028162654068233123,-0.06829873602226688
62.90970891114371,-50.89650509537462,-0.25701667087257063,2.0814439843352135,1.5487502016032175,2.3739035445058185,30.186247976193542,-15.70093084577733,-2.860488789600451,5.312980618489621,-1.3210654761091076,1.2961720410093744,-24.535515946660887,77.25376230283383,-10.441716274406533,1.5328587749479141,-0.9428458288567143,1.3540787158406726,53.80948305426935,29.455444903685372,-6.72769441884503,-9.352542846800246,-29.691826686392957,4.336170273684428,6.742314111415005,-2.658745025551876,0.7550206299678996,5.736764853451169,-7.028594523279787,-1.2738924077692408,-1.495092671743191,-2.4750592091492734,-0.12858271488340858,0.8687420721498607,2.2421255869098315,-0.45126084278511813,-0.045227753123309886,-0.4208413096533517,-0.013562154394370612,0.09550772545218117,0.2216310160686863,-0.06343791629967555
65.66803351027349,-49.153598190584496,0.21744858002759737,-8.501428582697281,3.1503540038994586,3.701752611008386,41.73745031330537,-18.019159833741995,-2.161918356870019,-21.674244824067742,4.535932752617795,5.186578936662808,-22.901999544325285,76.05060749328553,-9.450879131443216,-0.15358572466828288,-0.6441832745221614,1.4571361967731606,28.64113622203288,27.76366694214862,-1.4829289923866649,-19.211412155058564,-39.57450057264774,0.656859270732643,6.773668340879574,-3.308151210264507,-0.7867290806833445,6.132280986691944,-6.952103813586094,-0.1326616094074096,-1.1927828101818216,-2.3331656956181517,-0.2642654702809297,1.4676117809342364,1.567560053892154,0.1500226958581662,-0.012967706300646073,-0.3637845436045907,-0.011521310166078262,0.25652521420426183,0.10238999601524879,0.05263276969856188
68.74214813631194,-46.376499535704696,0.2619644895424944,-15.030426895943958,5.434823540114454,4.865925337114864,47.96873956141413,-16.989525652978298,-2.52228449672702,-34.47386090342365,6.903568613514359,15.109694956928726,-20.958719852597866,74.31565084611537,-8.37476485999695,-1.120329026598659,-0.2031666590848349,0.7893047828456511,12.110464960147944,25.84382459179265,9.451418244539637,-9.58446634258537,-35.495014149848984,-1.0019970058179075,7.605528220602629,-3.8041826106000842,-0.8514178733150101,5.995254513999103,-6.615069820367379,-0.24682698700233224,-1.5645413731035103,-2.8494427063955565,-0.828780955103998,1.9865946620978099,1.4254629978920093,0.4907187988005446,-0.11580504817550105,-0.4295590279332182,-0.10994143703179549,0.3718212093887402,0.10827414411395325,0.0941756017828314
74.28436307832301,-44.32943903731595,-0.5918740951940156,-22.78855237683681,7.956284857999355,6.935528484265971,59.868939078637396,-14.084157512425456,-2.2552783102385545,-47.438410188410536,6.667652039989084,25.398311307984148,-19.01397381872818,72.90993637519438,-7.424116115670022,-2.058943679255558,0.3207555125482693,0.38212276293004194,6.711266272120736,26.97830391256253,22.641922039693615,13.23814015082304,-31.7040714730451,-3.9176085457740455,6.7093680424717785,-2.9064787327850103,0.05491328272848192,5.4233320653328665,-6.102412440264734,-0.7462963686054802,-1.5647327997490776,-2.29580883984478,-0.6022821730688294,1.9716040475082022,1.5712641623528338,0.5052912318949855,-0.10069648849553729,-0.3856196098707579,-0.12469188406671815,0.2640325939985991,0.13508015084655198,0.0620949140076143
80.79122490112252,-42.60405139170421,-2.0306113189124684,-37.81603608386911,7.634854768657778,4.512146283381197,75.6202939517795,-13.17156862200626,-3.5860229876307232,-61.77447056812603,9.63981071469935,10.618029619327869,-17.321217888095042,72.71959321419551,-6.72295176948455,-2.5024056918444204,0.21371728162740666,0.6386303238953764,6.869048765495165,29.60644506797917,8.865173013854873,21.197412356185296,-37.309495959109064,-8.145140269413266,5.788725485146762,-1.9353496167842243,0.9467957707553634,4.945000452993769,-5.613959120343381,-0.018177619848915277,-1.17712223829074,-1.7241246463049953,-0.2557073081476656,2.002504004078476,0.7198883328307594,0.751039004807828,0.01758414905475129,-0.31301432025559717,-0.09185375991518824,0.17795254819266473,-0.06977572312859677,0.05977073013143596
85.81697100956299,-40.82881582185618,-2.6319216535214203,-48.44716477451247,7.984643902292055,1.7019503804476708,85.1821247614739,-17.989056591840185,-3.43607039747887,-69.25952639935052,17.518995278829852,-8.451162721477244,-16.155328342251956,73.2308837993512,-6.079532950312487,-3.18997404511415,0.1120480739440792,0.9687598392670024,3.8645256932053784,28.600626071673034,-9.037824153697734,9.913325399004357,-48.12943407636036,-6.280548571932554,6.530550438424078,-2.2367879083830253,0.35893139890526116,4.952793874061684,-6.382472017709314,-0.44782450294085085,-0.5599837103962279,-1.9167624125537623,-0.7970556829255645,2.08272262042424,0.5622292677471681,0.7266370952283296,0.0984346336711881,-0.24121302355738183,-0.10208902161149204,0.22836088230320495,-0.1069877847982449,0.044707029946756335
88.56560495656282,-39.153106752321506,-2.862292052369573,-39.921820655829016,5.760687538652586,-3.5331644384083436,90.89387619281165,-24.86502214719834,-3.9958776335622956,-61.014337777730866,22.62829320270451,-25.45088774361461,-15.64217061116229,73.5789960939329,-5.633316665139601,-3.4188833875801783,0.6086582466349335,0.4558691770587686,16.395723773489582,24.75482027189628,-33.853780393474736,-1.0463079365933232,-45.06423084754179,-3.432681553367578,6.259870076489924,-2.273419822398422,-0.30762763171479957,4.771783933768842,-6.878657188112378,-0.8894562828569946,-0.3813697837786919,-1.7415256793880853,-0.9994302540777418,1.514404736199132,1.3550264408683006,0.19244406869778982,0.03779979222040749,-0.2022915524808489,-0.09829009668821226,0.17170190292484042,0.07231646171265034,-0.0015824426109199965
88.94083611820813,-38.59785182648268,-2.550366398915406,-9.691054278100866,-0.8609952962567013,-7.149959359773292,94.28814148375528,-27.88314668260499,-2.3117436360371366,-21.2647903878973,16.709746457693782,-37.82336823296508,-15.705252560989956,73.91412276861979,-5.821930553431231,-0.8964422796164369,-0.005754225083490662,0.1744220342282663,68.46341519712469,18.842977242949,-55.48730289047346,-1.6456510077125253,-20.338018247811423,-5.075489921750908,4.720153466667782,-2.160272764193458,-1.0090004849818257,3.6583335434604516,-5.378764342920269,-0.10618723875833276,-1.427937645362873,-0.8882626202236549,0.005667027103073871,0.8106167153326104,1.5729934869079316,0.023304904660099678,-0.14779928572467418,-0.1803645082273156,-0.056957726291125554,0.0365439474933479,0.18524446718885934,0.007807714203651669
89.66863232560658,-40.35438541575187,-2.421082537903403,12.866518957162732,-4.992157967683198,-5.248295622606637,92.07428651228638,-26.367349647073898,-1.6004242108743636,15.861283244570808,6.548558603059882,-33.71420263674086,-16.198591313377428,74.98310540382184,-6.742978996713708,1.6401229058955178,-1.095959930707567,0.5682390983692099,102.69176815936231,15.404844833550813,-53.07350661631704,-9.947611588291995,-16.39827826868229,-4.942493184749309,3.747802417060366,-2.1896184574461,-0.3603668162144049,3.009887451455773,-4.458163127687513,0.11392286377807491,-2.7026903475086583,-0.6010290306987334,1.1189977202878938,0.7383394224420904,1.3825676762972212,0.1236836671242936,-0.37275330822325525,-0.16307351188480854,0.14832453742707127,0.01291768600428388,0.170521934763944,0.018543386139656292
92.70965685546214,-43.89689995273533,-3.966049404393593,11.535589972050126,-2.867904912317596,-2.0698116630987538,95.39963612856992,-26.854835457446384,-4.982406935462076,20.553328914032036,-1.1061906063994955,-9.372934359379798,-16.9868157552989,76.43928404030187,-8.25352634729038,1.9250428309200367,-0.6779819781122781,0.13167534035526662,107.05494633201187,11.019264399647948,-18.39393036176576,-11.258801744001426,-37.83540578007316,-1.6777119870368353,3.9466965045327744,-1.8691677886302713,1.1488294748392183,3.37706234047357,-5.031814500202758,0.07370670011248703,-1.9857727591032803,-1.0840957866033631,0.6667404051611799,1.0144316633022283,1.3132704471382965,0.0392616568072935,-0.2960507451988538,-0.09132371546928612,0.28447380283964113,0.12524360967575282,0.12050936689483735,-0.006018610021703119
96.07523993865428,-50.16751460609757,-5.635402595513836,6.006516151463168,-1.0211910354304763,-4.975675491020424,100.37837415334155,-32.98128384201204,-7.910969804268963,34.5987037969464,-8.012900291207322,1.5909610912841978,-17.865509897150165,77.64411279172991,-10.065451731621074,2.4324076231615015,0.4013742656303308,-1.3256972340542543,137.6576928767005,2.91276162594883,4.488659678764431,0.3756738134366557,-37.112059256283416,5.994097204865185,6.160922756487162,-2.6684875236896253,0.16322761333124286,3.623538642863982,-5.644791669723074,0.6992171161720019,-0.032764515094871306,-2.290850738181583,-1.6103551760979042,0.9209584728289715,1.0695737053612815,-0.09328889376205449,0.14526636152046857,-0.2567553186856777,-0.13000089686181587,0.11949702916349685,0.034762593139246824,-0.02911468710659098
94.71917904177378,-58.519340782464866,-5.638894179212458,2.679108739089507,-1.1840728387540722,-6.650060299671322,96.65507038896688,-36.68123716259613,-7.6005735260574765,48.51429401571799,-11.124548073976182,-10.22175188094011,-19.109016737514,78.45800401906776,-12.136539069910857,1.9037306582819675,0.1422736152848926,-1.0239234357672247,161.0602964422685,1.9710683182643576,-10.542084611404277,-3.4529147745575974,-30.689255102809813,-1.4415758554812408,7.235295190975255,-3.250513529291977,-1.2889701245172014,3.5565246556960175,-5.950865294851491,0.948902605308276,-0.12259849645660059,-2.008397128349089,-1.8164444484804678,0.7917850520713227,0.9420082851420186,0.1704538856912647,0.2108133863557757,-0.3055895131650319,-0.3863099300280208,0.07474311043103934,-0.0025099686742259806,0.05407243904128979
88.69846055686868,-65.5662738211564,-5.823399533329134,-5.567209374445969,0.7925732331521684,8.934629313763491,100.78759642754154,-36.47752306924199,-5.487221010968182,40.280930860339396,-11.31986665474363,19.608865630070287,-20.753411521559737,78.57283559399595,-14.796563709096905,-1.443797003732409,-1.0495233508170965,1.4365093984669173,176.13118111478067,9.731407148735455,18.266620494102035,-32.96066098124598,-33.00986717490344,-15.978032292655389,6.525917157840697,-3.409575412501938,0.487695797219478,4.434755923249594,-6.936514776700722,-0.8725847165281635,-2.7093083121148074,-1.3043176024547256,0.24331246640889068,1.599412790809024,1.738539330609079,0.37921619930550915,-0.29333120583842853,-0.1952858842011521,0.0029251531088794296,0.13660153151067897,0.16560077083905472,0.031197233183900344
80.46613082151742,-67.45237344418649,-7.095637871702175,-21.17529462151162,4.3579330270767676,15.731050399463802,93.95019100069037,-40.50204471725384,-7.000312349816214,7.74764933664114,-5.322579601361734,53.078531849833425,-21.682356876692104,78.28032284395701,-17.506430095620566,-4.00572555580612,-0.4864520808317066,1.9555625611954282,142.16870083082298,12.431136420643872,58.52132150109901,-52.778546947076514,-16.32653603515533,-4.154931101577004,5.807653104584299,-3.899894637811724,2.707806983886946,5.453461455766935,-8.204350294074583,-1.5984323897094133,-4.3836778837305035,-1.9407437846466298,0.9132401648028489,2.145008018751544,2.02857443400541,0.006070617550064417,-0.5575050161883577,-0.2858230291767996,0.23672009359346935,0.215797390993377,0.14736461938721637,-0.08879551687236889
71.99354174531103,-66.42349655619968,-7.640764382037678,-25.565431700988245,4.905955710571896,4.6176339799502175,71.52642415837667,-51.11525723183293,-8.504715871363953,-10.833516283110987,-1.0383040000761545,12.986233286596917,-22.10914197792117,78.4788927384822,-19.48018848799344,-2.6472014298850732,0.38673313255286973,0.8383729921248109,88.95087275325022,-2.324406213006609,10.519626321555124,-49.09322149981135,-1.6889028322317963,11.191379499296756,6.657677503594179,-4.021170096284147,1.4763610761283028,4.644079608565764,-7.885283643223088,-0.055450919648177555,-3.249672240343911,-1.8603568169240654,0.642439052106019,1.1695326589770056,1.4503626458233427,-0.3016824833636421,-0.27420779140360535,-0.3210629302215728,0.13225588090950485,0.08742415115712981,-0.015558897716956514,-0.051083240846876904
65.0215773155743,-63.84236094636145,-8.214343108870725,-16.10917088348835,2.473988937008054,1.097780063621871,58.718824147505686,-49.006944731785566,-9.621999549475614,2.423548214461185,-3.1392121497509073,-27.056936393917464,-22.80970308486149,79.58550671323155,-20.549534351743006,-0.7630486837013722,-0.32729004487207775,1.0411562309666536,85.49489553102795,-5.262608107284273,-45.34197373786985,-50.53693455661893,-24.972979798938507,1.285020579474273,8.636564686637435,-4.0734714219487325,-0.061223073681400245,4.772113023274341,-8.299060267455078,0.6670815115313478,-2.1851248446344154,-1.2828862561210095,0.6070524154135698,1.1535704761310945,1.421974087035745,0.04251705864586755,-0.0637415437300501,-0.26136413832618294,0.04250960827720346,0.059508667927560994,0.052978721847733085,0.0259084270129303
59.84116981985161,-63.798037845995935,-8.13594638519498,-8.342110607305823,1.2468443931367224,2.192267384477011,53.56687960870644,-48.85516309595679,-10.385390050078046,22.128800682684002,-6.814266000532355,-11.450983734346972,-23.798318886222745,80.90977578325983,-21.005284658804296,-0.2635644268284355,-0.47395240882100204,0.82864376302294,108.68621202034632,-5.52728600305734,-22.608019672827883,-55.68722322034259,-25.058959489408398,-3.891604906958481,8.496034018075322,-4.154292831378307,-0.13508078153303787,5.343018877078307,-9.098749863776886,0.5164970647908167,-2.228927328563167,-1.2942157462167363,0.6759853245253322,1.288284445403964,2.1966491761732136,-0.20335363738637854,-0.10712625981393345,-0.26707805098398024,0.09270944024818988,0.11225096471825428,0.22160800931673996,0.004338515049301519
55.54479165773288,-64.7310413029277,-7.422618345730808,-4.145775289387979,1.9201488858552898,3.4309945757009443,40.39900276039248,-50.70764848966354,-9.25463072371876,31.212920030323932,-6.028073975169707,15.905070320280908,-24.843119918361545,81.29596554758595,-21.096330562069337,0.20333895958473358,-0.03021351320411539,0.06380355131315749,106.71458542235199,-1.4011211469721212,16.409707730406684,-55.993124448999524,-9.035708598109208,6.158173596134144,6.452583115428757,-3.6246293778373437,0.24580096134520765,4.888785108445797,-8.388764863287646,1.0312073775083228,-2.2378958350520213,-1.494325085471826,0.042395452055082175,0.6774103844993893,2.2920351295410772,-0.8075008355039266,-0.19200762654562745,-0.2285663263811303,0.025905181337123537,0.0045246687965194154,0.22722006856490828,-0.09617276482453616
50.69672103206351,-62.523570575908764,-7.342259981215792,-0.4483105765652611,2.575452166707734,4.494134250344634,25.3780676799563,-44.12713241439853,-8.963354138792932,28.805894867934505,-4.469849441482472,14.844545895036646,-25.455181163674787,80.31408400447948,-20.815199380995047,0.6715254197657711,0.015082819921231037,0.1952116360906599,82.73101303018373,6.898484981932235,9.208023889830585,-55.0640725230313,-20.684107354657897,10.602544507961541,5.317670510394743,-3.176280089143565,0.7871354835543384,4.55242150315257,-7.459497701492088,1.449259004219665,-2.270028594292637,-1.6038522268146562,-0.3068263923372955,0.7817445076629843,1.7490570626396846,-0.5239224505387394,-0.20752321817367025,-0.23783863407574346,-0.05451424151246383,-0.012578711379433737,0.14404374163433173,-0.07887689772834998
44.15588995315016,-58.57990795527826,-7.666886924386945,6.121840415546134,-1.1490640947578628,-0.19149323622131015,19.39710939885244,-37.39093257961394,-9.819702372412104,36.08864088215411,-9.638366542517637,-3.213451163122316,-25.67330159715341,78.54036050735913,-20.521942539857776,1.386298300530589,-0.5183607849966306,0.1256301807677165,88.66987800668689,4.797314893016666,-16.741687785808725,-47.27082242301984,-23.52211234473523,9.037021947772423,5.9140828150218265,-3.020966851312891,0.9921893566514982,4.45437679684171,-7.430696466552847,1.7729471877929512,-2.014093663127381,-1.159863832442398,0.34274951169603746,0.9317385859002313,1.5338524276769177,-0.1851522872577035,-0.08348870670140554,-0.17082497908849342,0.03992502941639782,0.14706846843599905,0.03668096016778893,0.06991588179113642
35.116959129909084,-54.887445297438965,-7.194418413752857,10.05158404968915,-1.244251778364108,-0.1118662821229368,10.94044184422017,-36.07662424459847,-9.267770257483802,42.346618034309145,-8.828820533465297,1.0218291535946167,-26.060176056230432,76.48922919096111,-20.4461182554684,1.9817370662554432,-0.9007493524204789,0.2227999360255637,92.5285831875022,4.826104058170344,-9.596650985847266,-49.90087775900309,-15.167453640273969,2.4966672522549964,6.6766654261757905,-3.37387209173009,0.7836521624688364,4.214763601458955,-7.2067378619811855,2.322579495713372,-2.005489949181354,-1.1265096065629576,0.41737883410518073,0.6016870840818039,1.2602016120171644,-0.4298708979503824,-0.08760930624299358,-0.13133079997637134,0.08040131088623355,0.12124942319213633,-0.02163737470896141,0.027793109495551162
26.07269409946611,-50.75075290013212,-6.624418129212052,11.129137582666287,-0.24937753584649608,0.14432904482165598,0.513740514500398,-37.128420417213,-8.572868003891434,43.75238698524018,-7.930959365596905,4.85059600376672,-26.415408467493016,74.19174438329667,-20.260415633024667,2.1790914222623727,-0.8485377587295723,0.03781994178525145,84.67693961715621,2.8993532995541536,-3.5047487275336096,-67.92066795433186,-19.447896856658858,3.0242714113765934,5.686829304067984,-3.6790495158190692,0.865430088875158,4.098705573535914,-6.851199370643631,2.325900168835032,-2.310731205589502,-1.8640499045584786,-0.21427330493250862,0.5896811293772091,1.0748968824355052,-0.4630989940307526,-0.21991184887227588,-0.31967785533929294,0.0008898195882612479,-0.0161531404523156,0.017567771695071822,-0.06907060658416922
18.214609613006886,-48.225363064048786,-5.97845809169157,12.872942100645867,-0.6543471285276045,-0.9011452830155046,-9.626002624767423,-41.24439688938767,-8.697554389587433,52.97560001737018,-13.36662302616146,-3.7445412658827397,-26.54484201389628,71.51539912521872,-19.937987650960288,2.2787584435827974,-0.6913608085105692,-0.2224515722315945,85.40944393172816,-12.12034336047871,-15.56760030350162,-66.89074958025202,-18.032083851558156,8.577643017549725,4.938666345003819,-3.383337227321225,1.5821214696758275,3.981305173461642,-6.386686333361343,2.4784560368530086,-2.586324788921612,-1.8972918102322174,0.031777500859801154,0.5673479934699549,1.4147224839649362,-0.3468833884156012,-0.2910529112227441,-0.32874745081499956,0.09000684997326226,0.03173320609703283,0.13817372087946891,-0.008540875218246211
12.207250912011977,-45.89800961396037,-5.42581035721924,14.735517649835371,1.2151151959450022,-0.5120035918329838,-19.28420637757601,-38.28365907524451,-7.867620802856691,64.65440252466534,-15.422691421063213,-5.555561510902425,-26.4132739651053,68.48559093944144,-19.35088393647086,2.2374045322454603,-0.4194365930337071,0.10603930116442975,89.91938596254047,-11.151642341426324,-17.66457558281826,-55.53538359350097,-9.607587387548643,8.039287554892494,5.694653720345401,-3.1417924881471877,1.1884042052245516,4.026631604196294,-6.007706931405666,3.1701535835046606,-2.0956045351537798,-1.207218791063823,0.41203897380604854,0.3141919558122581,1.5473160498322471,-0.617667947603866,-0.11460645585916485,-0.16169394033478543,0.09140356417799987,0.07852776172577956,0.18087900974986698,-0.03307513814755334
8.789640347531865,-42.79354928917794,-5.484128923853799,15.0031317895861,2.015586440406378,-0.7018987800763952,-25.841168386428485,-28.186689677678213,-7.77586255634967,68.01941524848407,-13.946252184411437,2.3581579801924746,-25.968089485538844,65.34686580613263,-18.527051536555263,1.9784205280761433,-0.3244781885075759,0.3286544149016178,90.6881271594257,8.477130771009122,-6.39930507358119,-48.40618995659433,-12.475600894515601,2.490110656728956,5.974888770567999,-2.87306342524848,1.0223678695389615,3.709238563503275,-5.663456950639287,2.5434702513197753,-1.912395919752994,-0.7888157444950761,0.5554319113860973,0.657040618555814,0.9595607007523135,-0.31306078773263074,-0.0419851627998824,-0.10687707052372317,0.03844812490768852,0.1375832220168832,0.03743928875975393,-0.006929286310654169
6.571293491475561,-41.61257382680434,-5.368088930422442,12.714197668366632,1.73279967104092,-0.9427434066312219,-32.32635089758047,-23.122350536077285,-8.565392933293145,60.492846171004594,-11.495458698260226,8.896294982953394,-25.413920066368814,62.04492476207638,-17.676979375643878,1.7051062421350238,-0.48348475781688854,0.2653160053579824,77.62471333327117,19.076733466116902,0.7864361497887984,-47.760104448308816,-15.526976589231582,0.20663241180497427,4.98270863924367,-2.967765491095991,1.0292920613421812,2.7032827728785147,-5.604708245978474,0.9966031904545518,-2.3952438801525813,-1.114449637156748,0.46254545682824777,0.5970370027873341,0.7353721144667184,-0.052940020498908474,-0.24977632462422208,-0.22662869941548866,0.08486260393141831,0.03156620077737606,-0.028748919089838777,0.043500135922280365
4.802414596873138,-43.73436381452257,-4.346812166116872,8.793781078948733,2.3579694486413207,-0.5437079121421795,-39.222176001981396,-28.796633289221276,-8.247248923326017,49.08952142982665,-8.57373031049664,9.308014671856197,-24.903132828338432,58.14781667015155,-16.62422583256137,1.4650613121293397,-0.48225766656319324,0.23962926201396997,57.00282960920039,10.916418818449062,0.8235944134161739,-46.451774710848966,-9.78327282663373,10.293917271534273,4.29194178325843,-2.960729727452284,1.2654230204145063,3.10173928222078,-6.301624069522692,1.5054456668488558,-2.582099097938427,-1.4817871211915123,0.25075379870454395,0.28033974808316653,1.0765864118889967,-0.4745411545003627,-0.31905312799199564,-0.3359541303352489,0.06597930784413926,-0.055588158081518374,0.06853978949759283,-0.049931092031911976
4.020343768376173,-45.445780750690034,-3.3949013617616464,8.691073097754838,2.1424376901875473,-1.1116375716596307,-43.92573313362729,-32.30867485923837,-7.20452345057665,48.00207301854945,-7.897319439537258,7.518966602347502,-24.313731719228876,53.460498824245384,-15.296349781056131,1.6597002136413392,-0.604773589202072,-0.023223937141752818,51.464971637222305,3.882551294636136,-1.6061983572932792,-52.36749043301962,-19.725945991377834,14.878546422096514,3.7519227140281197,-2.076983949499055,2.5302266750232976,4.175599319837082,-6.6113825026622814,2.0589797862465113,-2.528526537063755,-1.251412785664285,0.6152065274256828,0.8065231231273866,1.3202649236344663,-0.5565188412442332,-0.2482069044108055,-0.2260034269044735,0.15220357089186937,0.11309479583236011,0.1169677132451655,-0.08454197146535679
1.1449833074329518,-46.335537785917246,-2.2808044919940893,11.760467854615143,1.1698265031018482,-2.0980036465127743,-52.03870967417444,-28.806909698082958,-5.651657893879365,56.228684224147,-10.613181605361886,5.448169068652909,-23.54954937420448,48.278181882833614,-14.141159717323777,2.262436909334794,-0.8381964625454448,-0.11065690371951513,55.011942533660076,7.143362147663077,-4.373157521692285,-33.626998052960154,-27.61019791334531,6.927962863970782,4.704206167905003,-2.183470001089016,1.0794902128716335,3.423018456657621,-5.64943505607319,1.3546738691907805,-0.8039266468390941,-1.364246042559298,-0.2258463342588505,0.8513365977056602,0.9898478564383527,-0.24587054624237806,0.11177888562023282,-0.19623479325232066,-0.03905456059898471,0.13561477894963347,0.023711709720950207,-0.0014768893148911202
-3.8502989666459255,-48.72087873608478,-0.6551763801299247,12.400982555325745,1.9845414991363712,-2.1102090239815197,-61.166197737511915,-24.030989394551,-2.967474153337765,59.70209942601766,-11.188056244738014,4.515124783589375,-22.812778267970497,42.889330665816985,-13.220780761479201,2.3205440395849344,-0.6654484372972658,0.2055896963090339,50.15216805613671,16.895280732598284,-4.316922041006174,-20.53067064485479,-22.332229143593057,3.778633123670582,4.7423190446041215,-2.4246434822570926,-0.6373388488555115,2.6339499392506323,-5.194453717034414,1.4988942892832124,0.013263872062407348,-1.3216619623945753,-0.9354825018024612,0.27268861844057746,0.5115626563419513,-0.0512282295651503,0.13776643620386306,-0.1524478673174761,-0.16149800914533374,-0.08536687269982207,-0.07870051140224996,0.04985030800579988
-7.46613141111571,-52.93871809303178,0.6942346724527816,11.757168890787003,3.131184057145703,-2.024020294305403,-61.42790216538412,-25.520395594548024,-2.5348361349375303,58.90993256631002,-11.525097873892454,3.7237106339882833,-22.24413915121276,37.95031651931252,-12.196253261318068,1.9294105982980898,-0.2937554787590926,0.3515759091257886,53.310409235782,17.86292676940291,-5.330370032171305,-44.62255853512439,-19.75466129202571,6.148247864036095,3.8367602500816527,-2.043639925407774,1.4820908674223712,2.7518321924029574,-5.371347290478134,1.5478349934771727,-2.3227852642836053,-1.0173126666293801,0.3220575062107821,0.017243116919956617,0.7767907227977242,-0.43435756020335275,-0.39232783559365675,-0.07847902296519213,0.15455018224354602,-0.11734162409644205,0.011547022337586723,-0.036661042876512326
-10.047171514483958,-56.07312587580209,2.163519841709553,11.375349110480597,2.0856397682508487,-2.3029883918313905,-65.14225574172355,-30.315550333363195,-1.309497645830559,56.51003702520193,-10.718886232754816,2.771494545766166,-21.65038002577515,33.76286180057829,-10.994525081634773,1.6418572100650848,-0.34236552253369146,0.20104602033091012,52.29387205179193,15.50908161643083,-6.51781437505289,-48.39582501121197,-18.634069728107036,5.733599918309941,5.12807183061488,-2.1205040956307486,3.0650068289153225,3.195240798630956,-5.192612255934023,1.2448087455088372,-3.0095262796760966,-1.159521323625663,1.0800835870305974,0.4953876038714485,1.1802985994197819,-0.6048361580137525,-0.3938658213430951,-0.14369963979477857,0.2926891796469587,0.15658112782975717,0.14266741458844134,-0.07566899459431614
-10.984872372923281,-56.90636944665689,3.4933447435499616,10.61138855479009,0.3385851598576982,-2.0636132579861544,-73.93159091589683,-33.52705026538473,-1.169358655239398,52.184289978540114,-11.543400252443703,2.480623378513086,-20.566365566570003,30.418771187133476,-9.43732192000694,1.652300758621668,-0.606755784969872,0.14166078831509069,35.75777531535934,11.67085986324003,-8.506019544829616,-18.884236568524695,-19.284685612797183,0.957526405207076,5.827011331621217,-2.6043657643634543,1.509908380152639,3.5959903981503447,-5.123768213279418,0.8143886877425083,-1.3105025254015688,-1.773216196450434,0.009924628631753401,1.2081410123906422,1.2065615789922206,-0.3249615816775703,0.0033391435575059257,-0.3248082822172633,0.0074370625121768855,0.20450178461365998,0.18214669372735853,-0.08568031740209266
-9.659114769503564,-57.90992704490744,5.007977087125554,9.420923259191909,-1.30094927485479,-1.4381987430533607,-76.79569503821615,-36.67664253221386,-0.14077905590137557,52.15303819073641,-16.50479351816244,1.7409435751670865,-18.667399421144257,26.81930086280559,-7.378332359750767,1.7426635870111882,-0.8227472206177371,0.21215746701304844,31.928330914851117,4.831144200725694,-8.789234923289728,-3.933338187595863,-14.535632852459445,1.7413648112715507,4.115541933007822,-2.6065268230483993,0.34868271001031037,3.07397441131259,-5.071705028610822,-0.1009862111324845,-1.0005370011893424,-1.7078914240655783,-0.337165749751491,1.3748422886729335,0.9829940447187582,0.03900468631825735,-0.008952048051521676,-0.24561518406157587,-0.04248497213321366,0.004198396257754221,0.06633199326360566,-0.02147833952794888
-7.233505782646599,-57.50354502720094,6.567519908105552,7.896832929475789,-0.7198090967942794,-1.1472389241885705,-74.3829557100357,-36.56647732839491,2.656916701592599,48.730193310034565,-14.539750493127185,0.6046337810018144,-16.39919150654082,22.437207658979908,-4.931190238879817,1.7157942949339733,-0.7720861904663564,0.23912275676794925,30.95546001381772,8.398578671689098,-7.056368476832041,-27.58617532633068,-12.0023514482528,6.954172659103907,4.257100890357419,-2.7255624721973324,1.1524674124769474,3.281183576734936,-5.538787122999899,0.29988395377845295,-2.033668315570555,-1.5592338357727844,0.48509110425302115,1.0515957658606212,1.0550316313668897,-0.08580950978486622,-0.1937108082405967,-0.18199499076978692,0.14799605323126294,-0.007638212870813656,-0.0058051891085361875,0.04094460097325354
-5.490506091533695,-55.81667090301219,7.7455483307165744,6.976542148725829,0.564920480715118,-1.1653121887944204,-67.9677883591581,-33.925278195992774,4.88618255890413,40.91971824663006,-11.086995356872619,-1.9421952389654944,-14.389894690898954,17.923987037717833,-2.6997369516139624,1.5764943522910797,-0.5820519261678033,0.21222037317143505,26.592939239292296,10.618946414013907,-6.16884924541913,-42.74795945976686,-15.252247832891717,7.157833637341294,5.465087131437462,-2.5121835754158375,2.0764081387254896,3.9692715613990672,-5.646127158671969,1.9651269028971408,-2.209544471881733,-2.1380736975838834,0.3874792581772809,0.47718492378613375,0.9448568564541426,-0.3922316531188592,-0.22758067845549657,-0.3806511214994753,0.11610576415191476,0.13687123418428146,0.07244916314592853,-0.005692068737680385
-6.32385020731357,-54.119547175081024,8.82093601821338,7.661147056801916,0.09376575212478389,-1.171645306458191,-64.200343505605,-31.256943851250046,6.432515257374252,44.33914725835476,-13.590981417128038,-2.067660737104124,-12.782041653962933,13.534515118662714,-1.0278021972467883,1.4841086573410536,-0.6099084889889549,0.16303748406122512,37.28059929301586,6.433535553493631,-4.337405452907035,-17.847965305827998,-22.091579412850713,0.9516163826150345,5.779690177915769,-2.4513239584488002,1.4793714369202606,3.3788332329910706,-5.210853602341902,0.44936343201627016,-1.3370019933284218,-2.373592101808302,0.016673295258578646,1.3519526604548189,0.7175664525982904,-0.05200893564163123,-0.11792787472938024,-0.46433145022162087,0.07140634115166482,0.2762993648219444,0.10655894129950355,-0.036132935426971866
-7.348745610132804,-53.050047521153175,9.67255185102729,7.705898561351126,-0.334310466450283,-0.8326850013169683,-64.69390749482662,-31.26891308609441,7.160743730164285,48.243934781687564,-14.20760594773034,0.6723036590682088,-11.586479226953962,9.386665949915495,0.2675650710994652,0.6043359055520491,-0.13444665890650417,0.285284105290147,43.2729315589459,6.000442636714348,-1.2497215298029527,-0.06553146399833942,-27.09420870320344,1.5860593218831425,5.521979877230264,-2.3015905458312007,0.2870741522978102,3.3420504185034594,-5.326671102743683,-0.9053641884401802,-0.27613009304504615,-1.8191143912106489,-0.23164345852122037,2.223352883801181,0.9022801903806507,0.08409458029910802,0.08071178220012308,-0.26115702196160256,0.011766550337199385,0.317605867553962,0.05179075077630054,-0.009123632778718483
-5.733581727458004,-52.56800002368002,10.057099615691879,3.006827639533666,1.4422234204589355,0.12093162845472277,-61.79007594287272,-31.4911102384234,7.3273102909445385,35.1768120424418,-11.057650750042404,1.2351603253839807,-10.455401422231917,5.702471287160717,1.4114537186456115,-2.549183572967751,1.6847353624486967,0.7848764252194662,29.13953102772956,11.510495505866723,-1.464469263908153,-8.549315778689936,-18.916895642729784,8.323537195408667,4.588845282937131,-2.6069519469585156,-0.8618676053651254,4.521234643248097,-5.483732876996655,0.4671534421158086,-0.0709120200143059,-1.045998704808981,-0.06973150646485475,1.7705860828867994,1.3107005642319416,-0.2761813935208393,0.14855995583414827,-0.01660821386553532,-0.005237976310001997,0.27284347600200365,0.1136722632633491,-0.02086476952921655
-2.9282833389592042,-50.76647139619887,10.056328786557357,-2.5810456186503945,3.8365902711010964,1.0893033321477272,-54.19036118683126,-29.84532761774648,7.664131250928621,20.15201135075829,-6.315503536184256,0.7673284089379921,-9.061406784134421,2.580714117204059,2.392539851604697,-7.384463173637136,4.353201330148976,1.6245867703293402,15.709229080842674,15.213489528083173,-1.654761451190442,-6.442241672885693,-13.531938099545448,7.485170080525619,5.216103657871597,-2.9059603305078165,-0.6026146411836062,4.438348744717997,-4.842457466951529,1.8580025685243708,-1.0575928840189122,-1.0678243741055156,0.3597848502280618,0.9887096840544404,0.6905750854069371,-0.009810331728438355,-0.0280142429963456,-0.03693419222007939,0.030661677567790896,0.038859835109783004,0.035700161569116894,0.031646510414840935
-1.3382303699350067,-48.35947647990275,10.096959493311868,-5.484488239193974,6.064525035039908,1.7621971534078207,-49.11381919539071,-27.00604738149218,7.652599046695526,18.811017285685974,-1.1800620761832228,2.2067776777021826,-7.233667909221995,-0.02863592960122363,3.162721086608387,-12.719820878058167,7.180394343122038,2.5429992364853753,16.07704860216613,18.64357965479332,-1.666022699618648,2.7090094456767333,-15.382337555637221,0.31155809203749174,6.245752975522395,-2.31000071918257,0.021881752553377206,3.9137029395745873,-4.902547672842372,1.2424043029257223,-1.3689462260477152,-1.446444890626693,0.285275847382702,1.3138948762591587,0.19234987388816022,0.3149320149206549,-0.16804844123077792,-0.15482403460216776,0.029232973700437963,-0.03046973879221079,-0.06944223918470027,0.055595142616597176
0.0707230143606876,-46.47617884654318,10.141045257709205,-8.955588075522398,8.394947845926573,2.374529584979786,-47.41150456608778,-27.100456880065813,7.361897692595171,13.392002630150529,5.798270707403027,3.722314103747686,-5.48163977199914,-2.374158863044092,3.744541810492305,-17.855459038829046,9.579961363418066,3.2853078335209767,5.965992819806594,22.633219253128686,-0.8649951740622862,-1.26228975110618,-15.020982531184817,0.23091724096542784,5.848830362954448,-1.7958261716032238,-0.12593189226018672,4.382317516382845,-5.538487389759828,1.5200962486731178,-0.5595973128841911,-1.4983586244295672,-0.04467682712869132,0.9673888089386361,0.04613773266977355,-0.029908187995181662,-0.03543022635058676,-0.20289482720691837,-0.01672619571722112,-0.014530058868020078,-0.12958423242411432,-0.004811282478052825
2.381150196321282,-43.85114180816231,9.863210262087227,-11.544866944067,9.667844473255627,2.8509772795667794,-42.969588949990566,-27.15972282852353,7.040621716087534,3.6104232629354924,10.929724148883174,4.542853374519029,-4.152308226220003,-4.381172922737231,4.244927920623977,-22.158197783406152,11.271505388380907,3.8305680551913666,-8.959052376922282,21.809395140576214,-0.4443076821390663,-2.920725450171437,-18.986149796589004,1.3800209217603174,4.656946946699429,-1.1480935674338086,0.5932606419406652,4.263393457954919,-5.388256958039012,1.8406338720797695,0.02553166759513302,-2.0741399123336306,-0.31065692209530216,0.628733911325226,-0.3278643836593617,-0.0077731495928816275,0.11824765268430512,-0.28231304301091925,-0.06390660852462787,0.015014738377569841,-0.19219482518392508,-0.004954618702420121
3.8369660092005042,-40.40197467851888,9.60178927904142,-11.68155589762383,11.276281767179928,3.2591462665438753,-40.56389975764734,-24.328185380090915,6.961887611074393,-3.503518287980823,14.746255900592713,4.708155141906489,-3.1245681945408803,-5.43969900999155,4.638817711815628,-24.885018245250976,12.312371406840553,4.321772800538022,-22.974186757771335,18.95803227417065,-1.828644414607102,4.479295026250889,-21.628252289129115,-0.8792818015843795,3.6250281774219526,-0.9706952661751455,0.17974092974288722,3.0774612358325912,-5.590200408181498,-0.03838440372054579,0.5138159730472192,-1.9418625192659644,-0.6321517990761152,1.6330404804621017,-0.018872510486685354,0.33068031573675294,0.14891876419351324,-0.2535328113046203,-0.11421508055598499,0.1350771004012348,-0.08596644040210064,0.04317643625877289
5.789860069757756,-38.490062943327096,9.412300841430449,-11.051740172854414,12.981126422946367,3.5391033867251322,-34.43554637092469,-21.082392923754124,7.328003053665055,-7.808812782869473,21.484966826841223,5.578315709116779,-2.3918376101177694,-5.617215512767912,4.843569431463231,-25.92789197558362,12.729336916916528,4.624538010575114,-26.56946672409195,26.585051537365043,1.6961017795354971,15.116958586722818,-22.7414838678551,-3.6757179390045187,4.413840510449555,-2.342842794617572,-1.2982772916724505,2.5663961787066554,-5.512142300658375,-1.6605307197381571,0.27947095815236245,-1.1663703435344166,-0.27378096679585096,2.7317318517605074,0.9421631395652571,0.40185732107796135,0.10180795010900759,-0.1443787376106459,-0.06214654773830322,0.36113119546144684,0.0837697335580011,0.11574069823099598
7.668994497519412,-38.26444314714468,9.198911522939389,-10.233467915739762,13.259698853986258,3.705602258303905,-26.8521125083799,-21.976241952767662,7.0694177653407415,-7.638005898930533,23.970022144392146,7.335729484048548,-1.746091854485565,-5.619343812250708,4.804342487596806,-26.405791243579383,12.989031876421937,4.673649693884969,-19.542207831983102,28.57282413937942,7.182366771716635,19.69567629007351,-20.359992758253952,-2.654826023725404,4.75537512558868,-2.8244322324571693,-1.2311342019939986,2.533095181504949,-4.11158392430931,-1.6375750431596312,0.07166603943439642,-1.0536575449283794,0.2610733022986514,2.5589423858899134,1.0521305625292392,-0.0543421581661653,0.07512630372317881,-0.11010761081682652,0.07560569809723564,0.38826051013854784,0.06748517908526155,0.023959423939284408
8.726606746636696,-35.976598076311575,8.59200393005807,-9.619294961376482,12.627138423315095,3.692757882250866,-23.635926971089418,-20.349395491113604,6.134738289629618,-8.64998955849681,21.9619613133212,7.5238273195468315,-1.1437317109344234,-5.795349407243594,4.644909765254571,-27.785014171548163,13.650956582224412,4.672727993948778,-18.58635348824352,24.604017664685056,6.417713720697584,20.062297423820414,-15.389835551588533,-0.9749986687215925,4.1874918939259755,-1.642128304172506,-0.5144587585989099,3.4039406200517277,-4.132868456590658,0.35546588854474237,0.5638902524796383,-1.264989188075452,-0.053437215287423706,1.3753164640888775,-0.1990937500580709,-0.01888213100315477,0.1563993571948865,-0.09412537610718831,0.007334462550193117,0.11041378924957276,-0.19810634807963537,-0.0005035235583777243
9.786966356861296,-32.410671207983434,7.707413269279651,-9.163384813460649,12.317530208789172,3.505274846312861,-20.349431791805678,-17.5605736218322,5.249451417603107,-7.621351365210617,21.280176997317223,6.7392926052229045,-0.7827492034324748,-6.048090925730557,4.452617341646382,-30.177804160880985,14.683241048439967,4.702486434814909,-15.037568986655527,19.533720496134038,2.5832515899310313,26.005228248598815,-11.34712044424695,-5.521683868687155,5.0584217555955595,-1.0906998931014626,-0.528481536034691,4.125081045380643,-4.695645270764273,0.8567209565710258,0.6184317155322759,-1.4701472981564818,-0.4011954519956473,1.5979793231206048,-0.427363318684979,0.21316653230466903,0.10029138698798122,-0.09246679555152448,-0.0928449877854965,0.07049118740758169,-0.17507208586675144,-0.00369868453741264
8.823727173723523,-29.65076337941524,7.220463343285337,-8.535549263417503,13.096643029337038,3.368530236139314,-21.66390423766996,-16.635237536281675,5.547285217855833,-5.934910669857376,26.4201855738392,7.25207352840958,-0.49758197741793136,-6.2210937344070745,4.089823944399539,-32.85671643897094,15.600892978132908,4.722931143385952,-19.62497024708801,20.80671530814756,3.292556589114694,31.455216881712115,-16.12717173733298,-6.393412136694466,5.382065305725477,-1.149446560321713,-0.37347154861127907,3.790492548338522,-4.693460842455647,-0.9562893501153237,0.5986987966242614,-2.1112698642038112,-0.3999407191160221,3.083484917074699,0.47983877627230065,-0.05037246928750521,0.005636185524699166,-0.27090461937771604,-0.0364737156779969,0.3634613963989948,0.04464297626874516,-0.08598141508367514
6.587021200296618,-27.15524553059884,6.649672076244812,-8.543166722930021,13.389385970638505,3.460260305017013,-23.053251940166877,-14.590676809219769,4.721015037959866,-11.147024229991684,32.95893829391411,8.987138748169496,-0.3347295557038855,-5.923678802349907,3.528187070249697,-35.06465123348015,16.254638011352554,4.7320844001111375,-37.61667014749079,25.588938663226852,4.501954580443767,31.803390294881563,-28.10827938949955,-5.131251073264726,5.11872509304498,-1.341053440084816,-0.7483658931639554,2.7150134438099145,-4.271382771219598,-1.7238719003478196,1.121478570021209,-2.0592589251727755,-0.5755420241614798,3.2950568792760513,0.7066421943610447,-0.053961891129909095,0.1440097929978513,-0.32959236835664457,-0.06183615270948195,0.42049674676364024,0.10097152468650254,-0.06860530824932151
7.62824521568367,-23.73760030817219,5.310454382422165,-8.742879998056528,11.27412609873293,3.324430633216157,-11.13672227130344,-12.28718311386559,2.6892779318190234,-20.410290518120078,34.945124396353144,8.992840116164123,-0.1973919537635875,-5.380760103310394,3.0281121869389325,-35.43847931264469,16.49478267331968,4.579915462030525,-45.64452997917551,22.056319310827337,4.271633411837684,41.44175370746331,-34.3046394416537,-6.329051309836473,4.409938704974159,-1.3240146211395805,-0.9200545885785509,2.2814793347003826,-4.073583776895484,-0.7934945709962048,1.5209362264670008,-1.6023895694202757,-0.6153038859723455,2.691755091062057,0.12754566213093807,0.47199979676584514,0.3038014900898675,-0.2369590478999777,-0.0907633294287758,0.29028801963701373,-0.013072203226365486,0.07305058322601823
8.11656249074045,-19.97155649225017,4.155912061523589,-7.120527267620583,10.460160033079863,3.0346131599650037,-6.304617936371679,-10.116640472655542,1.715822086747196,-23.502123049841234,38.585934498147374,8.398836819092192,0.10734625127795117,-4.932925066538263,2.5145697025956557,-33.62303543411449,16.08117012609781,4.310837803773673,-52.39335988455453,18.27422892424237,2.836649546478932,51.32706295604732,-33.89290297963443,-3.838816454990831,2.8091837127156554,-0.8564462416448273,0.3205129742314443,2.523303394724221,-4.575504439129766,-0.40038797771706597,1.058681782444018,-1.7893691657611557,0.05043070692114318,2.5288650244151274,-0.18552083670415434,0.6194504505473017,0.1915861860243868,-0.16399932611747925,0.057648616784594466,0.2129181948769156,-0.13599463954010446,0.1470030415094446
6.406138983153028,-16.064143729294653,3.6777691492897016,-3.707019233142971,11.694061633947879,2.971690244927763,-9.847639887183563,-8.39391080882145,3.6085311998419645,-23.321227471005876,41.003132340881876,7.930087077326093,0.5569690544165542,-4.460759651076288,2.0015543210611844,-30.317008204841766,14.938705115732104,4.0641630641543065,-61.04672985866313,15.586562958048042,3.6589836019895157,44.49401299931688,-16.66657472601764,0.008363260378566075,2.784788369616315,-1.1329536155981252,0.23438555330353206,3.5140033413046545,-5.289870498301171,-0.7182851387853192,1.1567148015997641,-2.1623556330786995,-0.10685686114546174,2.7973829422705743,0.13943752514920846,0.06871775472950502,0.20772680023832313,-0.20141690888176106,-0.024002614348265304,0.3096572012725745,-0.10370842096840066,0.028034889244751046
6.650428312650878,-12.021239861483775,2.597191833434122,1.1096578457562205,13.940442909128805,3.203199051223049,-2.711622098386338,-6.27864964315562,2.0944438274372823,-20.608825172802117,41.964041529601,9.121292646681841,0.8527718129309482,-3.7121022974646203,1.7045429914505157,-26.805188626462638,13.783721486967401,3.888341109602353,-54.19232842567216,12.985022613133195,4.803684540345246,43.74920134118819,-13.708492840311472,-1.0091836282499775,3.9896911708345257,-0.867357615389615,-1.010661026408489,3.1705611082030183,-4.697225741723095,-1.2102495682527123,1.895165917112398,-1.6879559673358924,-0.9863707167480709,2.81214033389033,0.4139114594823057,-0.3474336910163577,0.28696043119765713,-0.1370877184868595,-0.17634013243000338,0.334777067807711,-0.030673427294678566,-0.08525056837033418
7.443283410635026,-9.081661441401765,1.7130537290083827,4.86315034936237,16.14247003114893,3.157437054296977,3.937223828893835,-4.035164453938681,0.606936820572261,-19.435288717668335,48.70119505306544,9.567263401233236,0.9421412297665641,-2.9812259034755755,1.529261834913051,-23.626285069785492,12.912614403501896,3.763976028018757,-50.35524818233899,16.56158471627242,5.229058458790759,57.61510773349736,-16.786907432872695,-5.641127899001932,3.787553246288782,-0.027799453796703795,-0.6594644148100786,2.4120409311641295,-4.472810594374403,-1.3843551819493825,2.0761721053344977,-1.7138425990269677,-0.920379461808111,2.800494292176454,0.3942560119305177,-0.24613014581825313,0.21412188663788292,-0.09176717327497003,-0.08636669640112074,0.29371327222286,-0.017486128012055468,-0.06498589268192392
5.788196183217356,-6.535922791473351,1.4169642436868697,7.492727361847229,17.29352974299237,2.9759616901923214,0.4823079893098171,-3.8919009939353546,0.5681892350179991,-19.908124845382215,55.33459104518085,9.61561353870203,0.9039882240589705,-2.283412567593196,1.2981066445214227,-21.239815167907643,12.177157625585686,3.646846379099089,-57.20705587910409,18.729921931925684,5.214644873496709,58.520410253421645,-8.802223751564412,-6.285907136329172,2.810138584158295,-0.4203007223607917,-0.15706153082415172,2.713674527252948,-4.842765706318001,-1.0763392095223077,1.9355474359489624,-2.0444592463314213,-0.5747600651001021,3.0864105483388258,0.3615358421640275,0.02057170843062145,0.23323545982907595,-0.15030742855412027,-0.04703294205443402,0.36053544170400903,-0.026451100515047014,0.010562823837693105
4.003333508165603,-4.41793434535701,1.1447577851070168,9.888461047311809,17.34006961954087,2.6274946324216124,-3.4063992126347955,-5.6559490198134945,0.0680208138381898,-20.395197091834035,58.71185252093473,9.27724546908986,0.8546990151393177,-1.7415244427762442,1.0905356747251012,-19.7742733718533,11.350244122412398,3.3746153206448426,-65.75766177881381,16.4114132778548,4.570898362657538,54.536724150729405,-8.028475036589327,-5.581698503670587,3.8931737670902518,-1.8535021925653021,-0.4278435387835563,2.9297726437320066,-5.210470819875132,-1.265848327505711,1.5701838925048452,-2.3206452380731,-0.23976994946765504,3.4538563439718004,0.5071100259971796,-0.04648162684081965,0.32713450894682294,-0.2810032597452236,-0.09420817036411683,0.411352457908746,-0.04132706570103637,0.03674215301847131
4.192999270518529,-3.247399064887249,0.8005193226246828,12.270283539805149,15.900479867207588,2.0775849748583894,-0.6121681581855236,-3.541240273408152,0.43238491648504623,-18.72080690796572,58.03295062064886,8.30982845671926,0.8556692133873628,-1.5209998961398568,0.9258615163416646,-18.54925356244528,10.38626455906345,2.9642732982192728,-64.47348377638258,16.271610149934673,3.0223710385907108,57.52117908260174,-14.925213748657542,-6.72628817088158,4.711746270720697,-2.480652467457652,-0.7643525004051733,3.312235985733317,-4.9426858855506675,-0.9789491032489279,1.6848574544246284,-2.2395286111918256,-0.1662945367112122,3.2696666667518626,0.48027894081222505,-0.12538532616576648,0.3597969004250376,-0.2907715736801419,-0.04982367179416086,0.344714965821341,-0.053088770154648426,0.026271788073931983
4.439066989360711,-2.817171075913943,0.5801996208696624,15.16833339739144,13.4081724180431,1.5198933103056889,2.3865613625127544,-0.7944431967003716,0.5402542906780861,-15.911647921236897,59.82784083535622,9.281793929421795,0.8429578363440089,-1.4386149885945074,0.8219833996283817,-17.00551184630468,9.428400806770334,2.5286872126350404,-59.87310712185976,21.472009008105353,4.668501872145959,56.49050845267228,-13.023360060169175,-8.919109864832022,5.109615686630531,-2.367775476171812,-1.3382238807070228,3.5839200776762663,-4.701897913736908,-0.8102700180451721,1.8464762237860404,-1.7024602569549363,-0.48280569628205716,3.1185708084503703,0.45801564741580747,-0.3024074154927895,0.30971791415575234,-0.155460111919684,-0.07271858281308514,0.3849610041863759,-0.016292112639522002,-0.0664903819338128
3.8619044536348768,-2.3780013831625246,0.5606118645475063,17.53544242029027,9.64731336800587,0.9026774444530682,2.6021612400204526,-2.0436449832617423,0.5861172791150777,-19.726829044447463,63.3226513475618,10.514664272893734,0.8446594124358503,-1.375896573567993,0.7949115637490948,-15.18759937909109,8.514768832483025,2.0424918972496204,-66.6658696622488,22.743293788176853,9.092341259159134,56.93916385551741,-5.874164456943983,-8.409730348221391,3.439049831845474,-1.25593048968624,-1.0489477632476498,2.901513752939158,-5.151642065194827,-1.2253788815273743,1.8853963454471474,-1.3954879624888745,-0.7350800071001476,3.171837706709159,0.6171413998986595,-0.3566432600466346,0.23958694448793336,-0.06350729743884276,-0.10423139186395163,0.4251942998713156,0.031448436994412576,-0.07669905299116592
4.104696454349715,-1.312885901896861,0.26088686680450657,20.222343046502775,5.967084933394391,0.3919894499536809,5.403526071970207,0.016991189474570012,0.3633651694250076,-21.607062723393526,58.00622445108702,9.57098720562886,0.8897850679947733,-1.4149525694600262,0.7923921146727856,-13.128769373592702,7.615981456925191,1.6245250298091432,-66.67974943812489,17.38540395234445,8.116353182074652,54.71858710822647,-3.547466676899372,-3.831562711359213,1.8954838744010496,-0.17540140797329198,-0.40365966862736835,2.457506721586333,-4.829793626782931,-1.1607296224433208,1.9957275036690578,-1.477189940488123,-0.7272354815434038,2.835606600638123,0.6741295965706019,-0.2259535025905757,0.2754871716498752,-0.08811993151630115,-0.10084931390593811,0.26137366403763607,0.028301227324871545,-0.0016763466527781547
4.2662955001152865,-1.516529762283044,0.3795944034674875,22.825112143649054,4.186515911276949,-0.03168078141925894,5.103126903976634,0.1959398501933468,1.371761431797408,-20.239330294113515,51.40265132208832,6.780537018132616,0.900791917773761,-1.5785432474989272,0.800101697719291,-10.878956493968355,6.5402701816307856,1.378524495364811,-65.56326017624498,9.544815878433033,5.254714226058812,56.3320744484705,-13.599776972053231,0.6587574406983207,1.7280825414153262,0.3599735405064517,0.380156698696289,3.3575469821654784,-3.580816313234644,-0.11088295993587317,2.7175051218047273,-2.350355306262519,-0.47785270240072786,2.8239936772855683,0.39249627704470724,0.20352925733486052,0.3784418850147737,-0.16485171412830318,-0.00938852256432809,0.2331184196979328,-0.016474220437155546,0.07342761106731972
4.105401734038606,-3.6531008165915715,0.7856426450387883,24.383349165492916,3.300622014614918,-0.2781779393768149,2.2269602372339397,-6.612149782743195,0.8803745394886786,-19.85069620664235,50.012496229375756,6.143674345824322,0.8915778376475124,-1.6969099361829314,0.8359288466039805,-8.95434361135286,5.5465035067507635,1.1591183794282802,-68.15045493862421,0.20368119307355229,4.585761695301259,60.18653610152769,-15.843145219376487,1.3476320272482947,2.084673781020311,0.020973978092748743,0.4852067192304291,4.075999054388012,-3.0822444788847183,0.33693980537009305,3.080904516356451,-2.9728260370712376,-0.41857982418794276,3.0498205819554136,0.2631996193687277,0.24791128051987163,0.3906541871378767,-0.2417556354541816,0.02627712761501714,0.4025437152256076,-0.009954900220169668,0.028969266764478155
4.235335937907466,-4.633187621206529,0.910585153476174,25.6432225867586,2.368518138649422,-0.5269261676149056,1.7582701915179684,-8.699927666381232,0.2475508210900273,-15.78323937780662,51.08028692399968,6.740189722957265,0.9286118571817262,-1.7882434790407062,0.8783425846070493,-7.51889724136652,4.898512558586779,0.9785621801102905,-63.681017955735776,0.576878295399675,4.398217887060993,63.09048189299784,-4.443689375167981,-1.3011489468987005,2.189104951557332,-0.42587850221662593,-0.050624564642573415,3.5365299719116865,-4.014519163141853,-0.6078438118002346,2.535958756040365,-2.5330972657221844,-0.6073797753320155,3.1984740807280234,0.6922008688479587,-0.2056277568905176,0.3466585400237673,-0.24794650313194166,-0.10524647316965455,0.46226853436151477,0.07551081133577932,-0.053844455712026534
5.303271724162595,-4.2639817981900086,0.6257587381378638,25.980732547062647,1.713779963122491,-0.6706632480530839,6.321388648969144,-6.382354625455653,-0.2445993100996859,-11.695586002409271,51.617634348217855,7.631733062768761,1.0002822278572259,-1.9997761313579137,0.9540363705613566,-6.552105930242707,4.754468575128135,0.8792506007373398,-52.08348558491976,5.637041240481649,4.885677951032016,60.525369924187565,-0.7722743840237918,-6.55954910130366,2.482595289971733,-0.529460486930792,0.029406299781727985,2.3874803863232685,-4.89028837277963,-1.6828714895246673,1.9094513744033759,-2.1110739914473298,-0.24375696165985272,3.2864484695062717,0.923565690016925,-0.4557446462596805,0.26548427616768117,-0.1860475440493257,-0.09611556337179354,0.3751189115575605,0.09480435961549091,-0.08732191776808523
6.179919354724383,-3.8153821627901277,0.6860294346412708,24.58704185847115,0.561670549149691,-0.8596481587400487,7.835015968656785,-4.490078346026452,1.354155989981386,-14.133491468541004,48.689780084338274,6.5787249579263,1.1743960984777972,-2.3515936983947054,1.100196653424705,-6.447680757172346,4.980558995325328,0.7665422741889683,-52.35523578889001,3.8482525600078397,5.410497776287554,53.91939451526936,-0.7478228930691352,-10.160390354062034,3.996542430241228,-1.8529193792438128,-0.8433045628501925,2.132454952405602,-4.56069159691907,-1.3073808679935275,1.8417449163491322,-1.6148513352352085,-0.37082899674833725,3.257018969719672,0.5989177275472852,-0.0737149181135868,0.27219514267301353,-0.17678937668392927,-0.05132463308590347,0.37800243137051637,0.061484336196340715,-0.04878542939610634
6.4451486837195375,-4.577314910054497,1.050988884295477,23.389916890040386,-0.5054103971837933,-1.0482605131501892,3.6761889056000814,-4.003557892493103,2.5323683754062793,-17.407935501832196,46.26483718891628,5.369190874641444,1.3643109166730407,-2.7376020483250465,1.2321701065214987,-7.3658516597370465,5.378802181076973,0.7157477108721716,-61.32852532905763,4.142147811766596,4.621633181672914,56.83784511077349,0.3582258999275798,-9.368208721623477,4.119337793524595,-2.7902590804361282,-1.77710373586539,2.542916094716979,-3.417578919096928,-0.28487985487202194,2.0224258454808135,-1.4013069119436812,-1.0252255639798384,2.9636104442913784,0.23658624361062186,0.37345174060392217,0.23689763127263141,-0.24129473937182222,-0.07413280834841089,0.40617571500626387,0.009937875323731655,0.05169750870148718
7.119717803751135,-5.995538248395393,1.0834719887077335,21.788490145577644,0.4178910204356237,-0.9028345883233188,3.8964523688344466,-4.1663236795070775,0.8476294517558887,-19.39477060781888,45.20003802561214,6.034376738229944,1.4666415001973232,-3.1434128523560863,1.3800876053465463,-8.674162416315843,5.691381757720223,0.7252612241359269,-61.488955391941346,5.833122231540739,4.318210089947726,60.33073874978494,-1.657281756398575,-4.804947142898045,3.0464723523811985,-2.0883526846772655,-1.7742333127075018,3.171248394101381,-3.224021628984155,-0.23115587951336702,2.272311573839412,-1.4838009072140634,-1.424068529300028,2.855394139783063,0.46062016437876835,0.04735396524917578,0.2669546859916365,-0.27194756930046404,-0.2254474670977613,0.42323768368597814,0.057170217612338904,-0.029294338248546336
7.396119034162767,-8.07797382878628,1.374191820623484,19.583716598353107,1.501608723128884,-0.6986322676187492,4.779283184426737,-6.515933159866944,-0.2199504516941075,-19.40081248851609,41.11240223848827,6.518297174378888,1.5847476187319884,-3.6480902459262197,1.5629235311714995,-9.577512860578805,5.722083117913074,0.6643684058577602,-58.180638410553634,-2.291352203763338,3.334672795626534,50.49969299335408,0.6576768257887375,-0.37650378937249107,3.502573534697997,-0.7492998300922898,-0.6372593152216324,3.620365580071388,-3.902999068239073,-0.5499020067580496,2.383675631871749,-1.9303794585021699,-0.6098126856820844,2.8290898759742675,0.7914183675192077,-0.3561874691796285,0.49388552257945256,-0.3185440056682911,-0.25496368549008236,0.4114337728112711,0.08039882663539011,-0.06871065237525179
7.939805617609331,-10.145080504134873,1.9438353791120437,18.077398542595805,1.245397253024866,-0.8560146090934607,2.798529071238434,-7.022952121241073,1.0271532766124154,-15.942025799408746,38.77497382398702,5.686524450368366,1.6756533579088502,-4.256347145869013,1.7904880860380996,-9.787787783694519,5.415223509814851,0.5798420502876425,-51.43372199227945,-0.7103758195000728,0.8753031452121427,42.52594603170595,-2.1428500763037985,0.7259150346099643,4.552534120203596,-0.02128428764552706,1.1030977982493828,3.5388704533523483,-4.396617502881165,-0.45707783663690177,2.1026132783766966,-2.72147280805025,1.061708320339987,2.5793704069206367,0.752468163574325,-0.2809793133275812,0.5916586860886995,-0.37848426807892976,0.1335595689195198,0.32937001490540513,0.04608453863961697,-0.008503829252000961
10.226603783690361,-12.397244401608058,2.405808921498058,16.014457965537915,1.159485733954213,-0.8737351669868596,2.8226455496955936,-6.776842565383468,2.523307885499406,-17.155894224634938,39.25539718144668,4.970706741283726,1.6320628773175077,-4.887183883295609,2.1492026771963095,-9.508486059906923,5.0276576742175205,0.6441623691823629,-46.99857180204832,7.728546044610532,1.3425570864048313,43.54552050370338,0.8587793116920481,-3.012902819884599,4.309394593940497,-1.2967621230492667,0.47695312985142185,3.3733074479992964,-4.31769475271456,-0.13675236238992525,2.598864342086739,-2.7016844393581665,0.5734412367338971,2.5807328574201516,0.5223281849160891,0.08234907365844721,0.5205143921022183,-0.36378550845695634,0.24741196838232898,0.32866726962609377,0.009195579617350149,0.07010205308724352
12.23508654345826,-14.134006852209614,2.6437303394369582,13.252274002332996,1.044402571090537,-0.4374216737630825,5.578769786279031,-7.884051633727767,2.1596949589751975,-20.18647709662291,34.58222448163951,5.293110923702743,1.4506361294831662,-4.933435948531754,2.5089924934026104,-9.148573174808694,4.952194691319232,0.8540187837745591,-43.06956760706144,7.159749568047478,4.584056420348393,49.28923557784221,5.98712817028306,-2.591281760441125,3.200138063771729,-1.5104035232753192,-0.6036077643468619,3.2240133631575967,-4.182069273306533,-0.2902815415570393,2.7830979824126287,-2.5627528376633104,-0.6695659968497496,2.524958386431236,0.6230188684921976,0.008306337862918244,0.41668929104025887,-0.43700093145659985,-0.06907891875590814,0.2971767825036522,0.05000643369691164,0.02564894538952729
11.88396580425636,-16.15865451658314,3.2703171118903485,10.191857680826145,-0.2867653795028244,-0.1583427773466882,3.090045048707977,-9.967249366694785,1.953315774144277,-19.281697563460263,25.913195292643753,4.423602064727791,0.989271771833162,-3.8070704228638945,2.6556823170339565,-9.28230377325208,5.1163327498738544,1.0660800166659699,-39.12714579555188,1.3053192021009148,2.958422372205147,46.70736609250427,6.234581119567267,-2.0907969067105823,2.493821646167403,-0.6083701735809103,-0.41063810824303487,2.8171507712215176,-4.298153993514756,-1.1963928914342936,2.117032832014703,-2.1858159257453074,-0.6025476386482773,2.7697938962016058,0.9022235434341943,-0.40343528306110565,0.35774110572151935,-0.41189331054860745,-0.17095188377122494,0.3222162297065998,0.10488486065487558,-0.099636202252313
9.80848924005457,-18.923032212568717,4.044673570783601,7.612827738674312,-0.9249222425304351,0.19700923101602458,-4.835656891847425,-11.704792171938188,2.4809624271749526,-16.28844403422374,24.507133921435127,5.504951828506831,-0.21025725429332828,-1.401361758878732,2.334092524329844,-10.230676870107944,5.363867392833897,1.4232600903328776,-37.03810583757591,4.946444893882897,1.5657129548101232,32.93174035244152,-5.229258360572686,-0.2400074418629298,3.6877286289983573,-0.22912403528768996,0.5431992990236483,3.302707458653103,-3.7296457492788746,-0.6372334272394397,2.2767641077536593,-2.26138479466311,0.43665517627894856,2.7274059842941076,0.723107769931763,-0.2321910755956578,0.4581207826419894,-0.22495064377290375,0.06746019279532044,0.33019776184906446,0.08667686560337871,-0.09194215501606717
8.843686360916443,-21.84628896481804,4.57881609681204,4.880513605000079,-0.29250080734899386,0.5193753909476732,-9.242583639633594,-13.148572808564234,4.330223496956994,-16.98254948418623,26.850265868702962,5.878431427425747,-1.6382700479326977,1.2953443077141455,1.773549026280546,-11.540915300580155,5.4768590414388285,1.7801646935325064,-37.499670091906715,11.582733342279802,2.8822700644137536,34.357877968739494,-9.566285663220205,2.2717155068335617,3.2132821732369403,-0.12268330702033488,0.5640097885977858,3.6241673859572967,-3.2192934611681805,0.2196679238830898,2.7091995400759057,-2.4886896222384802,0.17971981233727918,2.210716359289216,0.5938360410018257,0.04669946180404172,0.38326386376314425,-0.13284803582419966,0.008377175277684262,0.24455641552954122,0.08221918143048143,-0.015100908826678977
8.17891363786227,-23.705163247673042,4.764070610097646,1.0577842967070359,-0.6016356230426252,0.8072578662586068,-10.963844752133474,-15.830857338019117,4.550012868086359,-18.82623012809293,21.710399615834525,4.341966271394721,-2.4922647561347118,3.013792368908793,1.473858714518924,-13.11042359002551,5.568477924398748,2.0649226907528218,-36.4941146713443,9.002258627055424,1.454549179559746,42.695280460625014,-5.157490318122632,-1.7141582945188303,2.283189139485472,-0.4748039127092402,-0.32057048458788817,3.6744118288023215,-3.2468284661501485,0.14955783106191012,2.3145388568990466,-2.1166824206557164,-0.6316494024671097,2.1294761757112957,0.66478222450184,-0.03881904258965922,0.2241651772478074,-0.22220820084514695,-0.12819948508913034,0.23754735076974678,0.07780273217170235,-0.0072846538909055805
6.828469782211554,-25.231475418623326,4.954561367111183,-2.08879298681848,-0.5911025590905629,1.5484784170453267,-13.569530258354384,-22.112670131000403,3.767174864260012,-17.157818853602148,15.582839097687579,5.284301395130014,-2.8265726512259612,3.5242750202278748,1.44309400387979,-15.080359774867839,6.13707801212408,2.6134826165873437,-32.351992730708766,0.33156061431684747,2.450034418339636,41.61757872151665,-7.454375769794585,-5.029749539806083,3.8883909978450784,-0.5338048764497196,-0.16575725179053757,3.4044035375276485,-3.996113798914906,-0.4090518120044883,1.9352892381867446,-1.7819507495509008,0.04004826569714317,2.663345328673898,0.45780327231990886,-0.002230588031901276,0.3042549329150818,-0.24720086711578954,0.0990011837728925,0.3158857047426826,-0.01957548108621344,0.0030531208812590756
6.449468538163535,-26.84429952717446,5.12334679851988,-5.26436219861934,0.11688779196340464,2.3455598266896227,-13.987689021698424,-24.807050060451914,3.879050373627638,-20.04250040286425,11.523315747944714,5.547021558864878,-2.971054286058843,3.203313199817967,1.5290023176873988,-17.867405786450757,7.317365287803151,3.346849931693513,-33.83862362055791,-4.899629814911144,2.803533332532655,37.38223139200041,-3.0387185299322876,-4.64182857833014,5.589714950449612,-0.2324092610536676,0.3260300963777535,3.458297017944401,-4.318838934911027,-0.7834442709594418,1.7277551081507692,-1.9635767123774959,0.7532641444180036,3.26364197277463,0.596080562786873,0.03760260453356451,0.3479923973636519,-0.24586341198533573,0.23611754389252593,0.4032190759268388,0.014896209028476427,-0.019408995035207773
6.824241290373607,-27.727856472014498,5.068808340069374,-8.77569773450481,1.7217487058268488,2.8533930943436694,-13.648839458019546,-21.430339621774255,4.0660920350335,-24.922262525165188,12.104441375296638,4.381140301508677,-3.105789784578674,2.5663896187433335,1.6318325429013523,-21.4860907439904,8.728802303714764,4.053595027943876,-38.22128466684043,1.9805265637090046,0.2781315379760073,35.825424701343714,5.768185778581059,-3.427628954740225,5.280258798401203,-0.6374723946145276,-0.40020227211832515,3.8943691271168497,-3.607238467863296,-0.1722040241595352,1.4629043849410912,-1.8036495046327428,0.07333828889226178,2.9585667990919835,0.7875020853288667,0.1487904878123659,0.2554078050864234,-0.2628060268680554,-0.016396630853866258,0.3908074280017068,0.0876142849821226,0.03218695300844283
6.656602617725674,-28.748283132884932,5.125170827021334,-10.983255361340301,4.086459166466392,3.2959976654089402,-15.902741354566897,-23.698328447774944,4.088755321435695,-26.09751842560854,17.999530687283308,5.078236374418268,-3.186511672184997,2.118806838467191,1.7107423645105957,-25.375035532351067,10.261072127419146,4.730302259210618,-40.16412983617953,9.126123055775123,1.684940874957572,34.16650936473627,-0.41893119134539736,-2.246915130023819,3.3328706211036474,-1.5039051423400975,-1.2666627033702875,4.736207180753512,-2.7608136583552336,1.1197002865081254,1.3605175172943462,-1.0645318922936688,-0.8023440630587272,2.1938563618443503,0.550504512317735,0.3322903589766037,0.2075885552449681,-0.19688154339113778,-0.22922375863394148,0.2964757294072159,0.043744350934135784,0.11219822631775343
5.607411328134798,-30.299148254622935,5.441536505720642,-11.420103717165043,5.755632181549542,3.8206966782621348,-20.89326827805423,-30.143023519892918,4.40777543104613,-19.427788947200014,18.187310593146385,6.70681588210822,-3.2235828524686294,1.837979389740091,1.786870491235288,-28.80750833984816,11.748451716037641,5.37544559341774,-34.56369009948602,5.57223465407545,2.841257115127931,31.98468221498568,-6.305491120341719,-2.7284185573515494,3.055419445812999,-1.9445361958627996,-0.7735101700227736,4.862889550922869,-3.4668576026879703,0.9134027823240162,1.5119694415426017,-1.285792535172353,-0.359902324043381,2.1105405690941086,0.5118571832422326,0.15279722748864147,0.3268553301464787,-0.2402493765034835,-0.09101383968059998,0.22951471308503427,0.0162434918202497,0.056932601985967835
5.733540622772245,-31.52675935141643,5.647650995812597,-11.965972785605357,6.291937746985329,4.107968326612094,-21.663352798588306,-32.97533864678394,5.362267744429841,-15.981429353230249,15.20646485389635,7.487244088968349,-3.3527850660155285,1.8146740105784251,1.9175226570584551,-31.162205248993374,12.711873068418727,5.69961729062691,-28.524377834507003,2.5802294540530633,3.267003409832272,36.14257732873387,-2.431833370241393,-1.0660024316966052,3.167598469356665,-1.2469812006648653,-0.376112991711536,4.250693651516579,-4.657661817387887,-0.17221424132775925,2.406061986848914,-1.8970615700524953,-0.40390220699856616,2.3275831058464465,0.6867483700833963,-0.1364429191901726,0.41505856466641683,-0.23437706340076064,-0.06336705548137887,0.2189198754219456,0.04459231260557618,-0.03818500696987125
4.906244821255297,-32.440176268621094,5.723215126520829,-13.492803730113694,6.089168896757406,3.8816905173745924,-23.932831750569193,-32.825027230022144,5.513550873832561,-19.681404888508396,14.928890357276419,7.0313127865912834,-3.8162573990899604,2.5234701740680654,1.8954763851463188,-32.037656373033045,13.013805423317628,5.530452148106575,-33.797795278207964,4.927735279003403,3.8333691587761543,43.66036905458639,0.02422810046211615,0.2127739716462506,1.313350700653558,-0.15300808400916355,-0.8062600506731865,4.194979119446442,-4.201904709038124,-0.34665408200351117,3.206628070724831,-1.7584475681309142,-1.4444454122261925,2.4573099279899195,0.8317831385771745,-0.18378897303313227,0.40013815377936585,-0.15205543977328134,-0.26148284535389227,0.25960165576514993,0.09745431341726742,-0.07206613375133306
3.4093476652382924,-34.024586802474495,5.787592510554577,-14.009204313674356,4.982512623153827,3.222817291944532,-26.472405700196386,-32.79389666762425,6.129626673192858,-16.4458277736786,11.476173209331515,4.641868723304156,-4.531924402573722,3.741846971716212,1.6119918824642891,-31.13507683559456,12.485863959154894,5.030662150832393,-29.50247534431467,4.105527793756864,0.8404153963785856,35.015061876515986,1.5782978388258275,-7.20582853246057,3.8756412538936016,-1.3151535461916508,-1.1901128507542482,3.8476710583136136,-3.5288759242145114,-0.5287514301333232,1.8332644957038977,-0.8997414074232241,-0.6336938656787832,2.8132456618565214,0.7619176250941814,-0.031068364201075126,0.35147908315595605,-0.1562354933814772,-0.06239082424898688,0.363057732009063,0.06370227734944174,-0.02948953824454064
1.8105837992251201,-36.15725755683161,5.652728377673833,-13.518057201138896,3.8475526419553154,2.604073217874668,-29.36115094430576,-34.34748996869485,4.9346299586594835,-11.49551739947076,7.257895130457053,3.5862865898323437,-5.310665775531032,5.038544179392843,1.3172045434434838,-28.6852271388151,11.34308042050693,4.290689620687471,-22.41148431667097,5.253384494046682,-2.6178645237484024,30.20028037526427,-8.996798676946465,-3.4727231799049467,5.122450897525648,0.07628862992681376,0.2545546992210832,3.8658886805488963,-3.0200920705129013,0.11382406159656105,1.0594341106477434,-1.2084030224700881,0.6104210836543184,2.8106844459285303,0.3288422570081862,0.41089816363016834,0.09716498251661963,0.012975877242129312,0.1432791131670574,0.37943406467674556,-0.02436843692696291,0.062459786678483696
0.07352492153410138,-38.537305335020676,5.5092374312443075,-13.934547191521103,3.4011345413936507,2.099512871823419,-31.84936438143529,-39.90472067909197,3.391442458418368,-14.470906652554346,7.936094145662492,4.8377017049853235,-6.006966277008229,6.5019502565184135,1.0037445649043435,-25.139782091049682,9.762591411307747,3.2651089374276867,-24.419252279660583,6.701626190049258,0.8692524020937558,34.684000042306366,-27.124811101436535,7.60855451861013,2.962062324843608,2.7509852280177727,1.7133888040858998,3.9203345929852276,-2.211039416261563,0.8124010715126033,2.0005492547011383,-2.6150427232705127,0.4069724986307447,2.5597464818274775,0.14049289111280588,0.7031375664440566,0.09615588197097874,0.0022215332040353055,-0.0003642404432709612,0.32170741065469394,-0.021888906580869092,0.1041669192489989
-1.8069626835827348,-39.830527025544946,5.699245726618135,-12.43239336012247,2.777358757369774,1.5117476577190534,-36.35250395231555,-44.05094546407179,5.625001112434827,-12.354782737143937,7.1091602493631765,4.080133930262873,-6.618277211376364,8.187453529073727,0.6241896466355559,-20.86322967874939,7.883069970264612,2.431218535157958,-22.169664319565875,7.098272627582152,3.8022703457266847,21.365006380289106,-12.961452149590531,1.5155489693810513,3.6307506220264796,-0.038343749837971085,-0.07273020819787682,4.864617387749492,-3.6125572677692497,0.18417347749461338,0.9768956268599455,-1.6021249342731612,-0.0779895029719956,2.3168368078456,0.824422455136038,0.009958144511486276,0.13279449839388094,-0.16971185410788978,-0.08780319678455405,0.3173188984849977,0.09462953441763468,0.006443732176254576
-4.001734648289965,-39.77839096968831,5.666238125283048,-9.429284549934689,0.4989998222696339,0.824613906558522,-41.31754080909291,-44.100269538765644,6.422281252049022,-5.207464578012084,-0.4125826697210866,1.0121110714013302,-7.342004222243407,9.905183415315925,0.30281811122275987,-16.44198248748756,6.04773104316042,1.7600178270541598,-14.726488241200373,3.3726526968553747,0.6672671365518436,9.13658469079732,18.663621223919183,-3.891539902723326,5.352113521233129,-1.6442503272350972,0.04981667159480439,5.729217234423507,-5.313405083685319,-0.8020939949616063,0.08938078686717905,-1.4627814951906146,0.9032419278519113,1.746119839828808,1.5537201803358862,-1.0105405882365925,0.10888599646210566,-0.2293176158129454,0.13782010608589584,0.23782961189226323,0.18933458258448593,-0.15044278076360526
-6.396862291192386,-40.549795309378894,5.510688826865595,-8.256282244473281,-0.9610510312284735,0.16863134018875933,-45.57573200604605,-42.42257535693663,6.00044266864514,-3.307227756796422,-2.454609473238057,-1.1825949915997305,-8.042257247611456,11.451942476046142,-0.1293311106274898,-12.111273833840935,4.193095218163324,0.9933824950679623,-13.365846413021819,7.822663514485095,-1.1728183205596021,13.92128416217874,6.811756833142608,0.7014293537976382,4.325879949537142,0.4105182383928718,1.1261077559641897,4.8517924886408075,-4.073290663486607,-0.6051950624230164,1.49401120598492,-2.1353235126677625,0.7824475426839894,1.7318304405826999,1.1281015035666826,-0.684769862489212,0.26901910952772357,-0.11939405637201492,0.14506595000302744,0.16271835827062434,0.09768540347101377,-0.1133699315209106
-6.986650727912275,-42.73789595119024,5.23125430633674,-7.796680341049525,-0.16135727755662516,0.10786247435075433,-48.730317123289744,-44.91851513741845,5.226185353388923,-4.086737530431624,0.5941340846027229,-0.036216647142693445,-8.824465432265724,13.291739812360614,-0.6209705275788244,-8.128265997894708,2.5281127837350406,0.4274267059759084,-15.942188741484966,11.703595702984675,1.0930907084190928,26.012722585397,-11.823749320988224,-3.8384808275688593,3.9170279485791406,-1.8659136479217786,-1.9613082054496502,3.7078761125294557,-3.2074534695688404,-0.7437329035847414,1.9813224037657924,-0.8025721204689098,-1.1648505857491558,2.640249504639266,0.8143365333673229,0.019787887388558044,0.3467157636523961,-0.18389515449009716,-0.16063653459337693,0.2828873509837647,0.07617802075961226,-0.03804194393483408
-7.145182130544442,-44.02527956687702,4.850483701235346,-5.353083596308999,-0.46688350069774065,0.19248953767219318,-50.81850358404325,-47.85160901411454,4.51256165918549,-0.8818109897607668,-0.5884929084796902,1.3469649662492895,-9.68053005426438,15.404075451596068,-1.1286059263950203,-4.446405351006553,1.0509445474770616,0.1313859641404409,-14.823584343048449,9.673463925023642,3.3365371022332266,30.887884496810084,-11.110355824133402,-0.7240455559778911,3.381956372645191,-1.8137326166805583,-1.2905250104475054,4.01946743530021,-3.504322241742406,-0.42337728899629107,1.4868218067624026,-1.1594669125164319,-0.706109786330343,2.342894634787049,0.7112742211311589,0.054915926286502124,0.25138785101072453,-0.2227431953031199,-0.0966177273807023,0.28618966782130967,0.05741301412901386,-0.009625375044482744
-7.557578177024805,-43.56582149962435,4.4306839163927885,-1.7092870325820746,-1.5491905369450412,-0.04953350781505025,-51.50834581853292,-47.058270070562564,4.548130803669275,6.823991655652485,-2.799254781677938,0.6222394190169769,-10.500286994782728,17.249396520148217,-1.6136679098533173,-1.2840452718003177,-0.16972246830746748,-0.03494708236042161,-6.352413562912851,11.638333335843413,2.1726881133057736,22.36758314322228,-17.654260290133188,5.683672606123989,3.9863421533754644,0.5035011016189462,1.2012611196954581,4.686408338969841,-3.27892482651376,0.11165875040602356,0.9849808862246786,-2.145327866820146,0.7718611122729171,1.8389078676301194,0.635784792617028,-0.11360723589349096,0.2243170025145396,-0.1813521501789313,0.10233388769110345,0.25495219776169287,0.01638207365138293,-0.00595249273033273
-7.286617355835652,-42.78815579454882,3.825308083011579,1.0541697660713485,-1.3781209166686175,-0.15378458073593873,-51.85311471836238,-45.62800202746617,3.055511192689627,14.840265401585981,-3.091106506987167,0.7300462487294587,-11.352564298753222,19.332513903168667,-2.0086298830413822,0.4040189543303697,-0.6287635575730686,-0.0645774624390538,5.529581529027247,15.993060498620235,-0.4941282092477592,10.683379479129307,-26.900816969637553,2.717271271134647,5.436563175639065,0.7303549838654517,1.0620422857011143,4.935840175633093,-2.8787955898459834,0.40625721246614405,0.6783612819637055,-2.001739720422441,0.8747387678689433,1.9766890783463935,0.6477313758571615,0.052468194801521185,0.1853806794674024,-0.14806251906740647,0.08482988539706277,0.2520843488990851,0.012084514847318649,0.03429595867917343
-7.788926502400661,-43.31804906545446,3.7514030696169547,1.4294296020731982,-1.12020455570722,0.08602827084405525,-55.966123217934566,-48.268440568111785,2.990306953079691,13.694769280751762,-3.5480805755614506,0.5842165275761246,-11.792500414037793,21.243055123837312,-2.3500524285819493,0.7963232398133294,-0.5970351020748764,0.14502624573363493,0.1548233319518822,11.475668117397834,-1.0681265833904212,3.6835262977935352,-18.59295004738797,0.4733204504490649,4.6838846743934575,0.7706551110098515,0.9635248171296473,5.3423620538620105,-2.6984684122369744,1.1842336024303461,0.5652560263603356,-1.7610423320968136,0.7412384577240659,1.8580527003354386,0.4199641238063151,0.38322093176237915,0.0905673281861372,-0.10994643474045869,0.0911785051073861,0.1958536184561075,-0.029613596624324806,0.11152471620990705
-8.210606249760845,-43.429132122883566,3.8042941803311514,0.4477292408101099,-0.21063811805504842,0.5054944889662234,-56.739694467351825,-51.2846756590323,3.438387734356852,10.718332984247896,-4.515334534899084,-0.2658845812448312,-11.753414199367676,22.41614479390199,-2.508854977971844,0.498743958107498,-0.3283624007173568,0.46509904075146413,-5.078742966302603,4.021148084868677,-1.2298009944166657,1.3565208176143841,1.4357948420218365,-0.6133436548745955,2.3965321443084804,0.8890253518190615,1.081454516303687,4.472449033482222,-3.3847817388963373,-0.1404402268513938,1.0468252567890777,-1.7886710059640427,0.37220751295653537,1.7753049641581713,0.7963316402568825,-0.16550231069680094,0.09541069938234664,-0.09475863710323187,0.08147749442903532,0.17829016805926015,0.03632205493205771,-0.010518241390666646
-7.377141606008661,-42.55266782693061,3.6531087312597097,0.06749521516058896,0.26784523391480514,0.4835392724231647,-52.89020196884557,-48.64349504995483,3.7871368816043947,12.079780247355451,-5.455903859290917,-2.146325940432661,-11.444120428216362,22.45434079399293,-2.442460611401622,0.36765566734109234,-0.2198823829444476,0.5481020142742993,0.1704939377096159,5.358542131104074,-3.9175822466352748,7.588998091470051,-3.0296991122659547,-1.0099450102383567,3.3322663781166946,0.006668442377315452,0.3922091181350576,4.6406111122577025,-3.9935469338324485,-1.201114965211739,1.1622741391637137,-1.3672799913554425,0.23583979456612328,2.1136795969990607,1.236038755776621,-0.7498090498317156,0.1405128175569653,-0.0021876359809783353,0.04666759624430423,0.24078947061033332,0.11060104242561646,-0.1574041160822561
-6.173306632268449,-42.37138721818715,3.7958992049156923,-0.4460795313782013,-0.18166152895801535,0.28580178901923825,-50.66122183051528,-47.41544856973286,4.188737643754336,10.037149025357243,-4.7614494194612265,-2.5609023742200345,-10.975594988508302,21.492482871003716,-2.073679253183295,0.5263857606880192,-0.3454394003572937,0.39649351195258675,-0.6852164250493369,8.69525858444733,-2.825534835172531,15.731977478144724,-12.177113409471964,0.4486706521086655,5.609076713813277,-0.9724051662813282,-0.13815989391053765,5.164006124509023,-3.735701985026543,-0.1346167847469409,0.550962077848848,-1.333410327024078,0.4765381741656978,2.182992061174209,0.818512419088238,-0.16660948601386333,0.12454093195406278,-0.06729677083120833,0.019420547085438764,0.23023608114982733,0.028818818570934178,-0.023344330849050146
-4.420560325279157,-42.5377225835349,4.1220938870262,-1.5515628596358024,0.33642914597190016,0.457596848398208,-47.02042229632641,-48.168370383699255,3.6100716547447687,6.737638622127666,-1.1214808500533537,0.5756492100746767,-10.36560768888677,19.810584950318702,-1.3535378894252317,-0.15892636393832965,-0.15445823282677396,0.30320736564767925,0.05014873647420851,13.61068748311233,2.821964230888362,19.47124778110914,-12.722736250593165,1.9254328628193063,5.350144158044711,-0.08132310819322916,0.1888074256585131,5.060795305720985,-3.2297323983809787,0.8424909966839498,0.8528256548255201,-2.1908963460537003,0.21336610053235908,1.90228598328371,0.3778650364709843,0.34997411365872505,0.1805105781622479,-0.28096163941980895,-0.03745619971631716,0.18479065988057944,-0.032152175774991444,0.09176783996292305
-2.5138017067559724,-42.68119947172611,4.64764361728248,-4.7073820612385,0.9592305408201458,0.6120421345179338,-42.987782142827015,-47.950606278881665,4.032626797070272,3.815470997092031,0.17901933402166526,2.054198411143436,-9.456664615293187,17.088383806734544,-0.552510421144704,-3.073161806168879,0.8372533356328354,0.3389747675692706,1.8648584207521557,12.572110744019309,4.8207932560680025,16.236691956063794,-14.88030158530137,-2.1994919508506214,5.40303980754326,-0.6955974139580374,-0.23685337663711117,5.5014759799432555,-3.1067658468680333,1.1340516829030696,1.261987948795542,-1.9136060900991463,0.026097789252442924,1.6625912055238827,0.31607103138546455,0.19518031327504773,0.21754666558828162,-0.16943908006133923,-0.04365872069537264,0.12513601488009465,-0.050749726413377966,0.056296296499648214
-0.5731216781368467,-42.707428445138525,5.205117278735174,-9.097697046431861,1.304584176432211,0.9030900371020814,-40.63865383420034,-45.3695547737689,4.767486286020091,-1.5691321640687779,-2.2077599514927537,0.652435571064074,-8.19137837877018,13.312570656966328,0.22291768180553184,-7.850259300933683,2.700993692675582,0.8666617581141149,-4.136779006376079,5.3975831323256225,1.7483482782696687,9.176009987648419,-9.96037794438987,-7.646296095311645,7.282453925811749,-2.7938503144176554,-1.8497698416094621,6.054204124562396,-3.897229669370428,0.5106976267994193,1.5387367818900295,-0.8976106691038573,-0.32021536181153043,2.1063107348887,0.5957982116472111,-0.14056835152412991,0.34372162828505176,0.0405459764370772,-0.1344691866045817,0.26650131571442937,-0.018674215900402344,-0.014496930707089973
1.93717,-42.82582,5.75537,-12.34873,3.58086,1.55073,-40.61243,-40.48801,5.7845,-6.93472,1.93647,1.18333,-6.7181,9.11948,1.029,-14.27173,5.40415,1.92701,-16.89827,6.28299,0.02785,18.40817,-6.65733,-4.41884,6.29593,-2.19108,-1.57287,6.25364,-5.13514,-0.30875,1.60152,-1.05339,-0.42393,2.58071,0.89557,-0.34793,0.29067,-0.03095,-0.09621,0.39172,0.06925,-0.08868
,,,,,,,,,,,,,,,,,,,,,,,,,,,,,,,,,,,,,,,,,
,,,,,,,,,,,,,,,,,,,,,,,,,,,,,,,,,,,,,,,,,
,,,,,,,,,,,,,,,,,,,,,,,,,,,,,,,,,,,,,,,,,
,,,,,,,,,,,,,,,,,,,,,,,,,,,,,,,,,,,,,,,,,
,,,,,,,,,,,,,,,,,,,,,,,,,,,,,,,,,,,,,,,,,
,,,,,,,,,,,,,,,,,,,,,,,,,,,,,,,,,,,,,,,,,
,,,,,,,,,,,,,,,,,,,,,,,,,,,,,,,,,,,,,,,,,
,,,,,,,,,,,,,,,,,,,,,,,,,,,,,,,,,,,,,,,,,
,,,,,,,,,,,,,,,,,,,,,,,,,,,,,,,,,,,,,,,,,
,,,,,,,,,,,,,,,,,,,,,,,,,,,,,,,,,,,,,,,,,
,,,,,,,,,,,,,,,,,,,,,,,,,,,,,,,,,,,,,,,,,
,,,,,,,,,,,,,,,,,,,,,,,,,,,,,,,,,,,,,,,,,
,,,,,,,,,,,,,,,,,,,,,,,,,,,,,,,,,,,,,,,,,
,,,,,,,,,,,,,,,,,,,,,,,,,,,,,,,,,,,,,,,,,
,,,,,,,,,,,,,,,,,,,,,,,,,,,,,,,,,,,,,,,,,
,,,,,,,,,,,,,,,,,,,,,,,,,,,,,,,,,,,,,,,,,
,,,,,,,,,,,,,,,,,,,,,,,,,,,,,,,,,,,,,,,,,
,,,,,,,,,,,,,,,,,,,,,,,,,,,,,,,,,,,,,,,,,
,,,,,,,,,,,,,,,,,,,,,,,,,,,,,,,,,,,,,,,,,
,,,,,,,,,,,,,,,,,,,,,,,,,,,,,,,,,,,,,,,,,
,,,,,,,,,,,,,,,,,,,,,,,,,,,,,,,,,,,,,,,,,
,,,,,,,,,,,,,,,,,,,,,,,,,,,,,,,,,,,,,,,,,
,,,,,,,,,,,,,,,,,,,,,,,,,,,,,,,,,,,,,,,,,
,,,,,,,,,,,,,,,,,,,,,,,,,,,,,,,,,,,,,,,,,
,,,,,,,,,,,,,,,,,,,,,,,,,,,,,,,,,,,,,,,,,
,,,,,,,,,,,,,,,,,,,,,,,,,,,,,,,,,,,,,,,,,
,,,,,,,,,,,,,,,,,,,,,,,,,,,,,,,,,,,,,,,,,
,,,,,,,,,,,,,,,,,,,,,,,,,,,,,,,,,,,,,,,,,
,,,,,,,,,,,,,,,,,,,,,,,,,,,,,,,,,,,,,,,,,
,,,,,,,,,,,,,,,,,,,,,,,,,,,,,,,,,,,,,,,,,
,,,,,,,,,,,,,,,,,,,,,,,,,,,,,,,,,,,,,,,,,
,,,,,,,,,,,,,,,,,,,,,,,,,,,,,,,,,,,,,,,,,
,,,,,,,,,,,,,,,,,,,,,,,,,,,,,,,,,,,,,,,,,
,,,,,,,,,,,,,,,,,,,,,,,,,,,,,,,,,,,,,,,,,
,,,,,,,,,,,,,,,,,,,,,,,,,,,,,,,,,,,,,,,,,
,,,,,,,,,,,,,,,,,,,,,,,,,,,,,,,,,,,,,,,,,
,,,,,,,,,,,,,,,,,,,,,,,,,,,,,,,,,,,,,,,,,
,,,,,,,,,,,,,,,,,,,,,,,,,,,,,,,,,,,,,,,,,
,,,,,,,,,,,,,,,,,,,,,,,,,,,,,,,,,,,,,,,,,
,,,,,,,,,,,,,,,,,,,,,,,,,,,,,,,,,,,,,,,,,
,,,,,,,,,,,,,,,,,,,,,,,,,,,,,,,,,,,,,,,,,
,,,,,,,,,,,,,,,,,,,,,,,,,,,,,,,,,,,,,,,,,
,,,,,,,,,,,,,,,,,,,,,,,,,,,,,,,,,,,,,,,,,
,,,,,,,,,,,,,,,,,,,,,,,,,,,,,,,,,,,,,,,,,
,,,,,,,,,,,,,,,,,,,,,,,,,,,,,,,,,,,,,,,,,
,,,,,,,,,,,,,,,,,,,,,,,,,,,,,,,,,,,,,,,,,
,,,,,,,,,,,,,,,,,,,,,,,,,,,,,,,,,,,,,,,,,
,,,,,,,,,,,,,,,,,,,,,,,,,,,,,,,,,,,,,,,,,
,,,,,,,,,,,,,,,,,,,,,,,,,,,,,,,,,,,,,,,,,
,,,,,,,,,,,,,,,,,,,,,,,,,,,,,,,,,,,,,,,,,
,,,,,,,,,,,,,,,,,,,,,,,,,,,,,,,,,,,,,,,,,
,,,,,,,,,,,,,,,,,,,,,,,,,,,,,,,,,,,,,,,,,
,,,,,,,,,,,,,,,,,,,,,,,,,,,,,,,,,,,,,,,,,
,,,,,,,,,,,,,,,,,,,,,,,,,,,,,,,,,,,,,,,,,
,,,,,,,,,,,,,,,,,,,,,,,,,,,,,,,,,,,,,,,,,
,,,,,,,,,,,,,,,,,,,,,,,,,,,,,,,,,,,,,,,,,
,,,,,,,,,,,,,,,,,,,,,,,,,,,,,,,,,,,,,,,,,
,,,,,,,,,,,,,,,,,,,,,,,,,,,,,,,,,,,,,,,,,
,,,,,,,,,,,,,,,,,,,,,,,,,,,,,,,,,,,,,,,,,
,,,,,,,,,,,,,,,,,,,,,,,,,,,,,,,,,,,,,,,,,
,,,,,,,,,,,,,,,,,,,,,,,,,,,,,,,,,,,,,,,,,
,,,,,,,,,,,,,,,,,,,,,,,,,,,,,,,,,,,,,,,,,
,,,,,,,,,,,,,,,,,,,,,,,,,,,,,,,,,,,,,,,,,
,,,,,,,,,,,,,,,,,,,,,,,,,,,,,,,,,,,,,,,,,
,,,,,,,,,,,,,,,,,,,,,,,,,,,,,,,,,,,,,,,,,
,,,,,,,,,,,,,,,,,,,,,,,,,,,,,,,,,,,,,,,,,
,,,,,,,,,,,,,,,,,,,,,,,,,,,,,,,,,,,,,,,,,
