PaulMeinheit/Bachelor_Muay_Thai/processed_Data/E_01/E_01_Teep/scaled/JointMoments.txt/scaled3.csv
R_KNEE_MOMENT,R_KNEE_MOMENT,R_KNEE_MOMENT,L_KNEE_MOMENT,L_KNEE_MOMENT,L_KNEE_MOMENT,R_HIP_MOMENT,R_HIP_MOMENT,R_HIP_MOMENT,L_HIP_MOMENT,L_HIP_MOMENT,L_HIP_MOMENT,R_ANKLE_MOMENT,R_ANKLE_MOMENT,R_ANKLE_MOMENT,L_ANKLE_MOMENT,L_ANKLE_MOMENT,L_ANKLE_MOMENT,WAIST_JOINT_MOMENT,WAIST_JOINT_MOMENT,WAIST_JOINT_MOMENT,NECK_MOMENT,NECK_MOMENT,NECK_MOMENT,L_SHOULDER_MOMENT,L_SHOULDER_MOMENT,L_SHOULDER_MOMENT,R_SHOULDER_MOMENT,R_SHOULDER_MOMENT,R_SHOULDER_MOMENT,L_ELBOW_MOMENT,L_ELBOW_MOMENT,L_ELBOW_MOMENT,R_ELBOW_MOMENT,R_ELBOW_MOMENT,R_ELBOW_MOMENT,L_WRIST_MOMENT,L_WRIST_MOMENT,L_WRIST_MOMENT,R_WRIST_MOMENT,R_WRIST_MOMENT,R_WRIST_MOMENT
X,Y,Z,X,Y,Z,X,Y,Z,X,Y,Z,X,Y,Z,X,Y,Z,X,Y,Z,X,Y,Z,X,Y,Z,X,Y,Z,X,Y,Z,X,Y,Z,X,Y,Z,X,Y,Z
-1.43762,2.104050000000001,0.15764000000000003,11.429140000000002,11.483410000000005,4.46171,-4.13067,-5.454090000000001,-0.9203800000000002,-16.69271,54.44784000000001,13.63526,-0.42725,2.0173300000000003,-0.11482000000000005,-30.186990000000005,23.490890000000007,8.36996,-71.02472,1.4841800000000005,5.437890000000001,61.36300000000002,-10.263170000000002,-9.494570000000001,3.96351,-1.50429,-0.3152,4.20556,-4.377500000000001,-2.09077,0.7017800000000001,-1.25912,-0.15759000000000004,2.4771,1.0633199999999998,-0.04918,0.13588000000000003,-0.14764,0.013570000000000004,0.17833000000000004,0.11666000000000001,-0.05165000000000001
0.3951909572709327,1.0719753961576655,-0.07964223790282125,8.436674164899967,13.986533664116388,5.340314670893937,0.5044059657355511,-2.9558935371108963,-0.7533701369139252,-18.10968260623431,55.31007606387441,13.98038509262845,-1.4074388517332317,6.09337259149012,-0.6948439449117545,-32.271833607357074,24.388997728353207,9.296615543336642,-64.61631787793304,8.816082602661504,7.055184263009007,64.2133596741255,-23.04059224640746,-6.587299481644783,3.139918805357246,-1.717620516132969,-0.3087716818416851,4.808512576379286,-4.330172287164931,-1.9616186513389184,1.1802755662090396,-1.8519122962671528,-0.45014404731483487,2.991567208222849,1.3096011174847497,0.23477455450818943,0.23846220664397175,-0.2805708194617602,-0.025516829819724984,0.33844795894243096,0.13524208430185378,0.0534222350940417
0.5287760462341414,0.52578227023492,-0.03778893625021735,3.2299284662053926,16.433735580817007,6.167617806120477,-4.161631161818793,-1.8355896790039912,-0.9297717988893967,-19.707353211474715,56.34206277767545,14.61595205049327,-2.861207085396366,12.358832026451495,-1.7674960321171287,-35.15741978072377,26.33296032834797,10.211412886231622,-63.81373258036141,17.594009652867157,7.637261890675289,65.32761336901183,-20.7621721576994,-0.6663789025087474,4.0882319169491215,-1.5210776030416278,0.44896955098953206,6.342531335956871,-3.5618503023053076,-0.572551373266365,0.6634669556295704,-2.3496364038715543,-0.3503836214348214,2.91064063049829,1.3211695854434224,0.12829862110342238,0.2240694789840594,-0.24815252257005016,-0.09249339158867356,0.36117849256680273,0.13491379018310667,0.021042093907909957
1.2752091924895073,-3.8694472977322425,0.8165601250924486,-5.431408228093523,19.90902095947945,7.213969574223383,-16.516985274550066,-5.859582625869477,-0.8021711310231672,-24.013641361338713,52.09334022442127,14.91580571265179,-4.709512008007641,21.118876513391733,-3.141655976478063,-40.36833994398351,29.954237747001056,11.127267043186619,-70.47656326996045,18.905856354117564,5.170591902184437,60.34559697758136,-11.703502539746307,-3.8291781536368665,4.4221557412217365,-0.8717529098108708,-0.05402888999892047,5.487705434359548,-3.1752516190421773,-1.21446552355539,0.6188464323225502,-1.1333700086028604,-0.36002088679618727,2.7990519849168214,1.3346255918696974,-0.1182736874438427,0.20129757172941234,-0.019673853628288215,-0.12852151108861937,0.2759896937951153,0.143260000949685,-0.08651725954331752
4.4521081188342055,-12.5672216550566,1.5692265911983934,-16.101656228329848,22.141701996816202,7.502856488020846,-17.7231792428638,-17.46571578761694,-2.2963687319521062,-21.797800323167966,39.42877146517726,14.351011753931502,-7.13139174474541,31.52689771811363,-4.530677981987552,-47.41232456337771,34.379543518207605,11.102859751558007,-51.033258425596784,9.260902411987896,2.3525611495766117,67.49855541332391,-7.564229858153932,-7.612401524903526,3.935321823188925,-1.2699370447635328,-1.4807229588139044,4.167909092571753,-3.378615166173581,-2.088695957584493,1.4820647386447234,-0.5418738184853902,-0.8712681026338154,2.7582963590353073,1.3464745528514084,0.14272453658637513,0.24268722056785638,-0.02836370989790507,-0.16319579672953696,0.27502779867425114,0.1453015979174509,-0.016451854097206557
5.65236639444047,-24.07411707319616,3.59403673153531,-27.9015693122436,22.37747351959749,6.50093762296981,-23.101329281345095,-24.958901323086256,-0.13446749396328928,-18.85074464362178,30.015880192478527,12.254304529741809,-10.666797004872507,41.04993445338085,-5.574542016114408,-50.26818020769419,35.23240012405938,9.203611484131203,-28.986769029632313,16.323567651875024,2.5808946116597498,69.09681332285024,-11.048054169256643,-5.7808806815343265,4.605108032510601,-1.754961808928022,-0.9228625953638304,5.722058141475687,-4.086942540795988,-1.5090958784847972,1.1078688992562702,-1.3274455000379226,-0.5625052547389209,2.863644434102879,1.4657034019712365,0.27246341235399973,0.17654965181673593,-0.17999875433078222,-0.06595792263605156,0.3768753137527192,0.1175691386540205,0.0725074887143217
-0.21040495604370985,-40.4928891467088,8.673627807430819,-35.56186392561605,20.61862922881093,4.701035670514453,-52.230504741650016,-31.879865006278614,4.50786257446388,-17.481814589685087,25.479749379002673,10.39780121800053,-15.30107299895843,47.09130534304319,-5.8574042114646625,-41.59168974540685,27.68241802415205,5.30230534703423,-35.899135705092036,29.550174980251406,3.82952096896445,38.67484342435379,-20.6420082294041,-2.4906621222100296,5.789349988786362,-1.5614015735317095,0.553954746035859,5.8228468372428885,-3.9296793787894675,-0.9345226441647384,0.02135223508608483,-2.1907334100374944,0.011092909709569812,2.4127587054693107,1.1498746552536863,0.15690290900247894,0.043411058292605366,-0.30088014528567175,0.021561696911429087,0.31684091695216465,0.04175633481065333,0.041898319614051674
-6.963980470302885,-59.19564848921155,13.324499038098713,-35.91987076137673,17.554412532606808,3.1765757703765822,-76.94010221675123,-47.07835734058143,5.213758453366417,-12.630939451897923,15.47037730630926,7.426765486468341,-19.04082163626118,49.718097465101216,-6.2370392308943865,-23.950105002770435,14.39558710575795,1.2950906146919492,-38.875171396235224,22.447507266456817,4.317121568223358,18.724513931172723,-24.558042605265765,0.5706058733766826,6.719488799538511,-1.8270798805326307,0.1626566038309398,4.783213468175712,-3.2423968170902784,-0.20655283075154102,-0.1957786925965421,-1.84498221534878,0.08315077601023955,1.174424957896129,0.7673507840581096,-0.10370341095621123,0.005701447289965002,-0.20739397576808172,0.01788513219020984,0.11797534305625589,0.07128029797503917,-0.04163737349139121
-10.836476954184787,-72.51122442455944,15.22941098891287,-24.011110964538577,13.437634804498423,1.8091857778026639,-90.41243752268288,-54.34844192089583,5.794342270249737,7.304418277472792,3.241274022874839,3.5989792154536513,-21.521725938225682,51.059540537372115,-7.649239650202798,-7.541042669299956,3.6277082135969274,-0.11759932537979016,-24.396979601531996,17.512468524655556,6.1511902429487435,17.17015190470004,-28.270687115365476,3.2903155888170414,6.560505429004094,-1.7051408912259218,-0.16761604011198292,6.033725888051332,-2.5786484338516966,1.2012480172067743,-0.3116039046091176,-1.1630090973792686,0.2897252769871623,0.9772656077426312,0.8292172649360506,-0.26760772350971,-0.03339097118007943,-0.0923174688437896,0.08208173747675537,0.14896934441186802,0.11948355704557934,-0.07461732707157327
-12.914625665385978,-80.0126440420799,15.480567003899283,-5.688938925447993,8.440970784319164,0.23426877438931765,-100.51345652202039,-54.075003384503404,7.889568915294297,42.07927380215975,-6.6378384154333725,4.034472409818431,-23.747465125710097,52.093581351827936,-9.71198892550448,1.357319773206487,-1.0154527477370376,0.5906438642552362,1.373467157757438,16.788038001039084,10.429372596340064,21.233770806420015,-29.637630824501137,2.3824834064611693,6.018861186375661,-1.5205643108356452,0.24930175327019985,6.313777454787995,-2.934771145225135,0.4103246866555836,0.5074285156270942,-1.9625032065087715,-0.09751293298614779,1.9914703148904367,1.0774264171195338,0.1845027433301397,0.18465733345338223,-0.30920894868568227,0.016604724145254636,0.23019535741241137,0.04802019853260989,0.03117974730676358
-15.054550614872959,-85.67169513761738,15.665327702217118,6.3629451298997335,3.8774870185041217,-1.4841920595340738,-108.64722605529325,-51.30731891243562,7.357377654442261,65.8103493287907,-14.322649146175275,5.965958197067803,-25.390128316495062,52.54124128614164,-11.578505054221589,3.238393462499879,-1.4827574361296196,0.8257770801835647,15.673384923423582,12.955819974255705,7.57108511800405,27.600898498538555,-23.068145809683074,-1.8985671314568038,5.97641200785152,-1.84976629911811,-0.13116570016636764,5.232918544171482,-2.649003756379561,-0.46495914703147767,0.24596283711522104,-2.0420594748497427,-0.30353242201574027,2.1296884270333627,1.2975760671850929,0.29488504939651233,0.17663112016686533,-0.3570754806006701,-0.08602253500468807,0.2258305704978933,0.13632946708425325,0.027510994408260638
-15.732359555340741,-89.3576812338122,15.741147717375028,14.07190849232225,-1.4693720374917845,-2.322876895559369,-110.84015757533798,-44.70254881954479,3.410056715476031,73.820829146219,-21.829087479703723,6.2015794364470995,-26.60607132932087,51.74423486799123,-12.557743223014656,3.288119476889126,-1.3129220935815502,0.7851841408973752,14.97846061685034,7.534447830361213,-3.101463903109986,7.776175662871643,-12.35138551373996,-4.378643266425076,6.141970353492054,-2.107021799446667,-0.6600809889935152,4.578063710656348,-2.036206491544069,-0.2769900270467377,-1.0095199022701518,-1.1111410366963674,0.26003869909608235,1.1930253879133668,1.3694072995653148,-0.23433734212375387,-0.085772910933129,-0.12367403603513666,-0.015943145379616667,0.11259647662839764,0.22426785871592406,-0.07478559631890976
-13.018137071487423,-87.45541615161164,15.070048378344113,19.809029895385432,-3.5778441122483025,-3.4681315683626193,-106.32615165278311,-31.72189575694603,1.711596524906657,76.25539241923943,-23.023002918742325,6.032848598433133,-27.40026912302758,50.00359728373798,-12.492709919715706,3.488846391070277,-1.2682406383409093,0.7020868041950951,12.484399774124412,15.865960532736455,-11.462990197520039,-17.79352489835491,-11.771964007749114,-0.6231802239387402,6.040063634898156,-1.191791423211771,0.9437405616653047,4.5290872110130636,-1.9997653548055219,0.43615237036028454,-0.8288279049021084,-1.5760221245894508,0.47782842273426324,0.49354875417114275,1.1597881877151404,-0.28179874271772587,-0.08846464330051611,-0.08034616135649768,0.1344626653787606,0.005634568184671576,0.16217381885385557,-0.02961714870557689
-6.5616554972104195,-86.81555126381447,14.81737328733917,20.02577772736375,-3.261207860696685,-3.985326907152206,-95.20437548178674,-29.88409076956467,3.829419137449647,73.40059428057617,-21.92061055294098,5.246025791820244,-26.939644316738654,47.71325608662249,-11.721863268916076,3.442004247125136,-1.3394764575814964,0.3611234510815275,19.71173467150231,20.519399433497487,-6.750565773708288,-21.012277738898792,-15.002535371845065,2.3965077942650868,6.9646292853388525,-1.2363856277568674,1.0913476657186498,4.4692216113652785,-2.2362519532617036,0.49349362649772494,-0.3851792969850836,-2.085602813270555,0.18013520913431785,0.6436147189657874,0.8763713849134365,-0.06024452463697777,0.15733621997734074,-0.2813729138791135,0.02128909996029738,0.04030586862745899,0.05782802404873631,0.025352234132394624
3.406084540970328,-86.04670175732177,14.232138716982396,19.68470091224679,-2.5558602666493986,-4.5434022911339325,-78.49797365028851,-29.444898312523886,5.064852872070159,72.30518190260587,-22.698356828364606,8.844022174470156,-24.929797109252736,45.57369883795723,-10.346021021545731,2.9811590932558554,-1.3447981803953868,-0.20840495187335023,38.17569982349621,19.496577890517443,5.434657874605898,-13.096907866151318,-19.36942682298296,1.685259145326213,7.4982498573100855,-1.5835643190728015,-0.3980614196141556,3.820635030893638,-1.6607735070375527,0.5304180830035514,-0.8567577525070706,-0.9013256503855233,0.4951106759890811,0.8369180106284545,0.5934450845457404,-0.05150440563791398,0.17273138752671902,-0.1592534052561762,-0.05136752855589952,0.11212181163803964,0.047172464686004945,-0.023910180871767713
12.953087472005068,-83.31995686413218,14.108454634673599,17.462392769087344,-3.509417312431067,-3.5293486290887017,-67.26980424182152,-30.98030207819678,4.047590065189254,66.95226836768846,-26.68856853336899,5.682935859852828,-21.673790443852138,43.67566557591913,-8.498301749892144,2.5681052986161443,-1.3734413132420975,-0.47156951957056664,33.597092287085545,2.2904085418520546,4.001615627358677,3.4083566382273527,-14.811267380957133,1.4045598054316222,6.223674022037388,-1.750722090551202,-0.9523682306614649,2.526986229284444,-1.3979857507044768,0.9086033288998486,-0.8440593640673321,-0.6427955099335104,0.5299462011598504,0.08161757538855337,0.10225480048590088,0.04407040091122627,0.04290069777229117,-0.09864966361149793,0.025658083827942497,0.00011633057516311981,0.03266471279382966,0.002145181336465556
21.972172495514183,-79.28291710756847,14.061343755454272,13.377378146228052,-0.9519704525752852,-2.2116995356164244,-61.38849377946472,-32.44133287895849,2.9000410130610987,59.53876778965257,-22.379455435160175,4.344951894283347,-18.368169022963333,41.45752305471399,-6.419072637582164,2.586820904409109,-1.1908788707707683,-0.14754581764407934,20.090114836144515,-0.39203998280574115,1.1329352567292807,14.631542824727752,-14.454937641784653,-5.815535093117328,5.17791616781989,-1.335581295864896,-0.17799283489896214,0.8788353816794863,-1.8330306459201908,-1.7255984887916875,-0.4380386755007618,-1.3858300048677712,-0.14096308661419524,0.5862868321964106,0.6769759107157752,0.1028147619938186,0.032142831831741873,-0.17085119420805192,-0.046316077520600074,-0.04691743445093749,0.06414732914447603,0.02147258267645936
31.90586381800493,-75.20891772028985,12.688237345943502,10.609959919513233,4.864919243275163,-0.7321708627016272,-42.199777969449705,-30.28450546531121,1.9270675657642127,44.666899771792615,-6.182053363647835,11.20360034249994,-15.783909353724852,39.3827959247324,-4.50244028201127,2.833770683591707,-0.8004116742708021,0.400121794295984,23.758088454084348,18.476455350170205,10.07894559300637,-9.315894052970167,-21.56459405978469,-4.029602415473817,4.464353326790282,-0.27115935897084065,1.6090146201168887,0.9184549993351903,-1.1291190770916095,-1.9002163228544344,-1.5328018712057987,-1.3316810679326638,0.2581604436093232,0.7105914890399,1.0204774393662475,-0.3355146201144838,-0.23741617248838184,-0.05951913397940875,0.04278223823002884,-0.07388075351654698,0.17546750280575643,-0.115157988890826
42.145271312967516,-71.86932102783665,10.717866472670375,7.608349313538087,4.3596694353187075,0.8546966087428755,-14.743324641759264,-23.57393631961391,3.296534058032906,29.179820167336914,2.6882921250993657,8.678495986709862,-13.999144837949306,39.16324380546946,-3.153447008395003,3.073016232934521,-0.7592684266009017,0.5426887555704715,32.97414525161269,29.975194842733245,14.007678176920118,-11.353317483696614,-13.514310559360107,2.961281918895543,6.246107321601501,-1.6493161117282078,1.197909075602956,0.6388363391111881,-1.8552091571972174,-2.2822506860595464,-2.4311437516402985,-1.9154115612764568,0.7805593506183331,0.4175023688106305,0.7068462248318981,-0.6577023998356519,-0.38707801627364513,-0.13879453613559672,0.18538222945128832,-0.12995604016993537,0.12778153706210377,-0.21190831763577836
48.82030496061425,-71.2297068869108,10.678990361459586,2.4175457816441073,2.7737926393809786,1.8527626877912333,0.10650613354282495,-23.22971478608993,4.943750028595912,9.22804857361943,2.2261719134913527,2.278473664822796,-13.42968106718681,41.4823358380262,-2.5399891432311734,2.360534013971029,-0.893559199872616,0.9275138089255786,16.49715314130183,20.8538393389243,3.5993740742225295,10.066279427298069,-15.844899810526146,-3.184073644932676,7.5565471291800925,-2.232724663825205,0.5231575284487987,1.9740246632028609,-4.267918344664742,-2.6515324555411595,-2.2560019712304427,-2.0645045312655745,0.8455689721807524,1.929910327502547,0.5648170749161192,0.29833521576402694,-0.29304397150257644,-0.20608439891879066,0.20302414454904788,0.18820256412706254,-0.09257693310788057,0.04641242988026642
55.481677876551935,-72.37390669640705,10.652055525549743,-2.46685284103274,6.004493649274222,5.030701614482839,15.305507220096304,-26.622854750703482,3.3343788536219288,-8.145637086855015,1.7158256399103111,12.277310204575565,-13.294652293789861,45.30507825015562,-2.4868323093535385,1.0449971633315027,-1.0072921652146454,1.764836082814447,11.015786591332246,16.00810761637195,5.411677256773083,-7.94969360165832,-29.415115946989005,-15.360173202721546,6.39374289984463,-1.5108243953733063,0.45333900392344995,3.4185100039929166,-6.141224098033755,-2.859975832102848,-1.0295208505808175,-1.521023923249858,0.7924892195922273,2.8389766728885193,1.0488518673511,0.5892210745194205,0.02799893246487983,-0.29093088281140417,0.15673836463382643,0.21173547196736986,-0.09518546370110195,0.1457627051631094
64.45803319175596,-73.56099527804808,9.586476819890148,-7.517985740047497,5.526775135773214,5.638046250812529,31.409419604785487,-21.2943031153582,2.126182579796983,-18.837124130310265,3.8653839308068503,13.645856669354249,-12.700359455655326,49.41334239165848,-2.7583093923285986,0.004466942841467099,-0.841646855648189,1.584643944193556,19.178430283621445,28.308283670858504,3.8855682226149053,-7.326211005559176,-30.106740559461823,-17.79646411623225,6.954442649672202,-1.8901726512375931,-0.16823017107526309,3.021488907052559,-8.0612117612974,-5.697552959591622,-0.4198738489110694,-2.2845833094353902,-0.4618489399973087,3.778553407610583,2.6437111398624564,-0.4005968778310418,0.19368187061111622,-0.42662814872524646,-0.1637948235176769,0.1894220140042294,0.27233812013369313,-0.05927791807942762
74.77219029464818,-77.05052462885139,8.983348562945693,-15.570067849880912,3.4599190531621415,2.6301211974232444,40.772613162146676,-21.964287428055684,2.9815793541431153,-46.52758585669529,9.439127718378382,9.436914117743203,-11.562320253241094,53.733760001253025,-3.4369259461005743,-1.3331566689443952,-0.3294969110834145,0.722039181444528,-6.104603312235602,28.722294475643274,0.12054956680638802,31.978731700366357,-37.22942526483605,-10.609346258673062,8.780770170763851,-1.6369534171542652,1.5888021438128306,2.590171870822168,-11.144638704891541,-7.486910809139691,-0.5243297350619508,-3.5118464031006207,-1.3119751723952813,5.155169272645629,3.0417524302994936,-0.7258339809991761,0.10628624441814864,-0.43587476205939807,-0.202142829403964,0.4188268684597627,0.22220536733166865,-0.0812233359245122
87.94025807956902,-81.25967071472897,6.630318277192079,-19.374588771805126,7.265623293346018,7.869834978052253,60.14930362510366,-27.27902989728214,1.7725537420673134,-73.06197655293582,15.829519254252133,26.525798151572616,-10.403790916269184,58.413563321685544,-4.487323889962581,-1.7802618419687042,-0.2280952555188396,1.1801312070409813,-21.780052425573935,24.32392621647906,18.010761918577202,48.76373347828954,-41.742641957928555,-11.629045192931999,9.146555222525745,-1.7674870608701276,1.295966733857544,1.3706503605105473,-11.786723751921727,-7.723503211979504,-0.7964702331829815,-3.264123706842758,-0.9879550326802409,6.88794053575486,2.6980964079825553,0.006823067931522479,-0.04465867651149188,-0.3996024101653854,-0.05152666670412928,0.6810751878222857,0.14106485088930426,0.047357727835660404
97.80535641160472,-82.93927793225723,3.6280818490959423,-29.38813760288821,10.997692652972075,15.541339559824118,79.33433229212989,-23.20335292846079,-1.5895699305910822,-75.65781804588099,17.372236256730528,35.30303445322834,-9.521036446287784,61.52968229649243,-5.54810134217606,-1.5167048907317573,-0.49095507829709734,2.1937936662736135,-7.259853725568679,34.12986330337591,29.00961101387017,30.27246399933376,-27.05187712236913,-18.037405486816347,8.279597641953696,-2.3283206169757524,-2.187209794231016,0.5899132892190714,-8.960391741574606,-4.4465087612851875,-0.2520865680303568,-1.9633423533885934,-0.945234127636402,5.880648667977694,1.1750812770307595,1.0699231038208399,0.0816311758984762,-0.26485392588737716,-0.1625935258178349,0.40659040514136313,0.1073840415338127,0.06840246121000204
102.03732395263991,-82.83711429627522,2.2540436943655364,-46.359488929099825,7.998693691084736,7.671375106148411,95.68147765572591,-21.989261467236464,-1.535706472212541,-80.02097268051737,18.319088396697182,4.765458868332413,-8.670489270931343,61.783677209589335,-6.0373084712387,-2.9153860168399715,-0.6879791690728028,1.6779670732656198,-2.841287446821465,38.88550419627713,4.40915514210958,11.28636871889764,-13.906716238796074,-15.198756581847308,7.001216821772537,-1.8152744375864136,-1.8078996711964312,1.7679987182145933,-7.207031698640567,0.8618136657053337,-0.03417153617029545,-1.4599438499187793,-0.5228311560573737,3.1798954021240946,-0.41312764356949994,1.507592787768538,0.18117528748285422,-0.15031558047491578,-0.07026285808325243,0.05852551754149251,-0.02735400575432308,-0.0002525464798919747
103.37852703748244,-84.10522448219392,2.9952381483237143,-42.79669371848199,1.4399670426743094,-8.203518857109925,105.72596663669215,-35.87032496108334,1.8775319318926633,-64.428827719775,16.19175509995642,-35.256786078734855,-7.61163437324727,59.56899926690307,-6.024213728357343,-3.352011728372629,-0.6417786386185271,0.7057114409531221,15.103601635355144,21.17072308981846,-32.84201728172051,2.6622179681439575,-30.78596718938555,-2.6862596555760225,6.092624660247799,-0.6468731505096357,-0.1730011545392768,3.821281878372535,-5.97014625243183,5.081651561478498,-0.7726498722893111,-0.8593425797584544,0.009010444126606355,2.130150853670385,-0.727624345940091,1.6955658221842413,0.02036671188424494,0.022874915343184685,0.007053037477045617,0.0988049735971839,-0.04979014416186315,0.04468090155578343
106.25947985902732,-84.34720920918662,2.409214302996754,-14.649806179225033,-2.8874331051452025,-16.06709842768879,112.77739153873704,-41.45411563220458,-0.013335413871428364,-9.494017791959447,9.315559294595593,-57.98945971158166,-6.078141958308113,55.95897996752367,-5.464888787501625,-0.3384151559684032,-0.385169399718995,-0.14559936667043058,85.5026102004405,10.480052005823552,-65.74881209898092,-23.63208729218617,-48.93529249327468,7.053498600671298,4.414443007413061,-1.216758368061081,-1.425581627281467,6.2598345502467065,-4.342314517634748,8.748053668286657,-1.4715837193712502,-0.850432436262981,0.18487304872293572,2.24654264970461,-0.8070935416950066,2.1893116242200703,-0.1700839943666499,-0.06509970038533314,0.004938249959246171,0.42249183836403986,-0.14881078553649152,0.30847442459096214
113.83918302462017,-86.85919313172205,1.1094120690810294,15.433877687661248,-4.441643101729497,-18.715122919195778,119.83189723294673,-46.71022014400845,-2.6471479454308007,52.121734916116665,-1.9342023317785846,-52.6247697977864,-4.075520864237816,52.472882536760665,-4.359637027309798,2.8174088064635123,-0.06469307781977722,-1.6772687301481122,173.9163512190932,-5.792474843081653,-67.94363095884151,-16.47579693918395,-22.508824891606075,12.93299739738208,4.2635632674027395,-2.644620800564748,-2.808338537286932,6.70238191855826,-2.7945241481344163,10.013962213792215,-2.117033716708942,-1.6207941563196036,0.5039217484335187,1.64457757995093,-0.6642910851686774,1.797575643923624,-0.2525709244899445,-0.3593249423668448,0.060971799786869126,0.39292002939102816,-0.19883030973018923,0.3711549663243116
123.41674478731126,-91.82372005718403,-0.44559851349695234,20.26875448063133,-4.133700713149339,-18.049276115874836,121.71748522401502,-50.90170710054973,-4.098922987974131,82.08520560586791,-14.126865551951102,-22.327546573637168,-2.2960666006924133,49.23097384817419,-3.326346062313109,2.834978836360893,-0.2161047341876292,-2.219027516299522,217.25254835092255,-19.318966614045518,-26.890981118539553,-15.161298219961212,-4.5587414562566435,14.487854670859443,4.3013404585463215,-2.402037420204418,-1.257613198528562,5.172570143603671,-2.67975788787282,8.474571268047233,-2.675640519413319,-1.8399472874320923,0.5783369889154795,1.1635617432516518,0.13890619401418441,0.6953586999374719,-0.30267811357987207,-0.4021009830835979,0.026560987800180597,0.1642672360669379,-0.002402860174853177,0.1746251777852171
126.7988313262395,-96.68874168290785,-1.8532784030957383,2.4380063153120615,-2.226223405562732,-3.612632738830861,120.31397572132377,-43.85804683498533,-6.872949981287205,68.20222084326379,-17.240572932565613,2.393475039395433,-1.760202437069564,45.02135213041905,-2.8095586544966715,0.6013934660498138,-0.9452369765208004,0.22904856352626982,206.13393937086727,-4.52481855535815,3.5001799582747752,-42.75461887105307,-21.901368533786368,5.1243305078146255,3.4204869792531274,-1.384455630675835,1.2541020575978523,3.5290613544183946,-2.66874317090721,5.265973097333717,-2.6774194860349123,-1.522753640094204,0.8117456297819845,1.6908174530158409,0.41611063251337616,0.3899974905706309,-0.38717243216363806,-0.23096116579958495,0.20374864076193475,0.22822587539263905,0.05261686344093547,0.10559157105528143
119.9430490120776,-103.19066692594883,-0.46862175815277113,-10.178682351334862,0.08321790422150176,13.350450039099004,121.47229936781046,-47.90404900090097,-5.371975970228696,48.02593885743658,-13.65677541177047,11.843818394562591,-2.550180078481052,40.17266756766142,-2.6695248703172787,-1.4933961115770384,-0.9218004791862121,2.6707040582875377,206.16297648562713,-0.22626887065794654,6.990953637136867,-61.79211473553181,-31.06785759505326,0.2158608695319444,6.09988162998319,-1.9223408211985111,1.006255480141231,3.9337808878384553,-3.0774819025201423,4.8006821990914545,-2.385064149314354,-1.915710464078634,0.7337694196826001,2.252236846182385,0.5749932520835894,-0.19401132776452004,-0.2572905144283204,-0.2706228507020819,0.24288380646784244,0.3747168123138108,0.09793494772879408,-0.0584347400150393
106.30078722443938,-111.00145849673402,3.119704874763339,-16.97084709429237,3.1113204482815426,20.01725580982647,118.67300275584091,-58.96515324319478,0.026328703186875163,22.902831786019686,-4.0052484380390965,31.284838861721997,-3.994035233403297,35.151188010131214,-2.7270248748342336,-2.327338473682696,-0.1772439169483097,3.0033571926727927,191.56897414205002,-0.5269719134139216,30.71131300251277,-83.88754962377502,-13.402844556976802,4.80467871051491,8.513617573198896,-2.328277229651374,-0.10324773232152566,4.046536936221588,-4.456169861402865,4.596773239995963,-2.2726870216669233,-1.86615678102161,0.561921165281594,2.8129072034943476,1.1700006199043365,-0.7230564053785571,-0.13038403203171486,-0.299992940459121,0.07595824013948108,0.4563842942426901,0.2527733449974966,-0.16019892725888463
90.62800490781727,-116.70791914145457,6.563132446221317,-19.26581183495058,4.773446448683554,20.86519502403868,101.12154161366911,-63.02036283286318,3.530846899394302,-3.254208284707646,3.89359492994404,41.91429163891766,-5.085388506677153,30.856958476897415,-3.105441138355451,-1.8100424775991097,-0.3737338276762181,2.854202026201436,134.85350747553474,2.3566873748173305,47.29480203882908,-95.40831999356632,-1.0918183409937443,13.52017513640706,8.904910256152393,-2.1360442458097246,0.5202856805647691,3.48152417396839,-6.485187434589912,3.5902842520618106,-2.478843513338459,-1.7716373476863028,0.4748370187218901,3.357211657368259,1.4742355197111552,-0.9819881528182899,-0.2000273441743423,-0.20590603558251094,0.08602479729392003,0.5189458512188543,0.3093112582539448,-0.2072738402388195
77.52999736226852,-116.89586584049243,7.978534156093192,-15.04458279672622,2.0674110986731957,6.601758253389684,77.93836913047049,-65.96488324187497,4.588398150999515,-1.1544812931533384,0.27500024097854064,3.7906302140808306,-5.173024609558661,27.963229984888464,-3.5953201992515704,-0.6103716264239321,-0.8025832628273923,1.369334451185286,98.14177101165421,-11.358505930764268,5.337419322528776,-77.71775420845503,-4.462833291928215,12.887646110176057,8.099946950303048,-2.104307100274491,1.1578409013755118,2.0008313399843334,-8.457429549030199,2.2594581141110694,-2.8459021607381367,-1.8240570889900705,0.45641819004673195,2.9611469634042447,1.4458546962271683,-1.1777320898028765,-0.2935947659964603,-0.18160525728343352,0.09192897172139858,0.3000857302300489,0.2332608000825173,-0.21550289523582383
67.52633316651225,-111.94547993177868,7.515170540895206,-5.376700424004007,-1.1482222895187326,-1.9550580952068919,61.75332989352,-63.67220623205161,3.573118449597282,25.076843901054836,-7.021314490642275,-16.744937716319033,-4.3423965204342405,26.341204302162915,-3.997238353504774,0.49524662783301876,-0.6156233465466093,0.07031273365587314,114.50984153678978,-18.64506732392214,-18.118704735727086,-68.31797837530118,-5.2855437146594175,1.013195705817812,7.562618934623584,-1.851959451385602,0.7525489824015771,1.118557930366378,-7.741985137842055,1.0689208159266563,-2.18968728003008,-1.5500493943985278,0.2967998879855318,2.5242467811475935,1.0830673554786374,-0.5551066711953132,-0.17673686535113978,-0.20424441715014338,0.012956085269982803,0.11537549545390527,0.1459376021656414,-0.11823127142235199
58.9887351891461,-103.81175979172761,6.16007694033937,6.665347179789279,-4.291584708722522,-7.166389602084682,49.16471098704903,-53.045738497230275,1.749264470953897,43.93400334527144,-12.194803593516571,-22.025537113689467,-3.4010764043463295,24.44283290021854,-4.216220139493303,1.7380484168430086,-0.5143246262304063,-0.9498403009856373,131.15901718695324,-10.469484028044645,-24.92767459651751,-79.74348627747234,-10.642425558724728,-2.8277269185304306,7.0845205233603945,-1.875400646336173,0.6949939549941065,1.344754039252725,-7.422246107087305,0.2557930089282292,-1.9913577298249725,-1.626882569560543,0.16804663027680114,3.061291561502524,0.8526015452687009,-0.22985161486238986,-0.13569457329924856,-0.24533740111810848,-0.021865037813828914,0.3466076300131389,0.06697262588589536,-0.01657771625509477
48.91919344841742,-92.89579187537677,4.962006951804267,12.460234740403147,-4.394438297456887,-5.7672713147400545,36.878540432226366,-42.634505553787484,1.2029893088572714,41.985728970618595,-12.786094842402884,-21.971287465194447,-2.98141041824386,21.672952755813558,-4.271212745850768,2.240598092553039,-0.648704631470671,-0.5324736282108061,114.40915364788887,-4.43939524192918,-29.168721864257275,-85.34703628816096,-10.735152605082126,8.006118306215933,5.4563781227270995,-1.771892291044192,0.795720733707465,2.3501187322324424,-7.500439993963587,0.6702006506827074,-1.870818201558149,-1.4510159604368817,0.44238146866276323,3.2961023839849575,0.9206935409890142,-0.40657210256528326,-0.12715217972191792,-0.2017612494730704,0.06368340825314489,0.5485714196918026,0.0676076703512588,-0.014518237221662109
37.397155240476174,-81.65971658246248,4.341697768631748,12.046013069849787,-2.2879835622438933,-2.630345447727206,24.80129917374582,-39.5197628677575,1.445364737709679,40.26345125501984,-11.731589635508211,-15.095063802886234,-3.382695344678444,19.31227338045064,-4.370613490938072,2.148298389101709,-0.6951638342639699,-0.006707887649089224,98.24665496002709,-9.960301920436011,-22.54972647219341,-64.50088397010614,-7.626361414945742,10.188326063681131,6.099471712926793,-1.4113342640290474,0.3744767183001476,2.2000949098641254,-7.001115013814756,0.4297975544241288,-1.058838188192778,-1.0047111042604013,0.24348840382163142,2.7972595604896333,0.8780869785296096,-0.45016427278885235,0.026225949644435205,-0.052789109118856384,0.029792230758335033,0.3903268493912232,0.04694377336975912,-0.012138964074938637
26.83654162039462,-73.3414213705873,3.8583509956009077,14.489227232287469,0.7484583099227945,-1.0909709631331914,13.383369391250682,-38.319191969276034,1.0474720515901992,45.910302306351745,-5.890503743691282,1.9322464036827698,-4.271957490379355,18.01868834624376,-4.880683893671478,2.459625405995495,-0.6097403082538806,0.019991729913221887,92.64473147979143,-4.255710551214826,-0.04548476796775751,-58.863620052523686,-1.6858943781751683,5.116222647088536,6.692471786859007,-2.2611701770909582,-0.4055104392681965,0.4179420826837838,-7.62942188460882,-1.7559542890109785,-2.0678949981638564,-1.0802219914585105,0.6997174019732493,2.359408189065994,1.1647966617051344,-0.9294072383367387,-0.18500307702920787,-0.0730879298518539,0.09871377751990626,0.03299073193373954,0.10768138548042629,-0.12667162070940918
17.925160268523108,-68.25750836850412,3.580431286314749,14.207407508638758,2.595036740413883,-0.6526959931505899,-2.0803407125417017,-37.584081385677486,0.2200616916411475,44.77412922507472,-2.9565363559714006,6.640765342577567,-4.9603961089812625,17.888687938335867,-5.745349012647396,2.3597120934059674,-0.40232482594316105,0.13592558394635626,75.16878355105622,1.1119541221959985,6.013581162851519,-58.50412977814772,-2.9160846389626562,4.246473368754792,5.499541604966728,-2.5730957295688497,0.1466242303401783,1.6335584723154848,-6.933019491553885,-0.62094426984302,-2.128775343995741,-1.8231345695472998,0.4582821575667897,2.375316077805337,0.9899643260195546,-0.6913688302988829,-0.21799886392054707,-0.31583249734289603,0.0827395139952004,0.0985896836007007,0.15149816463550725,-0.12749391550781525
12.170117773798337,-63.98871161300828,2.957883427864764,12.156001855949915,2.122872479369853,-1.227163637111105,-13.735581962588109,-30.128737352271358,-0.21175901487145204,45.545858950684,-7.380464760273504,-1.877829804997649,-5.566756580144446,19.065108278937778,-6.531492404748531,1.9973718099376967,-0.4237566852295597,0.03489774762422345,67.94364711978827,4.51693289740774,-6.791269263536451,-62.49728672455848,-22.499335783384954,3.3537708959152863,4.782451869464291,-1.5778047363136254,0.91242364169329,2.8760535089719705,-6.155763960223889,1.1724729430469187,-0.9574485552602903,-2.014141627368456,-0.6637113014179254,2.2351276601905052,0.3331015731355822,-0.021685080317895736,-0.003812655200496155,-0.38105461867620893,-0.1739896163386929,0.31589292477807707,0.07227713985268795,-0.02532989653042756
9.345736931503993,-60.69090103384535,1.7858142797869003,11.935368895694575,0.24592913314378376,-2.3779559807023114,-18.65359493452331,-22.667684675994753,-1.7937332965325155,54.15622010746232,-15.27474752780148,-6.977590126578635,-6.22119632522272,20.80150872664259,-7.160056818156304,1.7919536396097244,-0.5750373891215993,-0.09615490367389908,81.31989770301918,3.7040221635978967,-15.071213698950773,-66.5657687052714,-22.691327338114384,2.4255337695036836,4.932449943329084,-1.8489359914381924,0.14574795849911062,1.6617863604997951,-6.125151983891642,0.4077551901564679,-1.6872813041146608,-1.1771832684235988,0.3779206110289359,1.961025859884814,-0.07919050626163046,0.20020825100430517,-0.1931110989209677,-0.14387727494578811,0.06295417949900588,0.21630703846425653,-0.007829833692874965,0.0037760913355973833
6.410646056672125,-61.2568926278692,1.3336503218510283,12.75202448789919,0.8304215004166059,-2.3728722754650886,-30.259052503625078,-27.951767189534316,-3.1462595511448024,60.58733318848287,-16.09974357416151,-2.360346645063445,-6.5864261206164105,22.421372059399726,-7.909466683526906,1.760200933542029,-0.5035571503847627,0.3042218246222903,80.27455868283164,-3.8624750290883325,-10.378556487062088,-55.28775578034133,-8.04466345300542,5.7107007812537525,4.442292967325073,-2.079660301944548,-0.07387667850452002,0.9140178778404247,-6.168516035870541,-0.3971943149935673,-2.0087732466489854,-0.9089623231607774,0.9853858748474714,1.4829486282831899,0.34934720290261806,-0.22220733479074548,-0.27738851082320676,-0.06198138934053593,0.22734211327574916,0.034963254204434635,0.019278048389427847,0.005334856483372048
2.565430557847197,-62.52310920423589,1.013676266317279,13.17704514293349,2.96653874635851,-1.9338690442920417,-42.039521819743314,-30.484542284364267,-2.663170064365106,58.58700985091698,-10.253069047518819,6.220551385497165,-6.835764010088009,24.189326757436667,-9.059317925802246,1.954517579374123,-0.4841688801162908,0.625036283204548,66.75006536016373,-0.08820999010917667,0.10016021863139245,-43.62132521557249,-23.55721117817796,9.627522450104001,4.376592920887817,-0.8120463405910776,2.3996331267848334,1.7076015929756578,-5.716342227481855,0.28671407462560905,-1.4096803912950988,-1.77307214251199,0.12149267930723877,1.411281535078998,0.1957613324519813,-0.11690791698509581,-0.09275125807427748,-0.20546702563097524,0.06422289995376838,0.10805877544681518,-0.10527653124865889,0.09619456018921245
-2.9679991218178023,-61.0503267914346,0.3961784192243217,11.53292071327668,2.7075883448543316,-2.2196838769930345,-53.493354041636216,-23.818464424354683,-2.203702393521419,57.470269329831964,-10.272033540415134,7.3631642876947705,-7.0477114972917585,26.571459727965717,-10.537481607763645,1.891824839585988,-0.8271989359723113,0.14566010049118377,56.98905818182948,9.917468718749676,0.8419669981720768,-40.51965765223384,-24.618922469215452,6.320018576661056,5.591452719237865,-1.2601008212346572,1.7651527652950043,1.8386856571029706,-5.50075532117648,0.1866196424609621,-1.1173280301849138,-2.0748713573740303,-0.27599119893080143,2.0145220713658563,-0.3900810367012276,0.1820230085965166,0.035536139795975016,-0.29367722713905814,-0.0841295077652211,0.25858780550166377,-0.1832032732866944,0.06810626917059995
-9.24462170629193,-59.10206351859687,-0.3782392960071816,10.497782253747834,2.74170874242187,-2.519693052677685,-60.60096467725213,-20.010515888664898,-4.623796613782911,55.61628594858877,-13.514306667666053,4.452471666561467,-7.3373826908382,29.861631120874183,-11.898273384476829,1.626814323505189,-0.7768650560262604,-0.22019142829691238,51.082291454418545,12.906110872446966,-6.80356590514062,-40.472049691342484,-6.348510835900237,3.362873721729714,5.7281377212852895,-2.541025619037069,-1.200909903979595,2.1585933499769956,-6.844930088075612,0.15087270197671623,-0.8355446558936754,-1.4976075706219065,-0.39379934254344684,1.8866540300114139,-0.09455967209233578,-0.2130020548970268,-0.02544262950443636,-0.2269888210566967,-0.11421984058479313,0.16873045494842048,-0.050153824086443054,-0.05396131142278749
-14.834716104781558,-58.96191837303436,-0.6294880890892718,10.924023971386356,3.4218517982012795,-2.5366110818697267,-65.43908606542482,-24.775541064884603,-5.328092750935354,56.24760336239708,-12.691499113967607,5.463184261110154,-7.620564649748345,33.08984513800232,-12.91611072971163,1.6833256837961927,-0.5919984174758043,0.01881784534962953,51.66869864199254,8.570093714417405,-5.123984262710321,-39.647093839703025,-5.399374701730914,5.944704289293891,5.357198052742631,-2.668592014894419,-0.968997424767622,2.3011919778440033,-6.449842254614142,0.4579435419653129,-1.1634899089744124,-1.5036818431686445,-0.011140116540163357,1.444113295976829,0.06276394439802925,-0.23783297242365037,-0.08955174641566518,-0.2508593734290392,-0.029970851807727336,0.01055868085204327,-0.024246972505859568,-0.009913695085083423
-18.1516989627607,-58.37502320164443,-0.9214486214918393,10.051975246987661,3.804591736193797,-2.021959405380946,-72.73142634546714,-27.521990216663788,-4.579736328908913,57.638734587671934,-9.95272047217101,8.253597941753531,-7.7112614812994185,35.29173117887683,-13.607354192113062,1.6086264003288984,-0.5163223041835118,0.44054443306583374,50.77055304999529,7.85977555100628,0.43031170440869615,-36.34763895453327,-17.407665112208896,8.972288241644726,5.091324472209115,-2.3531631083979097,0.4424216380170464,2.2699465020346645,-6.610693390842516,0.384375372719365,-1.5316844140678867,-1.8928590929672817,0.3618131428722017,1.5989300198285528,0.17137374438260367,-0.2063269704167342,-0.08869964745804279,-0.27359922224348476,0.06423542165034789,0.09234515699623223,-0.008267264336482736,0.01627552507698048
-18.25806555981651,-55.621829151924274,-2.074859926886442,8.094732164961528,3.8567248656058943,-1.4328834104410857,-76.66495111347463,-26.77662720083532,-6.170164272372737,52.01003731920746,-13.189397002778101,4.362944113576322,-7.554774688573797,36.58463874167862,-13.955926160225175,1.4699697532759826,-0.4679501277389216,0.4720461240890993,41.44449197910908,1.2407610260436945,-6.1908589740718485,-35.1775636886674,-23.402451652211678,6.312289698832596,6.0209614507326705,-2.311191153570977,0.6941637336611144,2.2972854823071875,-6.608139248291101,0.3423052425479119,-1.2383858351755834,-1.992213526260374,0.45124207364897795,1.9352122192034265,0.004660626760428983,-0.1064509605412009,-0.041617742975999024,-0.2042852567322662,0.15727441755083585,0.27914552713837926,-0.0038930069629959183,-0.022249348691298357
-18.637472685410852,-53.03909072288112,-2.7388601998556115,7.797222199207281,4.11783249393443,-1.6554247598339442,-79.75705911586456,-24.460718645517375,-6.815832259773264,48.09945606787916,-12.720498787230145,2.0523657025228497,-7.1335132480111785,37.14137530353,-13.926965219869432,1.369128356547347,-0.4354857208757941,0.26778932737012207,33.937298545940045,4.281124244566186,-10.305084000969167,-36.64837165852951,-26.151560301828358,2.6444332091522327,6.140242758282448,-1.3765947051392178,1.4604063411933628,2.0583744603750818,-5.136477967903156,0.533668872843392,-1.0836189928762245,-2.1327062862350377,0.0727908674245973,1.8260309494728384,-0.5447241288627055,0.29963079853690466,-0.021985041289921424,-0.2370236409496341,0.042703838703354376,0.15696239381709962,-0.11935434592895287,0.061075346423298815
-19.883571741205312,-50.683278047131154,-2.9411192830426796,8.955397632049078,4.573366474937159,-2.0667573878875825,-78.61914457701694,-21.423320176058272,-6.377484866623411,49.72127909989585,-7.972914749631341,4.58890655559018,-6.756188973834604,37.22826867125122,-13.622492867443682,1.2692681727524093,-0.32696869983260435,0.253390227586726,36.056712507598775,14.273876838682723,-6.03884628783357,-38.46584430959382,-22.250855907156463,5.451654902515203,4.611809168464377,-0.7160396903738786,1.4566089403857125,2.2474741243728444,-4.0960184549671075,0.5851587982172344,-1.1295659115627903,-2.2793747544173573,-0.6528895002945723,1.8641182593645371,-0.8377035903173663,0.339297971083022,-0.12117555915370168,-0.2993089599664793,-0.15442176565013865,0.12132624606679322,-0.20716718845611862,0.0636002254298335
-21.431355655284655,-48.192823023386175,-2.9166287392129737,8.659780503597023,2.92422465296468,-1.6989823883258726,-79.13566556800438,-22.204872782134327,-5.890391714589731,51.78776020721548,-11.832149651099252,5.6447859304832555,-6.701113477166858,36.93505148506839,-13.206746496593835,1.1828675378065732,-0.48428193965140415,0.35924284572362053,39.99967905599726,8.080886581793862,-3.819840488671478,-27.233971007679163,-17.241548606932994,9.028208345090077,4.8683289513967996,-1.9020314411533326,0.5674728243126624,2.5198395426134805,-5.209666127254859,0.3702184888546502,-1.4493005923298719,-2.3085172157129645,-0.23290625222834277,1.769933638003626,-0.20341762552360357,-0.19735799593500233,-0.19352343967250207,-0.33279532624667507,-0.05298027607330238,0.16105084992838542,-0.09940757167324857,-0.01184725964389059
-21.882737927537722,-45.76016011068898,-2.9142871445485214,7.578913343718231,1.3257144812419202,-1.2196008768194873,-82.10241148347856,-23.531589568046016,-5.36152586298573,49.39096197180822,-15.466371865424888,5.073729016334904,-6.7898668453828455,36.371462924103625,-12.71953633280148,1.1574646154867534,-0.6560727410077404,0.36212145839107135,36.41651885899855,3.1494100163289547,-5.146234793473972,-17.370945624472828,-14.085173897861962,5.554873164653756,6.2822600047025965,-3.01268560959496,-0.6127952175782242,3.031025326893501,-6.62274453824154,0.917485299706828,-1.1176980198570465,-1.3020104093777258,0.8634915892512882,1.4941224621085931,-0.058503075857292766,-0.20364459524486528,-0.039262746079061876,-0.15768661812234006,0.1809390583561487,0.1191393311008164,-0.07435665545330446,0.017104595385687628
-22.0267419786369,-44.31421052649681,-2.92533266656199,6.2111803996305905,2.861469875916958,-0.9591217768507047,-83.49153829705665,-23.640970594539056,-5.748526732592275,41.95299407743272,-9.465835470744492,4.315564313014976,-6.650444984666694,36.04490599529148,-12.216465220761858,1.0015862559873772,-0.4783417752900574,0.3392951959094086,25.3523749715052,14.305224813589398,-7.1537834057104295,-23.152618758305373,-21.057056514455937,-0.6374079523818539,6.117557006035852,-2.4080976509024428,-0.015529758751684164,2.9484254207597402,-5.911427203452902,1.5925756885952906,-0.7260069538127268,-1.699532918299252,0.6275168484268535,1.1145379644853157,-0.6485461796768729,0.3634355599144506,0.018729898325860896,-0.26041035098196563,0.16267769708299476,0.003027782757631244,-0.13971862738121024,0.0908679072644148
-22.120668585636817,-41.209542475753864,-2.870283146030604,6.448324608960061,4.3191025053023875,-0.932609397463918,-78.18694165846856,-22.48228687290758,-5.446874432841576,39.65911765331227,-3.9257435795057347,4.581437933620403,-6.574427835420935,36.057243069937826,-11.63631531197445,1.0182437713274362,-0.29062955061581813,0.4173422485826487,28.430297286060977,20.68074410135951,-4.20223967139718,-25.862206134521365,-26.25504355306478,1.8544021733234937,5.138187474435303,-1.3623514062751894,1.418872617988199,2.8717199744203032,-5.523979412010959,0.28855325012356153,-1.1058631930619423,-2.64688738839841,0.220172094414873,2.1658625328451167,-0.2696746839268011,-0.136150798120725,-0.12189365974074971,-0.41088064395288065,0.0970099429388932,0.18883156468943718,-0.09532578446550793,0.01618876990555304
-23.280285172331283,-36.968632848477725,-2.3135548122139364,6.716238012014486,4.031314723701194,-0.8230203338551514,-77.86153355268316,-19.661017031221565,-4.481446144022559,41.66335241195057,-5.5265790232675265,4.122416203467714,-6.566354616518861,36.61866564087046,-10.97837941526818,1.075197305562112,-0.3163804459126455,0.45089043639953963,30.9846343112959,15.551962841433767,-2.3549674026339633,-22.563467344965154,-20.136688063516853,7.748069608142175,4.729047593634599,-1.4082268473585318,0.8465067914505702,3.000285831465976,-5.578310075519683,-0.17900041447186377,-0.998941169643452,-2.309201276663813,0.10120864183139619,2.5215079874680444,0.028551548790111105,-0.45733054358385794,-0.13516252536808174,-0.26153339581591445,0.07322385849091904,0.30301636792406267,-0.027027060332388348,-0.057573333346082736
-23.623967783514868,-34.39859904624923,-1.6204212616189029,6.139997275267916,3.314756014589702,-0.589446393296364,-81.32020852286665,-17.46699761480977,-3.898766637335652,39.77286577808016,-6.5649646260004895,3.9259025386331206,-6.45965985991523,38.01228857021619,-10.24369361824697,0.9976697827517678,-0.4166903424580203,0.40760539986495725,22.988274487056266,15.266277299452245,-4.514577838994552,-19.93994323326569,-14.046627620677974,6.96902006219705,4.584921125462052,-1.376516254561854,-0.5479454002698061,2.460439177920593,-4.947051048438545,0.680686071137212,-0.26573551818801944,-1.4854866105467754,-0.5432318214483502,1.5821295397279995,-0.5455109664482547,0.11528770952994427,0.044638684797494804,-0.06451881311514841,-0.1598303913659302,0.12009299062478633,-0.07839827755889402,-0.004881050257143155
-21.32565248658887,-33.68049954350767,-1.2324990767957176,4.801656615571415,3.0355084601596145,-0.34035843341748373,-76.96288322676665,-17.76881136823659,-2.9248812565678444,32.666900181310965,-5.378542253845805,3.788654908130978,-6.277539965233491,39.48277869998202,-9.434981628067618,0.8458648485695681,-0.40216279080051476,0.269291487872087,19.510063107947758,18.438493144787984,-2.877954414177842,-21.076626009719913,-19.033477894104575,7.209851193838992,4.858668696816265,-2.050253748064905,-0.7305849409003581,2.544703694257891,-4.97985824995666,0.8348089502339309,-0.47490096334591786,-1.8113376381899229,-0.4109635209558411,1.5948202020556763,-0.717532771733583,0.2750007034573752,0.0349457358948816,-0.21842722779945484,-0.1652361461476563,0.11119018813224128,-0.12444711312915102,0.035014264291853225
-19.219177302990506,-32.182754418138,-0.8845582381246078,3.646165031959639,2.6398019879890255,-0.2578748611058545,-74.5411346897688,-17.006358546297772,-1.6077323089030728,26.634235936213035,-6.42426876609468,1.4059226223269026,-6.126166345235327,40.35548481541378,-8.732491222406713,0.6862826472838577,-0.28991597368428496,0.1874888047652175,15.35807417522518,16.919070697913703,-2.357843836777497,-21.233515842059944,-22.713711723188094,4.781912845883266,5.6359016513979565,-2.6234909227290575,-0.20474593527551052,3.777318396787376,-5.004449081551492,1.0992979323367948,-0.7286394765984359,-1.9233749047931228,0.585982789850249,1.8074403375052916,-0.4951727056907685,0.10794924186369775,0.000956739398663109,-0.2908337165877347,0.12552196052426812,0.23134673033286127,-0.1552995435900477,0.04958019929428584
-18.371752104142498,-30.245640764087778,-0.5042167647637188,3.472433816074667,1.3971878500046928,-0.2022741625012029,-76.16635329365491,-16.516684667201353,-1.352895904385449,26.75170851950819,-9.91338252128679,0.13469452763861972,-6.1754291520333355,41.512908381963754,-8.16963165287601,0.7451062490779541,-0.4226198626812865,0.17028442132741123,16.158436933269467,12.751239477178277,-4.334349607238742,-15.931823209159695,-21.01104026541842,4.414701845945892,6.660597105543632,-1.4378197041499226,0.669211191953108,4.319065319389205,-4.30027951731494,1.7377640792062345,-0.4480498061652375,-2.0772538930241193,0.5155801614890615,1.203818327483281,-0.5277061068905614,0.19972411129808232,0.09491861932677945,-0.2495003084210108,0.09875063401436948,0.14024490175125845,-0.15866377929844203,0.061741912569111025
-17.780011874927784,-30.244058246570606,-0.124699385603797,2.81978318808022,2.605793026680353,0.027252643499210263,-74.96509039995229,-17.47628812906109,-2.4604358437720983,24.68840311527157,-5.127068732583404,1.8112191510091293,-6.416597093518329,43.53037022476334,-7.6445835526796095,0.8014416988122088,-0.39138637857069686,0.16677465013181794,15.522652057824596,19.72558965837834,-4.4064011087742285,-11.944629461366317,-22.037748349149894,6.067876210578074,5.9551704177368405,-1.183844285895077,0.6517007682123824,3.4010313342740144,-4.662940191789929,1.0186225929463393,-0.5714207061419456,-2.44861877510385,-0.022452069044493237,1.7232246231887567,-0.5802924194700748,0.28531360208370665,-0.03269023384713674,-0.25732068864528895,-0.01610597442584638,0.11363111628960021,-0.12562255804896014,0.08645714889198
-17.309302456711798,-31.337801923175427,0.8249717512030978,2.5957711152716514,3.257472318513809,-0.030297781703233315,-73.0118043748096,-19.390739843120475,-0.9341780269987151,23.88047039925082,1.3396869890449274,2.0282878032996976,-6.553735372245316,45.66950093185135,-6.991918426063486,0.609156164379247,-0.24887947189581833,0.25186734604851657,13.781020500728163,27.82862981144566,-2.526629562042511,-9.233629274605791,-27.457847597580166,3.4212836137209997,4.879508615985686,-2.268150656595204,-0.5168488119770528,3.0798862991554796,-5.128944702544542,0.2976527851954801,-0.33782933593132075,-2.3131940174517864,-0.346784973292321,2.7779455042776564,-0.6343508910984186,0.3605749324643943,-0.07549788658398339,-0.2583665090034818,-0.05112196643468022,0.28837202359533165,-0.1370831982003632,0.11639819933277441
-16.063691002570597,-31.09098799528559,1.6020388212595629,3.23925484967787,0.5363626699377134,0.01806498014819353,-71.65924217848286,-21.10855877099634,-0.0873606046760497,25.233398464201855,-8.951490924787546,0.26061657968323304,-6.567513631563623,47.70907559819725,-6.259631598899966,0.5870500755231411,-0.34502718768080565,0.2909692351966843,17.070676180645535,16.207634731578814,-5.685315130662868,-6.550922167691419,-25.53546746460384,-0.2198307380551469,4.84018530484377,-1.9720990602698807,-0.23370545737697548,2.8249277204707495,-4.564128053180578,-0.012037593411559322,-0.014610503808432958,-1.8804028467650051,0.05170442749817223,2.4022668590050165,-0.6174973504891623,0.01850417990784971,0.07553554599856736,-0.22145703637857111,0.03112005665714971,0.23931163628976188,-0.10989673830096904,-0.01364658408340809
-14.726046115903005,-29.786383664233337,2.0559391654359525,1.7956224490778254,-1.305093989960938,0.19376450008918822,-73.13063864856178,-21.18673943383237,0.00414595132464542,20.34750132810851,-14.931101850795354,-0.34767421218475525,-6.708241514959598,49.31702590970505,-5.746768777796292,0.3208188356434633,-0.25765392803832526,0.21239301192537802,11.639538345443476,11.741143642756803,-6.829278106757057,-4.643097426442643,-23.18463342581037,0.9930839431729723,4.9818743142522015,-1.0431527800797122,0.7770400215394558,2.7840456872141788,-4.471753374166964,0.0942583388791357,-0.30494700694790966,-1.861969700858955,0.41011276991558665,2.0150992036789717,-0.8543626642127128,-0.05492431139408922,0.05920887605635218,-0.17694566529346664,0.08252038832366707,0.18594329803092852,-0.16891667916747144,-0.07207529621055264
-13.604369626981278,-27.94877998732497,2.510959399669488,-0.8767157492051552,0.7859362451474509,0.30946264578335625,-71.99154591185948,-21.725200917217737,1.3745586244453463,16.018927851691423,-7.017275950043302,0.21614120376966936,-7.111206772229341,50.502179054437406,-5.3968480597065405,-0.7709087010740009,0.4474827920286945,0.2215029512238516,4.797309159833333,18.759361488937078,-4.301548589151032,2.670761711593617,-23.585608275847097,4.470301530449147,5.623213557256069,-1.1589731330994806,0.9116974533666669,4.450019272167217,-4.640042805879713,1.015710724954192,-0.6747764435964354,-2.3927487833945236,0.2897883678876282,1.5646780780769065,-0.7060547912463463,-0.0661720216028617,-0.00343482811599603,-0.2812169982905441,-0.004165721154051902,0.09794951483237908,-0.10900705127520262,-0.08462407208304452
-12.07735989384122,-25.664615068362327,2.7509968215462552,-2.119076112603883,1.8597351871075838,0.18292542444833973,-65.78021999065268,-23.576763252098175,2.480117796263237,14.009688906565453,-4.053642614316025,-1.463091738822455,-7.554009395452302,52.131011848610555,-5.152908192863455,-2.310818248837919,1.3634254022241805,0.3673080027610249,6.473972596573733,19.75246140344887,-4.728819520121705,9.297249033515273,-28.357275955441835,0.8302984764188692,5.990691653969413,-1.201424029908658,0.9985971612651682,3.5241718391258807,-3.9513586613470473,0.1630095979383359,-0.3615043899037728,-3.0435557417402546,0.10829128337033946,2.1855751940513795,-0.13470239671126877,-0.04813305924527897,0.024046550673231682,-0.48475626877816497,0.0006569298124591626,0.1854940163921461,0.003082752078027271,0.0063596359689400235
-11.718796600544554,-22.88892016578261,2.9785896906467695,-3.37517605097253,1.8480042936516339,0.3891937014022567,-62.771181301850234,-22.751477371946983,2.5584606861446826,10.45331101081361,-4.933428433972773,-1.383135625711201,-7.666425954585204,54.60753377366906,-5.110352393571875,-4.439692670258446,2.702695406278328,0.6966472471559791,3.637234519126348,19.096397761750204,-5.453784511131403,-5.48513385552639,-32.89909859868761,-2.345131371808069,4.6450038039912735,-1.0010158670581386,0.8824735463064212,2.363567858187725,-3.7563788604509836,-0.6426475860668046,0.27827003811194573,-2.7015765920949253,0.1254544942430215,2.6266949983262804,0.09137297392861757,-0.009475774003947793,0.04696018951537998,-0.4503213802178029,0.14073691717370945,0.23576106780615577,0.0037368513014874984,0.07971984241624824
-10.346161702972081,-17.96012453434453,2.7260516268956247,-6.232162539433245,3.1720708988044914,0.9094867765127506,-58.49983807668123,-16.02458790875422,1.6847142465632559,3.4270107664509193,-1.7568487827692696,0.47837425970612835,-7.61317275867889,57.18962684005336,-5.122726839667097,-7.20802420205022,4.438419907231411,1.0782340050481283,-3.7099754394553806,25.61005883848416,-4.169684510466523,-5.0976874006485176,-26.16196147299301,3.8547272765290486,4.2278682929167894,-0.5476574409628671,0.3169684806008667,3.706670726711634,-5.739626290321928,0.45196443015805715,0.4269609081626606,-1.4515214405053878,-0.04424760136687426,1.9054907314393275,-0.5962324308145129,0.14285544202721223,0.09278913322827755,-0.017901761713110774,0.024493625360790052,0.16248341244866382,-0.1479360444236358,0.026299896028877615
-7.173399126194369,-14.621646142769569,2.430432847445222,-7.483880136103174,5.803909091965915,1.4617829892888285,-51.997504113097186,-16.883964824638877,0.29957062632486847,-0.547781407155599,4.3605066501677605,2.7561567668059435,-7.860562552225,59.253746726401815,-4.9111131836026845,-10.099803379565417,6.285816105643002,1.5824756370779929,-5.621322458916242,26.28079443665166,-0.7519301224990265,3.778308446273461,-14.033444191057463,4.53348908270766,5.831876431862627,-2.5142808015636713,-1.2389935607602487,5.324564123546607,-4.982470781480604,2.36378161449565,-0.05060140290524136,-1.1330803897537893,-0.16736542138936586,1.0748681561294715,-1.3632564921145462,0.6430218606163177,0.09864685014908238,0.04724742020326026,-0.16297100253864025,0.09106128446397146,-0.2439932030824274,0.013416535588372504
-3.3655270899767538,-13.315457585311211,2.4513541477528054,-7.27139210743806,7.531096166610777,1.8025277559828272,-41.68625520593267,-19.664592897130348,0.4384256866911138,-0.0346242004486117,9.089717893242794,3.627266800943469,-8.014906048921093,60.53769805728637,-4.560139093383185,-12.983583772761579,8.00487066553911,2.2137191598272357,2.158219177853715,26.96876926369606,1.8978642143857165,6.582388030305573,-16.132858562008515,2.301562371619572,5.34469750142984,-2.2353832234801376,-0.3722869251163619,4.770387440945132,-2.957970757139022,1.9954275228426468,0.04134857966130161,-2.2067562622080366,-0.08640235103693959,1.341294800343304,-0.6543031334332134,0.6462149352524118,0.09378150742612375,-0.27520798575025807,-0.06895312452771529,0.1270653316553046,-0.14245867404391296,0.12597054161519275
-0.7325610415890074,-9.979094719330265,2.5671413976803894,-8.999830553582418,8.146284817418037,2.1421825408819397,-34.0575506762455,-16.660723504457273,1.537207409076138,-3.2790568751770586,11.829407649751593,3.661471541305277,-7.879079042153898,61.088273357368266,-4.205373764829497,-16.84229152401585,10.295105395307075,2.92688950972302,-1.4591277326755887,28.29676272478659,2.695893125171505,13.145538345182635,-27.07092354350577,-0.6055147651502614,4.914242159869637,-1.1839393333653119,0.4168021755862535,2.1933421241650946,-2.6239724557427135,-0.2327678367928064,0.49640182240645414,-2.3856066245041805,0.028582410052749935,1.9036360922778537,0.2271558206084522,0.15457613385791735,0.1627891755658581,-0.3362299131250333,0.03429313846423076,0.1798483923968529,-0.02470118407315505,0.11430854641024428
1.239126220825578,-6.568131692007138,2.5408006238555068,-11.634841692394367,9.587780068035418,2.719651124164933,-31.194431800878927,-15.69138594344299,1.4686164078810882,-10.586070261066736,14.762652205731522,4.296566452831584,-7.560935139203664,60.113512810923545,-3.8973640367920566,-21.51149496391231,13.127990523675866,3.7138089597876545,-14.79722221466951,25.375704769840212,3.4676807255264444,15.965926252681914,-32.755156441286836,-0.7989508481297153,5.748632812344033,-2.0396578861567782,-0.1844820196289032,2.359950184101962,-3.3867447994238096,-0.7242297246638661,0.43002382242222315,-1.9002926760139929,0.2946831922917077,2.6950663481989827,-0.322002713811387,-0.0054485928062853305,0.19330458045431775,-0.24023876345901632,0.06646186686599619,0.3557046112814736,-0.15628805736932916,-0.03892352603273944
3.579100853252354,-5.216363652666139,2.3948135651295073,-13.76333867092131,12.479764605859824,3.4308540773654244,-27.96522698302188,-13.435845239780942,1.0347950902898466,-15.220482943218158,19.03359797589457,5.329081749239832,-7.14605455638102,57.372050057622225,-3.6141580583829453,-26.073267083662003,15.634014095904483,4.466721874411698,-22.732903509540073,26.370302673096823,3.1275696883780673,20.846134856391927,-31.688708509654322,1.4878285621426088,5.971474872138368,-1.3089983930130566,-0.046084215905179166,2.9679567309980572,-3.6994491834575816,-0.21365727930135525,0.06726160441784697,-1.5865523480478188,0.2506833024405596,1.889746729233279,-0.27178116749224224,-0.08811198214772964,0.0674054659125532,-0.10107166757133787,0.010836369406119244,0.09995457778858868,-0.14279104404135298,-0.026767254584837204
5.481822668784253,-4.564342405317365,2.200005213834465,-14.543063635117328,13.94452698827183,3.718580308897605,-24.48315325160831,-9.882410473383377,1.475270494926687,-15.57161464272196,24.57613978270792,6.24740908935449,-6.841583592407929,53.440178326280495,-3.401900728842047,-29.839457748814056,17.06295868991247,4.926762718994286,-25.839086302692003,32.344926232033174,3.38086500519094,20.376513603647496,-22.067517193370627,-2.0418452257192596,5.591071866361116,-0.4764358266600216,0.20177030314847355,3.183311746037702,-2.716941559695996,0.2560595748747584,0.208804991510247,-1.8669922962934098,-0.12435172434573341,1.3451968069816844,0.06676093026055756,-0.08014183201523066,0.017027264408627348,-0.13181244384426918,-0.06391854369584198,-0.04942527809723591,0.006258229196101602,-0.024066165336746718
5.9915114945345636,-4.591655263812559,1.9899107933594893,-15.519230516291705,12.771496351944576,3.6423346011446824,-19.79663480938954,-9.372507047923554,0.9879805533675646,-18.84503091510209,26.937101068819445,7.56403670812728,-6.654484645912662,49.35655522484454,-3.275740005717122,-32.914143837526694,18.201497332820367,4.986002320917413,-29.3554604820294,31.610505665513088,4.78419662578091,34.85297733577486,-23.178293619163988,-3.8421865362231507,4.586454772859547,-0.3190108801404174,0.3174169237807684,3.2454020278677835,-1.9368912785444978,0.40789558489218486,0.91490311422,-2.367879185746035,-0.4979966152424774,2.5021186575700516,-0.10262322784602952,0.43727334355512754,0.14385033403892106,-0.25703758318420844,-0.10024235526500186,0.29518713576257966,-0.009889987918047648,0.029976974801672135
5.6080026833627015,-4.323093929735841,1.7295978978492301,-17.09556195233893,11.389202567689818,3.6012475670916273,-14.232052068049116,-8.997621628906423,-0.17320985269786948,-24.448151577288996,25.561450203422996,7.595640264940059,-6.514931009205372,45.65757442993505,-3.1993794958858297,-35.27157843613556,19.620923410986773,5.054306565758906,-33.55176196790776,25.7672787531942,4.756731091634902,36.101821868083675,-30.511903623103965,-1.0957509094788016,4.114668188899204,-0.39736132267211316,0.10770389696243313,2.687037189226605,-3.3133665121607443,-1.253344029453765,1.1427990608661338,-1.7772339124774126,-0.36291385130716275,3.4552279763123104,0.35628305776759406,-0.01182181276966593,0.18067570192960497,-0.13150003746106792,-0.028318643136790198,0.46699118851206023,-0.0033507225480795726,-0.022548108232831744
6.910485723292779,-3.420814395029076,1.1824412551764658,-17.107666056712063,12.068934045685351,3.6922718166877724,-8.303777151534144,-4.398320228916573,0.02604955235373847,-23.26831550036597,25.561475344411026,6.636113064120016,-6.397634799814286,42.43112632344847,-3.1353496177816345,-36.95024135790068,20.910335084343536,5.312643278204922,-31.162598074597657,27.134147192323343,2.2221675260468463,27.27941171812952,-28.701083495927506,-0.5038342257240587,4.822865124252796,-0.6193201390609507,0.2854503750923419,3.5958292921960835,-4.098997642010208,-0.8528379559502471,0.7152795236546018,-1.7315137105545761,0.1031537835393786,3.0211300315046854,0.3178042943011656,-0.10000646329647107,0.16281153556928063,-0.18641780681619557,0.05601330854054273,0.3469851024416724,-0.03220908144560609,-0.023141557102022467
7.3089187791943715,-4.068001557897003,1.2628197157195677,-15.428812226434307,14.404469209493609,4.099176117827869,-10.07656981062258,-4.940649717944735,0.593175427506474,-19.116919890172923,29.066843584382223,7.187000256494413,-6.313011528454477,39.42681898183757,-2.9759027693939126,-38.27752363146339,21.87885216680065,5.708794534041224,-35.05218149057776,23.559187180018366,1.011863577584198,39.96354512321892,-14.30140130832602,-6.276042505545341,3.7650394300408743,-2.8258031807325494,-1.1658529545260097,4.689978153072623,-3.690586609744401,0.724920765971272,0.7333617430854413,-1.5244829988655204,-0.14799219045197332,2.3441099559787784,-0.2116401333005637,0.3273695211989385,0.19950612639854098,-0.2585762765984862,-0.010400911741177032,0.2847962443078963,-0.11147514068150012,0.03758623741122437
6.4963083731702245,-5.649034863009808,1.6276145120420094,-14.310369382856962,15.927151584535418,4.588176222167182,-12.566395006974155,-5.62374186966493,0.6842689820565903,-20.618696268676576,31.490577079266934,7.985922161898863,-6.2984913026734395,35.68707334802019,-2.725217172663504,-39.132728823446065,22.437534373202624,6.068603079085053,-46.738645266276,17.87234022771468,0.7550902924116182,49.3222726071298,-12.788122656278517,-9.686494741532396,2.4643931719558987,-4.482034468576134,-2.836084261192231,3.137511852322575,-2.9321059810642978,-0.1224388555928118,1.1019544535241843,-0.9963677557813954,-0.8215916618349037,2.2385873979638307,0.019771349460766766,0.13238374657348673,0.20425194957257872,-0.14823999375375987,-0.15094192729127515,0.20724103960823978,-0.038664424662781,-0.018160501343399818
6.012189317083381,-5.961593754944076,1.5742635984082485,-13.41528004307481,16.516038312608334,4.786844057838634,-8.685002362221994,-1.8254006909082605,1.2925697522784954,-24.912168712971603,34.44838587144613,8.362768540690205,-6.20631424835867,30.936537223329836,-2.3584877558442097,-40.06052459501986,23.08928596730396,6.281309957920397,-52.06575358483276,21.518321798870822,2.703245921627667,42.490789698247845,-24.500272759678083,-3.607008311075698,3.5936013809066507,-1.9862005726169019,-0.9203095563989078,2.208278322387817,-2.532320805198043,-0.6385290329060331,0.9121379345736225,-1.5957114799261178,-0.42853726783875495,2.3191395578805336,0.12165776520224754,0.13063688318246475,0.14932072029489513,-0.13837921448253993,-0.07250364430056085,0.13039600542836705,-0.007465118314234915,-0.025330196342700027
5.128929465138545,-5.681393773891458,1.34948673837639,-13.067586435509876,17.560019115763584,4.898083202603615,-5.562616293016895,-3.172590636453702,0.46462370000167863,-26.257413617128222,39.586434564441305,9.056006336897731,-5.717601601766421,25.650644685918206,-1.9114756462981852,-41.56748754942771,24.250581574443814,6.51377089909672,-53.65695244337118,21.793355689539,4.228905573068009,45.30555526521824,-17.14049793044019,-0.6022991824339503,5.12096958419692,1.7746675982952977,2.181059497619788,3.247459991956255,-3.3315981145034566,-0.13882408195870594,0.6252869813543946,-2.5370322846018842,0.37863090180759124,2.358613434776305,-0.09962702412176462,0.265342812438242,0.16015543609899885,-0.22463783888539401,0.08164854560330918,0.21298788097845772,-0.10698459843363649,0.026700349033827005
3.3338285137905257,-5.4731286793287905,1.5082463578868794,-13.232245897137146,18.287826707428188,5.037205969770328,-6.728551069651625,-4.72017819190213,-0.10126488441110093,-23.32935597225402,41.82794599449309,9.91956396809186,-4.821889295960966,20.173005301990244,-1.3889222220769797,-42.996668566502635,25.410322546997843,6.736010918150755,-57.269523982203815,17.823594061789017,3.0995429723605388,51.85202614116722,-15.972088579685234,-2.7717507801704895,4.2525786109560455,0.8603863483437496,1.2445125536855335,3.746777415374244,-3.6878436893553688,-0.27218994246200157,0.7225239622400883,-2.049540042331249,0.1131770038031867,2.388569404744674,0.24489119607414994,0.12043558876147656,0.17393017443270134,-0.19582170412667968,0.018549515933388667,0.28894107759785237,-0.051104794202071695,0.03563876183442556
2.925673820849565,-5.067039742453637,1.4666720549243295,-13.115169269926092,18.379731452915752,5.062472059731932,-3.682516583940263,-3.02082742781745,0.3426939985251133,-23.965774736052058,44.38265708567713,10.778397797624052,-3.7084784856396817,15.004345701460617,-0.8044641680199399,-44.26356384651826,26.205230774284882,6.823979890771903,-59.734085549803204,17.68895120140176,4.563436214052479,50.06323315163309,-22.627456261302015,-5.1861061501879275,3.889918008391308,-2.7708622541623718,-1.8404016277847965,3.579077935760068,-3.611141830573887,-0.9239082890411312,1.2464812655439164,-1.1246281125608268,-0.6462428912588231,2.967366671469257,0.7128760802916594,0.07221915539881908,0.2157594501910636,-0.1500016562477779,-0.0925007241636717,0.33249744166469364,0.06511222068863948,0.027397799456147846
2.4083681670227812,-5.0895525394810335,1.693317990294594,-11.576589329418983,19.291184239865537,4.929098153117288,-3.2325634305201296,-2.335720089931668,1.3921843931541396,-25.059937957263244,51.147435284234696,11.046367190417522,-2.5908311709459255,10.597105313985274,-0.290509942095163,-45.842949466356444,26.690046498278484,6.88968334422509,-65.34849877891467,20.51884450731378,5.950902772238663,58.41385523174947,-19.862224045001135,-5.269239749832598,3.5512227336335918,-3.0909966085995926,-1.912966147345412,3.0642777303797795,-3.9533260850355987,-1.1839011268887523,1.4274974956960167,-1.2896777940006705,-0.7271050270186353,3.29758027596775,0.4390353605375766,0.2945878674202578,0.2284429007073024,-0.16781241748000245,-0.09095516206664571,0.3727447209450545,0.0015260876900287522,0.04644487179207592
2.23519369055697,-4.050170535380973,1.50070967804161,-9.057969050400843,20.032946944970387,4.758224864155793,-3.5182399286124753,-1.3939626723872427,0.8800362567691767,-20.97143596296142,54.67050687292427,11.41616481358758,-1.667141173157743,7.430681531054687,0.10390067416213206,-47.68551026459063,27.547190887180747,6.9446534080262685,-64.78915589563539,19.341043906525474,3.2553356060662155,64.33826444895,-21.033218302336163,-5.308889215333734,2.6394543674592206,-0.9592360057911116,-0.26619531687647274,2.8809503406090706,-3.4421805670625436,-1.282310728204748,1.239597827674294,-1.7542996192731075,-0.5454186727569539,3.1336022134953754,0.31867707130084866,0.033358006372142056,0.19727201027823096,-0.16966908476796244,-0.09749688018235313,0.366610705873252,0.004110172824739273,-0.07644215124550578
2.544839023776763,-2.462558576461744,1.070519051529169,-6.469290559020284,19.4428037990302,4.438667801460205,-1.1254414173185223,-1.8432390954794968,0.3609532709345848,-19.914525517671795,53.35957120633355,11.016305662391582,-0.8717264554263715,5.0954636058754685,0.4260263057362912,-48.879887515485514,28.260842967782942,6.814601069383042,-65.40611977366315,12.456497310272818,2.155018575464478,63.65845306595384,-18.259318865832515,-4.5635142796148545,1.7983844798199602,-1.4461560239310163,-0.3772026297698422,3.9762061518798966,-3.4325873966577647,-0.7795080813818025,1.3854757734027763,-1.8174635455018195,-0.5479601810528077,2.8600014751989447,0.4982767322731817,-0.08694765566727432,0.17322650714712923,-0.21955000916599698,-0.03883903286306706,0.37880018230442225,0.0238579121675125,-0.06443824670137314
2.3370424376686856,-1.8429693928010082,1.0975042281135743,-5.203551717299396,19.526747410550488,4.000479099402397,-0.7143825978446035,-2.2902107742685716,0.8432709353721312,-24.8889994965094,56.639756932437486,11.311867790176624,-0.2747389179973449,3.276242602496467,0.6990921421248433,-49.13890621899577,28.26554851667299,6.392404000035967,-74.75649014601724,14.09646787353916,5.324013992577458,67.85766998567128,-21.551175945054357,1.8026194237437714,3.389735140017119,-0.30312076135904714,0.46104350413482215,4.234285707984644,-4.202830267376146,-0.5863021939809648,1.516846903047257,-2.1548683234742083,-0.2604868323663399,2.579739898379722,0.6293676804378321,0.1519865605808082,0.21860517263779933,-0.2519997201100665,0.029019264497541403,0.2869381224256177,0.030267812040428183,0.05303841489864866
3.1269778182880743,-2.33027248290893,1.1308221203430673,-3.320859651489251,18.39399642155949,3.2585616516532405,1.8514196386922712,-2.1159554746966633,1.3979153182897652,-27.19110014875066,59.07608921398282,10.308397596642687,0.1015385665252922,2.268726122084119,0.9176167952281368,-49.092142267648825,28.037013107175078,5.965659843225781,-76.85002518889777,17.076846036863294,5.1977434277355865,74.41408109320803,-15.994367588466021,-2.964209769856903,4.0632322888385115,-1.120138385902528,-0.009054041681561683,2.976086781653493,-3.5855398521901702,-1.4215278582130688,1.5737370292807362,-2.0553017203509545,-0.2963777551941849,2.854853600164209,0.798872309502121,0.07446277322981368,0.2512991630619635,-0.21782929125620118,-0.006561514589209036,0.3347389336604386,0.07988861361460811,0.0055745299791401925
4.131748336163186,-2.812568449440255,0.9178433075590634,0.6050702382822063,15.511902647637518,2.701638848674249,3.3346427387365085,-6.180125620929104,-0.3134140021590239,-23.761812174917655,55.24024241748348,9.490180709432165,0.2154881616786793,2.6517446649764356,0.9507915403772501,-49.55561172605867,28.32712192429016,5.888387849944436,-73.29815259701387,4.44623835888011,0.5825553534839029,67.94181624747864,-10.126121135509436,-9.51780477161581,3.47678358723748,-0.9158939462152443,-0.18562716644622795,3.2773662613219403,-3.17779412290585,-1.3953152598304708,1.5093673219099744,-1.9922050173016412,-0.5651560037838199,3.0988271227779416,0.694070479513924,-0.013245494880862676,0.20932214973990437,-0.23128056834474903,-0.0839374530919864,0.36111767464962796,0.023313959332102625,-0.04022350424115041
3.9817209769715762,-2.49236355310384,0.8883004044212789,1.7899674812459982,14.342439344150549,2.587163997636092,0.9665239602705423,-10.09246000353879,-0.8658953873350802,-22.523923259748365,54.75844829877381,11.05073380256698,-0.2916137807506789,4.259065256988402,0.7569944315676582,-50.126999208166175,28.60147574565421,5.891183806236332,-74.2489625911447,-1.5365317936483527,3.806178283334121,69.37605889314861,-12.755231447861487,-8.892779474791993,3.1567829410845047,-0.16904617695840934,0.03517343007344326,3.290184615442435,-3.3198748749800755,-0.9476202611085424,1.391353794659216,-1.5592999691676757,-0.5289056972278217,3.1353459473497813,0.36252312381545726,0.38886143625134323,0.22304218230903777,-0.10299254677366793,-0.12159545702514925,0.34987606825733153,-0.047736774632641574,0.028037012408789596
3.0758479437623882,-1.3800728376688,0.9433451511529145,0.11582812863378808,14.5493318212545,2.3733640224684263,-0.1338894856202913,-6.611231728930479,1.5927515383231472,-23.36860328527064,59.77844663524535,11.542785594877012,-1.4339096300356853,6.71481398520496,0.24494711229910984,-49.87542498537227,28.190690796182032,5.805881486268971,-72.35076377738099,13.494427597910718,9.632998441428516,68.95568859094995,-3.4713717923765515,-3.3464961344668644,2.967455178883219,-1.1116553625080796,-0.16536414143610909,2.9479416832766323,-3.325879667774754,-1.1565600355212176,1.479384486817863,-1.5504282781956824,-0.3503844123034539,2.619390635230388,0.5474369919355183,0.13923168461742647,0.21452927576546918,-0.07212868922182505,-0.04551785678364503,0.31925514857262155,0.025336189711926325,-0.024044758992554198
2.6786453377092916,-0.8403429146868864,0.8475914687387047,-1.4142918129754716,13.278450336438715,2.073260103002308,-0.5697813426931945,-3.2691455802072547,2.3905420999042026,-24.22703976995874,58.65962741910144,10.55194822611223,-2.619463672492648,10.090160743995849,-0.3458513121044925,-48.804143212664194,27.337256242174814,5.6277382799024975,-69.48677660823935,21.14727190939744,8.421121690154088,67.4331514182954,-4.099573051868616,-2.1963646150211944,3.044868780210301,-2.042077257528751,-0.6609059370450099,2.813149320723746,-3.270136521309387,-1.3408257763875093,1.83756210263371,-1.7540441459046083,-0.4761585797461166,2.3216457227034355,0.7791989383218555,-0.024392315894070725,0.23201835366809925,-0.17808265025192477,0.0013240592091431946,0.2581857285373069,0.07406408762161036,-0.035767059216414404
2.6313529300693896,-1.7646787256407257,0.6165752765010583,-1.9472308977081982,10.619529628836771,1.9871560255773546,-1.2933907997939162,-5.771460974805738,0.03231152704710303,-21.691453878904134,49.46419693497998,10.44293585102083,-3.666090762440636,14.169306941860626,-0.9654366154865898,-47.15958860453283,26.440641968021417,5.448371987854171,-63.141944399895465,12.046169251948708,5.160963092466927,75.02660282849149,-9.411983729799218,-5.661222913393594,3.603597394339274,-2.0860675912418234,-0.5643291955153243,2.8480953747671154,-3.308822293580356,-1.3096446435003257,1.5747101221543185,-1.9828668778309402,-0.4518129888520861,2.5518333940809685,0.7656856343860551,0.21830766449094038,0.2504147768605099,-0.2683078486365079,-0.05855896570986535,0.20276401575202638,0.03770148103893282,0.024204777419912338
2.5503434352549514,-2.6654773676893315,0.5474718577211336,-3.824486605701604,9.414866166809931,1.8993891774530716,-5.216826970989393,-10.067855062967613,0.28435437761964516,-23.77926177733344,45.26908478079069,9.152232384364066,-4.455506104431167,18.443865166699208,-1.7579606669748222,-44.92127008225291,25.156185439995244,5.280886366958015,-65.06001951547634,7.831722518882033,4.67887605723413,72.13482349909252,-8.916251063082987,-6.77558013338748,3.906857380204432,-1.9693774923592524,-0.2089605701849296,3.554346302357779,-3.7241409844343427,-1.466485378403681,1.3483213357291786,-2.1026227610942962,-0.1970143083890872,2.917678018510538,0.9437826258797855,0.17923481032042007,0.22235443451481918,-0.26416053131973377,-0.021551024256216467,0.2426078593876335,0.02511994842619813,0.03247543446694579
3.2459099082045,-3.065219057835582,0.19871024065912068,-6.803586624361413,9.547786304245767,2.0380413994532254,-7.469232067240633,-10.501461717878176,0.28552558242284415,-28.603690396464295,42.81468902509599,8.260831016425193,-5.069203068664539,22.523492047029436,-2.4636459206236516,-42.4412816638343,23.629460059826123,5.105873138943058,-66.40153047455404,13.023152537459445,4.549665006128289,53.76514791725031,-17.403483895050545,-0.2543472028345061,3.2665321163539924,-1.268180455218191,-0.2656478474420876,4.165884435549796,-3.4211857159676304,-1.1992474609209625,1.3732723946988101,-1.6153292220503597,-0.29596586796448965,2.719475338507526,1.0598294852069114,-0.0915423565294615,0.16561099731903706,-0.1953027138945638,0.0031526333678231085,0.29030987111417356,0.06097262055880473,-0.022638379901040732
3.7374652372419637,-3.8058796904198418,-0.15459422774164783,-8.595595147442364,8.834333841016203,2.0700096337366287,-6.083887476949222,-11.481376274460182,-0.5115783200858495,-25.880202488575012,36.28640627823871,8.068031498404052,-5.803878014229181,25.569072240364978,-2.932211267388452,-40.10982295146529,21.78158592625113,4.759814139795638,-51.696376787366724,12.914264047612878,3.601369182044851,41.430189350398166,-12.599537855481513,-0.1758298676259643,4.018368328775758,-1.3985129498688613,-0.17316433910304171,4.288727570585587,-2.8394892676210715,-0.9210087960094265,0.8650421160264145,-1.496424983515021,-0.03990564268686446,2.3239129354408057,1.1088631824398967,-0.3601090914271859,0.12736738928471703,-0.22553916291896925,0.029197661038923996,0.2676918516958149,0.1087255971863844,-0.09085809937757217
2.1910380728121184,-4.854911927646535,0.0031018032202235583,-9.878262903107826,7.852521804076852,2.042699847539834,-8.401227655139092,-14.678757305160115,-0.42104413137260055,-21.272660908424413,28.244769297162527,7.3562517475444835,-6.744884602524835,27.31179922344859,-3.1677094264473524,-37.812379078570785,19.890631750449174,4.4117286166063385,-39.475927360569614,7.105153379928356,1.9631354423603122,48.814099897786036,0.4666158287919009,-5.0036965794504775,4.752502167704519,-1.3636546117619368,0.2945476259317372,4.455040139448487,-3.354151532486389,-1.0312476775569521,1.1940544022237927,-2.2101070727807675,0.059563811493440366,2.5127201103973,0.9962936763893989,-0.35455629894572094,0.2623384365449469,-0.26886772102400186,-0.007203305530832145,0.3012710689248366,0.0867657511620363,-0.11615260533130542
-0.22997784244505817,-6.39763759326641,0.5146247461606334,-12.004567855590084,8.444670990487598,2.32136313622109,-12.305091608578698,-14.539982317679923,0.8116827384628479,-22.53041533498599,26.299712840108356,7.075190575474843,-7.645718354321907,28.111223721636016,-3.211608446754284,-35.17049642104882,18.180193352011354,4.315934519733403,-37.9686214848316,12.82101756375337,2.1432889035243994,51.62907188361111,-9.7252694855601,-1.8972255425583129,4.849542376792708,-0.8467582132359752,0.22912516481529097,5.115331870105976,-3.7891428659417974,-0.7617206390892644,1.6305349956314266,-2.229734483842813,-0.2147784790771517,2.569796169636219,0.9986781862156915,-0.2653317912608173,0.3659034782637784,-0.25169945371772395,-0.08293178363695262,0.321415237294096,0.06390157039010883,-0.06845138061363204
-2.3458286405608266,-9.046451576654235,0.9899378488867713,-14.524233983685944,7.481402724527745,2.317810815328956,-16.949927514704804,-18.80360136327248,1.953590112275659,-26.616211348236092,24.391653669211575,5.963355345188027,-8.32808528712082,28.430840011774464,-3.2679840129084394,-32.154207764577414,16.435090728746513,4.052267542773021,-41.650600659050276,14.40282744022952,3.1833982290095992,44.66374490113575,-15.765915231662534,-1.347449706621708,6.259726223806267,-1.586964264304425,-0.3729959106977229,4.528145772323851,-3.1933142549595828,-0.33701280685145263,1.0776323193301627,-1.5180433583491693,-0.10254916576098218,2.295519759284999,0.9512123029140275,0.09295865411408707,0.28179163362540943,-0.15006023374691368,-0.08065811496225032,0.23680814352072194,0.0707557200179479,0.0372566755079636
-3.5775259497034826,-11.99438813528392,1.3220662572319883,-15.36734453933048,5.341864221905938,1.8269307360277836,-22.503087344116093,-26.359541806633043,3.0578730871319086,-24.144411655964785,18.953530936867246,3.6881831993650733,-8.70859865945541,28.3374026337214,-3.2670402289365357,-29.116654800425994,14.53536035787346,3.509836712725473,-38.724784949134026,7.9662654476951404,1.7878409008212868,39.30021839727019,-7.041921582357657,-2.359722226532396,5.007842559292864,-1.2882732833464385,0.3583241692621249,4.367352205023193,-3.0229598671048135,0.08453879045411687,0.4863052630279098,-1.7206163111373762,0.33905951532202533,1.9544920407717932,0.6540278332747387,0.17904133351186996,0.08666798039749218,-0.1534128532534884,0.04898592460657291,0.17761065148709143,0.0301812643163277,0.03874483605646341
-4.082204485946739,-14.780572272058407,1.355938806024346,-16.576438091203723,3.7279308707723717,1.6509179608853197,-24.14069925332084,-31.72831784818943,2.2846823278622455,-23.301469060989607,11.010045958038091,3.4166176872512644,-8.935283821432598,27.874316737864735,-3.1126797719746278,-27.024145743306214,12.988932346292854,2.915003131786693,-32.39873291175344,-1.1341633617518374,0.5453040074028247,35.38851794852747,-2.9909523150688564,-1.306605613111584,3.3593197725893305,-0.760298514389396,0.6251595800239711,5.828558191771035,-3.5150828370877005,0.35227227733390465,0.8907231220400076,-1.9665757656577596,0.18346804987818252,2.240866486604824,0.6628085492565767,-0.042778718661889974,0.14465698477354438,-0.21595135037844454,0.04897325266210246,0.31014327590274293,-0.015012157989761375,0.00849836272309619
-5.368546147865438,-17.227999196259887,1.5193647336839524,-16.588383052310192,3.38804608280944,1.485465891789108,-26.422269606802494,-30.508027852537495,2.1395899010407184,-23.432804612587763,10.196025495185287,3.9064575342127275,-9.00607330962593,26.709409939279446,-2.8972980872416496,-25.99218686146683,12.104361639518562,2.561314356829363,-29.04355371245896,5.903358406963764,0.5087373107634529,35.299616492526475,-10.771090131457084,1.5882059942203954,4.888415776822129,-1.0775492990810795,-0.08476976549114361,6.4216079223102795,-3.8724927719512228,0.4574719730254501,1.4504095101711656,-1.668543186580967,-0.1470120678140806,2.3150877421394904,0.7943691941647931,-0.0211991588077758,0.3051886950376519,-0.1596154742668483,-0.041246344055919835,0.2826561070516686,0.005254206496379383,0.028213085121529997
-7.1525810756633,-20.139891833483002,1.7927710998385222,-15.120976284433151,3.97107947375878,1.1428535999305138,-30.530384039640257,-31.707392493913225,2.5664003475242034,-17.119032272963455,13.805306248311522,4.557019266957463,-8.814515710999753,25.081590963791307,-2.7519549699069814,-25.16284693032974,11.512428206497145,2.3148149482857048,-21.5970502821595,16.421804450268002,0.34496428401475077,29.48560074701337,-12.57971714682174,-1.5898007665231055,7.18926800163536,-1.8300022003238254,-0.7830765806434259,5.418848182050532,-3.4068484704755244,0.08063895553174694,0.7355087963169249,-1.1401343456986532,-0.024491058826975658,2.392464813810242,0.9269593514565371,0.13037606372115085,0.18148826211062868,-0.10722093632620458,-0.04594384983289107,0.23030803335837738,0.09451445059022141,0.022733482721327445
-8.779650652111327,-23.598351339926747,2.1580522943126756,-16.170508308471437,2.686185991862443,0.8076709744403895,-34.4204671249174,-39.49422384716507,3.5909148260632846,-19.766753235517765,10.915011732862633,3.0750152926961993,-8.558943607151173,23.294439623366927,-2.666398929568173,-23.699535206475606,10.581553153788791,1.870673034811816,-25.226509632000326,8.003088219404232,1.4849186403396992,25.98479689776391,-13.639061974667811,-2.4114058427576444,5.403682305585313,-1.4758508941589614,-0.3322817214135035,4.468361308445602,-3.389843283832087,-0.6534400886480819,0.7006648650056383,-1.5959223759833547,-0.007585045729482362,2.467906273972619,0.9135159643254073,0.01776226802205424,0.07391777998407119,-0.2298025953559983,0.02361620216049231,0.2368993072022205,0.09907405598722152,-0.025594181254041587
-10.145027639917672,-25.937326269418367,2.34155876534699,-16.71167829416606,1.1181601871045959,0.4699218099853005,-37.867364465302664,-39.861586835780095,3.2256887085720587,-20.77289700283167,3.5152913341821077,1.4923702125907832,-8.562825130486573,22.372071749200153,-2.547547904221998,-21.964437481729266,9.54976361045666,1.2657865454393886,-27.071797174353744,3.165311034869263,-0.5960640703403575,30.842799522822975,-19.889439798758577,1.5556515797798876,3.0142677819592674,-0.562554835784643,0.49635644851888405,5.266822447612594,-3.2617792296617036,0.3151044112793986,0.9370311756503584,-1.9879203311519744,-0.02954831716383438,2.239625544026421,0.44354919651113417,0.10815344996515996,0.05457019698313189,-0.24465610150890796,0.04786361005730556,0.2746897515145448,0.014757773348513097,-0.030600025077014564
-9.930371067250281,-27.265583257902207,2.536422381658058,-14.493144390118323,1.0023387521933977,-0.14507606917668514,-38.60410397136252,-37.08676795348305,4.006142131364999,-12.514317866625495,1.6493030410021203,0.6400449341038248,-8.736543365535857,22.558699521829926,-2.3535955514769373,-19.646230793409796,8.210423563253485,0.6035753933257336,-15.855687385708821,7.677033408478229,-1.3164855145915986,31.9424552798512,-6.911204476564291,1.207688965740277,4.225305550753521,-1.3134837975177136,-0.338254284448673,5.91438627455364,-3.9720871401731435,0.34188905488260213,1.077235018196822,-1.4118573473666705,-0.19549865218601334,2.2162109580675704,0.5152262802538925,0.08316018191999423,0.17407206911451742,-0.10023849740477475,-0.04682124508999705,0.2956127543158818,-0.015364895422764743,0.015564999851440687
-9.500838466071906,-28.53287130888726,2.592234611123223,-13.596301406930088,0.7868691906099287,-0.4458605018984308,-40.30906134297504,-39.367462073637604,4.06720697368012,-12.135870916739966,2.4001655885140956,0.07287205445617714,-9.401746359378999,24.177496462436146,-2.2834270276284583,-16.296907278021685,6.5695038853094605,0.11438503091107363,-13.95141703803991,10.041884669670413,-0.805264141607819,24.88615726665201,-4.299274297533193,-2.2507808419156734,6.251192164187758,-2.2327333322847216,-1.249748050555653,6.158699524240473,-4.504399950794394,0.19907596698971258,0.9086795227903145,-1.129054423110437,-0.3155250309443238,2.0035010192358302,0.6690397435781515,-0.01475844567101363,0.20675001534576445,-0.07329451069443381,-0.12499892954312458,0.21591978590851502,-0.024040800663387124,0.042110410851406384
-9.76267251867093,-28.529621200307705,2.4225049796194504,-12.496844984505232,0.12676819893707073,-0.3459843167967326,-42.31686212164938,-41.05087526147362,2.564174054537563,-13.471859557862064,0.6649798897310365,-0.09776299155856558,-10.347352861777665,26.506649330151962,-2.2979156771022082,-12.205718281616726,4.659250276424053,-0.13853201708999835,-15.503358268662756,7.360873362179042,-1.575601859338493,17.299692694588497,-12.28149844835401,-2.3060977291463645,5.425443825517367,-1.2462769877572673,0.13432025686890958,5.6641458457219915,-3.441098921054062,0.4868506802473112,0.5022444642913003,-1.7728415478633244,0.24391833309836622,1.717475487892307,0.6248886538230064,-0.07532038887516801,0.1290640404306831,-0.21885746850175608,0.03447034533179989,0.14958856771660126,0.01798416724619938,-0.010888121091734017
-9.125701823603812,-28.02105399417117,2.2921751316350565,-9.502086475350287,-0.04994443179810545,-0.281757953787493,-44.57746510783505,-39.24980978944604,2.684629813942385,-6.798349328973714,-1.949165255379323,-0.9309242296049176,-11.006833245428604,27.799827254190483,-2.2678984632704697,-7.9641028930306375,2.6276788707327685,-0.22972824165727246,-11.066890249121375,8.491177622898844,-2.357718184878205,11.223033495092043,-11.910212032670128,2.089526956579647,4.815957427503469,-0.7174655010845523,0.046806119119037704,5.0923708930164535,-3.398798977987484,0.3518310521730775,0.808991413106706,-1.1361833600817066,0.1497110887479085,1.5186468852293926,0.7111116855641458,0.038381784934505336,0.22503388815519315,-0.0769282336012043,0.01550171328648884,0.09060854407321813,0.04264985521585608,0.037485098408765086
-9.307367789693762,-28.77949727710464,2.577734205214753,-7.312255222575388,0.5156030314660642,-0.17307111745094678,-48.85213039657705,-37.859037855501356,3.672878376063301,-1.5657484535320298,-0.6581725629251448,-1.1197555293367665,-11.196391410297766,28.213068676435878,-2.138217283185097,-4.387267070063436,1.0231118323616086,-0.20109616839886876,-9.595754295381324,15.777736715369645,-1.1990766280538103,22.020983757850942,-20.652119794164243,2.64556991988428,4.943021409482499,-0.869124573402062,-0.43925106062783426,5.384812230338458,-3.0810428974944335,0.785476813793273,1.0827039281279665,-1.0353402612492613,-0.17010678586243483,2.071267189417729,0.43835446334522765,0.39671928088101216,0.24243080437754747,-0.07521885161144302,-0.043464937596785616,0.2567177527085973,-0.035536772725441076,0.10463364074302686
-9.7423997482853,-30.640185390698704,2.9549693979178873,-5.877656337863468,-0.0182338893312252,0.16266956401103083,-49.24226613784185,-37.89150238183171,3.2711815192441587,-1.866448731031145,-3.976733090587989,-1.3650181853952839,-10.88820998910768,27.782146733061996,-1.8420757419892968,-1.9252751907493575,0.10521832349101548,-0.0655741153585987,-8.065920786276987,14.162033965975207,-0.6157490386967011,24.146264842530165,-18.58991685717204,-0.416707161971913,5.482780205903662,-1.6213624907858988,-0.12123763688399514,6.273197889259934,-2.7923761754897733,0.5371624203752069,0.43156590890716456,-1.8651473348324688,0.18529447246124303,2.1960433756652384,0.8161042104273263,-0.23700254379364702,0.07935554801561172,-0.32073383302428815,0.0689616916726255,0.2673848991434984,0.07616743269801146,-0.08927306518228341
-8.396997462114504,-32.50075877230749,3.14237849066716,-4.009230020174321,-0.25601650841491147,0.51658134181982,-45.18447881834005,-37.046990664009115,3.316773023482106,0.8939941110591146,-6.573223599819027,-1.6805542895307064,-10.39730241671303,25.52173325140472,-1.4426220959249907,-0.4440248113084692,-0.30875183362347514,0.2560841878609876,2.0723444037099297,12.565478305530613,-0.23138531749492364,3.8782797599775285,-11.297402461911837,3.171307547337589,5.215254802121125,-1.587547766346346,0.18111094321512425,6.677705397182314,-3.0331661500380167,0.752167327754961,0.030276402587481953,-1.6747511643283388,0.49924923428164175,1.474401517909246,0.927793521079776,-0.5567085170155558,0.0464505515767336,-0.25780527936384134,0.11652242472212357,0.15397172287004743,0.08365254033621092,-0.10892813408010968
-7.012069219969047,-35.21013116266669,3.461323250941306,-2.6549165301747144,0.24848303690641457,0.8197131945876394,-46.80128641261224,-37.71802972478645,4.010664333972696,5.575271031551556,-5.1639393269597385,-1.0299080582050737,-9.859928780082251,21.274445532114946,-1.0339371811198605,0.10214797960013301,-0.3276108489750515,0.6345880438194236,4.334570256139184,12.118518010785019,-0.38500072298639276,6.971189916882381,-13.409822453298979,2.95121392604031,4.8601542773872595,-0.80320588352345,0.10681691129368877,5.89162960578717,-3.7307360717134035,0.695402682837019,0.5321612646212042,-1.283125994565179,0.07507320681876975,1.2406117225220255,0.7774609351181428,-0.06339124727778306,0.2014040035602517,-0.07222780480506955,-0.05463037683789038,0.11572562834740953,0.018556233232901804,0.07204430686710799
-5.728498232735837,-39.09592332554078,4.085143028994655,-1.766941082490428,0.5269102935152633,0.7971400717648235,-50.42156069120949,-37.36889970214604,4.872821166634981,7.690232979366436,-4.088011366150008,0.0271584988329582,-8.651028046990255,15.369529329402532,-0.4348690863867933,0.10728940820912926,-0.23808048974692791,0.6081541238277655,0.12669836566499068,14.287270278705844,0.02887416637840897,18.05809080981244,-15.956488371423232,-3.6835840340502806,5.489173905178112,-0.8828225276906423,-0.2817154140245584,4.522474910587578,-4.150587403884547,-0.842819453235503,0.45923545751877,-1.1103036164387972,-0.06403717257098249,2.172594708241154,0.8267177168562982,0.04302791316157886,0.11121005885999508,-0.07266102815394652,-0.05290448424714572,0.16033777114273318,0.055188534010236885,0.004740827464978701
-2.850999130209841,-44.3314868308018,4.874657314931478,-1.7356233901263867,-2.0449502898452443,0.4183091129305118,-47.26333797749729,-39.067789538483616,5.821215297366687,7.7257353776353,-10.44196645337556,-1.9317724828000284,-6.7443823693726,8.206255238259786,0.49371349572891654,-0.07460392055697664,-0.4434694596745337,0.340304357614704,6.015800793054778,7.370235387990493,-0.49509731413093316,13.862564448171835,-16.108585279310535,-5.164233580928737,5.492943126704015,-1.135231981474877,-0.15298583818539777,4.031732495759857,-3.7961574843424053,-2.097607356364057,0.05806801463638786,-1.2766221947671097,0.13922861646065027,2.936674798066442,0.9431916371396007,-0.48809589160254924,0.013668976030040726,-0.16026249364748257,0.012985896065785544,0.3353829805216641,0.058238204160991895,-0.1765779005524538
1.7088768502000438,-49.95955667582183,5.793691006687803,-2.7371283246589946,-2.7191933407675664,0.4406894432971852,-42.112748178245546,-38.67949132235499,7.056441604167041,6.276710802243482,-12.24706592187257,-2.764535353854937,-4.375649413269333,0.4729271958043395,1.8015667029454625,-1.4065641931991513,0.09694216043766135,0.48429130409245186,9.053449939332173,4.86418591164796,0.6938115779816437,15.829226905040935,-10.711613787424376,0.47292806753612393,4.799872350973892,-0.9261622435926864,0.44915989890439495,4.226979650896207,-3.520957618676302,-1.0253241341424506,-0.043567872839687896,-1.5072143593941822,0.3156522789804427,1.994942864936052,0.8407716704374205,-0.33097677854243596,0.02613270377510838,-0.16719765406013146,0.037962821359661975,0.24777842327486702,0.035838996223987965,-0.058625108245125755
6.0336383288538755,-55.39257900094392,6.895776760051386,-5.594960222875696,-0.7177216891488414,0.41358077272830823,-39.46515938122703,-37.43862758794517,8.116780624072575,0.824723956039453,-6.986619948611473,-1.594006603243982,-1.7425492016381052,-6.570389732389297,3.201644031041417,-4.415507532046352,1.580960944924285,0.45866310300208757,1.1619547153754204,9.577840043392264,2.4760238161863315,17.713102772844884,-5.411789766103843,4.259013525644761,4.667108703357052,-0.959912151821399,0.7068915253417984,5.482268791612778,-3.712105966618376,0.7356808210163989,0.12929488346732726,-1.6823151274060233,0.44401991192186396,1.1232736528492244,0.7399830179578643,0.020019332024102977,0.033730237782743346,-0.21709194278621877,0.12311787719640348,0.14686373483224194,0.05084717744193935,0.08288619477091635
10.405916045462803,-59.18613983083619,7.914256691604668,-9.115601373001489,-0.18816324218751546,-0.07606940555635947,-37.36825253642951,-36.62971878829305,9.990077163201372,-4.957602927738679,-4.443422629608236,-2.1322103020033576,0.4313642294063754,-11.73215241809547,4.413080466933555,-8.099121946695439,3.0640755039203293,0.14859302810156572,-6.30746272994785,10.917614203186913,0.7703258418707923,12.192123605962227,-5.154610703740685,-1.4445359599673238,5.369347646005547,-1.5473795447470797,-0.3080444035116393,4.571473864598741,-3.8549357924300964,-0.3888105576574489,0.3352625655321145,-1.2661498265460358,0.09973026656498711,1.4248711271047871,1.0211812597701944,-0.2010130729809778,0.05124346737136659,-0.1353412389853898,0.03546721118650911,0.08708426768864941,0.12959509092291677,-0.007863594079201345
15.05197,-60.27619,8.48673,-11.14051,-0.30887,-0.54621,-36.87852,-37.56441,10.00269,-4.9207,-5.5158,-3.02806,1.54159,-14.17592,5.51829,-12.10764,4.62728,-0.00953,-7.93788,3.66534,-3.36112,18.76502,-8.90356,-5.04931,5.58383,-1.65458,-0.70336,3.9417,-3.94552,-1.5087,0.7174,-1.37139,-0.30427,2.2592,0.98079,-0.38473,0.1894,-0.13665,-0.11102,0.23047,0.06106,-0.07771
,,,,,,,,,,,,,,,,,,,,,,,,,,,,,,,,,,,,,,,,,
,,,,,,,,,,,,,,,,,,,,,,,,,,,,,,,,,,,,,,,,,
,,,,,,,,,,,,,,,,,,,,,,,,,,,,,,,,,,,,,,,,,
,,,,,,,,,,,,,,,,,,,,,,,,,,,,,,,,,,,,,,,,,
,,,,,,,,,,,,,,,,,,,,,,,,,,,,,,,,,,,,,,,,,
,,,,,,,,,,,,,,,,,,,,,,,,,,,,,,,,,,,,,,,,,
,,,,,,,,,,,,,,,,,,,,,,,,,,,,,,,,,,,,,,,,,
,,,,,,,,,,,,,,,,,,,,,,,,,,,,,,,,,,,,,,,,,
,,,,,,,,,,,,,,,,,,,,,,,,,,,,,,,,,,,,,,,,,
,,,,,,,,,,,,,,,,,,,,,,,,,,,,,,,,,,,,,,,,,
,,,,,,,,,,,,,,,,,,,,,,,,,,,,,,,,,,,,,,,,,
,,,,,,,,,,,,,,,,,,,,,,,,,,,,,,,,,,,,,,,,,
,,,,,,,,,,,,,,,,,,,,,,,,,,,,,,,,,,,,,,,,,
,,,,,,,,,,,,,,,,,,,,,,,,,,,,,,,,,,,,,,,,,
,,,,,,,,,,,,,,,,,,,,,,,,,,,,,,,,,,,,,,,,,
,,,,,,,,,,,,,,,,,,,,,,,,,,,,,,,,,,,,,,,,,
,,,,,,,,,,,,,,,,,,,,,,,,,,,,,,,,,,,,,,,,,
,,,,,,,,,,,,,,,,,,,,,,,,,,,,,,,,,,,,,,,,,
,,,,,,,,,,,,,,,,,,,,,,,,,,,,,,,,,,,,,,,,,
,,,,,,,,,,,,,,,,,,,,,,,,,,,,,,,,,,,,,,,,,
,,,,,,,,,,,,,,,,,,,,,,,,,,,,,,,,,,,,,,,,,
,,,,,,,,,,,,,,,,,,,,,,,,,,,,,,,,,,,,,,,,,
,,,,,,,,,,,,,,,,,,,,,,,,,,,,,,,,,,,,,,,,,
,,,,,,,,,,,,,,,,,,,,,,,,,,,,,,,,,,,,,,,,,
,,,,,,,,,,,,,,,,,,,,,,,,,,,,,,,,,,,,,,,,,
,,,,,,,,,,,,,,,,,,,,,,,,,,,,,,,,,,,,,,,,,
,,,,,,,,,,,,,,,,,,,,,,,,,,,,,,,,,,,,,,,,,
,,,,,,,,,,,,,,,,,,,,,,,,,,,,,,,,,,,,,,,,,
,,,,,,,,,,,,,,,,,,,,,,,,,,,,,,,,,,,,,,,,,
,,,,,,,,,,,,,,,,,,,,,,,,,,,,,,,,,,,,,,,,,
,,,,,,,,,,,,,,,,,,,,,,,,,,,,,,,,,,,,,,,,,
,,,,,,,,,,,,,,,,,,,,,,,,,,,,,,,,,,,,,,,,,
,,,,,,,,,,,,,,,,,,,,,,,,,,,,,,,,,,,,,,,,,
,,,,,,,,,,,,,,,,,,,,,,,,,,,,,,,,,,,,,,,,,
,,,,,,,,,,,,,,,,,,,,,,,,,,,,,,,,,,,,,,,,,
,,,,,,,,,,,,,,,,,,,,,,,,,,,,,,,,,,,,,,,,,
,,,,,,,,,,,,,,,,,,,,,,,,,,,,,,,,,,,,,,,,,
,,,,,,,,,,,,,,,,,,,,,,,,,,,,,,,,,,,,,,,,,
,,,,,,,,,,,,,,,,,,,,,,,,,,,,,,,,,,,,,,,,,
,,,,,,,,,,,,,,,,,,,,,,,,,,,,,,,,,,,,,,,,,
,,,,,,,,,,,,,,,,,,,,,,,,,,,,,,,,,,,,,,,,,
,,,,,,,,,,,,,,,,,,,,,,,,,,,,,,,,,,,,,,,,,
,,,,,,,,,,,,,,,,,,,,,,,,,,,,,,,,,,,,,,,,,
,,,,,,,,,,,,,,,,,,,,,,,,,,,,,,,,,,,,,,,,,
,,,,,,,,,,,,,,,,,,,,,,,,,,,,,,,,,,,,,,,,,
,,,,,,,,,,,,,,,,,,,,,,,,,,,,,,,,,,,,,,,,,
,,,,,,,,,,,,,,,,,,,,,,,,,,,,,,,,,,,,,,,,,
,,,,,,,,,,,,,,,,,,,,,,,,,,,,,,,,,,,,,,,,,
,,,,,,,,,,,,,,,,,,,,,,,,,,,,,,,,,,,,,,,,,
,,,,,,,,,,,,,,,,,,,,,,,,,,,,,,,,,,,,,,,,,
,,,,,,,,,,,,,,,,,,,,,,,,,,,,,,,,,,,,,,,,,
,,,,,,,,,,,,,,,,,,,,,,,,,,,,,,,,,,,,,,,,,
,,,,,,,,,,,,,,,,,,,,,,,,,,,,,,,,,,,,,,,,,
,,,,,,,,,,,,,,,,,,,,,,,,,,,,,,,,,,,,,,,,,
,,,,,,,,,,,,,,,,,,,,,,,,,,,,,,,,,,,,,,,,,
,,,,,,,,,,,,,,,,,,,,,,,,,,,,,,,,,,,,,,,,,
,,,,,,,,,,,,,,,,,,,,,,,,,,,,,,,,,,,,,,,,,
,,,,,,,,,,,,,,,,,,,,,,,,,,,,,,,,,,,,,,,,,
,,,,,,,,,,,,,,,,,,,,,,,,,,,,,,,,,,,,,,,,,
,,,,,,,,,,,,,,,,,,,,,,,,,,,,,,,,,,,,,,,,,
,,,,,,,,,,,,,,,,,,,,,,,,,,,,,,,,,,,,,,,,,
,,,,,,,,,,,,,,,,,,,,,,,,,,,,,,,,,,,,,,,,,
