PaulMeinheit/Bachelor_Muay_Thai/processed_Data/E_01/E_01_Teep/scaled/JointMoments.txt/scaled4.csv
R_KNEE_MOMENT,R_KNEE_MOMENT,R_KNEE_MOMENT,L_KNEE_MOMENT,L_KNEE_MOMENT,L_KNEE_MOMENT,R_HIP_MOMENT,R_HIP_MOMENT,R_HIP_MOMENT,L_HIP_MOMENT,L_HIP_MOMENT,L_HIP_MOMENT,R_ANKLE_MOMENT,R_ANKLE_MOMENT,R_ANKLE_MOMENT,L_ANKLE_MOMENT,L_ANKLE_MOMENT,L_ANKLE_MOMENT,WAIST_JOINT_MOMENT,WAIST_JOINT_MOMENT,WAIST_JOINT_MOMENT,NECK_MOMENT,NECK_MOMENT,NECK_MOMENT,L_SHOULDER_MOMENT,L_SHOULDER_MOMENT,L_SHOULDER_MOMENT,R_SHOULDER_MOMENT,R_SHOULDER_MOMENT,R_SHOULDER_MOMENT,L_ELBOW_MOMENT,L_ELBOW_MOMENT,L_ELBOW_MOMENT,R_ELBOW_MOMENT,R_ELBOW_MOMENT,R_ELBOW_MOMENT,L_WRIST_MOMENT,L_WRIST_MOMENT,L_WRIST_MOMENT,R_WRIST_MOMENT,R_WRIST_MOMENT,R_WRIST_MOMENT
X,Y,Z,X,Y,Z,X,Y,Z,X,Y,Z,X,Y,Z,X,Y,Z,X,Y,Z,X,Y,Z,X,Y,Z,X,Y,Z,X,Y,Z,X,Y,Z,X,Y,Z,X,Y,Z
16.738560000000003,-60.12228,8.66222,-11.58755,0.42012,-0.4979600000000001,-36.88461,-38.78945,9.545720000000003,-2.852010000000001,-4.30057,-1.9976600000000004,1.7079200000000003,-14.5478,5.9514000000000005,-13.858970000000003,5.413380000000002,0.08687000000000002,-6.434310000000001,1.5368100000000002,-3.1975399999999996,24.602510000000002,-8.192670000000001,-3.0818300000000005,5.300090000000002,-1.3468000000000002,-0.4413300000000001,4.571360000000001,-4.0461800000000006,-1.0468400000000002,0.8422100000000002,-1.5313100000000002,-0.37077000000000004,2.3141999999999996,0.8494200000000001,-0.33711,0.23086,-0.14748000000000003,-0.13676,0.25412,0.01863,-0.06588000000000001
19.099373501926152,-59.77239051982852,9.487395261752887,-15.07967088108011,4.805083269998515,0.5477955005177733,-36.56136982986561,-41.39500578524065,9.138337707871688,-1.4459145595503813,2.1056176869362413,2.4919343526947517,1.7103416364010071,-14.789749593903087,6.96432303944204,-19.326701186427815,8.303159300902752,0.9399943874862586,-7.0901915465082155,0.07970887401093527,0.4753707087468052,32.512159815505264,-7.495721831867168,4.763190858042649,5.076596419869351,-0.9300342993544068,0.37518424072321077,6.372609227046835,-4.631742313280906,0.6262747257000666,1.0948404067899289,-2.1390705067251505,-0.2730894400453339,1.786870490267933,0.6201317157952575,-0.17697970888394285,0.2449416940767261,-0.21927676850141276,-0.06706062123376179,0.1437380567896224,-0.021949781197543122,-0.008723984121363073
18.875145921356083,-63.67884151298893,10.863482467131371,-21.655615436755628,8.65023148416973,1.4980002538551975,-43.40486613084898,-40.800576812955455,10.199312428032096,-2.671679618648703,6.1808378245301245,4.364779799974316,1.2823683389247966,-14.320765286799977,7.349954603675251,-26.724601971384264,12.523345056164489,1.984159682909954,-16.26822952619923,5.367904097696094,-2.090222480682212,27.098751902253632,-13.671720491332717,-1.0595591170432495,5.333878232453793,-1.9001105084091472,-0.15679982689160923,5.073851722607889,-4.184214049422581,0.14594569391218415,1.1714527285593013,-2.043968623952564,-0.07243195823599767,1.9338447118260844,0.5604654739950532,0.01666971032189261,0.17112455808354357,-0.26335153972921527,0.08674236369656156,0.20784935590857345,-0.028077212472473103,0.03703564515801071
16.01424026271006,-71.07069555314833,12.714784306824066,-25.769287907338054,10.971641171643972,1.6935442871195199,-57.50891367389557,-42.26025950438563,11.618438926605066,8.260216332259606,6.7593520954517405,6.7650755505928295,-0.7968679593959301,-11.26145048003885,6.939432295331188,-34.2708954905054,17.135467250388373,2.530605092423025,-13.09615234569787,10.471839718779878,-3.632121570694831,24.185325684861063,-10.713048818468495,-7.117988069818127,5.745348122930429,-1.8751758641607894,-1.0998453472982344,5.069161947773572,-4.495381309036958,-0.5041998740213272,0.8647786309341072,-0.9279986517506092,-0.1966630356610102,3.165215867320347,0.5784620417643445,0.3130003923633607,0.1521927627002023,-0.0522554496433389,-0.005220826072346953,0.4316306616692317,-0.003991821145505699,0.046047818986345634
10.378919591355341,-78.0305302373763,14.838063093928472,-28.30105191142411,11.504606347150139,1.3843352556725188,-75.8334117466786,-45.56493518694675,15.02186344016059,12.209921161152215,0.7355255849305552,5.038453452816229,-5.628457059856656,-4.366980035779427,5.733288174982533,-34.021120002353385,17.250532766806487,1.9241393504876563,-18.662306702708015,8.939151102809245,-1.8677427256695274,25.378309491353665,-13.413109846277976,2.3253029990518606,6.725786180539721,-1.724161084055976,-1.0598386363794865,7.566426697307832,-6.205451759418578,1.3648400194848893,1.1813219838119673,-1.611033906672583,-0.6994194101162177,2.6253946807797273,0.2580585497839446,0.45493677969571644,0.3213149384758117,-0.19334050261708818,-0.19623351379253326,0.3860468540399143,-0.032584560514507324,0.07286914999968191
2.973422967521991,-86.19638557430065,16.49623127552659,-27.437223352329333,10.912544216424065,0.9148759037465698,-91.30996283948387,-51.50101333349595,14.369627241257728,7.472338913132145,-2.476758583125982,1.491025777048449,-11.569232152575987,3.9620784103985383,3.696550903192182,-22.46533988955397,10.91426898703432,0.40740594813547093,-30.974474681350888,10.776316311284573,2.1032312229704058,19.76909173986299,-16.226064905340206,4.840578008776596,5.7835377373938215,-1.8183034560222189,-0.44403282534983196,6.552616995236091,-5.951011521549385,0.6318595933090823,1.2684608247440106,-2.1858455156144387,-0.5616420171391934,1.5817316455116417,0.7377581175048615,-0.10163708273349312,0.2949716806626388,-0.2480782472090469,-0.09143304282617118,0.11948851726817494,-0.02281483001501259,0.04907494979452818
-4.407953035036296,-92.4687842262492,17.48890821031826,-16.162839679470597,9.554110684941062,0.7846734148155766,-108.10164673761443,-53.59995267838479,12.113471880949682,28.771718975339116,-6.481489060198179,1.6913336326308608,-16.795339688942132,12.199831354905863,0.9864350429294747,-7.264109468785787,3.21827082865404,0.1356530203802298,-20.726432791082136,17.155919819974404,5.315860996372534,10.436203227206331,-13.461966228747087,3.0997464580361305,5.750927193790195,-1.8817479709224405,-0.7162879564919964,6.857894466952991,-5.801859912241655,0.8911015766459501,0.6057680294324163,-1.4015655277852983,-0.14951936843708705,1.471445806203808,0.7226649955072617,-0.10920682210704835,0.19517809161934044,-0.12718101929364206,-0.021513022302808087,0.11673454464197416,-0.09343511499914707,0.08952927240657775
-6.403181425609563,-92.72967161408074,16.741478024267465,-1.563342810776531,4.4174146814165995,0.7535064567690956,-112.19294354182718,-49.216841406581345,9.988939345644077,56.05712799241911,-19.771363531868477,2.7816906892161133,-20.9625429049738,20.874568237252884,-1.741426511420915,1.2877139743096364,-0.7039489958838728,0.8570564538540739,5.316985770459538,13.634521389807539,5.4459095545281615,-0.27223935946823963,-23.73238027519371,6.19747472205973,6.462138295209209,-1.0968166456244937,-0.6501279796363253,8.457466160867556,-6.094548984211827,2.63775710416721,0.05015806435208476,-0.7592996711190698,0.025480685734230426,2.1691537899803324,-0.04214943229193283,0.5132440461359302,0.13938680467172632,-0.08002793482986137,-0.04493464798619939,0.38650949828149933,-0.06634806871227701,0.0770481116252056
-4.184286871276253,-86.08257665175265,15.278226613702547,7.535516405435777,-0.04912433255635007,-0.24245035576008875,-111.50433418964207,-36.558240122231716,10.233321471699163,61.253242886525946,-22.119500802504323,2.4941478996758804,-23.993073689151235,29.15599681454571,-3.641739744735767,2.9972555609687475,-1.3572703382229663,0.8423086967287702,2.008256776091253,19.17927206287813,3.846763800672191,-2.759036510208611,-17.942461608423052,-0.5998138784606397,6.747939991743063,-1.309769606200647,-0.5410497223131236,5.75186985806137,-5.143409316489466,0.3570071049856188,-0.3157768395971984,-1.0959264687094372,-0.04734540698674451,2.355781602992363,0.35676783009813795,0.39946993953244864,0.12160435790034288,-0.12317190478227731,-0.11414879160217997,0.31632507270905935,0.038269107886916016,0.01776326426690794
0.58769815847132,-80.87543174118613,14.300158012749018,17.033833015206696,-1.991203967990124,-1.9570910434903495,-99.14912920373028,-38.698017082063195,6.966794308578191,67.94951093152156,-19.97532220450186,3.3794291595610675,-25.3411516753157,36.54240852646343,-4.646199062430335,3.4044992559541822,-1.1446803726595625,0.7959327072959841,13.625856327985154,7.850780418423689,-0.6358513686652225,6.031722280854506,-14.212864572135603,-2.6533278493101986,6.797868977018273,-1.8514294658814776,-0.33919164132329677,3.818497271193771,-4.298842389135377,-0.6016307106819867,-1.380236123043096,-1.5104331923342365,0.22187523729105507,1.0455825447083884,0.5958318817852556,-0.17344712287191327,-0.16466246870239418,-0.20349083383405908,-0.024295393382590375,-0.00849067973072952,0.021499107716275927,-0.06838773703451184
7.274337690246852,-75.12190218896572,13.770694548862208,21.94726609586548,-3.4770005362751033,-2.654168849373669,-86.88115591826575,-30.867960338585718,3.576169632281062,74.97267559534022,-24.720918136422036,3.6563575336041323,-25.16722492981793,42.56442571144462,-4.4940228164508635,3.4086750932365084,-0.9665650588036586,0.8649469439608631,30.010491866268925,5.6162286029256,-9.365718140693424,10.288197350631412,-29.117411210158163,-4.073787759858124,6.154310276637699,-1.6841233755814582,-0.03566525169522877,4.666093766686753,-4.805843441130112,-0.5410631203430767,-1.425332167000437,-1.2457883633015328,0.7089787552705533,1.4930785520670338,0.7426419615189349,0.030892508578776328,-0.24510369675572624,-0.1946703531376953,0.19098931790723722,0.1617551044512293,-0.026977531892513878,0.020962335347976438
15.401837178242527,-68.29611514082087,13.423803497468379,20.17245630150326,-3.5565453114945074,-2.905391112693134,-73.4271254597967,-14.856513995674034,4.476915710893412,70.58340610832981,-24.281578129190617,9.412144240861503,-23.987194770983873,47.090811810941574,-3.6290987571141073,2.828597095186041,-1.0742225654125983,0.27348374103152123,36.656025007388145,22.97159225347371,0.8718181538053156,-12.066221286838449,-12.511524316290533,-1.1164633666136745,5.85888767154738,-1.5311762781992846,-0.5807108823357274,4.421365428001763,-4.657170998360412,-2.0018234449610364,-0.16008064446660492,-1.1388455460553708,-0.009389490857740138,1.9063845338651972,1.6435408307489403,-0.020984837723640785,0.15212239888891438,-0.160286239838822,-0.04532259148452188,0.19856520684155393,0.14156111407601238,0.010302072778668285
20.68721220098621,-65.57395390027074,14.205689650214143,16.437727262722067,-2.7093079673050235,-2.81311931049502,-60.736995352999166,-19.39587817596572,5.313221747287992,64.80425215291164,-22.32680987936538,9.270016773881387,-22.38530852027382,50.088078977395355,-3.2225613577795453,2.578152259100639,-1.1505308632617899,-0.45621096147399304,35.6668147520501,19.45142348012027,14.008493717962532,-24.829577904910725,-15.513275405940666,4.342242828924938,5.187231020818329,-1.3001543253362364,1.5669141506458053,2.5209837753721693,-3.192208113490834,-3.103051605215841,-0.8531350131001585,-2.197965408264998,0.33579264573310846,1.2008880630000751,2.055895552584048,-0.49697652461279224,0.16293245605299092,-0.33637244039054626,0.03816431519810317,0.09320090454229976,0.3399818381446511,-0.12784875701434478
26.241661569770088,-64.15951857642516,13.493206427504546,14.901459086044714,-3.976698368138586,-2.223451369085018,-42.46388057754646,-15.223838331302874,5.458664221019607,57.64656924983935,-20.334717782848173,-3.059302606037271,-21.010928765576036,51.70255893019414,-3.574738642342793,2.866540365071828,-1.1056214609597785,-0.6943724340272411,44.44472634290764,21.54622381561632,-1.4099636269480693,-18.726778822626336,-34.201484856447344,1.4611427384793327,4.690056146677933,-1.3124696621828047,2.104337821994438,2.750776431297771,-2.429287265519687,-1.3234589923097901,-1.6203193235167086,-2.5178793004165314,0.15514501742287312,1.19873856491019,1.3991159316706163,-0.12632249966427936,-0.09169763516678378,-0.3712700160918086,0.02825661052536846,0.1570683419027135,0.22343275633790002,-0.05274107988614118
30.33695552654326,-65.10103422540335,13.68251426115568,10.427673907110357,-1.338350657972303,-0.8763150963174084,-38.136809359618745,-15.389190213228629,6.090777397394654,32.45681223997007,-9.245821355434492,1.0717371665193087,-20.185559779806912,53.04701741846585,-4.312366242016778,2.3982137298892505,-0.6798602559403167,-0.15111402711672284,7.9479047911594005,24.419217236726283,-1.935330779792199,-10.2319301572069,-21.075486963570466,-6.935729374368978,5.046028240037268,-1.9688601719656431,-0.8453610261677403,3.0687035799935054,-2.398195323442428,0.01665710606461466,-1.7869586141322054,-0.8135704510972228,0.548583330732275,1.0748316745320807,0.8126957805617335,-0.018033111729484363,-0.2813366981280258,-0.08629537480648368,0.06513670597725024,0.11053701356299313,0.07298300508229247,-0.04923131170269706
36.0702046063067,-68.63847651105424,13.26501997813968,5.403570883704504,4.9276929125824385,2.4343803713579284,-17.297548794374197,-21.90633909531552,5.586633223689195,19.429220656158346,-2.0163331678087406,15.458962282031393,-19.868588672330116,54.74569363207724,-5.256743439922247,2.1679651475844492,-0.5374703901544647,1.1686082903016344,12.123501355358762,22.232029125283287,20.696507500454327,-3.6683968940971776,-15.565500853336404,-11.601337846849535,6.374779117013374,-1.9228853883491621,-1.1164868331690432,2.551351929211969,-3.1115740392504345,-2.3837425539911763,-1.969700974750649,-0.13611709517912288,1.2961299447970442,1.4800000996055134,1.331639291402205,-0.1472081954624002,-0.30190058537146525,0.1689693712275524,0.2532925231075637,0.12005493677729821,0.10351951518351205,-0.09534888955657629
43.60641243917973,-68.5713470856423,11.197614716738677,2.1954305267266983,6.542962017737501,5.115737708063843,5.334214633266511,-16.59482723897243,4.58736293583539,13.089383958187225,3.8494274311990626,7.115540566711632,-20.13835412067373,56.489949104570144,-5.987965408412242,1.7606614077974938,-0.7775474947876113,2.0686209387961036,31.845466231206977,37.534130428103914,7.8126111101583,0.9816419097961737,-23.248402837109083,-7.426601125483242,5.657999155324067,-1.5489047268291198,1.42399671472464,2.3560454534484765,-4.870997348594158,-5.054663200101238,-1.6522894921929878,-1.6791025908054333,0.6896546183510427,2.253074341604238,1.822905648672999,0.18309941601778068,-0.11180382148843002,-0.23659874753095578,0.14070989896179031,0.23156291288726394,0.19436991893494993,-0.04927403871130955
53.21522909267112,-70.01703896885934,10.066808916979937,-4.763927121988836,4.831870550688472,4.29271908106394,20.580989751100997,-19.79776421966433,5.1827570535202385,-0.37345356856085976,9.10608914844549,0.7964977308815713,-20.25953844920761,58.672075820748056,-6.425944998808575,0.5487748189767047,-0.5299222595014533,1.5527292245456452,31.567658188034127,38.29774279241306,-4.178114728409019,-5.991022659872499,-37.429523930179755,-4.356606334815704,5.828520662381005,-1.7194517292825493,1.75975564831045,3.3654258279069476,-8.592470060551006,-5.282049445457052,-1.3408832272558775,-2.275211450621467,-0.03835404813017057,2.4993029555921016,1.4832199224787437,0.5037532237309671,-0.10397528089766483,-0.2825012903239934,0.08052160709438753,0.2438295563414609,0.03479466846316326,0.04155408137251668
65.33678988087561,-74.59146263901916,9.310198314121134,-13.88116344462589,5.640880632515425,4.388752327664284,37.92415323720905,-29.086034750617348,2.7758570287110427,-26.79427056914538,7.48681377392909,9.649202016221428,-19.540163733048963,61.90166514395594,-7.000680176775428,-1.173054692767525,-0.02316343419010856,0.8579174290089034,16.44273159573178,22.22752162499195,2.5119134824312264,5.6930444803030555,-42.33273286663276,-11.365161743801485,7.518184918524391,-2.3164681109035823,1.2001160839929261,4.088157543392322,-10.78937579174848,-4.100593125036973,-0.8905160521674761,-2.856944425792946,-0.8916621378324742,2.7747993199334386,1.0844617945946655,0.9282240717472952,-0.014256065943581616,-0.3865197762508624,-0.060143324551456274,0.14676138820752993,-0.11986078268253635,0.10226129410796525
79.09082447068567,-76.20205126243198,6.579419808846768,-16.694836400099614,9.894358159363986,12.04580443354314,52.310018069566944,-27.319691156642406,-0.6751650462950595,-53.134358634592985,7.76925276089546,34.08875779995814,-18.568234420052526,65.56060789064648,-8.149451949334406,-2.12952041331099,0.20412126958073998,1.212366141027477,-1.5987888958925405,21.94438357499109,22.573660986341956,3.5480525115712256,-40.90065100420919,-8.237613322421383,8.58335592043883,-2.788419639459462,0.6947835318465877,3.799153841290767,-11.451231106405434,-3.1545104544688387,-1.2415606812567208,-2.888024458605566,-0.8771643070583516,2.6173569246097546,1.6740204343074687,0.622097355773284,0.0032548975470039596,-0.3793031623086885,-0.1110186904275126,0.07854879781587226,0.11819496315733521,-0.0030297328758658705
93.45095298785063,-77.36729348050007,2.4386113151089805,-32.50639306787078,8.764581015720726,10.67042547457229,74.91885044477513,-21.10746830703258,-3.6041638980477835,-78.5532739228884,13.277693160330612,26.460799525612174,-17.30839874411133,68.31934282368405,-9.837827135848517,-2.417506933280556,0.2126043646967149,1.444207161600881,-12.148862030322663,35.368390915932515,17.500453097557486,7.4248033385557575,-51.362199027474134,-5.7484490644392805,8.129225395025847,-2.968554044736439,-1.2587509395265626,3.2061280451077656,-12.92181108900384,-2.7998830111787525,-0.5948416224716387,-2.3590625681188433,-1.325179979586491,3.324349276555618,0.9620861652070802,1.3530107925598733,0.11599777906548796,-0.2263714849830307,-0.1855003207639731,0.26576858453229657,-0.07176200056584991,0.12928371115476875
101.46344437754004,-75.56172458895509,-0.6509508936566426,-45.04607986532894,3.801559745584523,-1.0543990484359527,97.41614569714197,-15.46076657289703,-5.120381370579358,-81.90673564354553,14.57318618187131,-6.264504845140774,-15.74774377974059,69.16767628991943,-11.287627014852532,-2.7466729310556466,0.15229481418828833,0.3828250272753254,-6.045325581728467,43.16391090511761,-8.758410243819348,20.710613771280688,-56.879249857858404,-7.004981937872158,6.2496736910156026,-2.0350562609995206,-0.7498146203358387,2.170528826945292,-12.807305331575051,-0.001717189454169557,-0.2980471072346567,-1.8159553530041497,-1.2960201990363114,2.5334216327914265,0.8807444792851452,0.8981881827029728,0.13769370513005696,-0.19313317208075406,-0.20293949958647414,0.15425332654892426,-0.07151775510841747,0.08650691148761758
105.5103908908519,-70.95663165005432,-2.3768141185113425,-28.27102122569626,-0.8198631835816184,-7.7631440326441465,114.90022696501457,-28.361985389501136,-4.313781323104447,-39.915139588058715,6.524981773272435,-24.08165175995704,-14.035691493729889,67.14547565513834,-11.303500303140977,-1.6483188698189388,-0.11425363309311613,-0.10602804494763278,48.89543641831372,17.074291231268766,-27.14204972453062,24.302460227452297,-38.524267045975186,-0.7271145233893075,4.7879793891862095,-1.8996396324713631,-1.1777027798968192,1.4635593443767232,-10.110485802552692,4.592337570828293,-0.8591864450966167,-1.3760143339807778,-0.7306920880249689,1.8280204626512455,1.376544918472635,-0.07284827375182924,-0.027206463682175254,-0.17951812605976544,-0.13830767884455164,0.18504462125564164,0.10715682837016599,0.004162220418718501
109.80905529603946,-62.73441548496178,-5.324696638849165,-0.8224440326179858,-3.0610474738220175,-11.044052667891933,117.75827993981979,-32.31056249600325,-8.65228513483217,19.855921635804943,3.692914406088378,-39.19427671309582,-11.465748015667979,63.28675155486979,-10.014206604071076,0.5275681103252149,-0.17051533640327962,-0.048636648374213325,113.21622257591922,10.799791259852844,-55.156978141338996,2.41822459126822,-25.620611404309972,5.091627817737899,4.549325279983585,-2.1991723540577994,-0.9557555713007286,0.9171982492604821,-6.10674165818627,6.1509499709657955,-1.3572670137083673,-1.7890067062754114,-0.9418198702463626,1.6914567124437812,1.1117892282405668,-0.0004449694220124617,-0.21136919792406325,-0.26396286432919536,-0.10528956921773383,0.30858401950063913,0.17471081434808558,0.012010833012358411
116.10196309024609,-58.509343776287466,-8.37386683154076,10.91321296545505,-1.6261482159808933,-11.449668057064425,123.23381144742594,-36.146204313411054,-12.248144971867333,37.2967737689832,5.596409162350762,-41.7463008411033,-8.731979031397877,59.93695693360638,-8.942013099325406,2.397341964145256,0.8545476852016447,-1.060938363079206,143.87531387526442,6.126819902244992,-68.19715364773103,-14.360644846895438,-18.79013079976651,4.583603982139947,4.5074753643012855,-1.783556792433208,0.37257002856700105,0.23062783379280855,-3.4254839077505754,3.35515200340861,-1.8497025902076174,-1.445371901447466,-0.1352033151305849,1.1878903236963287,0.8766950458999045,0.0006952355099746205,-0.2651763397030573,-0.14130590391128967,0.05378000425455581,0.18129558662648068,0.11316069341654784,0.04856195584533402
121.01971829260586,-60.70400324843735,-10.360980804594897,8.913227447979974,-0.19946460489293036,-2.3241169306993923,147.176545462085,-36.6591681310752,-10.941538790783223,39.720078028989505,-6.1717444548314715,7.849758993093699,-7.5445704048948805,57.819123459137074,-9.162745985235167,1.3809547099651638,0.38358493562623525,-1.3328607809571837,204.88890491615103,-2.9284002512979916,-4.916882625945399,-42.79555826217627,-19.722985552709204,1.4805530515492484,5.543134179832632,-2.8434305428168787,0.3131236582103201,-0.3361529400766927,-4.893365876155669,4.3870967560151035,-2.0301679360908227,-2.0942919846665298,0.04562968203751752,1.3013265650382573,0.8657548508820999,-0.5315735664474065,-0.09413281936855139,-0.3514076983763633,-0.01556445249675947,0.14665073785390625,0.006191688485264236,2.8601245110590305e-05
116.48960370004293,-65.69316916919847,-8.962997969396874,-3.161612973786733,-0.796058359753886,3.5737181387237937,152.9226558752523,-40.35213170640442,-8.72451807467878,50.42443925367124,-15.952708738306216,28.717122544311888,-8.231016192007027,57.16174274983587,-10.25511748342501,-1.3504214807802357,-0.5521655964237288,0.30454726562296836,243.5705532034137,-6.020953111160824,35.719661960403805,-47.85243056008321,-5.554121857520461,10.898702094298486,6.148491461537248,-3.486011939828617,0.26587584854866747,-0.17229687492314885,-4.068249084728115,7.274589314415409,-2.7203247789625142,-2.3527003645393827,0.149717219217319,1.863405534894282,1.630307358055819,-1.149266052199454,-0.2443796278802558,-0.37072472684887764,0.04351997382252565,0.3217927801509192,0.19715719150461547,-0.05202975757495984
107.54774259502967,-72.54776579161374,-5.053940463652306,-23.0844003185892,2.6520328432890232,1.3304450260323804,146.16824023688474,-58.18138777563255,-3.791761852073355,15.20866260854109,-5.2894681394980525,0.28929018097113707,-9.551342433104901,58.027874724683045,-11.263608668616731,-2.447960276822607,1.1722052433632595,0.4877273577424771,189.77779014028977,-12.062707372291108,12.009047791623324,-79.2180367457451,-11.105101546113277,13.751833092895245,6.604522925893699,-2.7426014841561503,-0.1415523391916695,-0.26229081305972723,-3.448538135459824,7.593512693134929,-3.38491784554108,-1.1269572309410976,1.5275564804243549,1.7006480717307604,1.5850779314937773,-0.8362233742815858,-0.5342484393617581,-0.10773867887962238,0.3488604765537029,0.2481120452130059,0.15342540650343237,0.08798120075042193
100.48130804607456,-74.93771408264837,-2.409815225551466,-33.86400476001629,5.1570157924538,16.193509273640082,138.2214831681933,-58.37838523832474,-1.5143260242333503,-22.718385027341764,4.617061189803514,5.450860061284178,-11.442634060136104,60.02693259020073,-11.195214548342756,-3.8087888353284622,0.5614557713779567,2.874172722483583,145.02517389225966,0.2466415583981565,4.484854094213095,-93.12742752218341,0.811329379016301,10.19119012401103,8.098819368467346,-3.2906886074287947,0.14721301688569136,0.08955280048649944,-4.208437851071309,5.12911119897255,-3.2984925264426797,-1.8596763482811711,0.4929178063786013,2.0147157926396893,1.6780917816583203,-1.3217729808179763,-0.36948277617361136,-0.306960571309571,-0.00817011291072475,0.3081031427605715,0.20936983172845286,-0.12702976475427588
93.67750807000064,-75.93787624839194,0.8638287802304079,-23.411778940543364,5.949061267923332,28.468172824961933,119.00341150403955,-57.228223293304815,-0.46499589844593564,-22.208741379820037,6.349232805819018,61.997764049935085,-13.774013585964633,63.0427977247822,-10.513801026487288,-2.5575357169459876,-0.7097681611671887,4.080633556269739,131.20727321764534,8.953749370458862,76.02771073178148,-118.9065967630224,9.461045012301634,9.399891420903009,6.931431161421974,-3.2425471420871506,2.9914835062092364,1.2909565015260844,-4.114308278643126,1.2233160058856123,-3.359348553352995,-2.6296945229853845,0.5366098195910688,2.5222212192935496,2.104937944963683,-1.0182995830433654,-0.28311326947595394,-0.43159559234512734,0.09317204439599304,0.3290767357718101,0.3392297660936974,-0.20345671331279358
89.63017409461253,-77.0541364742196,3.3658971324469813,-8.007546289761997,-1.715403286371065,-2.6924423246736935,97.24324030655744,-56.84605057081798,2.26394796812874,14.162266110399884,-8.334039938447727,-2.2149464817374955,-16.31777052992577,66.4506327491004,-10.244065806063505,-0.06827747924805311,-0.5765013655563854,-0.5768620476992145,136.97074486724895,-14.888472906736258,4.622264242699729,-111.64698634320226,6.514774030891288,5.786323430022344,7.490100168862498,-2.892946419209285,0.4309172603808153,1.4303631237720849,-4.689692797175979,-0.22131391459194433,-3.183141197298847,-1.456218345090863,1.452159264075375,2.4704337746794542,2.109792877485187,-0.8103066936946313,-0.3491052843956839,-0.1851942858668868,0.28086406260447333,0.3826540376905612,0.30654790834262996,-0.07640951041003767
85.68235339959183,-75.69510381053192,4.166255596722894,1.9506175556476555,-6.393381984339713,-10.999720805166278,82.11831169072592,-51.95783588781566,2.3634171527048524,33.407620370898684,-15.116387265176144,-40.12256787558535,-19.031215991725496,68.93390094684352,-10.119027616120745,1.358745706304353,-0.6257898399624,-1.520109510468432,131.6403308339327,-20.70653553287907,-52.34082431354135,-82.72961237536533,3.64847681312798,5.723748265535368,7.837963450389503,-2.896809266349634,-0.7631440460975054,-0.06799659550593544,-6.551904654726917,1.1402262103147032,-2.7015588047356536,-1.2692401004175047,0.9314260984314215,1.2339109515534603,1.9545289789130795,-1.9438403249926026,-0.28173784329221635,-0.11716031022635373,0.17290049238781374,0.1066733481562215,0.2767582867271566,-0.28573924511387305
75.13235649108657,-67.51100653774121,4.060819376062346,-0.05166473723969232,-3.4889186874907923,-4.735810254966043,68.62609824135036,-41.03440215673791,1.5952134321076856,22.88863992233462,-10.550519918542381,-27.073710159116718,-21.431976086052217,69.24606203099277,-9.950567829863697,0.8366731282825616,-0.15388919063572767,-0.8400344252558818,111.27917201084337,-1.1706916537777425,-39.17245846498085,-89.82495605267307,-19.43196394555188,-8.952641550289831,6.332764581933029,-2.065623649375587,0.6590382659292435,0.8509345286945293,-7.691536220348741,1.3590965251412253,-2.5813784026183377,-1.111019878753936,0.4931456021340627,1.5945161715383134,1.3554002840039885,-0.357464837880894,-0.24337105758488897,-0.06618812257527519,0.02769078124876746,0.023204229722438983,0.0731857717359541,-0.05463635494102156
63.35925268099332,-60.092297833157076,3.5959802485600885,4.572855385891522,-5.352824994939201,-5.965179737987486,58.67189039380898,-39.32890754917942,0.7486993601329193,36.09032331652729,-15.839129932251458,-25.719901818734712,-23.12447444312641,67.56915925911251,-10.176363433997201,1.0692599720885623,-0.32616068119770825,-1.5065098427414618,124.95675770029266,-5.037709407607581,-34.64479606066941,-101.10708770277627,-15.108778508271255,2.9121373327064064,6.179073667594428,-1.965212906067811,1.4724628187231814,1.8678971672132367,-8.271633932810344,2.9233264002659705,-2.339424003223053,-1.3189176672058618,0.39958361823771593,2.157936090553295,1.2767067619296522,0.09522746851969983,-0.19783155748910292,-0.1621472771808279,0.02722013564831507,0.19282136526275784,0.05093337500184447,0.02264797685176813
53.39739278419321,-57.59085451436329,4.446682700242419,13.3591433321669,0.2640504452353357,-2.031316230016802,39.62267771978661,-43.50034176941522,2.0127432100494373,56.18703988681102,-8.444455138559688,-5.023037629892229,-24.34685349315547,65.50016236761613,-10.625257669168544,2.044479272591652,-0.50229923091922,-0.5863524489080787,130.43755384005738,-0.5614314852192543,-7.570582659347529,-78.35813732547619,-10.075477414102522,11.02171044176409,6.146082796672912,-2.094924530807411,1.7659462594837037,1.824587153206247,-8.29119943822274,1.4586560244384674,-2.621693737648908,-1.2628335033708937,0.8925273192278641,1.8600920624310089,1.6267269691793118,-0.6907270726392587,-0.22269990285844807,-0.2030402752714614,0.10663048296890601,0.22554368597601454,0.13441772404896893,-0.061442257622976115
45.2105322663401,-53.237942399360996,4.9657901022944095,11.348252595806555,5.896079428508567,0.9319666629540829,17.655052089263727,-38.0905249883175,3.016359328601251,56.57782299244986,-1.3019528417153434,8.977543666511501,-25.627072439202273,64.6825576979568,-10.720748592146975,1.8777258541767339,-0.1985203910480361,0.42704375527047583,111.08317323463507,15.515800163393944,11.688970167201227,-71.15705240809585,-18.658809305835213,3.141397852199338,5.974318143956574,-2.9507001021537564,0.338330218472326,1.5538388257479365,-7.602069030537331,-0.4576461854224987,-2.721496171556862,-1.3563375882126876,1.2004574211051566,1.5581717680647176,1.2645716625751509,-0.30241614983042076,-0.2772723565301874,-0.25015960010995536,0.21823648324611275,0.08391801479884059,0.05837051852502402,-0.014997873553987457
37.1560064544163,-49.62811418256746,5.636383295702396,8.595850132266822,3.8951660097485235,-0.1617199498261978,-3.240960257485312,-35.98349295404303,2.4553585364827866,54.066192275467564,-8.385882578361565,-2.074624515059675,-27.181336268986087,64.58122397147817,-10.675416330130412,1.5603364907663484,-0.15335410267408983,0.3842433804759946,88.7272614196037,8.21505826981611,-4.591096538047326,-76.77978661187527,-25.76722488571793,-4.421775644541526,6.2885883103753555,-3.313243150047833,-0.07299975714965003,2.4964095382090434,-7.03009222192872,1.8902887515090945,-1.74645855450161,-2.210689551016292,-0.37553315536311294,2.0416363999511367,0.9824783752947213,0.2287178375339059,-0.1300601012423952,-0.3528961445836676,-0.0206346339261663,0.1984760832949679,0.13948820962216907,-0.1014763533552315
27.839487765153276,-48.67142450845238,6.252919213518417,18.759893098600216,0.37744244956576234,-3.181349651480956,-19.47846183594105,-32.98620012691486,1.5676341445451765,73.39490499301085,-12.201557911583777,0.17896996294413675,-29.18973143010176,63.929591421958,-11.23936105195817,2.8311831197118877,-0.9178604378528608,-0.010814934151117624,101.18776580955861,11.0934109464494,-9.021080796168373,-74.88389829412607,-14.481113833039801,1.6040318303187235,5.496108093649208,-1.5277994399556347,0.3232895538733357,2.573261866611715,-6.906781717809237,3.3448814305953216,-1.1433565875266702,-0.896241290532157,-0.41013288974309364,1.6097515796613422,1.0134662481021108,-0.040085667628715654,-0.036023202023880915,-0.06846248058380804,-0.16202736505133403,0.23916283259104434,0.04227423386673428,0.05821891142506765
19.778729020127372,-48.850429386037796,6.508232940058374,20.830682406448584,2.0870429900926926,-3.067193622480281,-28.18056959135572,-30.635428977966395,2.4336646156371855,82.13631891963803,-6.621496393395532,11.895204992227212,-30.80775977587743,62.48777152024093,-11.830963771058045,3.5665435233575185,-1.145907364019222,0.5090121760312691,110.75287678217397,22.84258603721094,5.606461597736187,-66.83444374161046,-26.948478313831263,2.6503807823775105,3.996214280037006,-0.8561921140098511,2.391390762267547,3.0944228750645912,-8.2967166510121,2.352020813293727,-2.2865777013521242,-0.6245073555987108,0.7901155914144254,2.1134685246810885,1.059130769527813,0.3352655156749119,-0.2531788780020722,-0.02180316284503373,0.09504611195577078,0.2929503843513438,-0.03028112676350043,0.17171661885586778
9.684957068833736,-47.155932744701154,7.248720251721196,15.86923855783602,3.655636597385552,-2.021007764844477,-46.51733609102085,-26.9906814650738,4.026476657433652,69.74836882818633,-8.359676875695673,7.855518590332622,-31.633492642597123,60.92559587788638,-12.219802862910413,2.8172300363216274,-0.46225688990639396,0.8865469658274594,76.48204320963796,19.304326328755053,2.258215854241549,-71.6377387957187,-38.20876558083566,4.722244727929993,5.223258176839988,-2.0253063909468216,2.732767108007588,3.7582081083509835,-8.620587186110088,2.056953318992122,-2.284081047192488,-1.9695118788183963,0.5052601098184596,2.507695198975634,1.196055592071053,-0.07712895721992398,-0.18499128383525512,-0.31677086435839036,0.13727190016613766,0.3798520874419418,0.05831052517514882,-0.04778076191969843
-0.38601999004764864,-45.193739202677484,7.647259756296689,11.84475379335855,4.14203548862855,-1.913980062528855,-59.78126909137064,-22.162194648523403,4.213236406596633,60.425781700189674,-8.722008775455649,5.640323596863251,-32.23062633995891,59.28166439693692,-12.742205080929443,1.7998203953334118,0.018929094940611724,0.5872085341740771,52.622830883745976,27.200726879545265,-0.4813855776873026,-50.68298718567669,-32.5400448218927,6.458580921759086,5.67232073500684,-2.252160395613866,1.3151780307080045,2.5484970856472304,-6.729477072187266,2.5574389418956676,-1.5058709493520728,-1.8176893727269745,0.20641640600362354,0.8850629413530262,0.9735002547800008,-0.7282508737507725,-0.07866597887562653,-0.2598789925367722,0.10284462194633978,0.05378555029625795,0.0760131170184191,-0.14929843949527394
-9.228577839409944,-42.95742610119465,7.707058539579217,12.524522832479311,4.0198198352569925,-2.2782062541197865,-67.40661359061417,-26.47946506871239,3.073146625172284,62.59240050888432,-8.34326055769907,5.142571006395906,-32.257746059056146,57.23546629913643,-13.085364038886944,2.007104291592588,-0.21273922394140884,0.5259194233911532,51.69088472707676,21.89263592200753,-1.653886108656284,-24.009782523415662,-21.28455531091776,4.063200855046641,5.4964477133078065,-2.4380766700143974,0.1917811308788591,2.4306049068240836,-5.743603864588475,2.60563492339215,-1.806516060549279,-1.279150154566949,0.3715085962311275,0.9382005627608216,0.7087494938291017,0.15280293678056653,-0.1601114795783018,-0.1563839731037853,0.056055745818769834,0.12294075584886777,0.06931008572703512,0.08209852859247034
-15.10674067647956,-38.07233871089153,7.771831962111684,14.488086620896482,2.340266781900018,-2.3895978153820967,-74.58453890079687,-25.220099518771026,5.2474035072465295,66.2130839200452,-6.064137515368787,6.946970357262365,-31.120689454532894,54.93376430672023,-12.670503940148434,2.0939792785731726,-0.5428176909303233,0.6357330881309,50.93745010398892,22.900105710122112,3.873163155786357,-28.71273768558446,-22.173094129990993,3.845587251604304,4.839045612980697,-1.532130433224013,1.0278728456500417,3.426735721660662,-8.519673807552774,0.2557558274814713,-1.7244657571185844,-1.2341593217544589,-0.014336763614935211,2.5976968732080046,0.9167723651179974,0.5223967334343484,-0.16030687883944672,-0.06821844215030792,-0.04035454037590159,0.4193338513297589,-0.02242306851252205,0.16851789165277312
-16.003771524243486,-31.616198784354385,6.796369984974151,10.263694717047068,1.3163268806552353,-1.8703841104122751,-74.96259035474922,-20.570977252758198,4.374385119509396,50.957647580207656,-5.478388644112074,4.03465986177221,-29.166552502683036,52.9078978097042,-11.709622321101287,-0.5500036008841882,0.38297161075181246,0.4510562896133977,27.684585856614863,26.208887523471937,-0.7970902921677393,-38.43201106422459,-26.10881730021599,1.4831726381293233,4.301361673978431,-1.1601756710223607,1.0458598145234157,3.098278197737213,-7.552791208790911,-0.20545620013895716,-1.2455779330654972,-1.0149634838561563,0.1863020805537856,2.039722864688371,0.8966965968138708,-0.2516112735884705,-0.13306020820783823,-0.05427483241649275,0.054765482302432195,0.18315147294857426,0.0027322728265559786,-0.09557682253109116
-14.69238808575334,-23.243397513489903,5.059589945757394,3.1396419592507723,2.2206560937411526,-1.0064032220959909,-66.20525355476286,-19.442771567873027,2.6260912404485772,34.480239883110805,-6.576093702935253,1.0571260078041305,-26.938711616955572,50.223626920400164,-10.56476030446844,-7.12780396745657,3.7042776643844766,0.5968488355842625,13.741982126189114,10.855196557809414,-5.791313160256877,-16.54543116281291,-14.549876742477704,5.918532341665299,5.3058907820442895,-2.084440762336965,-0.10395876537968415,2.5807033832834225,-4.9563151303912205,0.6787094501030099,-0.8916673665281732,-1.0157625945770057,0.5341607962696073,1.3192548386317133,0.7808324700054439,-0.14780312176519894,-0.07294130094607383,-0.1582176809438204,0.1558685108139869,0.0712796333954865,0.0595355035003609,-0.05795281049682194
-11.999321563403033,-14.24554076324584,3.3214785098922945,-1.2718812125441916,3.5539894574230884,-0.6739698838904097,-56.315623168742995,-13.982687798672295,1.8131990475087907,28.97734637299377,0.18567288969169554,5.568212321817196,-24.47179061921297,46.84677976808394,-9.172083946436802,-20.56195449415833,10.725800306024256,1.0651751008167543,12.397109647596066,12.123133974499314,-3.421709146930891,7.032019649610397,-18.823445626381105,2.7545746392234096,4.91012928310285,-2.2742092318804374,0.09950540828060231,2.435257412904803,-5.329165433884852,-0.7981318558983208,-0.8568021578559293,-2.0414218431445406,-0.36130368852739625,2.291666075831652,0.9675096758805011,0.5604471328267984,-0.04322167249383001,-0.3586243297666414,-0.06385935188518971,0.3138841578542187,0.029007159472878602,0.1656968508370416
-8.591381696904314,-7.1477884020609315,2.011821948163573,-7.248188086597185,4.8003370349196475,-0.41772303809795813,-41.858886063071964,-4.555723008260175,0.964176434823287,9.800429374735218,15.723652243442137,8.290674341119407,-21.51270571668302,42.95589232644412,-7.607028940435775,-35.16098458110269,18.142408386851496,1.6062497016934871,-6.198247361015662,35.36542339115325,-0.5456484979087186,0.3890850324282583,-30.047729615430594,2.698144953970096,3.3530472487108005,-0.8234789130101443,0.6364127188927334,2.504762360739091,-6.348010244539219,-0.25372283666575707,-0.026174220453770977,-1.935882085552696,-1.1099266048355922,1.5264484225434263,0.8554479350650827,-0.07143587562868825,0.04049804900361381,-0.30797076771086995,-0.20020458369848232,0.11422986119976677,-0.026844927057182166,0.04733793013650955
-4.915865903460792,-4.244968204383167,1.3528870798986101,-7.820979029269749,4.619614905953011,-0.3179661524781977,-30.639131847944284,-6.987290443522499,0.10831775028536464,-6.305718994126849,27.319799328930277,8.645885243472133,-17.999707913526528,37.743665013589975,-6.1421858859783125,-44.09279573333822,23.35760625200099,2.2361042246310228,-27.523886890167162,34.746120846604065,1.9423032988935989,-6.120729061145725,-29.659005398516232,8.418652995438704,5.611720797043267,-1.9123189416877653,0.04821378871302908,3.1614034117656202,-5.9099857570977985,1.4427023667768295,0.1266281726136119,-2.230279402145266,-0.8337344668043439,0.855164364265399,0.38648291642454313,-0.4079201689594613,0.22027179765021096,-0.3031677216380927,-0.1616841078500965,0.11003256213256334,-0.10278359653011283,-0.031430644654805814
-2.600770501773139,-2.4247100304310036,0.9711714792652977,-5.525412701973555,4.438385641627752,-0.06993935186487267,-24.215819099959955,-8.7136602881251,0.05167902926548939,-10.889563202886038,29.9168550625301,7.323798527256657,-14.277656716684964,31.393953644120156,-4.8545443672697575,-50.13126582811011,27.844250792277595,3.199993961627118,-39.44272448956258,22.775754701658556,0.6137115164997473,23.633270395257597,-31.292377798277702,-0.2894551169144377,7.608388887505107,-3.335744097647983,-0.13714272551109516,3.189731227464745,-5.967811519381357,0.05693053332457958,0.03553864904674787,-2.6876552403273406,0.0464152877753115,2.0818649346196425,0.558209459873851,0.2493812376417383,0.23530347541589325,-0.2890298485228041,0.12943052211208325,0.26299951498852847,0.021623669852877503,0.020951709000713234
-0.7573710412411527,-0.9288190044416869,0.48209761515646854,-2.36369800613814,7.2240904497892915,0.6226656403019151,-17.807355133499716,-3.1192796491863235,-0.9169299905901007,-12.907971585747834,30.157933628570053,6.04142693619065,-11.10416266040421,25.5476499954159,-3.777523833604764,-54.31124689909794,31.689745908347447,4.560346150750648,-45.1032995648694,18.983518966652497,-4.246765260390773,31.73635143487577,-26.001192630093197,-7.934906304195302,5.046878368200492,-1.8772420848990774,0.06462194352764061,3.1065846501154244,-6.523600777679248,-1.9936176739496743,-0.27839225424220393,-1.9662423519220333,-0.328038751301544,2.9529677296793846,1.2081020701459257,-0.041212677369996724,-0.06791791798352022,-0.05652035615216188,0.05942644607987673,0.24625832944386333,0.20200016795179485,-0.1154806247329788
1.0041229585122409,-0.27430657614730136,0.1616536395721617,3.4078285996874156,12.050894845709426,1.3764267833197785,-12.628301452113737,2.479413811129852,-0.95370302131597,-10.746448588033598,40.14786246581069,7.7884115367818225,-9.062976198178234,21.430724159986983,-3.0832526464764025,-56.44039990955529,33.717571229057874,6.090847139595363,-44.85388961872395,32.512395348186814,-1.404744493494816,36.42122086514545,-22.6490448937325,-3.3740315087911696,3.013748577253812,-1.0125183638546649,0.5580829606623234,2.443549887939334,-5.40869130738007,-1.603465071902897,-0.44487140540013254,-1.9241511515564853,-0.528701315796971,2.192060995094132,0.7933887513136957,-0.07748560680954741,-0.10891496735663345,-0.16533313877165493,-0.04562298733339718,0.15818426065235586,0.03358596255408766,-0.034351874410871695
1.5613612139090276,-1.821034745935584,0.7401662681812052,7.184157837817611,16.1805951410549,1.767443921156893,-7.483628544471851,-0.7853154725992245,1.3676179339888153,-7.3540631442894835,52.42716123209234,9.671197639866865,-7.928124073344862,18.879237265906536,-2.657291999399558,-57.4345106287182,34.077412279796434,6.9237735464438765,-41.85727781512573,40.79445806941355,5.907101996761433,36.26866338632558,-18.959513648280698,-0.6123600722820101,3.9993758525671064,-1.4936582727665668,0.16208958956120614,2.5449052797325202,-5.046613615704251,-1.0217377539252928,-0.08364764697756423,-1.7177849751693794,-0.08470606033125844,2.1944039804515003,0.5773696157714141,0.21836953894210337,0.12970997453801095,-0.22012384194509238,-0.002920352847739253,0.2794138290176308,0.043852621125824984,0.028013775473035227
0.7309250225416803,-2.4554044768735954,1.0406974115232894,8.073100798084274,17.594204693926354,2.2131986752835373,-6.375958923953453,-7.3341744575253145,1.311408620706188,-6.249692082672955,52.09028055517329,9.684050322082612,-7.070417482083204,17.232160318046425,-2.403799853889567,-58.89554341776225,34.22638990360458,7.183942052988019,-41.83200563174988,26.916782632592806,7.936793861470074,31.537594848379566,-29.781861655874472,-1.9630312598836395,5.338485742371483,-1.9330294927216283,-0.9009625199434949,2.823870286645249,-5.719890388839983,-0.9434520356712716,0.15470805363583082,-1.3884856688535687,-0.33900794343587437,2.3233906397433435,0.2422633680675302,0.3553310367101387,0.1863295206798435,-0.10892258372105419,-0.11156280161554726,0.2320075729690043,-0.02710579808143075,0.03275772070528734
-0.6929011636634966,-1.3572862509938985,1.0158853083246182,5.809922584805774,17.479209461728573,2.7666954312502514,-11.08114209454476,-8.555056745021083,0.8768462841014809,-8.193309420260078,49.59957777146508,9.183561234020146,-6.241785326213087,15.847010876253872,-2.2442302126445877,-60.902424311329334,34.64303005850229,7.321686551195446,-51.63027294996062,17.50578765990433,5.0355733648500856,26.80989188930067,-43.40719590069036,-5.69801697513954,5.09647144474479,-2.6200349833612466,-1.622318530500341,4.786411723442367,-6.196648125114761,1.1230787290224071,0.3757377377828472,-1.631178827068583,-0.6400538654078091,2.261703157351514,-0.3691941825872617,0.6505051341256143,0.11332982294265043,-0.17427348957583552,-0.12286556167990402,0.27852749927703524,-0.15438439288436862,0.08235344461244018
1.2929218657599328,-0.20408953687680456,0.5503322967862385,2.9892784810078634,17.55404174183269,3.1496907364885707,-5.151384913745788,0.6323224197869951,0.6731538012340825,-9.345307214403112,55.31419827821354,11.417821234490269,-5.514466500666689,14.45712647025495,-1.867773705829408,-62.53558287550927,34.67858845661512,7.307479011532797,-48.10113310935837,34.800783175817614,5.091338460277356,31.63400003022983,-35.35750933706947,-3.2229873962413493,3.8519577631581208,-1.3913367523712412,0.033915008339030904,4.15095352810848,-4.781856211971909,0.22109932358642334,0.5543535011290406,-2.1438851173301092,-0.4518575272795332,1.9838293587459281,0.2533827994682466,0.050173294719804966,0.09475610776308312,-0.29977739392747726,-0.0004000885465579734,0.1686190781373549,0.015671931833126075,-0.06791845360717155
3.1390886038483634,0.5657266933627234,0.07887780601084435,1.530847478137499,16.546899432900204,3.197143654247907,-0.39983391871349877,1.8956293523788768,-1.1453154065921818,-11.535962414256067,59.700150627119164,12.894495580697493,-4.89815998529667,13.597815583925058,-1.458090078189221,-62.7658757146835,34.059513699130335,7.013814620786458,-46.27088423462353,39.167533982244905,5.3801888441202035,50.330147034803254,-15.04282947069654,-8.586392206608583,5.017346835218287,-1.8537353107119285,-0.0861902192020266,1.4930671806279368,-4.972279859276088,-2.7430776842204807,0.5792985394409338,-2.0813122912703044,-0.08346357992012728,2.225653255542956,0.7252407219408026,-0.14785605490102904,0.11239617879963375,-0.21342474409021242,0.08855177740847416,0.08688658965294836,-0.022187636718927137,-0.01993545097643822
2.1829593594699377,1.665062278964073,0.4075345833967672,0.7091692271573162,15.319415262781384,3.1548991215554234,-7.545865064716049,0.36070189069387465,0.428668000504448,-18.601235563028357,60.43212662695945,11.56854800792192,-4.423380250798651,13.208736398680673,-1.2624167417284333,-60.843296275702485,32.80753400020087,6.736086653130883,-67.42976599136047,32.97760849961915,5.130391100412171,51.39249126293278,-23.739710892058277,-8.70534232672162,4.871018975534959,-1.6752073384934527,-1.079489878893961,2.5312036282218826,-5.6190669428501465,-2.2184184018399042,0.9005145257667496,-1.47248562955877,-0.7622770726554658,3.019562511431942,0.5230338606587219,0.3072093372916659,0.17332665987759774,-0.060005379258391875,-0.15007351847444617,0.3624680249298894,-0.0910728158503557,0.06985396661355055
1.9128292944457708,1.354723055196425,0.6546595381287843,3.282940935441057,13.586699290597773,3.1475272937730123,-9.662601230360556,-0.9996925289650191,0.6090413632014874,-19.170617089992824,58.57168228772515,11.627373546333125,-4.090401905559037,13.062608004130418,-1.1847488294588475,-57.88883891058784,31.35288002547844,6.562125915453429,-71.80477033299589,28.523271101136878,5.381700830185407,48.93932175196263,-27.808043976689984,-5.786003190869278,4.577839271578488,-0.9253427097481848,-0.12457082069114987,3.5416169295812105,-4.589904284586932,-1.7060041402585604,1.1680559480681645,-2.014850351311741,-0.708497897878636,3.3020714509652023,0.7670842259519258,0.08749789823751589,0.25971169915337583,-0.2633349007065787,-0.10989286071969369,0.4956416080916209,-0.023080365622520804,-0.010280563564668437
3.4150455423905823,0.7526881972074296,0.4246552050735915,7.552209042779305,12.540067799759777,2.7091068924966235,-2.428808042158594,-0.3818809189048245,0.28506235736298474,-15.996274583311793,58.90722248988189,10.508524974070312,-3.903555173377442,12.936603260565889,-1.1624894770220442,-54.55578551917142,29.575029211590977,6.282122193106395,-58.30298888278972,29.37861436844531,4.8622782509412925,47.27685095501597,-30.536332005687246,-0.7856115440062451,3.265402472743039,-0.9169034848143056,0.5927211192337143,3.763272057907491,-4.714141959323065,-0.30157370128901345,1.06547517906503,-2.55848093423618,-0.43576725720594267,2.4685428567127157,0.0955318286369215,0.5798414673781457,0.23037774409582454,-0.4122139341587733,-0.011413344888425304,0.25389303139632,-0.1602889476228399,0.1437139460661556
3.9870353653886705,0.25186593856784273,0.31530072095794875,10.297506057216495,12.264820416208662,2.4556952418362847,1.0320489634364862,-0.8427208328979887,0.07608882458606324,-18.709364802039513,58.04534068172263,9.495561647438636,-3.8060900671382045,12.762269210698353,-1.1667993503400709,-49.92288929919227,27.081135738034774,5.862649792708709,-57.90418128521956,26.45068945555054,4.720456895661098,49.00483853853345,-25.347373600809256,-2.3542112486035363,4.579516203886112,-1.8878436877183387,-0.35136729865325966,3.125880708457316,-4.508578256757641,-0.621485148529317,0.9958928045622374,-2.15646161956883,-0.41788271766282753,2.24963639377187,0.04212095773364587,0.42901512844638207,0.2174302849816812,-0.24541988171656198,-0.062454322231264486,0.16792165594792324,-0.09826829772643464,0.05766447509990393
2.994481048106639,0.060181389969119654,0.4689292125620868,14.178661872215415,10.486237049757074,2.046385404270791,-1.0637127455441002,-1.1451806786435004,-1.01347340695834,-15.827894777222923,58.08171140949021,10.554819734072554,-3.6372196808093236,12.691932688093939,-1.1149301654176949,-43.57873958981276,23.231910776682273,5.163929841535059,-61.31401716056697,24.19271103328529,4.948371030719812,50.695516209267424,-19.0109917240834,-6.749512860891419,5.841588125735948,-2.131552581739122,-0.7948242467961609,3.5281823706107325,-4.823990415642644,-1.3937768865893436,0.8611680931874984,-1.6039045655590907,-0.22990841400393458,2.779506377100588,0.45803530565439265,0.05866483265945637,0.21518437845561553,-0.11482716894419986,-0.059900685320315304,0.27638748057776164,-0.06796238209024238,-0.014339795725217937
2.2442039107096647,-0.434542469067516,0.7137844575962105,17.50024562633946,7.391318512878464,1.1964851742511284,-2.778390165305407,-4.256327015641835,-0.3589999888909334,-14.997174150197747,59.386851074069156,9.776916279935676,-3.5822341404314715,12.509502266835813,-1.1595563080086368,-35.83039703801168,18.583253253907714,4.190160909470843,-63.34792132539022,21.14458627812136,5.55172986794341,58.250649730080504,-26.401116790247666,-6.4704732930251625,3.862281639229802,-1.3288210342031936,-0.15314701427976352,4.539038585184757,-4.704004955001204,-1.3668531653069946,1.0190271312789165,-1.855947232282254,-0.3036320604985469,2.9190078645760185,0.9424961836093855,-0.25495157124048834,0.17739303183353516,-0.17520376276441366,-0.031066095032086804,0.31412801763274567,0.016719847577654358,-0.05974524750722733
2.5185362702962197,-1.8669371318996109,1.171640008265128,19.926523403192,5.063946618330749,0.6299698751143946,-3.1236778021454055,-6.99718683727342,2.462192462758832,-17.267509861861118,58.84182171595128,8.724582617225295,-3.5750464666005044,12.136822262544241,-1.1985805461182941,-28.059667111643613,14.306335317489566,3.4260810193832447,-63.39451776342731,20.468896690098074,9.127057939821492,57.96376416072297,-25.96719174568039,-3.8398275220430023,3.275097667361018,-2.1426022008087733,-1.1176926443634692,4.189071713440119,-3.952678328026408,-0.6590025006941115,1.4787526662345836,-1.6757372220554814,-0.7228713257286353,2.5051862628766486,0.642569477091348,-0.015764788143249258,0.19547891158089192,-0.21335402265686962,-0.06990043558099521,0.30328906761344293,0.029563228839321495,-0.037267482064536034
2.16032198727225,-2.392094606278757,1.2808217616125488,24.124666057970067,3.0390062060779943,0.1336402847262296,-5.4240397381449,-4.430730723291141,1.985854885538827,-14.89755209078075,56.155160175914304,8.636484570745134,-3.3900492897962837,11.875072103548359,-1.1855162384081024,-21.786836706123022,10.985791839236432,2.7598005123879163,-64.50952584458174,20.092144341125188,6.962339608079967,47.74246765291909,-15.080309485603333,-6.8399773614379615,5.491109333584822,-2.2934106311568527,-1.3879251629628013,4.014937453717398,-4.036756263620682,-0.4397213715423041,1.6544649506055384,-1.5666038984021207,-0.712349570269909,2.707278494517197,0.20200656024349586,0.3183792128913981,0.3200446237834651,-0.16564630610133632,-0.13283775345058244,0.36563728987546107,-0.11589805750275092,0.055820533344747035
2.091254067544282,-2.3296843683182518,0.8533670064650131,27.564323050237675,0.048712993605378924,-0.22725336495429801,-1.9630811934041752,-3.981695639013147,-0.16996407356099913,-13.446601417463054,47.722344961978706,7.292432047444003,-3.2671261694314455,11.67429600986516,-1.2470559781511412,-16.8356305981057,8.407154785923753,2.2270044361744197,-58.02392978354579,9.958724439828808,2.828204685876799,48.129285724921,-11.722261582039144,-5.222881797681896,5.55485807829412,-1.6547787280962274,-0.22980138447861567,3.830417697774372,-3.9979649839896516,-1.2858544937762213,1.338146768000095,-2.1637814600070833,-0.23865410285967234,2.922352346643186,0.6349501471188671,-0.09542684084380565,0.25688078372685,-0.22821810258339634,-0.04382764990375959,0.34023199457240333,-0.010521317831598397,-0.0600507390671289
2.5268458384340127,-2.7391531182045665,0.5710540046839261,28.984950917787245,-0.7202059833663406,-0.532455400299329,0.0988008903129862,-4.491494385811755,-1.0316547743898061,-11.109820713055052,50.192966095412544,8.122285338906682,-3.1941988985680894,11.44088758124045,-1.3192237036708154,-12.946576779042173,6.303357937272198,1.885993556536558,-51.70675848058888,13.76144602938016,4.293906111160093,48.844452327015304,-12.001893318022834,-6.982039619107379,4.745179309656514,-1.7580743779908425,-0.03271088802422324,3.3653920479238044,-4.0142969953625585,-1.5854240891747822,0.7807976688239314,-1.799439080508331,0.1542333543402193,2.8406080582314344,0.8907718006995529,-0.09839501647379645,0.04582293682779881,-0.15171128853030358,0.0930503542975682,0.29642685897479004,0.09010506638416232,-0.06746947980072082
2.3933052307953346,-3.579272258983564,0.9981208016472768,28.665347911967686,-1.763358224382566,-0.8768896428342902,-5.868432778073297,-5.147849138975112,1.0215170035602095,-12.38852492733354,50.40035776322072,6.958214524775403,-3.098615793910721,11.322978592147411,-1.3362083365000312,-10.258075700392663,4.693186218715326,1.5713701630752102,-60.25933552364084,13.952388970866773,3.935549364654704,53.93569628598482,-9.12990586442974,-9.770832460268355,5.214079757452747,-2.8722946139459102,-1.1741023442115133,4.193806060353669,-4.294948205157764,-1.1861079005104465,0.8432329471849014,-1.2779085388650115,-0.16600030120982986,2.5086707306484946,0.9620631180987533,-0.23450288903651248,0.13428858233933,-0.14287996456420035,-0.01842172008546863,0.22488027487524967,0.07892054936958875,-0.06520354060282643
2.5122123765839355,-4.769648338451638,1.0973464051223285,28.046891339688397,-2.12263093156645,-0.8293090241063881,-3.8795945639541616,-6.893344058413924,1.2326907806752598,-13.976878155443032,47.32526068302573,7.052096312024193,-3.1689062553133884,11.750988310121825,-1.472650317043438,-8.834228620873626,4.000629555612208,1.4635687036743714,-56.07927967744575,12.52656055898093,5.036428107235249,53.653354971417976,-11.93928697572811,-4.010643549881735,4.407321840458051,-2.0736286433806463,-0.8621754838256235,4.1493579464495784,-4.094475383040772,-1.0334265853436104,1.4708631186882828,-1.5890905195703655,-0.475173367635686,2.6549340120812372,0.8579031859623083,-0.09690171163360316,0.3236684569192788,-0.21357879370585628,-0.10412924345839936,0.340596866697174,0.04673478239824948,-0.03349006624459215
2.069779416878888,-4.791379610109518,1.0532484171722576,27.10266460860127,-2.0890849999996752,-0.7004502596155942,-4.391276368198469,-8.906748909827042,1.4075582427671627,-15.594732679056913,44.38285385688223,7.101017729652231,-3.4922026589687025,12.573887162873993,-1.6479819577558281,-8.159994542253237,3.7071278050875156,1.4618419921706123,-56.81705485593332,7.941019180583674,6.308566201073781,48.04906840715318,-14.532587056249938,0.07443413159125548,4.008923126756365,-0.9666502815255948,0.02091987039675373,4.511121689450886,-3.9268187291583896,-0.3696189687765618,1.9207521909206233,-2.129293504050756,-0.38771264620679896,2.5484071091695197,0.6089634899239442,0.15541954063458763,0.39171015093961714,-0.26144449503194783,-0.047950335763920736,0.33097744574707816,-0.04097241322852684,0.04813889900157398
2.043989865155367,-4.9142299537364105,0.8900509108884321,26.44316802487593,-2.871158129742039,-0.5698834220680575,-4.231290336588936,-6.1062640515270825,0.8766695437829415,-13.941171248563627,39.68907720223989,6.420956015965937,-3.8734018665597136,13.21295020795524,-1.747462110112712,-7.591994091403464,3.5415526029039417,1.5932349052072328,-50.96681409656654,9.490639002981004,4.165603043247377,44.45681650058566,-12.177927679607075,0.16727671615316433,4.114776886222301,-0.6037530996042804,0.268826431116026,5.427233095435872,-3.601104298097403,0.09573640123502189,1.3951890060681227,-1.9961733905410584,-0.23854689656069364,2.2304183265326367,0.8141319010341106,-0.11855577545657024,0.23092145256048702,-0.17954496643887727,-0.04774714454619349,0.2581253959185973,0.001733764432644819,-0.0011374217225197827
1.5851683394072664,-6.3401337238132145,1.156072204196382,24.10310195221037,-2.606533339828822,-0.3588949598959597,-8.70581205560393,-8.670668562050627,0.6636554180036713,-12.440385774183108,39.283670001703896,7.003688810690093,-4.278181089487362,13.819087353050687,-1.7638433873492356,-6.949134290740628,3.2643763055463846,1.7083569919864066,-50.36710377377779,11.218427485501557,3.201158419251154,43.261322435548855,-2.424464729175445,-6.314449779078187,4.39253834752213,-1.4659948822801885,-0.42811669572660466,3.4456336059842902,-3.9013585705913685,-1.447044461502923,1.0983259893097836,-1.3693325786415593,-0.2708594165196738,2.5093652169499534,1.1845415328314264,-0.13658987446673676,0.2263575346243487,-0.0982248835193484,-0.09292914774496677,0.24547241181003562,0.10320515496318676,-0.02172530463998173
2.336435688581905,-9.070049204333813,1.5968352160998494,20.135023667085463,-2.868675300083239,-0.15986079922807162,-9.423097207394104,-14.43133699256472,0.9633101429790053,-15.826737776966757,35.85372876331284,6.780312810582886,-4.678572695698615,14.55526366782707,-1.6428852285474773,-6.370814017041747,2.8963621409641243,1.6244561964408308,-51.0157107351638,4.708988161983194,3.587661192249741,46.413441943311255,-8.934015531442563,-9.666882754149876,5.132780637917201,-2.2463973418807393,-0.46092902545951914,3.4481062865172407,-3.3341371199762397,-1.070794519849553,1.2543303569051325,-1.7715542126472235,-0.13378065582778315,2.8907701994311368,0.8831567627967868,0.16168996321772994,0.28234125557612083,-0.211283204601034,-0.03586234077051623,0.30641021060273893,0.05214649639814621,-0.005482334737861268
2.143462020878781,-11.16858368571727,2.016091903822761,17.40230521119528,-2.617844319623099,0.0771368041046614,-11.4709629832726,-17.123724213432254,1.2060373641363067,-15.543459441120838,32.7642669235521,6.815976922036366,-5.055362545988042,15.34290089549413,-1.5663875496805568,-5.9226602828365325,2.607845614817328,1.6485258391834237,-47.13008094264127,3.65329457287692,3.9142015949750935,45.06014440507267,-3.560493972951982,-4.663569396484579,5.045110867147983,-2.2899072801538027,-0.3851856147709958,4.01574220555443,-2.873304769947243,-0.48405730443989736,0.9895209918060763,-1.560691163192453,0.05754493690688687,2.7335510005100856,0.6372909987526185,0.09659289960000464,0.09929978961026462,-0.12723532543445068,0.05254091846253553,0.32691509823501474,-0.00836267693740807,-0.023769362325345333
1.2345098108752324,-12.628293310362876,2.5481532213203733,14.84344406846507,-2.571209983113327,0.26192603032278733,-17.066704114526875,-18.239135216498223,3.033975011511962,-15.646836799270346,28.37046147307036,5.512557554243052,-5.3319658923611755,16.216655665188597,-1.566174362594034,-5.453062015134647,2.3948268581449064,1.7444385748552524,-47.224043002576444,6.250402323192125,3.446996645344797,39.5949146536637,-2.597186147237561,-3.3581628376744805,5.029352485861611,-2.120439620291627,-0.7368797440760582,5.032435219021738,-4.043978714780113,-0.6214752919994593,1.057954649790639,-1.0615978304266405,-0.15856919568449662,2.2385705750247067,1.0603056064854866,-0.37479800967453064,0.15654844545459237,-0.02517565372399965,-0.032007363761671875,0.26285637824225644,0.06482308741725577,-0.06257033364092739
1.463350839946765,-14.610533129186566,2.676485760916436,11.592875221953998,-2.8693389082565055,0.5095442984615458,-14.839019604966824,-20.605329702371762,3.2258020868724295,-18.638502586518097,23.215175683326773,5.033390075601269,-5.743982407950527,17.167665753608624,-1.581427921679074,-5.359396686125657,2.3205303736486385,1.740469945320495,-45.06318620822583,1.1444688692786051,4.667665418239737,46.398533486215214,-9.931758726230832,-0.8466862928496193,2.8490182494413796,-0.7140693868614172,-0.15811689488947248,3.9265581796293594,-4.476826646129886,-1.2474306896578207,1.514112248480908,-1.5410567249322298,-0.42580654003285257,2.0831623480700694,1.0520401526402208,-0.31026764604478113,0.2225375106393174,-0.16442308104201983,-0.05199346280877286,0.1398534791011418,0.03253465739933706,-0.024305736894936005
0.09614292742743058,-15.771698341535004,2.85130769022732,9.586011300168543,-2.14372196208635,0.8646212521696126,-15.962632682922813,-21.910472641007928,3.1696251307042114,-12.236284250679848,21.023446221710692,6.042662654369614,-6.275834700426541,17.86369518444836,-1.5580362588974956,-5.40959259994449,2.444350074892225,1.9303259325359987,-33.5332040625381,0.860187000084022,5.370099534977133,42.53996696690228,-4.248550613528457,-3.4965741872120804,3.9041959166165956,-1.2244024507342772,-0.3836563016367361,2.43364108543744,-3.4229036840966813,-1.749066469554882,1.4577646260856323,-1.27206788085433,-0.2594586915039845,2.728751731427015,0.942498627437469,0.044754487958188725,0.2502529914073023,-0.1284373655474898,-0.0026647371600408234,0.2675436440031738,0.027906938121670964,9.218254478564804e-05
-1.2023467842532698,-16.08348970949138,2.961346287887908,7.462937115294638,-1.7027241421337662,1.2018529863737473,-20.250855414972282,-23.140972418162484,2.608660812173964,-12.081356121946772,16.672545190859513,5.2190613167395075,-6.657396651018321,18.598176092276546,-1.3676018581381897,-5.677065187257946,2.6542863324228403,2.1717055920565187,-33.614083606498454,1.9899024762984772,2.1089685219032615,27.045312441177337,0.2612047689511677,-6.359271996823999,5.4183792956983226,-1.8282064819696877,-0.1691381288090246,3.3750365560798947,-3.4989939013160916,-0.9619442290717677,0.16632664667823172,-0.9917142682242974,0.3349528642629573,2.4441446825818933,0.9213845228066857,0.019429805132662962,0.10305830880977461,-0.03793257214801479,-0.003151289623452417,0.2776071987975658,0.10046781962451559,-0.036930555960784796
-1.5303002174467595,-17.724405631067814,3.3025528349475,4.591131585322266,-1.448912106865214,1.3325329425916344,-22.959330625247784,-27.21551187189921,4.345582779564652,-16.30581912683603,14.855364777793955,4.640531547443353,-6.840379120389327,19.485438219804127,-1.2807078390402418,-6.243249436166911,2.803547146730509,2.201833016097527,-37.621977020335144,2.890681612339843,2.9490587751184596,25.90338547655437,-8.002777627206108,0.908737549322121,5.360411217276238,-1.1522054293027781,0.6838088809202444,6.993527475396385,-3.6096098274956723,0.9931632820656529,0.7152406265668068,-2.1070950761835143,0.32154100517705647,2.3743228786135573,1.0383960606983522,-0.2383424070630674,0.17063530508148222,-0.08886066958355092,-0.03167452950824441,0.43538434269512644,0.13845474117525713,-0.06998622744548286
-2.0145602048323035,-18.538426301397696,3.313740019979564,2.090296083774472,-1.2293661714471487,1.217554399369386,-21.45587527594709,-27.501285503507347,4.722481455022438,-13.255672665375858,15.045364918136407,4.112346382311794,-7.112930059260808,20.214807618480865,-1.2272977382344468,-7.129531127466364,3.118752150820615,2.1842633306903934,-25.862468628033618,6.31223318172093,4.607753934381819,33.061311639617024,-4.667175377797839,1.3284367563549384,5.095293534127003,-0.824937865162581,0.3276953553139659,5.673369590443677,-3.634930426352532,0.6850639589618879,1.8143895383122284,-2.0987000618452276,-0.16588425798316486,1.9040531735190913,0.7529492736816984,-0.08289532649333703,0.32516014961180945,-0.061145057384248365,-0.06480291059242621,0.21506593676585462,-0.0043983752080147855,0.03295419524429906
-2.720290675430927,-19.180908623286452,2.9531898651049304,-1.0847530927739488,-0.09888266617291795,1.4392638137987956,-22.281129237343162,-28.492914643450906,2.9237948197321533,-11.048003546500961,12.780654642733765,4.70502878773255,-7.450656731154299,20.86730633813799,-1.2861078145337634,-8.609525096882004,3.8748613317493286,2.1986509208466947,-18.2803378038612,3.1224323349870766,3.343394397978319,33.842089364759616,-0.7644574695009118,-5.450408792664675,4.187177204051787,-1.999570481317715,-0.6237631236476496,3.3463428688310155,-3.609021169994871,-0.7724476569922406,1.0428869154654083,-1.1042691827541857,-0.0809276637745514,2.112352483561918,0.7400014846416075,-0.028332607021747957,0.16561790173339386,-0.1689842059937892,0.051052065007939885,0.19276216810959582,-0.029605149576047998,0.03697624757924683
-3.7926115249671235,-19.756533459797264,2.8475089787606,-3.7534372461626733,-0.4811153340793737,1.360268905803016,-30.310671283527366,-30.106175017556208,3.982263662603674,-11.590626878892218,5.352825725939558,3.1779577830960966,-7.571552921010001,20.574284591267826,-1.4028070554750753,-9.863682460978202,4.326443899054224,2.0625607687499103,-27.013832792204845,-0.031774972858037834,-0.015531570450195598,26.201929804840347,1.8523597212365284,-3.6118092539362356,4.495608706977044,-2.097530847516337,-0.31035034730867717,4.330656295754935,-3.8984213355836337,-0.6044921212830656,0.2700318411455817,-1.1501505421865879,0.299945896372923,2.3636661941717523,0.9481313315715048,-0.21723286580831003,0.039105956336168764,-0.21339771498623814,0.10742950829714575,0.24808555953204664,0.07611639597121746,-0.06415793590835223
-5.512806095466568,-21.156090362137707,2.7195241253249893,-5.575516232035429,0.9224666733813123,1.3166473814128985,-32.238117079334806,-37.146101997290316,4.095905714970723,-11.73672502028577,8.874369542805935,3.3600986706016696,-7.730089339132422,20.284624891271587,-1.5719511101791142,-10.98789037230487,4.6536861914709835,2.004275770656673,-24.083619024945676,2.2580769442851176,2.0695943238183006,19.43402428729235,-6.231805010984,2.885742346829843,4.64279706929273,-0.9907802511168361,0.25967306974989773,4.769521501851184,-3.7120715789184078,-0.051074333336542474,0.4332860091461895,-1.5026165208206914,0.20359457726270583,1.9742984967744563,0.7820076573780645,-0.3278982347756195,0.13717310504420352,-0.17635174156026207,-0.010228058654647109,0.20937913351957516,0.0591037942960402,-0.08944709665536024
-7.715730141653765,-21.12027698571117,2.517806609356357,-9.30620598275683,0.9454171939520246,1.2003578568624247,-33.20187780134701,-34.48850579510159,3.9009044340157355,-13.77484545314348,7.500555945408641,2.6386349327332193,-7.632159222104403,20.31452085876281,-1.7165806052191213,-12.190997367545064,5.143395183654086,1.8701057472734894,-21.77778611616202,7.556375157808684,1.6113246354452164,26.394632999585415,-15.160394491690285,2.486226139161659,4.779241390456192,-0.8211771774122222,0.1070223197594191,5.507764971060183,-4.465015658297971,0.23815175401621852,0.8352693585873951,-1.3015644041096723,0.06387643351664767,2.2315024145299707,0.6643151572765289,-0.17265034863775933,0.16840048869323937,-0.07456622484382483,-0.02231668734757881,0.2825314276394574,0.00021208102650533165,-0.03166552860759364
-8.6525164824401,-22.154409040555596,2.1868531320840088,-11.514789354558838,0.8381920244145366,1.131661717104371,-33.592134853311926,-32.04861101740428,3.394305464805677,-12.416719764028148,0.7225036608697631,1.6530128894499503,-7.59843526349531,20.29577089112721,-1.8708888192984228,-13.413160495303389,5.580966580867062,1.708851950482636,-15.931606740196564,7.047352350188006,-2.1283342955454545,24.759989633938062,-6.961380225994181,-3.4923487831260904,5.580438072369119,-1.126426208955106,-0.29765100112178816,5.289522842827121,-3.9300870403419808,0.7987350530706865,1.283076894539738,-1.3430771346936015,-0.1696644208256209,2.1814353557016797,0.42843238966815844,0.2217826137579993,0.22185545419118013,-0.07966944539978818,-0.04838732554764082,0.2357156728518501,-0.011289771748117646,0.033326922293492184
-10.142510532258763,-22.690551503987635,2.0014400800061387,-13.00783949447724,2.6916800355784,1.1093024674781922,-34.988728598037525,-37.87417354065601,3.3147043067545496,-11.42007483982664,3.5042000302615173,1.6480084760132054,-7.608207592320725,20.213726911343496,-1.986051035550882,-14.566444399797334,5.935101813609185,1.580659853897931,-14.31107850210586,3.299860258607948,-1.0534522351163096,23.797300971451318,1.5057926334689067,-1.4310727028492183,4.879843523438717,-1.7917113926578203,-0.4878195607197222,4.425131873401319,-3.149320537296765,0.6579360829023462,1.3934264732953332,-1.6275941108306524,-0.2403285211069031,1.828489626903451,0.5145084961808195,0.1730628983874929,0.2904388189010958,-0.21500646601333173,-0.05323292872139351,0.20869867628152539,0.023891037435595893,0.04278737746850387
-13.312042206915635,-22.37259010521436,1.9807694820355857,-15.275127956018848,2.273903493519299,0.8713267125030403,-43.66319781515094,-37.731294294384085,3.511191173846364,-14.119244698742596,3.7232687942499068,0.5635117531582569,-7.31354576901955,19.875518814254416,-2.1248423822376994,-15.263427840401297,6.210039150177851,1.5059566193566678,-24.785192817279757,6.483031539056485,-2.6109720552715245,23.756783711435478,-7.33850136980899,3.036843077912739,3.3850977381862295,-1.6836849779261505,-0.3998198634841933,5.283215218437795,-4.293229287351853,0.1925812530684755,1.35915543224255,-1.5891030777226431,-0.261535915337215,2.3670577056844078,0.8652117563451306,-0.027748472542189956,0.2599684603040871,-0.23264460386930408,-0.03561830627801521,0.3349148608022915,0.02163221042984474,0.05018323463404291
-13.649980690285092,-23.175697096744315,1.8051178819033433,-14.74326279818808,1.9598288521196094,0.7996994579700588,-42.37803065069252,-40.17876743450085,3.448595156912279,-9.33892954759976,0.664992426774034,0.9262984643675461,-7.093856665043015,19.784817322684578,-2.120951034325698,-15.594449774315445,6.503744186142446,1.4504512191115464,-14.75102476000162,3.112971663548979,-2.5877190821412097,15.048242244729055,-12.205134991389555,0.16414659869861628,5.003842693273033,-1.008674601139702,-0.051899839082871664,5.245760289091459,-4.921420969422723,-0.009610003713107468,1.2491653359336394,-1.5437031554778877,-0.042906817994506505,2.3788538577291285,0.6943167793106134,-0.09480491593722673,0.25094260960810694,-0.19697318553315216,0.010382295103938847,0.28997702255662794,-0.016619930627274213,0.007927729357890406
-13.848971143863919,-23.353727654618826,1.565820875260951,-15.887308202308459,2.5415904041200235,0.7942015809474192,-40.2307112308944,-40.150830425045186,3.359679707150904,-12.359380783872464,1.2620215316177503,1.4106114055877614,-7.251944644698105,19.832398970535362,-2.143215647864929,-15.82835779747847,6.559057584185014,1.2424820959118594,-13.979721190433043,6.307790698900359,-1.141507248710381,18.170648302315236,-11.51287555798165,0.01595082381858312,6.054436864704304,-1.1219425791213444,-0.009193472453539131,4.9427488566586035,-3.6671253542600675,0.966988573953346,0.9813090991323294,-1.481745709539037,0.08578637769055511,1.5190675079539273,0.21578733956473106,-0.02517309142730105,0.17830753275522462,-0.08921582051091456,-0.002477725848325613,0.08763454158367155,-0.03646573906099802,-0.03511882840429599
-14.70833309643647,-22.997788901206544,1.2173777253262126,-16.096612420963485,2.3065937154911564,0.4776470828100015,-42.38502373543877,-39.23051486764398,2.5047760260418603,-15.41178410124027,2.1926270309580427,0.5563726757756371,-7.651042705354557,20.00523923580122,-2.2830986663767106,-15.489529612865311,6.374078597254558,0.9902551763661906,-20.668763489660996,9.551913518947966,-1.1788245130119568,27.44935183693208,-10.98809045389055,2.018171440703773,4.873767033642543,-1.6428636882068284,-0.11632276605020579,4.329728656251783,-3.446429200569553,0.6644776724400155,0.9655442420347355,-1.8213759785320212,-0.0158037846811172,1.4315177268061854,0.3307016820996926,0.01085967268226264,0.11448752666862916,-0.2044405123676058,0.01882048292321494,0.09933780408128834,-0.025752613312236,0.009939798311893414
-14.145545571348421,-22.993801254074256,0.9984823305335427,-14.516202762073117,2.566888222829222,0.15303970676292816,-41.288913382585115,-40.71060248457234,2.7430880915344296,-8.617643532101784,4.474369132425882,1.1533547943138969,-7.903853897348875,20.672520487009947,-2.351029690383597,-14.274582897152857,5.862445227573765,0.6318903118954982,-7.829952740654369,11.180263058647114,0.6838673764061141,9.152738881226846,-7.188380276836245,5.868805265683926,4.2671466018229225,-0.9139734374939446,0.3867331254021742,5.417162639482806,-4.779514728347731,0.8929023522644637,0.9639620361105131,-1.7442038204234274,0.12506278083567787,1.4217318960817529,0.3815597159358258,-0.023253002384720195,0.17634551660507455,-0.14905785564706703,0.028410248094296143,0.15638982322819145,-0.0515863861358321,0.04256696583344102
-14.958899978113227,-22.886637554965198,0.7725959318262865,-14.229171320791549,1.718820368855324,0.08066196201441099,-45.036407368731396,-37.6626139003767,2.498524729615067,-10.04585500115101,1.8729642677061522,1.4060041561747258,-7.911072746825722,21.866717495980946,-2.5594450841743788,-12.650169559409536,5.193332878235632,0.33662542517495125,-14.657329686588175,13.094016915690968,-2.348070896438313,5.360615654067849,-12.578163239840288,4.513732556924995,4.340618085161719,-0.23982642597119902,0.6233396426020399,5.417999254655171,-4.263665363188256,0.9475483050793654,0.559750267070383,-1.4696987632706777,0.19820963973672664,1.8399070369809094,0.34235840010599555,0.15643950550455443,0.11219806260797782,-0.06178885554129904,0.0010575787589036025,0.19575534944453743,-0.02361148624589724,0.033842244644923664
-16.344897792292844,-23.491551357038695,0.37367574374747276,-14.294709201218913,0.039118159497124744,-0.26562805755748775,-45.916752076503414,-39.09766211379702,1.2012488044796703,-13.078805874906989,-3.8499189857539657,-1.3090940690907606,-7.687348387334521,23.090200557029014,-2.9756351236704854,-11.143284546786855,4.425536806422894,0.033104494036869374,-17.915902020965905,5.286589644240493,-5.51326239367391,22.43765142690025,-12.092783984448133,-0.40950816546953744,4.88110212597534,-1.302365576126008,0.16442174784592503,4.394576857849598,-3.6815374595365165,0.01817387019705642,0.6014676442780384,-1.881923758875561,0.10713496088932205,2.2809103907791703,0.5476001871265372,0.11146030154553574,0.20002544409213383,-0.2861611533506693,-0.0071181292604600745,0.2742235326492186,-0.005213896068880477,0.028684379310265472
-17.41318947864859,-23.664463851089188,0.17583251512074044,-12.018991639459326,0.4658745800268952,-0.4972831650154561,-47.28487582198624,-43.195367219818834,0.955829860309491,-6.455962708272322,-2.0440125823599624,-0.9161114308293865,-7.670281565804113,24.455407224169733,-3.255684870895429,-9.779095929059656,3.499229645119842,-0.26866030259802487,-8.833548011489869,4.025869490341384,-2.8711260848832683,18.481097957531937,-8.978842987298313,0.16942529168048487,4.566634651312408,-1.4478148908738977,0.01876647222898345,4.308731907484688,-3.7771384912823605,0.14408004230332194,1.0143374220301218,-1.7248137123119407,0.05220566027277724,1.9604697657069359,0.4155709229831478,0.09509981538316309,0.3048234420857083,-0.23436025206498198,-0.005072605117651334,0.2349741205527207,-0.04797482928014579,0.04540991986777675
-16.946206291055866,-23.2871709531878,0.020353896558349464,-9.915703321377796,0.7047569319986603,-0.5601844125307578,-47.12304748560287,-41.61755588691904,1.9852291911393962,-3.2241077058463863,1.6054582591035975,0.012803198280097787,-8.100886906022659,25.473157657588747,-3.3871823116049735,-8.132716985221457,2.5859343795259067,-0.3701762536469291,-4.445228802069544,13.818701510490055,-0.6537956718148754,1.9941553971864494,-11.149224323280414,1.8724730775315757,4.58155643285307,-1.3758540485629593,-0.02507265440995467,5.426312183852593,-4.093711569508844,0.7545272579046769,0.5623145495975694,-1.241633838679396,0.26641110247743977,1.541600764012996,0.46738783359645353,-0.13413052130967873,0.06839670485777344,-0.09977016507283525,0.09572271240788907,0.15065483933148466,-0.012272205618007903,-0.015233742356218797
-18.535143957586907,-22.857528315407798,0.001378045198739459,-9.14095194295132,0.03243258885207466,-0.5055551514329135,-50.45300536724821,-38.092035788615455,1.5455351640107147,-4.75919422873183,-1.0389705100179418,-1.3970017569607136,-8.58369329342516,26.472557886343235,-3.483222556949585,-6.511805141631861,2.025757103966763,-0.34376052764327214,-9.625444350471199,15.23927423277915,-3.6540003525081985,4.831901830716336,-15.704898991850824,2.154812760412854,5.268542794850456,-1.1361243407756525,0.32632332633623423,5.713392007912682,-3.715604296951799,0.9376322877885254,0.27425896486814133,-1.8122718165746252,0.2609270471433235,1.7422641442946425,0.6085157141660191,-0.04663417414317047,-0.02383052354435896,-0.19610191425551693,0.06719658501163303,0.2241332242776741,0.05056335534174044,-0.0064856165384937015
-19.619954905416748,-23.223783637941004,0.018912090774090062,-7.145120788663609,-0.25605004437684686,-0.2756360966138384,-51.86736617553961,-39.246290936453356,0.43322338870442656,-1.064276458890221,-4.465520817300847,-1.0789153742218403,-9.1582781694267,27.751108604664324,-3.4608182639780725,-5.348346001826255,1.6792416012199785,-0.2429184649631659,-7.435388901665555,8.040519378381905,-4.398942341530927,15.440082355359793,-13.502731053537975,2.299626102592985,4.637866981237966,-0.14865520712103425,0.5797999096143694,4.8552049257838705,-4.076270295266321,0.10964683997029984,0.649097595836269,-1.7164121991614159,0.01742624777402872,1.8076436968434502,0.6404638607077393,-0.11779729823077117,0.11533499967265595,-0.13903846038975745,-0.025526233525853183,0.1918207563483629,0.05527257956683817,-0.031549389325572934
-18.875945687871226,-22.97521193720807,0.22675307631086147,-5.578075004036789,-0.32274942047795224,-0.12285123548812409,-50.64186402216737,-38.4262430832008,1.9000612315418262,2.8211475680184086,-3.466079771980741,-0.3397091179519981,-10.037401405554341,28.680048061116754,-3.2739414821083215,-4.678716356889551,1.3996903711929873,-0.028121922736057778,-0.7891703497284875,10.265188129603747,-1.0456627502034803,11.891502658102432,-13.092339854178869,2.6931777763978455,4.521759933669881,-1.339073877508385,0.1877702832700183,5.471474764810767,-5.1412040386700495,-0.3914567981779192,0.6193733515830426,-1.7429617382830498,0.18660152748700046,2.163844225601982,0.7711494267662612,-0.30491932111337045,0.17128668884707499,-0.20480231557087453,0.03157487524225692,0.2692693545206415,0.030758186677040295,-0.05623437050668113
-18.77218308233083,-23.324441118734086,0.2629233076136832,-4.873237473402218,0.38763734191465055,0.04352801441417393,-50.37255104699717,-34.98250229792186,1.13869874986853,5.636798969187446,-2.1642198412085314,0.0005937740063723315,-10.818202560924435,29.4568549444475,-3.0781114878897378,-4.424504127192071,1.3580802957337366,0.12887617669049134,3.5544446972684556,17.304309845493115,-2.827500999115217,9.231912115620062,-15.353752262980601,0.5228724975853609,5.005438282642387,-1.5559863750926721,-0.05091126642970391,5.429101223252431,-4.373203061868026,0.06238908215640579,0.3948249266305061,-1.3733660101607807,0.2889588881206697,2.2027075474291635,0.5953276572052373,-0.053352058166950746,0.11182492215247748,-0.10575852810593231,0.04636908164100155,0.27294267584613785,-0.024444537687198675,0.0136424561877623
-19.321967575662477,-23.522163814554524,0.4525886082177028,-3.858263067439205,0.8072141196999687,0.11475651450208565,-54.1486973540292,-35.71769632780513,1.2865306528307128,7.754336640219186,-1.529864602181307,0.4953062148287903,-11.627203180558174,30.59490814938883,-2.9660123504938163,-4.319734331721347,1.352734188486213,0.20014085540137136,0.41177453290749383,18.70202857102863,-1.9974686053956725,6.5485654485115585,-17.075688997488545,-0.19779493053279668,5.117283574530477,-0.6689568603649996,0.06113524452042584,4.863410000233369,-3.5107131051826928,0.4722744020570232,0.41974946945042935,-1.0646572789354871,0.1623801849085156,1.8469878592783828,0.4452403371059708,0.1385335831978867,0.11091128350882708,-0.0304444778182253,0.002669037764356479,0.20867584401334763,-0.016406531487249555,0.045390764717387726
-19.871233994908707,-23.453891800852,0.5646771959882213,-4.435918440178988,0.6494620219379261,0.09490439103957282,-57.54011200534961,-39.58400688971687,1.535176571229022,6.065388901245864,-0.4880270239222208,0.6636415757853729,-12.710640773308342,32.296517931742045,-2.95353627138791,-4.49842216367823,1.56519367340641,0.21878847676153257,-6.537885302619862,15.00476415545501,-0.8452670472697427,2.8667223829847623,-17.277014508932808,3.6289344072070144,5.206153343440873,-0.9380638262240616,0.2756617647564963,4.875922655414324,-3.3497625322396787,0.5835245624138643,0.2922084797693657,-1.5627105425924752,0.24012498900106766,1.75610010566805,0.35251212073194677,0.08904171199211842,0.08578250570745886,-0.1319024357491173,0.01863554148724332,0.2067425434671115,-0.01677485010720033,0.009089195402070857
-19.961800018263524,-23.979818234366316,0.5081625257603951,-4.530441695178921,0.07834495138298934,0.16576632575278516,-55.0475628161964,-41.610168871307096,1.329158786355432,7.887059867816468,-3.8145461521106627,-0.24089117306977892,-13.619198236623394,33.9046728780641,-3.0021262652648764,-4.536750838947778,1.5697547362287831,0.3189399894404972,1.0801066837381288,9.68730508524102,-1.6336870075666654,12.2134820119476,-12.326592259427597,5.055711958897783,4.128623345230849,-1.3690723576162613,0.3030657957153152,5.094948557521157,-4.473396710670157,0.28534981862879405,0.5969335996855019,-1.9150312434516223,0.188573249804033,1.4373719766627409,0.482289935838988,-0.052797553242130355,0.16185608706497784,-0.2616846247952189,0.05285809180222807,0.1053714886626724,-0.01637434301698949,0.011707710178941474
-21.497545474657855,-24.130513885200237,0.5942615763934352,-3.5558353222317414,0.29118737989351984,0.3038702546291129,-56.67059632200977,-42.699482733946056,1.2489819224173542,8.757625386100594,-4.642839315344344,-0.8348576976836976,-14.395194643432479,35.58725290413075,-3.153078940815609,-3.977356777438506,1.3189804897242954,0.4446869202163565,0.111520425493842,7.894917426117279,-1.6720898853504216,20.819253572164897,-10.084853847269729,1.5673357983333498,3.9629382717621344,-0.8632425932865568,0.4709241683487304,4.83251430315389,-4.18955616335459,-0.060801331139601435,1.0065442668040407,-2.1053592856085706,-0.004619317696786006,1.6380757100022458,0.6324017827495538,-0.12506917325851016,0.24864097956787257,-0.2950260570090694,0.021738664442059907,0.16877920119068401,0.027780533909760374,-0.02356130656216605
-23.079310865875847,-24.16218819879084,0.9823079430221707,-1.326446465520924,0.6257093255639222,0.190705789250612,-63.29846640896063,-39.71444484694494,2.279207756222909,14.458742958054266,-3.086750457500546,-1.3575139687659787,-15.064562841096706,37.40908545854739,-3.169216806001943,-2.395438626951763,0.8307444835811487,0.4571858674491303,-0.03591658141469546,16.230276998065758,-4.023322780330198,10.83875679637353,-11.629714516304496,0.6385921428182015,5.19109994150536,-0.33449237025055983,0.20256136800896657,5.932401534902165,-3.730099261054973,0.9135696953536965,1.04730439844081,-1.60280087574366,-0.18923208651377263,2.0833254097247984,0.4266494831102618,0.2211702812414887,0.3040994650122508,-0.10484465030979187,-0.11194865422095573,0.30218687957383716,-0.03604567908666079,0.059661537540758994
-23.577971346407995,-25.132372999611515,1.269693712389414,1.3423642106824658,0.7942371378284685,0.5492828110029191,-63.054264141329654,-40.111425299588255,2.3463735196951543,18.518112594935154,-3.157434821424596,0.3101258351403336,-15.72923742179,39.07299518085471,-3.089191461422248,-0.511110630813818,0.16358691781962745,0.6606924095522266,5.284739511368197,15.90153339551639,-2.2536876007520665,0.33420760475591854,-21.0187983925287,2.6208098552908847,5.676574674494815,-0.9974120281328633,-0.05421521844282148,6.471251099386993,-3.660770974600936,1.1381339679230678,0.480724713902471,-1.179211733967922,0.2136305844278101,1.768029994153688,0.6240553596393986,-0.0005750669818431343,0.11864398550493592,-0.03542611374858917,0.014776652720065987,0.2776145667066234,-0.0010806426634779006,0.03372331997907111
-24.430924325621707,-24.535762399938427,1.478223356001699,3.2189370764942873,0.6260514065626467,0.9336719685232084,-62.30651009141605,-37.41085025029288,2.4604835479726423,17.18898956946914,-2.613030583134863,2.182620065483577,-16.615469871026704,40.8183256940778,-3.0845636730621537,0.6584717048650648,-0.24901578739052638,0.933141212063846,3.4759178738998964,18.029147182644127,1.3472562987750922,4.439054125117176,-20.734977945077926,1.9927444831980123,5.5329643921640415,-0.8758798646188213,0.23890683504200283,5.228829976354381,-3.491752112183386,0.09720363046208866,0.25479498528130057,-1.5449779389889826,0.32897160374702644,1.4540279399005522,0.8579102527732683,-0.3712786506323686,0.03703380350196116,-0.1817917758243881,0.07677445570717342,0.1737937008482345,0.05689521515133797,-0.061075499853153206
-24.67235002105125,-23.02385196436456,1.700677569004659,3.3913166069317437,0.6517473038912404,0.5648192117797782,-64.72066574104888,-36.36245351408463,2.6666528323024394,19.24517866917059,-1.6539230632384576,1.616036718732219,-17.482661038190436,42.73052742609252,-2.963817322320933,0.6440799301686561,-0.2511803851656769,0.6914240959707383,3.3388806214913624,22.11336461892878,0.13738676051826487,6.0431149487993325,-17.448676350737728,2.304750633533244,4.589998205874659,-1.2166223548501913,0.20353481081891747,5.640790933134479,-3.7259117489575586,0.5193729434805713,0.6350011240957987,-1.9866427783455085,0.11005906079920054,1.899866705308895,0.4578200139432575,-0.02420515736796632,0.13477744169662345,-0.27817587129522714,0.026404399025257454,0.21933748262422684,0.008846785931751078,-0.04801395881963399
-24.60406581159477,-22.255725582635836,2.0163458396546265,1.2351747830076567,0.4613138588270549,0.10588886918281165,-66.591315872313,-40.66872079681294,3.0127950700616735,17.779092665396767,-1.2772341937066185,-0.10750035378444618,-17.97545787341755,44.04901318565281,-2.767766993975895,0.23733589977888803,-0.2813907475219352,0.25335105303386735,-0.676609500057312,19.118457689715413,-1.2812773017218728,1.1303798198548918,-8.060787746258862,-0.34110712932377785,5.056939174690841,-1.567079492657637,-0.2947501212962555,6.1337038307511165,-4.275934248932677,0.6207948923558573,1.0033772055659003,-1.5057913872280064,0.05611213012145367,1.8598715509448958,0.5425761692979828,0.07104433302573916,0.17647990349401854,-0.09053968299705552,0.031293250742503526,0.2091703597305422,-0.024927465957885853,0.03320017050648011
-23.17838715888143,-21.3570297494867,2.0565932919147274,-0.375670142767198,0.636303949921799,0.3010296011941948,-60.37627253093011,-43.239887051015764,2.871721572478188,15.349092491039755,-3.503254477146735,-1.3577342988431798,-18.166590380836723,44.53260028087265,-2.5469538540537293,0.18910576365072526,-0.2827098384703239,0.26562317472829544,3.3224586584885727,12.466242589196185,-1.4826469846539265,8.160975240049037,-11.793429115976682,3.7218126694923046,5.722000717876522,-0.8809336818766974,-0.256892884840693,6.22140795605945,-3.8609622522096636,0.6548236913296047,1.003236317923236,-1.489505670138066,-0.1674739127010963,1.5645735012107957,0.9515309982029404,-0.039569787643267317,0.22730361247047995,-0.05573747507915741,-0.09373411937328281,0.13965232963270566,0.04850401232166186,0.06015693112654857
-23.11548381771832,-21.152302698438056,2.309141477778358,-0.6147681026045735,1.252441045898801,0.4992410258256748,-61.739347663278586,-40.16315930977674,3.441747907444494,12.767906140690657,-1.7641723514044714,-0.36964565177535075,-17.941929172599224,44.29638783319756,-2.480758488642961,0.3686478444722381,-0.2712169571435164,0.29004405687034257,-3.4109405647322055,18.73241877948316,-0.1944696084101734,15.902109657538428,-22.012003456444763,2.6477191435239917,5.729512090603421,-0.8722695339477311,0.17639474574341027,6.030126994878481,-3.831896043480559,0.6087883796756453,0.7228017288915647,-1.9264702410895582,0.10348308883130129,2.0702479149273394,0.702471408747831,0.21220850844381445,0.17057995558572633,-0.2000640210586958,-0.011063490404605652,0.2701200143859178,0.050804390090812133,0.04436119092784282
-20.9871176341588,-21.579359245872123,2.2062241571221675,-2.2073703499659887,0.16642916699405308,0.45007574617671,-57.43949519560013,-39.837552809176344,2.271036073786804,9.864376164990901,-4.8360157811721685,-0.9973208523921536,-17.96101856795501,43.78891801072364,-2.3386993841171986,0.21908058849569712,-0.3290367046590746,0.13802160617547327,-0.156345021870657,14.519346008113502,-3.0849128498625364,4.486076197076896,-16.468065591437902,-2.041696650599251,6.132042441332431,-1.5696289208594867,0.09920992395778297,5.974211138066231,-4.236340558357226,0.4191905263559448,0.4308320468870164,-1.9300093270758134,0.42105820021194906,1.4794920675645982,0.43113620406437,-0.2059374975464409,0.16499775290951735,-0.2525004645313728,0.05862972527842048,0.08764758903030903,-0.01661383545575415,-0.08469593817599122
-18.419202830335163,-22.48911519582019,2.5887824504246226,-2.02840412625911,-1.2488619234583693,0.30122426919663325,-54.88167460836346,-43.312047071109696,4.003490026748619,11.125106972907231,-7.816093136307606,-1.5625701802184855,-18.018026217143895,42.931229501095466,-2.0864724053056607,-0.07033202599927121,-0.39394704962558286,0.1803086339836307,4.63227339862898,8.35165402561978,-1.2621070426688452,3.919383781638164,-17.874750533474653,-1.9034314070622318,6.228535185944486,-0.8942213294166683,0.37413551377375215,5.144888283595004,-3.888327190629787,-0.4144027121297981,0.5739537543039483,-1.895341962065137,0.3955838622145892,1.9803743929787974,0.6636091333627492,-0.165593889752951,0.2130218778747912,-0.2275716247256351,0.04138788335484505,0.20129487539344923,0.01774404319839242,-0.07882121057171322
-16.11494905173607,-23.023037992999605,2.9526154220119625,-3.420321257884627,-1.3817724678009429,0.05328205733919263,-55.380366969405664,-43.0488292633643,5.244496156000527,8.389351864773355,-6.5773050064885625,-0.8824132456686209,-17.83973281817558,42.70995192005732,-1.8935356877795588,-1.493025701810404,0.09485826243284314,-0.020188732009311587,1.466436249455877,10.69605797582626,1.6447315322659457,8.693574141308163,-7.1436495462892555,-1.1890853715176724,5.434959770890184,-0.7032065743159989,-0.0600215597031925,5.357411929292431,-3.160792952230394,0.2716957932145065,0.9529779680091172,-1.695950967852793,-0.08879177806357198,2.348135739553648,0.8426278924836651,0.39538649803709924,0.16137080131733997,-0.18935917472046218,-0.014330926551967603,0.36698835953745534,0.05226089872668436,0.10186595146890547
-12.416434522788602,-23.67110038998153,2.83609230913843,-7.5048764715204,-0.5048107540210376,-0.19845563110358502,-46.44053108510476,-43.937709281976396,3.2986404599167476,2.965120008738755,-3.733333017274976,-0.3743842465395794,-17.32488992836558,42.800211825131775,-1.647080815377829,-4.1048804040032545,1.037175963175974,-0.4181923751491376,6.112810415499494,9.55313798350575,1.4048329553327004,2.8120066022894274,-12.021354720119144,1.0431085743972628,5.5450703702645345,-1.8953944825527729,-0.8242386734013586,5.954718114932995,-3.058758292913277,0.9206326843293247,0.6294793774859673,-1.1611320696141705,0.05676937730831933,1.5906769850129068,0.7401835501181363,0.07286284023380504,0.0990491910280797,-0.13466679219289063,0.0375364362995147,0.18040503940074903,-0.012209325992554344,0.06333993199370315
-9.570759812093867,-23.47338524562442,3.0781261984384907,-11.382658049379495,1.2899653664642934,-0.10755630627759637,-39.35938053711133,-44.182295334433164,3.4493046646525474,-4.088122223186242,4.267587770413316,1.4721604877881591,-16.187434578901943,41.46582402027891,-1.4436790591179338,-7.048033208892325,2.0900197396768716,-0.41409488008965517,0.6662192200931797,16.10463977389913,5.886365594117647,13.862267241713718,-13.937156752531658,3.997159975284189,6.364375971351268,-1.6322046869201667,-0.42338357403303073,6.999729737103606,-4.276366409976728,0.35032386853590636,0.8249046772292723,-1.6433507873415374,0.07200138254665467,1.5294580478018285,1.0169040677121854,-0.5311938956959692,0.21489767838510024,-0.18024240863981905,-0.005575062868685242,0.1738978307172142,0.028183055378960768,-0.08828721801264702
-6.700969540922549,-22.218230861132476,3.2763319743835595,-14.91394639576131,1.0287009465909078,0.060587505906072106,-36.38047209331916,-39.87839586522653,3.371533265782702,-11.885098396005306,3.1543828020273135,2.45794992612489,-15.029276258926313,39.20437179674371,-1.281952708961874,-11.303682659090459,4.0114215521140855,-0.03485052648392554,-9.13270824434026,14.55640638423517,5.8949288147815055,28.28726062158787,-2.7769567126591563,-2.334026808477276,6.409479801024178,-1.1566395416647932,-0.07372407105469708,6.082303702562599,-4.687508979570867,-0.5631209477722523,0.6039377376181235,-1.7284528993481716,0.0385334635531442,2.3476297788400062,1.123428297179014,-0.011335074700261743,0.18997587035864377,-0.13816307195898614,-0.06878757674434376,0.3198294068931248,0.08133800489511964,-0.012544226551023588
-1.373990378756374,-22.024041620164237,3.2878615225331176,-17.715136305735047,2.4396548441152475,0.3808580825714666,-31.686178044947443,-35.511612806076386,3.1431174426967825,-14.035779114377268,4.5571099817780185,2.4799736304386353,-13.636904852509751,36.83187746943097,-1.0605868824361877,-18.33674455818438,7.510320038348946,1.0302748460790812,-14.095696443693383,7.169905944144519,1.6563627980061892,16.611315906505407,-18.20982022885682,-2.831725174614575,5.586128591029973,-0.8153270380757579,-0.2059250145465484,5.450819937930858,-3.490347876587096,0.6070399051043194,0.642482583992577,-1.1304099143644744,-0.03601804598372163,1.8702963375012873,0.7469527976878312,0.5189275305009443,0.12892440358639928,0.002150051307283888,-0.04737351236074059,0.23134265562705117,0.014832594029995233,0.14455646938371014
5.0593248022934905,-20.816507409904023,2.562349892409844,-22.48318571844132,6.360991308206501,1.6298289380467759,-22.974104620780725,-33.22612829022429,1.4903130679184298,-22.075794710339927,10.517448284315721,2.904678102631969,-11.684161942694747,33.474216991201196,-0.991196801752792,-28.50099793305524,13.01063828350615,3.135068079679378,-25.678121765400274,1.144956418822674,-0.6150902498133829,23.603367459849427,-3.3840973780504235,-5.517557833389099,6.468116767227405,-2.317661360345872,-0.956948542749123,5.639568087621801,-3.928752069853193,-0.21160213209312617,1.13854695943496,-1.760428745889299,-0.23115648715234172,1.5325214060985233,1.0257694825102046,-0.19876604950002352,0.22891485759502092,-0.25967954655815434,-0.019183710223532692,0.1557886773029113,0.027121647984162247,-0.011853826583907007
9.985316012969951,-17.92604918156474,1.6046871846789728,-28.412766636584376,11.941631193861243,3.9233020546210504,-12.958337548646089,-25.777515304437827,1.384192774027606,-35.46740794867264,19.029572725340056,5.971884547102749,-8.991345615778538,28.530615801707338,-0.9473153294303467,-40.645881506636584,20.42957308343902,6.188436246738793,-43.770698692624215,2.286140007370035,1.960201464922431,49.133517049962556,8.318303270580408,-8.000829596847797,6.488283510438461,-3.283349298901194,-1.828811985791857,4.849429044091833,-5.003079914503331,-1.8114123443515564,1.8116499379444233,-1.6517463441810016,-0.48956852146705554,1.956993346188726,0.972816739888547,-0.3315422969428478,0.36204831012553623,-0.2964185424073426,-0.022505579156242527,0.1842959431699076,-0.033572848742697135,-0.08375426955655843
11.298523500204494,-14.116478510848602,0.6084341221238685,-33.0082105292177,18.684954318067355,6.52151031136863,-4.713658815864068,-16.93752353787504,-0.025479717441879077,-47.37440384367144,30.908401981428277,10.062005312274387,-6.405283766010441,23.2947441250078,-0.9280357566646935,-52.93064415697882,29.031406788403558,9.737019661458596,-63.67069777329347,8.054919072290584,3.0105050120144137,52.706566284054944,-17.509705353700685,-5.935458123828954,4.525783723436628,-1.2462574072332686,-1.1760990114492793,4.461759036383111,-4.031887594935783,-1.54395242130736,1.3170103597204337,-1.0204299018982215,-0.8658616795172364,2.6059566524808995,0.8567727855581211,0.19613121302389022,0.25475182870924634,-0.05798773903437787,-0.22313679615454385,0.2612415759509166,-0.05275150024707168,-0.008779061440820609
12.57399,-12.0942,-0.33967,-33.44994,26.4249,8.79809,3.98553,-12.59963,-1.1765,-50.38701,44.2406,14.30432,-4.51964,19.03471,-0.82703,-63.72711,37.29119,13.05342,-69.56774,12.28275,3.40716,59.14985,-13.05629,-3.49509,4.11691,-0.81739,-0.17646,4.36943,-2.65444,-1.2829,1.42093,-1.66922,-0.66497,3.24501,1.35073,0.60146,0.204,-0.13484,-0.08668,0.40708,0.17387,0.01844
,,,,,,,,,,,,,,,,,,,,,,,,,,,,,,,,,,,,,,,,,
,,,,,,,,,,,,,,,,,,,,,,,,,,,,,,,,,,,,,,,,,
,,,,,,,,,,,,,,,,,,,,,,,,,,,,,,,,,,,,,,,,,
,,,,,,,,,,,,,,,,,,,,,,,,,,,,,,,,,,,,,,,,,
,,,,,,,,,,,,,,,,,,,,,,,,,,,,,,,,,,,,,,,,,
,,,,,,,,,,,,,,,,,,,,,,,,,,,,,,,,,,,,,,,,,
,,,,,,,,,,,,,,,,,,,,,,,,,,,,,,,,,,,,,,,,,
,,,,,,,,,,,,,,,,,,,,,,,,,,,,,,,,,,,,,,,,,
,,,,,,,,,,,,,,,,,,,,,,,,,,,,,,,,,,,,,,,,,
,,,,,,,,,,,,,,,,,,,,,,,,,,,,,,,,,,,,,,,,,
,,,,,,,,,,,,,,,,,,,,,,,,,,,,,,,,,,,,,,,,,
,,,,,,,,,,,,,,,,,,,,,,,,,,,,,,,,,,,,,,,,,
,,,,,,,,,,,,,,,,,,,,,,,,,,,,,,,,,,,,,,,,,
,,,,,,,,,,,,,,,,,,,,,,,,,,,,,,,,,,,,,,,,,
,,,,,,,,,,,,,,,,,,,,,,,,,,,,,,,,,,,,,,,,,
,,,,,,,,,,,,,,,,,,,,,,,,,,,,,,,,,,,,,,,,,
,,,,,,,,,,,,,,,,,,,,,,,,,,,,,,,,,,,,,,,,,
,,,,,,,,,,,,,,,,,,,,,,,,,,,,,,,,,,,,,,,,,
,,,,,,,,,,,,,,,,,,,,,,,,,,,,,,,,,,,,,,,,,
,,,,,,,,,,,,,,,,,,,,,,,,,,,,,,,,,,,,,,,,,
,,,,,,,,,,,,,,,,,,,,,,,,,,,,,,,,,,,,,,,,,
,,,,,,,,,,,,,,,,,,,,,,,,,,,,,,,,,,,,,,,,,
,,,,,,,,,,,,,,,,,,,,,,,,,,,,,,,,,,,,,,,,,
,,,,,,,,,,,,,,,,,,,,,,,,,,,,,,,,,,,,,,,,,
,,,,,,,,,,,,,,,,,,,,,,,,,,,,,,,,,,,,,,,,,
,,,,,,,,,,,,,,,,,,,,,,,,,,,,,,,,,,,,,,,,,
,,,,,,,,,,,,,,,,,,,,,,,,,,,,,,,,,,,,,,,,,
,,,,,,,,,,,,,,,,,,,,,,,,,,,,,,,,,,,,,,,,,
,,,,,,,,,,,,,,,,,,,,,,,,,,,,,,,,,,,,,,,,,
,,,,,,,,,,,,,,,,,,,,,,,,,,,,,,,,,,,,,,,,,
,,,,,,,,,,,,,,,,,,,,,,,,,,,,,,,,,,,,,,,,,
,,,,,,,,,,,,,,,,,,,,,,,,,,,,,,,,,,,,,,,,,
,,,,,,,,,,,,,,,,,,,,,,,,,,,,,,,,,,,,,,,,,
,,,,,,,,,,,,,,,,,,,,,,,,,,,,,,,,,,,,,,,,,
,,,,,,,,,,,,,,,,,,,,,,,,,,,,,,,,,,,,,,,,,
,,,,,,,,,,,,,,,,,,,,,,,,,,,,,,,,,,,,,,,,,
,,,,,,,,,,,,,,,,,,,,,,,,,,,,,,,,,,,,,,,,,
,,,,,,,,,,,,,,,,,,,,,,,,,,,,,,,,,,,,,,,,,
,,,,,,,,,,,,,,,,,,,,,,,,,,,,,,,,,,,,,,,,,
,,,,,,,,,,,,,,,,,,,,,,,,,,,,,,,,,,,,,,,,,
,,,,,,,,,,,,,,,,,,,,,,,,,,,,,,,,,,,,,,,,,
,,,,,,,,,,,,,,,,,,,,,,,,,,,,,,,,,,,,,,,,,
,,,,,,,,,,,,,,,,,,,,,,,,,,,,,,,,,,,,,,,,,
,,,,,,,,,,,,,,,,,,,,,,,,,,,,,,,,,,,,,,,,,
,,,,,,,,,,,,,,,,,,,,,,,,,,,,,,,,,,,,,,,,,
,,,,,,,,,,,,,,,,,,,,,,,,,,,,,,,,,,,,,,,,,
,,,,,,,,,,,,,,,,,,,,,,,,,,,,,,,,,,,,,,,,,
,,,,,,,,,,,,,,,,,,,,,,,,,,,,,,,,,,,,,,,,,
,,,,,,,,,,,,,,,,,,,,,,,,,,,,,,,,,,,,,,,,,
,,,,,,,,,,,,,,,,,,,,,,,,,,,,,,,,,,,,,,,,,
,,,,,,,,,,,,,,,,,,,,,,,,,,,,,,,,,,,,,,,,,
,,,,,,,,,,,,,,,,,,,,,,,,,,,,,,,,,,,,,,,,,
,,,,,,,,,,,,,,,,,,,,,,,,,,,,,,,,,,,,,,,,,
,,,,,,,,,,,,,,,,,,,,,,,,,,,,,,,,,,,,,,,,,
,,,,,,,,,,,,,,,,,,,,,,,,,,,,,,,,,,,,,,,,,
,,,,,,,,,,,,,,,,,,,,,,,,,,,,,,,,,,,,,,,,,
,,,,,,,,,,,,,,,,,,,,,,,,,,,,,,,,,,,,,,,,,
,,,,,,,,,,,,,,,,,,,,,,,,,,,,,,,,,,,,,,,,,
,,,,,,,,,,,,,,,,,,,,,,,,,,,,,,,,,,,,,,,,,
,,,,,,,,,,,,,,,,,,,,,,,,,,,,,,,,,,,,,,,,,
,,,,,,,,,,,,,,,,,,,,,,,,,,,,,,,,,,,,,,,,,
