PaulMeinheit/Bachelor_Muay_Thai/processed_Data/N2/roundhouse/scaled/JointMoments/scaled0.csv
R_KNEE_MOMENT,R_KNEE_MOMENT,R_KNEE_MOMENT,L_KNEE_MOMENT,L_KNEE_MOMENT,L_KNEE_MOMENT,R_HIP_MOMENT,R_HIP_MOMENT,R_HIP_MOMENT,L_HIP_MOMENT,L_HIP_MOMENT,L_HIP_MOMENT,R_ANKLE_MOMENT,R_ANKLE_MOMENT,R_ANKLE_MOMENT,L_ANKLE_MOMENT,L_ANKLE_MOMENT,L_ANKLE_MOMENT,WAIST_JOINT_MOMENT,WAIST_JOINT_MOMENT,WAIST_JOINT_MOMENT,NECK_MOMENT,NECK_MOMENT,NECK_MOMENT,L_SHOULDER_MOMENT,L_SHOULDER_MOMENT,L_SHOULDER_MOMENT,R_SHOULDER_MOMENT,R_SHOULDER_MOMENT,R_SHOULDER_MOMENT,L_ELBOW_MOMENT,L_ELBOW_MOMENT,L_ELBOW_MOMENT,R_ELBOW_MOMENT,R_ELBOW_MOMENT,R_ELBOW_MOMENT,L_WRIST_MOMENT,L_WRIST_MOMENT,L_WRIST_MOMENT,R_WRIST_MOMENT,R_WRIST_MOMENT,R_WRIST_MOMENT
X,Y,Z,X,Y,Z,X,Y,Z,X,Y,Z,X,Y,Z,X,Y,Z,X,Y,Z,X,Y,Z,X,Y,Z,X,Y,Z,X,Y,Z,X,Y,Z,X,Y,Z,X,Y,Z
-0.059250000000000004,-0.10257,-0.7997700000000001,-1.2171199999999998,-5.363840000000001,0.32806,-6.978750000000001,1.8358600000000007,-1.3014200000000002,-15.45896,15.666420000000002,5.660220000000001,-1.6207100000000003,20.957160000000002,-4.479010000000001,1.9825900000000003,-2.05437,0.54142,-20.973410000000005,25.376890000000003,5.28527,3.1344800000000004,-11.523270000000004,-6.053030000000001,1.0780600000000002,-2.52027,-0.33174000000000003,-3.3004200000000004,1.5347900000000003,-0.72337,0.84448,-1.5511700000000004,-0.12655000000000002,-0.5762600000000001,-1.14045,0.006480000000000003,-0.04701000000000001,-0.0054600000000000004,0.03733000000000001,-0.09202,-0.16540000000000005,-0.010120000000000004
0.7305410242549325,1.6201747850376789,-1.3891204459986204,-1.6391529076680842,-5.315533432726382,0.1129042050223461,-0.5600435259951989,5.190244340634339,-1.4322061457386603,-6.663605307735243,14.331335565820948,4.0916235257206175,-1.4848205882630778,21.788652279608055,-4.777400487538466,2.14199580327726,-2.4924509269069572,0.4950737468588145,1.6197139380919008,26.25843932923378,3.766095552306856,4.656976744757427,-5.178040666264207,7.289826101538928,3.142955042899508,-0.4551214500206893,0.8496746387205616,-3.8766842969047977,-0.9764481475346756,1.0930977756519091,0.6220021662999955,-1.9386928019244611,0.5789156061355281,-0.6553555990326856,-1.2101085665728766,0.22161390275283707,0.11413093620657674,-0.13928515640070688,0.04895571638534964,-0.09689042032466742,-0.1654330721714467,0.07046986154665967
1.3532671712572362,2.1310035243167587,-1.7036515148836684,-0.6136310419854393,-8.657550529009434,-0.4593943945748327,-4.332269165728542,2.1435962653056944,-1.2805218350001868,-9.404157209304003,2.113662437470086,1.0258974411915573,-1.7104450078331594,22.700148705705175,-5.02788093502552,2.4657195944172376,-2.651926607197824,0.5204267600502627,-10.3599471271291,6.857699988782912,-1.1939643422193502,5.224034572867413,-5.3384743007737105,5.443287293395369,4.0385422299186695,-1.6225074493317269,0.6362436610691843,-2.5658704783387223,-0.9930116323633129,0.9629376930347073,1.1065446573725755,-2.1358614599182966,0.6529775621170345,-0.4780118632046713,-1.5191024525728785,0.5748355854031161,0.2789241863425856,-0.24227683612038525,0.17127114931382365,-0.07973351782231879,-0.2173892353592226,0.15589698544256334
-2.044450593082072,2.0988600630404544,-1.9959262245656448,-1.5506895307307338,-7.364929694109296,-0.48195932632575134,-12.577467621987937,7.944880779827736,-4.234332628179427,-8.77549692439425,9.148306527878992,3.3740962681511446,-2.045720526334513,23.608557648880215,-5.7181811261753355,2.718390518385931,-3.138184756727036,0.049924980809448176,-11.69363765825134,26.91925778251759,-1.9109120282119887,1.5714159888712917,-10.068613076347662,-1.7443104955135418,3.343733154797755,-0.44655040695052906,-0.7765989835591799,-3.3359493166393372,-0.7621529608493887,0.5755114506756567,1.6425388731976192,-1.873723947895122,-1.0204810537437237,-0.7293297955851284,-1.8630831704726225,0.5027248260041101,0.3519899047589554,-0.10042665611925077,-0.2248256654108662,-0.12781054085242619,-0.2376818463783645,0.08317013484154331
-1.124427436939225,5.610105865703645,-2.9502648793513218,-1.286786166645681,-9.682900040583613,-0.8177408735980014,-5.749097669389083,12.464964870472773,-4.602212268586523,-8.724420203117932,-2.648129712766725,1.4354281910103905,-1.8616157834379827,25.382206568840846,-6.212104086021379,3.2933952815975456,-3.7935913002194894,-0.0967439396171207,-3.8862611429953104,14.819601489695886,-5.722617824582057,-2.515655132993446,-10.836430078310222,8.818742618218044,3.398709830478686,-0.04532035389129155,1.539134873340996,-1.6388217294991867,-0.4864651745256853,0.8148198920288304,0.04226102819550772,-2.3207449724722777,0.9035949691049417,-0.07458358207172011,-0.851984882252457,0.40393570189013833,0.09129292026306647,-0.20905186737865927,0.009387615438500913,-0.08987695802820267,-0.11172164693861163,0.03409854383215966
-1.0839644799052415,5.35760407404739,-3.086855056431256,-2.9419869793506717,-8.392438922404642,-0.5826844461220331,-7.744643776273318,9.801461259078991,-3.399429905445244,-10.217219599824189,1.9696345094467442,1.6603936067701324,-1.6374033425434524,27.553083156277207,-6.85642554145791,3.437084501188075,-4.029026850782217,-0.12616954734168848,-3.664211561717874,19.37050423135068,-3.822144101331464,6.958138160727113,-14.952571136455884,1.4923447746568868,2.18314321160893,-1.950663711403195,-0.010491540560438767,-4.910190733571445,-0.30071378002749327,0.9763299665998012,1.0552582842077558,-2.0513540469180858,-0.0006371449904666385,-1.1128313420947686,-1.6936123558617426,0.40851048558418346,0.1485702818433095,-0.22286768587780453,0.09863314006322514,-0.1882157260359096,-0.14098736622315802,0.012906560840106048
-4.374603799350294,7.153666764787434,-3.5390200796126896,-1.7684334770787544,-7.377715798789407,-0.522150297296515,-18.96139729201851,13.240359063064165,-4.196784600803333,-8.02832422318464,10.400353241025664,3.3780038459909583,-2.021614610741256,29.938387236265168,-7.8449679756473465,3.7214952182345167,-4.902833766919427,-0.29872831160502517,-17.444017889009015,32.83486697779019,-0.2907569861316226,-1.3577977181961716,-8.484991108182088,7.588436771184164,3.3071582217958935,-0.792356784512523,-0.04830179829565671,-4.01104305680179,-4.443483163918063,3.6392159200326204,0.6140775660343202,-1.198318309103597,-0.024614899041215315,-0.5178469213052179,-3.0054193076118207,1.463399149448187,0.1417568429919231,0.023472205837498355,-0.09404244734860642,0.009257476194086466,-0.3694362834890975,0.3565824431591232
-2.820124112160562,8.41031772264211,-4.637007829268568,-0.9332773659092464,-8.841687303191609,-0.8720464747614161,-5.076292902050447,16.735397754027847,-6.528665699158727,-5.920274838269447,-0.5645634957825494,1.6593098064471483,-2.405799660516535,32.60378461621622,-8.611768865567445,4.248251554501092,-5.689871680604036,-0.6334721801095408,9.614324723908565,23.220933198347097,-8.104416895932111,-21.50201330235407,-1.4375125713992192,11.825838340060427,4.68790674035554,-0.6484831424214001,0.19938834257035576,-1.7807725505583492,-3.6870454044030265,2.8105572837001156,0.7231045859295036,-1.3496544150297132,0.28994399810982874,-0.2785069040743291,-1.6141796991919453,0.853178060259166,0.12271010688573224,-0.02497638571160863,0.05855078030517093,-0.04555283176831117,-0.06440078000008467,0.06808934859594881
-3.0866446767769227,9.822395694142498,-5.3120963879299845,0.13478344544127133,-10.553803998807687,-1.6327247742096522,-8.569256458778726,20.985872824890087,-7.054433525449153,-11.112952953494114,1.688296821749627,0.8381239398575406,-2.570858081675171,35.25143482242716,-9.567844441075271,4.4433452600426815,-6.221033581808617,-1.0435510549026932,-1.0185178683928853,36.4301794494305,-10.47554821344857,0.24440324637400201,-19.552874450039486,10.821484322695767,5.092526833419564,0.056075871956500975,1.1506299552191754,0.5282513383085068,-3.6008101873855973,2.5192461969994793,-0.31052001792781636,-1.8747742072405547,0.9135822077528074,0.5085158273570058,-2.0870996172929583,1.510193244236156,-0.042029880802395794,-0.2826345081182746,0.1421796843543719,0.021206474589349947,-0.3803651028596948,0.376667391711415
-5.235467667374406,11.018015819248705,-5.626258261956487,-0.4385807644142451,-9.894016796633164,-1.092532670661331,-18.233443768000843,15.320711101448373,-6.429789137350568,-8.525069702214596,3.261932581511252,2.531164251568863,-2.7715717744123456,38.07214601144351,-10.499180673015054,4.938411105320597,-6.622723389083587,-0.8612326105818796,-2.2564758769771047,27.527392398690584,-4.215272128597591,-2.872029235573312,-2.922544958603533,11.295399655495734,3.114167806142146,-0.23999538498591333,0.9880168098498722,0.8412669865125643,-5.558713158850112,3.9246224520230224,0.20947274754908385,-1.8673321801971408,0.5884324362721377,0.6545713526984942,-2.326261843101364,1.7070126588095256,-0.008652558402660606,-0.16600583150026388,0.129329659463372,0.03108104613240407,-0.2987511338505606,0.306198090615335
-6.857100601550735,14.024712346088537,-6.352449116836993,-0.36488505254457765,-8.024973498910354,-0.7164300452127468,-21.533879619269854,23.45720155707516,-6.803772408485035,-10.077597993163739,16.280822164333685,5.851498025234468,-2.699567394819879,40.57990193158834,-11.490171514140599,5.8105700554379425,-7.458583704107669,-1.0390999552567652,-14.321386317615593,55.05109155035032,0.364213374360848,-7.472650295368567,-10.433311684806048,12.620029792695552,3.550961765799359,0.35510534696576335,0.6341517408637172,-3.0955288940378556,-2.9046640991272077,3.011671351778525,0.7445005198631744,-1.4780217246257819,0.11899913402510919,-0.1457425077112346,-1.8845181154869066,1.0581625853156524,0.10438480038840871,0.04799898191482143,0.01851868083680346,0.03252776726911636,-0.07944419037100445,0.12195289830126478
-7.849583820044851,17.45786901344962,-7.283364531425594,3.621210270352116,-9.73923210691884,-1.1624944794766727,-19.43214476570596,30.52774865729082,-9.944133936081169,-3.763003087394287,10.731953109425897,6.140497439393515,-2.3043461412762447,43.42674828812256,-12.196302115232903,6.516827589081096,-7.607052091964009,-1.1481761305726297,0.055787189969182416,58.14974843092622,-3.528400964168867,3.324894880774845,-22.296582935340933,21.54165241803553,6.0682412351904365,0.7587089212979575,0.801430840858261,5.046768205654359,-5.641783839815568,3.769578516517158,-0.09319898959545315,-1.5220093378343047,0.3350199177638751,2.0365323410568936,-2.1149472105911715,2.4844227866964297,0.23100998579142148,0.026772357745502393,-0.19356541002401356,0.25800566695196087,-0.19798056396241268,0.457543476994558
-9.0745796599945,16.674151851959262,-7.433404394808409,2.5074124027125295,-10.087820553458892,-0.8891433847818649,-26.163172160556073,23.365900112707767,-10.806657486959514,-11.172456928843783,5.762237673265382,5.7861385593475125,-2.193672265207924,45.96900937916922,-12.854092190984877,7.043846159526939,-7.7630143596812395,-1.2021841942435147,-18.026600328803855,39.314818177758745,-8.145323242337152,-15.709873385433532,-22.7346693578985,12.678510517598713,5.928133044750635,-1.5545579778156515,0.041318360870776845,2.3816619346857086,-5.946197142597705,4.187691585521438,-0.5726092476293129,-1.9190837132363008,0.6523140623695752,1.2760384969382497,-2.7750499055948294,2.3224069333850843,0.016391457069622646,-0.365271137519324,0.05151713926521346,0.16354833054016463,-0.3570816804421334,0.4693913116728798
-8.168497779503559,22.35923432898029,-8.346677209786165,2.5620679091953154,-10.33440341445995,-1.453856173853645,-17.814220493453348,31.74554836450366,-7.62096498628551,-6.684964901261494,10.130811485758226,1.2075185699785624,-2.3318397277389185,47.92273295228612,-13.533361547791575,7.887342069430178,-8.371552502998465,-1.0758052973682353,5.786031908464794,53.25649237404684,-5.092336680600773,-13.053236701075255,-4.8131365052441,17.957251564714365,2.865299858212791,0.4002969696892781,3.079108212833226,6.468131996287145,-5.731761274638256,3.2527269255628175,-1.8723462168425473,-1.5939192669353928,2.446742863723086,1.8369136616104669,-1.8484306814193454,2.0416456120689053,-0.43362445311676573,-0.189937659804423,0.4136895544272043,0.05677068827810721,-0.20921194479661762,0.2317529093968464
-9.601679639128669,23.78473888371578,-8.76791529959566,4.553762237556467,-13.3099933644568,-1.969965025038736,-24.31907156717881,32.427659125571694,-9.310834222940471,-1.9223403286033347,-7.109491350485414,-2.8622177903867523,-2.498680645299356,49.99782660541139,-14.090956918015198,8.02319885647067,-8.160606466340054,-1.0918026652619361,0.7459337782079203,39.52009271401771,-19.216580182580472,-4.263931013105427,-70.97607410468605,7.221067891591735,3.824748112475845,0.9187027476989732,0.845890317214051,2.2032985373111713,-2.1563583952839918,2.0763417825832815,-0.2535941413220853,-0.4449023734583404,0.4833398524098976,1.3755703846073002,-1.583081596297095,1.7621140402851585,0.004738870831788629,0.3287206225655274,-0.09284891911495065,0.1144004447393622,-0.15709276800701996,0.28783458443691995
-12.92561601536607,26.77339371920485,-9.369347341784433,5.680412267805675,-10.304985675632956,-0.8118652425963107,-36.12172570067469,41.05547815993731,-12.866009355543241,-7.508438457250902,2.629724443263918,4.089151834749362,-2.6238892944782997,51.850506631955454,-14.744162871427504,8.028488840700579,-7.705202154490238,-0.8861204320474529,-24.55703569489474,58.475336833818965,-16.8284011164685,-16.16871557827004,-42.46022225305709,19.12069616156336,6.305387199221252,1.6422008003088204,1.2383734285314676,3.612856104734066,-4.738686355019521,4.062012275598274,-1.5344487743045772,-0.7371637001607634,1.0338498413631085,2.4502908973131237,-2.6356854378778203,2.5806447607056295,-0.3384525544792252,0.17522867899993644,-0.0543768591029367,0.38185972826531417,-0.2885470796398987,0.5105396684374405
-13.02890905673775,28.939099836373682,-10.07750957520659,3.533956730102271,-8.29501467697531,-0.6366855440742215,-31.22928259406897,39.4563373794133,-13.426076954315974,-13.724782154591225,14.68179978776279,6.4542839791354645,-2.673450126971136,52.71302473213833,-15.162439509442825,7.432933353269312,-7.551801771303491,-0.962423845771826,-16.69133328226231,64.72455248716822,-4.036349949008228,-43.47942605134754,4.2009656392263315,24.956961821164374,4.459926611738003,2.1515955313414024,2.968797980965895,9.197751889330227,0.45129417740013333,0.8051631695749223,-1.9799082727369874,-0.8471853534222316,2.243099575997732,3.0147486325320756,0.19834340068177633,1.9289012927936002,-0.408012557575854,-0.08514405807606855,0.2870384125722198,0.3528473294806839,0.0400226182380109,0.2894412361911683
-12.203282962811013,29.282529883371044,-10.52698827064227,4.421627179890258,-10.367113583942057,-1.027234816946941,-24.36668068582424,37.29858163953273,-10.89403331863377,-10.7177482895353,3.9531578376885417,1.2500788936713079,-3.042823598676886,53.33767003987275,-15.78984855048616,6.456728938367972,-7.362592919681479,-0.76175577688396,-1.6123061543172392,52.86584879974995,-9.38636754680551,-1.9420833120771321,-27.975604892673573,10.931009124105877,0.6514996085807098,1.9032769507623724,1.64778237393577,4.189434460905343,2.3709287052171115,-0.8632425381212121,-1.1280715160150374,0.6672906994142436,1.176279647634706,1.1540724458493532,0.01914441236341219,0.9288288373226838,-0.14438936798532181,0.16351025755847282,0.07553783894650413,-0.024099300622445606,-0.07234399773571436,0.059089909542192884
-17.529922137919794,32.71970698402931,-11.312789734604586,8.30200461280231,-9.068367303780583,-0.33628557470147036,-37.42019190904801,43.04905478620065,-12.976453395227603,-0.3326086228044687,-5.571311057309361,0.006414784080796442,-3.6265341780487197,53.4021152336971,-16.615749394414323,6.025690667329084,-6.4270340249520395,-0.0558684019039291,-3.7117559510349274,48.26289852057796,-18.1770198862954,-3.03848465699021,-38.97355108609145,22.6695757366344,1.159616946056695,3.9905121662228566,5.576132370643948,8.046678771027251,-6.160961663189574,4.2156434595131556,-2.3673104064367902,-0.5995477224034451,2.8930593106217786,3.3922421004145358,-3.413593904508817,2.8279700002268764,-0.5297634984241656,-0.005306904544822035,0.3662231024808711,0.34280582501765977,-0.3986722162867691,0.4266449834319959
-14.932009456849944,32.31126638995732,-11.84973041129241,7.694753560736554,-7.838208894294187,-0.23061141076751587,-31.52546451855444,41.60722069224514,-13.067237475946394,0.31407390647150163,-6.137219595043083,-2.207888737129829,-4.137774406277444,52.46358430523314,-16.742690304108432,4.729132675827968,-5.982890620134518,0.1344256841864066,-0.09797395940052586,48.26274783519279,-23.329112293932372,-51.272714495649616,-42.31757566370718,20.081399375031268,-1.6761621169405168,5.4110982495281705,8.303063772289196,6.6961284319563195,-1.2878923682190186,1.4692280088345635,-2.719372342225942,-0.5474918593379092,3.767675909722084,3.011623371391433,-2.882285761003842,2.2802986226021105,-0.7366145380462723,-0.15076752710641322,0.6808501986944194,0.3021837442329593,-0.51323996919781,0.35410601945628856
-14.655745602991093,32.22828612573176,-12.439042095978454,8.833283422398571,-6.039496421020984,0.32781347003719985,-28.596457041553663,38.86556537763317,-14.724767948876416,-6.389764624120746,2.626783925042078,2.0312969813587576,-4.677008194970125,51.67003439986326,-17.012844970287485,3.8535926085859247,-5.754747947996863,0.44851294137224035,-6.97182985748851,58.39585914849576,-17.323569488867516,-24.57574706407234,-39.54955699657093,31.978887821174936,-1.3954027201647086,3.4506190459361767,8.097594124204237,8.173550354059879,-5.004430233205766,4.412560481368831,-1.9413909494437798,-1.2043322491552815,4.172993260880664,3.9388935593652303,-3.2490649063144064,3.1892465382889856,-0.2734496678904385,-0.36312467155095074,0.5390643109409,0.43841664172475864,-0.5871699715166789,0.5685357240547866
-15.42297465354802,33.55137230901557,-12.7038352217996,11.632279288137271,-5.138275377502765,-0.3349164330799935,-31.738391683705835,41.67539367132447,-13.81944288851144,3.535425644331818,8.616536601059845,6.009584015469728,-4.937511881645319,51.798235119126105,-17.477689072685745,3.2942402003666755,-6.088382022371275,-0.21725584224594982,2.7719259974016293,66.81800117501358,-10.895248162982288,16.72796787885035,-48.820180002448524,18.157396035111354,-0.03274836789344257,2.7436410945675984,4.7196925864055705,9.133457077718353,0.6544832938867665,3.7608257563462395,-0.6582776858898673,-0.9312265828248358,1.8504222082606707,4.618097329684689,-1.659204400600589,3.768173565654145,-0.3701698177166577,-0.22333893631334492,0.529119161623455,0.4963762105454935,-0.351742518720559,0.5546528293277233
-17.867699585018173,33.29025456960956,-12.723013702500714,9.24675640764239,-7.394065316234006,-0.8034254540296717,-45.27639638476186,40.5569747238493,-14.496923336199348,-3.195191556495521,-0.39438190360993564,-2.3891377063861303,-4.92407895617284,52.54972652537854,-18.089457691273935,3.426932063332773,-6.542343444607736,-0.5106051925167061,-28.320112878928285,59.207137083312496,-26.871560978441142,-38.68461377230169,-57.249742210801614,22.77713441048468,-5.887365621600415,5.05587713120191,7.840608814672976,9.712964694482991,0.5066845963523318,2.8747366612221756,-1.4370050237817034,0.9575511727917498,2.2842473644140275,4.062830174328108,-2.628164610020003,2.7419197764591656,-0.31761327452548305,0.04600341344477453,0.5702835490404393,0.35986932271329525,-0.5014759759619781,0.2788152493954153
-16.812505587022798,31.76433335552359,-12.472739515427712,8.967698120507652,-7.682059383919017,-0.6043078205107747,-37.273325006826134,40.57519877442384,-13.65938563927082,1.9826079970914605,-1.7524253666702991,0.02896333749240168,-5.047845880639733,54.395808416876825,-18.622730046088062,3.761699729008689,-7.380923395069673,-0.5286345864673151,-5.386601627833278,63.09446098219908,-26.725911344961528,-42.29468522804268,-15.391223684775284,7.993976970732337,-4.905606009327087,5.644834330509081,6.881138851174764,1.2508844981789675,-0.8890672648529365,1.1513762348466194,0.47484431520706827,0.5559498670114117,0.28216356323643543,3.218291010812401,-2.609655717298975,1.9318699056812318,0.341182538690072,0.03144056773274506,0.1513846661653407,0.34015529626849544,-0.3582389028280836,0.3654918624385469
-15.187307196580583,31.41282088274558,-12.000828910784282,3.104688113184879,-7.268584371562977,-0.4345818987508143,-29.48085562482964,31.236628559578605,-10.886015696634479,-26.371196150213525,3.355721868190953,-2.7185100349668603,-4.841483341742766,57.37445309551765,-18.943500863201773,4.262749311053444,-8.435289235005168,-0.42174660682294113,-28.922282876330982,58.75561006414009,-19.25066286606607,-13.19181407717358,-53.08859806161804,31.12931575998243,-2.563679591516748,8.458025838338193,13.053841725914738,6.6506954573876165,0.5004767099911891,3.204136620210367,0.7132666406980115,-0.5947367414654704,3.0299959634173854,4.294978968154143,-2.017343877956253,2.7937225941136092,0.23057292782166464,-0.2705659227545487,0.039048209186494334,0.6121083606276373,-0.45857858514185545,0.3760878898005521
-15.358352950094638,36.87081523392293,-12.516917315563868,9.273977805241723,-8.58405788111396,-0.2909827879043084,-33.0861072884002,37.92226169113718,-10.229738529096446,2.0474834120384164,-0.15566436339386136,5.074983809931747,-4.370880741039283,61.07105837571093,-19.640283310986867,5.936748325338245,-10.549940335917078,-0.7879494859056241,-1.779556190298681,60.68135478227808,-11.927737381852214,-6.294084922986425,-81.20061819816021,34.299855101156936,-11.95552485802808,2.455501924689456,5.737056332960834,7.886012683238531,-1.2677387538733564,2.9992032876347614,-0.1302421081158999,-1.204054508374387,-3.524191835847358,3.4456484138445824,-2.486187512015809,1.4606960402762479,0.22166883299354306,-0.23573617183068477,-0.20797075693780584,0.1803148814786716,-0.4508457990993779,-0.27597660337183216
-16.691615694066503,42.42709722076684,-13.26662054973039,10.285416983584119,-6.281819757525207,-0.7289025013102202,-38.15986000775388,37.48291787213738,-12.2057552962988,8.278124402726078,6.598875274692177,7.624176803181588,-3.6026361860491356,65.32386725850873,-20.36098304143699,7.09139667358646,-12.600697705935337,-1.1486672761622374,8.566262476912467,71.90800789917783,-16.40001741952354,-20.00797972808813,-49.71460896981069,4.3263170851125174,-7.783937831725084,-4.007418290099191,-0.8799529825975567,2.056661773607773,-2.4522312199773384,0.20378246382511317,2.439747268304536,-3.0280528950566916,-5.647792926128894,3.0556466340576027,-2.373564182495452,0.6189742949050926,0.69911955191038,-0.37919338631562566,-0.3781328432475437,0.35355859259200195,-0.4348554494632103,0.12045070788434192
-13.070227243000279,44.290845088409064,-13.176284858981942,14.775135583514166,-8.052609721864425,-1.0307330942578434,-28.428147081093297,29.479663518664818,-9.6641470380373,-21.547883880852797,1.566017571700606,-6.83778734079299,-3.0770337842912467,69.1719557650483,-20.72518341718698,9.735523439786677,-14.724950482923271,-1.0554865639897075,-23.46246342673749,60.320623613383425,-25.320364302224224,6.307500323782725,-21.129894912842733,7.459491770934535,-1.3623526049829666,-0.44896675299249456,1.4440990333536021,-4.53130450443458,0.014257260951555079,-1.7230211026225917,2.3010945545941692,-1.78776330030575,-1.9612533584699867,0.4738921816296611,-0.14316057112312613,0.18654908998978828,0.44031148906518713,-0.3744296208128426,-0.4730404814358236,-0.051952358133706404,0.11433498397113495,0.16342748616615269
-13.50293266866961,46.658422239872024,-11.64589219339239,26.092585892351686,-8.300271457536132,-0.5440632693866984,-28.17545084772628,21.38586322856361,-0.9580464299228938,9.18230502429388,3.8894746134999503,-0.6713941310016525,-2.8217874853946294,71.5645865274443,-20.514863420162563,10.879103136458685,-17.062726202654517,-1.0614670321100235,11.584683174863134,43.71300619113762,-6.135764858089221,9.97686178907268,-37.568262207140215,9.257048880429492,1.7073420103499004,-7.701976877922738,-9.095425108625978,-1.0246546599982564,1.2566907297984398,1.2413812327843938,4.304129078062631,-5.199572185061059,-9.118313638731395,-0.1655051671127324,0.3705869557614427,1.1136154629931252,0.8215233270245543,-0.7068529595933409,-1.6653136558423536,-0.028916738716542875,0.05646719684043958,-0.10219942275984895
-9.894534049089463,45.94102795934008,-10.885681379986515,27.21653389287182,-6.751387349812381,-1.363122641614657,-15.138576153781457,19.67531161219709,-2.3203029007155327,-6.066922105879372,29.479625400028272,12.391550198269485,-3.8930322908877217,69.92372269276945,-19.111480976213688,11.185836512747176,-19.783984661544036,-1.7432850778503215,-9.631898484810856,75.757789407309,13.037896082033523,11.977800105344372,-33.45190433373088,3.491985675145656,-1.4882975983398337,2.700655252041187,1.0503222771326437,-11.13600057411224,3.527130058950384,-6.17763706340972,3.169369692664533,-0.2961354435813307,-2.0352362328695612,-2.64779923800467,1.0888038527429018,-2.802045353421275,0.4825288494503153,0.21950171078691946,-0.2497906764812134,-0.49737530727738416,0.3641647142270623,-0.7325139237144047
-6.7255062253617695,32.71503975063434,-6.421573513014513,32.59260402772199,-12.97931756459907,-2.0117926013709946,-10.021939929108296,-2.670498293447742,3.024368610953031,-8.399897521427686,17.2618956757115,5.329445116574446,-5.466582867335903,62.16288469959817,-16.060024890068103,12.234574661498199,-22.66767316241904,-2.548905883877653,-18.307136758346093,26.49235562735247,14.745847856751304,25.759036462677827,4.787856836847095,-14.94193470070478,6.376627112371445,-4.566094877880588,-3.8311869003382304,-6.222366650201413,-3.002733441019547,-6.986593753432488,4.691965593102568,-1.758381888672643,-2.762003636488624,-3.549788270725402,1.266060029418531,-4.215630076183493,0.6849168075658001,-0.1704867538337272,-0.5134398384527052,-0.7367563898584545,0.4692203754184464,-0.604869011055072
-5.74871864121224,23.853516323255548,-2.6953664362111933,44.83881934600344,-20.14457753492618,-1.3437776978449483,-10.000745334985314,-5.941064385818362,7.552909773680776,26.97946146104278,-9.999416860770417,-0.8129977332256925,-7.349435668727335,48.48921777799826,-11.516772733659613,12.957534551325159,-25.08283488610446,-3.0421518055425167,22.28652675350595,-21.74770696609625,2.682363963132357,38.15373804207575,-5.032390545617288,-18.959810933587313,10.906322468200887,-3.3338029457101523,-4.456969886719945,-4.726558043460933,-3.1509667560401478,-6.896777096147235,5.2091810104000125,-1.7184101933006863,-1.8728045324679168,-1.1782942367395597,0.298114901031326,-3.4798459076938753,0.48721817354353897,-0.2562917690901529,-0.2749967730349374,-0.17442926761987293,0.08664127564200433,-0.4583064942467341
-4.66186235443456,8.266241581651563,3.223078086508741,53.88975764983631,-18.23345864014396,-1.385879159460373,5.551418877332996,-20.433616044794118,16.084237496557314,37.05978231358871,7.584852528108518,10.270857546063343,-7.888377989591021,30.094648159685935,-5.764824330246531,13.835931281670428,-27.465361472556022,-3.17514487378694,52.47751151082535,-12.11930983028696,34.184994886219755,20.81522648053521,27.000887751147467,-29.731680842274592,18.75910221472472,-6.356398245334129,-7.914063083228736,-11.810934339172324,-0.27864353328147,-9.165027250191795,7.044562069694449,-1.2012427217201647,-2.6638000505286206,-3.6030672238078787,0.9178332607054784,-3.53725520888187,0.8747841178971194,0.06274778155872958,-0.20416216693597747,-0.7284401274554939,0.3759467869182774,-0.688916281041639
-0.7432263232111973,4.186354012798467,2.1587065199556297,59.34161791006937,-19.34211841358451,-2.5978351142120286,32.523665844008406,-19.306259138078556,17.214791667780343,36.335722741132706,17.355275421446866,9.672314083559385,-6.365888391111852,14.705611910786724,-1.596497384496236,15.406246368942078,-30.896617254494032,-4.015129924393171,67.20363617184822,-12.112707826983454,44.98188744940564,45.888783339280835,35.64354755021132,-33.066382697200304,22.014072929389037,-4.40958188078678,-9.543531613688087,-14.078289141840946,3.362019942269768,-9.138643624948713,9.380649080154239,-1.3435402029124703,-4.420977861976819,-4.654370205085964,0.8251597401242068,-3.8344862059746965,1.2120841314984734,0.02065362236585566,-0.5671066031450809,-0.7149281857486476,0.2774139888781336,-0.9071578919447467
-11.756302877855347,16.20255897592105,-4.333649494722097,66.64096593772518,-19.704363496054302,-2.7833239872644002,19.873040435249727,-21.035088040532642,14.06260423155829,23.31885622536714,7.823121073989253,1.5100948065561042,-4.628814637158531,6.833667047046889,-0.637912525326344,18.09094284601455,-33.861200539244955,-4.295769459343945,27.32105573183433,-59.26728025474936,36.621407235771144,73.14500420758411,49.30063236887816,-28.605271391864992,17.00734395599155,2.761367313640984,-4.861121320078726,-15.809943342056464,-5.5312636025582425,-22.51654358952756,10.406122688748573,0.0850362096614085,-2.370527673374582,-2.087778066464295,-0.45874231960674644,-9.163739588588209,1.638637421374806,-0.010888544088532019,-0.6912186546525277,-0.049917618948989356,-0.009271522303323091,-1.41456635592978
-5.298174746579406,5.02803864656962,-3.866978266651231,75.84773476151187,-22.34823084235747,-2.4220515368552826,36.23988196154977,-16.494910550165528,16.838347814714904,15.466202874034888,3.387138113240993,1.3009639138604636,-0.6180366795375496,-1.227848598802384,-0.313853540711293,20.264815093734555,-36.93973943472037,-4.934201543764164,28.779913234256956,-44.31008827672837,40.998168434958956,37.6284765607948,32.02447103858566,-26.52270837425176,14.235299581620303,8.63342899531521,-2.500143456853444,-12.381133264660813,-0.3530844963988579,-13.220065352412027,7.817918656439553,1.203599197116414,0.3615005188610859,-1.0002421440208065,-0.5244477861644307,-3.620714069111272,1.1075628069472176,0.14826135483417585,-0.11328969015584156,-0.03780293647062084,-0.11338487479854756,-0.8365597032981139
5.044391969583827,-4.980359125026652,-1.5214815231363916,84.53630591898742,-17.060294709699647,-3.2758757127381894,53.96413812644993,-18.690433821562323,24.163714142278117,30.041508541151135,21.87838773961101,7.425489823018592,0.2704583417145347,-3.296237553336793,0.46328174038190373,22.161538563360114,-40.030821145808105,-5.122320391489194,67.17070846228853,-23.795417526745478,52.83538699249199,21.677611000123033,59.35778454386866,-57.168369331491256,23.990087935987898,4.756686831848051,-7.995080468201026,-19.38425558830877,0.9754121247713079,-17.039568364299456,6.588187987695921,0.5998921285541514,-2.123683865686497,-4.155261076839473,0.2520909993168548,-4.223125308560225,0.7420709841729595,0.13964361957177224,-0.25687639647268895,-0.5688072802648473,0.07509975114324895,-0.801277735476139
0.094238644527872,-6.533851067372594,10.080985664862489,96.66722386489083,-17.085628088186454,-2.393883152625915,30.575875516491518,-69.31194800635832,37.54849368783916,52.44764029569589,3.9203850398224596,1.5365353080145623,0.6609115761703037,-1.7649114980865763,1.0424602342196054,24.168711101555072,-43.57142744977897,-5.80453563140497,74.64103761585868,-110.0203125846047,46.668521517731925,25.40610685462568,68.88688117642755,-61.1855965094535,20.151159540372884,6.148200953732869,-6.708124624650357,-14.385783247976308,-4.946643466263143,-17.05975588361132,6.763377566634957,0.765453710013338,-2.1296677695786004,-1.581375171350236,-0.789383035851236,-3.87201015955694,0.8174658377599927,0.1755066207039118,-0.21918760592099273,-0.0847059220129932,-0.06007921809218949,-0.5131797947809035
17.272454852975226,0.6881979244557425,-22.71901357257866,104.52822860581101,-12.154912029430708,-2.3809267772002434,75.7239961422416,0.5525545857236367,23.161710199729885,53.07503078392566,9.909935668312826,-1.0627667401838392,3.7590405445117647,-0.5909710112573457,-1.375542439533457,25.660075510167744,-45.71106270561889,-6.024654780208718,120.82175829780013,-17.26417447457894,41.10307691181164,28.1922369178329,41.07618738434697,-50.33631341096415,10.633345511131221,5.040644248858594,-2.7175100020141465,-13.060745667424184,-5.5705144823926185,-17.68442358045837,5.313040788493457,0.4006462783863882,-1.009450323568449,-1.2794323297208823,-2.0207222051422846,-4.747615862444489,0.42901758088225866,0.046414398650057045,-0.193307246538181,-0.0016344419414134502,-0.4084318307008434,-0.8569450286996108
5.159075780539961,-0.2878006676626892,-5.024926797681859,108.39217700124922,-11.629202883241058,-0.9320089273340779,42.909686361383535,-22.371126660928585,18.18556748588362,76.9313748128297,-6.773381294274111,-2.1788443277340974,2.6080196098289163,-1.1336683010260333,0.8388196207007509,27.296019352431696,-47.26193862958482,-6.276385968568468,123.56584823777042,-92.38012552364061,14.073022481737418,-1.9172114348711269,78.30404095310871,-75.88267776012916,26.90636853622849,0.22028508366853522,-13.639611571492843,-13.499659337388024,-3.6994152633761597,-16.762080422739107,6.3027100026782845,-0.42545229409203444,-6.595806585008535,-2.248130128001148,-0.7457917666349129,-4.09114532495391,0.7742761230353213,-0.1285246778084424,-1.4413209733911434,-0.16851208501214615,-0.03608743647752687,-0.5799255525723905
7.825296625702903,-3.4191414190098355,4.693608461743456,113.94558489975816,-9.53160957136866,0.15676746334731867,20.952995347424412,-9.434344018781374,19.578766708684093,95.60494875088729,-11.254622481445034,-2.502188573514515,1.9830894581037544,-1.2537525138988515,1.9232781247519743,28.3230906664367,-48.79956655607176,-6.453229243735484,118.30948546306158,-65.87261454427176,7.1872298447214025,-2.0751087161605515,45.53508685975951,-19.952189551289145,2.0857905738012907,3.4263210191487383,-2.5953731139229554,-6.45800129957404,-4.890044738733916,-7.195880553441929,1.7271628298069561,0.35757516884279966,-2.6981536207861025,-0.328819579815043,-1.1264046622273558,-0.8379515718397741,0.07302175140282555,0.11160794444713468,-0.5602609514762382,0.032745156946238106,-0.23591995461908855,-0.0226389711840432
5.238444405745849,7.869095945017177,-27.69193054500426,115.70591543133315,-3.019076444320803,-0.8685230952596682,58.52260119292849,-14.523671752912685,39.053344660014055,83.0978252959356,2.884374473373446,-1.5994232616401858,1.9745408775725029,0.9047498923684245,-1.8155109971334804,29.553753772661917,-49.43461513547216,-6.4284641576167365,151.31427986500188,-66.63934856572102,53.57676347774268,2.845068598884895,22.92360593637016,-6.035366234581518,-3.8327039654086246,-0.09641858822381688,-0.4604165146948851,-8.245027277736291,-3.708866210568751,-7.86928061716317,-0.6255006018940725,0.07896904963614121,-1.7140019737141143,-1.4998036780979274,-1.233821961274906,-1.81441968342539,-0.07684768688934661,-0.06085951613710794,-0.2396818048881021,-0.3288984972537885,-0.29394625831664917,-0.3938161259735681
12.687036584966982,2.664644922782505,-3.2431257482023415,116.33562192867224,-0.6729206889805391,-0.626919001688433,38.79611414684308,-21.465796209318,15.23763901558013,90.70717887200799,-10.433353320953673,-5.451026754017752,2.3217882431088186,0.5279700414725994,1.0422795945128183,30.997460967399263,-49.37823567685724,-6.215574843808086,128.4540520785671,-89.34738456592979,-2.4406810382612814,-19.37777866168223,54.54088901694583,-33.61967698582819,13.300864022505507,-3.3333524085348065,-8.483227228750813,-8.564752226756369,-2.80497879247675,-7.721837911031818,1.679131743539008,-0.6976991428966439,-1.578814654279574,-1.5707467375695923,-0.350510693773193,-1.9192773189084724,-0.11472860735671428,-0.08413117688281603,-0.03269519409407972,-0.3050237944792225,0.14808796878398403,-0.41868767935904866
5.645035279251281,3.556413459758784,-2.84365748931183,117.1604027413049,-2.565231883279863,0.283785385975051,-5.275631973133423,9.234724212002531,0.8873668890766606,108.26612896949469,-14.954296436885796,-3.706739396397262,1.2006287942850522,-0.23299884598697634,1.8445857736922433,31.613119190304467,-48.87302634440347,-5.931804657452349,91.62954152409797,-14.224645492529397,-36.61312690716685,-25.28879832589511,68.51266612853617,-12.860097315424484,5.848386321806364,-3.490308492180322,-7.4484756315295355,-6.488745255552281,-11.907932072598905,-4.046334103948414,0.7137837897387304,-0.13479887896651224,-2.625608478487159,-1.232144559254235,-3.8811848623826237,-0.485778648281476,-0.1644141515655904,0.011801113189927532,-0.08724976420940034,-0.046196762753745214,-0.6763622388609057,0.3553038170419912
11.797334234595569,6.134374529655697,3.673922677827902,120.1090739091637,-7.647958081743419,0.9238132289081531,31.846340642114157,-13.082592659349633,79.23471871223958,114.41892782198295,-24.73393721938895,-4.208632135370888,1.2951818094651153,-0.04176239862907398,1.599423030224212,32.95527904203622,-48.358957398552604,-5.858248275360947,140.97791058942062,-58.44853950589876,86.07268130276796,5.474198793503095,54.24706870060958,13.941961148662726,-6.6505463654153605,-11.00371673684859,-11.26340608557299,2.937048733169063,10.777847414429006,-1.0568659660449082,-2.008272175768599,2.7094780395632965,-5.413174971027773,1.2001975608396098,4.325774460246245,-0.48323859917226847,-0.4790160019195988,0.49013054397160105,-0.537232330434675,0.14710034370204425,0.5394815489276337,-0.23112314211330628
-2.156847797201459,10.165643142494863,-8.959206332840264,120.89137125062422,-6.219981197476649,-1.1124756163282432,28.414109926506857,-18.46149010204975,19.689631092662268,110.76628608853471,3.790122053075586,-1.8361610865122067,0.597672547325112,-0.26708491883069896,-0.31717895463177675,34.351510326121534,-47.40834825869301,-5.24289711739603,131.89129835444962,-29.590235145634804,3.8236504132059137,-41.92619513547688,21.178061405413242,1.0546178341941281,-2.869438884187222,0.06399782701151391,1.5916574719996293,-1.601819959452969,-7.365662402566292,5.259475968237779,0.2110002745572222,0.17900165066046184,-0.8588488987247269,-0.8325979268415743,-2.408185717266938,0.393514037160926,-0.08060862558530393,0.11382907352119345,0.056442976756769556,-0.3637770637547112,-0.34566070045418285,-0.2186090731677965
3.393918251996054,6.481771186809871,5.03685215910724,121.80097125558072,-7.409131353998242,-1.449724721314287,-6.597674147143921,-6.498306146612283,38.91682938714458,112.26405391391967,8.142230225655437,1.3670112749586156,0.7134938736552326,-0.7293833105783952,0.49507105133328877,34.784729310515516,-46.26423128909595,-4.744763667944301,84.79020514622974,3.672079804292466,42.107688393735536,-38.50007340996765,33.70830591386537,-6.572021163127911,2.1529644829998706,-1.85553527628049,-2.3522658395482785,-4.969683372842414,-13.205091931778673,1.7580951919802892,0.30171096327596675,-0.5276984711704952,0.3438297164551723,0.015920803007491907,-3.723347585604191,3.049381600234238,-0.07875087849798475,0.012768259007080094,0.22078829161309116,0.025086567286808237,-0.5140231940346824,0.4484008696057161
-12.709316085192253,0.9973315531056038,-19.50897545408862,124.06400504219273,-13.1246844232389,-0.4268805210154293,52.604243001964875,-32.71188563411509,18.553953353370243,122.85727719599491,-12.115600566650018,1.2777349613406832,-2.410392938810434,0.8011313835127392,-2.1707417575588233,36.41586558077712,-44.86384448598917,-4.672412471237423,158.8032057404167,-66.36457108911615,1.2372841265476389,-57.95160814854551,29.722725568115425,-21.526740891126455,-0.6147229828683327,-4.098000500916713,-7.151604129910368,8.142949972960619,6.908729849256587,-1.216716394352209,-0.8438781794442194,0.8395335518695985,-0.8542818771642539,3.48019418942138,2.5814670976904956,0.20646018647720837,-0.04091455507354251,-0.04718460125305089,-0.4670340413013142,0.4567868215899919,0.3273384382132912,0.03603152409653804
-37.88515221946777,11.827737800643348,-63.61509728106712,121.51370982475302,-10.400768170063566,-2.5281518738219835,40.30869066508328,1.9550443206807484,-87.56238718452074,102.82566021933782,17.483401039001073,2.393437265986765,-5.515870519529018,1.0063278322629163,-8.452809008932007,38.43851986941299,-43.429948824892364,-4.3006802888857,105.98922984421766,29.682477256581183,-155.7922569024472,-40.721532217567706,65.63750234859674,15.915272633762472,-1.6329828432049718,-1.8148108288532012,-0.2963555502802557,-9.543741875118354,-9.939925526972939,8.966698679346381,-0.09987670558876698,-0.11711699665378762,0.6363315778759928,-2.7912021413516164,-2.926824560582454,2.1786395151853624,-0.07019289684383644,0.02695007419780788,0.4916896320798681,-0.44346459778957964,-0.279079470903511,0.267155822986913
-16.07880051412732,6.808861192866455,-41.679711628783,121.09063520525602,-9.328915480358518,-2.6430072820359922,18.66110136846215,-11.819435789497856,-48.47780325916107,108.32245076062067,18.912064509764463,3.487266112798486,3.9796222337536626,-1.961072333271488,-6.694560297146297,39.04630005836702,-41.586310203469246,-4.046792852153516,98.88313745356575,7.85089687334344,-66.3966612245085,-24.000519081451845,34.64970770702907,39.36428057195488,-0.9277559727454077,2.0524978354270904,2.70928104806318,8.270469564761973,-4.395703608820522,10.920909712501574,1.4524321646755174,-1.3813685966173335,-4.737857565022389,3.5001781529791423,-1.2018143830384302,4.1456665526648795,0.1032019675542075,-0.08616818417645143,-0.40175129666121623,0.47501487190558134,-0.16853521497301632,0.5742230111673617
-162.28994985459164,84.93308697726708,-162.64645085920918,120.04451136241283,-10.34179523345978,-1.520063934174177,-263.5659911013676,229.31517023367465,-353.602417725998,121.75859840154871,-0.43884884969317456,0.5663206957452624,-16.51332035010033,17.415456590711994,-10.923420864112828,38.70031578100181,-38.111609582177245,-3.719407352305559,-186.16474828027145,267.51394335317156,-412.1448332597603,-41.74901952995608,2.5411539505913194,34.83292597044667,3.7848544170770886,2.84362000166296,5.249373720918828,4.519346696970117,-6.34022435181992,17.762833041224226,0.9703621363906658,-2.1785324656250697,-1.5961265561418554,2.595715729859991,-1.730810631087111,5.923459733474035,0.06047798773033422,-0.3267737518847978,-0.20178496520574846,0.2928429158858371,-0.1224584939031111,0.863397819675607
-84.58891180554879,41.337672027412324,-50.76957746753225,114.84475871393293,-13.20219701156247,0.0892169906608915,-188.2678535884114,97.99003233937157,-112.20463819295351,115.7350413664258,-13.775992858414378,0.28004701224489664,-14.024656534451887,8.638583813267699,-8.441556924885058,37.50931662597005,-34.50810356910662,-3.2168664165429712,-102.3977039729926,95.86333641460776,-100.48883078400955,-44.989790058247024,35.128341021838146,40.444087215334235,8.586127188167273,3.1352155660708103,15.82573598302724,-6.740133607824374,-12.905090236069238,19.487956428186735,1.3454575346274162,-3.1904681273693574,7.809016007213022,-1.949794540997478,-3.8698609816319984,6.833857499745619,0.299495140875902,-0.23320714473527773,0.9787542338225964,-0.333952534066979,-0.43933936756027236,0.8775388760665422
16.348148484891333,-4.7361034242895315,10.110890809097574,110.43415661832438,-15.433387687212047,1.2439028878088072,3.750798604905415,34.43810013255081,-29.895812977189824,117.15042832627826,-31.670226495894173,-2.7495058109126638,4.536814940145842,0.22429653245986594,0.9132749371396509,35.39229055240016,-31.385109158231973,-2.9209227766701362,105.10025300336024,-5.585794398501202,-43.27441113039211,25.348386414473595,7.960408783281425,49.82415768377202,2.505797464873504,3.0068563748423225,8.534929690330895,13.848778374433454,-2.8204231738884475,13.192726056883288,1.2429665723006016,-2.414918314907819,-1.929770328418203,3.7364380143518714,-1.0201284914259414,3.466670853643512,0.06739194930810728,-0.0723667102033007,-0.08014350558022693,0.40421821532269603,-0.21773230964813628,0.439109659856296
10.33417036737086,-3.6277011078501884,9.994475756083222,103.92931079087685,-15.571478379086429,1.45602939323789,-10.488096694388695,26.81911536265389,-10.572562924079588,94.52722763459091,-37.075947283290965,-2.343468692052685,0.5585783635866186,-0.5751603202157933,2.0947577155461565,34.00545191593237,-28.971796340932322,-2.5528103455599958,52.68341834119758,-9.870455101543111,-34.52146688977796,-17.908200248484206,45.4868792447426,67.8894051050735,3.168900041747662,2.780990558883749,5.425100555063868,-1.7903861893231372,-9.5736888959578,34.83297715654785,0.5400176886607373,-1.7239158091043256,-1.6604714188439755,1.0744774576529028,-2.825866196223475,9.8466782680757,0.012489930899175692,-0.2785566484233065,-0.06735149630696677,0.3418356753296573,-0.06701731552672527,1.1133714786951372
20.82017501495404,-11.111887651838662,1.4785336326596066,97.60769364608795,-13.984175556195321,0.4449061598860755,17.957788153639772,-12.855215654734618,6.226129050896763,79.59610918004284,-25.04699991678176,-1.399122008668253,4.055428636496432,-2.500216134286894,-0.2726015666571665,33.393828539579445,-28.208584524443296,-2.334371131060878,72.50867921273083,-55.57154983047277,0.21144735824892244,24.5760160880843,27.581078199983587,22.626551456368418,7.98679396469955,3.9947153977332,5.140933772998045,5.968777807631426,-6.973567394899055,10.814997586057727,0.5173493383859413,-1.9793573304364172,-1.4563359553909279,2.289155333258598,-2.0276928101549445,6.394405392806082,-0.1444041829200646,-0.025590423554532848,-0.23402765362579986,0.3836756120580621,-0.3035743199910518,1.0168005420331796
3.5558496779548574,1.9882940899037875,11.100596021875175,93.8579343102343,-12.375790608514057,-0.5188043314518206,-15.16092148196213,6.709121612825177,10.60241771217556,94.52816485953024,-7.6796203016761595,0.5225167384473115,0.7316231773515476,0.30786619685050903,1.4250172447391152,31.390656060494273,-27.877889611256965,-2.3644017696117725,64.9792925537442,-4.548238509935696,17.360408826714806,-16.42737883303102,12.975122418205956,24.833970320724003,7.460128588003024,5.418241056121934,13.956937313060626,-5.777210218121917,-7.638789605381491,17.448462356065285,1.0445753697509914,-1.5572682082429765,3.6793653600378926,-1.997974138213581,-3.0465560741655806,6.214463161545113,0.125343251626003,0.03943423158979496,0.000874605502408288,-0.41260317787414486,-0.5616601204399011,0.9776988727995679
-14.199083144608899,8.740041391757932,4.596830711065028,89.69643639886128,-12.635489175868388,-0.9356670401576187,-36.46729193163297,15.973078792095778,7.329744105287388,83.62991652668474,0.4052668573886158,1.8090129953167846,-2.780206335326967,1.6423826748490888,0.8831371384464999,30.800379595353455,-26.803341054197322,-2.2839215189804234,27.23816644723287,18.512285514016433,16.55011375354939,-62.18991908228515,47.41930469348577,-0.8016069611477821,0.5104744729239377,-4.500630883588461,-8.88997781197142,-6.396827280905928,-2.563460037535074,18.724707592705922,-0.10327602718214586,0.35830591606989104,1.7264081805586107,-0.1552854783883827,-1.0929832995859334,4.036966204354082,0.18294693010467108,-0.02116272456107201,0.5946236570652769,0.017716049091701443,-0.06757143047120469,0.41853593233825603
-5.119309965374168,-2.78190698151396,-13.111456412522376,84.22057231091286,-14.44503056128197,-1.248178432787011,34.41043417671395,1.4294620186870288,-35.39796318503697,88.1485317782579,1.718842276488807,0.3096375785716822,-0.3687301615256366,-0.676160895448828,-0.7138098143872129,29.72407675369238,-26.15386433853272,-2.3204091444505326,122.96331662622205,-21.848292080482675,-45.68719727211846,15.11364607910696,49.825195895865406,-11.34415031844511,-2.7201848835321956,-7.050057418460632,-17.5739518159517,3.1369356897719696,-2.337079118193079,4.717255686262772,-0.4340425540740205,-1.3301327837937267,-6.554652202982043,0.4026980185433531,-0.410216547825288,3.6399451783407906,0.08351788608123431,-0.6494594444070713,0.2938412886578302,-0.0603120410632685,-0.009756304818389187,0.7148498187785233
-22.117499443547903,1.971447410925333,-15.367323718389219,84.20677215081915,-18.156806937502264,-0.7116136297057195,-1.870073404998256,8.30009817011922,-51.3405167238115,111.72757230802561,-6.703376471507318,-2.475596927834732,-1.4274454623828545,-0.01758166209184364,-1.0809390993741097,29.646202661229964,-25.549521347902008,-2.3873424049819643,112.50490479732532,-1.4706498941323822,-74.10111617036337,-7.138467654631911,28.865408392731798,26.033476619409598,7.779602677068534,9.335661077289679,23.55078766145455,-12.012151632546603,-3.5362842262818623,1.3258457935180443,1.714422449898279,-0.47943930818792196,7.409195310990732,-2.451672822967056,-1.011977251652417,1.4397149400180398,0.348801753220547,0.22381397327483835,0.3664335315466516,-0.11283196509021871,-0.037371083314096776,0.3045877657662126
-20.315783719669522,6.492560301041667,-2.3769228610235063,81.46419058510776,-18.010310413405424,-0.4492549639152404,-12.784440164002232,-10.699661023683168,34.85788866685693,116.3693386486931,-21.09616382459105,1.0503859823431216,-2.040356482569175,0.8671374451357768,-1.7155855112549347,30.388795595822465,-24.7501368420032,-2.661792561027645,104.84454817256,-43.68094172222216,23.40492173700035,-23.325525228109534,12.052744459249997,20.66990398565221,-1.2941370505346521,3.3342183279771342,7.376765220669003,4.545759043697138,0.24803456724045025,5.690440198333754,-0.34350857781799365,0.08805483555619234,0.5223274151461789,2.5407381614460895,0.47437558285503106,1.2341298586512761,-0.27978032023088206,0.12481023756012374,-0.27205948935272356,0.4931109349319431,0.10996051096250706,0.05794683630140002
-17.840238280118648,6.884555780559236,1.68628051078288,80.393325638563,-10.478710118444189,-2.312632688178649,-11.73894956123889,-7.086221592066696,31.62909637378954,104.95896808720738,8.8260271340662,2.878105801264728,-1.5007615135742232,0.43782235546587,-0.4610778123975515,32.33403376318801,-24.288354544258556,-2.8731878976711713,84.07437894769231,-1.8818617370344164,20.378746558002177,-31.93349515019899,-4.479879768657674,15.338478095791244,-5.067571241994772,-4.788704306021991,-7.200148267829504,-4.145065019643171,-4.573947536527666,8.165642311721557,-0.38067179424751574,-0.2177659513816608,-2.897102317700713,-1.1617886957133374,-1.7960391876788082,3.247268273032955,0.023630632205758846,-0.28420158715668636,-0.18798650360457078,-0.30000612046635183,-0.32831370137421056,0.5072169492957767
-13.198442693048605,2.2031620796950935,-3.2874883008224045,84.7711730534483,-11.601556869638273,-2.712677864384435,-19.318646308342352,7.868899172105251,-9.97454601610747,115.83867004657165,-5.1809483103060385,-1.13381976997098,-0.9784928152912644,0.24806570566349442,-0.2765354985170425,34.362847130376586,-24.139028884355316,-3.1037627846826346,89.34358758404967,-2.7266507323840883,-31.271172411609594,-25.703335619034824,17.796198036586354,-2.805505112570416,-0.22673326427749313,0.5986425741945137,1.4558564690590425,3.200934154265097,-0.08047928862044389,0.7633407715186289,0.3021693831998144,0.005599809303771786,0.2935059098756188,1.4301755352641816,0.08185179132062843,1.0172934363948554,0.07437590650526699,0.1838106654087733,0.1826217675953009,0.33119749655316183,0.05228074229632378,0.05028548145066143
-6.986572777188363,2.986485120149398,-0.000424344456447805,87.35583923048078,-11.353758200446011,-2.891899558680224,15.433273553980293,-0.7312840705975566,-1.7984832266970137,74.72175072175976,-0.701046942712067,-2.031122459235306,-0.24977792492049988,0.13031649859788424,-0.09304349800374943,35.00453098734274,-22.699645516639997,-2.7660536196879058,69.40752414907485,-13.861611376651776,-18.811450864068906,-22.21360174812652,26.982695821771028,7.780217319683097,-2.546682390587251,4.212276493334354,5.0408635128324315,2.095523560233365,-0.3154317374147265,0.9463779265773575,-0.6392965303912089,0.6823943172712184,0.09472108636706375,0.11720112196749485,-0.7009662198369733,0.7770732494779838,-0.1823590647625873,0.27679782519282803,0.14496689988231165,-0.10754148714241245,-0.24734965202347792,0.050792501282248693
4.3809225434358,-4.46572248062276,-1.9499476542072856,100.69560812907557,-4.678255533397541,-4.308869046530826,43.97094523136396,-16.462504352020098,-26.652418506238458,68.32562556319697,26.245586361977264,-1.15846460000419,0.8630124802458355,-0.5360137883255456,-0.19647202019357285,37.048314577861916,-19.020825364514852,-1.8736493427957122,90.3631248375602,-18.00844613253124,-28.45111850657559,-17.853243870462844,26.600846425204114,-3.873862482101961,-7.109233489677399,-4.230260400460364,-6.352907716589594,2.7691318427011113,0.39903072635830766,2.2755541707612204,-1.6688018670767581,2.500644192083793,-1.7818236880651441,0.5612697476615579,0.1318425780201713,0.5912123037862002,-0.13974239207614414,0.24377603354781058,-0.06947340825220828,0.08278471909428112,0.0005058538025577634,0.09061061038597652
-3.0197261187033226,-0.5634622466877288,-0.8888987000574142,104.18394931809705,-13.83492957176665,-3.274074741990369,-3.1873058103829104,-1.7728768425362877,2.4758950160301154,71.15089923739123,11.970918206971401,-0.806603963180269,0.5311358181918111,-0.6692656051075658,-0.27176505726258565,40.85934216512915,-16.619262491669293,-2.3168569619090116,45.41021511165733,0.585054077291195,-0.5769512601894731,0.9787346481274515,-15.046856934964659,11.497629791300934,-7.289549186796936,0.8487415531424126,0.8907379589391862,-2.4206620943472705,-2.02068104760982,0.9683224653065753,-1.2604899390925524,1.2050003530524893,-1.0345554022787966,-0.8401108632370324,-0.664967436065885,-0.1673160445364036,-0.21210459057340172,0.22323472165714114,0.018563680567687736,-0.06701755789550741,-0.01978224409435131,0.03126551118865888
1.2774529704685122,-0.800357525172444,-0.19119023593279236,66.87485404103182,-21.282948483095225,-2.596652324872845,23.821415746021593,-10.982410866327019,7.103615147810544,21.926101606119722,-6.847453322358918,-3.474429200716244,0.30315245058746165,-0.2425716217577179,-0.2588213812636503,43.7663885756412,-14.767894782311034,-3.42490896472131,25.820493630717237,-37.657991507082635,6.554794469819342,-0.162304268365834,16.78918026137378,23.826123644473277,1.7417216153495931,3.6755197209029373,3.5679790514486203,0.3666812069070492,-5.757065260271858,11.632465206000765,1.3078972230240258,-2.405150979363164,-0.9983290302813917,0.11168055210028345,-1.4617256866287724,3.4809789720389124,0.0872414342523623,-0.5468967784936606,-0.5602358820035777,0.004173726777476968,-0.041630352486498795,0.4130247657612519
5.781297936567118,-1.0865683281852996,0.5748331266551078,54.93790301245392,-15.873284774349914,-2.3844948320581105,52.37188142368692,-20.808678145327743,4.916001279674432,33.30962859888438,8.900829330523008,0.4828860079102416,1.2010679647848848,-0.7364218369125516,0.14039306019070438,44.956644603521525,-11.191963512762717,-2.68567231877791,80.71988758706593,-32.31638287013977,17.371760990091992,-16.318033226196167,35.38171216586314,-8.99001745244029,5.3595222662564295,-6.710846022451051,-4.810970744457869,-3.094579372544654,-5.299077918956081,4.2392940222004665,1.617987836808589,-1.8700353878321538,-0.9938323236036058,-0.6591655460654995,-2.2177181013004694,1.5578334516327572,0.2618979672297524,-0.2492698096167483,-0.11313865918002083,-0.11817619642297317,-0.3353739797107112,0.2157345973832381
-2.7342864934417874,6.668406611027812,0.7350893415067755,85.17863817683539,-23.38660789123109,-1.1082445473675395,24.736128750561523,0.8184503539232048,14.554802145072802,110.29590505052634,-17.835277072628095,6.851308686852484,0.852549670914677,-0.5622137705893459,0.22506463634675994,44.83356576467115,-8.642357164501728,-1.2702270519775567,138.8355313538842,-32.066708354187604,8.137096458530488,2.6571313005330093,22.585192810548104,-18.032673098933536,7.9480249645490995,1.7127184812551197,-0.038470664970874736,-3.711886045595301,0.7740209330395289,-6.153942459520777,0.9438042412601295,-0.866959942327434,0.818930412090174,-0.5500848653482097,-1.3654237215569374,0.4794091344741853,-0.10903097677430242,0.28486408513913913,0.41750287876160314,-0.08994351987641751,-0.3822739421763446,0.3222777804985796
-3.9216987880578507,12.485998495718972,-0.0003035527093215992,84.46107916206081,-19.074694477836296,-1.5128693106676792,12.96734840297842,15.129035774558892,22.331987284281308,100.36379468352948,-24.06009562009391,1.03997788321455,0.5532403289798046,-0.10715489480893187,0.17921844926000807,41.97587502279709,-7.6879605740347285,-1.2084769393312984,99.76420241911033,-25.24842098660998,0.24694110577277262,37.40670093655695,25.01423633232357,2.384209372193155,0.058055344489739036,2.6090463778864463,1.5577679954088595,-5.13254141799168,-2.4175302875136326,-4.056305111276841,1.2503219718467353,-1.4476381097341195,-0.4570536054478001,0.1761215765608884,-0.42117223573956347,-0.5512250055366474,0.05454539766959951,-0.09315671309431793,0.007303320203607887,0.1840243528786879,0.13455903225835897,0.004097819048263912
1.576911638174322,2.7915209439056237,-0.1867691547973109,82.93755379717318,-8.528412690370606,-4.112802339898073,62.90674952518276,-26.89257175695878,7.881659511132468,98.8699157894213,-2.9375995808787283,-1.7979623295842129,0.9333508885977676,-0.5197955641791507,0.13564554384035127,39.710053734019,-8.019001646149025,-1.6647095588620109,159.63047203342347,-67.75978822274999,1.0916774243875278,16.269713738956128,47.77695257142241,-4.582455409367885,7.069352785143306,-7.04296662904472,-4.583670792892552,-5.181379500958798,-8.859340545542889,3.793034793423548,2.7132026934052016,-3.2120453060577914,-2.2527170128931133,-0.025081979036019875,-2.7541348490803172,0.9718066929406368,0.21295901192147249,-0.34188874119318535,-0.33327337372455923,-0.022656452671179706,-0.1881889683879428,-0.09922593841966215
-0.41582452730836966,0.4308842776500382,0.3964125908122905,78.09874778033651,-8.68364128493244,-3.7285905965766073,59.62611017354685,-36.18445779013914,-3.239358923255547,81.49110490457961,1.8124402593021305,0.006296573924701371,0.99577400390401,-0.6044268584896586,0.46843811666082247,39.11746600268904,-8.30132238185559,-1.7897089709943437,138.80262315031672,-77.41505646991197,-3.9596849708292483,56.630467616529984,20.994833950404537,10.645525185182276,11.551247989969514,4.321014667268374,-0.08872085713624271,-9.946497931343925,-6.9082751561603715,-5.124835532496166,4.056808872312581,-3.49183021835353,-0.300816728702943,-0.30155947040250736,-1.9558103556911988,-0.3080948245259717,0.4599915640573732,-0.6422693990340992,-0.2625933337458114,-0.08716724969657609,-0.1432588790551077,-0.006838649027302145
-1.8816927268887629,5.287844438682763,-1.25179637537363,74.23163991267218,-10.075319079989573,-3.1529406512276292,38.23910353499346,-12.545738684732388,3.7088085049502175,29.928561100413127,11.832481424398397,-4.718869492599451,0.7834296493381122,-0.6378221734010439,0.29531721448887754,38.99544090453536,-8.131948041851873,-1.781715779138382,40.26807992677774,-36.57366407399018,-6.3137452254398925,74.08011900569569,49.291752453671066,-11.389682153061553,-2.890575304142458,-7.448384582928668,-2.2739700046158418,-8.67994198652701,-5.196469649347242,-9.84560228758621,2.825758861664277,-4.0881553471196055,-3.19539481063868,-0.28051303492497315,-1.9756677016026045,-2.66410561110719,0.2329503367128306,-0.47954055308034116,-0.4317362466743934,-0.07009340039031824,-0.2055758942788494,-0.47392736258955837
7.74618571701577,2.351117282666615,-1.3096188944133744,76.76059481492403,-9.595209101873753,-3.7344116079578424,32.50204290938238,-3.9048734252349684,7.801848035805335,35.60543172622979,9.993703706654296,-6.740388577812969,1.6762711198753875,-0.8321967742734523,0.9713284273805505,38.89731778946326,-8.371385471742272,-1.9479159680260258,52.694234769425435,-20.11653710004451,-0.7895841931664529,39.58894375686361,40.63780611722227,-9.262935221356692,-0.004514997336942872,-2.822227890215298,-1.4816338549343955,-4.508389191215015,-7.009951188569887,0.3907590272097796,3.1440718263968694,-3.615357073433644,-2.281033253383841,0.6495930719364413,-1.711181567150058,0.7089498137195359,0.25088614560273464,-0.3457059038651726,-0.23056825835871703,0.06044888101614231,-0.10806263316953782,0.09908661588616494
-6.934271435582067,4.120929326261308,0.050947116446811214,77.78209846745496,-7.221181118023837,-4.160817479072117,43.849818324224124,-32.028688240418546,-1.5096324411772575,48.58885221655723,14.81338381208609,-3.300199142477454,0.5436699704748893,-0.2346924813280686,0.4325145744970047,38.51533080767369,-8.009960595851126,-1.809900618665965,79.68593187482139,-48.48519176148496,1.8790971968148542,73.61551633445212,-5.0415019575018425,-1.0884503499471014,7.390747359294957,2.1675564675004937,-1.0397689233680738,-9.651065229321967,-6.3771681098094035,-9.6389488763313,4.098994067796775,-3.0116636961554195,-0.47500115466789605,0.4542995669712314,-1.5841502160040637,-1.3049345845540659,0.5268714623649444,-0.4749825066378449,-0.04976930753863817,-0.024787965673994196,0.11919028991755491,-0.09082492371339967
-9.171373056320745,8.548559444756137,-2.2772177958597632,79.61267611767299,-8.897614721385184,-3.2299550312439083,22.395428263191214,-9.807548556312021,-1.3315708583178365,68.2368690061938,7.4617505598931775,0.7775911556463722,0.19708363800661421,-0.22216583266422826,-0.13806716343450015,38.608790137600934,-7.521587644651113,-1.588764702190497,79.47900184084766,-32.06096269005121,-6.957343493358987,50.867869050993164,41.41674034109202,-13.228532795833644,5.161746674904529,5.435168089878872,0.5284222750054021,-6.953439322371006,-5.816525036188379,-8.405349422613424,3.5117743101821395,-1.4743585050286767,0.695783142950432,0.6235640444386423,-1.7003897085776214,-1.909374257630986,0.24721153542064433,-0.13093710067219358,0.00643983727237475,0.06440292593084468,-0.18503307991735682,-0.42139967739949785
-8.064549583191697,7.25831368376782,-1.8348332584547518,80.19112854609801,-7.86178298357686,-3.4790624460074393,13.27149787279703,-4.912822498082279,1.5152307479603646,72.20610443135537,16.43762795208964,2.22937199590097,-0.24288792608201523,-0.2942624761213506,-0.11441283131271537,39.32613226275333,-7.4562482942643395,-1.5558576466719565,69.6909765261576,-16.656054264601256,-1.0663073708288908,39.87010514699383,52.66491014812749,-13.80091273814249,4.968821703326934,-2.0689933329172705,0.3988988240633214,-5.385631636904248,-6.1401578713529466,-7.201376882372456,4.110605380246856,-1.983678541679705,0.3841272745755079,1.025452445589983,-2.3193013875922777,-1.6775852820232129,0.4241794389982624,-0.15495997895580194,0.054164336946903625,0.2691930456575618,-0.5276068768545501,-0.21525962365177387
3.5357158865805793,-4.892086568755352,1.7450024805298507,80.46746773968123,-6.130212705060381,-4.014699450756913,39.86880765329008,-31.56727583192094,4.095772731323711,75.27606403046659,25.275616497077213,3.8459597610869336,1.0422132701830504,-1.1914478188731297,0.4505829023963207,39.63812202038604,-7.457847392068233,-1.8791293802849718,100.80537656100981,-34.69848526362376,12.8382366621261,67.13670094068087,1.6001202039777702,-7.743745767045995,2.2622300831717173,-1.3203647062620063,-0.45799094632057363,-7.2400880026307295,-5.067292063317431,-9.664894827066801,2.3690949960179255,-2.0140796115939046,-0.4082459085520308,0.2683236060135883,-1.4712927870038137,-2.262976921159509,0.19540794205005338,-0.239303584691127,-0.07688613761664141,-0.016252707304117937,-0.07044590453137975,-0.12663480115373166
8.12697433680581,-8.089108084848743,1.8742058751461619,75.59758336548182,-2.2182259246451452,-3.6528640505879975,34.197517411464595,-28.67821411152517,2.3045390533775785,66.7927414258006,35.987441389457295,5.946226510392947,1.8038916177347715,-1.837099603766558,0.6926650166662155,39.66743975111051,-6.3418900500738715,-1.5625088995048797,94.52330469060584,-8.542040844010387,15.348313961276261,30.62174834436409,-22.01780390586581,-8.244776423789743,2.60158018592261,5.455184267545127,0.3793982103990406,-5.117600062344673,-5.6813037104905995,-7.6762696060117905,2.8319417962300513,-0.8821777268229024,1.0021115587774145,0.3512380830895715,-1.8687402323271023,-3.585260604174312,0.35363925638144367,-0.15357787480330434,0.11210988530903429,-0.11587369728318464,-0.18813428071494948,-0.9011973278971477
0.1506447773537584,-1.7059303449570429,0.5577853118636269,70.35599052916439,-3.610077425441358,-2.3518639585602807,11.080085629199683,-17.72921284540081,1.766328234262773,50.691871672190125,22.385501558020426,-0.27702693592392597,0.3121134136655575,-0.991228573661521,-0.03730980993513364,39.471806924710236,-5.186933555900738,-1.2247387555255074,45.08618568235959,-22.051562216381477,4.3732057177679255,36.33008405009184,6.527149426483422,-10.141204250175962,3.0335098969765535,-3.4545100614345867,-0.41117210687397643,-4.800520473631437,-2.041685013170832,-6.778864412871605,2.507437943865805,-1.8446220655869734,-0.5492470194350371,0.4395317997153005,-0.750667807561206,-1.2856439187760171,0.37240109769027535,-0.20162472749804677,-0.08927967735763526,0.10316494154878783,-0.12998498169039546,-0.25411345247039807
-0.6773507235761882,0.3131429653607293,-0.23860041976628588,68.2635037701492,-1.1886522473507208,-1.6302264787544039,18.658364866705547,-9.094301580468633,3.5650664404167434,60.27183980019873,16.526965671861905,0.46156892509955577,0.1409836254594168,-0.6459744071265274,-0.011409156034541533,37.9517861055373,-3.3538660223569923,-0.7683037470016552,64.99341063070887,-17.299706852912664,5.4314132806003395,50.99644988797922,0.45552487501923034,-7.314315309004543,0.6925449893236167,-0.5882939924441642,0.2191663692641656,-5.420860679478924,-1.2494877422351418,-8.153753023413294,1.9065264019114783,-0.9083568967415271,0.19182792855572478,-0.09263206440393708,-0.6897531335815077,-2.1342161141909255,0.35858893235541894,-0.08375825060892128,0.07461016202693575,0.015707371809165076,-0.08236762389175704,-0.2997595428875942
2.8493744478822576,2.4228256761161076,-1.9502989466680216,67.94155772190052,0.16634513334751075,-0.4364099236736813,32.01825187870844,-10.259971531934196,2.2186799137763717,77.37666879097053,20.870572387988712,5.887310102452026,0.7657781904265072,-0.31334327173810267,0.557032786658969,35.502283147645436,-0.9975954773181356,-0.0009543218897839125,100.03613021944938,-4.0715798559790075,10.330179382670888,42.059373063207005,-16.954428408033344,-24.286679500096852,7.79046792597683,-1.6175458952660209,-0.3024889363196606,-6.540431780384091,-5.848811441159901,-7.166375314848289,2.631941597084982,-0.7683947122142917,0.3176538286596082,0.4259484077190295,-1.6883516644950203,-2.7009102417143738,0.4464278903935096,-0.1222390540072293,-0.07344997915462605,0.04449967161360191,-0.2657929326741905,-0.3477055815850574
-0.20315374938973252,0.5821292840118083,0.07790918551844929,61.59758946747541,0.3527557472067001,0.9251798939897179,17.17827095586566,-13.061770812604617,3.8428361901894545,77.4968020109737,10.085552132965393,5.800196496075859,0.4575815469362487,-0.45841873158007296,0.3773495234092863,32.575340578987976,1.7193890307106228,0.8576923683465919,88.55605473046074,-22.535836050414137,9.48799585252639,15.06232660234812,-2.900284076548285,-8.438965830756349,3.9545358173649188,2.627286116861267,-1.118571905413056,-5.07104479338938,-5.762344196055897,-4.6554626009415125,1.0059983631423213,-0.24160915789154327,0.28629673796599886,0.5299412510423989,-1.407904235790629,-2.1532373554448174,0.062193290759684716,-0.20732137959043068,-0.18200161511050086,0.05193522442486302,-0.2321514528510441,-0.3715780950653567
-2.253203458858706,2.471966702317473,-0.9306332061672262,53.0349452070072,1.8234135261077435,1.9485066655426395,9.314481767365603,-14.31260408248323,3.949872759339975,53.613524168938625,1.7901226515897928,2.308521499781533,-0.23604027505859287,-0.3829569331476348,-0.4038712888521838,29.134934515992228,4.359861234354595,1.6119694401959228,57.64417331228408,-39.60766709771771,11.62608578711477,29.214794807442505,-1.499176003660395,-0.922520180733187,2.6440138483323357,4.192892813854999,-0.4520788011681232,-8.167566162628537,-1.9180402899054017,-9.143579999536552,1.9313502182096776,-0.03473807176715112,1.0529695157576273,-0.8102772644820538,-0.34493110294619606,-3.3867329287665595,0.18395623666819585,0.05526388541598354,0.1381252298729875,-0.11733836572738744,0.017538830250062,-0.6585704357592751
2.4328967645800765,2.252645787713266,-1.773060990269056,43.479549718761064,1.484000721089085,2.319543414045702,12.015361177224705,-1.5433395738358495,-0.6869069238871502,41.83142272444912,2.4182044068769546,2.2996827542422094,0.44115107800485565,-0.2758664204174743,0.2500443770203864,25.042094815474957,5.871228179179369,1.7789649078233125,42.1821663055253,-16.52589696698785,1.3161065225485262,42.468551880469775,-3.105260078249117,-6.113321260167908,3.5502157546450426,-0.457046332713315,-0.4137047261582952,-6.828155198093909,-1.9140097065303088,-5.485748181455026,1.3512071145667623,-0.6924177996367992,0.22016130213562995,-0.7755309706564147,-0.11110000288396646,-1.5888201076365809,0.09857213564918418,-0.030712578507794557,0.013443047296543005,-0.13533832724293074,0.05020085678963572,-0.19592726742764188
2.2812221963630117,-2.6532627456506344,0.6611730668134806,35.24333084755058,2.986806494336939,2.7351615618613523,12.521580420811809,-12.218763731018424,1.006406371723035,38.704422410069085,-1.70408962050896,3.3539856305729923,0.40003868366116474,-0.4035210565830368,0.47946059037577315,20.63346725252344,7.175939621912492,2.0508128973641084,41.720746196027214,-31.495172113422605,2.4589619401806977,34.16473946173747,-3.3966754426165986,-11.561504757562684,-1.0142151619606956,0.7833855947719295,-0.4166879545085738,-3.42778272185251,-4.2831335687533505,-1.139947465786912,-0.08468778292948366,-0.4101337554131703,-0.2294128432922408,0.6182478243465789,-0.7937397560249003,-0.3279989103917234,-0.1023025349663808,-0.1569370089132889,-0.14194154020420394,0.036919199318124304,-0.05603281656610905,0.06359617307162208
-5.057206879954543,-0.4006433675008427,1.485943999794416,30.017529010552707,2.565661923886876,3.2548861924427657,-0.6782340566790732,-7.992570143345551,5.3898941829641265,34.3137753715305,-8.702539185901504,1.458253809550938,-0.38480562930660506,-0.523880728578918,-0.24076100778151416,16.880506879868612,8.109800060716923,2.7061864119618,28.62502002424245,-34.408052529394105,4.063693830505359,40.16279040019863,-30.472123560298638,-10.958010095430499,4.558330165388725,-2.094524962702862,-0.050383256259147344,-4.545248836347301,-2.554434328005889,-3.8469908002449165,1.6764321194270675,-0.8157269559550864,0.2088646583267666,0.35846288876123833,-1.1023088272302926,-1.1936461085390286,0.18759721610779484,-0.05386111157081119,-0.02062516993407333,-0.0752698160746064,-0.1267772779882277,-0.2897801901636227
-0.3400376139569356,-0.4224275959649904,0.18611080208767533,23.951675137720553,1.2550218441481917,3.4286074317802506,10.533248519842454,-12.618472629613958,3.9434861638378553,29.993138744514663,-7.887681521299778,3.0944881207260373,0.0155287515546912,-0.547342095009037,0.07642861409732443,13.070414938636231,8.413846581996095,2.806030154139367,37.61913667174848,-33.64296857939228,10.467236395341404,27.027717185078203,-8.168683764502635,-5.066203301543557,4.532530266447901,-3.3155997033107774,0.21041819331232978,-5.7593210843308835,-6.064012660666488,-2.6111144747083004,2.1516081863887466,-1.4302438935666524,0.3237600331803356,0.4707893660898578,-1.6516257559574288,-1.431440246438616,0.3289966782200416,-0.0738149878131746,0.10367795050146983,-0.05235926830521452,-0.21605794989314006,-0.2612269063855984
-1.0823670172190967,1.1094628173920011,-0.3775447053348381,19.511194031189543,7.741819553401202,3.3632151699419346,-3.256839737461082,-5.495436249249811,-1.4868090390564286,29.244012968909622,14.30500006086206,4.913952088670603,0.1667695630244378,-0.5712151855426256,0.28152907518656883,9.7975214455293,8.525734336086492,3.0441392637554334,14.124587325606377,-1.7388173039348351,3.0890236553683854,42.265696271419436,-0.5587387374366843,1.1401944328901714,1.6403504684887382,2.2255379539314886,0.09277702943351364,-0.47592065567799785,-5.915608794686945,1.8356005849454218,1.692828709156036,-0.3271347399653286,0.8621058623501902,1.6472366074338236,-1.5602512107370186,-0.04351141870826145,0.17321370156092342,0.08754833416577858,0.16481212648528226,0.18607458803650742,-0.19771950974022345,0.00980247497228892
2.1475809358251112,0.7854228315091437,-0.4017046270006575,15.63538562681284,6.741546538738603,3.3286564406521646,6.965298860499182,3.9390426426686527,0.8347655638383562,31.994212638007422,7.291930148580678,3.8380828021577678,0.29514289843986785,-0.4347798883539562,0.3960772757803341,7.251924389805455,8.257830940421842,3.2045079355445285,39.37081203748729,1.4732119805241455,-0.3561821489705269,56.26315913781344,-15.289744649548243,-8.45600734095909,-6.4299400686062365,3.05169918563143,0.7660837032045398,-7.235855709204057,-0.5557595348987348,-3.9867012645695064,0.4325381776869734,-0.8743008133699247,-0.1889861735299314,-0.14129059494951496,0.008363170513304572,-0.38640813269439456,0.22295262664573742,-0.2147319085134107,-0.018743730068787254,0.01297351651333978,-0.026126485788699572,-0.09130212425868937
2.895105792549387,-0.03542149531835803,-0.3536260893493839,8.289123814767377,-0.20927768665126012,2.231395741897807,12.288941233577098,-9.691404304235137,2.5124297009524845,4.568758104473655,-4.011222097203078,3.374629041698628,0.31739033633591035,-0.09779791292775682,0.3377888805015799,5.084864359930194,7.474910304410397,1.7721777040176057,13.900862140021804,-19.530065513153183,11.761740663657605,52.33337848553058,-5.923251651940707,-2.674464006503996,-4.911945752316115,-1.883154991099348,0.6232862125615112,-5.911064732545156,-4.276250398503324,-2.631170308721978,-0.11245542999626779,-1.5624012332389732,-1.0227056548135653,0.36950376643619426,-1.3911236104871982,-1.1311801673672839,-0.04033280688007608,-0.12664731993114048,-0.14814524285869618,-0.0017808897026117057,-0.1973962476129583,-0.2590208564893392
2.707539309159067,0.042364505072250196,-0.2526010636958102,4.702851113188037,-2.1579825402761212,1.4756486502734731,-0.8522421408299201,-11.270701073483833,2.579792650792165,-2.742406978586051,-9.907339315274653,-0.18213995013183742,0.4692417778013756,-0.10659177329040972,0.33720138048323234,3.485476567264311,6.3880127699108495,1.3568242351206994,-16.631207840242702,-32.00291520517523,5.606314100380843,35.18365782718918,-19.541634172556655,2.864980944595035,1.7204283073005402,-2.202742274171465,-0.2995067290487254,-1.7640985524203685,-6.375419744074684,1.312155069493597,1.706078122495833,-2.267379818645882,-0.23272544245083224,2.131831583064261,-2.2188693004175497,0.3442826084106273,0.13617621910936256,-0.138239346915251,-0.056370883731231156,0.20683800972458463,-0.13402228143405095,0.17813685938773674
2.111534224255454,-1.363229301476017,0.20305885108779664,3.050939347889195,-0.5016324378824175,1.8977193929070324,3.738163188704564,-5.658299194231793,1.5242251487783245,4.941618922876738,-11.721482212532297,-0.7987408034132737,0.2655784335728069,-0.7068576013904396,0.3473878703935142,2.299264211529661,5.4819341379275714,2.059982830971703,1.6306908429792173,-30.299919696123986,0.5189969928807658,64.89190219168337,-34.39492653961276,-7.043704232793065,3.6531519496699403,2.2920227966241717,-0.28099150673041856,-6.832037875282518,-2.206266561993226,-2.7108324111665585,2.3347122216104013,-0.6216484808960083,1.0391020129723725,0.7050360919653372,-1.0856717125867434,0.002203306490680185,0.45871376538990777,-0.052339217940956036,0.18038153351800135,0.10556398359837313,-0.21000605215078927,0.013331766590797713
-1.6560360600571344,-1.3122017814555311,0.4323417704445518,-0.34520341727311304,-2.609016361180727,0.2991432319575805,1.7794711402459227,-3.7400383633431242,0.19696217849314174,-4.9367025018665975,-14.495990783773264,-3.3958743167588423,-0.16660342270261624,-0.9116040697596581,0.08279509633983669,1.0299206531908927,3.7540199100478326,0.586992892104792,-5.394855788095271,-25.821890255194333,-2.466910326860707,46.52178250078049,3.44221839347573,-18.42376907540736,-2.7490860985890464,-2.840102225729164,1.0473441967493815,-8.236442373723442,-0.8533849089618383,-3.976447208253174,0.8771887740043448,-2.633621849847392,-0.564230915191922,-0.27592656455170966,-0.7700533262859439,-0.38066092874321933,0.013433960668852692,-0.29425231696229565,-0.13491815212368322,-0.11109031360020928,-0.2298605595534633,-0.14430327366243734
-0.7497342106674566,-2.707466548327891,0.871660762739387,0.2417514116854677,-2.740846051713861,0.1458823565304918,3.1192167820618684,-7.269610933713873,2.327995973881881,-1.1309600679424403,-13.47952222321628,-1.429611734272372,-0.1587171656841048,-0.6690835593939959,0.008007247215007802,0.6058137940444992,2.3476492990342654,0.21365495411691432,-0.9737197643092794,-26.855725408382757,2.8516256395673905,49.50268356099265,-12.045331127334574,-5.311212112436562,-2.0367794117385225,-2.120379115559324,0.6619402596326325,-6.221829198636585,-1.6231935241576068,-2.8456542943909278,0.7070274978360611,-2.1450990528840523,-0.4928610778179107,-0.23780408599060088,-0.6601824360788686,-0.7145056474821769,0.01801009615025825,-0.14306791084414322,-0.0562785178308607,-0.16022008596341286,0.16672308550715548,-0.17625984484765048
2.069434954114447,-1.930805245871036,0.7391047791302916,1.6128800863230168,-2.7700829820643484,-0.29906962036486784,5.224755565922601,-6.70551380336851,4.068680830524165,16.161179189762375,-14.870727294698694,-1.2293011773377431,0.2836559398245435,-0.15118252038385516,0.18642365930903426,0.28607936939774453,-0.10606017379532534,-0.1783475487143576,27.98493660998631,-25.195904745945423,0.6732487161435521,62.17886941304133,-26.959559525404302,-2.088002407973904,0.1526590561879112,4.912732581982936,-0.1792715787816851,-2.4115456772024064,-5.561597918190675,0.8446381488680331,1.089401736499056,0.0054518437988382296,0.5570000811823334,2.589871857993599,-3.2493342809363894,1.011384309521183,0.33810508332048045,0.00737455287984987,0.14145883892120711,0.46240695528932757,-0.6175312755074644,0.27914359714254083
3.6871700724742973,0.4798544114991208,-0.2651414456116922,1.3814156984033956,-1.9509791817222775,-0.27499914763347966,10.137026379424615,-7.882710602416516,0.16214627306388613,14.264258764209467,-7.153590162331868,1.0635400816549225,0.4521109301951957,0.46846753903868843,0.493922854987999,0.41324183629908184,-0.34596781476065114,-0.30940564658765013,34.46225489490621,-16.18703005138984,5.968716720857611,37.643771423886946,-20.383330112922877,-4.590310036398668,-1.7450622763026813,0.09097819971041238,0.4165333850509475,-8.545493288294118,-1.8849860133413845,-3.043333431507417,0.6158608717214439,-1.1951944441685403,-0.3671187446528801,-0.6063431292002635,-1.390155644849681,-0.8945943434894634,0.09204905366289085,-0.05967241604676894,-0.04814246639040134,-0.10037626752745893,-0.37050576509512073,-0.18392351110468858
0.37430852259349773,1.7388829162420214,-0.28684985519370465,2.531903470644104,0.8303614167958316,0.6370607798736506,-3.0942681068444013,2.7051023671133874,0.42067663265418964,6.3403637906352595,-0.9210751790924536,0.7851015684523961,0.12305035986146606,-0.27026673931868306,0.25260830349642105,0.6034921366030798,-0.21742895669783183,0.5218429318749472,-0.31260608330149037,1.8941291559130802,2.28517426299455,40.01206603793077,-24.763792561619407,9.591756450239743,-3.6684599454261178,-5.221549132927503,0.19580597330296384,2.0942224023407765,-1.7731403515877528,2.7602905769597164,-0.09409103992343938,-3.5702011607344635,-1.5253922895181666,1.6357626116092356,-0.24350300405142283,1.1691080869375619,-0.05344889965747512,-0.5458258013628344,-0.24074302754112806,0.2678329869840162,0.03843926718166172,0.22627293771017123
2.3353842388864456,3.600720436789182,-0.6747227056083083,-0.6866967089549851,-0.08342390338259774,0.053365193445856635,3.3608087863548906,1.3818323809116344,1.9931667110427047,-2.1334992568440905,-4.624332240876612,-0.8186980243360884,0.2955670381394749,3.564155665328455,-0.7213959610905458,0.13894863571301613,-0.2775373240159871,0.01673016966360032,-3.5376640089778975,-7.250209253799601,4.1458776135773565,37.19023721259077,-14.327918693726263,-4.3461772427567515,0.829296700890878,1.5397067150224903,0.6245045421518927,-5.114560377855801,1.3177447715055022,-2.6172424757624437,1.567642099052804,-1.0926671011283473,0.6070420046954762,-0.09019313137797406,-0.005860332354596014,-0.17202704007703495,0.2548434596769461,-0.08503861013896231,0.11262603816743687,-0.023158403515465737,0.03939267605573832,-0.053234403080508946
4.141044125758104,7.896539732915872,-1.9249409643770328,-0.6611549015380748,-1.0536210517808877,-0.13032214170761264,4.995950073256989,8.692268576684588,-3.9509688961178844,0.2225256502628993,-4.1828525128891805,-0.13877027781945003,0.7083885739683479,6.923166019797944,-1.0667667462141572,0.26955418174997847,-0.30281186722225867,-0.13136817611718965,8.713209959662702,6.523770019285143,-3.781739731612984,47.302819247615865,0.9190190570218748,-9.514995586220993,-1.514465308837498,5.7610952900022,1.1130242945904887,-6.441862094268011,-1.7600750626589958,-0.9416506756641392,1.2011200132314628,-0.1206025880262668,0.571166994802864,0.06510930790933428,-1.2666864567675995,-0.012799304074291275,0.22608235894887357,0.14073905671153336,0.13507618593775625,-0.02879575412815838,-0.1633626395684156,-0.016489860792129375
9.45239297980591,6.377184225134842,-1.4499774838153183,1.8962580745563422,-0.3153402784723682,0.000491006867120317,14.868206752943442,-2.2783674085492813,0.9812947833253541,9.990752377856026,-2.267154260979687,0.32263774409145507,1.2428464446029874,10.231150449826673,-1.7842272307943865,0.5018541284288733,-0.36768182373670344,0.02487111196298667,32.85355377836341,-3.3668225172031163,4.8392726334986,52.36986981838572,-25.041144142730396,5.648709483471627,-2.1067891886845747,-1.0644386843493203,0.0956021225113973,-4.8116616949078335,-4.993964737426509,1.9598154336119198,0.5506158393560523,-2.9627616544905266,-0.8791279281877341,-0.0068652055973472195,-2.2001225518027643,0.2009441156767462,-0.04376387720083733,-0.31326450771388226,-0.13094469529916178,-0.02812342879488332,-0.28890212011913663,0.07656749851833433
9.184794468247025,7.923611195169773,-2.2409339964044346,0.6897905581872791,1.4704409918223988,0.047282961247303176,6.32172457979482,5.625462234272682,-0.55501065087262,7.814121567247615,1.3722718102868345,0.6101694623681768,1.183766528590691,13.091984900658563,-2.9728131753728055,0.16202249809860708,-0.15762710789575635,-0.04805552032315129,23.340033129035014,15.012461226527794,0.5892333067955187,41.049240167580585,-16.435971747378403,3.595194249810462,-1.8386610997438302,-2.7819560231930596,0.2874505417159626,-0.8504249036228129,-2.02197379118392,1.1443348704877263,0.5616037969310519,-2.5676152969160606,-0.9064503315303651,1.164015111887215,-1.265981621352375,0.6863106944528945,0.023370857115868476,-0.23182915898722065,-0.09573738616195747,0.12892855784186402,-0.1536219361741394,0.07699352385320377
9.614900625130296,11.863687378386993,-4.041221217543183,-0.9470430423828426,-1.310806680811196,-0.05047349550031913,3.305318729032953,9.62346353600615,-4.271556740979596,-0.008611353419209582,-7.640139209086297,-0.7578533686503287,1.2213413320962994,15.464821421760295,-4.065492992003124,0.2395278006534717,-0.25744000368543646,-0.02682565536425167,18.02874326262151,9.242331964897442,-7.060749751997186,21.300518892797957,-19.935328645169644,14.183003611479965,-0.7425748416225031,3.9206147243172977,1.0418393242678554,0.8112984705413867,-0.8940002765314526,1.2316212463573963,1.454753783082404,-1.1457658211103696,0.32953783220118493,1.60239370231265,-0.594901135323927,1.0081665011851833,0.32203630561903096,-0.036471666256741475,0.12851192314083598,0.2510367501420415,-0.05338566821380514,0.18220509736426307
9.719992968004787,12.691354995471665,-4.413370924928816,1.4848556578248266,-0.7169696785487002,-0.06086575752330141,3.49568362884757,13.154427110816117,-3.713502878253147,4.738595733629557,-1.798810310280518,-0.30347317074715235,0.4557630568829544,17.187352407646372,-4.75843471385496,0.5957041264818919,-0.46229726951737604,0.029829353493411422,33.30974034566886,26.320247161415463,-5.501057833260045,13.297548787337798,-25.943188743695174,12.432419231416338,-1.861793974989451,0.6891173666267425,0.3746351701425332,-3.8201986559206302,-5.625742464927318,3.6509291235491665,0.9116020407580608,-2.2973230687875166,-0.6926622717526355,0.7531085481869395,-2.3162529980533186,0.770199789863253,0.0818415064836245,-0.26469032145238125,-0.0921983580860661,0.10218084397620689,-0.2507858281286385,0.14557399331382373
6.58874096164828,8.680556715856094,-3.968830063436452,-0.029462791414470467,-0.028008943226481692,-0.05167418705136417,4.912312703835037,-0.12427671197055486,-2.4816922510553123,3.5236784595262867,-1.6200191112038698,0.6687175433471378,-1.0552902905796193,18.394605288659786,-5.501239945450831,0.2755574371745437,-0.3357562520356864,-0.16062213218457544,36.998283843271174,12.881585438268903,-1.5735335795138732,12.869920601644665,-13.374775150528325,1.3379775366376423,-0.40138190518496847,2.2850282333456273,0.8412534882300692,-5.8911582226361885,1.0131818381350732,-1.8602236495007107,1.608245230413645,-2.0673830373766124,0.01927585172284713,-0.20832446655610215,-0.6475392601245425,-0.11022764730501483,0.2419681418256928,-0.1136977182705425,0.0868371830655516,-0.14141081509154105,-0.028013193545489413,-0.11021268902644918
3.0293314331305896,8.221988615317652,-4.163875699327904,-0.8905743924248439,1.3864010600239312,0.2984020589886029,1.680906427817063,2.839109506469058,-2.895637504564734,6.823838235991112,1.0051649426505636,1.7601832488567208,-2.3118221459718225,19.87677259880008,-6.248367034515165,0.12130793953885814,-0.07530872503120273,0.05679890443429757,45.377554089994305,22.63223548126383,-2.647646458745883,11.804070870991842,-24.73862056320907,6.561183232573562,-0.7887896721036278,3.907397052952025,1.0009656352841307,0.38992068556019244,-0.15235037901064255,-0.35714660182797237,1.163964424068945,-1.5480905138889525,0.15843018525724692,0.7111706045678508,-0.7818006866441709,0.5230065418887717,0.08982474311445476,-0.04320143831048014,0.08567345360658293,0.04693562545322173,-0.10710617067630536,0.06837486739125247
-1.227529582801139,6.417916075708244,-4.019461837105388,-0.07596933137268815,-4.9912851250417525,-1.5117399091569443,-1.0968761472849504,3.0884022692427298,-1.951787653511158,9.242989017644781,-15.699896636850596,-5.0590669931938965,-3.694224557118474,21.458737150582124,-7.075639530220558,0.2144994657329647,-0.696644923205653,-0.5699764193839931,51.74375785513001,6.067016367333775,-11.167178941305806,-1.358974349869964,-7.400664145196981,3.495029915318034,1.78659925846265,0.1591470541950994,-1.1477919569039177,-4.442169665219422,-1.4543096143725573,0.8085824028156192,1.5356193367536761,-2.9608565735760157,-0.9091064504619221,0.19294104303661697,-1.3766237144939883,0.2995988462185576,0.09970328163782531,-0.4830648327930927,-0.24980403827468978,0.0489285031215536,-0.3114382732512399,0.08388732078437221
-4.673649780071558,4.48150800523169,-4.229932701843672,-3.684665496096563,-2.335993957855237,-1.218929578837247,-4.344357915572485,4.696276491831156,-5.413965846231542,5.605971512290148,-12.70936689475313,-1.5512274490368414,-4.354791337967518,23.288134749537548,-7.782643982137075,-1.441601441518798,1.1151981179865027,-0.7390713051846145,43.27848336329319,5.955149425775684,-12.617994710968556,-19.472492443102492,0.7349248170925644,6.363171606324915,4.156925543359337,0.3194078964033498,-0.7602286538618176,-0.8803902274710358,-2.4403870996694783,2.2529999000035126,1.4937584968446296,-1.6638826198778087,0.37929561256206545,0.8951821465645716,-1.0469560846949053,0.703036104591217,0.12094480869976379,-0.216857328598964,-0.014714946022224121,0.08201893290399002,0.014880319985488532,0.06492450604405708
-6.832186736204976,5.6023868888852695,-4.347013837180158,-8.672659814077036,2.0452931520733477,-0.9909499484197426,-24.776157402536704,11.350073394332387,-4.526197969955963,-8.004812992787786,-5.922386505583091,-2.8336412175285464,-4.756979962344513,25.19207688613003,-8.35286686502928,-2.4869215437966314,4.84579309348519,-0.35596594468490866,4.605908190679837,25.67633135363836,-16.808651094647566,-22.91684310474414,-28.67044857589844,8.814026294613234,4.538363965673156,1.541906887806111,0.018802364591020138,-1.145338379552922,0.8652184956880933,-1.022623642783067,1.6160285536274304,-0.9990854264520805,1.1356147624155435,0.8398236539817621,-0.878638334381764,0.6405943978687677,0.13830700931912357,0.020185641722586918,0.12924744706092717,0.19258558949736285,-0.12818967637421796,0.16072347065563525
-7.251460297064591,3.690820808931699,-4.40709590653733,-12.258243568565941,3.9377506094855854,-1.4160344133844025,-27.43704835826523,-1.8484822087172283,-4.592596329334986,-25.202902248576404,-4.354133159821203,-4.075363553420737,-5.039930448784416,26.93378165764121,-8.771152217305444,-3.2286096416355554,10.236567977633918,-0.3367512556422501,-26.48143671996057,10.720685132930702,-16.26208306087545,0.536167866736767,-26.868703459701187,3.9844096396120525,0.7817089807450124,-2.029028425913445,-1.2320793176997584,-2.899331136576182,-1.297342608763059,0.8477001265102788,2.084785999802148,-3.519724487703482,-1.5307227147076787,0.04383728501872813,-1.3213316619749143,0.2667164110116844,0.32080194044441157,-0.5828745085091802,-0.1982717785735951,-0.06138258592379435,-0.20329670570481345,0.006457753111701703
-8.146421995328865,4.994901102519827,-4.394649020677907,-14.850382620854479,10.455395000509927,-1.8602518776713897,-25.14687329664515,0.05516089874247639,-1.8198156432714219,-27.712807406373283,13.340742299852826,-3.730363147245391,-4.946899497887844,28.464219605427672,-9.127459036270492,-4.938781781714029,18.329015919995076,-0.3765559541953255,-26.90144119385945,29.830149072353127,-10.716237008692158,-12.880542262597366,-14.744888378874185,2.9323585595151904,1.5821609765090012,-0.8078239472907107,-0.8424830669122849,0.14288408441122738,-0.5064875496977189,0.4495542099846656,0.6115816238240295,-1.3949558706341705,-0.3374487911350158,0.5517085005633526,-0.790749898446706,0.3967492181809187,0.12677204377122847,-0.3256498207130009,-0.0008108994493866581,-0.10566760565375928,-0.19701721388901136,0.028947985507696623
-6.7547454295633,7.0436779313060764,-5.296613867315707,-15.714612145591488,18.667842624563544,-1.634719797579503,-18.1837829803226,-0.09913263388329219,-4.022695667423307,-41.62982175786483,27.833494881064027,-3.7824698324728123,-5.201125586211904,29.50436511202106,-9.39286294203369,-8.049779136399717,29.08900334219861,-0.11268647322021096,-45.45271199960471,38.521998130291934,-12.780954363038802,-36.29594624278241,-25.15169208639925,16.32561079734404,5.983911765209961,0.8188323833047557,-0.511728488890929,-1.7256878806899294,-0.2911979018545562,0.203041969756413,1.1859685753531168,-0.6745283251423395,1.2613279100791,0.20278946901892156,-0.5398137025034754,0.24482423047923713,0.1595227996424727,-0.0256867238039667,0.12818649808473354,0.03331562602592266,0.14667921800700306,-0.03706799209576595
-9.117031622247605,10.001010751269066,-5.938601416852394,-20.203754668107504,22.51146134821636,-2.4003270731791346,-26.00419772576581,-1.0327226161113612,-4.885536404442805,-49.0150149974785,30.696575495014365,-4.620298579003072,-4.834221948652472,29.977774820891284,-9.594672941216205,-14.068697307782728,41.12042277163603,-0.3897298143018327,-69.34363468978933,34.90804847018613,-17.52203796022412,-10.730649108638152,-16.62946360236919,0.4370805204234954,4.1113432306236986,-2.243402708379995,-1.441612334863201,-0.8730343219213164,-1.0603425305692529,0.4232183867141436,1.7828879456856526,-2.251510753762006,-0.6254683588196353,0.6370975684371055,-1.2961696422222602,0.5713549369198614,0.12352742355908075,-0.16252555728678814,-0.19330089417896482,0.15162218324178772,-0.17078234312937454,0.10915317521146468
-9.828920196752481,12.725540433391371,-6.481971346511421,-23.844582922456507,31.059202605753118,-1.8675717795817859,-25.589254840547536,1.559389873434998,-4.973921218119712,-60.128643886974125,50.386573831720305,-2.604534133652787,-4.143419039728287,29.830488077168834,-9.704231948837215,-22.21974303395148,52.89162680770292,0.16148318668174722,-85.66941514473014,57.441820688142236,-13.44234203751096,-16.08756801254147,-7.486916564062142,-1.6753851145142113,0.6265353173628572,0.0007336589620800527,-1.3246191146264616,-1.846477072369894,-0.14153269897067375,0.4594119650377219,1.0781841308068654,-2.1500450124872605,-1.3725362330445332,0.03563757983198665,-0.7920356676148632,0.5022397942844894,0.06858158362159525,-0.2917728927683355,-0.24627881899789922,-0.07460903111225806,-0.13666930610019123,0.11433001587432748
-9.627582811871887,12.142870317461721,-6.379301241889712,-29.455109064821503,32.467014110780504,-1.7658294381471284,-27.945189401350934,1.4670380195029928,-4.460517770976367,-79.49814931428111,52.96401153626128,-4.705743453848249,-3.62257864734836,29.795559142107436,-9.68295769134665,-31.47114170073923,63.757718587500406,0.8326578685875392,-126.50512254108419,53.52829924553202,-15.758893897435486,-20.44846432550237,-3.172735207820021,13.273346356535642,5.375434910233965,3.7652037521993966,2.138447790923311,-0.3534080460447817,-0.9590754688732617,1.0090951948678057,1.763645957210156,-1.6629637568948803,3.027165798735541,0.3958184829100132,-0.6424673988219558,0.24199683239475883,0.22115531170279576,-0.03937372386720454,0.5872554340884556,-0.03842604910953792,-0.058086115721397324,-0.01001308718524736
-11.542713300763303,10.782289559183774,-6.1816871149587,-32.42658784431344,37.3732373733319,-1.1328827707018787,-30.620366964792222,-2.498536928239158,-4.653303422546657,-70.14991511949253,63.24511457624006,0.04742733139139819,-3.3710458281147737,29.453657054140308,-9.62912561215775,-41.397306406458476,72.47376889931826,1.851203041167379,-121.94859141335006,57.1783166087418,-12.041725253124799,-2.9557243596416685,-16.89581961381248,1.4588883501713568,4.345788201687894,0.317642445744237,0.555022922226385,-1.3701167048183194,-2.5437075763494814,1.873061923189373,1.4897870491256502,-1.500860657978773,1.237845432162342,0.42986119543089873,-1.9163585989299432,0.8190500557933498,0.2836307380179253,-0.2076223048136408,0.06549366992208253,0.11664093232373848,-0.29810013755021997,0.15465218347789145
-8.862147234532468,12.266060058968872,-6.216061657600683,-42.807239511316475,43.09864305054199,0.4678814687653846,-23.12976167553776,1.2404128250746829,-3.389871448911948,-81.46972344010216,67.00169663600178,0.7373075468068874,-3.186990662191258,28.610653230427296,-9.292838684959285,-49.740355182513454,77.20418138899149,3.446820948572822,-123.10394233522561,71.64577735855077,-9.11142686809808,-16.006772335908366,-7.190655530291766,10.046903719578786,1.6103663844996334,2.146192106781189,0.08790055609781146,-1.1514868706210357,-5.977316255571308,3.2317889967334716,0.7406520804461191,-0.7026446857528541,0.2234904069851053,0.061663154467584226,-2.4530919568054084,0.7881455606575859,0.07954212712537151,0.04487621702871808,0.06690237417482511,-0.06820169798672258,-0.23873238284552875,0.03145170747257168
-9.56366072272915,12.817775554090654,-6.143897165562302,-55.07036605086301,46.933775786361196,2.154947193058325,-26.310947009183263,8.402374117233002,-4.421652786984917,-102.70212783803902,68.17715927962387,1.82520345762918,-2.791358465501633,28.007011235355602,-9.002427124352161,-56.008475673047606,78.77223405378376,4.823617995449391,-153.66735746044833,80.3140139443526,-8.919086474876183,-13.667743780880032,0.09614216055938468,-0.03542232806086716,0.18753936631684973,-1.29707512795313,-0.20797957228689298,-2.4734088976217254,1.6522057993861294,-0.6649270010825078,0.3773673803351881,-0.7674220001433806,-0.3254729793425768,-0.137632998491057,-0.19019961519890247,-0.028534259882760094,-0.11596589592145433,0.12065458537655922,-0.10072595653363463,0.036580343953747735,-0.05552748509555793,-0.0002497680860703614
-11.325962948634542,10.307768079630094,-5.5634187177971235,-66.57184881682724,53.02892705442298,3.76366653302679,-26.984828615693875,3.086127044613127,-4.428793519127286,-106.89469865249669,84.39861432538335,6.0557255813390585,-2.2855273579113327,26.91071425911141,-8.597687819176052,-60.42153364991442,76.39884157199553,5.936739542609069,-152.55074913068924,98.09384321672363,-1.3418115600070488,-9.390997440892013,-22.86492472767357,3.763617800123193,3.32915596104372,1.9009507450124632,1.548894394601903,-2.342663235667461,3.564200239038269,-1.2369785190659537,1.4922666621025356,-2.229928395390164,1.6534163520822824,-0.1560351970065161,-0.018869224696554908,0.1209550890886939,0.30805748795211474,-0.2991738256151281,0.3055175266436108,0.00746723271256104,-0.15044495578959674,0.12566077067362919
-7.40946399423485,12.010238856101797,-5.288216013080785,-76.57281933042995,55.42681190982547,5.226446317031415,-19.42113164244511,6.6940446551810915,-3.809704313400758,-112.24205664415996,79.23672370089433,5.846192518597018,-2.2417825444534834,25.62577097928056,-7.6962313090364525,-63.07378977025622,71.46897078380437,6.855469120600057,-140.47759018060682,92.38225005848699,-5.346614754230191,-27.078761787495626,-20.68079150665781,10.350811622342308,4.5886771963237605,0.0503320610537511,-0.21575225616520688,-0.8900293859759771,-0.18122740741931823,0.4131189657584261,1.4128109766879093,-2.3267921265291482,0.5745820364737324,0.31970113411561296,-1.347104644961541,0.7391458041996783,0.318281102030234,-0.36146537750599617,0.2277571619429692,0.0563550263453549,-0.19782761462865817,0.16398535594382474
-5.82532,10.29246,-4.41938,-81.39384,52.2809,6.01939,-23.35073,-1.69025,-2.55702,-122.37894,62.49201,5.34319,-2.21062,24.13506,-6.69106,-64.94682,66.36891,7.29318,-166.59546,55.34855,-4.2662,-25.72486,-0.19049,2.74522,4.30664,0.6481,0.37355,-2.12992,-1.26702,1.24309,0.35739,-0.95759,0.99564,0.19764,-1.19452,0.60851,-0.02563,0.07177,-0.31636,0.15825,-0.09606,0.09854
-4.653880000000001,10.224320000000004,-3.9403700000000006,-80.61065,51.08162,6.150830000000002,-19.733610000000002,1.4958200000000001,-2.09641,-121.79227000000002,66.18372,6.52163,-1.9997500000000006,23.245,-6.069280000000001,-65.50779000000001,63.8854,7.35767,-162.89328000000003,68.46706000000002,-0.9139800000000002,-9.347470000000001,-6.639840000000002,0.4157400000000001,3.48629,0.7546800000000001,0.9740100000000002,-2.7022700000000004,0.35651000000000005,0.55884,0.5782400000000001,-1.2196600000000002,1.27589,-0.36611000000000005,-0.5650100000000001,0.3504400000000001,-0.025580000000000002,0.11072000000000003,-0.10431000000000004,-0.04106,-0.034330000000000006,0.06839
-4.446461358251171,10.426344871812423,-3.876940485393066,-80.34334105045191,50.886123712980535,6.15092274864104,-19.018021021114112,2.875214860448467,-2.1042981863178833,-121.31576160431273,67.5192709039205,6.791373292043933,-1.9521267642688658,23.06541358922248,-5.946093827336773,-65.58133644469568,63.41969778469734,7.351009604597972,-161.4887804654614,73.02283345915541,-0.47117548112232455,-6.737871807848444,-8.831795049204421,0.18370967272532737,3.1946528259575273,0.7478791092508738,1.0217720388417346,-2.775703796217061,0.7780087880907214,0.3605168146886473,0.632578474764081,-1.2818084663224947,1.2483109353260653,-0.4907364149317539,-0.46065332209390647,0.3247243452610485,-0.022772683089073754,0.10686580599781882,-0.044034687435568716,-0.09060876783317989,-0.027174530196337796,0.07126844419826976
-4.295335076716455,10.663488646373816,-3.827430490201101,-80.05498559324217,50.60590075303822,6.1339451061901,-18.459236394047515,4.1670737066601875,-2.1661982370641932,-120.63337752750834,68.44632708942581,7.007337840139404,-1.9072373961360434,22.88276033595591,-5.827403886271768,-65.63802571571132,62.95162112506759,7.3355223493624795,-160.0116720768502,76.79365962450665,-0.24096140646192177,-4.671507472061552,-11.069751567703927,0.05786837631752309,2.8911914253137088,0.7159621807646218,1.0280076427078477,-2.839476557194428,1.0691946554850082,0.2317568886383901,0.6851358447628219,-1.3376871535273764,1.1831144105046345,-0.5995402137176995,-0.4089833970619433,0.32656885640939787,-0.018713909566216044,0.10058622377726703,0.006893880652742637,-0.13609876700539633,-0.02501656177278161,0.07848457334813319
