PaulMeinheit/Bachelor_Muay_Thai/processed_Data/N2/roundhouse/scaled/JointMoments/scaled4.csv
R_KNEE_MOMENT,R_KNEE_MOMENT,R_KNEE_MOMENT,L_KNEE_MOMENT,L_KNEE_MOMENT,L_KNEE_MOMENT,R_HIP_MOMENT,R_HIP_MOMENT,R_HIP_MOMENT,L_HIP_MOMENT,L_HIP_MOMENT,L_HIP_MOMENT,R_ANKLE_MOMENT,R_ANKLE_MOMENT,R_ANKLE_MOMENT,L_ANKLE_MOMENT,L_ANKLE_MOMENT,L_ANKLE_MOMENT,WAIST_JOINT_MOMENT,WAIST_JOINT_MOMENT,WAIST_JOINT_MOMENT,NECK_MOMENT,NECK_MOMENT,NECK_MOMENT,L_SHOULDER_MOMENT,L_SHOULDER_MOMENT,L_SHOULDER_MOMENT,R_SHOULDER_MOMENT,R_SHOULDER_MOMENT,R_SHOULDER_MOMENT,L_ELBOW_MOMENT,L_ELBOW_MOMENT,L_ELBOW_MOMENT,R_ELBOW_MOMENT,R_ELBOW_MOMENT,R_ELBOW_MOMENT,L_WRIST_MOMENT,L_WRIST_MOMENT,L_WRIST_MOMENT,R_WRIST_MOMENT,R_WRIST_MOMENT,R_WRIST_MOMENT
X,Y,Z,X,Y,Z,X,Y,Z,X,Y,Z,X,Y,Z,X,Y,Z,X,Y,Z,X,Y,Z,X,Y,Z,X,Y,Z,X,Y,Z,X,Y,Z,X,Y,Z,X,Y,Z
-1.20917,24.260240000000007,-6.268930000000002,-39.01934000000001,4.60997,-0.3585400000000001,-10.686600000000004,15.172520000000002,-4.19354,-20.649200000000004,-2.4284300000000005,0.7542900000000001,3.4298900000000003,44.57381000000001,-10.415580000000002,-57.852710000000016,28.785900000000005,4.956170000000001,-12.948000000000002,11.60501,-5.82878,-10.29162,-7.072580000000002,-1.2394700000000003,1.5709500000000007,-4.864380000000001,-0.7148800000000001,0.8579400000000001,0.2731200000000001,0.21989000000000006,0.5362400000000002,-0.9955599999999998,-0.3293900000000001,0.41435000000000005,-0.24233000000000005,0.5984099999999999,0.06044,-0.26131,0.05714000000000001,0.08489000000000001,0.03577000000000001,0.16110000000000002
-1.222630236500662,25.75589219350966,-6.2568582895925235,-61.082881069619596,18.28231983937268,3.511664305830377,-11.767525662653457,17.65005386040558,-4.37014678834292,-60.259805941882284,19.91211980650993,2.7775397920303595,3.291584851691179,43.94073331978409,-9.8755413478179,-63.68631090908956,30.326716333366498,6.163036702339789,-62.43479983101215,41.52805508365144,-3.071380787254326,-8.30618986900025,-4.118730787683349,0.8785796664645158,3.9343193224325184,-0.47871488438850684,0.9467499596773503,-3.125051969323905,4.664291141274886,-0.9951167060706545,0.1261144444520151,-0.12740372789900273,0.45959226030156614,-0.04264392392516752,-0.13913831505559504,-0.21307050055445653,0.15594959225985866,0.20255824621506513,-0.13099298277455804,-0.0074103448980132,0.09709289106478937,-0.06220879380857827
-1.1099767366549782,24.73231937896883,-6.223905111650825,-70.82591674409882,23.48006326222799,5.337774860003832,-10.90141761369197,17.54493252771838,-5.888090906817302,-78.76028687111183,28.3325302883753,6.897726576749259,2.9669786180023943,44.00702073816521,-9.721577840455181,-67.78293730402724,31.27372968534171,6.7105934166908225,-89.39839098969561,50.68349399641672,1.6710916056259402,-1.218400424733173,-28.059489744107545,4.060117456013098,0.6811957210004652,1.2894898902490657,-0.07047526672849258,-2.0668705543497086,-1.165600397347032,-0.40531137445970883,0.666241486793481,-1.4136673979702243,-0.32628927126940643,-0.37504228803909606,-1.8465027718090647,-0.6929244091070033,0.04015693552219136,-0.21317272162288173,-0.020155007013368892,-0.14602248236189094,-0.268154622158119,-0.17206548277490205
0.979440913290406,23.250741107120234,-6.014338721590601,-78.0074866621622,29.517225269055533,5.8627193518011085,-5.179224940047808,15.939317389233576,-4.323241222461342,-82.77423356862317,39.80521721715434,7.409688301860817,2.3391486474193623,43.29434307739991,-9.528076065707062,-68.472872795541,31.08166815864592,6.0194414916898475,-71.1156217608732,61.93457009236111,2.553411781204209,-13.127056821617213,-2.581648139641423,1.4896411588156513,1.6607184480131487,-1.5047445549648817,1.4731839597145369,1.5089975820092822,-0.3658387694327685,0.6098311746535903,-0.6441519242989203,-0.777140059450227,1.1447920900855533,1.032930485893634,-1.9672618809229538,1.427554660457121,-0.09992028971360942,-0.09661360748963138,0.22250299742343593,0.011525020509756942,-0.16689861028612613,0.12678191677575762
-3.540668290031197,23.587262517173148,-5.950044658101373,-79.361375985458,23.783359490484447,3.0155395792481827,-19.503634182379315,18.37802809979805,-4.74760428837245,-93.65961661041405,27.749954536223512,3.5797155188336482,2.800398753127504,42.25535981383199,-9.514321453977832,-67.0533595244823,30.468936304528935,4.087434283199365,-106.70636370355159,56.47298110299724,-3.921991973540975,-1.3240659104211259,-12.453453988846523,-0.45045478702366926,2.688876391065375,-1.780133533991234,-0.5690421440861643,-3.5104854975219077,-0.3603266826715095,0.40941228380664535,1.5562084083496786,-1.5722439055059791,-0.6412706482556212,0.13189600311174574,-2.4072949696296573,-0.2116687473742765,0.1832755740466803,-0.0002148354429307314,-0.1392173348123975,0.013946985380359026,-0.3159084225871688,0.034984170433226144
-0.9690781143822965,20.944317309642198,-6.090384158768197,-72.92013877957851,19.56026672319447,0.7531420690315774,-5.493605605461928,13.087160125117903,-4.958148026693489,-80.80476355187848,20.62173664879958,0.31065758864280246,2.396752571697617,40.02499938811352,-9.367084440445147,-65.0051006526169,30.34922488637225,2.876837276644125,-67.79851906410056,32.356501818582736,-4.9773099987421014,-16.545673884754795,-13.99189179426371,11.224069123418445,2.3555226810105427,-0.790751926458712,1.2959524284050035,1.1199907120429007,0.15895921418899137,0.647690571083879,-0.3343358686301781,-1.3157463366000341,0.7009053266198746,1.1178876500692883,-1.7579370927006055,1.594413094911401,-0.008527439039808517,-0.16127985056570476,0.06628939231337828,0.15630059855673237,-0.21404415182463868,0.41977841192990983
-2.850114286006712,19.51103993807976,-6.359823967987107,-73.1447639326169,16.50130993021931,-1.0752026756661526,-15.53122357092854,16.84138811242484,-5.657711978295133,-83.69069478716573,14.957199495220864,-1.3789503210003555,1.6208625622492017,36.832527781126984,-9.458908100181738,-64.90022679551889,30.980912763780626,1.640512252462589,-85.6519644349746,38.01107169253609,-11.216518820482294,-4.780384640059151,1.1696534972497226,2.143583760558614,3.401050708903384,-3.1953173249054205,-0.3088308009372935,-2.9111401439888875,-0.6101286200180895,-0.013836682135122147,0.3457112762626871,-0.6296700963202038,-0.1421079488214575,-0.28270012916005854,-2.191208797203373,-0.4459810001617458,0.023341243816454603,0.014428854958031727,-0.05934300385632733,-0.18747781270282646,-0.28576547956168535,-0.20253357494774016
-3.0976646119033813,17.997083500192385,-6.666522058851155,-77.64837959292679,17.949438573593923,-1.6411743263459075,-12.78424140020029,13.006755863115659,-4.994150302871452,-92.1010152151526,20.305344281305477,-3.355763646841946,1.3632032054579628,33.436580117897115,-9.506582186406613,-67.05159166518979,32.84333278823872,1.3082527807968805,-97.9558655868333,38.78898900351213,-9.20351116686439,-1.0727403178090864,-24.306084157625776,3.823008969763094,0.7312589333613566,-1.477700731579275,-0.15215151243206848,-0.2646142620227502,-3.531510713889497,1.913773681530263,0.7608168187222291,-0.7058765305895401,-0.035424958710662716,0.8953844825835054,-3.2201398757152555,1.235410706904673,0.13569254179546067,0.06884450908312852,-0.030264305234064558,0.06977218639922547,-0.43864598310039016,0.3188396100146717
-3.714089508644561,16.861253265487548,-7.664532481041096,-85.3747598412973,22.60856706443325,-0.49543986667802675,-11.755420245622526,11.678489023532922,-8.227969498758164,-99.36578228379675,19.529056980156458,-0.018169892496388132,0.7761871806670558,31.2589110165815,-10.037159093540778,-71.95872906680825,36.57784400839269,1.5498766104685888,-95.70579222829068,30.649553124841226,-13.946140713904299,-15.73124537970597,7.444058590740802,4.6465055337187735,4.397449205186391,-1.7074746899729965,1.2398812914918744,-0.6678255113063781,1.1606488102274126,-0.41127926754075006,-0.17261998879623394,-1.5825949958073957,0.6158245988931681,0.1545018527572664,-0.673070261046211,0.10185966167928603,-0.012257001413256963,-0.2665003988751668,0.11905999035327497,-0.04112691561403255,0.009455963793413638,-0.0791893504315749
-3.7143398678661956,14.926551906511241,-7.817079802245057,-96.95064575154441,21.1565473670568,-1.8261726424770934,-18.034646128412135,12.30817262450042,-7.3783865591593445,-125.92966701946,29.389004196871035,-1.9032689318035414,0.3739352704303095,28.74427834687507,-10.239609413738515,-79.24513688648018,40.567493723650884,1.1791017389868235,-142.74272901556006,51.981983874679585,-10.565259051725162,-10.582183211424523,-11.157698477149422,13.598011196695216,2.952977911810662,-0.654410159085774,0.023784932150424785,1.227869381638511,-4.5567775600389915,2.147804720483664,0.1207788523702238,-0.003146968155101019,-0.11155815241247834,1.0599605141764228,-2.69693337395727,1.2110431990960622,0.027712079705836074,0.15243635376825473,-0.1012703075344546,0.07592439181195283,-0.3745722235669789,0.2424767973574236
-3.055122087516831,17.463920652563623,-8.600275255363304,-103.28063211368784,24.526680939540018,-1.4086876499355128,-20.428866692613862,20.578241427922897,-6.002759181782277,-134.44538984409388,37.10717724740011,-2.515995042586403,-0.02443302596082387,26.791694684953654,-10.606913640221117,-86.30109094461012,45.27094927660662,1.8401922447432113,-154.13111968343225,70.11803213750136,-13.119071623850278,12.347488408311595,-17.10601875968553,8.688680782237059,2.194155025183827,0.810399434433255,1.3305914917965254,0.506944459276784,-3.6264560034845594,2.218127517889504,-0.7205468457630754,-0.038409040990320095,0.7504582468345533,0.9009972670412426,-2.161744136090498,1.2748534376903087,-0.164127019275483,0.12545247218489822,0.09570775857271333,0.05957151025248287,-0.346057810547879,0.3244855487227381
-5.77549048363325,16.45423781081046,-9.376843057567454,-109.25095903862534,27.851396670491027,0.10353478336532153,-18.970154562309048,2.8752756864761446,-7.531197036530807,-140.4140533522045,30.005886035428624,-2.636927662775691,-0.4857341882940767,25.26527330483519,-11.083140893986107,-91.50081944269952,48.92789839337078,3.0007942715140032,-154.16366440495295,25.001763873604652,-15.371844497093134,-25.311695497192794,19.185953386843195,8.162996514684455,4.804652482162283,1.0468348436393258,3.0417150831315607,2.7253966166257855,-5.354606339336621,2.3164941626697413,-2.0546229087507797,-0.5215350783771615,1.6142844768812588,1.50268487941758,-2.253644174832299,1.123667486000826,-0.18742885053185862,0.05605703355727075,0.018275114463389912,0.18844314842797355,-0.07378660658455963,0.174201205560376
-7.283001142895639,17.295812176820228,-9.9701255309966,-122.20424670164496,35.53700492177138,1.533251679075134,-24.105556937402007,14.830590910611038,-9.371761912981546,-178.04976062047848,64.79692653898574,6.240545665497496,-1.2062084733943663,24.03007218671262,-11.361273604894139,-96.95958328117386,50.977613322150745,2.78245638550941,-205.00061421767302,99.2062605075326,-3.952151298788195,-19.45864346680406,-47.76784964630597,31.407106188727543,-0.03449533759560437,4.759279992853161,2.100452127293504,7.510200832540293,-7.4647024011675285,3.17960132963105,-1.4483300700215025,0.8290695054858574,0.8173109032348893,2.381656511716861,-2.270221867343226,2.2124813039831244,-0.5146311743584338,0.2785924900661076,0.15370590985867003,0.20228990607446515,-0.21739959498446704,0.3798141982931538
-7.904900918052984,22.064385829939056,-11.181415284647468,-121.06195219978136,33.72389370062052,0.7367113953836025,-20.18331609003913,24.665252629930492,-11.265235713170028,-181.25799234302474,54.47212982745826,-1.4984775438293465,-1.6445080120427056,22.99530037144893,-11.658261132768144,-101.03985797927683,51.40083358195721,2.5155196309471664,-205.42234623019039,82.38638208761009,-21.945715410336675,-1.8149753075647688,30.252320401864278,-1.2382869778186767,1.4675865156211065,-2.686495578835779,-0.4341303756059859,1.8457560942106566,-4.375208730880284,1.8824428638414825,-1.500019613540817,1.3548789732905089,0.9156361709386436,1.0031233478188868,-1.4722238833323267,0.6370569221908929,-0.20313598747731756,0.16952653958943095,0.030332400955042957,0.060322233175575474,-0.08034480059503689,0.0762044852734184
-9.317801453502021,22.493646435569037,-11.44858653346712,-122.17480758948578,37.01275559430721,1.9590167779083618,-23.657416709619405,18.778968383164294,-8.913947948958738,-200.02120527538895,75.34359515551296,4.309785831666667,-2.2999299365023975,22.871111173773123,-12.074587581158898,-103.12853164805085,51.832473144404446,2.788355084973922,-228.64765842995357,105.06457166304854,-4.5361185353238795,-35.79742180456231,-23.35861083817259,19.40960729440072,2.3451171105599573,7.5362408466724915,6.552447341434713,5.722167564020447,2.5564341126868606,0.5549190609127757,-3.1185744673293905,0.7770249598338507,4.0885750749619545,2.5285745163769646,-0.30818603620404605,2.309697296800741,-0.7131406858944797,0.24933272919822247,0.5612136300439571,0.3213030911713076,-0.13143366910677826,0.45679896386475904
-9.707379681603564,26.918710834952666,-12.76226276239257,-116.25828694201995,33.70175599830676,1.8653176922540626,-25.759865179067678,28.867955985243512,-12.205927857561473,-206.73510307354755,64.43135433652122,-2.1015458717996314,-2.548072571800301,23.167426630219857,-12.470616460105248,-102.38603187218084,49.468538830063075,2.5715956276880654,-247.48109423208655,100.39294522801416,-25.773603513461573,-16.883349420619474,-43.45175820545905,24.702516240819747,-3.2112073940312262,7.808193582947342,6.620849561045797,4.129281453767641,-5.305941449583741,1.158685103838432,-2.29924193311154,1.0411303899740092,3.6356648215527194,2.7889598101475688,-4.61025990491493,1.087574843789145,-0.5268429408854685,0.11502130966326819,0.6225455635905027,0.20717666246355307,-0.7280484877035046,0.2398002174340612
-12.250073990410684,31.433926689228016,-13.656282964435059,-107.15541218014465,42.20206094066668,2.7564380422754615,-33.40261247546365,30.575430015324876,-11.872965883466275,-194.56743145791927,96.17145428753074,8.477267187794117,-2.523444334420105,24.65327886958134,-12.996677924757705,-101.02444976486245,45.82986577325054,2.749676366224513,-237.01179216718702,140.5126824477221,-7.621811344634969,-1.534129892386043,-17.741701816992908,13.416746675748312,-0.8992888108924804,5.866054505750816,2.661036407070312,11.700229856050717,-5.849597778463992,3.302379440223124,-0.23336001588284347,0.8008669331744718,0.6471945739054726,4.545457340801783,-2.6700544982679033,2.4357489085598507,-0.03493253403299594,0.1225582588713153,0.3626537088797494,0.4563410056772101,-0.2862020083239367,0.4124823113920856
-12.016056511074309,37.79876457755088,-15.190198635195372,-95.63523231515354,45.38755709350549,2.804058034358373,-22.229302582521555,40.81865089351957,-16.113075348317295,-186.87239588552313,95.73319189474216,10.27218503533617,-2.7221664452533885,26.61663696975362,-13.529777928737948,-94.25076371307891,44.46541102147615,2.3676017836737038,-210.29724844291303,151.85994463781896,-11.773211125799248,-50.231218629162875,-29.81843604526911,30.693618172224475,-5.84686535578798,15.286740405784913,9.865449661668846,5.859822904208919,-1.6815774201796565,1.5182892824975973,-0.6776488802551051,2.0802664913170865,3.0856677602266553,4.9341797616167185,-4.108550997278265,2.1048202621382828,0.00514981384004298,0.16303565733895967,0.4469435638760263,0.5416241506283074,-0.8546479834368713,0.33817984917654303
-11.451786019920407,44.13716827890994,-15.770794730731975,-78.30111703765263,50.886793569602276,-0.04328148549369436,-21.240029533194317,44.08331537497197,-13.22447983192216,-186.91983790725484,100.92713810393418,-3.594468694403921,-2.6055002231854636,29.900989638095115,-13.854114476727506,-81.0290452813189,46.81644698920203,0.49405399969852093,-219.73057345510827,152.4351766717163,-20.892721475851413,-16.924493745691702,-60.65300642408143,49.07713587067242,-14.001417672310646,17.622387658621268,12.113405600179341,16.86027852247672,-7.560365539584522,4.9045533863305835,-1.6225630569906708,2.6586473208584627,2.714418692432679,7.5214865224848255,-3.9858946094024748,3.0697714888002503,-0.02768301359385853,0.307673587242048,0.9028789040283863,0.8572596830533149,-0.57759026958836,0.48526837402751927
-14.191757289876463,53.65232780390859,-17.63453418076722,-55.79214867842817,59.79492668288231,-1.2387457324475624,-29.5035455258293,53.89963558612242,-15.80573845818682,-150.4419253333049,111.30305630453353,4.699722275379017,-1.2730522477021555,36.869866872967826,-15.248416419750997,-59.955179907164236,55.442432246181696,-1.321588799607118,-184.54747436737918,179.70511623196688,-18.612405985422864,0.2158072659075976,-50.46606913401763,27.657534649653396,-6.691849529678792,10.316909329325235,7.551765205286579,8.141481443604643,3.9846746703703873,3.3749305726150918,1.5153569280648813,-1.2846782405214314,0.02789061101014295,4.063893489646288,-0.6465001750277397,3.334915428569166,0.6158612727975172,-0.3315745188863648,0.05637506738758799,0.40472570542850067,-0.1656877212311754,0.4612106589623713
-15.21375879146325,55.11065800737123,-17.073483553664445,-22.855671980821974,65.40451602853925,-2.7928003626385878,-38.07102760655956,37.32494741985565,-9.83941601952347,-125.66909327783351,108.01273011772172,-6.944322515624058,0.19172758599284928,47.33065594842465,-16.928888277559473,-34.95980735692396,69.92451573633294,-2.8437667999916583,-164.93111417772107,156.53301805864984,-27.70891052233707,-32.973302175435805,-20.46461019699517,4.1246637982619205,-5.752072063023847,-3.5673220582663268,-0.6871191451411514,10.253257307482595,-3.3777549562693547,2.6787119759206486,-0.9596688901797421,-2.796149235921569,-2.5710186993845854,5.360404632808927,-2.533197139048374,1.3214204405967738,0.14271275169968697,-0.32996408656299775,-0.513912185285918,0.5223676600182399,-0.43439920383628555,-0.09877761531160975
-15.057877080186884,60.37355083691306,-17.010606743034906,7.170344588964079,89.41480734422288,-1.56328148850014,-28.053607641484355,44.55034624209878,-10.970021865345089,-109.93389524457785,136.10071782065975,-1.2768183685817003,1.0110117331515431,58.90445523469351,-18.858102265962554,-9.286820091731666,86.77379600095523,-2.00450184908356,-148.96147299809564,189.215024925109,-15.568139510605727,8.702447626268622,-58.27782567003951,42.06445686057579,-6.92361193640071,1.569375542906508,1.433388404040496,4.56684956052823,-1.5183726453924649,3.792621441458238,0.235613009027368,-4.911323680569989,-1.637659921064158,3.243425482697356,-0.6770926872144906,3.251021701735112,0.18909187310539555,-0.8164041278237198,-0.30432207448397974,0.5229508836359501,-0.24792828080798063,0.6934258666577029
-11.600369737946972,54.501113775046214,-13.847513440973952,36.76290362867337,99.49203547969475,-2.6059376663233813,-23.892877514224907,29.4929119357885,-5.218525482319133,-110.01158808395661,148.54226036825946,-15.57527032187692,0.47831456933763666,66.21497381744113,-19.227297376576107,11.999674339436686,98.68613399164823,-2.7287304236804983,-156.80199920864055,183.15850211793983,-27.061726918313674,32.42014875694676,-28.887159084239396,-23.784214980272463,9.489690939068037,-13.83946588544203,-6.0081493298899264,-13.140677503307195,8.621176071657668,-3.49746608895189,5.591411334691691,-6.4290798857697276,-4.136412714348164,-1.1640587937314202,0.9831992941195624,1.0633953343747349,0.7764338546165953,-0.8575190794733333,-0.8216661210562758,-0.31002474008887615,0.24198452188782912,-0.07633511203833174
-9.481651813368243,31.393732721849815,-4.652688582543298,67.56655460852657,93.59611573086882,0.6199065044984847,-15.213210367799359,-16.351970825913096,11.617737669242914,-61.06480647496492,145.5430247105433,1.6006150433732094,-2.109248805937894,62.12291129922304,-16.269242914956696,28.518345425591843,106.2129874384827,-2.294727134799167,-107.58784757465413,112.88341698211171,20.468868126353225,36.73705897008069,21.80883856459398,-15.267300860601871,13.861137703716182,-10.741313987173541,-7.1806528286034,-7.895143470346909,-5.12795584569141,-8.528910492755585,7.139332862145115,-3.4566685426381816,-4.124570198816062,-4.153348155179729,0.3874937456515466,-5.790582092621754,1.1609703708446313,-0.35019408726329576,-0.9001279264994125,-0.7965532162521358,0.295808349897267,-1.0943506236359273
-7.66748490434135,9.664363559685071,3.8589983875908658,80.5873797869704,87.78770787578328,2.3568762700261776,-0.2610673855060664,-13.685175582016043,12.891542460142935,-53.51971177913611,126.88581481331612,-3.650444973945034,-6.375895584705001,42.3158859174427,-9.380263318720617,38.59709847238509,104.98148992347,-1.4891572759063698,-85.71303596163172,100.2919338034847,10.906960392922443,46.59446458266227,19.289202830104056,-46.54349285569629,19.675270282368437,-10.937519799457775,-9.40057381425541,-15.117749213797099,4.808835770967249,-7.909553651113169,7.103846826652134,-3.3644515698247837,-3.482150503771509,-6.150501967450779,0.7955108002762443,-3.0859423302675903,0.9046147892113826,-0.29775870833328866,-0.40824019046801213,-1.117684007402499,0.30184144541888686,-0.8387207381649419
-3.721372712297183,8.272287056008189,1.5425732878305116,82.37461698156143,75.86719790081008,3.977557379985348,20.48315523721263,-13.815821355695375,15.698038888278576,-45.36694683509665,106.42498367293716,-7.866772324445879,-7.486089264861254,19.05177967465552,-2.505794270046459,41.50735486918579,95.96123144716131,-0.6649934002245599,-69.08272564799384,64.49750172720016,26.939169259088132,70.52231732690115,64.21666154508362,-40.720378294231345,17.9253418210098,-3.6531053231548793,-9.597633397708385,-20.80404590577999,-2.809658262066662,-22.25995974822633,9.153542721915406,-0.8653081176032665,-5.180619448766912,-3.92203593285619,-0.8871643296414827,-8.87160655141768,1.3064273712881689,-0.04702734555671121,-0.9838897397299962,-0.361069082833039,-0.06276658059140425,-1.579709158748011
-9.948162383264608,11.835437021915272,-2.6055848777822326,74.49303989406366,72.37645216983698,5.3728358426432585,26.755339642793835,-19.912173238492347,18.577748567871218,-40.88195494675378,82.99711711791726,-5.744395419051232,-4.8525123423394545,5.361325526046334,-0.13749560981068887,38.92117159634609,85.79278824798135,0.6981712655121066,-56.120669365196896,6.28055064199939,33.48562492956691,52.47159052013036,45.88289498557756,-45.521718736736354,21.43176896215085,-4.040511034948612,-11.054739003379849,-19.476124961657867,3.20656317907289,-14.067155681532702,8.124155354811913,-1.4078438902964248,-4.9532252737985125,-4.828043077851989,1.1471500541721167,-3.161602996580011,0.98889340837589,-0.10691042063342732,-0.6732871767251785,-0.6026021225519103,0.3041831448773986,-0.6767115409044089
2.181253508379843,-11.097473594694364,7.17274707639352,67.56617554448977,66.45598629806865,5.479391951174508,40.706589585479186,-35.47199144139132,31.02461627178556,-29.73187556704594,69.19514443661048,-4.713713760283076,-0.06930946360261962,-4.839387249753703,1.632343451482707,34.99958855250268,76.76262920523308,0.908637120118657,-30.543132638722717,-9.716088622491757,39.2526978076047,61.09229580429954,78.23647813719747,-39.773394500622565,18.23582500919384,0.907792013568467,-9.030702885829868,-19.450219056760886,1.0087896606322497,-15.833593169565237,8.3019745487551,0.5867595505985795,-4.222850374537322,-4.183445099355625,0.7071677996424417,-3.2764163385869054,0.9834170329479676,0.10846345829143436,-0.5768408567476951,-0.42662892664010943,0.09811924229373525,-0.5372194843008421
7.1511377389036985,-2.852617015283918,-2.696562606707635,59.944954752874544,73.60990930095065,4.407858205713468,37.7498916075486,-37.67242567882051,24.1393382787598,-4.803733235659433,83.83997596077262,0.5552477037781252,1.8501273948628552,-0.8383194105580088,0.2026082503691583,30.679942861157176,71.81253745990317,2.3484979163425517,15.601284061245753,11.537079180716516,37.98269927667213,11.660422142525197,59.946189766513015,-62.38802404715932,17.06398280584871,-0.44887902872062097,-10.207795970436134,-18.928866843025375,-1.6734124741117287,-18.55625378475006,6.346188979761269,-0.9040359840441854,-5.0599899146983285,-3.257728231636695,-0.42326393357931197,-4.626730016179017,0.7399704854921932,-0.2505235190479175,-0.8027031202117929,-0.3719602938794718,-0.03740170425476094,-0.8699284962069846
13.96861520086425,-1.9586334837819062,-12.128423085544059,64.96739770620114,68.6317752396257,5.6403735407517805,72.31236806638732,-7.831059763737528,43.789404091500096,14.794128655567432,59.18503372465354,-2.311727688685971,3.2075763584274193,-1.2224241613667148,-0.025845869969018397,28.181786922799954,66.47489198396866,2.3355442935516577,76.04269078958264,5.902840767003859,55.949715846226,11.653530582922006,66.74898769602706,-53.133188963887996,17.752224712313485,1.630305505316776,-9.0184235798655,-11.26396281765418,2.2514923953177775,-10.044005979191782,6.968224869428337,0.6432594796105394,-3.857151103669381,-1.9145136956187871,0.815334810137757,-1.912964753934132,0.5967954325006782,0.16436950297483305,-0.2556879398559227,-0.11971632244380627,-0.0008163432836929831,-0.35834243665106746
4.129061317677952,1.1387424406288014,-8.881166247561962,64.54459576513938,67.52824756939258,5.856455249798675,32.1302650826166,-14.158192084738022,24.227119506243593,27.146673984884956,43.088163359474244,-4.296671245320668,1.4882838784051102,-0.2937174539276092,0.17859164026153093,25.03773421329902,59.58788098838205,2.8240367985527457,53.850034087103715,-29.65084253352477,21.303285798328872,25.783161777714678,46.0359942845457,-16.284232202464114,-0.41594796289962926,4.562776762795873,-1.0714812095956614,-18.079995609677482,1.5935344500128756,-15.79642311206332,0.725304707325611,-0.7970821931707394,-2.1776530395749982,-2.8307889044340158,0.2771935338330271,-2.9151715183946134,-0.0995501707951679,-0.2907521427452097,-0.5092515195132716,-0.21682418020728525,-0.11500991794770334,-0.35362925253383154
12.786928983665177,7.115989847297526,-22.91245819555427,68.54171543713476,65.55151126316385,5.609327483006441,39.274270041692354,3.7860508485164543,36.08946155264666,31.87610562635062,56.63223396650532,0.3572677958122121,2.3734124257905003,0.7409269239999843,-0.3278324024872549,21.230093278694483,47.77572592890921,3.4389650022552223,63.647112763569496,18.830224375709022,38.66429077686871,-23.051912097112496,47.73754888430092,-33.6360540655708,11.267401373150145,-4.756329958694625,-11.086933427352886,-3.175650356660394,-8.742955606746385,-1.8494617586287132,2.559749841192728,-0.7345735238234294,-5.037521526035697,-0.5719493694233545,-2.041924916939545,0.2650063264482267,0.29696230470885526,-0.16860276804139304,-0.9457552094186313,-0.34999105825934557,-0.03987341552996275,-0.02537794407164546
14.246969416876537,4.383142535849456,3.3834766773234395,71.03761462171477,53.636416596860705,5.851669351248487,10.687042390824612,3.343800063162169,-7.121730523017506,49.05270797071263,39.241445386574256,1.2965864845845783,1.9095510842526602,0.9576312281117233,1.9217130963298437,15.573184603524712,32.79976596814816,3.324558562834722,35.508967324510905,15.08853765450925,-45.48140157976646,-16.66082513262294,77.38078781872576,-22.393605763804207,-3.0162763829269768,-10.427030757767168,-12.534517856948485,-5.100440773412964,9.514796575647148,-5.624375638941908,-2.3370052035085283,0.37113742520521287,-7.227063224903286,-0.5006854738099672,3.29535485798498,-0.986592903926167,-0.6957311182675995,0.11965859550779298,-0.85173428761569,-0.1406537946234189,0.2665402597330678,-0.15384711089677894
7.549404142799759,10.895746674494426,-4.2332872833227695,69.79644754128826,39.261230993543116,4.3227392872040316,14.851191700529986,-6.931782684912728,78.5126610134067,53.21589221730976,37.24453461002705,1.9667194767474587,1.1313724525534652,-0.07434165252848642,0.7048084537221184,11.210451440156806,17.345902405647355,2.549698856523923,58.71911575866093,20.916721850459368,93.42581571459561,15.232715701801116,30.262605524184526,27.17583164589492,-9.674097082183371,-3.2404268392798854,-1.8436018822661537,-5.704037483427128,-15.266871650952677,6.6975735268468455,-0.27498936834701765,-0.6530806838571658,-6.025269896552561,-2.2758250548364525,-5.209907554403672,0.21864634889208429,-0.46691681450884265,-0.02334483067351776,-0.24620017080910206,-0.4609512037074844,-0.7154781599427036,-0.030751637362242793
6.273033288022463,18.963334108912434,4.97470711293387,76.89869048712585,22.824156758984042,3.1171042219941176,-16.972522009841175,19.510375203668374,50.55643810264782,80.76328119502111,28.510096073716714,2.6348643433100527,0.5641346644824471,0.5485129911729456,0.20874917521676675,8.813494005655617,2.883113896823308,1.0971765807092904,50.89394624324978,56.83512492838893,51.02306781947009,-85.7445830664765,-4.152226477275925,-41.29498142805456,7.620221536010757,-0.5321506125557444,-3.1506251652024915,1.7769267515236797,6.124144468267549,-6.082635243406203,0.5332608246921475,1.2151138372020365,3.270906497001013,2.31151086071734,1.9716420943234119,-0.4245695064643107,0.2854963038909136,0.37648381400146447,0.19663313105491884,0.3767637298633754,0.27975422219961865,-0.12305180658721243
-18.495917795136467,7.5245596228198455,-34.98073468982162,81.05745189020877,12.597828611599395,1.1393398201429685,43.20841072582658,-31.98391199735072,10.290429145248329,59.22478299971895,27.374407564205615,6.499592097079436,-2.870035512484442,1.7199981841119993,-4.183905250207632,10.184556480867741,-8.27231341443687,-0.5956690946874301,69.64622967910894,-21.005776031978606,-13.067016138735688,-31.462127705443564,63.694804771643824,27.23548603960725,-10.169516954338203,-1.8622395569112489,-1.057285277093118,-6.103442892421453,-6.088097401060279,0.7324883605505873,-1.5683643706398374,1.2256925165549084,-3.6796440811646116,-0.7224834186801488,-1.0467052978107476,1.511757702331492,-0.5023783502305569,0.2275555448068769,-0.24157539305671547,-0.06338201505399137,-0.08786285876604333,0.3289678589693156
-33.42541352463065,12.062554859350662,-82.3309258864288,86.84284506837881,8.546965397593379,-0.9925801081371756,-0.5924129492893919,33.71367409613652,-146.61184808297935,55.77970562696866,30.935881128450013,2.332829759297014,-5.7900879164085435,1.7077247696942646,-10.66110587068499,14.170162605692832,-15.16659428578278,-1.6826530178084373,16.0105635469356,65.45306149071148,-185.71056407911337,-25.897003720438658,86.4598210312761,29.0341458380324,5.860378730819545,5.450314211761607,10.820943170013656,5.743831785580329,-7.616588226401764,14.679136964353596,1.0020840101786443,-1.6070486613154074,2.5596040489707925,1.9634310275192328,-2.0849293750513165,3.662891354946944,0.12906440905654773,0.0875282687928664,0.5370884964223612,0.08159531969162671,-0.1788721565819483,0.31026222412904353
-72.50291752440317,38.71942639768585,-96.30447270381671,85.8897743252953,6.501294344492941,-1.655004783173941,-149.0117397506956,117.24382523907812,-213.39139631530475,47.995229392565875,30.611326237922853,2.2185902127623414,-6.412241317905883,0.3875254449291038,-7.435122446544387,18.487948330327466,-16.56720580004858,-2.4083650424211527,-167.10072853547663,182.92532216516273,-234.81670625261205,-60.153277564078316,30.70589070178862,35.0270651526525,-9.07648715576559,-0.68958826154692,-0.47329054202861465,4.672770797186015,-8.949258508885745,14.239824097408206,-0.7997982449229746,-0.18789408655781384,-6.519281803043572,1.330973720738069,-2.350709168242682,4.104059332859016,-0.48076434005743574,-0.20111160227746594,-0.7477906132033555,0.028499002267131538,-0.27646901077776137,0.5377399350203644
-59.261923699439244,31.879091142721165,-88.0152831926912,85.37550213981906,9.895125278530204,-1.598721975537568,-31.21117438124872,71.61217578208978,-158.79430791969293,41.5637588725083,27.96301789570533,2.6242286705677325,-8.134983085443645,1.9339845280860544,-8.29837181819947,18.423568928732195,-13.424201262544951,-2.76872388463607,-42.13893224649758,116.56716454792358,-216.08165645354225,5.84749736159004,-56.02719786783447,16.592590984630927,-2.9714804165777506,1.318285404574584,4.936643076960697,8.91963912834045,-2.0019261305402827,1.6963431037793928,0.13156039100554456,0.7943351115226751,0.9842701156435945,4.108107491023597,-0.6999613682722987,1.715574412350437,0.08870260143809362,0.21020499708993404,0.06036701860667415,0.6467562269416485,-0.06181585897740342,0.2631575592137942
-30.914469180958736,18.272043386278767,4.27867253525958,82.92371006893181,7.408042269629236,0.1447525549623346,-81.18750027206084,18.309396409587222,-1.2115411366757227,59.49474867979892,-13.69567418464068,-4.485779564140455,-3.61618229569067,1.7459291372772132,-1.5989000686855934,14.867212956052969,-10.019809909014857,-2.9110687412755665,-46.436228729359804,-28.185096976733558,18.80242422699426,10.168407488338206,57.9303071634518,63.64894286592295,-10.536098942824292,-3.7465935941506316,-8.328405868143925,5.223217217206922,-11.338445601366129,28.90380593269705,0.848672150129222,-1.8702574590391008,-11.530833945026222,1.8386974039574402,-3.6399805931062543,8.026006996333658,-0.18170305331819803,-0.8146663859454885,-0.7416393697435839,0.2755190984610738,-0.3155510882056259,1.042467137177395
13.245554363513776,-0.6009864077263616,16.96847757909963,82.67503346942944,6.834793746105886,0.8314276763211182,-1.6371110028019669,36.71482530444535,-9.563652020738129,97.87738862854049,-21.867054284451125,-4.825267832904218,1.5446702361804057,0.8452057823186494,1.000738463044044,11.204735758893408,-8.6549828995093,-3.3661934895758594,77.3682871228691,-4.477232373975831,-48.056041272360325,-5.060087309317052,-31.904164959440617,66.58791664080483,8.734482007924866,11.723721097532087,30.59712789500738,9.562918355575539,-6.854167740753599,17.062927326678352,-0.8954170058860045,-0.46709271920030476,11.809200121943295,3.286332190110817,-2.6354874953677108,5.86796312876562,0.42648209203412285,0.6505707231821709,2.0345217156792232,0.4299130924938479,-0.2926020013956082,0.9579586800966942
-14.850156884592854,3.644968494554932,-10.10912470674728,75.2773787842648,10.336380731151724,-0.8455312576239878,-32.776218983747164,27.454222196247503,-34.15400907478351,87.21519334106046,8.085790794904312,-1.7358346391004194,-3.2823037337054344,1.0289565899047082,0.02711744036639545,11.045354060664055,-10.270433891091226,-3.319462016839325,33.2886809306664,34.93020554495387,-51.96410066433128,31.036048523718055,-13.29605043917861,25.3949348102073,2.1477236273060947,4.277629217105974,9.601472794208119,8.778607198937468,-8.406133052568007,6.418982992516666,-0.4201642336418879,-1.4377194426511417,1.2774567520213411,4.264090192287407,-2.5642363257965566,4.327290116955876,0.027928788562007773,-0.16351393802044906,-0.274064389908011,0.7479179545796777,-0.3199644114712333,0.47742419374830575
3.0223399791196104,9.007226437246334,13.045824846568816,74.19420813755683,4.998550633153265,-2.6044428139582685,-5.397988855855906,-19.274216401590767,30.05954121311034,83.34878043491243,4.568841942270749,-6.844153412678801,1.2937319920907433,0.23707299522461914,2.359993287763304,12.803056044984665,-14.583158131172715,-4.205692229210538,73.07249931605337,-44.85828888737604,45.628893197978854,-14.996353903972254,3.683352481267584,39.438067381896374,3.0551342676870847,9.200776023449723,9.16759939457895,-11.022894235646996,-1.464419968928796,26.80507266467122,-0.33986262634478687,1.3205631379227412,0.6870335613621253,-2.90668912299852,-2.1761718862346786,6.79137096806918,-0.11806831024353556,1.0179362358882829,0.371209396685402,-0.45798621309922366,-0.19327679713091836,1.1239768319533578
-9.32679382009075,-12.558159325483716,-14.201581952664531,70.02859504860646,3.300980857285312,-3.229163806554012,-43.082443441280226,24.419625052068145,-61.927769030165024,52.74898987449325,11.375996819311354,1.6382127542968645,-0.6102713137638532,-1.3691463012612775,-1.6014927815857423,14.6220551220147,-18.52207298334122,-4.526650726418197,-21.768065443407625,42.99165638954544,-70.94359561736523,39.29303342938317,-17.257107404138495,7.289426033036788,-0.44506635204464534,-1.491830855228079,3.323455297349772,17.08763316515876,-5.866224590259096,1.4202319170043987,-0.11410642536975611,-2.5249531090598722,1.890364904608962,6.306233690999859,-1.3831549686479816,1.4195272222513555,0.20624048800942474,-0.664448710365802,0.688739792106755,0.9785609363002142,-0.2661887008886262,0.13691708002866412
-6.665752624587721,1.2546951646115343,-3.0903674004784243,71.42719078655327,-2.4966601338246437,-4.477044690318018,30.646647677648364,-4.902057678468686,8.112481096259511,78.06316265403063,12.099056735361348,-4.1165650607099185,-0.4421570780182952,-0.023684143119554916,-0.7343210917574232,16.14034494825765,-22.291811330129583,-5.2246183660475545,99.18855535198564,-21.867090597514405,-4.9187235363749275,0.45376503420991104,29.271808991289948,-15.071325271139669,2.861635890058615,-3.224243924790761,-5.859468297068206,-9.124086801015183,0.022349329009486163,-0.9832452248383118,0.4127795287892823,-0.5374008429307756,-2.3571010201278666,-2.1355194457846065,-0.20102151186197606,0.8946764242311833,-0.053797656181533426,0.0004284277978253287,-0.22405405624772481,-0.2708758161063103,0.04130918863259998,0.1326603322369034
-7.425057788698054,-4.832378532308896,-3.4142166501086315,65.11302142663216,-4.421167004581424,-4.43421342493957,0.16661607704162457,-5.420976609853454,-12.60056946294439,68.82823572110344,10.58100645588122,-0.9734323023696144,-0.48090595242050993,-0.317056348821342,-0.37698370149680316,16.899188382470108,-24.90188043207782,-5.116929623958265,59.56894389721721,-5.8976522233603985,-12.254915037146962,9.975487080730067,-31.52388515940086,14.3403896561316,5.540513958737025,-0.2321988996558051,-1.382783531395323,3.1421751654827705,-4.671873033750917,7.156976447751084,0.4283438217836706,-3.1081433793883693,-0.6076051446541376,0.5836232548330047,-1.18727268619493,1.78555985997316,-0.047382260703085516,-0.5534687392662387,-0.1401750047541779,-0.03381564573298006,-0.12381583582189358,0.14834003454967415
-5.966607259382717,-1.798320908047017,-1.0218579991963073,62.02697441079074,-7.2693129924734565,-4.987670084608817,-6.974597285131922,-3.763749736177478,-2.2578129025404046,73.09132145536519,8.765370669031899,-4.185406257865561,0.4532849142397007,-0.7364452798578783,0.31380246697157665,16.900571634970774,-27.47134675323769,-5.408392993128353,46.84496700038577,-9.783764301406208,-26.199665533014507,-2.6385534109565523,20.67886446076789,9.732585665411573,-2.2923748796790386,-2.368915867163178,0.4941744371212571,-3.016536601569458,-2.2341189052101256,2.949860483952809,0.15284727952479185,-1.1484531174622294,-0.3024605442543007,0.7183979720900067,-1.6988603165799838,2.5606816704588513,0.004462146017861997,-0.04457157268417073,0.1509278858741849,0.2699362179012787,-0.35553341960360224,0.624070417051537
-7.0133376309301845,3.500174483546638,-1.4472080959388225,53.8216470008443,-8.482402123200368,-5.137636728597647,-6.0735987947155845,3.3230483869250027,-1.8483218064105436,68.26533807774145,8.936150207336551,-2.4594775413394094,0.4666393919211065,-0.01907571989006345,0.015130655397617931,17.45738921690256,-29.525620279273767,-5.446400521173765,44.74900875555318,-16.59494822594971,-31.76238098348043,9.00083069799264,29.67359248497764,-5.397236972802549,8.713209507798421,2.5105630738501037,0.769440824507192,-6.369638417581565,0.05176215249479835,-2.493430766591315,0.43938053185091275,-1.240833591916909,2.9775377644915415,-0.566617958504049,-0.3145323309312177,0.33102710394987944,0.1379624869816892,0.14012266531323156,0.32535655595155616,-0.14060033243860848,-0.08656172173822928,0.13211484510201485
-9.771278949726243,-0.9443081713030017,-0.402753574688234,55.71067796161107,-8.350217695479394,-5.206581742822792,42.53351025535394,-14.1268647674357,22.21735920566882,82.98902856503662,15.86801279259517,-3.0060715865307617,-0.3141086178056113,-0.8466910285336261,0.04207047055061747,17.83250487631066,-31.48405306862105,-5.441536845675859,124.3159897518976,-35.19449732937426,16.308678772051156,20.326215150430645,15.152176837123644,20.63399165221657,-2.0110561426160274,-1.7591978934281638,0.08956866951606604,-1.9437039813745423,-5.491230372042137,4.7789819780738565,0.974044846368718,-2.6781691739595037,-1.501243287008391,-0.5792936457346165,-1.141993847769853,0.5082555182744534,0.04418036115017895,-0.4934229094841618,-0.20957207692647944,-0.061815219379247104,0.06042310936524559,-0.11397137159670818
-1.9838656398353993,0.6007633990106218,-0.3022614457685442,52.37100753689423,-6.2337383711749705,-5.57324917078837,39.441505776014985,-19.372745376304003,-6.704693997949878,63.45470673247992,22.237463499487735,-2.835157617162331,1.2749962057974116,-0.42710352356697834,0.12465180346611524,18.69541077856322,-32.28200395482763,-5.4013210915935135,88.47583252466816,-44.956549235088694,-20.58339884695604,-15.05725096926347,11.567302904118012,-15.129359333565938,9.117116796808237,-3.176615080606548,-2.1438385411846483,-2.7615591652756435,2.9653432338843047,-3.8604681013020894,1.2264060327215085,-1.436543655753465,1.179737338278362,0.25314674559401673,0.6975937522149716,-0.49922597277361247,0.1348503966839994,0.1089920679853724,0.25315277819254667,0.028243702248184177,0.08846259796800084,-0.13824051621665184
-5.455062615327731,0.7303930781076781,-0.6780220557079764,53.678126339218124,-7.952646920465239,-5.793737906516081,36.0299362475149,2.2786844291041266,19.647637469447144,66.40975480231518,16.919759840548164,-5.651068894245437,0.2726844244964578,-1.0399310084130189,-0.06586234265428605,19.21658601061534,-31.686853597592794,-5.4608828315739615,93.91525239406752,-13.447055264202143,9.410388507047802,-14.818670282903923,26.09701467904551,3.2521987316139667,2.898592341471354,2.841519146581742,0.1505900062588251,-2.818682840981941,-4.808027777656626,3.097396140774409,0.485604251989838,-1.2365624306401986,0.5789647592430516,0.11920613902741992,-1.2522774415440894,0.672196839693196,-0.034453492035338075,-0.25898014774162503,-0.038829303058087135,-0.09111767310459741,-0.13481965940127424,0.0069290064131817194
8.39136229070076,6.608723525535507,-2.531722772203833,59.19569394101706,-13.740494433225518,-4.045513714838756,40.810119070238486,9.923319462866933,12.23394875535221,74.0001409634399,-13.182689581944592,-2.7021468097735086,2.3041279932539904,0.37003986662457683,0.6633681263487001,18.74209785181349,-30.194899101376762,-5.181120825684776,110.39781278273759,-45.72247742340308,-1.1346903288341057,10.289811465089667,37.183583607069586,-11.729685251991226,1.5595150386712147,-1.1264401751088298,-1.637776916490488,-3.5179834549153806,-1.2018083062978389,-1.8726250637415591,1.9467286924067058,-2.5223235603412153,-1.723986830630246,0.1013787207064442,-0.9320421267280248,0.43097223341387475,0.1936030868873514,-0.20924346766207141,-0.27256318541385727,-0.03138687485833589,-0.030956195630064423,0.04581175794946984
6.145616433576568,1.549846860627252,-0.30316547666037125,60.164341666708864,-12.03048133498277,-3.7870224004997137,55.82367683253009,-36.74389549418145,-5.569721670097129,63.826834658786396,-3.6905421949272,-3.809183073709361,1.5976361721984738,0.3818448226220196,0.5159448468473238,17.92983143011106,-27.719051158965584,-4.593505053191638,107.45284786416327,-101.13528905809179,-5.081845877904788,6.0163562731564415,5.164058484231099,-9.746618489035752,-1.834672190397232,-1.303276419809778,-0.3415795583899929,-8.169531170758136,-1.1630171110194385,-5.086059259182554,0.42965501752373136,-1.3591926658456648,-0.9941288600620203,-1.1760548186500088,-1.1761160859292832,-1.2437267747500835,-0.23816783939832575,0.182761072729221,-0.013639116296739423,-0.07743360286139486,-0.37314281069398386,-0.0721909467153487
2.0660752239054787,-0.02274561856945994,-0.5999067695564914,50.5630951371382,-13.897805876643236,-4.1011205251869916,36.012736259755705,13.656598850402268,11.45585203568606,46.97300196330365,-9.095306741322098,-6.817541136925123,0.8266953767275421,-1.097203551720423,-0.11854654847591853,15.112652144351525,-24.856995357393288,-4.47897808645109,64.60131955291713,-29.4160461139917,2.6419808878170374,29.82337162591856,22.721594503618597,-12.272901427108216,7.014725208231761,-3.4218867183974773,-1.5002566287370478,-3.545874360953971,3.752942999258318,-3.236623936909557,2.667784026171343,-2.915735336625717,-0.47197809973595484,-0.39789478645878673,1.204225516959475,-0.1112897157566147,0.232537737140548,-0.5402272277712608,-0.39275159834347056,-0.2465482779835224,0.29116268204498735,-0.23219994972663532
10.160690201091683,-2.5137874389802493,-0.30399486574590545,52.031200006988485,-9.764363964227606,-2.994987411649453,61.0456598849465,-12.753201185222919,4.11806840181043,62.28776717267385,-3.1360819937107807,-1.3597415656411014,1.9966746270068667,-1.4714999815830594,-0.09117226999962817,12.907598462095468,-20.588076014900732,-3.4502775196951783,120.34406882533547,-57.48773396433407,7.674878740650948,-20.286551381960614,17.485520375124683,-16.466169395573143,-1.0827629568027086,5.298190861856506,-0.4617603285772448,-2.3711186315001114,1.6164517325115724,-1.7466783381773798,-0.41228560736136627,-0.06135850570135598,-0.11490884153659692,0.1306679454186852,0.5180116268816594,-0.10271326008456039,-0.14345910487242108,-0.08412503024391516,-0.09604183777022712,0.12565490148458022,0.02076710171569009,-0.028497566876580876
14.78734287024099,-8.15552715519887,1.8359863390588331,43.61489712960593,-14.61226034320173,-1.5423456609536659,80.81577098794585,-50.43769802172182,6.998569448425829,47.179030691627446,-15.115391570819368,-0.6727006057679682,1.225981529749266,-0.5739938111958583,0.2528729489602015,8.71652808764382,-15.579023518858222,-2.927487394229982,132.09349407645217,-110.37129884047876,26.682197162742515,58.83943428628312,-23.28479638054419,-27.8758478732458,3.548935886046363,-3.289362873421687,-0.31067059863764346,-19.673199976951825,6.464585607042954,-13.965233251198498,2.8865486034369376,-2.119465672836248,-0.09837109583180127,-3.24500546003866,0.5811656600902205,-3.186683701286724,0.38303474744251137,-0.04859770016199324,0.18220929513029419,-0.5271348956690777,0.10717106421077455,-0.6455474005847849
-2.0894110935117958,-10.555692657953598,1.2758624535698715,32.92441115891463,-10.169864405902084,-1.3902561223407186,20.89192339023926,-38.06472276687338,3.6154451727347623,29.201406325987154,1.5186391365688938,1.0719469722798576,-0.010119369461687814,-0.9384455424804891,-0.028664349818174072,5.706342987285072,-10.84339345286625,-2.1147473495851736,34.43037033667696,-59.918008595576765,15.594680512448178,9.688580116764312,-18.77223306058683,-3.552600411910954,4.588388090186099,0.5193241902038034,-0.6947227421422634,-2.334406939327978,0.8607632912826071,-1.1470765788763422,3.7809351558098307,-2.9398155102661505,-0.17766054292189767,0.45226804957928685,-0.4363744733700718,0.48332947208184657,0.43871076700989625,-0.5382361832906267,-0.15733736384646493,0.14641643149518196,-0.19187330064391964,0.18108112999403422
1.252480660588324,-2.2312576400570063,0.3144262945406196,24.68282099821912,-8.094598764431144,-0.3632717412006565,16.747488530773385,-16.88216640475172,2.2877100084279474,31.213248538508545,-16.216604859752003,-0.18147691822536846,0.22169668118202684,-0.33902229436717907,-0.002988869936733261,3.1830165161957207,-6.388784857749322,-1.241234266852624,50.10395025169014,-55.423683317778554,5.6721644979937444,34.77243191212013,-8.676244261244845,-19.461738518043205,-0.24243525688914275,1.2168042942007777,-0.6766799807097215,-8.478761708168708,1.4261220320528485,-5.345496023048245,0.35122804594989465,-0.5417264253259371,-0.4774916192064125,-0.9643291632630487,-0.042838953658132305,-1.6431411956834014,0.02755547273819446,-0.06348571390816048,-0.09547974056552437,-0.23035422493756325,0.08056721475870586,-0.41546585793838076
7.517066840345687,-1.439806861601928,0.5330581683787439,11.492089975852396,-0.7324760118970545,-1.1647218308231246,37.58743925390999,-14.494629445869736,2.7302278589218063,16.459241257579286,3.4790800998554596,-0.38696116285787896,0.6861702601712732,-0.31431261850389036,0.1756128347636743,1.1695964698913646,-3.4384784607209617,-0.3212457583855637,60.11168805061186,-27.123607783079983,10.03520613919945,24.38429497299003,-45.57124668383504,-24.616882890856406,6.742001547290942,-7.37701128602369,-1.788447755115693,-13.00805122858017,7.1665397655180385,-6.566304929087681,4.264393299253478,-4.60633373217659,-1.2977820237262245,-0.7160303050573971,0.09964243301841777,-0.8572277254629065,0.4798631928735611,-0.506048770291605,-0.15116801787357545,-0.15048620133572702,-0.04572701152818554,-0.39085866460615787
-0.20013063344034418,-0.5164495042722258,0.08272831447954884,8.961462947900396,3.229488236304479,-1.854402636585036,4.217844021101279,3.1486344844207443,1.22990804889874,5.458211109893424,18.907490841681867,-0.8802258298745802,0.17273584052692345,-0.30449901041314814,-0.03293094662359065,0.863289221685289,-1.7981514794331224,0.20393073914124463,4.274810440513822,25.202582504040986,4.836432892189734,20.984451444586988,-51.496829659172654,4.577737212898454,2.546363459795225,-0.005158345139764514,0.015479638622948586,-3.227873962134019,-4.155506043034768,-2.476152523234277,3.277770459215696,-2.3714580534300698,0.020450850436400707,-0.4858070885442967,-0.6826148815278548,-2.1360341643795007,0.4300648356729535,-0.3502116537005283,-0.0726355666349189,-0.22449799313654972,-0.0017132685477224156,-0.4723243447688568
-3.452527704871062,-2.5294078975622565,-0.37146922091242174,7.374562665454288,-1.9224935421744485,0.0831136240752634,-10.011101090555496,-9.483602354291516,-1.2097950907691462,-1.440185433603718,-0.6387307220878737,1.1069335773287947,0.11465809266198596,-0.49808277434032827,-0.22965120064050124,1.4339510445596182,-1.8641118108831887,0.22546348814681869,-17.80293901413039,-20.36294374079845,1.8633001380876413,32.77520858955532,-35.98511636547874,-4.872831779076306,1.8077966030322212,2.116883700056327,-0.6988737809139822,-6.393078240333444,-2.147699533431131,-2.106754707636599,2.104494024241891,-1.924572573866661,-0.060219709284846094,0.9912389561395779,-1.0539131367652343,-0.6336376012597107,0.2710198190283237,-0.2700840215050531,-0.0198251492610715,-0.0382487443462048,-0.002670375653190122,0.03479038697753549
1.0890949644781323,2.2170051534915864,0.192657781834906,8.875709953715287,0.06974058735407199,-1.5360820413088385,9.371616656725863,8.22901751764295,0.4644400718670471,6.253985478489137,8.45908417290798,-2.6853508564902193,0.2764769394770124,-0.054728771341229894,0.22588294912754384,2.580904777094093,-1.9654036372130217,0.1435551013100673,21.894139951663117,14.55356638232498,-0.7502271920164801,15.32808493541294,-54.78456380871258,0.11576315566733744,2.0378029518739367,-0.07418650332638135,-0.6427154899613572,-4.5124603845461175,-3.157225205066179,-1.6105568515261992,2.669108449007727,-2.956994784063543,-0.3937995973111782,0.5527755452120129,-1.1680641514683905,-1.139512309843861,0.2365963481448937,-0.277772911539925,-0.05310528695385446,-0.1476085531950614,-0.12945186132182637,-0.26564183644501693
2.6216941472536495,-1.9640185261561927,0.26759780786496534,17.180870090650437,-8.45973750051005,-0.6206671529920261,10.685028402355009,-2.7531294138010036,1.5951321545697372,-4.655639568189324,-0.6393206038866729,-1.723188348033176,0.4400275490555704,-0.4793306879535087,0.04417865614126084,4.7826139188198304,-3.131335829572422,-0.5045447934309113,-8.406315614076888,-6.58179506265294,6.306220170091311,-0.2928376791058017,-31.752134847868064,3.0747700365006327,-5.887578200812781,5.117716701234129,0.8891873086059728,-6.026149331490143,-3.1308022163459657,-2.0702780373007776,-0.014477233056323383,-0.38514197279103446,-0.32712594030620823,1.763267927748618,-1.357048236019818,-1.261707713137422,-0.20048054086715358,0.0444861301546098,-0.08748782234255946,0.3172809487853794,-0.2134672462357718,-0.1341364776154125
2.457517828938827,-1.3456013459401601,-0.10781401977692634,22.208415629582426,-7.389781383460303,-0.9336752376166524,15.740217757583414,-8.105293316455755,-0.6286289825448361,16.905378868479215,2.1514180518933257,3.3460619564977754,0.08870531443984124,-0.19116622067992756,-0.06220792168251742,8.197816130161332,-2.8221384200313313,-0.12162451333053242,31.24143031329886,-14.755893523965836,10.3984095350386,24.18097386909346,-5.350470042253178,-7.896563208210482,5.938991774064747,-1.9279673218964042,-1.111602869710239,-3.4513178647052314,-2.7497433962136557,-1.2622826351188547,2.2860337448566237,-2.1769314014299557,0.21272126478345646,0.08046175406263394,-0.9591565241777034,-1.0237951266295273,0.3593571969660028,-0.29271236329621325,0.044330434165155266,-0.2325456164944675,-0.043639359711092104,-0.16931473973916109
-0.7138824236490973,-0.28125600337326445,-0.12798543579392502,24.656203678486992,-7.956729105487255,-1.8320943877388607,-6.516514730031646,0.30596888939848954,0.19033886770955455,13.181400962560225,7.560782287699201,-2.4382244410018004,0.47874620653015787,-0.5682826660629544,-0.15427566324635247,9.728576690356713,-1.5376981015316977,-0.08683479331177624,-12.0873084334235,0.5332212153239211,-1.7623182622371565,3.4835738898563577,-40.89631957975206,5.220779695930865,5.619187193644949,-2.289463507851626,-0.2702738979559598,4.2415957530772515,-5.544584267445948,-0.2741182655003211,3.326908859292015,-2.709220056428634,0.537428676094053,2.2881337207881938,-2.137089695871156,-1.0311126961524752,0.6690525834780325,-0.35537883598585757,0.09976827436230151,0.2827506321897955,-0.42923370349215834,-0.1615746999211867
-0.3100187068534029,1.270419940508421,0.2612735890407991,28.989847227624182,-12.527751881325512,-1.3379740594955523,-2.0695718382278128,3.617645069967651,0.6078153776864375,33.305105783086965,-5.597036640838618,1.750599765063761,0.09521178899423165,0.1104742327493013,0.2394767973637643,11.856109158594666,-1.8319615352364913,-0.07568129293221607,22.84563506588128,-9.358461251162888,1.3007379596443003,10.353830890631631,-16.041959388110396,-4.228508901767903,-6.405014915272849,5.213791939916172,0.3522757678926469,-8.432181572166753,0.7153605191517202,-2.377417007361023,-1.9493001605888207,1.12915797919022,-0.6139356635214777,-0.7967183427622485,-0.5136297548856409,-1.474332893682058,-0.42009498465358197,0.12174235886197461,-0.05789554772670777,-0.041647508876605725,-0.06625273666895364,-0.21546768145498676
0.2402594502585353,-2.3416042532498427,0.058500246737940235,18.493498316508592,-10.660578156076234,0.4924024295225541,-4.462643118813502,-2.971967163572069,0.3506025607013094,11.780421426808966,-7.942439320263011,1.9556207950175313,0.35818488316280295,-0.626518898876381,-0.03680894970898108,12.068004080612553,-1.320790051452732,0.02705327288179774,-7.1550711048746045,-11.59653300398141,3.130930808253577,17.562639803647247,-40.627937277252464,4.884245024472544,1.3097734648590524,-0.13747364956106362,-0.5288515492523131,-2.155119787216367,0.049040284810637616,-0.4898763064784417,1.2349030940496837,-2.286535207068797,-0.3220362740970553,-0.2651049451945337,-0.3914340062679085,-0.4360539647322336,0.13352057568626957,-0.3297299281065377,-0.13293366475290516,-0.20271413048840317,-0.12826609913401762,-0.21085757695973215
-0.831611010579229,-1.5447880376733836,-0.03131842684050359,20.092294259935343,-9.992612054983082,0.35863375631977656,-1.6524713430541802,-7.726190468965594,0.045208713807864655,22.108387438397,-12.310638423238546,0.9127853507319658,0.21528674686420385,-0.3519955056577943,0.0004581674563481906,12.17235095358985,-1.425839067889878,0.6150730096376698,15.869007211693352,-30.287165377850506,0.10786012859900411,-9.664544950772322,-2.776041689775975,-3.252370322634572,-0.5525128642707295,1.9499547012945968,0.4989422623597425,0.25342544664709343,-1.4651140139704217,-0.9038207608898552,-0.5296471427774265,1.458999506084908,0.6207145625402184,0.6438976457921441,-1.321725118350233,-0.6668008267014717,-0.15100064124758597,0.5704951772444645,0.35215249606888327,-0.05557195761854398,-0.15538982176563554,-0.12273220344983377
-0.7023000365218922,-0.54029612792103,-0.3161069901622792,17.873667863647732,-9.613915002629323,0.5927454506716048,0.939322887829834,-2.558514978702307,-1.1796906496041952,24.060227969012654,-18.855200223910117,0.3487219952178714,0.06364310857095973,-0.1318654615012252,-0.12391661273130493,10.765824874659566,-1.4009137886292726,0.7996832149982754,19.8441014402464,-28.33818562215641,-5.119557550834897,-4.922330155516482,-2.8273506334152407,2.908644739611571,3.0851100935172484,2.2841605962332485,0.08839245436121534,1.6015153838801162,-1.474988289160962,0.6154456546308519,1.0666410828540875,-0.41490759902248187,0.6605581955038216,1.3083528899382093,-0.6278278833784302,0.34457897422270084,0.2051257968440901,-0.12498778208895824,-0.07308065280094812,0.3080329029413228,-0.1942803900497018,0.11076764213540412
1.2972755272082384,-0.9621129638080288,0.18715387597772085,11.371372285488544,-8.851490221272917,1.3221098555389668,3.192995171593722,-6.514460845007415,0.4629649976751837,9.714396878058533,-15.769181547970156,1.337640988849129,0.3129343421478925,-0.24440525830762672,0.06878046667951754,8.676661824391507,-1.150150609825298,0.7478890902648492,1.9458799446784356,-30.6999358388826,1.6721777237510527,6.20126998098162,-35.33962278073396,0.4002686053610724,-1.3874303407144217,0.9021763357875067,0.11671310594095846,-0.3322767755662942,0.3681333766582873,-0.7472128711737509,-0.5056763971017332,0.36894640597563466,-0.20643380475719775,-0.0009748287905496089,-0.43036736374798223,-0.4527393523212912,-0.22278181433337893,0.14874084283844652,-0.049686167176739605,-0.33108662263822586,0.03589982323146321,-0.2612872976782449
-0.26393160185583736,-3.528387259801116,0.018797928927094296,11.237079379478207,-4.305203007105241,0.4146289716645072,-7.327169316271732,-9.100402037224093,-0.5491404331375179,14.819146199127031,-3.5479006572327,-0.5817077806863095,0.4699635209042123,-0.7048584898086706,0.042846922913931426,6.525738032569971,-0.6317310536477955,0.8808210088115572,-6.442135312370567,-17.444551086367053,-3.944662047008893,5.106495383370042,-2.764035787068497,-1.0629730588582658,-1.5967874131234105,-2.219201432241348,-0.35858150749108336,3.1338091835868984,0.34848449861789454,-0.1821929576915553,-0.09903856419693252,-1.651329672742037,-0.7302120511215834,2.1009450213954284,-0.5723405959518942,0.5267235396734514,0.0036220476402201284,-0.25197929563359306,-0.13724068246858057,0.2321989775940685,0.02422655574103911,0.06662636244598
-2.187004046758392,1.4221691773452212,-0.5998627752210455,4.182248421145407,-2.026573090126529,0.6790366228156076,-3.6018882572707027,4.055335838408759,-2.6987291221747287,3.821395608366374,1.7092502868716806,-0.25030401140323105,0.06319036428053866,-0.17966476965378136,-0.1339361468737531,3.5430225374770887,0.42701565594957636,0.6298006003150353,-6.8094194118447815,5.356971635365635,-4.950046236484268,21.324689500483874,-15.537321146226738,-5.066959797917433,-1.6526420656828025,1.3021768407341012,-0.344883620145536,-2.249366889473621,5.374155909136287,-0.7932517192686998,-0.3327890874833316,0.4930106388660926,-0.6176958386572299,0.49842254423488774,1.3371870631495284,0.39701529928705787,-0.1757066744309606,0.4935407252989886,0.017480954629176412,0.08832294227538283,0.08349407262427026,0.056364951417964534
-2.0061772664629474,-0.9894164652030801,-0.11359003369842731,1.1606636573608142,-4.384685717963645,1.9200493152432592,-9.874370259840106,-8.891944617105233,-1.353337330936161,-1.678427607714048,-8.559292201468821,3.0042459007917697,0.3391900352437292,-0.280170001963845,0.07790362388379819,1.653720187874123,1.5740700852412501,0.9999523534414502,-18.851805063513897,-25.611595244629935,-0.5223961058375239,14.954403204406736,-17.188873855429563,6.130285808565135,-3.39522964198137,7.702856554010299,1.6019950489018682,-1.0023391922206097,-0.3919503449013371,0.30139663726234733,0.06351146758937273,1.126567237080334,0.6017641036647772,0.9341307021617399,-0.9776618891481503,0.3501043559373638,0.13812336139321588,0.14319236489937956,0.3402369194647499,-0.025939596632162935,-0.08060536898689596,0.003390552265724834
-3.8814567811281386,-1.636708208683877,-1.1875610429458214,0.597498437415403,-6.136877194134877,1.420388858637667,-10.414123024770317,-6.204205810839026,-3.657495597820803,-3.2344367102549256,-18.781088876306526,0.5652635314125343,-0.05760091216849582,-0.5578052185625744,-0.6373564113394452,0.20598197452868286,2.244373891400598,0.6282698160095285,-27.16825242695691,-34.29065224218293,-7.263822144898844,25.754595772257264,-28.480074385390708,-4.391098765010426,-3.840527736408492,3.631631366550204,-0.03572381205430287,-8.3313242436898,3.8143364348980504,-1.4396249973043018,-0.5893702125098726,-0.6147683948880011,-0.9356690104981483,-1.4499665044872718,0.5302452521021112,-0.601227734860509,-0.06269824875071707,-0.08134033841589004,-0.16778855494526076,-0.167679105550336,0.0509220008669799,-0.12593052503205074
-6.154453216531829,0.8575810164945636,-0.484072187658096,-0.4432127674285233,-3.328876045957967,0.9175201121296712,-15.759352927424054,-8.59856644245451,-2.5984095880027507,-1.1582871020249814,-6.730234407610758,0.2396681776235965,-0.0027842907545727706,-0.1211028255285764,0.1018692982255287,-0.3438334913819416,2.2174499292524525,0.4677660271382824,-17.091445928479743,-17.29917687029727,-1.2413941675386577,30.188032847093726,-21.099232211330957,5.615349755866413,-3.922240806334828,-2.9161873040203363,0.5499948682261877,3.1290796519669777,-4.423190846494951,1.903828684348231,-0.2871239890116635,-1.1328030532547957,-0.3113869815141721,1.904339284932343,-1.4294919773938608,0.7777756570199613,-0.018237842561676678,0.10460606673874656,0.08558436215527698,0.23738076707353636,-0.15258328753411413,0.13765780479794198
-4.562437068804803,6.920728734465902,-0.19615501537336008,1.3249970645702827,-1.045352660296753,0.2277488987804621,-10.109558427015504,17.990922453832415,1.4928620702902669,7.2326765230768615,-1.1421781802343198,-0.0224874634058854,-0.30744352303585265,0.13025246330871346,-0.15192824757685633,-0.6208097090743356,1.7543834858505147,0.3167861138359332,-8.282310427333638,16.987161034208437,-1.3239697955923868,29.51316256099772,-24.56558168215358,7.966060427046832,-0.7117153173798361,3.9500065054594016,-0.44423106533443874,-0.07176560798786624,-1.652996942532269,0.9263800997418864,-0.1483055130516647,-1.6963939519547482,-0.4474632205809109,1.2848967548951158,-1.3476865145680335,0.9119571373491895,0.07072323986354569,-0.17943908505247533,-0.025865084829535884,0.26994479416499106,-0.21259609863848586,0.27099815598504673
-8.158713230939421,3.5050404578145473,-1.244359465050018,-0.41314506313243615,0.6613305838278242,-0.014132275693698754,-20.186630107689535,-1.8738476853736143,-5.255096556516906,0.693702838820998,-4.931619696446343,0.9173594764619026,-0.3590017780659639,0.18534521724795286,-0.5376250685359069,0.13663455832634347,-0.0929970862117592,-0.18077545614996457,-24.061850998631982,-14.166242499958283,-8.665869292520648,20.984666368257614,-15.833178430953478,0.21105489216265377,-0.6308979658117931,-0.03976143686619498,-0.007265654208081656,-2.524272335875333,1.0452420885081453,0.3176838583818229,0.042501415794440424,-1.1026830590395889,-0.18657814812905726,-0.0843453080174762,0.04477539568463548,-0.03151828335760858,0.016065560568756066,-0.09128711095993303,-0.05065880540664709,-0.029242113710822887,0.05921427447416536,-0.038072524041121734
-6.675387571066635,6.846148057371834,-0.8033926279744664,-0.5932423347274263,0.5095603998012349,0.11485286132899926,-13.965645048723397,12.352070176493324,-3.8742657309023714,-4.084832486758225,1.8071004038958218,-0.1395946982191744,-0.4283555405516142,0.33907372027106797,-0.15703864835471026,0.3279439461697619,-0.3371103136324057,0.0786979738516478,-19.48698050665277,15.16469965322656,-4.3365881008496565,31.37915543174316,-38.29841876144641,6.701357374298831,-1.5410310646558867,1.842783858884235,0.05191397875606939,0.506209361034853,-3.4903135464866764,2.387670582655518,0.03974040541030607,-1.5174090803895288,-0.035417852685295514,0.8709750774445086,-1.9337573516030169,0.9284489929176244,0.1093089021424684,-0.1998306379447437,0.04142479075462308,0.09520792814242376,-0.33805520710768744,0.27632360757853236
-5.539109435535367,3.46880843634968,-0.43824589121047525,-1.5347261580401892,3.994365297192861,-0.061002193279964416,-19.21734542022779,2.3154003336358766,-4.019313007358406,0.6468251116111199,9.521174151228196,-0.4797053314118513,-0.06177880266285303,-0.14535339699386648,-0.22782448904230562,0.07601338607557154,-0.1510157284818177,0.05964853684264876,-25.70126419784452,12.988530452254137,-7.722820937639541,25.202612552009597,-14.666451019823523,-0.357601211614895,-0.14128428928659578,0.24487301423672583,0.30072004946537634,-1.6632565753680113,0.49576344007418804,-0.1758128584286768,0.6862414136287738,-2.0887027140081504,0.19100694215310196,-0.011817507298627324,-0.36042419786372154,0.15222968115797417,0.19918288759938796,-0.2966147902112455,0.024720216364997768,0.04252095504334177,-0.0006615676001427628,0.004574974637319536
-0.025955009508266617,1.2008008455661032,-0.12051126242113533,0.8454268180714972,-3.326826700011849,0.08678917550955104,0.231352631361113,-1.1946949642142748,0.7779069157587405,3.132874700624975,-12.373423237885655,0.07414832055384084,0.1636894530522655,-0.26911849439580054,-0.04620945336505674,0.4510414741488894,-0.550002687470796,-0.013049457567288467,6.911937349633522,-23.54568298120068,-0.4177986586333686,24.282601937938903,-11.131789085792125,-2.4642173844046362,1.3889028486692778,-5.157734571494046,0.11680832248957704,-0.4239350644931915,-2.294641574578136,-0.04537959999133654,0.5776448441209892,-3.2688657049305676,0.13980519387276874,0.11058672760377997,-1.2790008739616618,0.7827768130272029,0.14759476083936407,-0.47705734405523553,0.0034439548661332605,-0.03814604896062817,-0.17671082345357547,0.21975388559465542
-3.7746835093491913,3.194519200503008,-0.14323358515079154,1.6863264771613906,1.9265783908145915,-0.0975491316012539,-16.214764423924343,4.967606735314992,-3.9159170809618318,7.360075851698287,-1.2283817586682084,0.43043449589244537,0.05225528387505758,-0.14351679488489993,0.003940614628766901,0.1836108451305409,-0.12933771483224163,0.03850982939350115,-12.498034967912425,6.738930118051876,-9.467378762562262,13.96332269761471,-21.024364414298823,5.718637476489337,-1.2305780663026724,-0.43629221095328274,0.1324092331849116,-3.7923394223393805,-2.93128663909808,2.216472993105888,0.27637809745415937,-2.072849990674098,-0.031300271129667045,-1.1331447286282472,-1.3518625923314709,0.48657461650624056,0.10715865570184938,-0.27808722800000024,-0.01814146832783376,-0.18951099760596815,-0.1419548320036647,0.09060904185859352
-1.0913838620625125,-0.6174678610700267,0.2719988867924789,-0.9645703543835554,-5.889043627503488,-0.29626017556658907,0.22899287188210382,-11.180301810931022,2.701587858115818,1.4140198039703336,-12.935398498057832,-0.5277164561551105,-0.10181202552187499,-0.42227806695937886,-0.06200565250949787,-1.136236607486125,0.21871527525242418,-0.3742090110345646,-1.2103449923797271,-31.717992910903693,4.556418680300038,23.69172013258071,-11.316189368157955,2.667754735293101,-0.36783430252081856,-1.4062545684257726,0.04153685442279618,-1.7183449798249042,-1.4924899651614725,0.625801250357054,0.11199645362724442,-1.901316989210717,-0.075644157269321,0.07775645954473565,-0.7995338937286557,0.021540664589153595,0.057453709169435735,-0.35921975920037996,-0.033122989044992016,0.023138360596013215,-0.16380650509986602,-0.019566429986770786
2.014054496241368,-3.8171165765469586,0.9022286880377717,-1.9738385218812151,-5.964071913831741,-0.18328986454248516,-1.5644643878557438,-12.309821096817512,1.201036090177252,-7.124223568956749,-12.549449816657546,0.39675867840811274,0.5286124356534999,-1.015218948550249,0.5516287692573105,-4.673954691005406,6.301368951511126,-0.17310778212072722,-24.14596355101274,-27.435444838232794,-0.04919549413971794,37.767790255080676,-12.821292111796478,-3.7111224490760746,2.996137450454158,-3.1450210674766526,0.138747940514104,-4.402870330019165,-4.327638903808418,2.3902159206812197,1.160731856914009,-2.6262356255429564,0.4385130409027554,-1.6514195214361642,-1.4020933601739243,0.8733821494337907,0.22185681939241475,-0.2634145549657657,0.049041241506195404,-0.36860087014095555,-0.10180179484341362,0.2068197744940879
4.618302706321141,-1.1426188325564426,-0.25595258619767697,0.2229564395960365,-3.3819300453452605,-0.8513328058584455,7.796890527115031,-6.2588665950627975,0.5722221712641425,9.819608056291669,-16.99069457495454,-1.995338494463292,0.5515397131772516,-0.5697560460357705,0.678614378707633,-10.428073313332536,18.028237835451613,0.10493235639607283,2.5778688487096666,-31.056960165112436,-3.9024409861113405,-10.16686311660676,-4.650025669154635,2.888688725171407,-0.8522236441718358,-5.064657321036019,-0.14646882701898356,-0.25566673241758703,1.3142987022865604,-0.4127093638716556,-0.3360352060724396,-2.982873068014711,-0.22771716097339698,0.2951307481619456,-0.9133453472166042,0.1430822195946442,-0.029760272497287864,-0.4463630443551316,-0.04912461648815365,0.09786135262935966,-0.2076430936308329,0.025283124038274034
-0.7300283226978223,-2.5038150730498487,0.656168055614905,-0.2576180024055066,6.743659137972786,-0.8939271694631186,-4.865377832738045,-10.183771965375392,0.9551743842972594,7.326902230263229,-8.363795810744216,-2.1787941140372293,-0.023669885037004554,-0.6352247847022271,-0.015576795830982822,-16.22588632559932,33.816143456296814,0.6712602323746406,-35.4169105360325,-29.232262061330523,-3.3612639659709864,49.29169129088241,-22.22937665005356,-3.594436176772412,0.8581297897901892,0.45760071515619083,0.5731948221750303,-5.190908111113003,-2.1850876304282254,1.4183071272686412,1.2426301617621966,-0.7606102298066888,0.3816913819823461,-1.2480881357206732,-0.4630783126123332,0.28408017001036484,0.284850535034598,0.06085492393692573,0.05315563515824203,-0.14419125517089929,0.032461253456425726,0.052028391512476097
1.4151821259252695,-1.7218150860491928,0.3828909042957152,5.263902504316995,15.661803881020534,-0.7670294975314005,4.809172202659431,-9.789574186319795,3.576127050629741,33.717364652902965,-4.291970639179154,-0.18099862444888634,0.2239060156626682,-0.5387913974281319,0.25683307210338735,-21.568428438979037,49.47232679181956,1.5951970575188545,0.27786185606829134,-27.074107108468,-0.12063779418093143,1.2724240932382558,-1.7446647986366102,4.777773850701745,0.3827297409198206,-1.5204661800990227,-0.5436270166362779,-5.45551832972995,-0.9642801511583493,1.8719921098682777,-0.595546032041588,-1.7795858313159734,-0.24095917287996807,-1.2779486049924609,-1.2538363171028888,0.3969135905132389,-0.17333351973001307,-0.2659809797162433,-0.07252621291920375,-0.195193484283897,-0.1638084650144942,0.09045882758211221
1.7506129507675996,-1.2276301020126685,0.0671301100075066,-3.9411574887087797,30.5371331737435,-0.38070317763398515,0.6791716835453292,-5.576715646655083,0.8187562944465113,7.937476862258726,13.099975382088275,-2.874715791633077,0.19256167104691316,-0.3132971680686122,0.20700351730410832,-25.267960219239345,60.564423330364676,2.1582955711372103,-45.31366460136473,-4.022613172119167,-6.4927075705559245,22.6198985480274,-9.913915651022197,-1.411909828563978,0.1987052107747545,0.9868424590277725,0.3788517387972047,-1.527407526810895,-2.576214654548852,0.8472622772573387,0.729563627854155,-1.202865311754514,0.3190970857455684,-0.4577369011314773,-0.9247562167444981,0.219062833494842,0.16494394473013432,-0.12971389204370817,0.039174506787471045,-0.09336147775873262,-0.06795158267217269,0.007964501810619395
1.0101566186745703,-2.4059928077999753,0.8054495241594952,-9.89086709362165,33.9430856035023,-0.4796742868299577,1.6204092195909119,-15.147908944434693,5.503960299121648,11.251903177275759,9.49926167896881,-1.3588704317756737,0.1234614353923822,-0.8233681543204912,0.37928506271811935,-28.778032762516784,65.81395393121524,1.9653799797354614,-47.807581825674255,-24.21469600903927,2.811708926501161,36.659988808924965,-11.10794945561777,2.044327543687919,-0.5252675420626776,-2.8190039305711734,0.32850103541656483,-4.9862659558535904,-1.9566063366529176,1.7851999302074115,0.3534943681577657,-2.172155466233901,0.07668831976090651,-1.1736975360332331,-0.9217035971869201,0.32337031550628387,0.13811992145904092,-0.2018680163053146,0.04589114322860241,-0.1663462498331646,0.012518565541435347,0.04350072532082456
1.313141941581356,-1.422256067836176,0.37415604211827,-26.146291410909036,37.69115293295671,-0.07227082722263745,2.136840236393583,-8.235949033083198,2.6406271546046765,-26.04114459936624,16.44915976313539,-1.5199385723991024,0.1515845418337447,-0.09792342376727614,0.18407327394579492,-32.13624369363791,64.81393123889735,1.8683071868690195,-83.97006105114987,-4.674272947525041,-1.0175934699945777,20.373735519823438,-4.510865101814186,-5.94143939802763,-2.0442293562483873,-4.396992799726451,-0.6140011351781727,-3.2450731635886534,0.5051574171206508,0.39359979104182596,-0.27460706167300997,-2.178541396301479,-0.6075367087610483,-0.32403092396896266,-0.4338312812005385,0.06843565336162408,0.014511303291148532,-0.302053177446797,-0.09872959159885468,0.012943154043850297,-0.045889151783767484,0.019700805309575
2.730615837767458,1.4591381165087236,-0.4872639734584999,-34.7357185870317,34.7403598197441,1.2288063926280475,3.0668884477357476,-0.23187322255125034,-1.3701579440451674,-31.508611155989072,15.290907730628199,1.929091795359545,0.5981650617595082,0.13291724662721713,0.5592791176092402,-35.55478969268644,59.95119994205363,2.8400568102607537,-83.95399773265805,6.430389722439859,-3.141383356733478,18.382397738747407,-11.36478783693401,3.20655418325088,-0.6832787981061745,2.7122205603684,0.30802943170314323,-1.281848957879179,-1.8978738791218575,1.0068422849506704,0.28077159388666595,-0.3197552952065319,0.1344901147975489,-0.09585993648755307,-1.5617280823985005,0.5033197747447877,0.08803541762748199,0.10127468063457148,0.07799329776887472,0.0016001072607461958,-0.27618094084249084,0.1426743007791091
3.299087251703937,-0.7052746416150177,0.10696200293361004,-44.92574528173535,28.727532989849262,1.7262245422720575,5.24805585567805,-2.276565089487995,2.1875778135763206,-53.20877260257001,13.892711766961552,-1.900114771737181,0.04476426382352854,0.8929088942975767,-0.043514293450415575,-38.14006781776878,52.57991849583776,3.848421364587426,-105.55944054269594,1.9661980414349154,-1.2600303822800252,11.138700975168993,-9.039989784340344,-1.690574199356281,1.7156923287601429,-0.3541795485000983,0.19273015008319486,-4.2263986967896585,1.9712207874619971,-0.8083722012525664,0.3200594475631633,-1.4261664217369567,0.23474616297919285,-1.1975707992012445,-0.2483249756293789,-0.3511207678551909,0.0712538778188682,-0.21928925773038616,0.04026720637737944,-0.25736841112034836,-0.040837378745265315,-0.08237995896518281
5.467075876231402,5.5519098282080765,-1.6737731983658184,-48.374467373763316,24.793272036908025,3.3473875125260673,5.897002042345243,7.512240863459387,-2.178115666252932,-59.60164468834564,15.792270955683316,2.449848927355751,-0.04874405045151938,8.112585752852755,-1.6338477751225837,-39.23755365261454,45.44134175586365,5.066541117606865,-107.21267663943915,16.55981240837434,-2.051760791117911,13.135792223661333,-12.497465454053042,-3.0826228708540366,-1.2145993181515362,-2.5912437430174173,-0.3370310298358716,-4.243341355335065,-0.18265279996546305,0.6982767373948685,0.12679185245618674,-1.9195041794348369,-0.4663701411424322,-0.9897555350442125,-0.7557607823536753,0.04884665418075939,0.042538040582025524,-0.1601484153633454,-0.07542365075488804,-0.1388544435091116,0.06791148794737303,-0.0043601620174200635
6.658508441746004,5.590417229681067,-1.207486631276351,-46.22882310431409,17.98199931449512,3.714763070795491,16.1685154161589,-5.132227717474592,2.253993786557959,-54.02439933139718,6.23634751425889,1.0924152639932416,-0.3338639107720519,16.029116230291347,-3.454622143678506,-39.18726292529687,40.50319163189426,6.254373320968542,-72.46420529711827,-4.760499229366291,4.418415401672769,15.0172817137104,-2.3459504677883953,-0.8086115769660512,-0.7073426232807349,0.776637113693312,0.5019043659542823,-2.261985813077502,0.4307326093661817,-0.1306763901158612,0.36474150363825775,-0.8122640916007586,0.18516262825878085,0.003920139992376275,-0.8559435223778079,-0.10803493425264221,0.11663738770709516,-0.04907614354482508,0.09577258337632226,0.06646067493973404,-0.22232700253881454,-0.002944654789564138
7.191383550796584,10.471054481297545,-2.648387272292659,-43.047786592049384,7.408177017904225,2.7129960875511587,10.940957948258589,2.8187841586787847,-1.8933946878161174,-48.909246321124996,-19.102954490830914,0.31014355751419614,0.1802264062472085,25.500097041108884,-5.898084322739284,-38.55636409240095,37.345462947983165,6.405671041532804,-68.68554408256773,-22.873861529764987,-7.4716238352525055,9.837562791040499,-15.165097605636607,-2.926064993523583,0.5238259010253906,-0.9647010943836624,-0.1863527566349202,-3.6106709901281504,2.326750879935218,-0.4313691510094146,0.32705677499579955,-2.1058586458219217,-0.20051813034400473,-0.8908385419695438,-0.4339773319679841,-0.06008719036590755,0.0007599994388704286,-0.20008414929560267,-0.09894171965555446,-0.2395437075352584,0.0002415143910011498,-0.016293422559565222
8.475840687123574,18.058061184482757,-4.178687650933803,-32.4239194852303,0.8193073329061267,1.3281803983176397,9.684632589720284,6.2424557464256845,-0.388419610581772,-27.24346240052228,-25.491643975176828,-2.8958359951410717,1.0126313243858969,33.832188282323095,-7.726544997316983,-36.66403560798617,34.74770114304951,6.679072124898974,-31.770613363865987,-26.122235206202596,-8.821088580262039,-10.226159566689208,-16.374421820011754,1.7396847580894974,0.9163644086693828,0.9008840162329741,-0.20774894244662478,-1.7219661424012074,0.15565860526125525,-0.011830195659018786,0.6824892857406867,-2.7951193641173844,-0.4781700469404945,-0.20242971926262082,-1.191069292102339,0.117379805755555,0.13339155624109295,-0.3335538049127641,-0.1035365678520566,-0.11566725128098701,-0.11071762304243787,-0.007882875777532307
8.192305564397975,21.82679306284711,-5.434887340219738,-19.764035903579124,-5.690833171715596,-0.520959702032646,1.994525513890602,8.367266751518992,-1.5306728531069442,1.5627194399589863,-31.845194712391212,-4.9260593057086135,2.164531157017663,40.25781675487929,-9.61439582801043,-33.11655415555312,31.910762040029933,6.47762640906753,-6.443336366829174,-28.288791531577218,-10.728184053190677,22.97905081984869,-4.259163822030528,6.620743087673605,0.5532531981822636,0.3985166635904401,0.3177537016901215,-3.842727044165622,-1.6101942991370237,0.6231634137082271,0.49655423065580784,-1.5854813598182789,0.19435594310968854,-0.5064076210082175,-0.9764374754822541,-0.1863292605467548,0.05472718048151473,-0.14380616615223127,0.052055468998041865,-0.024292347528320903,-0.06185448702417527,-0.010873591387603267
7.419241232837776,23.487221848063566,-6.4530746344018555,-10.386949863412996,-9.557132144129632,-1.1024119391526608,1.4620065393586996,14.254027303175173,-5.619676954468076,15.310813343014813,-47.02344194436603,-7.61816663945772,2.5573933449079473,43.4885357419819,-10.636699842074032,-28.904485025608775,29.849680171603595,6.901097738023171,31.08195062473925,-33.025218732946556,-24.82647693059046,-15.326080892590669,-15.736724852550331,0.6708501124127455,0.48511722510678235,-1.1400359727987899,-0.4486958618101483,-2.205100993023703,5.3898583399112265,-1.4173168618668313,0.34997301848597484,-1.8131807034799534,-0.36360043591191576,-0.23373529628190087,0.4870418329148535,-0.33106909407692114,0.050558502872045524,-0.11107384662637482,0.12328155524496393,-0.09277408954121212,0.07825675727033635,-0.12579694740713493
7.904897727689068,24.59926167478603,-6.662946506361681,0.21799420624336177,-7.32593636694401,-0.09857428901659847,4.61453223165492,10.767861217683286,-3.5253891659906555,31.345114560984236,-38.50082763932191,-6.933583238414353,2.5009845518439913,44.656574067064895,-10.750465553565688,-26.7045721871597,29.529197381552198,8.309551550059464,51.134908039609265,-29.955934782414808,-18.05740325240251,-5.348576530785051,-22.78151354274631,1.4332021059198912,1.1945595476959934,-2.3092401356875043,-0.658025865288123,1.7089205326126047,-2.814973478598046,0.7856681039934502,0.7182985067003204,-2.1602719878276995,-0.5827676982161809,0.6196245666280493,-2.0685927055062394,0.7532946930046712,0.10436171910091166,-0.2545977744064633,-0.17173506823976378,-0.026275408928332994,-0.3518128364979418,0.1693558606268413
4.015758382613221,22.515388813889636,-5.8116321309072445,-0.32690081107731495,0.26652391906964684,2.37039124709497,-2.3066268523404374,7.20148429034731,-1.502263670816129,29.32255438441106,-28.703151116484857,-5.161166377908924,1.3450897244107114,43.00284559232884,-10.15993669482989,-27.057600065887442,31.511687598494674,10.11543044570836,49.52636674292974,-20.510705591098432,-17.528490454082586,-21.69994937558866,3.7107743477938087,-0.8749957469067555,4.4505465675539355,-1.5792384373044899,0.5867510189629271,-5.111334820760118,1.471678446243418,-0.47156552619308406,0.7602387222221425,-1.8959331636327095,1.1948596631876773,-0.6904402081970469,-0.6236876821197436,-0.6142957387715218,0.08363290042844047,-0.1998432380892474,0.23537933357888663,-0.05162964721227051,0.0022482759045195488,-0.10256035045984993
1.418572914358238,23.3083896604365,-5.694237418808506,-14.193300408360843,12.027528779673696,4.878819256205764,-4.662903422587043,6.71435275932062,-2.9382921609081523,5.453699971092225,-1.6427649545687184,2.1749762933789896,0.3197138565931827,41.16619278661396,-9.197100320038931,-31.365678884724474,36.305842935675614,10.822042649659902,20.616367169625434,12.40586098072319,-5.7564440257372835,-5.770353717929708,-17.350667852882303,1.0591541739169552,1.6450542279911242,-0.48143016180655,-0.3941622785276184,2.0402832857667437,1.3700317493123733,-0.5834049012405134,0.7901048563305223,-1.7145375148184123,-0.34427588198900644,0.3820209030176289,-0.3781211340634936,0.4001966458053126,0.13135214098306372,-0.1470396158351259,-0.14779528427510708,-0.12549967490114816,0.07270835222526617,-0.03168352160890122
-1.0890953673548531,23.48654743555215,-4.882974103761397,-31.91542787399746,24.449380298595884,7.278361793100274,-6.709253988575496,7.323011250929996,-1.105150955849283,-29.64669679541856,19.241585909630928,5.628933036578657,-0.30367906905487824,38.61992888739108,-7.988145938616996,-37.0442588494157,40.81999802914745,11.103901734995492,-25.100157678981365,34.494894770275664,0.275446498015224,-25.79490459663732,-27.119233237022378,6.348501539652409,1.902327631397464,-0.9639411686566541,0.2304257703158864,-2.2424929165937715,1.2282018561122163,-0.3803984886572292,0.43519280925205905,-1.6930633452001655,0.35912450657368783,-0.044356354902999905,-0.9642849518746016,-0.07122169686944911,0.00991048387271592,-0.13774666599040136,0.046515176736505945,-0.040843398693839086,-0.18609904074184894,0.00570605442781171
-1.7983128357479221,21.537635881332466,-4.208580445553548,-49.201140007590666,30.417597315071603,7.108638194963072,-11.922999539877118,2.6306690478857426,-1.506634237778392,-59.19762310412013,29.703533849243307,6.542524546196357,-0.840937376099656,36.75851626248959,-6.992070825800315,-42.77929273803914,43.42299484878904,9.569232083666988,-60.32751876622769,38.606590249531585,2.0531406934255103,-16.103447437750795,16.287212929397633,-7.663784079440367,4.1129947533680955,-1.47547406832553,-0.044270064148169634,-2.012314179659186,2.2559447324201716,-0.6584042764081303,0.9906301207893027,-1.8044013814273676,0.4805478477276458,0.05744695713299701,-0.7090268541397333,0.014205749795683259,0.20606084459790103,-0.19272752182356834,0.00822639527345757,0.010193618981114254,0.01753027984586871,0.014969152337809764
-3.2994040850775077,23.407019624358544,-3.6888522503076007,-54.611578958661596,31.716605799415117,6.837887574649614,-11.773620109047954,9.69721927915738,0.10114530399519363,-62.88975080219495,31.66564777962568,6.818013467295656,-0.6560233572035022,35.32912029119754,-6.148606993575645,-43.9805013772587,43.228841934616526,8.799807274686835,-63.22589353676616,51.84512251827869,3.569414368091603,-8.864848075418426,-24.232009045408468,9.918001213488216,1.358723837773764,-0.3479993241618383,0.8453159339692736,1.2069270074165783,-2.984210813394754,0.23883451330111066,0.2863428357085087,-1.7758709720894639,0.8466256126461131,0.13410013369356935,-1.3074070702768295,-0.1776699951658976,-0.04948027754912713,-0.12954274455649345,0.16976767183349745,-0.23204249942217034,-0.08718192893716672,-0.21981403098340155
-2.3750143680155227,20.728037143091857,-3.271126817974411,-58.328658139076005,31.63380260671683,6.184450651237134,-15.199927682111678,5.8518221208093,-0.47605954789650334,-76.07558613587686,34.04999564018012,6.39554921039051,-1.0243185137086623,34.675464846207966,-5.7301914322,-43.37033976721122,40.86567747556107,7.544765586506472,-80.74545914629073,50.43859088625993,2.486089813937034,-16.54555073713995,-11.148238447192634,0.517573425487889,4.321826290357221,1.1650829847214166,-0.3018831356908373,-0.4081177370463206,-0.48849685185349345,0.31206019580565425,0.7709535368701786,-1.6004582175445379,0.030455803302421022,0.48648743366619984,-1.2319278045909794,0.45722711114032816,0.12555616103461234,-0.10637561620118652,-0.1991318373495836,0.09343691073817095,-0.21335405694885404,0.17574243720840801
-1.8700950479801846,22.847246731297187,-3.44989574066421,-54.603733876537774,28.75236349010262,4.6151951396824105,-8.689268453545653,8.827043227538438,-1.175502866976757,-63.34056388434972,28.333183784423632,4.937655199024779,-1.2404795259363286,35.376793115927,-5.554484034210256,-42.17007823272058,39.48435350192178,6.4288039619754365,-53.64871837830603,44.75900305831462,-0.6947166744618425,-12.587051129276167,-1.0680747062405398,-8.148888267905207,2.4020682866577183,-6.817172709294867,0.05642979119519531,-0.3845917370730889,3.518361186837315,-1.024845168109363,0.5967306527410221,-1.8434315439063877,0.8580221548154006,0.5797544692718251,-0.8470017040954402,0.28814395394702386,0.15908370066291716,-0.3479639056892574,0.24047146222555096,0.00893113265543893,-0.11667671008028206,0.008152371388641196
-3.2589645010252015,22.219211908576092,-3.4147568534003296,-57.3247704312498,27.25154158112987,3.313389337289861,-7.327224284505973,6.909358769355873,-0.9356869784193701,-72.19121998831943,19.858288499813813,0.6414457341813691,-1.096463189691907,35.57396553701057,-5.715977992851785,-42.314901541036306,39.444204780695785,5.642003159007655,-63.46029303726515,35.965541830877754,-6.104252422242673,-28.786073071120697,-21.085996806600143,7.285783220723209,3.546995284049632,-0.07555097446966078,-0.021304078523020964,-0.0912023971268577,-3.209601598678369,0.7848439217932829,0.6384041803686807,-1.7689505224956579,0.29261241029966206,0.18173379174269552,-1.4701153959883821,0.0789619970587804,0.023685582995676694,0.012091728661433092,0.028652049601796792,-0.06268666267151093,-0.10108639981520415,-0.00016320054205687195
-3.2400070593437564,20.163868343570815,-3.106810144630561,-65.97746545608126,30.240316558642824,3.2351269822374316,-13.9363232553676,0.3847044309119551,0.8835293234828548,-90.04185050995672,23.732528738362877,1.8792251734240462,-0.9942134939482548,35.670033070403285,-5.778333276246253,-44.63664042027562,41.81419390872461,5.199802575446707,-99.0132284292775,31.14544637329561,0.4173359627410925,-4.873108727290302,-9.699960363765362,-5.526597404412739,3.778717256731392,-0.4296290420916077,0.8971952391360226,-1.9037246795815386,4.255862486995579,-0.9897554616072558,0.6970272821127568,-2.12251013913941,1.1548714633045614,0.3520055416917029,-0.7589647540272447,0.34670463150720465,0.14813850250212346,-0.29767633152757295,0.10499338667907283,-0.005126599089814949,-0.1687667966969669,0.07404727182108489
-1.4523145727556803,22.447700512157887,-3.8557767536391645,-76.83198696903565,33.879415862245104,3.1132422511447735,-7.429143688330258,10.324427523386102,-2.678798078685444,-100.12063394390017,25.52483809597841,1.1566258580849318,-1.3807013844272846,35.546402314965235,-5.80636811702242,-49.01934910866447,46.05395979947343,5.177421236301884,-98.80576009854194,42.5218550019039,-6.888018360480164,-17.487561053048065,-11.227135656458485,7.5042206202413535,0.2871310634039024,1.367098618687748,0.4643231308365443,0.8004136554493693,-1.0778037352901915,0.14851071259538828,0.6962696455229733,-2.0822412406527047,-0.034537678805091385,0.6580311915771171,-1.2898911005466511,0.22166495563623406,0.14790831344243044,-0.2638831122924442,0.005294913075887239,-0.008093489444369112,-0.104499225928331,-0.04462410286063091
-1.1035846829255929,19.00211286585639,-3.293862387109304,-88.7322448970506,39.66929954984469,4.015250462823306,-6.127173243184429,5.630301286258074,-0.18609231198366982,-123.05524288355632,39.491034482350685,4.001039086798903,-1.4379922420996485,34.70306838746497,-5.869282387180474,-54.430775446685146,50.581461994839515,5.711732336358888,-128.87941686842396,58.561223433581596,2.850723522985226,-17.600585957906873,-9.163683657058186,5.027145062137279,2.580338126252728,-3.3744473890451943,-0.1063689821483809,-0.0638648509249293,-0.45022965259062575,-0.07772545840944534,0.5851983246278673,-1.9528756490289156,0.35695033180551095,0.056949332643309473,-1.194636919481201,0.20687223206724048,0.02762925582167825,-0.05968669827076555,0.06858968047733484,-0.07801938059121781,-0.22245246583192702,0.06720510975294217
-0.2356053346180214,20.46801959355205,-3.923382612144383,-99.59341354081866,43.412404144626045,4.148889992038994,-6.187502674373516,6.843497038665445,-1.9334285498394512,-132.05982166279998,35.21849734810932,1.3460544147787457,-0.9409815624060122,34.35224380305001,-6.0140615184148665,-59.45010330422933,55.400705277908706,6.097681584938301,-139.02495677033176,46.03837742057183,-5.541586214132393,-4.731749595587502,-4.886855790758645,-2.258438785673696,3.019229351592093,-1.8210282545960048,-0.232671662846815,-1.7080722295690909,-1.1278123353510878,0.21792542584684665,0.8223344548087947,-2.1145913817552153,0.08644817449169759,0.021440315111211493,-0.8739043544392181,-0.17243279991782265,0.19695407840384188,-0.2657760223525442,-0.011735324329210511,-0.03897141813138915,0.0667216325905919,-0.08735976539327539
-1.0976126962091974,19.996673907598808,-3.6928616931943825,-112.96224876495224,50.74373299258728,5.815124281518973,-8.878675076340077,3.4324695814092125,-0.1940850858187619,-164.18565099280866,48.98110533449485,4.454339852266607,-0.6899111701054176,33.65861543290335,-5.955384069414151,-63.46643229762407,59.570654574097205,6.63272245996846,-189.77987212770205,54.717014377803814,1.855563923276541,-1.8971021352476967,-18.637558404507054,-8.199525976051362,3.738796703803682,-1.1565838066320233,0.9963119816045326,-3.3415678252030583,5.336355746470373,-1.3443790363156778,0.653947030207155,-2.904971293023952,1.084730747379717,-0.009557335193071833,-0.8315584996056203,0.049576808550872535,0.09664592290072173,-0.2923924824186448,0.06931058765272499,-0.07803747101847403,-0.22143365886506344,0.01144569513511926
1.7025271652631397,18.950468664324813,-4.063997475810116,-117.11378927018548,53.091837238390575,6.44447385319806,-4.236494358250173,2.2884664605216813,-2.6828492273553897,-166.25027814734645,53.69177058044711,7.972841898173181,-0.7895593842863237,33.21749296636844,-5.967617444684707,-67.02477526985359,61.46276015992452,6.745119606136256,-188.70536295211522,63.85528637150763,5.50733569178855,-3.5631562396943446,-1.7961594563770544,-0.1689175340609839,0.8020688194343457,-1.808766708296451,-0.3298251602565091,-1.9524244193133773,-1.1269997853842233,0.3719701364870844,0.6198351486793374,-1.7810267912069657,-0.334912914933151,0.31329886893028125,-2.2020738365384136,0.35492619138909487,0.12240801679783098,-0.18062620265525195,-0.06901896800086417,0.0012996675629107887,-0.23209592354866898,0.11416856560022627
0.7503021096742586,18.810072719497725,-3.748486713823642,-119.82579294099554,56.259175869031225,6.839768774258453,-3.8737290346627256,10.060639716389696,-1.3999306886576788,-169.90831318299962,55.741532951017795,6.370966205739312,-0.16013978701291195,32.90631372067564,-5.9970729831597325,-66.95940730653969,60.8991800869656,6.309776392588371,-188.94562430543454,70.42907419864534,1.8194616779214574,-19.058043193412864,-13.732327064527972,6.385160586362233,2.67279598717917,-1.4882890002434939,0.5731585620141925,-0.05463955875862495,-1.9086152576913902,0.22574451445902757,0.7229413425343771,-2.4777373236458256,0.710599212660374,0.10923157264725676,-1.1179578843143423,-0.02853965105162104,0.10136567764571916,-0.26102646715575745,0.23220861155207548,-0.038318712921166974,-0.07786570566212199,-0.04230561298558156
0.25092142542472917,17.06903761846126,-3.8172908391641567,-122.33203060563613,61.055674545677846,7.042212563585479,-6.492453508643786,3.287814953558463,-1.5427213116944332,-182.60624637949607,75.19536792157255,11.560830446442267,-0.20857254630411431,31.944418737699447,-6.119922415233071,-64.17346376681138,60.32560517520896,4.7241555767382755,-214.03763520763394,89.95066860458671,14.841213593753205,19.228807204931712,-14.15855887442726,4.001280358998947,0.8041752099782263,0.6551693502460504,0.5006093903971773,-2.5592590381974247,-1.7075250339342054,0.6771944619846052,0.8673773786940241,-2.695681061148641,-0.13199801078183238,-0.30370381109293215,-1.1232699269264468,-0.09922951489494274,0.1659377382825516,-0.265363246972845,-0.11889839679608924,-0.1675460397678791,-0.1632118861395939,-0.048382647598605256
1.755876324006462,16.648107984652828,-3.6412614894324653,-116.78133239424645,65.85384571483127,4.725612316096134,-1.5641778945618348,2.287022079560239,-0.8494558190406286,-168.612976061891,69.52101711130427,5.209187211482458,-0.345227784200236,30.911487149123886,-5.8527391347791475,-59.90521189783861,63.75670177034724,2.2813253853962316,-183.91729150910433,72.23277243014623,2.6999046019063826,-18.05855552682214,4.946067394666365,-8.026862494752361,2.647473954079921,-4.084393761658821,-1.1373252536056804,-2.8708061733065167,2.9883215294435415,-1.2348910374921,0.49776939391772246,-1.3225696546115122,-0.37623996669427334,-0.23013156850614747,-1.5090558041986684,-0.165166599735883,0.04132937980888127,-0.04086946213762173,-0.06250734773172895,-0.0688404785578708,-0.18618560513774965,-0.014531368569936974
0.8966265434734078,17.61395161636212,-4.126085772076456,-114.04479860055292,80.26020401761123,2.264145309877805,-5.649899637945332,6.695819919248241,-3.0674782400894434,-176.58615511735138,91.17260422958203,7.034010194657212,-0.01807955843404306,29.695671421939107,-5.857677533517108,-53.65344178021322,76.79970443097778,-0.86673630592801,-207.6220468202369,109.42818200398301,7.2681149428014065,10.411263610088065,-17.64603474423362,2.5226896681962847,1.8035911392510195,-1.6172289335215826,0.7243122492818573,-1.745968463952888,0.012564987430028929,0.04346948453852541,0.9686438313843452,-3.01289694291122,0.5160218147394128,0.21878330762947298,-1.5115592316866855,0.21270071616893108,0.22092052750104252,-0.4516365917850703,0.10401865024539106,0.012147687785997268,-0.19885179083900278,0.06503531486926256
0.7224926272242579,15.1217020531351,-3.7406951951008907,-110.78293777557958,102.3160192197323,0.15091720810010062,-3.164333937194238,7.331579567666257,-3.1932884702372264,-169.96824433767966,108.99210108939229,3.6601256638165687,0.24861139724144712,28.426658909180126,-5.706486852190943,-44.228734821046984,100.47586786261631,-2.7115391325152776,-193.77722402263424,127.10820865067376,-0.39424268238735427,-6.162615842343576,-3.9128890529884184,-1.7365291211588387,2.0425799678128813,0.7842282545888417,0.21385044697926014,-1.557014945488095,-0.5543670971725575,0.12568466108317305,0.5989420815756445,-1.7676591957338823,-0.052948717920451985,-0.16897151990056633,-1.0667342154325796,-0.047057613277382074,0.060059900032717245,-0.10946505349740376,-0.05500885879596071,-0.142947760659487,-0.05647119936913376,-0.08421048115360108
3.067245094211334,14.968980157565396,-3.542424194998341,-103.19740789094578,125.80295732505458,-2.300794981163922,-0.5998307777743783,-1.8115087035880584,1.2195747628154072,-168.54134997076514,123.1199368187562,-3.7345287390134057,0.20215627748948894,27.676669827275123,-5.6831290034851945,-33.02939948553368,131.14684678465696,-3.051083923974533,-197.1874374664138,118.01548511353232,-1.3589619235177448,-8.814823507413797,2.1327107473397087,-1.4917642431694553,2.655931692867853,-3.3187481914789445,-0.15148757488827447,-3.288867493289866,0.09663102800367199,-0.5310333374442869,0.7768534257190545,-2.120852539763522,0.34854629505781426,-0.7083518605685392,-1.3690642715520975,-0.5078020501513677,0.0874331899348611,-0.2650701551965712,0.24198873545686234,-0.12011523640515373,-0.09892026080813027,-0.07497757623478675
-0.4672459611154107,15.255640583431955,-4.104477778810097,-97.51077926976299,145.55960573653306,-6.204927200394094,-11.775280161546101,7.444710229560132,-4.093501608194449,-173.86644351039786,132.64088552943647,-7.007527049262532,0.06920370298878421,26.607463918660354,-5.740728910828128,-19.78238515156743,164.63904479617773,-4.072787794481086,-224.24003206253252,147.78840440115815,-15.002208932832929,10.490669416125579,-21.22906616170796,-1.441236146511078,0.12247073848227043,1.0139580900072203,-0.13494559651604832,-2.4367407109986674,0.7702015720762732,0.059034073614537046,0.8862786256014439,-1.6292802443536818,-0.7490547852228318,-0.09150499172693287,-0.8250008205744465,-0.06457161592606245,0.18657724991756938,-0.13144654715210688,-0.2169941622917559,-0.04466395087130415,-0.19225305824550445,0.008127080392886156
4.01495,14.91892,-3.74874,-90.43732,166.96248,-9.40288,10.12962,1.4028,-0.62369,-172.68393,140.64828,-15.37703,0.15921,25.91042,-5.47081,-4.22663,195.35852,-4.69745,-198.18048,138.42912,-18.2466,1.68691,6.97522,6.78369,2.99249,-3.24761,-0.06945,-2.41804,-0.4406,0.47014,0.96983,-2.53311,0.28611,-0.05171,-1.51899,0.21226,0.13423,-0.22515,0.10943,0.00524,-0.11603,0.08506
,,,,,,,,,,,,,,,,,,,,,,,,,,,,,,,,,,,,,,,,,
,,,,,,,,,,,,,,,,,,,,,,,,,,,,,,,,,,,,,,,,,
,,,,,,,,,,,,,,,,,,,,,,,,,,,,,,,,,,,,,,,,,
,,,,,,,,,,,,,,,,,,,,,,,,,,,,,,,,,,,,,,,,,
,,,,,,,,,,,,,,,,,,,,,,,,,,,,,,,,,,,,,,,,,
,,,,,,,,,,,,,,,,,,,,,,,,,,,,,,,,,,,,,,,,,
,,,,,,,,,,,,,,,,,,,,,,,,,,,,,,,,,,,,,,,,,
,,,,,,,,,,,,,,,,,,,,,,,,,,,,,,,,,,,,,,,,,
,,,,,,,,,,,,,,,,,,,,,,,,,,,,,,,,,,,,,,,,,
,,,,,,,,,,,,,,,,,,,,,,,,,,,,,,,,,,,,,,,,,
,,,,,,,,,,,,,,,,,,,,,,,,,,,,,,,,,,,,,,,,,
,,,,,,,,,,,,,,,,,,,,,,,,,,,,,,,,,,,,,,,,,
,,,,,,,,,,,,,,,,,,,,,,,,,,,,,,,,,,,,,,,,,
,,,,,,,,,,,,,,,,,,,,,,,,,,,,,,,,,,,,,,,,,
,,,,,,,,,,,,,,,,,,,,,,,,,,,,,,,,,,,,,,,,,
,,,,,,,,,,,,,,,,,,,,,,,,,,,,,,,,,,,,,,,,,
,,,,,,,,,,,,,,,,,,,,,,,,,,,,,,,,,,,,,,,,,
,,,,,,,,,,,,,,,,,,,,,,,,,,,,,,,,,,,,,,,,,
,,,,,,,,,,,,,,,,,,,,,,,,,,,,,,,,,,,,,,,,,
,,,,,,,,,,,,,,,,,,,,,,,,,,,,,,,,,,,,,,,,,
,,,,,,,,,,,,,,,,,,,,,,,,,,,,,,,,,,,,,,,,,
,,,,,,,,,,,,,,,,,,,,,,,,,,,,,,,,,,,,,,,,,
,,,,,,,,,,,,,,,,,,,,,,,,,,,,,,,,,,,,,,,,,
,,,,,,,,,,,,,,,,,,,,,,,,,,,,,,,,,,,,,,,,,
,,,,,,,,,,,,,,,,,,,,,,,,,,,,,,,,,,,,,,,,,
,,,,,,,,,,,,,,,,,,,,,,,,,,,,,,,,,,,,,,,,,
,,,,,,,,,,,,,,,,,,,,,,,,,,,,,,,,,,,,,,,,,
,,,,,,,,,,,,,,,,,,,,,,,,,,,,,,,,,,,,,,,,,
,,,,,,,,,,,,,,,,,,,,,,,,,,,,,,,,,,,,,,,,,
,,,,,,,,,,,,,,,,,,,,,,,,,,,,,,,,,,,,,,,,,
,,,,,,,,,,,,,,,,,,,,,,,,,,,,,,,,,,,,,,,,,
,,,,,,,,,,,,,,,,,,,,,,,,,,,,,,,,,,,,,,,,,
,,,,,,,,,,,,,,,,,,,,,,,,,,,,,,,,,,,,,,,,,
,,,,,,,,,,,,,,,,,,,,,,,,,,,,,,,,,,,,,,,,,
,,,,,,,,,,,,,,,,,,,,,,,,,,,,,,,,,,,,,,,,,
,,,,,,,,,,,,,,,,,,,,,,,,,,,,,,,,,,,,,,,,,
,,,,,,,,,,,,,,,,,,,,,,,,,,,,,,,,,,,,,,,,,
,,,,,,,,,,,,,,,,,,,,,,,,,,,,,,,,,,,,,,,,,
,,,,,,,,,,,,,,,,,,,,,,,,,,,,,,,,,,,,,,,,,
,,,,,,,,,,,,,,,,,,,,,,,,,,,,,,,,,,,,,,,,,
,,,,,,,,,,,,,,,,,,,,,,,,,,,,,,,,,,,,,,,,,
,,,,,,,,,,,,,,,,,,,,,,,,,,,,,,,,,,,,,,,,,
,,,,,,,,,,,,,,,,,,,,,,,,,,,,,,,,,,,,,,,,,
,,,,,,,,,,,,,,,,,,,,,,,,,,,,,,,,,,,,,,,,,
,,,,,,,,,,,,,,,,,,,,,,,,,,,,,,,,,,,,,,,,,
,,,,,,,,,,,,,,,,,,,,,,,,,,,,,,,,,,,,,,,,,
,,,,,,,,,,,,,,,,,,,,,,,,,,,,,,,,,,,,,,,,,
,,,,,,,,,,,,,,,,,,,,,,,,,,,,,,,,,,,,,,,,,
,,,,,,,,,,,,,,,,,,,,,,,,,,,,,,,,,,,,,,,,,
,,,,,,,,,,,,,,,,,,,,,,,,,,,,,,,,,,,,,,,,,
,,,,,,,,,,,,,,,,,,,,,,,,,,,,,,,,,,,,,,,,,
,,,,,,,,,,,,,,,,,,,,,,,,,,,,,,,,,,,,,,,,,
,,,,,,,,,,,,,,,,,,,,,,,,,,,,,,,,,,,,,,,,,
,,,,,,,,,,,,,,,,,,,,,,,,,,,,,,,,,,,,,,,,,
,,,,,,,,,,,,,,,,,,,,,,,,,,,,,,,,,,,,,,,,,
