PaulMeinheit/Bachelor_Muay_Thai/processed_Data/N2/roundhouse/scaled/JointMoments/scaled2.csv
R_KNEE_MOMENT,R_KNEE_MOMENT,R_KNEE_MOMENT,L_KNEE_MOMENT,L_KNEE_MOMENT,L_KNEE_MOMENT,R_HIP_MOMENT,R_HIP_MOMENT,R_HIP_MOMENT,L_HIP_MOMENT,L_HIP_MOMENT,L_HIP_MOMENT,R_ANKLE_MOMENT,R_ANKLE_MOMENT,R_ANKLE_MOMENT,L_ANKLE_MOMENT,L_ANKLE_MOMENT,L_ANKLE_MOMENT,WAIST_JOINT_MOMENT,WAIST_JOINT_MOMENT,WAIST_JOINT_MOMENT,NECK_MOMENT,NECK_MOMENT,NECK_MOMENT,L_SHOULDER_MOMENT,L_SHOULDER_MOMENT,L_SHOULDER_MOMENT,R_SHOULDER_MOMENT,R_SHOULDER_MOMENT,R_SHOULDER_MOMENT,L_ELBOW_MOMENT,L_ELBOW_MOMENT,L_ELBOW_MOMENT,R_ELBOW_MOMENT,R_ELBOW_MOMENT,R_ELBOW_MOMENT,L_WRIST_MOMENT,L_WRIST_MOMENT,L_WRIST_MOMENT,R_WRIST_MOMENT,R_WRIST_MOMENT,R_WRIST_MOMENT
X,Y,Z,X,Y,Z,X,Y,Z,X,Y,Z,X,Y,Z,X,Y,Z,X,Y,Z,X,Y,Z,X,Y,Z,X,Y,Z,X,Y,Z,X,Y,Z,X,Y,Z,X,Y,Z
-6.472500000000001,22.332740000000005,-5.5219,-127.50111000000001,180.77063000000007,-9.577710000000002,-13.37403,5.86905,-1.13432,-257.64441,205.02385,-15.405330000000001,-6.794600000000001,45.22683000000001,-9.68929,-63.41388000000001,210.56689000000006,-7.85576,-303.66153,215.17528000000004,-21.274710000000002,-8.328660000000001,-24.952269999999995,-7.764390000000001,3.9243500000000004,-2.6598600000000006,-1.3794000000000002,-1.3801100000000002,-1.0355800000000002,1.14927,1.53372,-0.7163800000000002,-0.49109,0.21235000000000004,-1.4428800000000002,0.9296100000000003,0.23779000000000006,0.05062000000000001,-0.10319,-0.006180000000000001,-0.16279000000000002,0.16715999999999998
-6.904119273079406,22.9100194026264,-5.8300775745837194,-136.92989993014527,197.29072092442146,-7.931121250445579,-15.049848514165099,4.625133027103458,-3.373576322608427,-261.58023665195924,216.2317667486149,-12.39189481259548,-6.605624619594143,44.54321779239661,-9.564929081969062,-59.70561646105936,226.4262259816136,-5.948530856780778,-302.5048992934592,225.13394945620695,-21.09986418117994,-8.78356662176254,-23.67673435408053,9.53484029988275,2.212234152634441,0.21851289443431646,-0.34770972892746127,-1.55722272877548,-0.037942933098048505,0.2009905752234004,1.567466411529082,-1.212849223452757,-0.5660328375525647,0.23025379562640866,-1.0534472130598642,0.5561715806619433,0.27733884361894895,-0.03422442026715123,-0.20173393434365045,0.03581013697815742,-0.1375279507025906,0.09980984657664717
-5.113524234418088,22.913591838286557,-5.661779601978705,-133.0478461820721,197.3538838187264,-8.525303038013366,-16.141313438456585,3.0634795722657246,-1.334454524138123,-253.98964284545815,202.8704956477564,-17.24709361728933,-6.2806090353005555,43.72398352932087,-9.303399359470864,-56.22403141154586,231.81083583414133,-4.597596622785911,-307.3320824442383,198.01320773598593,-26.809189036195036,-4.9238734157978765,-1.7886632329316003,9.446557044171444,5.1714177397007814,3.5042598371690317,1.7489303345833387,-3.9739554020345325,-0.151961521647896,0.19505795417978639,0.18553367215848837,-2.1173005551058828,1.6274125191668785,-0.6241691799156864,-1.2482649764529143,0.09454167992161802,-0.06271377139170546,-0.2793894730503864,0.18882623274475036,-0.09823236981440382,-0.229877460814332,0.050684937788817726
-2.0937262690252556,20.905405985302323,-5.581557499567823,-127.04471673062253,190.8134558338046,-9.528929829356587,-7.178806507396458,4.737518666650693,-2.9394502792690957,-246.50804915853575,195.74947054918317,-18.723230013251925,-6.3535521161107935,43.03150147329424,-9.042686096637915,-53.01682164588743,231.3727505214076,-3.934308921521223,-291.5916998902834,195.40160607181852,-29.480187572029916,-0.9776325781372581,-3.4210092701177874,-7.388354815125546,2.132196036477117,-3.572724824538729,-1.4979785932336411,-3.1826289616591286,1.0653425246019887,-0.10346797393545767,1.2073067394104768,-0.48269210360579107,-0.4872253081950767,-0.11966062366953843,-0.9457120913181081,0.43412127066983214,-0.01988456854695312,0.017271202957877325,0.09810910082568647,-0.04465451639846814,-0.07343554416346561,0.038159782776719706
-1.9674231035595988,20.36334155778664,-5.195263121062045,-122.92044635562098,184.79906483113695,-10.016494529943106,-6.930480883210362,3.6790914924042895,-2.332339168818111,-238.22907264005005,187.49623988586083,-19.592470067874295,-5.756869680296941,42.07872451386019,-8.658196480798548,-48.76722309073353,224.82945602049398,-4.065633467091873,-279.03904874476643,189.9978938243236,-26.564297259889905,3.2879247069116198,-13.587889769079197,8.07786082605851,2.041200235768163,-0.9093786422909358,-0.8497951213210033,-2.312710998523462,-3.0846881932540966,3.007307619372383,1.772166934977307,-0.6519583128963157,-0.7389657902025148,0.26382348225402313,-1.8097454707719671,1.1506718745480151,0.33702160200330694,0.04541151569382204,-0.1305697709756743,0.011610881830556141,-0.14872117595671877,0.15787990307817393
-2.379382628151756,19.20087379173433,-4.825818272178145,-114.1805350509829,176.245423759017,-9.861501235995078,-11.266078588894155,4.733183934962092,-2.034291212607365,-219.3390423988156,167.47467315744993,-19.94466662767485,-5.249060009213074,40.600500716056416,-8.339960646583725,-44.756004442265926,213.65488405897753,-4.112955115061955,-266.33878450906064,159.6780267575244,-31.035915587572998,-3.410467195400826,-5.330515884217718,2.140081162982118,5.078153924536927,1.5232083091512367,0.5727052457451736,-3.8492243076732278,-1.4780369294729268,1.703479768257401,0.9061320212075931,-1.7588872794621089,0.63867267542555,-0.34007306421964856,-1.364974505561052,0.6415773285000518,0.17540949039768625,-0.15772602666811544,-0.008292041092631095,-0.06069803548039342,-0.10705505985465585,0.11260404053039326
-1.8487883013527513,16.866241535875346,-4.435493481084241,-103.42527625992024,165.36199804836644,-9.43143156838892,-13.28412333007135,11.51760183324486,-2.70158073388229,-197.53215281540548,161.99071845851327,-18.886336308059413,-4.955692813264221,38.93286535861245,-8.031483330475414,-40.21115337402996,199.33123094125267,-3.629849530633269,-238.06006719770906,174.39701599969575,-33.068929105566845,3.0608810005778855,-28.7566930610275,12.869525616261706,2.1177324929476042,1.1372020282655058,0.5080544032047449,-3.9342520474117166,-0.8483079432771143,1.1477811890220702,0.8988951098344409,-1.0318344823657495,0.19220223635348174,0.04270732006217344,-1.6599462972714196,0.6647567383663152,-0.061112244747768996,-0.010280512478495275,0.07084079837416753,0.04823093883146163,-0.25353801863207936,0.17155359357550073
-0.6276325406910994,15.48893126585501,-4.333211183324302,-92.33855660085618,152.77790441209166,-8.503487677138267,-2.3113966706471403,3.9801636400555824,-2.549380136302233,-178.458588120131,154.44173074686117,-15.633664259483307,-4.7395502007801324,36.90868039566902,-7.6535914604459965,-35.71811638117451,183.16574426549363,-3.141190328992393,-203.72676043536413,158.24126175094727,-21.398579564047708,-13.163038152644718,-3.8211943250036775,11.312518321161093,3.3002478487241875,1.977738199954303,-0.07324809970879809,-0.4416448129090746,-3.6911628544650417,2.8884523978965926,0.7752451651135278,-0.5469100079708696,-0.2497515036529662,0.37307059664872744,-2.0347453840392205,1.3040526714048906,0.16779812537003289,0.08480502823020357,-0.18559360658524302,0.003743763347017947,-0.23370769876598566,0.2253206616237982
-0.6004274491329713,13.89962176172261,-4.123842897755977,-82.90677300707824,136.2807417287947,-8.647149935820384,-3.0078522563820806,2.446437464296945,-2.9920594579275432,-163.16032701049275,125.86909572118941,-20.63542858150135,-4.6478548187302255,34.699670289019906,-7.254871602763801,-31.994667476391804,166.78295200656888,-2.8061393766096243,-189.04453799867125,122.59662905605413,-32.14998477178484,9.922521784474474,-6.239759416666032,-5.966635607710096,2.2710356730048153,0.23316460655657753,0.7928035723384192,-2.7453827993159896,-2.7648103071620453,1.9972228149837983,0.08332027144938306,-0.9156849015504319,0.9262657192085618,-0.24245390871062728,-1.3732612792494054,0.25736935354596135,-0.07158072126102953,-0.13315796517342485,0.21830806843639364,-0.01822995981193531,-0.05643738403079359,-0.02209164557719576
-1.741485821588996,12.121249246297644,-3.5542399858094953,-71.1730045025044,125.98387115464638,-7.342013981079083,-11.761302303073254,-1.105127620337299,-1.0988727331311368,-127.15669277089833,116.42637340822174,-15.238089031022403,-4.397629472843117,32.663093590686856,-6.93114670893834,-28.964547928788804,152.29679411010463,-2.304351997953303,-153.08486884244414,110.47621558928877,-24.59773848761945,5.735507682671385,-16.0740133376763,4.153538437770748,2.2210461491539744,-1.2313062991120944,0.4878818833158615,-1.3808419598351576,-1.8940370350933438,1.2841336184573013,1.5062532162744073,-1.7660067471636982,0.4508190949834733,0.3503854309661815,-1.8862937362782417,0.8575094268205904,0.18878347791854325,-0.273445414977235,0.2398203052009967,-0.022187343650493404,-0.3242829056449195,0.12431860940173851
1.3128382015202409,13.305240410920247,-3.997546831713149,-67.64014918159766,119.54443000833598,-6.014632890038404,-2.949555248492564,7.279770512725784,-2.3953664063030513,-124.95474086260552,120.51959965408835,-10.198353596996423,-4.223118941539711,30.985483243745918,-6.555398081222572,-26.092219576138042,141.0722114933333,-1.96795905519161,-136.57009877635406,132.4451809205815,-17.025296376773284,-11.311762320413546,-15.838065156934976,2.0448922161806755,5.260620596935667,0.7293889339371669,-1.3419470266763955,-5.212194117248371,-2.290664999907229,2.0825133680681507,1.1054685340927104,-0.3365396945210618,-0.6634825975138966,-0.3394737453618378,-2.13266922833018,0.9671329903202123,0.20284556397519307,0.231171102942117,-0.3071397579426779,-0.07119774661663186,-0.27041134450168575,0.27399616763845847
-0.9360583788346076,11.517644018580494,-3.7314262035110146,-62.70616568203889,111.74081592601298,-6.076922765278195,-7.459405307642665,2.6538908294880623,-2.5508833953161933,-116.51802703060814,101.88255440257261,-14.24495931552617,-4.120379854508214,29.844042756885763,-6.57590692290364,-24.079025909370007,133.4938053186234,-1.803332187504833,-133.76821884006714,103.61520385658493,-24.48239890335922,6.370032424907345,-2.0451553831078035,0.43744541932005976,2.9687165819170533,0.4068792663814557,-0.46463227373456906,0.18775608674516953,-2.0088701982192103,1.7025342830508383,0.5238956615475863,-0.7122360048237537,-0.20814307018259126,0.8547717518344026,-1.240844068289732,1.0065330398591932,-0.01327196311752544,0.02255484649481341,-0.10933165662859104,0.11692046564089674,-0.1303193026855185,0.17288435421520512
-1.2730095589575636,11.875445319216361,-3.902005074556843,-57.31031987316069,109.16967190367812,-5.514093508567542,-14.299205787409912,5.552976470564075,-1.4975102897866317,-101.48983583347169,104.5983096547212,-12.270007780786376,-4.31890198988513,29.297944333318654,-6.771936341348876,-22.36958901549607,129.24529055472271,-1.4392857731003372,-123.15561556753126,110.16134839809831,-23.40347257736129,5.758586009691305,5.172546369361699,5.347804533856168,2.9965240427363162,-1.1258501870426532,-0.8982954343015692,-0.18017231515600587,-3.6272618129647123,2.3443411709860573,1.0408189465233368,-0.7873902226596359,-0.23224383613073676,0.22985737040141002,-1.2740641013037737,0.3195362621864876,0.13653796738816157,-0.028144038790797864,-0.02092469682944603,-0.10495063013910627,-0.04339915430015714,-0.15548590228612552
-1.0069271395701116,11.600797669798498,-4.5374587463995235,-56.149710434143316,110.63804560856637,-3.9472905864633145,-2.415107754300735,0.4948471916086925,-3.181349108176553,-108.0412135294501,115.29140718197255,-6.658661726910539,-4.699112333826045,28.64110694269823,-7.153919009138928,-21.018731991558333,127.29109628605998,-0.8679901215037703,-108.75992305896077,121.07390168709713,-11.840179776398596,-16.336248793393935,-25.11218061681198,3.244021603708475,4.844649397623965,0.49087248320211174,-0.17668329330299448,-4.095203078625003,1.4142890982582286,-1.1341404200757375,0.8675634737524551,-1.0465603240157442,0.35526684292342064,0.12059120340617156,-0.9946452277277966,0.4715011721780093,0.06915108021377271,-0.02411117475488704,0.05225743037565627,0.04760365385678821,-0.23391170947303808,0.20750171364712516
-3.3385152715896673,13.554596100631553,-5.2468701066502454,-53.98641694728993,108.51694192361163,-4.416495244999675,-14.76271597750305,7.573209141185854,-3.643283692932223,-101.04948197349962,102.27061230868655,-12.136245302819088,-5.006423031111454,28.292079409474482,-7.705791016529395,-19.656042155229922,127.36174381257426,-0.6635491964691121,-117.89126697785561,114.52572153744582,-25.019372296266006,4.094957309384357,-7.841056224978133,10.262870092451486,4.070856991101389,2.445950829353389,1.2354660097923573,0.6394341342181015,-2.9807149644876945,2.0317456111731653,0.42151823960210216,-1.1740105767217315,0.8676184646776072,1.1892944328268404,-1.8091614341909683,1.3166683221012632,0.0550566142861351,-0.08677280841658412,0.10482610513349397,0.1401910665990309,-0.22531101030721148,0.25956567309205975
-4.705754223285243,13.938225453788178,-5.8719490857767465,-52.895557765471736,107.9228495538207,-4.68529573155637,-10.910013258143351,2.4027518831300885,-4.6073781098017985,-102.94165724851206,102.05703376011365,-11.913134551308554,-5.037188309759741,28.538587777551093,-8.333115278332206,-18.571380825417005,129.3977965645394,-0.6784830018141651,-110.46209262750335,107.6505220291523,-25.275332064077944,-1.654673990751732,-9.287413231640244,1.9811830471186553,0.7079384730078658,-0.5236192280299219,-0.18855837801552108,-0.5334870775701098,-2.4751687208954705,1.5794042560314026,-0.182237942353388,-0.37049436535201985,0.08875808306992668,0.8273019513229117,-1.6316430102644732,0.8952308807085906,-0.1527129021776563,0.025596521921976947,-0.04941508207346337,-0.029080865057225597,-0.09126577220137992,0.01455984464467135
-6.6975887077677365,14.872310613378842,-6.5592886803261035,-49.993095036322174,109.38582422736539,-4.262364135263255,-15.95101487151061,5.5301585133938875,-3.928561136515826,-103.03985706228184,105.64562306573521,-11.364790849631758,-5.388833781081198,28.584165829868653,-9.220461310881566,-17.05314804357647,131.92436784971912,-0.24984662673056857,-112.68321114872917,118.9397096647865,-23.314677929080524,-23.61396846773966,-16.897682303223398,15.194989173404103,1.9090911774539288,1.6162261380175402,0.1837398673880799,3.688719236557039,-6.918444420912438,5.200542896267871,0.05384172768461798,-0.6422706556782649,-0.08767122379830478,1.9395749342774247,-2.6410846811285356,1.9300335568803475,0.021390702195155976,-0.13960402341082329,-0.05642310868873749,0.21563781288877745,-0.32482597031411814,0.3825393863746755
-9.691881590318474,18.874938916609544,-7.889355438788892,-49.089179813477756,112.95614555395953,-3.7079176001216547,-25.10028791366196,12.941850690871643,-5.8324182440122945,-105.32774458387819,111.42215815683315,-10.556824620854018,-5.589470213321312,29.047018577453823,-10.120213600419179,-15.840050603467612,135.3894092708173,-0.06734776907609995,-129.74459248532708,132.91596192118308,-25.54534804671481,-4.941947233098448,-39.197336892357264,8.697591411951386,1.7224336053538047,1.7706653807004247,1.6756465017257662,0.036691737389246706,-0.34984855524948094,-0.16491167180862376,-0.8419273924919016,0.0318315274408356,1.7022743280375854,0.5741449616852708,-0.7635801808501355,0.2437078640790711,-0.2184414557678132,0.07059680143847541,0.2986513528391741,0.0068656910585805685,-0.2239541250538379,-0.06084367373207245
-10.928878255591231,20.542284189555318,-8.726037583844166,-45.71150202687005,114.96908591035559,-3.7064758151119297,-24.860103476555945,15.485160012519312,-5.923139555313546,-106.93507586312931,115.35616282811222,-12.215379548301227,-5.891809585484256,30.20089066082621,-11.08892089639628,-14.455770058671048,139.55778473134214,0.05253678275066925,-126.39724383964342,137.22397111765287,-29.29246086950479,-15.286265282922582,-10.714343573099324,9.07404952312833,2.1028425157055817,3.029315246029956,1.8089305180441142,3.314467325934364,1.172762704194456,1.2109313054135509,-1.3077512249227272,0.5089569806960346,1.9104768883298766,1.9594436898186007,-0.1946958891248122,1.8251152891173072,-0.3672034130108734,0.12793794311555837,0.36445677600417553,0.18711697368943633,-0.04086439990633651,0.26407334013664696
-12.393014205338286,23.2564132528562,-9.938523686433479,-42.259964392092975,117.32284234415128,-3.696875146731,-24.05858855880787,16.059081519420868,-7.393848956540321,-105.59659410282389,115.31877342352983,-13.531018697141645,-6.750381319362803,31.515948181796507,-12.0563482782943,-13.156971223021287,143.77161543638005,-0.1650878025492995,-129.58361318037745,135.8319964871201,-32.65454004055761,-17.925276490323448,-1.711705802049451,17.513501702619628,0.38165527364062946,0.6862396227974242,1.0228342200908556,6.780221954940678,-3.916848132843612,4.74706646173292,-0.74003836373319,-0.7067695353875966,0.7256452029273718,3.1768933261642127,-1.5396495408333075,2.53621541427214,-0.11093613657573809,-0.1694651874375132,-0.03193498917762331,0.39062050946140964,-0.19445301586632308,0.45056250522657604
-13.468135601835987,29.458541687123784,-11.564008661130753,-40.823159343378094,121.50516111714933,-3.1738583021450837,-22.00972384790558,25.533136597791156,-10.146818302579042,-115.52442763538535,135.3771115442059,-9.80343139763518,-7.093264341806838,33.42410581946317,-12.9286389173039,-11.385074946390052,148.69273822463964,-0.08405238699618771,-141.26902892425696,166.43929160534097,-27.683563462672144,-10.498027019682944,-39.73239327239627,18.855680087680526,-2.732073671392275,3.741076518374427,2.94641326315248,6.537778154252467,1.406889919750704,2.3655593796178485,-4.489771980472343,1.5194138803386052,2.5128124721439815,3.460631289596856,-0.9289737920684898,2.9026754233713934,-1.0745817370429191,0.1179074582763694,0.18213952936816458,0.37991857865630774,-0.24178326189174665,0.4432082933927562
-19.088908709840876,33.210571593856976,-12.32632155226887,-34.81033381022003,121.56867440832923,-2.8599141077247014,-40.75454014991677,28.278990776256094,-9.348916904255343,-116.19955213653458,127.67428978835075,-11.938300534781447,-7.264358487039278,36.19080469983758,-14.062978286193342,-10.420694380720837,153.06528805501503,-0.08216693014333257,-159.17899639536282,161.5709886483008,-35.093898348403236,-10.6838700081231,-37.873538796930994,29.8883338671388,-9.300663893535045,9.584015122466468,8.837135716837249,6.491868932334447,-0.2446923629862744,4.011747202782057,-2.852047751087414,1.888975443207242,3.1920066362169517,3.7603237859430183,-0.8782932906939334,3.4004240824871803,-0.7272286743454583,0.2039694364848091,0.7905518460871421,0.33172258999219295,-0.10612498215547489,0.5233299407043046
-18.399612447730266,39.24773561375002,-13.884988756882203,-27.962197566196927,123.84492848221451,-2.5027541851746973,-32.055026554249864,34.6720148450015,-12.266670703832403,-118.84790391592236,127.91493871976294,-17.515296081683303,-7.406376964608419,39.934910063898364,-15.03661220725157,-9.681361704461306,155.02559065444888,-0.022335394344517742,-151.47307131762676,167.2081298969597,-47.642956698425245,-17.37500922149323,-34.27923284799805,16.154692852652147,-3.9311347143321105,7.454182515411263,6.703140122411582,9.932296075822403,-0.03208431642825989,5.538061315434408,0.7316963575517772,-0.050722798780264464,1.8383420837872337,5.019040570700644,-1.1074334602649125,4.419909505706412,0.3091606768711853,-0.014287886743341357,0.3470551670490776,0.5160151224583077,-0.18585297690410688,0.7456918869617097
-19.352412817260767,43.910085458395926,-14.731652873789368,-20.914742712473007,124.76698650802295,-1.049744444767366,-34.92637095818564,34.75961032420218,-11.286281481872745,-124.93373048348816,142.43283478111846,-11.485078505804998,-7.965495361131662,45.30320073694716,-16.212543435450847,-9.766689856551938,153.7534411750243,0.5995849008652417,-172.2840799142934,180.582897912774,-35.816428207736564,-8.987707144678865,-36.204659867496595,14.457593950227913,-1.4931183575848614,4.108735412731269,4.138442869095197,1.6869005520119114,1.3603520423618425,0.6893331150166438,1.1948180357444351,-0.47896511014486864,1.2463315097875889,3.5235479998867683,-1.2241350543373357,2.2177771424263257,0.4058216775640769,-0.12647913494342689,0.2938205155547331,0.4647783950955113,-0.31335489400746874,0.3100005118388917
-22.738209855158193,49.54607785969623,-15.588633290086932,-14.461503897792205,115.4019455548662,0.34341432265767524,-40.36885864903778,36.35465189858923,-11.767613043611036,-123.89560633066205,131.25510958878678,-11.292140129508564,-8.066328262333801,51.91009395658407,-17.64316767933462,-9.73204779449136,147.02758479554788,1.4674269163101652,-174.20413301819863,167.1689748215978,-34.259184007101844,-13.066443355955295,-44.53435422393865,34.705708339364264,-8.643260591374663,8.859949777602164,7.685828106729146,8.512237583285591,-0.6002982537390436,3.5050516972080112,-0.7920631053930862,0.9438405757700731,1.8479931554200153,3.1465078416025154,-1.1143963639471457,1.8728164473791726,-0.1653054453628139,0.14808410582742298,0.6848114487568985,0.40970505874841223,-0.3172905947216773,0.20966798031541695
-22.05052431079472,52.12720120191064,-15.088136417928268,-8.054969519718288,101.06518797823871,1.180850789004693,-43.26547784263061,30.1008539323139,-6.377345944007925,-113.88820971103488,109.69715733240693,-16.118602504120727,-7.731627410363405,59.23231242367324,-18.64848768188737,-10.359427618304958,132.06646418432075,1.8706827995256619,-172.41512701639243,133.36203624031054,-36.58292467736472,-6.659320184144628,-41.757803682470346,35.672060352551235,-9.184096797748436,3.7627678762879677,3.8051574273251565,16.37506637593026,0.36310355515277687,8.35259738984633,-0.3781978350646439,-0.6253501200442527,-0.6781384116782928,5.912440092795964,-0.382537304587523,4.76799322129458,0.1054051036123189,-0.13344198006909305,0.08200237458014499,0.5691379117820473,0.008106678806831259,0.6767854732528156
-20.24176255855698,55.049475395460114,-15.1904994285578,1.6139734588677195,89.2809211122425,3.011908546902826,-33.376373892597826,38.36873063046773,-9.99554333859947,-93.81785715606787,111.2376774258208,-4.057839700544724,-8.196733226828629,66.7239833923986,-19.593325904209454,-11.789291334737904,110.16921112783552,2.937292075293695,-128.56323767586977,156.7646649155825,-25.824246113567806,-4.1717420830098915,-56.015273081127944,19.591241258514778,-4.638389267742478,5.751007173477898,4.759520808956258,-5.65795162680854,-2.2206066765541608,-2.827518238211294,1.1033792473521624,-0.7985527711458538,0.8216913922142022,1.8071406849948335,-1.3129710100231708,-0.3190291306408449,0.30548817418877733,-0.23759401214776518,0.2397273238929982,0.2186082397040328,-0.30123776621024845,-0.2260144495590091
-20.055907009813946,58.347742464326664,-14.68762576574315,5.390594142141459,78.24604671366478,4.31754631520443,-30.222286034062314,44.16635669458143,-8.945578877867074,-89.40177667769338,118.22935461422611,5.5218691301807405,-8.077976347668674,72.86700238937526,-20.385079202399243,-13.991388980953992,84.22928808121762,4.240639908248448,-120.36198945015124,178.64342376154838,-12.203092123722683,20.16429727791438,-35.61977119026839,4.8919539261698555,-4.152437918265001,-0.7573439692974767,0.5510720991594105,-2.2716858400764006,0.7873948332187589,-0.33514850444609784,2.923106396965785,-2.363320169443069,-2.4505739005280094,-0.13179901285347112,0.31710048375228317,0.4252316008330866,0.6621433281400838,-0.13476052661762133,-0.28807350922928376,-0.21411344220656506,0.14128331507968975,0.039188057975127796
-21.350135854973438,51.22788401577293,-11.174889423815687,7.4438530661990985,63.743650888396765,4.6307992064163725,-40.09863657251813,24.969102752983847,-0.5207612447758196,-80.8090042812626,119.32168126478919,17.439739240635028,-8.155640016832663,75.73403004144626,-20.525078974175027,-17.34538495650144,58.010802851109204,4.6646711620833745,-131.4202087266633,153.9662895424278,13.952712429540773,18.15800509040475,2.8225820644162614,11.243086750988388,4.568716423511303,2.8979790032871184,-1.0406972242751331,0.1387485192790721,-3.864566626299247,-1.8008529596206084,6.238563905960741,-2.1092950408785334,-2.434471318695502,1.8812305613328506,-0.830058230878537,-0.9093920245158931,1.1003418601622388,-0.187889941834754,-0.6040268987763106,0.23819509091403673,-0.13061196491054922,-0.22833737009992952
-14.123904809073412,43.53816037919613,-8.565263130184182,14.31626043373494,43.57786890594284,3.9705191294459476,-22.54773404380743,9.808005265603743,1.0124156573145937,-74.21583716499879,88.76555082309487,10.552056052399635,-8.526505060066667,74.06346215998825,-18.823947607559525,-21.10860431072563,35.07862657807889,4.575094558172946,-105.44122114056927,95.39069029596901,10.80140127816338,9.060028807968273,-4.822345152389041,8.229797477174762,8.590303667820747,-2.6355842113893333,-2.3549405211717804,-5.6266006399902455,-7.138946059925766,-7.042370864144603,5.482965793779645,-1.2378626512547184,-1.6752258313235493,0.07136175655138655,-1.592379026821188,-3.932585554660611,0.9356274643307353,0.10213516893129948,-0.2629926036006877,-0.10970736020921504,-0.3905506529564698,-1.0503004727729344
-9.717928634779797,28.178296579480218,-3.0724339123257223,17.405267545544195,26.344655728615233,2.7915672168957473,-11.577099879817938,-8.570273723563426,9.48163248119896,-67.23725152461802,76.37569388557823,10.919699945990121,-10.249617979385805,64.98411729021316,-15.544879887305262,-23.78676266840794,17.41381948790762,4.279201521363608,-89.9762740878573,68.7369788130952,22.902904308582894,57.21927254383704,-2.8931288916074327,-3.6680338175856146,5.2047849645709325,-5.84193486612928,-3.2438835707820535,-9.892404257060614,-6.7864177866586255,-9.876792079127842,7.723254345377093,-3.527371296546898,-3.9603807818867676,-3.7191315933884517,-0.6275322577216347,-5.608176162053311,1.3053788189841826,-0.30402099582830977,-0.8924308893102976,-0.7948482169387683,0.18625286587352805,-0.6739025962757172
-7.037493524639313,10.423575608673245,2.939726361369518,18.47865639505424,14.26099601773237,1.8348787059904303,-2.429920733323962,-20.595561350499434,11.992363435868471,-64.33789820013318,63.612703641654,14.325381300499682,-11.228641660051101,47.7703533282501,-10.322331973033315,-26.13274666050137,3.996181247446342,3.550221363545863,-78.25986614395012,46.44236487240076,30.408007908443054,34.23771252033883,13.972744019212692,-37.65124345743229,19.68627789525552,-4.07071321553852,-5.596679315345118,-13.650356944638729,-2.411822402397,-8.58847246836682,10.45575230002706,-1.002780485174251,-3.01514652717395,-3.7326422037527744,-0.2069260494198782,-3.4539871674670777,1.2077568435969084,0.12042430291289663,-0.5408013929932489,-0.6476514787729049,0.14549036473598234,-0.4586421359781075
-4.298804955421211,0.8014435388471286,5.92232206617018,24.445346397738696,8.5888803264107,0.3165424941989644,16.287789006384493,-7.928887483208462,9.120777491905935,-50.63311181342747,60.18767190172399,15.8096418704837,-10.323219726723465,27.576509838312198,-4.448968005453046,-27.09237606701349,-4.8329417716474214,2.6909305617551365,-41.18721088177053,55.88330804712839,33.09648741533615,32.366785384347,52.98498881097747,-38.01471943906937,15.545394688353351,3.3956162595810744,-3.8700655013800795,-12.459123949805887,-12.017218263173119,-13.444912762558364,6.314612483332609,1.1486652111591815,-1.051538540555042,-3.60525694246095,-1.7542956744583786,-6.683744174398555,0.7910980738882706,0.28103751510916514,-0.3032034496801425,-0.6946375338986153,-0.29858657506517966,-1.2782570091730021
-1.9113269017229002,8.292001010519845,-0.3989729618932933,24.684174925161628,7.81220833956514,-0.8920647941049479,13.699937990628367,8.78035036972046,3.47445698342708,-60.95009292169829,69.09451201758817,13.046179921819233,-7.377829873566638,13.427158711287253,-1.0276018098909039,-27.551134617873974,-7.967190129591778,2.42101561012997,-77.65593724537688,57.36473951203122,27.66636756019488,56.90582221641591,47.727506294974816,-28.08214224658134,20.76693504185691,4.550472231317927,-5.127925009853396,-9.868103126065925,-11.936598222167031,-15.343205625676926,8.860001227776253,0.8934252799134297,-1.8645196081924986,-1.2608858568226178,-2.4184560122174807,-7.434536322323233,1.1262085622119742,-0.04304743216938031,-0.705128133657102,-0.18649922490679705,-0.36647401656954226,-1.211299668977483
-12.436908166793502,9.228747694207575,0.7088355981861296,30.536569267373373,2.8609666609110183,-0.7797034906985497,21.14058165638734,-29.786935959864948,22.18149263399646,-51.35543947061598,55.05360327744691,12.505605336776732,-4.9539028671468985,5.050284960645921,0.011987226925479998,-27.816219455873945,-8.038334963663207,1.3540668547511285,-59.62985752775211,-11.72250095895766,61.47411535628375,61.65633142262331,31.53805796036491,-22.82073384228794,13.888468299119506,-1.2956756832044745,-3.5968246415264176,-19.00248961517966,-0.8372000414235863,-13.974641388561919,8.303619386763048,0.9700113278396415,-2.6857158500932106,-2.8466477902069616,-0.5640600644251396,-3.793272313728827,1.2939150291882324,0.4426518444572614,-0.5504605522674465,-0.22522146092682602,-0.06002963160539377,-0.6891264761809872
-2.7751214748061686,0.856403613163125,-2.276274340913162,33.589761738127834,1.6886062788132117,-0.3843273185838736,48.349612374251926,-24.670705803199862,21.064570756524507,-36.66554320152097,36.155137794770575,6.3630666516927,-0.504164769002744,-1.9474855215150009,0.02668217338671772,-28.22890160670356,-6.613039129100478,0.551087924601266,-6.092438158020538,-19.88927699256584,49.50976500885413,31.827514884280617,59.23899715125518,-56.38691703448869,23.69572876316858,3.8911910873706894,-8.484622611859546,-18.70376363231147,-1.6608815628383147,-14.177160685831566,7.239196055799753,-0.11386921135393382,-3.5666382748073695,-3.388678239029446,-0.506355221920564,-3.724165656420841,0.9240647727282839,-0.007544721993472625,-0.5969644695990526,-0.42248031704953004,-0.10619484049611667,-0.7867350795245441
-0.2868114210614475,-4.616818447012629,2.8702200271889247,33.79295221361013,9.131501989768926,-0.6922883975013427,24.290568183483266,-48.45067600485814,24.72685278510086,-24.865487703277132,32.53325524503928,1.382949881202346,0.007289698045973479,-2.966743240793776,0.5220058700058915,-27.478613742846363,-5.186818991820175,0.4819458377343958,-32.817888186476885,-75.10560775174869,30.981162053538306,53.07791110585865,63.82018892835593,-45.98202242599871,21.496342301629703,3.771904533036666,-7.8879738564126125,-16.77744097176017,-6.308544387013779,-15.497936501354879,8.940884111350835,0.43862101792753055,-3.9684390333447435,-2.8861370967199553,-1.1185807672324573,-4.121880937961522,0.9780018064448524,0.042348865983737584,-0.5404362684594399,-0.35485995147777,-0.08991449228746436,-0.567233418565763
9.418027034770779,-2.1066011191601883,-6.2299297709770745,34.65213153962934,10.426724961126263,-0.19366786936495042,75.79637274324942,-9.971289959277076,37.24148102303451,-33.743548639399364,28.872453576386143,2.1233942083416193,1.5125228638556112,-1.1238638818107027,0.010347958553881641,-26.83329321003723,-4.423401723857855,-0.04867455884789822,30.24287272332579,-14.99158935878116,63.713057668795095,-5.577790881009868,37.9992850509577,-44.252383606896665,9.184230561701161,-0.07792728072519553,-3.4441672662652882,-16.627899623778177,-2.6171586064906034,-13.067689442041457,5.547415777485433,0.5819548656164514,-2.448969247985067,-3.3795175273963185,-0.2671867024347277,-3.137918918142161,0.5357475427449109,0.16836061185415477,-0.22846925551364408,-0.5162853934593048,-0.030225364157024794,-0.538820192850471
10.62409453412881,-0.85928405491653,-8.085273552824479,43.16380019271486,11.166636070001747,-0.33636035309809975,60.909378262562434,-4.30427303647161,25.95921456326572,-13.698234061794786,29.383550716448678,-0.6325371629445966,3.6622163758465978,-1.0942906539834227,0.5298111203900145,-25.57761927571284,-5.100680816069442,-0.6332014947559851,37.00906222376702,-7.058568796083664,35.57406942964423,-16.236542554171525,73.62894068276907,-54.520450221782724,9.96564796657955,0.5677682264116775,-6.257954284163859,-18.9995890701443,3.9089104993081407,-13.333886451258689,3.6383310674037177,-0.5200748421505549,-4.003855065502162,-4.376076086320805,1.660896460387412,-2.891870555544587,0.3168988417654695,-0.1754817362477915,-0.8094934832269742,-0.4528089902503445,0.20015049883691327,-0.4134332479147333
1.7231279424217711,-2.389859407249807,6.380611837373528,39.08625358581771,12.312340355985292,-1.4233449403515328,26.903322229618823,-31.93464840864193,20.474311459832485,-5.123726797477604,13.472460385542595,-11.16195009239492,1.7399392601092576,-1.2146381432250921,1.9252040272210824,-24.924280995861118,-6.84186173343622,-1.0455685217478128,2.7587391514131197,-85.21485355900622,-3.9376707059907785,39.3036487938763,58.58183894063311,-60.76466151844891,17.987247416161825,-1.7573089490455913,-14.650356131227774,-20.143253191256907,0.010574658747694615,-18.05184709066245,2.942068683845625,-0.8580429979156782,-8.147097484463075,-5.044917010085431,0.5139645739168226,-5.324711887494466,0.27262946067952915,-0.18515743937126777,-1.3790407430171305,-0.6024340029772661,0.07679405328959642,-0.920849605287562
11.333569076860307,6.704805577708756,-31.5786154103989,43.28865425177216,15.21486983000691,-1.805314562175191,59.44640329969712,17.01462682156912,37.872296619935746,14.738554597820654,35.526545885738464,2.417634611672315,2.527591387262068,0.40633981664759533,-1.3031851171474846,-23.38901057079131,-9.671094452510737,-1.2016065465328305,77.09941210345681,7.612658909913254,53.27974646288935,25.283549871738487,22.488516415390198,-16.34280490134066,-4.45976078264636,4.884458682734078,1.152044006581551,-15.438757975782378,3.0702088843012505,-13.419793032113432,0.34029700365504245,-0.09468141522896908,-1.7442887879765745,-2.4291777566552266,0.7439386245442895,-2.1278841609271804,-0.22849232104294842,-0.04936572294946314,-0.5392936209712937,-0.22216082094074643,0.1440145712654501,-0.21510690392203413
12.64571702682306,3.5792348261392894,-8.117029742465398,41.651903628836806,11.819774638084736,-2.506623487814452,59.22822481799999,-28.113853154565025,15.272338330283727,6.7931586161010715,29.77889087044137,2.414145805132112,2.3058381755972723,0.90377700005792,-0.861151296728325,-21.71235407425674,-13.13461064590275,-1.8242810609799724,68.00941877698027,-56.31185663286996,21.57408107885039,-21.997555489301355,55.94717064602091,-28.245863733748745,7.960520839841481,-5.623080309900228,-10.942723172602932,-4.6878251986487625,-0.12858195409597117,-2.934960884472652,-0.007733363557672679,-0.12985796674049277,-4.770416882668735,-1.2283780463730696,0.3839602822694792,-0.5951085191651169,-0.4050063982174075,0.02164168007862846,-0.3707296875096466,-0.36031737379836765,0.0037475543287171413,-0.18118396389350946
6.215802735037432,3.098313853538761,-1.1022731411977678,45.964934785904916,5.535060314626276,-3.1140839536322376,17.032359132676977,-5.4987144650866755,7.617822347575282,15.367046198952442,12.091827214038878,-6.792926107096946,1.6321306101710258,1.0173342559378118,1.5465999203235543,-20.156135272704507,-15.948444554794346,-2.492650739498432,14.570044105689226,-31.5867117771798,-27.953846439919335,-24.0359952698796,39.076099542104785,-21.619291055834523,6.509842835025394,-7.844527063120723,-10.640266898214966,-5.213432837214814,0.5555556155674553,-3.2544242625988633,1.2308323602127462,-0.5998929199820111,-4.212660270839124,-1.1555902115408954,0.824785520402527,-0.7539910232449292,-0.06705996829980033,-0.04015407699302185,-0.3775307791283247,-0.3362520298930687,0.08774791648623793,-0.19594179938861994
11.402727165798897,7.1139930252092896,0.8864069211777658,47.37879183166698,3.7672237222338874,-3.298258489608996,22.10532344019133,4.9523081445345065,42.09152115400939,38.677372783377706,13.291673850607792,-1.4418923587243127,1.2907978503297564,0.0466823056698944,2.4069876477489567,-18.803638228011803,-18.22221251629039,-2.575404175523381,48.54061669849101,-4.431017106037322,24.109745270400527,4.516932761477184,53.633126756763595,-9.125594288889125,-0.7914915720587634,-4.181982410265763,-6.614628760176396,-2.862526241196031,14.215686658225051,-7.072831079620113,1.1372188379194277,-0.7022068177117227,-6.3411485512866825,-0.12406501548617202,5.1119049804735575,-1.776156931556119,-0.06405290102608162,-0.08685840440443708,-0.8433180336958004,0.1192698330137395,0.6761427374138391,-0.1835258780023505
7.851724730035421,9.318450231283823,-0.3039035710821564,51.37113079275576,-2.96540579864296,-3.737848889250061,27.74139452828752,-15.1750072956064,53.43297677601002,56.57685775982801,13.329042095576613,0.05990276347141948,1.0593236517027902,-0.23814445334148632,0.4887329378385237,-17.02849887920435,-21.212233302988636,-3.3405986648975006,74.78736050616278,-14.648887113462767,51.989425664398915,-29.03474773816288,35.250918202037724,-6.161702934359837,-0.06814500124576992,1.20113619710383,-0.053885279880614534,-3.9642569257542335,-7.3611157309715844,-0.04816281266697344,-1.3799635865871702,1.435972935669802,1.187792726750638,-0.7757544104185976,-2.8281400026709247,0.5865608015811241,-0.3347780956098855,0.3621578547828457,0.3259392269297676,-0.1970862184793885,-0.45523835385300343,-0.0022017033455000463
1.6864095521237363,16.064033186153885,-0.8396363970270326,52.48354292391292,-7.283126600735674,-4.738664470660361,3.016095477256758,2.8699135354922114,43.41545796053062,60.092755253138556,22.89127926877054,1.832719733685067,0.38135259905480356,0.4299871187045029,0.5367569725485389,-14.565121713219776,-25.14702246626431,-4.081899287714592,52.4061995232916,37.034089836973976,41.360184917406315,-39.112578580777786,33.26684481313545,9.484747000152307,-1.8890336204251572,-3.6869751104179787,-1.338796916241558,-1.3962288333489925,-3.7233788282566946,-2.472246688153948,-0.1574598102334466,0.8895748742056876,1.6717335116222953,0.7767771841214456,-0.6133097301352985,0.47741475334147243,-0.04195013481079164,0.3757633821793756,0.6762532772713842,0.06373233726269882,-0.1395248643416984,-0.03321039826478568
-6.270059630441666,-3.9640315720114443,-10.821957145016949,60.38100418846761,-1.8342204425119153,-6.696888838404462,31.772592840410162,-31.55503890214982,23.109836807451416,59.05589958120677,31.610523641349527,-2.011517254471976,-0.7608882365100276,-1.0819935971014136,-2.3590996586958988,-11.373886254878416,-28.936753575724502,-4.191799237875417,69.26842932772941,-7.919111231124055,18.38819913821571,-32.53044569328055,48.960506180107956,5.025125869234629,-5.183908969013881,-7.574317228308276,-11.755587757358045,7.724840489925179,6.3862714182953395,-1.5389400624933223,0.2863568988823966,-1.1794709404854147,-8.30031583198673,3.1446264244585875,2.1756089421186795,-0.6676245309682348,-0.024029251416126225,-0.5178170355381821,-0.8154358875769825,0.4095869757990239,0.21603406039475284,-0.1456846352015198
-21.453578316825517,0.931050867800184,-39.800688734380365,68.2933171364988,0.3263338189584763,-7.761617027169891,99.13039818364753,-55.72990394537155,0.05465707503654471,36.52233034155203,32.297688752723595,-2.8640057305914364,-0.1760616375253582,-1.24253640683684,-5.786670698119118,-7.804215756589055,-31.888334256944376,-4.71079300174165,93.72605440290344,-41.578342831916196,-65.55903975944105,-21.414720684086582,12.946082499827721,-10.442220369711112,-0.571595902322264,-3.091742188079047,-9.173039957639372,4.53602996734213,-3.671226340972532,12.69894887362841,-0.4861672147735842,0.05278445006936355,-2.357506806641962,2.2491925016727876,-0.9714343768734697,3.1250804812728497,-0.19664924908203388,0.009199891817860711,-0.33625586507064686,0.18790527359488277,-0.04710460430331792,0.4064044049079045
-20.296509856731227,-3.6248310142674396,-89.86743934126956,65.73227509169392,6.61919414444186,-10.640728258982382,80.59183195329669,2.4837545441013997,-135.64377250501326,22.790893642073073,51.415589101157195,-7.829805258552977,3.11805720984857,-1.4664695964940082,-15.355410153969268,-4.3561603331185585,-32.713628902017575,-4.7004997883336985,58.146273262828146,67.6477368115404,-224.13911054868336,-35.20021083458222,47.658004467699506,3.3549599069604463,-0.5951126222583563,-1.5703162428987907,-4.409679435693345,-8.19310360731449,-9.700440622449701,8.868316440947433,-0.013956895243155541,-0.4278263224311381,-3.03406674035752,-1.31606361822474,-2.269016653094781,3.716333944280191,-0.05795634470915855,0.3863165915725019,-0.08967716014281163,-0.2000567847102763,-0.16447951783877174,0.5046612627101651
-132.18593259478212,52.95699170169607,-81.96065587581613,71.32134847177514,4.993902848197507,-8.87108578937171,-269.8032707617667,130.951408800107,-185.2919587801323,34.15960839816392,42.00422011941419,-1.8507605555092403,-11.841168188143397,11.540893032241204,-1.7390025899006947,-1.7323522514168812,-30.531525537990834,-4.668677842971667,-279.40777218466576,207.60560822271248,-162.4747670330952,-44.10748124286401,-27.66339756100591,32.133052032803896,-3.431890199432767,0.4493559934869784,6.7334485283394745,21.363096218155206,0.6285039299364032,1.9963074534257663,-0.7934419618711449,-2.9705902403434776,-9.359438200204517,7.4744654489663445,0.1317473050165902,0.8154114858387218,-0.6052492318118547,-0.7580909010248407,-1.5308123017467063,0.8468133245228536,0.02397434698246506,-0.13100427728653197
-167.93304365606213,65.55258820696851,-89.82892525938013,71.9978164395549,0.8933363462891044,-6.242993464954523,-359.9512469385372,189.57481519941285,-218.25600641828578,41.106329461261424,12.734425401031412,-1.6458293610378185,-24.33511678644879,15.428523455261328,-1.3933432936274424,-1.4378258492219325,-26.477610435393032,-4.395190776599136,-364.81016336565193,227.65210042111457,-199.4419619092044,-49.026519689071826,36.89843439101316,62.547470154458274,-4.658562961768441,0.08997064666278617,2.341515915778538,-2.5328408626296435,-8.35012231346442,19.685602105690073,0.0023671425125416715,1.4781642357901794,1.6501404378196824,0.06768998368193183,-2.8153543426564833,5.893043750064497,0.02627322509192759,0.10845530470686848,0.44864147682076577,0.06560144187419452,-0.24952925344210597,0.8779954463975291
-15.446802633999615,11.977204998542824,-34.30770826485477,71.88902014794947,-1.6609914323367572,-4.549129357994346,-46.97953770011809,55.24899876757645,-83.60353034567143,38.5321574334158,6.473812703188758,-4.224196079279093,4.41612901255022,5.022516204699974,-6.366389451584052,-2.7198065766553663,-22.44745058069713,-4.043021963530879,-63.99711860639377,83.63441631577444,-111.07246047616017,0.5348167423419068,35.83849671381408,76.84723002915551,4.056459189468364,4.048548685398781,15.914039738700428,6.4147134894551305,-8.929513996444298,15.931236410982631,0.28787398651298496,0.21038449166098358,3.9052424663195877,3.23691801657557,-2.344026535218852,4.595830512601593,0.42436512004324206,0.6202526345188234,0.5596340839060765,0.4900983868282817,-0.2689000167625052,0.6006071351145104
38.1742492333611,-13.897662060003814,10.314750687934476,70.52014230103798,2.914753440013814,-4.077437240153418,38.34128159695524,3.710652690901656,-1.9176951447715198,45.34150121518958,-2.066855704346202,-3.6409852524460353,8.799879540851576,-2.5614149124023604,1.5845446229465041,-3.9072436819557987,-19.637442379564224,-3.626638288455236,56.25229131687181,-41.19358356898644,-11.600884221300099,-6.86431327007542,-38.65960730622935,25.271964111404184,6.646907894095585,2.1308244800713285,14.207986633155588,5.537478350716983,-7.117327759303466,10.613289618371857,-0.8497437643617567,-3.5031184677121163,-0.7143675485744235,1.9598329793058258,-2.0288271167120873,4.630518541598944,-0.02872304229710892,-0.2177207042983002,-0.17611149804954224,0.21448981220065835,-0.10630308465354175,0.5660660062049531
-4.519607157341163,1.5751385680361112,-4.147146599843847,69.46964987915602,5.300736258863924,-4.061468108986249,-11.16513413557869,0.11424421333762802,2.6611705544813224,66.22085607074845,14.656789791980906,-5.196148320302708,-2.2316583546572164,1.2361477884222585,-0.46389978863215287,-5.667755566336586,-18.011222569043085,-3.393065016689975,32.56680498555383,11.932378675229879,0.6491987078312924,2.3242034331050627,-56.735631527345745,10.043008042364235,-2.7024966764545906,0.6012344131440117,8.938804319963882,14.28802122050349,-10.575821031950928,27.10677830344551,-0.42595406140750275,-1.6234900321679078,-0.041371909682703614,4.104887317603388,-3.7403159529095036,7.913539760625644,-0.01440138940162137,-0.47970298396200406,0.688289724157159,0.48130025490319417,-0.3590618023255382,1.1555641960692118
12.5147215610507,-4.057878063018514,4.719048186768533,64.05670850265487,7.658034977900873,-3.883969845031081,31.51364051722265,-1.9365159152965568,1.9417313518229016,50.608117744566194,16.213416327420177,-5.5660968922603145,2.984118325053229,-0.8319503178354787,0.3862450166191369,-7.479687074079494,-15.76170181507258,-3.1499376485120543,61.61652591892525,-0.976621224730421,-6.462546924098788,-4.761885826803326,-17.26158425315047,21.578890281310013,0.5162696241259889,1.217100994596014,6.9508998862486155,6.862441811558244,-8.556263315807213,15.786078841210303,-0.68553201081168,-0.6978683152348513,1.5096177670068602,1.8687206184282228,-4.0032462580274935,5.9443309549874925,0.205018580431252,0.16301229243120338,0.459662549663763,0.24565349644548598,-0.6823467197327594,0.9161450733254515
3.4892096618091992,-0.37741801941468034,5.665735508836719,62.18889334420941,12.595623495334568,-3.514169243377738,3.3009931257315106,8.439421814699784,-10.085377200687143,52.08014419745763,17.068328780461997,-2.0136951487124914,2.3004757506313505,-1.2267994923941261,1.5907195447786364,-8.7425876547195,-13.779485757590454,-2.7339369188549,28.094602544491764,4.361206710749932,-24.364367252387613,21.780863020180863,44.542975541605955,62.11291020700407,0.30820285058785324,1.2731828798513314,5.870207098444957,-0.3427656239203543,-6.742207855037362,9.101686404120773,-0.7736149432466966,-0.9831080566230361,0.8192986615652886,1.3096856861534725,-2.459893785207459,4.365207723610541,-0.14423257246291477,-0.11512727618487358,-0.013551148943143585,0.15656381313745496,-0.2844726111599351,0.6097895542067323
-18.917428356669273,5.676962142201344,-7.832579746268636,63.92035632367453,7.122039274723874,-2.3758063903107236,-20.621716484796462,21.123267778802873,-37.41873771524158,68.89846255494415,10.431380444912062,-5.916072691770423,-2.739171527045259,1.1614331931131432,0.17988768803412422,-9.933794323110284,-12.797252335651649,-2.916018362376367,28.130974061987104,8.09538070917552,-60.00846634131484,8.779907322665183,-49.201204619725594,29.54133487565076,1.5155851331574062,6.521045353660934,9.398489768913874,3.522885078228364,-0.3643760948400822,2.2931079486127826,0.8861843856736357,-0.3367596642050341,-2.785254493980597,2.398316035196415,-0.49964538044155177,0.9766350427947981,0.12397822734217993,0.06025126247672478,-0.022898674286168687,0.5242112104916874,-0.13750772072417936,0.3770275190739875
-30.60445353635813,10.556140232525937,-9.658733013081065,57.831062765603825,6.305851147586309,-1.754184448655721,-50.38335141719102,22.604577542510935,-20.55743087273431,58.00854379310682,12.78982328734167,-0.6680105935054711,-4.4480816951923945,1.955432918584083,-1.064153675498042,-10.914419565823003,-11.819557320104717,-2.7956881658770647,-19.20063752668433,27.964974801096105,-31.185835122250037,4.103562904052519,20.67876427885779,22.46039143731273,-0.23430849001228102,0.5898285770437709,0.9532551575725776,3.7500241941580543,-7.9399651005450345,13.83131158278816,0.2227494680060902,0.648851115253586,1.097651753250149,2.3231132412851814,-2.1707333804488456,3.943373801228365,0.09651064364596101,-0.0027006025404375,0.5367014759060299,0.48571078561767256,-0.11862245135082522,0.4462105909519753
-22.341380845288256,-1.5635691547207613,-18.6492600297114,56.52034426540109,8.43303437999412,-1.6112168932028514,0.7266769860476917,-3.3045470034773334,-23.04054153132717,76.72324015271623,26.30999781319301,3.9271755156951667,-1.3254332221460423,-0.11092483117034208,-2.361267867461305,-11.92132825401019,-11.040674381535597,-2.4519113861241912,72.53993151900058,10.763823096291231,-36.49017797620322,-6.152138262090585,-9.950454470947134,12.97096224099398,4.890636284628698,3.4448162745783537,5.1735464608983595,0.22945990178115325,-2.5542567516908354,4.004293509979424,-0.6275944433834638,-0.5645434245433769,1.3860172106359268,0.34577987463833243,-0.6439050817517561,0.7556300335190627,0.2249699214923987,0.34162148068826576,0.2597419669788342,-0.04629261213947581,0.04513022773509612,-0.12708055469806778
-16.621211666353005,0.7836597793499194,-9.61486908254343,51.56174927225744,5.853794091503109,-1.6125463280549823,-5.535267502326082,-5.669681421352742,-3.6482344908991493,73.62585349417103,25.087001444446344,2.4835367570731712,-0.7747626793059217,0.04706983537959373,-1.8993527541775956,-12.473374970976822,-9.739795990563648,-2.5582799974273556,60.998608474966574,5.87549868466967,-12.109538372191025,-9.68811029982751,-24.02240224991509,-5.396330007354418,2.7625774580340097,0.354131689448981,0.3323242962144799,-0.3571016552413408,0.25419895742358956,-2.5867908494746144,-0.5799110021191095,-0.25467450633189426,0.6053745883631628,1.1855750663895668,-0.5230907607662442,0.13381187703978847,-0.009193500686163819,0.17694696315822614,0.010380624948175265,0.2522673817337416,-0.06248885852740711,-0.09700381298114412
-6.905367979399227,9.256353040159862,4.2084315567902255,43.31622703654168,6.890062302909189,-1.5987154568141049,-9.059290247894367,7.587833144759957,1.9157662812426945,46.17979273279875,26.995612329537003,1.9201111008235054,-0.3999829432266289,0.7639300362692759,0.807842139582704,-12.11542729649595,-8.412178872974598,-2.1163448230196247,12.575746062196838,17.398205259874228,-12.074919651952104,-0.7493873908251791,12.731079505586106,17.315662015025612,1.988978881009654,-0.25923200662581836,1.0809517158427009,-3.2254427242606925,-4.821692681585192,5.833807871376213,-0.9903845505867949,-3.3873613792158572,-0.8342508471483531,-0.30759560948330605,-2.687094864162649,3.420090740812794,-0.4256955304847602,-0.7660176713360727,-0.02676171963434324,0.013768087516536241,-0.6244128229739789,0.9369064550061735
-15.39124514605788,5.747469284382711,-3.07310729782146,41.632500980406945,9.012163302777664,-1.9291381597668023,9.656678084260435,0.2023942716439574,-10.098271410033997,65.48382946018522,43.719049682883714,0.8188506813010104,-0.7588059062390984,0.30061669865489427,-0.01632015472127518,-11.704928675731566,-7.121947674908346,-1.7021184833467087,64.09753878947227,25.74083405517386,-29.049217046887716,-19.457964080713303,4.297235765424011,6.791569988256134,5.646099496738945,0.47375479258414455,2.3427849127983125,-0.9987832037469835,0.3367822785472537,-0.21457684393991627,-0.9176920902835539,-6.010746760208237,-0.6453464823276995,-0.24871673222503135,0.2125122205622595,-0.08675096837923871,-0.21661832596235966,-1.037730009143176,-0.12489022637526152,-0.166057394262425,0.22448819962133457,-0.19028425037846367
-9.954578088092587,-1.4376370822877176,-4.092523618547429,29.490254815172662,2.6935264357315196,-0.7177558502204948,10.34384927198921,-7.776558744155381,-20.569654728847826,37.81454684598382,16.079138617932912,0.058398675695996057,-0.009279927273209124,-0.2947033657721632,-0.45386718922230074,-11.436133065325558,-5.070754941533803,-1.6072010836825705,37.3485549841516,-14.956865858744196,-32.10704509962942,9.701372701224203,44.10849934357415,0.17347910396422495,0.08207396396579578,-3.4621657815101705,-3.3628783343562936,-6.102886061467128,-0.2135018390619759,1.0664635263794884,0.16022855181887527,1.3015237848751717,-0.44248611948001765,-0.32032545633484877,-0.06773672104459455,-0.11577639984315798,0.16036240050412612,0.8430829113209404,-0.24515972598926591,0.05575881989193676,0.12653082647599545,-0.12938536686959576
-2.685585285149772,8.587129284377104,1.197137695233764,24.667595792662826,3.9028368077691122,-0.04083091196063186,7.512520968544405,11.425478992421127,23.036341196327268,32.68552669957192,5.9919358353617165,2.2183056434167585,0.7061264222911908,0.009938437129917108,0.5591583968497332,-10.915373256917427,-2.911079017825255,-1.1336271323097604,28.834372569225224,-8.910966699426323,9.676615924428772,6.725356202129315,-37.23869100876965,5.172266412259674,2.8417600751310963,2.9518977993634063,3.006215226176435,-5.7834183906670615,0.3577525251264089,-0.19347726501593515,-0.6247348872032221,-0.22799312774350397,2.247799462900406,-0.0006553066699566262,-1.4996193875178394,0.353233168577553,-0.06114094117104779,0.3543716020186338,0.45436036269614466,0.18509753848082888,-0.5936839088848213,0.23244867451878826
-2.5330745027097747,5.347220316027105,0.34110966446813573,22.42458629364264,3.3086500021480623,-0.13399912696888272,32.77791453633727,1.2246299420763382,40.97539346764476,51.981564565757154,15.27051904243818,4.202062796756317,0.6986632762145473,-0.20425960337971436,0.47292206965214056,-10.956091542996328,-1.4289509014642767,-1.3088775600280893,91.00116382247077,4.554105441238161,33.83862305573749,-4.371017188272337,8.864996660669538,-9.08176213123899,1.9829241116624243,-1.9878852446287358,-2.3534548494752956,-9.393202871785174,-1.1384211931423474,0.15982752941618894,0.6563854337793553,-0.6303293934327661,-1.0577309213842117,-2.4083029341386255,-0.6927519182190761,-0.1789560928460804,0.12854210987694753,-0.09485514772942621,-0.1183054615581101,-0.524891483370278,0.0705104932011627,-0.11482042773878177
-5.789490018882217,6.258656974382947,-0.86428824697941,21.403640055715808,5.619312202234026,0.04137319957079197,37.23760413385607,-10.093760086087812,9.945917795258701,46.069125185638676,24.62021321817151,1.3441935612361466,1.057755967261401,0.2749141320134417,0.3697506993370002,-10.326505274243491,0.6492412941829515,-0.495403779340959,74.82141781119618,-9.021768794364217,-4.647331793896065,-18.880068830572135,40.82022966333746,-4.54519897967667,3.87811844718491,-3.6185192243703534,-2.9421680128567433,-3.629544697131812,-1.4957894421033435,0.7416216020316387,0.15739484756376482,-0.3104011578651496,-0.02651758339153304,-0.060311087203844295,-0.17985125857906206,0.032978073490660766,-0.011340552932486085,0.11603643095996172,0.17447749202072158,-0.11573143458658829,0.30448815326188045,-0.1701689059334249
-5.9444897393023455,1.7670824659598108,-1.6604963140948716,12.557162163804543,3.7547001758772103,1.3143492128169996,36.613938739041444,-22.6054898651656,-6.456150223603396,16.209708432161506,6.098980897627587,4.015243145501392,0.4617068010290248,-1.1214862056317954,-0.5553071914191576,-9.39589161835422,2.48191000132069,0.034522517461896635,37.95021083632267,-49.193911660733,-6.064301968141618,6.922282816085562,29.02260903893047,22.945158570900524,4.200723550500261,5.625869241811997,1.798611453323018,-8.388311094921097,0.8848644904328022,-2.0888198064597527,0.21900712435194855,-2.497553391031184,0.828196151144392,-1.6008672005589613,-0.07468028740264347,-0.5712085064009714,-0.05872571191752508,-0.08809442115429751,-0.08366222274776869,-0.13254171605207218,-0.03231635846747109,-0.019521141219036333
-0.5732431206251335,-6.238194166163874,0.4894883238759984,7.997689230319482,1.691980717597454,1.151760902949694,48.63536282792069,-13.13307340453926,9.697404893110852,5.758078489562834,-21.414203736828068,0.5329202763971981,1.2257125064292784,-2.2438263461606995,-0.361888024153686,-9.066550664899536,3.185350714629976,-0.33307764682594654,47.69050243825449,-72.0165290333803,4.058935904815924,-1.0198188965830466,16.40873461032672,-2.0151890544747193,-0.9478490892804899,-2.301913420100657,-1.1520093151257442,-10.876081180132742,2.505391301192034,-4.220584775457099,0.5622776550556553,-1.3584123779343882,-1.5533276570380647,-2.908055395432852,-0.9845611520014071,-1.1546977946233343,0.09138614388966418,-0.32133011649879933,-0.2252905643004942,-0.5754405463017535,-0.335517571564861,-0.21294037277782488
11.391122069284291,3.105375518619888,0.2761086327593944,7.258405014738244,3.3963942174417574,0.3918085534703421,54.72552581482297,5.439361742038612,20.037105440658884,7.774882286384688,-3.6032393636875795,-2.6934966328565095,2.5746324595051955,0.9280816910515699,1.2318326144283924,-8.462166733876828,3.21039069878654,-0.09744719513207072,60.45210305661755,-28.728437229193375,5.606185964674072,-17.69709174307058,22.981823841339736,-25.86790089208783,6.3153502127094905,2.4362304755013575,-2.445689476424561,-7.030991707982583,2.3816974124223007,-2.3005494319183546,0.4585022924332477,-0.41342102947321807,-0.5191775152921836,-1.5805395243997904,0.5780270423982007,-1.129076029952824,-0.028787370334618582,0.23454780428627,-0.2725352595469703,-0.24813635317244767,0.13006753976805346,-0.25887399721710286
11.694905995998674,5.91029020760364,-1.653444397686031,2.765102708177516,0.40543879786996995,0.9095528650513879,54.71194481665433,-11.388638307656468,6.691983582295136,-7.007298570284984,2.555983260822036,-0.5282300548383952,2.393379453363796,0.2338998917113873,0.8022173749730441,-7.09461989177781,3.0186961166989,0.008996104345185454,44.10576789398538,-19.78074941248056,14.155421347841433,1.031529912051906,-5.171750559635868,-7.047940672034235,4.759610303964844,-0.6530818803835127,-1.2591214798614097,-10.166353780740534,0.540718492706584,-1.9281013935139082,0.5643540178640928,-1.6509776118258073,0.1389381335089112,-2.319244494083751,0.4253069216105338,-1.3600548094792264,-0.1431174311965907,0.09400209738698587,-0.07800007738450035,-0.3757699318574103,0.21955111791782508,-0.2836577355220697
12.972235338154402,-1.5928988582448562,0.0015097325154952157,-3.6546189870627375,4.6641509060076904,-0.05980846027096501,65.37973542836627,-29.08397916596134,-2.7352949588544444,-14.820055405793761,6.419397363186906,-0.37739521997517056,2.359696322990647,-0.7218591467886768,0.496908795906517,-6.624462769206671,3.2927565855572403,0.11971134857009728,41.37257298607286,-44.952903344559786,3.597442279632613,9.721119074620153,-11.861463407932803,-0.3534098296407382,-3.938530009589353,2.784324505043844,2.3579799226309976,-9.180607126140623,5.150462794594872,-3.50895280110326,0.4079326195300071,-1.0158394811344058,0.1396169047698776,-2.4529466278118357,1.1815933347983016,-0.946264025450328,0.0828448369283439,-0.21537828728831615,0.06620260332047845,-0.40945119898218213,0.12807971176065827,-0.17598573852416635
8.927986890868262,-5.542911772319298,1.3126596361357987,-4.50405423350339,1.4295896175078942,-0.10242267676516233,49.800685751573226,-18.461239297782065,6.225145081840655,-9.935738753890295,-7.187055251496056,-4.630012783888015,2.0570592505107728,-1.3148300196581373,0.13681151992568574,-4.688044641791896,2.347484221937423,0.09042994568144125,35.54289081574571,-57.761756750561055,0.752082194349758,10.425198274810514,28.40978539323612,-20.64122551584039,4.627873365779758,1.9762612675427458,-1.0889320774297186,-7.110416240586792,4.199764227126568,-2.4317003453608717,1.232305660621696,-1.916881213195829,0.009266033056549342,-1.691239578232268,1.4251561346135941,-0.684250006800399,0.17629481713938128,-0.30677597671917023,-0.021601734042048796,-0.1198768384973572,0.23054810854221364,-0.07291948061948238
15.061933429384396,-6.658398613632764,0.954679738962806,-1.430047925549596,-0.949018385063882,0.3524288347794661,72.94427712875105,-18.279099966253906,11.010580157362503,3.007021559241377,-6.75421232257798,-1.5584881697674429,2.452578763794639,-1.6427600892062733,0.03113238543120223,-2.788087409392825,1.1751687856297792,0.0307908335303082,86.54634907708035,-34.945565164183535,19.08022162443599,3.547057726876668,10.608133815771804,-16.44820093351996,2.156702474957089,5.2172497086183,0.3969672993870139,-9.864531840695355,1.5558386913374396,-2.8471503709474817,0.5307208430846609,0.12464776561454807,0.9141814792624939,-2.3873907272110775,-0.07961465893058345,-1.6235716398782314,-0.05933104646097344,0.2771395899079246,0.1434345872246449,-0.4803293408760705,-0.024497337279695136,-0.4211643408558527
15.813715736517999,-9.665374219815627,1.697760553254906,-0.4060789055478198,-2.5295583223303613,0.8310744588669521,81.61626515756102,-38.40317963164097,8.158878747769807,3.558685409424265,-13.42210311658549,1.733477712469574,1.5354854237394036,-1.3929561206805063,0.1254132620923082,0.5906467193269944,-0.28196607753902225,0.059582617687167355,103.78329323569992,-61.81742345033777,29.066101208042454,-12.172456177970929,16.420219560627423,-28.575386589882264,6.390595549470268,-7.88290926722021,-3.539783274282189,-11.40618929417139,2.9440575978386803,-3.567254669564853,0.6465937589245111,-1.5135441786235764,-1.2413335140737305,-3.0688685447081836,0.21430428238156268,-1.7032198810587846,-0.021597324195791495,-0.12558866309481012,-0.2732496243564319,-0.3787129402667538,0.019576170113578418,-0.2824204071835021
7.906429210745956,-4.45616576821991,0.5921709050459542,-3.723656475849133,2.8785645764491834,-0.39305423983810456,47.946954266775926,-24.301697959768166,4.743394707163027,-7.303864289613417,7.291075733440888,-0.22498386154039052,0.9964482337347752,-0.7767321696960543,-0.013281443766345116,0.05379228100561014,0.15677527769822733,0.2551061621478847,42.57725721733453,-31.422694643926956,17.911394482812767,18.7158207900707,-7.956884259679113,-20.952935611625424,3.794434349657633,-6.884430368415649,-2.1387839950747702,-11.867192123794498,6.848035797079381,-3.779225916561776,2.4094781925908086,-4.337280131762255,-1.475323221780307,-3.019351153149353,1.4427377346934542,-1.2931144340385994,0.4149790643339944,-0.5456346377725537,-0.11387244678823677,-0.32891440669129285,0.15592024410543318,-0.23718930520175796
2.1994600541293927,-5.12950390732636,0.5852513301681302,-1.0795048783186894,0.7647945576095057,-0.090997642095511,36.804479351633454,-29.095081127574666,2.1432141163424787,3.9261566919758155,3.4623591782448324,1.8354302962190292,0.38319654033660855,-0.5709042864975843,-0.09580398731177522,0.07795498400626774,-0.015159217335789524,-0.09106418056598654,44.272034045413854,-40.95008222217875,15.54641912826658,18.646324558203627,-25.232677276035442,-10.08361531836073,-1.0701850138680036,6.124345335207806,0.8135288337891142,-10.644071967255552,5.9592250243064635,-3.374764822515009,0.13306017035410758,-0.14907381765244979,0.5238923248781363,-2.5852415040310093,0.5652013508336234,-1.1021461250666318,-0.1297578184861533,0.02459516888285164,0.10137832229796874,-0.5504746242436438,0.0112327040334654,-0.33538091275683124
1.8224914117900202,-6.033539824402256,0.8111276506909254,0.27156248714116865,-0.5204275710235271,0.25057696636811255,27.172207944795538,-27.616668773691778,1.7307929851416102,15.071394077103506,-9.31768421016881,2.393144359832405,0.3851401321354575,-0.7221626449915535,0.1846750438940846,0.6405074097105834,-0.239767480057009,-0.06935028063283655,50.62718461220866,-47.3041124147498,10.598653011444062,17.65958409569557,-21.59554150732116,-6.394352133596004,3.511588845065613,2.418569512759782,-0.01926849496985719,-6.436779266982995,2.7331361474609777,-1.0837506981197438,2.3236337673684564,-1.2718653731527556,0.4364764487079359,-1.0575809520376964,0.7813993221706327,-0.40076107343876033,0.24942134718450404,-0.09430894794146741,-0.03286048644626803,-0.13408655835069933,0.21481474053091487,-0.07750240664642694
0.033734326940792064,-2.367154793725501,0.4063581800428698,-3.7146820907957148,2.8026041538635798,-0.5781093339119737,10.218249501825968,-12.833895046611463,2.7480223445552747,-3.434728821056499,9.585005798382815,-0.11863997444421633,0.333130293502228,-0.5129449026272396,-0.0414317906334919,0.20926803044208137,0.04244625946637068,0.07913288015906898,6.635966045352805,-8.78314770074301,9.92406417622177,24.665902002771325,-34.92017321621658,-13.940538051183465,2.722196251896499,5.034512171121205,-0.21763669522220583,-9.185591841808336,4.291302010075116,-1.53608082520514,1.5826162953257619,-0.18057563403845286,0.33036345824273994,-1.3693195670863803,0.8893883035948308,-0.5241901314671328,0.16102176275513144,0.09811682420008287,-0.00401069547620255,-0.1375044590390646,0.14196032652347423,-0.09556295649359003
0.9348829386689066,4.367074495864647,-0.07732047532507488,-0.9011426901119918,3.0284111193771857,-0.6552232336264087,7.294530107175406,11.8340795024564,1.1924376051879901,1.232790734280078,7.534038705359485,0.7546837712777256,0.26849309971643837,0.0721501079742697,0.1847692373713703,-1.6127052235758381,0.16914247468205498,0.11088141901008003,9.429008682446359,18.610117017476526,1.4153298327758241,12.133346443791767,-46.71560327346361,0.7858311685350848,-3.314199339247031,3.030071874147888,0.7274130999564582,-8.469623583744427,4.920252175804583,-1.7568748583554783,0.7135096149272918,-2.3421497048789406,-0.5053075803684548,-1.8510298287804274,0.5090481497559847,-0.5335949919216438,0.2163233042034718,-0.3707542623395875,-0.05734129360668206,-0.46273905258608733,0.23867519602354315,-0.16230731864404918
4.651790431823914,-4.455920357170575,0.3232702330571645,7.237804200680409,0.8061653323148986,-0.8589141039743593,24.136608069886538,-23.398713793447254,0.6496558623619028,10.842956296753522,9.212938251443596,0.6378629548445364,0.40607022265479675,-0.362258423506459,0.12237853773374728,-1.9875762702601163,-0.07012292315891096,-0.042032659400024874,35.13144071543364,-15.166589356141449,10.25597422415667,32.30855364130128,-52.492344579955095,-0.4294229650382949,4.811122045269325,-1.864012928729306,-1.4004626263446758,-9.479688803655955,2.396860204344913,-1.45028351874186,3.3045094268184636,-3.478013470711584,-0.7381192355531504,-1.024779596758952,-1.357243687516149,-0.780163949595845,0.4726855190098086,-0.2723308856014598,-0.1873220974827607,-0.18247197033148235,-0.4028672984738134,-0.1509804925262813
-1.2491820535748408,-4.332305828254529,0.19645058571431243,10.161593689825825,-0.5946660369054366,-0.8503399030120016,5.075581381762715,-25.24718157879043,1.837555625547301,4.714646105399795,3.8771607160144623,-1.127437377112751,0.13610379678210446,-0.3624924200482599,-0.13423844876943003,-2.611700452986386,-0.17706867686307892,-0.00884407071585824,1.2752783133933485,-40.538663522034796,8.509460409315334,29.027717442201915,-48.23705558650303,-6.19234773061804,2.737545406795202,3.1408885764844587,-0.4688811907484286,-6.380698600803199,2.3904716601394234,-0.4509868633914924,2.841520786684215,-2.2335393519751623,-0.499833467206139,0.27823835197489255,-0.6766873385318715,-0.05368595621697384,0.31531830410999623,-0.3229692468884653,-0.24325666407284213,0.03980271251648421,-0.13344232456968833,-0.006266529011684732
-3.112069071344409,2.9722759852132445,-0.08210293216998796,18.721988612531668,-3.5503794886796904,-1.0885084731785424,-10.625245750430693,14.597353077413967,-0.1373545609995983,19.22244175270969,-3.881393085210514,-1.0911731932413284,0.1682247754949429,-0.08894954204887365,0.043373054055516704,-2.385911350752495,-0.13704612412069012,-0.23136165384851393,0.9270826376090122,2.837526493402575,-8.05885258216122,-0.8828905740134162,-49.73262120298437,-1.308161924307282,3.6893915178432546,-0.9683444866888818,-1.0746542665440622,-4.202037972856616,2.2684600989655204,-0.45060916305888254,2.3654966383848897,-3.013893834461671,-0.46234219074453137,-0.0922983944749125,-0.6878733376955731,0.043396121359213155,0.3306248200993451,-0.3485847784139811,-0.10912970588956503,-0.12543466092992708,-0.02545502997507185,0.0030187589929834197
3.0804808656923752,-1.6957027444655866,0.1303602793091155,27.170619097185376,-6.518977632751101,-1.6872390199171958,16.767876584576822,-4.87466654533522,1.2372515530312944,29.173546500321763,0.08969943361555731,-2.4760359245876336,0.555883995307081,-0.6439948101426116,-0.011994816307530989,-1.6697155784005666,0.6114875587884385,-0.30346063920877214,42.622418443508415,-12.417803658572241,1.4835576682586658,26.77630610920718,-49.95613970569708,-4.623089700902797,2.5047463386977227,1.4483918404064917,-0.775873390393416,-2.4221170698932504,1.5304530939486318,-0.014379690891708041,1.8285278928043434,-1.5688649906105447,-0.25347697672992475,0.7411531571415959,-0.577729265228996,0.16095602638350037,0.38755724307907696,-0.1431395698946215,-0.08021089377136235,0.13249498128186898,-0.13305884155598652,0.04418339777207156
4.080034533363618,-2.2939433010434547,0.2531494956681997,29.508436860767528,-6.6230311006807545,-1.2450996571708248,20.796187241660252,-14.146684879827255,0.6171080283648116,16.38110074938703,7.6612388130754425,1.8890272768303327,0.24820504565945378,-0.2323735681188314,0.15650108954469838,-0.8039475358150375,2.0844804019804357,0.1698557456245871,27.94259798654694,-18.717070704779974,14.313982006596467,25.39651281664609,-59.83571076627635,6.045883186954972,0.4859873931527658,0.08616937459849193,-0.15580350572610896,-8.81357997016709,-0.6632758951117919,0.4762700735895855,1.2716599301624434,-2.0156517127396327,-0.5248788571726436,-1.4494518110052033,-1.7204732907442986,-0.5801379950926556,0.19374567789650335,-0.29125478520571896,-0.13257248176025996,-0.3184306858729633,-0.2998646632542088,-0.1099573640541624
2.244321784329047,-1.64799190740816,-0.05352610968903186,32.243014030387336,-7.890688517799543,-1.3163864562581395,16.830305577895267,-8.608053496074373,0.8830799407733964,31.22817034227849,1.0491486510727233,0.49075158252421536,0.24654082812839936,-0.28463325044326115,-0.16353021017596575,-0.2972808975785062,4.007294856911887,0.5231703560777049,42.86763547395268,-16.476806674190236,7.043654013919577,2.4308608922012165,-50.23497489718987,10.808992665992774,0.22761541454505393,-0.5324953810713894,-0.012456420885171383,-5.427552673839224,5.688330313931269,-1.8684301441120228,1.0473788101934334,-1.9371962331073345,-0.39012653027843364,-1.1421766228351378,0.5945424637235247,-0.3407523945373597,0.19122486354391577,-0.12434851691385823,-0.043184752617351836,-0.29363997123270696,0.23037986362642682,-0.1391904644882915
-0.47908542937253706,-0.2046529425077089,-0.13769894363982016,33.6975669661471,-9.290039992357915,-1.525569857863944,5.315047979589932,-2.8282786814831287,0.4759861212714642,36.395030991549646,-10.230517480782758,-2.415475475781238,0.25688943522464275,-0.33208839594040296,-0.14451737065736564,0.32430794818954006,5.450029874765465,0.6330329153246733,36.08794905264219,-30.55723935463257,-6.767036592249108,-19.60671710730986,-14.05874365032828,-4.613723084329028,4.433891988057418,-0.9919058728634145,-1.3344707924177148,2.919826342842072,1.3998464962917299,0.058356385691255876,1.5906658788354677,-1.418599814286685,-0.05221008177765274,2.093407801719225,-0.000915673200634533,0.6923261029571242,0.19033036530870176,-0.22929056419676924,-0.04179045691759612,0.3661726932264113,0.013169841114271523,0.17089026933559268
-1.4192171288671465,-0.3810588759266366,0.022869247608976004,33.63919624419925,-9.173132513584862,-1.2705862750376336,-5.745337331226575,0.4790882092648362,-0.05534447718682025,41.45591050406301,-2.9841424481642758,1.6358462358116395,0.2042142950536754,-0.23216618530309446,0.054685497087155886,0.6435261849002964,6.517229955695364,1.1138152413767926,21.52193183420614,-9.357967083466942,-1.367856545778662,36.97350366002418,-74.89249700376222,-4.940062494064464,3.887987387033076,2.371062848304359,-1.1228436173354424,-4.0516065945855635,1.1681639128304928,-0.13842733098203477,1.392090277635579,-0.8945712774001542,0.10621870053713997,-0.3631080110352891,-1.4156989985232056,0.15104702484653687,0.07227451609770146,-0.173350520558101,-0.01789542731448834,-0.15070850360248497,-0.344251934842478,0.06930616434742821
2.3041575395825604,-1.019712053745415,0.359042413408879,35.29582714874983,-7.001644211908034,-1.6903387462680641,6.750385075136553,-7.408645937224538,1.8565792846904634,43.21498689531405,6.693968420604274,0.3417293574570535,0.4917445653426637,-0.32143768152730007,0.10573785427179255,1.8345211669046533,7.3523471420751,1.9155000471875667,37.12310435576228,-7.390490872806159,7.0583420099774,24.304230202401822,-35.71317052442879,12.946369270235422,-1.6361490733962356,0.4691481243167268,0.4544336177729937,-1.8583991302379714,-2.066007195544749,0.9633514788915354,0.2774252150101673,-1.5022510034771106,-0.38539202239951303,-0.021953273259995035,-1.5214412741422108,0.11696238963524291,0.08650239563970583,-0.12908745482981954,-0.04024183762623725,-0.048716268020773675,-0.26364827527696527,0.027850212717837313
-2.115788227127035,-0.4606004897196039,-0.2971417978865373,36.080958075695534,-7.861168237411677,-1.462052399894294,-12.427995320459212,1.8648473745171184,-2.21002700433303,51.755884216431085,-4.139346513631048,1.7157775496555314,0.11812586805613831,-0.3053772253079513,-0.07535615555795457,2.7643513152746033,7.551111739714543,1.8675741636093364,24.0729268374989,-9.435707261776482,-6.959605763855444,6.8731537124845055,-37.62346908562314,-4.643513119010245,1.0599545248907254,-0.25357243047288563,-0.10452352007644093,-1.1376188212028806,3.340140871182261,-1.1619147136943817,0.8726869314488653,-0.5099966012299953,-0.08745767909836336,0.10367173258647372,0.803361640530896,-0.16408241864692505,0.16976765687830836,0.11307764560006779,-0.0009355948805155522,-0.0071727563615591895,0.19905595690804598,-0.07303678957732102
-1.9218613568834966,-0.9758626564568762,-0.13299122475487443,32.03023695278259,-8.367560835130082,-1.0308326155703136,-6.83369387362319,-1.080137703353504,-0.0538050447185634,41.35521578521894,-4.473962707450506,0.8878761724679676,0.0886478447677237,-0.40752997346478437,-0.14229081644940667,3.4848450406638465,7.410829664646185,1.485403499598192,18.588801866559937,-15.737394289489991,-2.165382171783402,0.6684171495493239,-17.802663452793954,0.07065105925924486,0.7202639489644806,-0.27931779047334926,-0.1290837807650395,1.7921000106012273,-1.5518855301977363,0.19741806811889567,0.23097297033948247,-1.2595551562900373,-0.07671697680786356,1.1759960560484755,-1.3297964455208209,0.486515015848698,-0.04029454898688811,-0.21910702588152584,-0.0034335353762509,0.19379565095013906,-0.23678773474232823,0.13967432561435836
2.0317256673134367,-0.06058038126275768,0.3412293366278194,25.264113492455312,-4.307917167291192,-0.6878015605459364,4.648344614361557,-1.2084272761951338,1.3595186728449735,31.58801194762456,3.3173867805458808,-0.6338326485596153,0.47361793619928183,-0.2884310764040814,0.17760378395165888,3.842804372757566,7.478810921216699,1.4455111279017148,21.318652957520317,-4.744150649966018,-0.09997830681015603,-9.768490093341542,-23.512592185308552,9.399081482335003,-0.63087643475211,1.16816696701356,0.056868063798225975,-3.225139705774079,-0.9290744640859463,1.2822816275649496,-0.15672906615209586,-0.7875969939686889,-0.20415895632607434,-0.13353337137339025,-1.5114028091890144,0.25546742147675994,-0.12502178692492802,0.03887239359920514,0.013621406317716727,-0.09931942924217232,-0.17329473378884064,0.012510223142010979
3.204456000107407,-1.2457713677065518,0.24162938469565162,23.93146993915676,-4.009962967573344,-0.3001381226721093,9.438866478890592,-2.8758741430265338,0.6296287077983775,32.525139742223224,-5.246903493814256,0.432483522609272,0.5544095668478132,-0.399465386911326,0.14354801892692695,3.6926479200253444,7.139392739850421,1.4486909231072735,27.23496363955608,-14.45115983595066,-1.8198026097408055,-5.5111238871611326,-17.088078864571404,-1.6248815408980268,4.463188323250484,-3.8065181749195687,-1.4804393266477989,-0.01894646566568997,1.31184755814007,-0.8223887756654992,2.0390639872130656,-2.285038899969917,-0.3222021761988152,0.5606765367197188,-0.553343009380123,0.11347153304550267,0.5113038136970082,-0.2506693522913415,-0.07969494097651116,0.006966920364205706,-0.09685029292764863,0.010975797119862721
-2.111259788339487,0.6903234203642311,-0.369966287611801,23.083812451884096,-5.29506653470967,-0.017161029588516872,-8.170436472355071,2.8337608960161598,-2.8217393491548877,30.914321484599657,-7.684293386082471,1.9946984594020283,0.03960392513521349,-0.06358220785713241,-0.020822962276159696,2.5627756595942124,6.657798291688786,1.3131889795667935,7.47887406278697,-11.02094205734445,-6.4607123186688815,15.055327533615916,-30.577737792473588,-0.3358618834916604,-0.9370606460079082,4.901115788079455,0.5938868626106142,-1.5222450638313245,0.7197077570681606,-0.1775859938632896,0.032105409308413935,-0.3254310834698792,-0.00636928023061987,-0.6564771141269815,-0.346594399684385,0.2052314435504515,-0.07652020447725195,-0.023078179532255685,-0.004738762204094324,-0.20360467629647266,-0.09302229332194392,0.06865456571220357
-2.0164696375775195,-0.5463920554379266,-0.24860337641242186,18.53046597851779,-2.682279940663763,-0.21052419632460467,-9.238573691831071,-1.768604192399025,-1.6423224235320413,30.119786616040273,-7.001113728152061,-0.5199055941519801,0.18699989988986754,-0.25294494843622967,-0.08868946510122135,1.6524344228169783,5.573049478297751,1.2410652357084213,8.904423789228751,-16.142879139671507,-6.063306862129131,-9.198127502260482,-4.304125072362522,-0.8332888777164318,-3.973950478055806,0.20980657303540384,0.39311117179624055,-2.735104656524464,2.673753956151664,-0.8898086456578204,-1.0038917166204224,-1.8069243819013165,-0.911690493842028,0.021850228565649096,0.04147196142670115,-0.14871919919389406,-0.24796486488155522,-0.19036301943556516,-0.1193646238169712,0.05574493876783494,0.015636068268589,-0.052467139213374536
-1.050902182563536,0.24310585490965347,-0.26545984139061896,10.73133599160864,-0.359124088460438,-0.1196166515701342,-8.624961969717916,4.44678678507799,-1.6066120275346312,12.020153606260514,3.541320686554754,-1.0075115349084969,0.22034340597294153,-0.4284610183155299,-0.12738485932618637,0.5303755087835745,4.546536752237863,0.7942291379539753,-15.996906560370899,9.487275757957612,-7.414587998300178,0.7020854898514788,-11.689952109402332,-6.3935948192096275,4.0928148943229425,-4.1993691187964775,-0.9189814704576452,0.9357461384889936,-0.1463231566371256,-0.4930260062720636,1.853976162035956,-2.132442172770093,-0.04971340727475629,1.428354693592812,-1.1199622826590419,0.37901551434484604,0.3898923536429323,-0.3896016878765559,-0.11455556673301548,0.29880858788991715,-0.134293014908669,0.06407170010080994
-2.232562591067451,1.2019890287985056,-0.4166427787400199,7.963937002941162,1.3685255870816169,-0.3702796344754449,-8.186043854256388,1.5598967024395884,-2.345738575532047,16.410627248020834,5.228561670116098,-0.3921840802047778,0.17114040427367558,-0.24244247522724002,-0.11086725365004749,-0.367042822519749,3.7139764799379806,0.48994793822282495,-2.5424107790819264,1.164402884863696,-9.049846897337241,33.27316026805016,-48.87443587977358,-4.405445892593428,-1.5854657010389144,5.173453855053715,1.238534795232876,-2.973263901196729,-0.9995108841592901,1.0890285098359471,0.29412225407587267,-0.032907096977850735,0.19596463700692213,-0.6585270855628207,-1.2417224416542174,0.45386924373679083,0.11510381833229488,0.11451905070959792,0.10708687377000492,-0.20483024342349024,-0.21319254109891253,0.10517381637182889
-4.119286670116943,-1.6511865612221592,-0.3590230184541102,3.0744801207701116,-0.7799839610924698,0.08930261682505855,-9.95017128978313,-12.15550743937189,-1.6536689750203617,11.31801407827432,-4.0903551222799575,0.7858459636513161,0.2795907355848612,-0.4181910930970908,-0.05624839389970869,-1.020086292015785,2.538431444442675,0.1488649438505691,-0.20366488325383672,-22.41587478122333,-0.09692079718577652,4.736912797157121,-15.943654886652979,3.7040016974274934,-2.954674360808657,-0.542607801549245,-0.4490530774975246,-3.2714912690471856,2.687281248899964,-0.3970004196897646,-1.0456390507652986,-1.1614820038837201,-1.0350260036413508,-0.47248138757737806,-0.39791971026306616,0.1169834455498548,-0.2688888770029088,0.13942139299885992,-0.06456614824220848,-0.030773494678830948,-0.2738016804665933,0.14042198220878857
-6.8083675144908575,0.4241354471414052,-0.4371293780103003,-2.4729982836937467,-4.064036390318428,0.5239562132806067,-18.954091037585496,-9.686444026389527,-2.572474355548917,-3.6429446267543413,-14.189135096444263,0.5173787604177129,-0.1563454759315654,-0.25421037519544537,0.0012505414965103148,-1.54710876665159,1.5064680085248936,-0.24573486935875521,-30.656151532716326,-30.74947273599945,-0.9327809528779825,22.40379229189117,-12.544442517607074,2.03632346257061,-0.37887362059858953,1.008754698425176,0.5487368394398745,-3.0002424336313047,1.1167184010033468,0.7147999086735414,0.6466385446161933,-1.6975286533151306,0.2296566342581762,-0.19283730427684093,-0.5467177231603205,0.40188234352100716,0.1756068347528542,-0.26225436746765696,0.09684197302971863,-0.03189608041943688,-0.08244905354374465,0.11298391548072044
-3.849113466258322,0.9297965186498819,-0.45891726170644737,-3.5362128635730983,-2.9930859363044395,0.13348785258119178,-11.199077254063848,0.5963179851538867,-2.059715102661394,-8.494252016967119,-5.991621813674513,-1.2391949696331173,0.05638157109072979,-0.17145599957595717,-0.1337117368798104,-1.4276705333606494,0.8413611873052744,-0.358984463098314,-30.617620330960687,-5.041267338195143,-5.964119284087667,38.22690178241667,-22.55972239479932,-6.332368883498399,-0.16215411807839036,1.1543947503594612,0.4419555827623175,-4.842024501941285,1.7375657166232144,0.4364014983801402,0.9898607737807721,-1.7343054555957311,-0.061738261683340054,-0.5008742005025706,-0.8159255274622095,0.31244460564384563,0.31049184367907356,-0.1828862390184406,0.036395910974073326,-0.06794573735120632,0.035954478354576255,-0.031277512989417326
-10.65669481158068,5.428831897570581,-1.4876535392378576,-0.9743448734026848,1.1449847736389052,0.3834335958842282,-25.825803873756378,8.605065226637372,-4.438185957423446,-7.964929306385939,-2.102955004981286,2.3198918895996523,-0.84193660763922,0.21931566238126005,-0.7046116772695163,0.35142380179407845,-0.24932196586606792,0.04213290016637963,-40.25854713924151,3.8956069657658277,-5.546976241162927,35.78558505482759,-37.18872346202963,4.930175676019073,-2.992167257560099,0.655374649185289,0.12977032648959957,-2.322970508369967,-0.5998419075767075,1.1826973175224027,0.03792118669874824,-2.036124778844043,-1.0032610762510745,-0.2087759129395628,-0.9721126157442813,0.5511349122798551,-0.00899043873145366,-0.18132894454771883,-0.1958924727867855,-0.026342755989154514,-0.17966529925673957,0.16020172066732877
-8.536748638342912,5.061707487975799,-1.2824687468219766,0.7690738283361483,-0.18233399566023067,-0.14917437115709628,-14.803705608403565,4.481541261565276,-2.0740562837210472,8.990100032674714,-7.354096586917509,-0.4865353825329082,-0.5853876436855671,0.19317811235191737,-0.7191465477895919,0.2914360528269424,-0.422202495350592,-0.008776126089523967,-3.9516362185454055,-7.931883971751325,-8.086712936020325,23.74394383109729,-18.140694597240234,2.2089426449859566,0.5595629578499818,2.269104128542896,0.006231763720870226,-2.2860857625710698,1.6062726462262185,-0.10337155815072045,0.5174181672833392,-1.4669320049130805,-0.010458644281689196,0.040655559046325535,-0.14939714772869572,0.11327653767203004,0.09606745543483315,-0.0642001806710812,0.04722159247570547,0.08802850792377763,-0.05301938050278439,0.06280935859867137
-0.8321986729399408,2.1284332150446694,-0.27386603091899464,-1.8687371942648345,2.4630327011422013,-0.3296711173415464,2.713587537953593,-5.148759320246489,0.16936229121892976,4.2639860326041115,1.9513629256407858,-2.1516930438146185,0.1686135793208224,-0.15006457575305987,-0.10443725848501821,0.07058242644911025,-0.2589552366778364,-0.03878715177896652,6.319506185822808,-8.011187100750641,0.5427228308475593,24.189192939419577,-43.60466162636843,9.962114164649892,-0.19253835916761702,5.028374465336713,0.6849640370241004,-3.829947486105904,-0.5269100038621151,0.98861417955738,0.5666583736549647,-1.7011776302489896,0.22179644734982926,-0.6318599615618115,-1.411534039696575,0.3423655411593082,0.08175721290156157,-0.14084909097526363,0.05759860191220305,-0.03434824077454564,-0.09361600950569796,-0.008971847942741532
-5.8957656617567515,3.9709637317247064,-0.6638215594541789,-1.527809024606762,1.4921966456411968,0.21381538355018923,-22.36280215440807,8.581445451348763,-6.183996018118001,-9.980002741316271,4.527239510936321,0.4044126756639886,-0.17932394376057342,0.14640521458700717,-0.10435730049356513,0.2054801155678479,-0.19203341837143928,0.07033000295748029,-42.08691682423697,15.814304633930835,-7.649620724437631,41.11165482902482,-32.35204828442996,-0.13387097061509182,-0.8821720032714706,-0.19882161586453556,0.04058271806634386,-4.762074885237042,-0.4074694230514037,1.5093688899216755,0.5921561840454606,-2.9676099821651665,-0.563152720772004,-1.3111864101937372,-1.1560404907558672,0.39471456406093997,0.12145280709009298,-0.28359199805543395,-0.08975716457815831,-0.3199448021654893,-0.16412783401907058,0.07824639824841927
-4.358343405139215,5.280977787462674,-0.637933675726105,1.1911024437476647,-0.45970145954675035,-0.02034830041760047,-12.395791393133198,11.638968841564793,-2.7261063287764467,5.090277114320318,3.1483111817166796,0.4367250432012289,-0.22574015860744462,0.2906292297662208,-0.18826270670518264,0.3252457007632773,-0.4683953249069597,0.05543323120436143,-5.579383656822737,18.199096436103385,-6.176114787807254,24.29696388693793,-9.209258460224293,-1.2553685521502542,-1.265374140764825,5.730242617946133,0.8750547142073952,-4.845986751567697,1.6755154867340363,0.41615077448458676,0.36804876989824453,-0.499054858477363,0.21976759775084598,-0.9615462021380948,-0.19229179190718135,-0.08331248246557803,0.044861364529275125,0.07480291166021959,0.07120275088750712,-0.12161309286700182,-0.03758185668793954,0.009689693799184895
0.26052675245855716,3.707299847069324,0.19035346843385126,2.402842458349336,-0.05492635624280219,-0.005080059842212643,-6.268678129694135,2.711555521191961,0.4693453318969145,9.53501726872647,-8.07397445667282,0.38056741639568453,0.36781862527692316,-0.13663604140983765,0.4122985800138303,0.3053646660868702,-0.29298515989263696,0.1529929390418944,2.6002793070878023,-13.810657187579197,-1.7821149477986031,34.2023529756186,-3.394104590852086,-6.008917424522252,-0.6939774174955036,-0.32210480816436415,0.5960768308216617,-3.4588255173921207,-1.9231875143304367,1.8423826884795191,0.7893485162534944,-2.1960587522114765,0.1348777828125347,-0.5602067786689776,-1.272574712995916,0.3153125124907493,0.1862108468116897,-0.26688861937954533,0.05825835088115653,-0.08449674526813843,-0.07292171447759677,-0.010085401945557019
-7.33722689236258,4.629452025546385,-0.3135122396428974,-3.0938886392378757,-2.595169801866889,-0.36131756403634574,-24.48842559279909,11.168810058061048,-4.564694330442753,-1.7875762320566175,-10.709537282184433,-0.6691423797122703,-0.35209099338791666,-0.03440900108783189,-0.17785958713196728,-1.3104619250667526,0.40077538337731666,-0.6145621936628576,-36.07479695778658,1.298416682821887,-12.097340144577734,10.777587377058442,-32.85513239344625,11.429544956614713,1.8205954807737466,-2.597758453758791,-0.6399101803898594,-6.082245496971471,1.440433028523766,0.605111708449942,0.6733909552299768,-2.6476473456940632,-0.24761309053804434,-1.3451662924350338,-0.8817450336232346,0.13359998249316715,0.15047233469520455,-0.35261810741221006,-0.006352028966817612,-0.15178282820681877,-0.06495756572661272,0.050245963782974155
-1.1069085893873472,-0.8918362149790393,-0.1353753100702203,-7.496919790259385,-7.395768579867223,-0.2550300228581904,5.901341317805838,-13.990634395232266,0.32419353008503093,-16.486887146603415,-14.863715247081629,0.29422953801241114,-0.06162006801950595,-0.46893961358825914,-0.042728568342025534,-4.397470968027617,2.9622548405746674,-1.014331075648947,-16.347967258832817,-39.40695095395218,6.366029106482879,17.49200385842026,0.5071878449100256,0.049588630794117905,-2.06402822454994,1.5010621346309536,-0.49535242199261376,-5.1066118514454395,1.1259702533778035,0.4713871430407126,0.09076741186468404,-1.5789643710306591,-1.0268113474449807,-1.3747668253166836,-0.4416772628287304,-0.2087051216730678,0.011454750970055437,-0.16468834477082983,-0.16861763701440652,-0.18394935856636707,-0.02951958202868779,-0.01945262569185585
1.9238645269026435,-2.5774451040401507,0.7812145232843128,-0.5800560346415274,-8.080094918124285,-0.3458051476928875,-0.2419255195791955,-8.05673471788821,2.181858836306059,9.117829535957156,-24.469221172745108,-1.7836329235293313,0.4263845424582281,-0.5563930668676405,0.438517123318645,-7.5592236567105635,7.785657619971903,-0.12910685060132376,2.214378316525839,-35.97340325254516,-4.528549992369718,34.660283415268886,-38.6104786800909,-0.8149060407044948,0.04688615094581988,-2.53837493482921,0.12473330377985355,-2.9451165220919564,-0.6491552939644759,1.1369709378031638,0.7200900147274399,-3.145612424071996,-0.004026852817461624,-0.6173752239687282,-1.0911874767462362,0.2082469243550653,0.13324189946274292,-0.4229239986246787,0.09783975008068523,-0.13720326785866993,-0.13699597521000204,0.02436865803618763
1.2921554994730025,-4.210117131575027,1.1044045405362621,-0.5893244751881469,-8.186840394169508,0.3096543678946422,-1.8649926352237054,-13.104461709056636,1.7763299255383442,10.492811881298488,-29.397892459884986,-0.5839158488160491,0.4502372684035201,-0.770921418915206,0.49585807930534453,-11.672156696898032,14.948748832203748,0.6496292542615958,-9.405200941249138,-52.56153991894865,-4.86797439246642,21.64855762520705,-14.891988742692835,1.1472410762670822,3.9880473733355317,1.264420511368238,1.5979764045465588,-4.554741789051352,-1.1144446282103602,0.881321852714753,1.2076292345657589,-1.5785663230627511,2.233336356169377,-1.0420350348253817,-2.0820603656476186,0.2230448289241788,0.1880966071646161,-0.08749409278677242,0.42656307375553043,-0.1396204078230319,-0.4246641820642297,0.11038349060511281
0.5760670970461933,-0.04592739906422889,-0.3229612183712034,-2.0084143631226414,-3.379393012024545,0.9381318982151253,1.329225233986063,-5.419347037961409,-0.5808523413468686,9.802286993646957,-26.217535466566705,1.1631879092536659,0.06838255462994944,-0.622794266986712,0.04904024572660366,-16.075547774344077,23.506230314945103,1.3389371240151318,-9.265136484874795,-43.202862139126175,-5.113443268454833,26.050384677965106,-7.001304406701241,-9.791975210500993,-1.7522602452030702,-0.6875458464339093,-0.8103655897522722,-6.5649236185915,5.582278666631005,-1.5777029342838127,0.22812067174758782,-0.8063775542561641,-1.194623635873375,-1.6355752817933922,0.02919503629025887,-0.7079346897606413,0.025609535055270256,0.10400703706023069,-0.1420768628800049,-0.19981758085583534,0.08044978311752593,-0.11422415446066174
-0.08738825102100586,-0.43457689841061153,-0.03388104837483617,-0.8516678979551273,4.937551067051863,1.642967153179531,-2.8861968987182776,-4.135907955130477,0.3823035371908944,7.6589394394325145,-11.731949668820997,2.660956998446808,-0.004831381325407473,-0.6117761566021118,-0.02175717372522119,-20.2235404262658,32.70525597191119,2.3531283476287492,-22.31448773255386,-20.00610417899957,-2.004150176687773,28.785954064629728,-23.39570497491964,8.234042796331282,-0.48664513461552494,-0.7208521271659909,0.5090334277671716,-3.979388856447812,-3.1124153530467353,2.6037700323476898,0.4357101559757521,-2.167837022654692,0.2776060096862718,-1.071444528370106,-1.3983303095774933,0.13427706389349264,0.03841027434237984,-0.23563012859595148,0.07660875571696518,-0.2315260740620714,-0.1611601418781522,0.019747194302100667
0.7841166718757856,-2.8967281249488246,0.5424376277430161,0.8236665950043279,8.383533214223553,1.3842635340855785,1.274872846583647,-7.782751835625826,1.3053600875206777,15.274668345316627,-5.520151130941324,-0.2517322902945759,0.05164518897611768,-0.6826284668028061,0.13443073191458502,-23.59801235534183,42.08093039407451,3.081981848064471,-17.420122355977625,-22.0847490817995,-4.169637341415071,21.56854645901151,-8.97316356470025,-8.081255263542545,1.6629332739723668,-1.498661765616525,0.4301961221914791,-5.375578132042606,1.2356656070396357,0.6035812259510782,0.6086860400934953,-1.7336452311251234,0.6056401014317437,-0.9841969710532688,-0.8451493774912691,-0.2843314851338196,0.13108737545471277,-0.22049287237579376,0.12688279374223835,-0.10673249012147258,-0.06623469435262977,-0.04485048307926735
-1.2207699049146226,0.7719956077617159,-0.29991253242408356,1.24709492887925,14.534240922983791,1.2542183850419808,-8.520104074412776,-9.549177177132236,1.3571794740651282,11.426005943569617,6.471173303487483,-0.5409548871414598,-0.03246368315194532,-0.11843052815933992,-0.3208283694929566,-26.082861561538536,50.5614021877614,3.478916396972017,-43.95453066746816,-13.756701666958397,-0.1468056648831303,25.98602084551481,-1.6850740051430275,2.110130647430319,-0.01004941766938136,1.8965497901324087,-0.5599298293522242,-2.9187828355214127,-2.016252340829936,1.5004874836540456,0.7887971912883233,-2.2734530061223075,-0.6492203959534749,-0.4909232274114222,-2.332778250731677,0.6739564298667187,0.17079476124043297,-0.2299457150572361,-0.1962268451374945,-0.076346052307041,-0.2672599028383276,0.14639480357598297
1.6316671741331858,-0.2132435336617441,-0.12349488665205435,0.699964456348805,17.46586424198252,1.7968601022986608,3.307844276739524,-6.782635579229156,1.0126751797821603,4.6971460862000285,13.93407060184244,3.61788868685493,0.24129113346742048,-0.19726785087288207,0.2411839716795378,-28.04161068890716,57.40101552479062,3.881429666798331,-39.09617568579436,3.9517049523483867,3.108633754782468,21.919025036251174,-16.199163243996495,2.891153923617071,1.589490909044199,-0.1536043088314559,0.8312262826001102,-7.364633626092137,0.907422184061959,1.059294630698908,0.5304977324880273,-1.9659264738424305,0.9362416507510971,-1.6695487660229456,-1.3245773691765412,-0.47691814250837383,0.08647500258970114,-0.19826210798124558,0.1301706732352064,-0.21777030679383025,-0.15163989239511064,-0.02768225068606533
2.097348369547357,-2.5757155736892274,1.0207565849981894,-0.5584843311384725,21.306398205250563,1.485659072789385,3.688028811648443,-5.3758119249445055,1.9164398640833884,2.747012432065071,23.58717129513331,3.112559167460171,0.3220601367567916,-0.3881481976175168,0.7398508549468815,-29.527107457897436,60.785929257681374,3.9740123327706054,-40.3393853798573,16.16875112887333,2.9201001616848714,28.35896334674972,-5.8673677792353285,-11.653730272566973,0.7239879855196772,-1.140470334780749,0.9795071729295738,-8.182773012456032,2.9260770619958363,0.37051696007098583,0.19914055329093472,-1.6284056706804562,0.944528590092802,-1.6649859211160827,-1.005814529208184,-0.8213575849631585,-0.041829929444456196,-0.0718442901230956,0.14375711102181166,-0.16332835481770686,-0.11084219769154455,-0.07820294606153302
3.8877447609705698,-0.43483678304810974,0.4815573087127318,-5.663675923262199,22.701826746938632,1.0897574114550967,5.300617235996499,-6.396167810008868,4.542204073465686,-9.598978205961405,39.37275622288037,0.5129426850450879,0.6139513874449437,-0.08098962525785607,0.732524214809978,-30.955867933116004,61.73436569323694,3.9712444194118546,-61.343045800079906,32.206537641600136,7.919760782828796,35.80007599949702,-22.043789760864538,3.042417084360464,-0.7743958546460519,-0.28104281193434466,-0.3188683902694367,-4.920192848529462,-0.8111272616764995,1.1583641535372526,0.7929292601306717,-1.77951781889992,-0.5612903039856147,-1.0343693381886594,-1.7138842695720817,-0.3027764618419737,0.15535000292136283,-0.14748865122041246,-0.07074278906276427,-0.19349328134058327,-0.13790392149847835,-0.1196612798614955
6.418640813391219,-1.793633039306102,0.44198370303010054,-9.603901557920462,19.760927808253875,2.067284385674862,16.805549574496613,-11.793350564760535,6.684590709425976,-16.428198839293454,39.14707842220388,4.320281652415165,0.7024139968852087,-0.5086468742138869,0.8161770452139201,-31.725437468958493,60.86926559291057,4.617169499412697,-57.36464004257021,24.527162969432435,14.247105116873259,29.49560071099514,-17.3924006464394,1.9496255854988247,-0.9178021974595726,0.8495014915395194,-0.3211983991027027,-5.404752142266673,4.0854322089957815,-0.9937507779147886,0.8826835520947931,-2.0009012635959373,-0.5396945791581802,-1.0931080502701833,-0.38810077002466975,-0.6324175809106636,0.21705179795701446,-0.3609587888627297,0.07310548037491098,-0.18495191847800055,-0.09386227604283293,-0.08454961373611292
1.8716327875105083,-3.7992614334931716,0.6675473492038383,-14.619192513353145,16.757329934735978,2.783994324198281,-1.2381191009878019,-7.840722220710008,0.32169322904456527,-28.792754824036656,35.52543558094384,5.126012508094823,0.20102952865282425,-1.5151701015248924,0.43899937077343526,-32.865991732942476,58.25561353337618,5.006431903040785,-88.20581904717058,27.62265553401293,5.155736284979364,13.84104138897419,-10.531401106837016,-6.32171996620706,1.5593392083289521,-2.3785921063777336,0.16075179443123983,-5.607189932767115,4.274997488762299,-1.542022900020801,0.3127494630495903,-1.9987703332463373,0.23605431586251424,-1.2913834620703124,-0.15841896733700894,-1.017342323828268,0.015086711968098784,-0.15790048718913235,-0.07483513043073374,-0.11775778509993946,0.03750258868998831,-0.13112714426273686
3.716867563152568,-1.1889084544507238,0.35989385651596634,-21.40371863044148,12.33633120586271,3.6296710939060834,0.3551264702257821,-2.052646527035371,-0.2788088854111477,-48.806065603158316,40.41024713267206,3.189484764337492,0.30932437301807514,4.112504163501437,-0.6203655444327536,-34.04438403521507,55.173128975788536,5.695200981207516,-107.9727751837763,46.74117345429422,2.1699653746964285,29.328365532214608,-14.296213572384879,-1.5968296189711557,1.1897417243386934,0.1469265552618435,1.5301601319539948,-5.203514493837107,1.0300505122945847,0.337818342066716,0.06017262193379918,-1.4766249326549272,1.496950859577394,-1.1196361885961488,-0.6376274033021058,-0.7211905727361941,-0.06074460799919079,-0.06109161280168711,0.31303739173096273,-0.14822533370222216,0.05746345154621871,-0.14064553155508586
4.01629,7.02909,-1.31124,-21.24898,7.88437,4.48183,4.77603,4.1251,1.00704,-48.20446,32.7875,5.93108,0.38521,9.35807,-1.61698,-36.03847,51.85614,6.70542,-97.11425,36.36939,6.86464,30.70303,-14.69503,-9.29811,0.80943,-4.10458,-0.51449,-4.55978,3.36012,-0.84771,1.30695,-2.16299,-0.45859,-0.94699,-0.24896,-0.79332,0.32083,-0.31329,-0.02686,-0.242,0.02823,-0.25319
,,,,,,,,,,,,,,,,,,,,,,,,,,,,,,,,,,,,,,,,,
,,,,,,,,,,,,,,,,,,,,,,,,,,,,,,,,,,,,,,,,,
,,,,,,,,,,,,,,,,,,,,,,,,,,,,,,,,,,,,,,,,,
,,,,,,,,,,,,,,,,,,,,,,,,,,,,,,,,,,,,,,,,,
,,,,,,,,,,,,,,,,,,,,,,,,,,,,,,,,,,,,,,,,,
,,,,,,,,,,,,,,,,,,,,,,,,,,,,,,,,,,,,,,,,,
,,,,,,,,,,,,,,,,,,,,,,,,,,,,,,,,,,,,,,,,,
,,,,,,,,,,,,,,,,,,,,,,,,,,,,,,,,,,,,,,,,,
,,,,,,,,,,,,,,,,,,,,,,,,,,,,,,,,,,,,,,,,,
,,,,,,,,,,,,,,,,,,,,,,,,,,,,,,,,,,,,,,,,,
,,,,,,,,,,,,,,,,,,,,,,,,,,,,,,,,,,,,,,,,,
,,,,,,,,,,,,,,,,,,,,,,,,,,,,,,,,,,,,,,,,,
,,,,,,,,,,,,,,,,,,,,,,,,,,,,,,,,,,,,,,,,,
,,,,,,,,,,,,,,,,,,,,,,,,,,,,,,,,,,,,,,,,,
,,,,,,,,,,,,,,,,,,,,,,,,,,,,,,,,,,,,,,,,,
,,,,,,,,,,,,,,,,,,,,,,,,,,,,,,,,,,,,,,,,,
,,,,,,,,,,,,,,,,,,,,,,,,,,,,,,,,,,,,,,,,,
,,,,,,,,,,,,,,,,,,,,,,,,,,,,,,,,,,,,,,,,,
,,,,,,,,,,,,,,,,,,,,,,,,,,,,,,,,,,,,,,,,,
,,,,,,,,,,,,,,,,,,,,,,,,,,,,,,,,,,,,,,,,,
,,,,,,,,,,,,,,,,,,,,,,,,,,,,,,,,,,,,,,,,,
,,,,,,,,,,,,,,,,,,,,,,,,,,,,,,,,,,,,,,,,,
,,,,,,,,,,,,,,,,,,,,,,,,,,,,,,,,,,,,,,,,,
,,,,,,,,,,,,,,,,,,,,,,,,,,,,,,,,,,,,,,,,,
,,,,,,,,,,,,,,,,,,,,,,,,,,,,,,,,,,,,,,,,,
,,,,,,,,,,,,,,,,,,,,,,,,,,,,,,,,,,,,,,,,,
,,,,,,,,,,,,,,,,,,,,,,,,,,,,,,,,,,,,,,,,,
,,,,,,,,,,,,,,,,,,,,,,,,,,,,,,,,,,,,,,,,,
,,,,,,,,,,,,,,,,,,,,,,,,,,,,,,,,,,,,,,,,,
,,,,,,,,,,,,,,,,,,,,,,,,,,,,,,,,,,,,,,,,,
,,,,,,,,,,,,,,,,,,,,,,,,,,,,,,,,,,,,,,,,,
,,,,,,,,,,,,,,,,,,,,,,,,,,,,,,,,,,,,,,,,,
,,,,,,,,,,,,,,,,,,,,,,,,,,,,,,,,,,,,,,,,,
,,,,,,,,,,,,,,,,,,,,,,,,,,,,,,,,,,,,,,,,,
,,,,,,,,,,,,,,,,,,,,,,,,,,,,,,,,,,,,,,,,,
,,,,,,,,,,,,,,,,,,,,,,,,,,,,,,,,,,,,,,,,,
,,,,,,,,,,,,,,,,,,,,,,,,,,,,,,,,,,,,,,,,,
,,,,,,,,,,,,,,,,,,,,,,,,,,,,,,,,,,,,,,,,,
,,,,,,,,,,,,,,,,,,,,,,,,,,,,,,,,,,,,,,,,,
,,,,,,,,,,,,,,,,,,,,,,,,,,,,,,,,,,,,,,,,,
,,,,,,,,,,,,,,,,,,,,,,,,,,,,,,,,,,,,,,,,,
,,,,,,,,,,,,,,,,,,,,,,,,,,,,,,,,,,,,,,,,,
,,,,,,,,,,,,,,,,,,,,,,,,,,,,,,,,,,,,,,,,,
,,,,,,,,,,,,,,,,,,,,,,,,,,,,,,,,,,,,,,,,,
,,,,,,,,,,,,,,,,,,,,,,,,,,,,,,,,,,,,,,,,,
,,,,,,,,,,,,,,,,,,,,,,,,,,,,,,,,,,,,,,,,,
,,,,,,,,,,,,,,,,,,,,,,,,,,,,,,,,,,,,,,,,,
,,,,,,,,,,,,,,,,,,,,,,,,,,,,,,,,,,,,,,,,,
,,,,,,,,,,,,,,,,,,,,,,,,,,,,,,,,,,,,,,,,,
,,,,,,,,,,,,,,,,,,,,,,,,,,,,,,,,,,,,,,,,,
,,,,,,,,,,,,,,,,,,,,,,,,,,,,,,,,,,,,,,,,,
,,,,,,,,,,,,,,,,,,,,,,,,,,,,,,,,,,,,,,,,,
,,,,,,,,,,,,,,,,,,,,,,,,,,,,,,,,,,,,,,,,,
,,,,,,,,,,,,,,,,,,,,,,,,,,,,,,,,,,,,,,,,,
