PaulMeinheit/Bachelor_Muay_Thai/processed_Data/N2/roundhouse/scaled/JointMoments/scaled6.csv
R_KNEE_MOMENT,R_KNEE_MOMENT,R_KNEE_MOMENT,L_KNEE_MOMENT,L_KNEE_MOMENT,L_KNEE_MOMENT,R_HIP_MOMENT,R_HIP_MOMENT,R_HIP_MOMENT,L_HIP_MOMENT,L_HIP_MOMENT,L_HIP_MOMENT,R_ANKLE_MOMENT,R_ANKLE_MOMENT,R_ANKLE_MOMENT,L_ANKLE_MOMENT,L_ANKLE_MOMENT,L_ANKLE_MOMENT,WAIST_JOINT_MOMENT,WAIST_JOINT_MOMENT,WAIST_JOINT_MOMENT,NECK_MOMENT,NECK_MOMENT,NECK_MOMENT,L_SHOULDER_MOMENT,L_SHOULDER_MOMENT,L_SHOULDER_MOMENT,R_SHOULDER_MOMENT,R_SHOULDER_MOMENT,R_SHOULDER_MOMENT,L_ELBOW_MOMENT,L_ELBOW_MOMENT,L_ELBOW_MOMENT,R_ELBOW_MOMENT,R_ELBOW_MOMENT,R_ELBOW_MOMENT,L_WRIST_MOMENT,L_WRIST_MOMENT,L_WRIST_MOMENT,R_WRIST_MOMENT,R_WRIST_MOMENT,R_WRIST_MOMENT
X,Y,Z,X,Y,Z,X,Y,Z,X,Y,Z,X,Y,Z,X,Y,Z,X,Y,Z,X,Y,Z,X,Y,Z,X,Y,Z,X,Y,Z,X,Y,Z,X,Y,Z,X,Y,Z
5.114080000000001,7.527650000000002,-1.1446700000000003,-71.87030000000001,25.747400000000003,5.145590000000001,0.4415700000000001,-0.13043000000000007,0.24958000000000002,-92.65550000000002,40.51648,7.800840000000001,1.9204500000000002,18.64464,-3.1705100000000006,-64.63419,38.72174,6.470470000000001,-124.18692,41.94195,10.077710000000002,10.530570000000003,-3.09236,-6.589190000000002,2.3617300000000006,-3.14081,-1.2032700000000005,-5.632010000000001,3.6790100000000003,-1.2514200000000002,1.1594200000000001,-1.6680100000000004,-0.5805800000000001,-1.3571200000000003,-0.5344800000000001,-0.9600800000000002,0.08970000000000002,-0.09710000000000002,0.06329000000000001,-0.2567400000000001,-0.05255,-0.13470000000000001
2.699998236153955,6.808220588966267,-1.8931247387196466,-74.49144450392845,24.52033633337123,5.635171028358531,-0.605772866895404,5.412442077964074,-1.727035984796323,-103.63698892704747,44.726378171039,7.730084721173757,1.6841416143007233,18.70678244618098,-4.098508079729144,-62.07897782816789,37.68715904118627,6.810794348295812,-136.3908646664306,54.24860570532073,6.851872912555887,6.572366658395719,-13.445108479802522,-3.6178338018235072,1.4919291718559538,-0.7092583165510374,-0.7080642343294725,-2.7662307306687777,1.0075364211407487,-0.29026688980171,0.8797902234950942,-1.1403177138134044,-0.8825440418028868,-0.20863808612629045,-1.662326029375468,-0.03764466887630189,0.23753129396607509,-0.021425068703730118,-0.30829742732184656,-0.0818893507347135,-0.08258847380386151,-0.09395439955839677
3.715281508390299,7.426985095609781,-2.8535122706565725,-77.23942042021466,23.1746744878931,6.00677256070019,3.4912869164239897,2.2955889096044197,-2.0407222455612457,-113.55374068512552,54.740352346824736,9.319039656030267,0.9766726592548267,17.14337592218638,-4.463890741105405,-58.55921398908214,36.05742151094746,6.792592493841563,-134.57785712826725,63.0586279963882,11.038783997088894,5.66047264205232,-3.97183932827147,3.218759308313365,4.422356381360248,0.6126038545491449,2.094058058761181,-5.228298035745693,1.6678243107531563,-0.4412550964043663,-0.5631826573491034,-1.7704791564200413,1.65669506413078,-0.95817839938177,-1.503317700388217,-0.5794145148555186,-0.19065349203522497,-0.2245993157324168,0.389578254854768,-0.18808185019661772,-0.2821285724133176,-0.039252307313613635
-1.3317345535146161,8.38756338972599,-3.615170143259404,-80.07146491952456,24.247974337489236,6.564690635375043,-10.201061432050707,11.34710137848803,-4.05383360222836,-126.16720947301654,60.12899563815136,10.799406241195761,-0.26140320516709675,14.709713186525935,-4.816333903654826,-55.33780772715697,33.972864586381455,6.404778704306331,-165.53575495856748,77.70135382729653,5.705923477143707,-0.036405620616401776,-10.427917455211881,-1.855899339198611,2.384222846577237,-1.5541100585166925,-2.436393295252191,-1.6366374224578397,1.0011886295828958,-0.6128794655175671,1.4052095211113032,-0.5314033533032413,-1.7821202581433053,-0.17288658345430694,-1.6146593491416523,0.27099275984717336,0.23460028227734803,-0.031765043213566185,-0.3111411124531951,-0.0936573338976664,-0.06317363571022325,-0.03067165297145521
-2.4047925594045005,6.482389686997205,-4.058556152834272,-79.46873932464815,24.02842703480616,6.771091660276431,-5.346673911310234,10.67748525182322,-4.949158515860603,-142.70385265629685,73.31724440157163,12.066408174726972,-1.40762135441581,12.51044609869533,-5.105874919525538,-52.706768230298835,31.43702106411429,6.2215571639862866,-175.36638210511484,95.15761100251842,10.753056158337518,-11.334411541780645,-8.569181426171603,4.971704605973325,3.6875383359680236,-1.3432223179562626,0.7681056717209555,-2.0139089758045174,-0.8411847513422149,0.8977738109077622,-0.46258517727194065,-1.2502802223517533,0.9397485554375263,-0.14320003564719921,-1.4381164396445478,0.35209629925611785,-0.04623164258103297,0.02716858795326414,0.06008352916885647,-0.04885500796076461,-0.17655611625065254,0.09377024357904878
-5.519422898498083,7.05919440171651,-4.260311008529112,-80.07914230029817,23.680623656135122,5.618223744016582,-14.128819766197813,13.003667381689631,-3.270319656010235,-131.22911404790574,69.966511477377,9.352175449514428,-2.222741636628947,10.876723901668043,-5.312209047659863,-52.28773697706497,29.328661926479217,5.147765188020929,-166.22278864015112,89.4145279121367,5.533840749197415,-3.327740043219711,-25.06829922424797,6.221302433176548,3.232428646860267,1.3399513738592557,1.6621715218295547,-4.840985788093683,1.653865817668497,0.004068047439935436,0.5140405237778202,-1.9385386998057612,0.40366012667434187,-0.6127170879956776,-1.91412601116535,0.014251449648060306,0.10714717814384592,-0.22393560908418714,0.1612338755430844,-0.1190212348308692,-0.21593234758604124,0.03415923020622171
-7.828602047936741,6.379120801285866,-5.007027815611815,-82.13042726496926,21.137556413823017,4.152206017007143,-20.359601113331884,15.52809632722079,-7.771258343532533,-161.05620258238324,72.62125921934835,10.678004142205722,-2.84760254211618,10.14533523675679,-5.659751668102458,-53.76369976765721,27.78236834296474,3.2438259602986097,-214.74509685463192,103.96615010034668,3.762077619571976,14.039472499285566,-0.49104805384140393,3.206830877703633,1.1190345008980978,-1.4967932075006571,-1.5318632573772568,-1.7940876442646696,-1.265381054863646,0.9161502885397153,0.04064942808255685,0.040934878258394515,-0.7364955918270499,-0.21513778632109948,-0.8082340838494122,-0.10210104649737478,0.020303193294516474,0.16525263016517647,-0.2632986043649959,-0.06649077791706265,-0.10796634810618036,-0.05237775665154363
-6.2079774844280395,8.386642082972136,-5.567491339236423,-78.95209417588867,18.36698058726467,1.4590608386074857,-10.135240778645333,13.380971764204393,-6.911884933026315,-137.022551982043,57.80307072393189,6.191687612756,-3.4796145951583473,9.921709926743985,-5.825484842996974,-54.38053880193202,25.907448710582234,1.1001781250810418,-155.39206798089504,75.87763501099195,-1.4883191682422738,-14.61813996259134,-12.044801302169777,9.075582373106796,5.092220411019909,0.253865681180834,2.352009651746928,-0.3061768413629471,0.12881983320672388,0.4410291625188581,-0.9117061209226933,-1.9827242674140322,1.5488013803668652,0.435734557772249,-0.8305267279777573,0.6587205526308952,-0.1367221068136772,-0.08047571818564749,0.23435099860056582,0.08425977685120434,0.0740448954349004,0.03492987428273845
-10.131856587229871,7.5919433071159315,-5.650283299940208,-74.9834998420229,17.818446135430897,-0.2980809775046606,-23.431146016985164,12.06673743598338,-6.024519922262191,-137.6063439079759,62.43427821997568,4.185504518038607,-3.1316747648861103,9.091320925847723,-6.127309443945437,-53.176332148776645,23.3795262182772,-0.5134368167362754,-177.1612430309421,87.7159836827894,0.029573171203183146,-3.460872668528359,-11.300856262277616,8.36229633071971,2.9116697641321463,0.37380058764597435,0.46359668630942197,-0.5304593156397707,-1.5927418126752446,1.864308267255669,-0.31212271495396676,-0.8753629425419057,0.1674384421588069,0.46645077786808004,-1.7040385948637404,1.2522622053575023,-0.054547641598666506,-0.2034754363063562,0.028209353528555456,-0.013937196851579937,-0.32272125862348156,0.2788284872047753
-8.005267561072849,13.185544964621315,-6.903465984800627,-63.28537898927907,16.674687928336702,-1.6573637756268293,-15.878775873988143,27.292029276802943,-8.216162705241059,-98.94860488899373,45.81474222686232,1.0831672570717814,-3.546555921281568,8.81213030769993,-6.409227341270742,-49.40629544273277,21.226485883555448,-1.5418787236388414,-109.3979451646545,80.874389363687,-13.18758394930049,-10.249636014675541,-16.79534219655504,7.99917706149113,3.805924295942286,-0.9677286767361528,0.31484381707896636,-1.1193804925802526,-0.37422795984275126,0.20438323368625289,-0.10858864506748082,-1.2783803296231386,0.471875230272537,-0.10768108234067011,-1.8848940310594433,0.7696093188270555,-0.027688344838835068,0.04616969319317533,0.07242250065674563,-0.11455589429912338,-0.1504867317364125,0.07131210632259383
-9.790647807406751,15.763630634990232,-8.232265306414895,-55.19701314939449,18.612509119308775,-1.3381173885321356,-23.047699549072934,21.603490277172742,-10.266828669486499,-95.81342612179736,47.42505662177848,3.161502240530604,-3.9411594947885016,9.385580187888294,-7.16466067713001,-44.46597569102899,19.274656413696768,-1.8928060804945601,-124.24957929472453,77.63769624984687,-8.43168381925293,-4.485147307143264,-24.436848738757714,17.75300962411266,1.7413120930804427,1.7162906051746778,2.3950194208740623,3.1701809032120725,-5.26897196428483,4.188856830483413,-0.8365779901731043,-1.629766838554281,0.604003668228826,2.029183659629575,-1.5464580749385477,2.0341588813967473,-0.06240721849621689,-0.29666682937995226,0.020638167464886385,0.44489483296537397,0.08320109562585934,0.3649416666476145
-9.909393032206498,19.18240278651135,-8.773007733768448,-47.16484437584942,23.048551298533656,-0.6190989786244444,-21.393362825804058,25.50613446881122,-8.197764778388748,-78.65674875145874,53.75860866605088,4.565335993952806,-4.0734542543900645,10.66869029505564,-7.682329581864311,-41.22328802715266,19.877115501661436,-1.177964843240143,-84.50441348366483,87.10896433453452,-3.97350871654477,-19.0691852308856,-8.048872068171079,21.711745865209107,3.6618540120930394,1.1552156056486762,1.4039374533227014,2.0937353287739566,-4.007436388160973,3.065794742050197,-1.3578945243090315,0.1888151642894183,1.4539679059700161,1.215384888788113,-2.4726199945981846,2.0279056686134913,-0.3207170168047301,0.2588707295175885,0.16556769171172125,-0.09160493553682084,-0.5311414658359772,0.33697764831908583
-10.818433959311092,27.59327367514443,-11.300064538712162,-43.437496989677186,18.83263586828391,-1.9247872584771613,-23.046110696365538,40.45889264112679,-12.991250551316583,-72.91501094305352,36.60879775125461,-0.9084438719864065,-4.287446575573129,13.368728763729639,-9.074173243630561,-41.23156428834949,22.28804603784313,-1.6722317612872115,-86.04366011046046,87.47172840550117,-23.29754763611165,3.977471295985753,-26.393019732778026,4.6913549290646435,0.8212859541433628,2.9794510451636125,2.4004599278443584,3.510429412841616,-2.6210696250897447,1.1152747262220133,-1.6674379070125251,0.44597597104063047,1.2295151510954014,1.6590612158779796,-2.368241196295886,1.7540575772012776,-0.3927826866215468,0.23509809558107697,0.06454309230827154,0.20192461810971288,-0.16963418505519207,0.26575770060225273
-14.61235348606265,29.705023934060645,-12.486455791237912,-42.62165473809529,22.244155165846973,-1.3144598797520854,-27.76975464838596,26.26173940434251,-11.727873303643149,-87.40254774399082,50.07834255000805,2.6970352536132483,-4.894680581723632,16.679679637101742,-10.406174945259218,-44.38562080567325,27.84808754953604,-1.005506329077866,-107.29540809007446,80.80274805773806,-7.320065096060754,-19.809045926176633,-17.424377545796258,26.424067009807263,-4.212714101710375,5.587756244260335,5.010593877325427,9.976157583879587,-5.971461973065259,4.2713640189329976,-1.916888411400914,1.8041082852941381,1.9710591482360744,3.7979721981611765,-2.3292235837782824,3.4472617560338077,-0.2956456592487192,0.3805128969372809,0.1231605271590688,0.4010956259395488,-0.28884010579507197,0.608581223370147
-14.984777646436097,37.498261462285946,-14.484657222953835,-37.67510904412289,26.838310637546243,-0.8864992387888558,-29.12595352573982,48.45890791161282,-15.326562815170195,-74.86319748135406,53.31597138904356,1.112041152190048,-4.879874097792371,21.074440180624343,-11.888951896192186,-46.03262846296718,34.830434435723156,0.09671215656588592,-101.4062265808119,110.69088170376725,-22.23623734941108,-28.80699904378789,-44.702642783215325,28.3091377303671,-2.8671464887909135,7.5215707156949385,8.496500174555122,3.1283433271468692,3.624897820913338,-0.6328572249726377,-3.878478372419831,1.661033440283398,5.4703150090746995,2.326363621196693,0.11758685085623366,1.6653106977899303,-0.9793701160168777,0.13353010004266835,1.3934734753876696,0.23682511046940471,-0.06953300836781257,0.23984271656299413
-16.87535239370147,43.32067382549224,-16.007617603700112,-38.26890756027737,27.421524000536014,-0.33785715725643223,-32.722636294758885,47.03685154205533,-17.293021132379003,-103.92221111824658,48.22343339463084,-1.679256308553595,-4.79421054043245,27.30318475569895,-13.211698111669063,-44.09931338989282,41.54857431926231,0.37629432733373824,-134.30210968928645,101.7507406864391,-29.290010229583793,13.687933984248412,-28.507836363057862,13.857538477995622,-5.171800384789779,1.5904434457716998,0.8265664769348453,11.307867559711115,-3.1507031523477216,1.9805998793827355,-1.3097327940686334,1.4550996996942998,-0.39681280280176784,5.504507401449967,-4.265589798627653,3.6730161530565426,-0.24852828867839633,0.16934154659352224,0.03018570181609788,0.5672581973569667,-0.674498802601309,0.7093324286085008
-19.745988527694404,49.57124054274882,-17.000253798789906,-26.174143616511945,30.74332416884059,0.5363607895980935,-39.30613152235066,46.80516301638914,-13.885355802518497,-83.99405451188342,56.531408629023076,0.8083783459181052,-4.26245877487411,34.915130797189455,-14.86223680617847,-39.302061908456025,45.64891969643812,1.755176991669416,-115.79150255002786,105.96094279177505,-21.89979618933374,-32.28495350538103,-39.833438586764174,20.545755147007135,-6.584586517528086,12.53679026658238,7.080109420317972,11.04817029529921,-0.48289036374288624,2.276252612630475,-0.6883175478790174,1.0051661365574045,-0.050059132294611786,6.782635882008354,-3.6049133733935586,4.307247325640687,-0.04467801999978669,0.16280341927851807,-0.1392631672412552,0.747885199282379,-0.6465512993193319,0.7920479730993474
-18.48601868255759,54.41079090677793,-17.3699575224397,-10.184357131570875,30.554406704098795,1.4482555700284934,-32.07572687872712,47.95066636523457,-15.598512738999425,-77.1063699390467,59.879703120380796,5.069684219719886,-3.475428908231844,45.22679025373731,-16.12347901348179,-33.97687395492225,44.83885371634124,2.69176280637039,-105.83819986902061,123.58992700256609,-15.453173925286812,-25.77505018923221,-59.455430661938266,52.87914083807631,-15.73840350847896,18.3371334407893,14.273166850999798,3.9027654069518745,0.41472732704600357,1.645007950031309,-2.5165231724585717,2.7508660466148043,3.461008307435749,4.0071522394137,-1.9614167858450824,2.3816905678258413,-0.3251552796705971,0.378151830689989,0.8796568755209679,0.3009229419302193,-0.370083616598479,0.21196302117570537
-19.881423695187983,60.0732642777751,-16.901379336266594,0.6156902502930404,26.753736339043883,1.5481720094707645,-43.27792365636774,42.4422731261734,-11.53215605246206,-53.260283341963635,49.46276679294243,5.471002775948665,-3.256996224859542,57.51868992069431,-17.413850190989468,-29.32847011797821,41.06470023270191,2.9138149675398055,-92.77258182049185,92.85727869089382,-12.831391058631858,29.67513330288551,-24.336426336228328,18.715042986190305,-7.592048960073604,-1.6795738585056061,1.905099807235684,13.027402246107084,3.75324455370621,2.8698961737636317,2.971787330727721,-3.79531175796513,-3.238012907008071,4.628923118835686,-0.24823737909205004,3.7310315671478294,0.8422219610226601,-0.597495447709647,-0.5659674499767086,0.39054207951136355,0.0025412591345455007,0.3662201454367151
-20.826357795719243,58.428828823388834,-14.814326696259497,13.957360777991552,20.467309737359237,-0.40802994978532603,-29.74037500932758,48.05502220790328,-10.679038027610275,-35.957271654942865,53.26622386557268,4.560905678929322,-3.9832091089875785,68.11918445359785,-18.82056445134161,-23.888615119448243,35.245664075849746,2.137730898493699,-42.726656533261576,119.2392248088766,-11.451952096403398,6.382867244418757,-24.38830736137219,16.80123479906284,-9.297879909550868,7.2321512398787515,2.979684792551109,-8.00115833416048,3.979444981467903,-2.145596877067972,0.5424477110587186,-3.1444020599987965,-2.191815205579214,0.1361583929633057,-0.5056300924067342,-0.2248041108369257,0.09121287073144146,-0.4137421347876507,-0.3056467306545584,-0.051670882652433435,-0.17836787619019032,-0.18228167025893005
-15.984613380721594,51.16984043551446,-11.323193073963429,18.2629769292547,14.453006174187236,-1.120045878394713,-33.495126070777474,32.36639173379195,-5.659822931793662,-32.630733146082775,44.48458084549841,2.1514477902286986,-6.557720110726144,74.37536759239946,-18.815963625232467,-19.354800024768227,29.58364692688607,1.440503885317605,-60.56872506994219,94.3937212669039,-9.737243616820574,38.22626861712371,-18.42193167881931,-1.7791188093524404,14.222885116962365,-10.927858946267017,-7.6288550054089335,-0.014561031120040417,-0.790952255455402,1.6808448603680883,7.040017218177084,-5.534745533408951,-4.069211270213668,2.538806362879776,-0.36903068951873386,1.8989254545523462,1.0492825393981517,-0.7031504669467122,-0.6964031633554927,0.07770783825188779,0.03081080059449904,0.2657320604432301
-12.839636227414022,29.13120240603125,-3.422734488599174,17.15025535910637,12.390020615567224,-1.0095690019798829,-16.495642141758875,-6.2181993143820415,6.703780158382782,-24.39703091772467,46.20630942948989,8.372719050484323,-10.143984966629699,67.86165168410471,-16.07587532864761,-15.41738056557052,24.641194173300352,1.0893334715927407,-34.845982341124504,53.80553689427801,21.4845030388084,22.25827161726557,2.427113162882176,-12.93467430312864,3.8799143973494883,0.7708240963221422,-1.2030940733149134,-10.79925807443123,0.206757411758336,-6.250727981087164,3.687057262768375,-1.4561867142794414,-1.5642250367066668,-1.9489307140078194,-0.183414193210289,-3.554614932778842,0.37175478153076374,-0.3254743001747974,-0.2989582042944798,-0.32508836918298717,0.004232441536477938,-0.9174997304159771
-8.042381046859049,4.257612978769598,4.838960419215527,16.712134316987832,10.31520451172663,-1.4580859361237954,0.912455870817152,-23.08462816600641,14.209936746483162,-3.350815841137257,35.65656417696154,5.901019347959532,-13.400904852258174,43.521647962208654,-8.996969445674159,-12.633407370655187,20.280825071836084,0.4983120329923255,7.125370103631282,24.380617530025113,26.939794101899075,40.276967547016156,16.67486199495711,-21.190676771920756,14.625099999428304,-11.487199433775158,-4.808130911239897,-10.26029749374294,-0.1340208066812524,-4.475941458179525,8.098407148090601,-3.2225410176863267,-3.502346193199807,-2.678308537992288,-0.06074826825170262,-1.5535992237994605,1.3053612509090307,-0.20014346638089042,-0.6157381238240355,-0.5754642779234327,0.09858719704003159,-0.2934130407578067
-2.2474364156339988,2.970770984505982,2.121495301199966,19.569177155811534,9.99159588350581,-1.6695345927139675,23.33612933818541,-14.261243812428079,15.580702668932652,16.350282081302204,27.830868696152812,6.306126302240354,-10.691156292930742,17.29707451207,-2.1518461722228794,-9.384493211271408,16.172373867870224,0.17515789999939735,40.53795929470234,4.471852409229664,35.63433511768887,29.051958304965833,48.53592743198714,-40.488648378623466,16.215328182306592,5.70952863064504,-7.266502690970053,-17.483515120142428,-3.009592490868213,-12.799786373193925,6.856178507608087,2.0052262600092297,-2.0853034369860084,-4.618638483385271,-0.6141075491083874,-6.695479153436081,0.900303867418427,0.24302457124951626,-0.3365637325154763,-0.730690179554208,0.09787378823510638,-1.8022976666118051
-1.6210631187033644,7.162458118242463,-4.506509797471691,9.03021454288286,7.808712463129364,-1.147852951060728,33.92264387599345,10.849902964117986,9.630769792635515,-23.50992057167609,21.52048976579868,-1.3194015690428391,-4.7342959484161025,3.501739975295963,0.16091948034846462,-7.665279101865852,12.679696831496031,-0.48893885006998505,-7.2913434324422175,16.255660828537152,18.534661963553443,54.95201794166275,34.29870940433793,-55.4198841132001,25.957713087879654,-0.27169267248197015,-11.637549359128558,-16.55326523649586,-5.943206228742547,-13.673732538886032,8.726527179122787,-0.03796632808898054,-4.2113899037445295,-2.8043106889560128,-0.8589462844863005,-4.972113529130886,1.1011050609377606,0.006109268793829087,-0.6012440969401195,-0.27752816357057597,0.13469363840759094,-0.18392731949457009
-1.2486071677081103,-4.379069913730573,2.8069268537147885,2.043648409201653,4.1358489238758835,-1.1979838047744504,28.069429092761098,-55.551990650989985,27.42005347629187,-18.85115088150055,-6.209679040728029,-8.94157101361894,-0.48722830234616094,-2.3443591077803903,0.3643686955217865,-6.07658460149166,8.697150578225623,-1.26359052340609,-11.368262313153718,-93.38519642539163,27.340908055128683,43.432491811111944,52.97873672811908,-50.20762495921877,20.37539761769775,0.6485779708362794,-10.593796038699145,-18.19482768334336,-2.051474402730336,-13.584150024488098,7.697696233422284,0.3571946463504557,-4.429002226372809,-2.79387512772021,-0.7073474326296323,-4.639707462302552,0.966939676189452,0.11488566933735778,-0.5871158113811596,-0.25301801939749347,-0.14819910494356722,-1.4938678704028026
16.428878400827124,-6.610488782221182,-1.128605433776074,1.238226859181113,1.9635006043145717,-0.34407004244865685,73.45550543230476,-10.900101262959517,50.316983122919076,-10.232598347432509,-8.669650049891388,-0.36868347637766047,2.868244381457857,-1.5847068541203153,1.0634945870285806,-4.398297241652001,5.253892409404539,-1.153036651902436,69.76069008798811,-34.630833788088594,76.23035578760067,26.881465463450333,60.59844749344721,-59.05698683661373,23.055731979759397,2.761079009134813,-12.629827141015603,-28.137739748073734,0.18125876108148403,-16.288046327858233,9.330957855044531,0.7672609952181336,-5.360370731123901,-6.569723926279749,1.2320439992692074,-3.160327759550051,1.331777045290558,-0.017634512752863485,-0.766402242036491,-0.8791374066031188,0.42646384915208807,-0.42896438954434235
6.325532605244617,1.1292302383084618,-7.670758145464219,-4.103913115634553,6.009723282396054,-2.0987634158929227,33.313708520046255,-19.107181812735597,12.621940160595273,-1.051722932581859,13.134599474100135,-0.7650808320888187,2.6668501516397565,-1.2308501443358848,0.8522113113345656,-3.777032493140138,2.912586146176519,-1.499040746958701,39.97522488489875,-31.805164599882303,10.690499085130694,0.33441007210495627,70.60150514963338,-59.053962926091664,14.317036844874417,6.938264116171094,-9.104936178343252,-17.09361039024017,-4.610799481777542,-14.809325032088342,7.1889827223217,0.9681400148120111,-3.956921523274536,-3.3724825672801675,-1.762866675344933,-5.265090613232549,0.8008308178042601,-0.061580788358366674,-0.4565367747020314,-0.3188721514712845,-0.4281352437041898,-0.9895595592525089
8.554749951955133,1.9098425400080008,-6.717486132090795,-0.8314068248911739,-1.9499559945346423,-1.1895455961785801,48.71947137969949,-24.25956424513529,36.04046370926454,14.292602411737,-13.745672387153304,-6.539273155894344,1.8192607136745802,0.006308410461876579,0.19457538157620247,-1.6811404322001178,0.9796017580559795,-1.1860781892241767,71.05113376398866,-65.00273562275403,29.438013160726193,24.668784511902125,53.41402847937634,-33.022157943725226,13.890805272471425,2.759305119473795,-9.98703154803043,-13.987705542943166,4.381346976244075,-8.624476720136323,5.735024265868384,0.1553391584711971,-4.646807221437065,-2.4690233572081484,1.774714745325147,-1.273306232263207,0.5725202407702692,-0.08825018964259347,-0.6772844140436437,-0.4112059560941517,0.2412966611209882,-0.36613832778396527
8.731012195590225,9.601683580631489,-16.261861658555762,-0.644715351726827,-6.479069765214541,1.7974605740697813,28.251325089361277,-3.4269945806376207,14.233816371638964,5.95497904821904,-27.907952029094243,2.2501026416463867,1.6660262914200172,1.209133880389916,-0.4804429242122121,0.19909870629517643,-0.2999009685331667,0.2055666355150723,39.84811333042571,-48.358846633803445,2.938515374238688,-3.5552818502001893,32.11224401862545,-34.8416879473187,10.939067581314402,-3.6803450925310126,-12.008320121363496,-11.426045737618297,-0.3943044186993143,-8.537255001139295,3.291097659191682,-2.5496418838186305,-6.012202222811332,-0.9254647414063512,-0.45408021794485354,-0.7729046165674962,-0.025123428797294494,-0.5982181944860366,-0.7279170331278032,0.017725891127188514,-0.17773457515255056,0.06287528634643719
11.912225822628505,6.222044747631395,2.1721423430586406,-0.42466749101810997,-5.399664431085162,0.24452146287667345,7.604562138367245,3.999589436158255,30.361192488165628,27.12367094216118,-19.34347996362869,-0.9178785336280403,1.5196102500557362,0.4221363525422887,2.030026779798549,0.043725477606142,-0.6702417045317285,-0.5761219069014178,46.858452597272965,-15.542810494673011,15.637851504078357,3.9206364958764195,82.87256895913511,13.559442872504468,-6.691001787364672,1.006107147807797,6.796339384368571,-9.015815376021473,16.1316964976155,-9.664176631958988,2.7072927552643606,-0.540247015179269,-2.892018142018689,-2.337791696398114,5.867085431172245,-2.7890051430663485,0.41769743655166575,-0.043324406598463414,-0.2552631596150592,-0.34971688090873815,0.7499082214684509,-0.6301986335051358
8.86683427138905,15.759873453282976,-0.39561286675047713,3.8865439614214616,5.360275853262088,-1.1175582144259208,24.22387774354009,-0.48170202219256925,46.19229349581021,29.194190714660074,25.211739949736305,0.8444500965528342,0.9767240143480932,0.4229212951880471,0.033906532706681064,0.766528028031438,0.24509590863144007,0.2148733134392091,73.59805176616865,39.95725998825504,43.56443501162359,-70.43463303557213,-19.104502932679253,-41.22609472679596,0.7619322604371372,-13.105377732664358,-24.7648560687736,1.2614468915247772,-8.533698814234489,7.508078178254522,-4.458023323744256,-2.092653014496133,-11.202970333131745,1.3590047082145922,-3.71294659466844,3.2919502766594393,-1.1050080726000455,-0.4448838169660993,-1.89225597515082,-0.07791683225420508,-0.5007400094128176,0.5196718743552214
2.475491513580412,3.8691195832395655,4.692168670743106,2.8857139950677064,2.930587967244279,-1.0732670948437186,16.297989067565798,-23.41124425845824,45.66661718400797,25.1688653108464,12.864362406104009,-0.7486845306117654,0.9975374676137075,-0.9371183802610991,0.8300991115297498,0.38379059087021794,0.05955911631934651,-0.1515059859966078,56.31628560500707,-5.630165819704966,45.6434947321211,7.840833757768177,55.34475046173825,46.52104374286818,-5.779562217109652,3.98164561118182,18.646282510050035,3.0784378622235646,-0.3115262083192289,1.141917668125799,-0.8194708935222252,1.2689432551212319,6.940444734882982,1.590756670588551,0.6818650700951673,0.20421745662325233,-0.22543587209739008,0.5505162686801913,1.904306724570825,0.08289364775210507,0.07254327535718459,-0.13798025092080674
-29.91606940812449,-8.923931364489148,-69.93284250203912,-3.607064629749495,8.614063326198977,-2.3296691465330825,77.80183831167096,-32.57412629699007,-95.49571407247964,-28.62488401865996,26.71090723657857,-0.7473025944381904,-4.679346170679795,-1.1211767598741795,-6.365690086006983,0.5741197189978484,0.6268569238794465,0.13461882021231425,41.18467616423251,0.7411384289100106,-160.79377434914306,-83.08409677126399,59.96640166816885,7.970329758051927,-7.496385041037325,-6.295132807984039,-8.839393635477448,4.003464553591662,-5.61209396443761,6.52884550839921,-2.9024346399843197,-0.062436384393415145,-7.693209404904851,1.7132537407183233,-1.3770139083986481,1.7752016011382707,-0.6862185549621526,-0.14551021901765823,-1.3315254311716007,0.16615453528090418,-0.18593846459612828,0.16155148055805135
-65.02029098329116,41.7439323534977,-71.25001789418981,-6.23488368026797,1.2637036201324985,-0.32812400816086973,-146.33827178562188,115.6533595785946,-141.37176332103218,-35.01849902892727,9.528710095224012,2.994800258816069,-6.418576600535532,3.849184447274809,-8.776171308597734,0.07329975724699599,-0.1934367658601468,-0.10495501698259374,-198.52352892794698,167.8298454972731,-142.72570799026965,-10.444269974580086,1.248851770051497,30.023390781712518,-7.350958933405408,-0.6913904576718183,9.225624330524733,0.4144566799441162,-9.82571736789879,10.562701396972278,-1.6618573449010166,1.4578680515294629,0.8551185271400303,2.0327134712231936,-3.1869286256206553,6.0637607037303,-0.033204511439094093,0.18950877015932913,0.21639305427839753,0.2551097318310983,-0.4349330993016271,1.2359877949984437
-61.07184295250805,42.339108864863626,-62.50981644412848,-2.3594794146251794,-1.4544936055417097,0.43594529183504555,-77.03325747973324,107.30398094305752,-157.14473878368207,-15.397082507266461,5.659405935037339,-0.11197651405619455,-5.68582146686837,4.661587993654118,-5.946170946530317,-0.5667981388414437,0.6154623446009073,0.023198902017769543,-108.40367947888225,146.1633304331047,-194.19154790503978,-62.12133778349574,-6.797305918236765,50.129166334056045,-6.787087017736913,-1.1415463346131192,-1.958799834272181,14.732933964742774,-5.957003801743849,15.994714417816287,-2.384459003746203,1.162883551379003,-6.006109694877015,3.5677470082554623,-1.6675752183081956,2.525909795036213,-0.40396939793093484,0.2805356584447655,-0.1801750056633661,0.1658391018042138,-0.1510958430094061,0.07174026725744492
-42.228626279843496,21.927690528335894,-14.131094511936334,4.9999550327249445,1.3158167901938536,0.10258974856685153,-90.07070059619053,3.8355982541896543,15.84698936038718,2.7671090012701547,-2.297754006705797,1.5192174001564105,-4.557601225822571,2.689061649887486,-2.9060202309366954,0.26572207560188554,0.46323253723600355,-0.12051242662670843,-78.91532470752244,4.512959612955011,37.78661324283344,44.69052014716248,-15.913337280266859,65.7938043983174,2.073291397186073,3.1039798798419502,16.475819888544866,8.859688752503258,-12.06506546001485,20.37275428933091,1.4632846772215795,-1.6562229376914828,2.1084956305323153,3.6911344258711227,-3.332982962050983,7.329758201264097,-0.052249519596267245,0.01697995970296599,-0.05086963703885373,0.4457392564083308,-0.12431252318370788,1.018113490757053
-10.532921037446613,5.28200385648168,-12.938872480997556,8.922098378090066,5.023931223509294,-1.7947206832873057,-34.685828687498045,54.79499547681534,-57.56400922063012,10.571782308079456,-5.029054562140088,-5.765599822061865,-2.765017260181294,0.5327301773275285,-1.8128962977193706,0.7447602479787727,0.22123780503043344,-0.46429437792018013,-16.410743145213676,36.083146806981354,-72.8539443849966,-17.36573382057601,15.677382692291015,22.260174088096196,-2.617877933850778,4.100856616256351,11.46126478398588,9.844643906753252,-9.328323318991481,13.766533736103952,-1.1014596579619382,0.6178350694741148,0.7061613256227458,4.498512185504664,-3.272114760706493,6.029806492927924,-0.24268939200344286,-0.27948323426403027,-0.31805493389955686,0.8797593147399676,-0.3395887269222703,1.2008151847414945
-1.1367938096709311,2.871013324560703,5.468036221734259,10.323207830628668,1.3499335968893218,-0.5510534981906241,-17.236076021542033,48.55957526524184,-48.55106079018747,-0.6030308786465485,0.5379735317504588,-2.4268481243707947,-1.7965968901311016,1.6311414948084542,1.0306775029739457,1.5272903396455713,-0.6765842662882294,-0.3783002359798806,-26.039466431038374,50.44159712626482,-69.14764161627603,5.515191283794705,-32.1902412554649,7.7058094641809864,-1.3750742409571883,4.6126437989752835,1.6783892822704505,9.938988949140569,-5.4874271852989525,1.322771449507921,0.022010108538651898,3.1237600708088973,-2.2365979878344744,4.946502445394009,-2.184537887376995,2.2563198182963844,0.11968322022524185,1.08648943034416,0.3051783778490383,0.9315514728633312,-0.2740196480142278,0.1553456534928542
21.265763098265182,-13.102413923303983,6.043463442599448,15.12232407782621,1.2446898711641898,0.1643715497418463,22.00576007834775,-39.74835715286532,39.05017554209498,17.978857974513094,-2.6701870956560336,-0.23951289877351736,5.4152016939088945,-4.486493562280633,0.9673080808299721,1.9480314301285018,-1.0648686294065395,-0.15308375494354648,44.59284714140949,-42.58491166989664,52.64363801406534,2.611508158711186,-9.09678875371221,53.69124633931889,4.875318868910832,10.303354994951393,21.515409319646363,-0.6302401074034496,-6.430367529142822,26.317455954770896,0.14966991503585556,-1.4350247691552986,7.397170259311186,0.47214510257102804,-2.040161446849217,5.15186681219066,0.032502689174295066,0.294527878939036,1.1272608293066804,-0.12926082950209644,-0.09014661279724781,0.8767731183479893
-31.129828163091442,16.071802260470797,-7.123596487913208,14.085857082229445,2.5765142612899834,0.05479271986923677,-65.32922499302295,33.2620557425394,-19.581720420306986,10.017410218364493,2.5037221248022488,-0.5578680924207324,-4.408996419717227,2.91398657262681,-0.1352532409246684,2.2049747033950386,-1.0073082497705548,0.26182289369129624,-63.29413378982166,49.273216099686465,-33.643346482128365,8.838876131882698,12.2088521167852,17.724593753534542,6.934342800327491,4.8934548538154905,1.893499874813397,-4.091549114270185,-8.466404517082033,9.108169203049936,0.28819503257903456,-0.9676535048878587,1.7538838931256713,-0.016030449829558757,-3.266135527775783,4.339966454612997,-0.11972091742337598,0.17593394113287733,-0.11786023463775445,0.1984099156885337,-0.4031413343354473,0.5998353019000833
-12.926936517724204,0.8777884526493699,-10.591418805876499,18.487338966823376,5.189801586770431,0.6078135278406201,23.33436690674564,-12.440189078520813,-12.648838972369926,27.352774891355185,17.50605254989855,5.43361676940488,-0.1083285709258314,-0.6149624453049104,-1.3959716280549435,1.6809460788156483,-0.6119720162997945,0.5670550018034968,51.79027388382011,1.6352620972983891,-26.34650006495984,-14.992737296457836,-90.27055517240618,-4.598459711306189,10.706834644957897,8.673847013207094,4.975667656245618,17.42800073234855,12.77019081678371,-12.361659828045294,1.4576320638067988,-2.817150907015236,3.356404643116698,5.720395427030514,3.7977974237253984,-3.793859763551889,0.3587475466954807,-0.32532220657333866,0.3771668863326475,0.62819777061226,0.418474942317063,-0.5531905458678096
-4.555569501814329,0.9029842315926653,-2.9253746058913235,27.27032040998518,4.074945949237287,0.23273735030066783,24.954718981072574,-5.688338108534763,-0.5684084737836779,51.11042752580599,9.593576053572207,-2.3687276356532676,-0.5612217771272678,0.21989840967086166,-0.4471919922845622,2.441645108656024,-1.005959799488828,0.293496856243456,89.57302541404869,-15.224978878451923,-11.908302461326729,34.2704941679263,3.0837472411618414,8.731780482531775,-0.1806779628448301,-2.2937983939939213,0.23847076232673786,-19.39979342768017,-8.979598184829614,1.4943474636013274,0.6857617892623759,-1.0078274247711887,0.1393538012063105,-4.55370307521959,-3.616089198254043,3.1900382667228038,0.3151721762800181,0.11800302851090803,0.39555024771690683,-0.48407580564308883,-0.5074242696125065,0.7269965811613062
-14.96145181728104,10.062857058482601,-1.710113289124558,34.69653090253343,5.285054206361734,2.0462491599231,-12.841355693393416,12.447781920905006,-4.664962701289485,44.1639309946903,-2.8530079912858484,4.449567927960166,-0.8083675033394921,0.8213709872318163,-0.35100864810961446,3.1917888326767776,-0.2833023178107597,0.7599522549337062,24.048552739461638,-8.508688737118437,-27.1964699837107,-32.84565404577286,-7.085010201948738,2.6265226983722147,8.869545564598074,3.686103212135966,-0.49446363767434026,5.16113287482261,-1.1392103373970361,4.921859336216834,1.7253202607148508,-0.9286756620482195,3.659988815650217,2.8478695056686107,-0.4677504425398914,1.2560626066592526,0.32091189867102643,-0.009415613725122465,0.3317988661191282,0.3410210454879764,-0.004521107858460435,0.07719474060256487
-8.890830154060703,0.9230157451390559,-2.6165629673192257,52.494406479339844,6.897030082678076,2.293544952827798,14.61364242074098,-10.584178789442118,9.066965117106932,78.24944106876157,22.51158432348673,6.769802306062325,0.11041561771272734,-0.7635138628760245,-0.2997920552097095,4.8458228344619645,-0.20802136341692312,0.8535961837059965,92.68455210933452,-0.16853905443196382,5.035097498918068,-11.44182360978952,10.398444502290971,-2.24122229408623,6.798146361262834,3.84225899365865,-0.7636897222116497,-4.996292355682187,-2.944400024333919,0.7607950721950087,1.4623266938865151,-2.2836661089685117,0.8717429931830929,0.06781393998906901,-0.8121499086922789,0.5571229627852781,-0.015047351316925011,-0.03570034418542393,-0.026762064871031315,0.05186832269961432,-0.11487206725952653,0.1415331752376034
-3.5116684996192755,1.447413180668357,-0.721918624418849,71.81036135599598,15.047521317380374,1.101183098520662,16.54112503302529,-2.14128192621645,10.130150182852837,84.46946588984075,33.841021652492714,5.4906775495507345,0.5105380124406356,-0.6729873556039818,-0.12324104642343636,8.141349341423542,-0.643755444918193,0.7263586547015157,86.80400020185019,5.276366431321976,1.2753613390643825,-15.918695478793877,17.474834158972058,-3.1690918054698263,6.878687334294527,1.5432850983829645,-1.4370125258579793,-5.19578945690868,-5.536322121417754,0.24352000291047002,2.324891574675898,-2.7349926036150944,1.0607584006893207,0.8361659639255083,-2.9604728111073677,0.9333658293467159,0.3475450596740191,-0.4755039620813904,0.15959185724588115,0.011583604312867445,-0.35181670967398654,0.0397567715753551
-12.671542946540823,4.757574479115433,-1.9536443115005853,93.90408688505578,11.44014567055327,2.69435384292158,19.18970774846025,-3.9630088733428583,4.323194756030915,114.32482026258148,31.32116167544842,7.312469164553412,0.2292626642954712,-0.5675316072178672,0.03043967844069212,11.494905476397406,-0.3374944134560674,0.9406679185341782,117.73283034482587,-15.030804139615121,-12.645993148807408,40.739194057775435,-34.88617418638241,17.304292103975275,5.163927817439913,11.362777254846248,4.624578048778971,-5.796327552322756,-0.9146596487211331,-0.4310631470940271,2.3321019717448377,-0.25280069903104646,1.3006426206130035,-1.4563240520007907,1.5026952966295164,-1.0530739090077705,0.12666952064150985,0.567604254854667,0.08987487605060364,-0.2198103275413301,0.3276785217837995,-0.21017915897015346
0.6053109433421864,-6.125350509974527,0.45094096820645474,110.90902124636766,17.219738257322394,2.3334075795464133,65.89928310481615,-37.94648990178626,-2.3125709053444874,128.36856895590935,43.67584161129068,7.008426233094787,1.3568729485436524,-1.6658210973968008,0.19814455813725218,13.261383884690058,0.7869200199053937,1.3181291892483018,173.73924865225374,-61.64665293923249,2.1413848060013363,-29.884918924414222,30.569413178115873,-12.886832037683172,5.0216880370194525,2.941900905221472,-2.3439765945449103,-8.603697469234993,-6.2066139950103745,-3.1458839986892264,1.1550000547175978,-1.0576642400162755,0.32323522989993053,0.020133486530586477,-2.8921696760786326,-0.8451840885510868,0.038827566006925066,0.05837489274372187,0.1537454778640623,-0.21146285576953666,-0.4146644572418534,-0.24169370678075644
-3.3781178084844736,-6.932827196860638,0.5951790764406029,109.5131020388756,19.474637129754637,1.6329616759127505,43.70473866664779,-40.075237903421666,-8.621825525112468,111.74189340102514,45.95246540065887,6.085469381755288,1.0043436697058077,-1.496325091829132,-0.24205128469828538,15.612980606609115,1.3871464541538823,1.4214695879139465,131.279602962118,-53.78633983830185,-8.70568047053966,24.939077310950687,-16.659581359130218,12.403679322825486,3.1169236516030954,10.150948059520635,4.019070684964151,0.00715751169598855,-2.121096680278984,0.8219077332826662,1.75611862894434,-0.6320809191147653,0.2971765453079437,1.9397010210438754,-0.6602408027714728,1.2202830266616078,-0.10069030311808075,-0.33950081168523816,-0.1827959876114125,0.29487594502633874,-0.09928718253005721,0.2536654347840054
5.027615205282472,2.246799729745328,-0.2137611913571426,107.6230987647497,17.138203434968425,2.054697202229104,45.00084875036317,0.46050976174000324,6.09858953852503,103.0440789139345,42.82424911559231,5.344482377162809,1.751927694378571,-0.714468923169056,1.1076907446173356,14.287292623111984,3.639525568055356,1.802103416673815,113.86107634311844,-2.0299013010660194,4.896248046234685,26.030575384448444,-4.18163808875912,-19.04492516585841,0.5688396128212507,2.896469448749965,0.0526197315301617,-12.25702925954967,-1.0220714459529106,-7.268839378951451,0.16977461443494182,-2.1572242534516555,-1.6972994919265338,-2.123697088694296,-0.08473690100998887,-1.9919759365774818,-0.2662442493869918,-0.2804742970773817,-0.12629792220656957,-0.41490080936688034,0.0037874653266854147,-0.44124188794596453
6.567660737134982,-3.020049152644669,0.5172941665831702,101.11286607921474,10.65690548993104,3.187390119059287,36.11104862815727,-16.162858809124227,1.8780401736239352,120.97829311635354,25.25899484482617,5.0922759799509425,1.262100477021242,-1.0313983162970484,0.15739704334012034,11.87179648981017,4.944426568591554,2.236644168585149,150.428065181899,-34.431319981881394,4.573637963308936,-9.669264059894404,27.048082658518563,0.28763295240586895,4.027082921505968,3.651235964681529,-0.7650889604396376,-1.9953177192810794,-0.9399923781326088,-0.4251360732729985,2.1685454161461286,-0.7069663042742446,-0.3856897249423408,-0.9885178413725175,0.32909374812777037,-0.33480039127005745,0.20030182581979575,0.08844038038761141,0.10282720666954828,-0.2164822352898484,0.09771020549153525,-0.0673399322145888
4.568041179564947,-8.502290437196935,3.131086616383115,94.88767933658526,16.676544753276115,0.8926734848199755,48.90898556898881,-39.85621421029872,2.653985565116222,119.8728176303401,43.6540175253186,6.0042347323706595,1.5519701485254571,-1.6383002440050187,0.41760189793395663,10.597433763580524,4.756965977048066,2.0673950741943226,154.0338877494529,-40.11129456992372,12.351191540116364,47.392029199150265,-21.91398406562315,-20.94089781055219,1.2165719529811518,1.5136365805695973,-1.5261885723340738,-7.093938703395541,-1.5575293345073036,-6.1613330317506465,0.2979775687542864,-1.5590653644713313,-1.207668623837258,-1.6775672588789217,-0.7344583140673078,-2.5237930445650116,-0.25640286686536057,-0.1341157096349944,0.007708765498244067,-0.504952655052329,-0.06456070840479605,-0.6283803194437882
4.770431839849364,-0.8113799092124891,-0.7684404412561155,96.15160035969188,3.200131497154271,2.612415620026603,37.21636666381377,-20.414873046605326,1.095371930673084,105.98840080963257,23.8823940248276,6.72808214806288,0.6550122098744346,-0.5097094708291202,-0.17284235591912245,11.895928157559782,5.533586210420554,1.964184897623053,125.673672348121,-42.43797375707616,10.759887110470972,13.670681461247263,1.797177273980772,-10.551893255625844,-2.097023025705012,2.086698334229615,2.3476771762870645,-5.05440094954428,6.401619028109151,-1.8352946020644587,-0.8779782701251279,-1.1008265287233856,-0.5251841344263763,-1.8576310824630877,1.4502664040205164,0.9800523006062807,-0.290062218309742,-0.4317898579211097,-0.08114110227088127,-0.2560858231547149,0.19090848324930526,0.04041713491743627
7.026145275228876,-4.535853002548643,0.6554114150038884,88.20949910734527,5.906168944780544,1.215252774860349,21.893230590136483,-6.621475395137682,0.8243227346625129,95.70754216267656,27.564356874353983,5.582026827858926,1.0675051539330511,-0.9889892149553534,0.3862963090930689,13.102848313060598,5.9588245971075136,2.0370747426412152,94.2476410817336,-14.294979289984767,5.460773575961568,18.972507047161503,-0.0204394105154172,-23.22813685389425,3.444249113472587,-0.996186947614233,-5.288868922959375,-7.197346767519405,-0.6306008401413707,-5.10187439156427,1.4455828848968877,-1.7574350070930462,-2.0357753426617053,-0.06922345895927927,-0.23814476674595694,-0.6042834224078899,0.310846756312754,-0.24027480913339372,-0.23212194494607638,0.08325405174610609,-0.09801333071392158,-0.12103095466294883
6.22420694401313,-5.491568349686095,2.0093870826916795,81.50725724425183,4.03784010418195,0.2709711068023991,33.167533427030904,-10.806870371629945,6.588435396556459,102.48135169724449,25.30026408911513,4.269874216334435,1.1997407447225126,-1.2664199331709403,0.9460856140723718,13.077903645997543,5.9592652822651155,1.7882097854286876,120.32178880134455,-13.560191654442924,12.388679701133357,43.12509920495181,-17.557598942785145,-11.484759797401301,0.5952941978277972,2.9688674436300175,0.5845188078018164,-8.421771236326121,3.1830821289858626,-4.765931475533281,0.7473330736964705,-1.1195862564300745,-0.9188079231351038,-1.303311654700354,0.27779661561056584,-0.1768428765533786,-0.11202123471263781,-0.3510791495290925,0.01707772837979022,-0.29451744371266564,0.06007531762648388,-0.09357351134161321
6.582619557150454,-2.71788972193011,0.3810382470990737,75.47815371054814,-3.3673357493762137,0.2215031190969438,38.752267625818504,-24.50467360418601,6.0201049791049215,92.98657232715146,15.101927243861578,5.241901037368638,0.6435576978445268,-0.44471691631259025,0.47430076676851185,13.189845522797523,5.555579677407762,1.120830555294337,125.85195324495115,-34.31730423709864,19.678893645111252,40.848877586540446,1.2520586074460551,-9.517082687858807,-2.5565842750273315,0.7937082834220968,3.4559294819273445,-7.676331480827343,-0.4934753283407126,-3.974509426427025,-0.47036104090137437,-0.9125096343162444,-0.22658455521075058,-0.714375108915373,0.2592186244497003,-0.4653068454329933,0.022193057420948844,-0.08896991609555427,-0.034582298559775994,-0.07582074804388873,0.0102162941073195,-0.1995588937506634
5.768023310382924,-5.47010289062049,0.8577465454186827,63.314602078567155,-0.7489035737676688,-1.033033097626059,13.11601044660986,-16.01279766556649,1.8408903221133064,64.0166219505609,23.516935684761787,2.1374656203479314,0.5805060491351117,-0.758122402479785,0.03263863958728168,12.46282869459205,4.98428948662263,0.6499970099781536,56.76575528679144,-4.919486259366158,6.139401578149406,2.029893589614252,-7.3567026292432995,-21.472736389175754,5.0875472301036995,-1.7219299910764498,-7.377136484794795,-3.8536050376358433,-0.8601658159620085,-2.1599335934016755,1.7098720412443333,-1.0853521223569744,-1.5653002049294924,-1.4472904088539469,0.14988943588579243,-0.9592346769351285,0.09389236920703553,-0.35772799837536157,-0.09247476125685532,-0.33919900479212495,0.16838529320614903,-0.11016911015002114
-0.3290935849260264,-6.334898746855093,2.0794933147168058,52.047885325448895,-5.4345657261803595,-0.3552697807274077,10.909137512693814,-20.488590553853655,5.765890610073904,52.610364896244775,3.3084274826558113,1.3484552385063675,-0.07584075356896014,-0.6041380354700265,-0.14389020119357462,11.56445894556608,3.9402648469182053,0.3309102248347822,48.37129545111205,-38.74713319145385,13.302621597777003,43.69861666728361,-27.916728426323637,-11.308707327219174,-0.5843260961550136,1.120143480030763,1.4065314057765377,-6.6291614121805535,1.2725103703211034,-3.6237125414990294,0.24909071987224832,-0.8860917130300643,-0.3349916221870287,0.29639664045390857,-0.34856862830397733,-0.659063058924875,0.15052440646557522,-0.13734275080476405,-0.04163694019178754,0.11891763478893799,-0.21146806123492332,-0.3091878474689111
2.199210575047571,-0.6941769361738758,0.19633778182642897,42.863627729199976,-2.9729677576525813,-1.1669679817783865,11.970074989793885,-5.312053308916794,2.3417252856757873,52.06099940298776,13.155965268231052,1.0161779839895073,0.4176975441042916,-0.6983061366602759,0.32455935028773153,10.320041167529556,2.5973397908264415,-0.01383679068040556,45.43593796673054,-4.4796192098014105,9.642502073143634,7.712758463063221,4.7700947340225754,-9.324824746305849,1.9250795618191183,0.5253727917899522,-2.0433657383241326,-2.554458447890847,-2.0607343660547137,-1.1498579453812832,1.1810039196341509,-0.303760743739105,-0.8371697161697041,-0.7573937115137952,0.055861088866343354,-0.40562789412148353,0.145359095842384,0.11314951484795913,-0.03819803687539846,-0.22844239701010366,0.1249248684748,-0.04489466827731228
-0.7053562346479292,1.2606654022122066,-0.15840525855256765,32.609036040604686,-3.115554980235161,-0.7353098167373695,-3.3067610455569083,1.556347369686515,-0.5019624781842192,41.40784911847477,10.952632406943213,4.595199267829136,0.15529874828402915,-0.09415589862774291,0.24708227148796552,8.400072795482204,1.7530001855750978,-0.35968902568093297,28.601836420042478,6.713678988782663,3.7795879224169275,50.83305107545549,-29.480788537681175,-14.750150352623038,2.526882711999855,0.2855407358756002,-2.6701505927940272,-6.325340091273363,-1.9702680143810907,-2.685662794120354,1.0318641543292435,-0.08006344327465478,-0.9873035464036346,0.48229248292733357,-1.0590640832720855,-0.7638587160619715,0.027663424571790003,-0.07645510292414298,-0.1066449866537301,-0.04315385154376199,-0.16048861249990262,-0.1774799417360934
1.9903052391033005,0.9857673281965712,-0.062392170564121656,25.38587914881989,-3.179687929128794,-1.0603665944427472,11.576743995845584,-6.941917415920537,4.620405594325995,33.570474159895696,1.0143964843810511,-2.2791713953673067,0.06076921467906056,0.218336230717698,-0.05593453146509815,7.802593831735357,0.7210389703990744,-0.28192197732687385,40.923802517540324,-19.37414845372607,6.359802406700248,28.81631045917747,-0.3609303004295365,-1.8878262005647757,-0.6206207442087635,2.8550559338484764,0.46834078684489994,0.47048182935371397,2.202181005903231,0.659213200590593,0.2530274427810146,-0.5416661933403966,-0.34127921584965537,-0.43563738770624977,1.5162492784529862,0.36612000533459066,-0.04492743518538052,-0.21874965185399603,0.001333767731098359,-0.053775640913188226,0.27762069876019657,-0.08184889434848042
-0.2207367109922,3.235684275936331,-0.3876932485328187,18.595439985895172,-5.369735241179875,-0.2765453868338887,-1.108897839093212,3.885528989381384,0.02976548862153329,14.665398401384873,-3.1000694971606113,0.3355761060484727,0.17111444017103708,0.3234256157279671,0.3737417002072853,6.861518585306995,0.41699982856573103,-0.4106139520270508,-6.038242282387311,-6.480395967727264,3.5738820353812195,56.70623982948539,-24.669558554155838,-7.559768142387231,-0.15014999370803178,10.561565678985248,0.8371361065677072,-5.747753836230062,-7.175154752930118,-1.5038085799385978,1.0835917438499911,2.134110606068496,-0.04004702543839241,1.3774018063451992,-3.04206303962174,-0.9784236043310116,0.3186017529920441,0.24768095290731276,-0.16572140351865317,0.16610479549753424,-0.5805643998070725,-0.06713440618766703
-0.6680627527555586,2.502813479217196,-0.3746659953176547,16.781353897009986,-1.286074014427606,-0.228971551003186,-4.714174702767967,2.9310055557948527,-0.12368756193986605,26.789835923141094,0.3397726678125106,3.005270698916855,0.11915381558608468,-0.0766971575404041,0.29631557608460074,6.205350403051775,0.05865063493823936,-0.21741562863951958,16.31655951989725,0.848472715318017,0.21533914651159883,20.243281692543913,-15.40918486679521,-9.657672114509623,-0.16228269667155912,-0.3448274125727111,-0.608207007684527,-3.1066487327852017,-2.8177726213203966,-0.7666142188640515,-0.49869086562549375,-0.7904726080383643,0.2010346574029453,0.12126723681399304,-1.3332095796496255,-0.623313719781332,-0.3331761049479644,-0.09612441257272343,0.2117326626467767,-0.08603869840182077,-0.14515291719842702,-0.10139465967080062
0.4728625040415931,1.9233535398441273,-0.9625403897493101,14.196982007313071,-4.941823248822457,-0.6264737382194373,4.045724047987348,8.282534668843994,-2.6525229514302646,18.122057859853033,-3.8031829365900687,-2.5813969749115353,0.07174315050786352,-0.8755894706891961,-0.1771130015621955,6.545322649229999,-0.6076988035972252,-0.3050559516982502,13.020581590673885,-2.2613457628828626,-6.833157957396124,64.07996880387671,-72.56484043427406,-0.604964093451624,1.2522318372093781,7.696267732582758,-1.0580744631803587,0.30906363093524253,0.7014101436145885,0.22881763125256985,1.425219940897609,1.12185409444405,-0.900239651174983,0.6849798284014247,-0.4164799995983489,0.3586571866340724,0.19607296091190984,0.010224263871470182,-0.24434634781968015,0.03927462450654164,-0.12347060108313594,0.07507044855091324
-1.713896850166674,4.207365372524297,-0.34819977749072684,14.152291290197928,-5.750266974128922,-0.06035488617709111,-15.17778450974715,4.532857757356334,-0.5461226605479688,16.62176807933815,-10.84242985727487,0.9207020534484707,-0.7088035815563566,4.383126450922872,-0.46471722026216394,6.601396735190073,-0.8901881219769784,-0.2386409324960534,-11.73891291691236,-10.113310927794695,-4.372272424888886,35.32678379791829,-0.20442028852723312,-22.323891188042488,0.04946142282224164,0.07701448688663759,-0.08591483883975942,-1.8450199968798844,-8.824242884368529,1.0598937504896995,0.09711737502420877,-0.8869933539841911,0.1589898248864221,1.6447956619490738,-3.0828316011149375,-0.34134659485072005,-0.09824714498196589,-0.08878465976116223,0.17129005747859216,0.08729184727978626,-0.39603980337908923,-0.019245081522734832
0.949868524262816,7.612662344329437,-0.9461277128528447,10.20533346004457,-5.411045378795565,0.15336267735561693,0.665482246206206,0.86533707692583,-0.7072600155053677,6.667403349297546,-13.864674535366948,-1.021251222086591,-1.4900239003143492,8.782639597491634,-1.1748445285981428,6.301360127088587,-1.2536977327400172,0.07519707734925925,-1.9091070114666084,-23.885168526620106,0.9839133442622916,55.44898033549957,-75.71007806813155,5.855815758510805,-0.894921815027371,4.8580528876386335,1.8278613473378322,-6.042538930261523,2.445939077851307,-1.2731520990296443,1.0383115468562223,0.5362932672748534,-0.33008255251205104,-0.44012338861594325,-0.9936727402502764,-0.5207562962020015,0.2902892889038919,0.12368688031059913,-0.11065508968738477,0.06537040698184374,-0.4951159952981998,-0.06574372462346088
1.7201543197041458,15.42813759455964,-2.037373201855033,8.157206566875983,-1.7410999133395186,0.17582517031604497,4.118937654009189,15.334322302843352,-1.1419961288753824,7.876814375709802,7.5891163359444,0.5544962499535957,-2.6335455094009093,15.047628213921147,-2.217924231101603,5.439970541809471,-1.50428556741829,0.33554809306768146,15.184629378373007,24.452385041003723,0.25971042173796227,41.16884571480072,-42.47493848008638,5.220893843694164,-0.8548620253712101,12.408648097658594,1.3099030089650436,-1.4912511029653526,1.794637474554359,-0.1190218232663009,0.294768536372469,1.77034899968621,0.18142026772368414,0.5590638588490089,-0.040585684748258084,0.11050515712416854,-0.009372189021677173,0.09985821253228055,-0.04373777012809613,-0.081111861687461,0.17195981805276234,-0.060266113494111616
-2.723510203855842,18.155312643035394,-2.444259164899503,6.9824167098261,-5.731895296080889,0.660213159352148,-11.1256472586666,8.58931062880477,-0.7330340750172171,14.112344705651344,-14.301584187473043,0.4868941704665589,-3.869907865715307,21.260717358660024,-3.2315771288864554,4.556400486262654,-1.7302317914594867,0.6010274112186273,10.230722499137297,-4.099053805807497,-0.7120335582327125,44.10273307958333,-42.39932326772925,-2.463089452049214,1.1299320789971026,1.4378277601456768,-0.6939226338315084,1.3511955788658783,-4.978379574213922,1.0049557954809463,1.1741626769976303,-1.830196899598721,-0.7130912899849221,0.5234971351077852,-1.9251556778953043,0.29492677948813556,0.09848336125050015,-0.33353354259391005,-0.07984850404044092,-0.1489263319209763,-0.4801717270638993,0.09318078680667566
-1.8017333876632922,25.839988593888307,-4.331211138230595,4.125158025963495,-4.48944497371531,1.0085733691797474,-5.024422988695078,26.89664510294105,-5.12381862331862,7.795397569877191,-8.242989964544876,0.9672706218054584,-5.893811262868088,27.8124510885621,-4.816197448730845,3.295224460975366,-1.1560352175439403,0.9647433801490736,6.716298933475767,21.86762281193368,-6.133978553898294,37.578964508032584,-49.616142001980826,4.262764765525715,-2.189687794953145,5.662647666777572,1.719360257545811,-2.492300029656025,3.2950014725439027,-0.013199387879109837,-0.2994260475834069,0.6174129453991631,0.27398702926006946,1.6141243619001397,0.2348095660877642,0.5919752457642086,-0.11190302543485728,0.19455397134576577,0.08783499328404946,0.37451101930507213,0.09976558556717291,0.23115443906017
-3.0886774622022384,28.045599259227156,-5.149317277454317,-0.6706319345469418,-5.42589780324572,0.6746136033977672,-2.733618725840182,25.152023203506417,-4.892272783623401,-6.203279673375954,-13.295683969159288,-1.0206464206940349,-7.855588550278648,32.329001360225725,-6.121365600232125,2.10989064844481,-1.2737736977121679,0.541502393764749,5.808450991991889,16.756555086394766,-8.238477070842956,29.627476107095127,-52.63001622630441,-0.5561946406324224,-0.26152900326290923,9.750154045183148,1.3816401265440572,-3.250946793147964,-0.5112586207848174,0.04767094260496908,1.0399809231772499,0.2257966178494268,0.09132765746697333,-0.33342913635503896,-1.160353738443057,-0.16428747060633314,0.22064721862596345,-0.06268051228537871,-0.023408767003121698,-0.19526596120050224,-0.24685243200308277,-0.0850096761563425
-8.22659553308366,34.230588852515226,-6.8588480714206534,-1.3665100612558283,-2.783821807666506,0.9559818658753861,-6.268496696352546,33.79367135820597,-5.876405711027196,-3.209748866977701,-0.8422128714680022,0.43254550837484285,-8.695092836513137,35.67486763833975,-7.254706501554361,1.4658030402413629,-1.0011979376097537,0.952131124989231,7.857370089536818,43.27645838172056,-1.4625717205195614,38.105298524452216,-60.1379695833127,14.169408663681093,0.9000125032596307,7.124186458464597,0.5513125637245131,-0.8352451849479017,-1.390882675690902,0.3342941487104277,1.1673546415173461,0.1962288681238863,0.17907544946335385,-0.21299432068417254,-1.078844346312959,0.09695755953700366,0.11659311518492654,0.05003318272627515,0.017740942899555225,-0.09789304139478334,-0.23366763608971164,0.04415855394826314
-9.958425993442674,33.43756578776274,-6.838016714529096,-0.9946369670541289,-3.284237603750174,0.8434773324247872,-20.292060987879793,32.47611702986149,-6.947201609875277,-2.025720781581538,-8.662605703296599,0.3565508872801635,-8.929429299575188,38.37502503941695,-7.760360599905473,1.197849531811178,-0.8520385960409782,0.7218642743458533,-7.387510925637362,31.910876752877193,-8.899604347916792,44.82814268281965,-45.45226331165527,-6.930576810011316,-0.02656802832607509,2.772348420640491,0.08695812968055,2.7440767508092017,-1.1434418105809772,0.6553106370991333,0.4089116561469348,-0.6776559358502329,-0.21307653682877617,2.1492301242479557,-0.753516303922841,0.6178742231299691,0.0015038791048192814,0.04251432441459796,-0.0039914275196383155,0.28013867234511347,-0.09781159671043828,0.18605578259375566
-12.680975260357766,32.522685416963554,-7.387452598554612,-0.23086991247774735,-3.8965332508245676,0.48060057285416324,-20.807730051334072,24.979939476999398,-8.206942947915607,1.2790017487000087,-9.716155423992776,-0.6963663926629459,-8.811180288559703,40.54157360104073,-8.515205101109895,0.7958529116743523,-0.669753816862572,0.5755707306798324,2.239388157505621,19.395779676479545,-8.461484086923493,13.927505588725246,-48.92883575763123,12.524275165795634,-0.7356086641079587,7.141851217620205,0.37395267668295834,-3.8673371898083704,2.03650759299023,-0.059094845172591906,-0.22219338656878376,0.1905661479072052,0.036851123170157554,-0.3171050772263138,-0.3305101715752101,0.10851836020680287,-0.16054887326658832,-0.07807081297198515,-0.06687631080947735,-0.04677544183888554,-0.10796399086165874,0.04739602536058835
-11.681673776688296,38.48712330814522,-7.815259665394507,-0.8473380893851266,-4.2221906080911,0.3364913607251504,-26.30653357784528,41.033177289656486,-7.564524188730176,-1.7232511353970648,-8.105582285620569,-0.169367562382081,-8.531902015717593,42.9795053096517,-8.674396694564923,-0.3429828728697863,-0.2470315630318076,0.4730265994992259,-14.659330649146929,43.11419344593119,-9.397339543179971,11.794615749431147,-44.8676758782249,17.13194451629191,3.3108044024906267,7.756527760674734,0.8125377738107245,2.7402609663658932,-0.8993937296137665,-0.13628739694191289,2.3824108622346483,0.029427762481175262,1.2347739349048237,1.1826171783503023,-0.818725520742883,0.18917807652723945,0.42095492059044853,0.1720414016999109,0.26105910369473107,0.016997022045923352,-0.13562795468670633,0.013010566496181654
-12.347163207061156,36.843735598110065,-8.036767333552337,-2.589389955613465,-7.967987186347561,-0.39950904926942754,-21.51869471481328,26.3014311428655,-8.264570145690634,2.2824677533825364,-13.00895327746999,-0.2320868204922334,-8.429052565518653,47.230263792336615,-9.395252218418289,-2.523332323785432,0.5409825437867684,0.06293267205549793,6.650787544410728,23.13266676632124,-9.58309779576558,29.04460388110943,-48.91436254348654,4.083591301600718,-1.2835761511803003,7.007992727469251,1.06203672948285,-1.1250432566101762,0.9788403667331012,0.009435393481207338,0.2093656203019179,0.09736340001259894,0.041764613520460445,0.3399113243949229,-0.4841663324295948,0.4026854806057867,0.04329936472764626,0.0005141473987743464,-0.019972309066816612,0.05402500747932239,-0.15928993141452283,0.16196913583280825
-13.268878631535243,41.344755773206934,-8.801111559517206,-4.327673692949194,-11.953886781677825,-1.6885723659602754,-20.254430288795472,38.30616881135494,-7.4401972240426755,-7.0726749659651285,-21.80250021458921,-5.071695884203309,-8.554880236799692,49.26892411180116,-10.022854008181419,-5.444365929443032,2.0665494896601855,-0.3159292186244654,-6.3836998220194285,24.693654293040257,-16.344677287146098,12.51690110426841,-50.96092078496229,5.506586310127268,3.724942582322158,0.8719866867052801,-0.8180984364698777,-2.249537231805018,1.080278975575537,-0.5584637062926615,1.2662622116273348,-1.0350437558663848,0.6628326817035353,-0.057585457906485706,-0.11943209931651101,-0.14419229761166366,0.12820586475958493,-0.0037703542860068424,0.13031617976196197,0.05859014418822943,-0.0024161691210896233,-0.05460334609348996
-17.308879678684185,39.61357045222236,-9.705742181962854,-7.013215773482783,-10.447508719995366,-1.9829574329844342,-31.596024681972995,27.340950019602417,-10.17266902621446,-4.4275859092429375,-21.191955975137873,-3.085465099227033,-8.813505088672274,51.159692186028174,-10.942042003429489,-9.847522403407558,5.177617633201496,-0.46561799566559436,-12.825752270919283,16.688997733782948,-17.728803987990737,3.491435525749055,-37.27425090976249,8.138962440138819,1.3280041636080362,6.877019325825592,0.3591323811716054,-0.49465994367151617,0.9994399082981322,-0.2137058441490634,0.7015230885287491,0.1421029097180805,0.6768811922883285,0.3946133230490384,-0.5393113801424623,0.3174565037929817,0.053418151463678364,0.12385420614444902,0.0882300745093145,-0.08518675175744203,-0.1295628577439499,0.08958645456419234
-17.941408732206853,42.15247397044912,-9.635907000811997,-13.265296687038315,-10.251395579010934,-3.2529389131201336,-34.613139091231275,32.6283273122144,-6.614823693782497,-8.50235632432881,-24.277189728039158,-7.0494791037185465,-8.893456796943067,51.00437633346695,-10.964271687954733,-15.011491008066754,9.673936132629336,-0.7773475352789592,-23.234398748836902,10.412724892204459,-19.377002945607696,-2.0418335396033145,-30.81934390328205,14.679055770900453,1.3865487304676967,1.6681863240489103,-0.7348853982123367,0.9631420366599086,-0.20927213696062474,-0.26510236884591554,0.1234988052852867,-0.6359320807316294,-0.05357848736036561,0.47685318067086735,-0.34179873088022045,-0.02434918710583034,-0.0948766924621929,-0.01736709647599394,-0.07043744912472223,0.01773751466736847,-0.0937371281370301,-0.00930629017893821
-20.88878904120054,40.32310401326626,-10.326235666187667,-22.375280591669704,-2.343929996778596,-2.4216109857925527,-43.03624803772399,28.18954212189285,-10.619253122144906,-27.476922377292674,-9.66837537675639,-3.135651960410129,-9.17417366957499,50.58161277210239,-11.23931528526048,-21.243001209816423,15.150035186900373,-0.47880279314576957,-57.17148934741241,21.852545780148372,-20.85478514056589,13.697478000535874,-40.303639225276655,3.0425565865282636,2.339859732540508,5.415701810453052,0.43013022115958083,-1.2686418655202734,1.7554493307344932,-0.5571416718643964,0.9750340139153432,-0.23947430926222826,0.9656049242765983,0.2890862139790682,-0.1091697114814167,0.2450581343267056,0.09716070958227359,0.08288371821073422,0.11939739496745451,0.06862792501220098,-0.00018532486251896337,0.07920109726155908
-22.701291964555057,40.796381705985574,-10.15061848525988,-34.92716399649919,3.8792803095942094,-1.38771311477099,-33.977209528963755,27.013988037291647,-8.208907860674373,-52.596614612530296,0.3369123486713068,-1.8677695534254197,-9.475308539072767,49.61101977467577,-11.055661645516333,-27.501924522450913,20.051806030131107,0.2633361704455503,-79.21220734774438,29.506040928164474,-10.532327425685077,0.5815202240553664,-47.60984912990973,11.30483799513119,-0.20120521844346503,3.799391921392416,0.15629508795450026,-0.2550939628310344,0.44023947689020815,-0.03542527878484678,0.17279278933790948,-0.5875324473866866,-0.0638807846797752,0.7307460633130681,-0.6908777862564051,0.22340680141564415,0.08782350155625653,-0.08396636543087678,0.06951950829011574,0.10283338629013636,-0.16234380738020987,0.07543817796316717
-24.219636362306566,39.29544971733955,-10.18331201739653,-45.59623022691184,12.626352784480313,0.684104802802423,-41.79275549835381,23.253949397487133,-9.08850153965031,-64.10701074662262,15.663220023500678,1.1046786653506382,-9.521480670900848,49.336200417531785,-11.019835635981568,-33.581128656747275,22.88541262350081,1.461202815025037,-103.82610292595622,36.39387471218495,-10.496160923229558,-7.022627829821991,-26.486378230294584,11.229866752191727,2.3758461356418334,2.521321400808067,0.12271190420688688,0.3167640414387248,0.8359234968825061,-0.2647409017580048,0.6940982952116477,-0.4333306419571337,0.8519390862901839,0.0561885161596991,0.33581848103195816,-0.16719961851256712,0.05300125302271352,0.14594387300246991,0.1733046074279511,-0.11504633107106042,0.09796374996697554,-0.08296922713965318
-26.314469808732973,38.500184096208706,-9.90180911590557,-55.28426323405378,14.74626527155527,2.516566658970676,-50.34200642950313,25.32353429910475,-8.682223932522534,-78.9511404688645,19.424805195569053,2.7383061370453894,-9.472317128084285,48.7703403047741,-10.80095419343811,-39.79900564325195,25.379324157293183,3.1871990306239,-137.43965402057586,43.42030287406108,-7.6809757226883155,6.880726771406017,-44.32379006600382,8.561752426661307,1.8055882630451612,3.3492240644851416,-0.23976198754130149,-2.438027689493623,1.3958225676034928,-0.3798807764976807,0.2159310549619037,-1.24396986377781,0.12183431279165716,-0.2011011880986451,-0.4023130361563687,0.21018262432614332,-0.12468381322873816,-0.21043924840206668,-0.19654121072875777,-0.06270852312200902,-0.06127856981285641,0.057206008842216625
-22.309929812305025,35.97587287540825,-9.185622422718803,-62.52503051268104,11.672237564556758,3.6762833312006555,-34.71365076828442,24.58406164107641,-8.227012692345024,-91.760528126167,9.071673768040563,3.2700570397567685,-9.603933532059672,47.336693756222864,-10.255880672578185,-44.154339366626,27.095735320405332,4.578339211779393,-125.74061848922993,31.871449120360523,-7.8463146101737555,-10.457266120361615,-32.411836145470126,5.985708095577409,1.55257405566236,1.0091330301713137,0.3761632534486631,-0.346244464231362,0.9943611988847703,-0.10690822956966206,0.7099807674946912,0.8558007469762838,0.8102992551230273,0.37237381170907946,-0.22235024492881492,0.15198219118414152,0.2311650345899412,0.2641284441074521,0.2637143411774195,0.005155455395764937,-0.07878016020960843,0.05686373076357549
-23.283100667457752,32.95363026346304,-8.54696569819218,-70.51724812887207,11.683823331738411,4.772600677694091,-45.01808295882648,23.395795246047566,-7.849977072167344,-103.7414495818805,13.084193843888894,4.53173815827238,-9.56535906246241,44.3757073401227,-9.640072176506063,-46.88518292015042,27.936840792387716,5.510843458180936,-159.43508977862655,34.794542693826216,-5.553440948149837,9.093041620448131,-17.96420865489117,8.57492169989918,4.025240199453708,4.611252755410283,0.8859239339777104,-0.716512170586078,-1.4142840743142935,0.5075436486341358,1.2042705535981175,-0.26521893986250716,1.6981610018243292,0.016869450670368193,-0.5760426719806874,0.11523585716522615,0.15919572342147392,0.024446068870843066,0.2564769623946714,0.00037720526193566427,-0.0671118799758833,0.0219662770212014
-20.83259520085727,29.24766754033385,-7.688576431386395,-71.27149656411846,9.680526686854405,4.92766554152838,-38.11210144967266,20.895160008239593,-5.797356914122006,-100.38186088381246,8.181049502605502,3.9019639658293603,-9.378111323114544,40.6132713303109,-8.931065654688423,-49.643641106877055,29.409724305444108,6.229671678442225,-142.72873519989975,31.402856173190305,-4.715584356020823,-11.839204685304646,-44.70759753742688,6.975256135383496,0.31740707748723507,0.6176012889567601,-0.41703356185071133,-0.7587201578331206,2.0216183420195843,-0.8679869247442514,-0.3353904079299467,-0.10061843122108255,-0.2245649940126014,0.1703763824112628,-0.17408571054386765,-0.06509821362848349,-0.16568791858533335,0.23445281823864075,-0.06379691450553276,0.019864646281870384,-0.07365471793899711,-0.011639216521141351
-19.91888721888754,28.178774491776444,-7.624963206533577,-71.10110219480617,8.834415388539893,4.608929599495759,-36.792543119755976,14.018239328665784,-8.161584651807491,-100.45292010874581,2.594942224793808,4.257769171517423,-8.291338031122294,36.255501856324436,-8.035503296664622,-52.8745340106054,32.63248834527381,6.2886252116881245,-147.4288899034111,14.580204768356175,-6.486298154865531,-8.50964724040786,-16.87816553700118,6.990560577940746,2.447164570945343,4.295070674692756,0.8324314540185196,-1.9200245643216147,-0.1490496170439333,0.40192395638682643,1.0229174253528428,-0.025334169811216427,0.9746731484539229,-0.32910283795056505,-0.5414486262075378,0.21689013603768917,0.22988484501839346,0.03390744300201017,0.20534890695961458,-0.13435617500499136,-0.03573412728146504,0.04424225382715043
-19.326460101490103,25.995082874162318,-6.837587957745524,-66.90358737574701,5.3224990347241175,2.7743075143217397,-36.50030509601435,12.916925417459897,-4.025818748877833,-89.23357013241397,-10.936704301298144,-0.5329698842957498,-7.380744943840113,30.486187839738502,-7.265736847924924,-54.29173393335659,34.43463695973147,5.61206161875783,-126.06743327604424,0.6356388880794173,-8.607204919134313,-1.1575829563914537,-26.50930445446057,2.3159255062801303,3.810040432349295,-0.7127577178614763,-0.46984958962864004,-2.7530851348645724,3.6520302495633645,-0.8980093701313067,1.0525379550973488,-0.9087362499312828,0.6199153222427236,-0.5883833227596336,0.7288982433183862,-0.3454070208826107,0.19518273747803053,-0.058283829973500845,0.09843555579758123,-0.17915481538193778,0.10508794743583866,-0.1115904455630674
-15.567454478312989,22.8495839222949,-6.179095968688333,-53.0838130289018,-5.278172455067911,-0.024290539015359047,-25.650585366059424,12.357687329586259,-5.511949377626778,-57.17389384768817,-34.31955849419017,-4.6671116112254625,-6.496480955994453,25.605465484126864,-6.234263692339058,-52.66579039471631,35.139275450135386,4.893889931443732,-79.15113668867595,-25.66908771414771,-17.87584428611127,-16.656374458800514,-19.973712936017513,11.197324518627724,1.1085649484313345,6.784502521428535,1.0025447186832859,-1.1302432740805084,0.22640008731658384,-0.0015397518061122523,0.2633996742192844,0.19536050062010324,0.37752226833763086,-0.27982238464572895,-0.431453494197755,0.1687821728655312,-0.023280955073367103,0.014097852220879616,0.03262554659548659,-0.07031980225090483,-0.09936877683040438,0.06792195267551278
-14.670473040105291,22.612602065656482,-5.909956117623984,-41.55484669257681,-11.839701189079829,-1.8262560470436613,-31.825487348521506,17.978859157145283,-5.480435286855509,-44.88531396155743,-50.4641223034686,-8.716917143610653,-6.211483862910844,20.348117755660358,-5.433351201264281,-48.119917213700056,33.63414475317239,4.322794427401045,-72.95196618374719,-35.494607552623116,-26.00738366683236,0.5879615794960881,-30.865058560428064,0.8165106262672617,5.251891185792141,1.728321497460264,-0.1226766426474502,-3.353824706590585,0.9037737286268338,-0.3990489216148662,1.5798496510728053,-0.5843008471915911,0.7699294260676905,-0.7098169004791139,-0.4060284455047313,-0.03220269896579797,0.18576369301795706,0.002274436452797639,0.08582296600914074,-0.1653163504215345,-0.016807436803274203,-0.02383481080412541
-11.23248847777642,17.01437140537603,-4.843230982454494,-20.435189125369966,-12.082560905552302,-1.21618391496353,-17.917288765456544,14.462367387092598,-5.141021564165316,1.8664093637801393,-50.669864375676724,-7.630515080972211,-5.617175078610636,17.336238094982168,-4.686204296343677,-43.40267039164773,32.06673075966552,5.494512191343061,2.85922386875881,-38.03599096365421,-25.71610105743133,-7.746373380416838,-18.932578967679884,2.4970142326481817,-0.4909141958909427,0.8631841522451963,0.2548168474705826,-1.9558334025309603,1.4265190733457802,-0.46778490785994176,0.13762468178058093,-1.3703160857253187,-0.20966598196405858,-0.22884868454854188,-0.03713285366023489,-0.17150479026454316,0.11066546725162535,-0.13972420234931,0.004800927315652446,-0.01750786492100522,-0.03515181171111573,-0.04260696862898008
-8.923489126648638,15.633898494036657,-3.9876074040872282,-5.896683116029768,-6.289598805532688,1.4678992714251797,-23.209333624334413,8.080407377786425,-2.5397476985518677,25.708395478769248,-38.67345572312722,-2.4491273577934334,-4.531420914200604,15.162068229375338,-3.9210696534265512,-40.853731398360715,31.687915510870162,7.49821009326873,12.397527952674748,-35.17206513103327,-13.804782108801211,-9.905078458477822,-25.045748363094724,4.818504099533211,3.3332139708311965,4.375510110687688,-0.5206126805174013,-3.0575015683662805,3.2563075030605355,-0.3093100701583904,0.27611477545149626,-0.4361422450618658,0.15636182856929676,-0.9024833812478309,0.1564962930874341,0.06267051639714209,-0.004000636592760689,-0.008380023306859651,0.041327055571515836,-0.24253216216852794,-0.085412957236612,0.05729176267439489
-5.600301896734876,13.299807079307113,-3.4333290612026213,-3.898989802772301,5.562142652375598,4.769215595956067,-12.226921318958738,16.803206999090957,-4.459443236938482,39.248727904877335,-14.079552597388764,1.259691086179443,-3.7484429312970415,13.204785346511912,-3.303647655508049,-40.93132082082157,32.5132762143894,9.520940961250226,40.436311304821395,5.425281104817578,-12.598136989123066,-6.003063437825965,-18.17021475209971,10.146691425724347,0.4809845673398082,4.3777060063246,0.9476750667368007,-2.383501128025215,1.1547381900435458,-0.29824264250890936,0.541920217036343,-0.07377313660237766,0.2569675922333595,-0.2512992825170286,0.3392241362167688,-0.26649931705409313,0.11877912451333936,-0.013439487924428131,0.06430783839139134,-0.0820228090844835,0.2424911002888346,-0.15083810317358712
-2.6185921259963534,10.788313312557511,-2.6704998486689804,-10.57311571797939,15.164943020138136,7.341475819633228,-9.360537356794373,9.213073164712048,-2.341966069825239,23.83681793571198,1.1134861077319491,4.936692145199121,-2.9916265339975747,11.68787806986454,-2.853024000096318,-43.70852877788741,34.04847854593097,10.623826749963731,16.998315575027384,12.346377924946491,-5.0109946445737785,8.023336745105647,-20.627812269320483,-10.352307046213546,3.730380841078778,-0.3118602304598177,-0.7041677732965627,-3.3806100092468685,3.8559663817623617,-0.9412376441784395,1.0507483832909854,-0.9271283987589242,-0.06028974041124433,-0.8535452166708759,0.09394545855596215,-0.05219042107695881,0.10184717833035524,-0.15425592454658787,-0.06531956637896837,-0.13127900756234412,-0.1429798422773151,0.05249181230008724
-0.7377012098721096,7.3000783491306676,-1.8438278759537694,-22.604087365109173,23.898933869013725,9.16722251595603,-9.398845902371669,-0.400515569182701,-0.9957858590041541,9.23531913670474,10.008736137974518,7.401457521730146,-1.9741401598112656,9.339470618028196,-2.223336314784601,-46.49865426708222,35.71466989163757,11.099729702592226,-4.609304756601472,-3.3877045192685333,2.8769895042226907,5.674545100000688,-1.6403594941877722,1.6362142710323573,-2.0517516722267755,-0.8186250073216559,0.07531115748983988,-4.345334018243729,0.0010392861172194023,0.22660206488177514,-0.5786695397796154,-1.3141487312931894,-0.3695401556639555,-1.1074316646586686,0.01167303033119379,-0.26769873017738366,-0.10730395277548545,-0.1136454913760871,-0.08063944676373126,-0.220679772064813,0.01886824419754868,-0.07818173622331186
-1.2595729849245645,6.742893681038909,-2.0163382100820515,-31.54501315513571,27.49581543368768,9.14398712986822,-9.242686785729411,11.332144178321064,-3.4218038109058395,-10.711573748166725,17.240053697812005,8.936996167108912,-1.4990639239509056,6.806646287742199,-1.9636907391930136,-48.70114792981128,36.620558813487314,10.287368629493029,-37.23211024909406,29.877799593538157,0.5127652398900424,7.960485727315749,-30.248833712334278,3.2420068215600435,0.7143562728256169,-0.23970143349451573,-0.0648861967776697,-3.199441735128315,2.0255265336615573,-0.09038965901666396,0.22377088599290335,-0.9805296256792919,-0.0039005314019711513,-0.5517531079688109,-0.08903242379883182,-0.12736917632945852,0.08129930844215455,-0.15027860332458592,-0.00014140178751497658,-0.06325647761922916,0.058817911010507484,-0.050899363001791764
0.9090083103527931,4.426886220058018,-1.5323538952799367,-36.7158539126839,29.999645499884384,8.335655575916215,-0.2423850211039057,7.515816827169859,-2.9616121449221158,-15.837824129260612,21.745276818274746,6.050577589801848,-0.7440041682536019,4.09736658701731,-1.390708282733459,-48.86217452673763,36.56698517489372,9.364127351116409,-34.433844233385116,24.054586080602853,-1.8027520059161874,12.072945148594698,-8.381029317767391,-6.605120313158346,-0.4211993027833483,1.8807193057519764,-0.5371796421732555,-3.680796421894586,-0.11171138772534227,0.1447320161098528,0.32603066047566603,0.18813196967976506,-0.2865717656979931,-1.1273137225663843,-0.5863191597371424,0.008089569185191561,0.13294460235834635,0.16067139976234393,-0.09181609918349284,-0.3040537772896498,-0.1007642240793734,-0.0006530526366197058
-0.6627267120255158,2.346868354378492,-1.0130509235703942,-39.816469800007376,30.269448614321867,7.237108101210625,-8.71347492126349,4.042720358022586,-0.27533070318848946,-31.541307917324733,20.530837595624515,5.942615824159877,-0.5914083085907118,2.2354952722194446,-1.180366316963178,-49.63752190870367,36.49242676253579,7.991983189111936,-68.48980988870544,16.009304700627617,1.4391161530835823,22.614800168206045,-9.115402753192873,-6.45300169000431,1.637860042942136,-4.254250146563304,-0.37989456902126806,-2.8284521319963227,-2.164612838661801,1.1157362557411425,0.4077489148856567,-2.5127625094059924,-0.25714000578112334,-0.4024615887568349,-0.7443641037851426,0.09713883303902485,0.04300224420923,-0.4047491971564964,-0.0761985774194377,0.007404554401568904,-0.04703699810434445,0.025187229749917852
-0.8135962009574628,2.8479898830584154,-1.367262457931342,-44.35232131641786,30.54163770814238,6.323824997132479,-6.376772718208397,5.151651625397398,-3.378970373461812,-30.74906288023548,23.623474624851408,6.39416968628954,-0.23183302679822682,1.1633250909108326,-0.8702236121416296,-51.294303281786554,37.756216035245444,6.957688957069698,-68.77473345466673,18.491572404102907,0.8191002506142596,27.471363315946412,-29.137106240969572,-0.2607313790583516,-1.4636960109512127,-0.5169810535012809,0.6346309236069101,-3.486543271458619,1.8884555755700712,-0.04066118403772426,-0.32948279674292913,-1.144738388094268,0.07815380572345788,-0.5037787699102003,-0.42759392068659446,0.1086676360946679,-0.03611180299975717,-0.1684148779736474,0.022633016415704622,-0.08890186287798547,-0.1580359580567544,0.07334376146300119
-1.1470857885066625,1.3270259930718866,-0.9717959714611727,-51.19946426666404,31.94772715821497,5.29598874319401,-5.5943889463787135,1.6097691199852087,-1.1009762527147924,-47.253860012154774,21.63396673619757,3.5897832931967626,-0.1311217567219604,0.35232985766077324,-0.7846668291375115,-54.36678111780813,39.68646138889283,6.134909772878899,-91.12221027216273,13.215685650055724,-0.1797501692056221,23.75426690683844,-16.43875501370831,3.4596012198998767,-0.8203477502620679,1.4118216931434096,0.27490063833697687,-5.536780574736806,-2.3498680424488665,1.339440557863277,0.36900614152067956,-0.2971991189812489,-0.25337119562904525,-1.5666616630334982,-0.733581414896594,-0.04142182709021695,0.1550547401951477,-0.009687132666591776,-0.10625747933766656,-0.2465824791737156,0.04359325264585168,-0.060746537219126776
-4.706786462949841,3.415628750569098,-1.1301320940715218,-55.219871520018835,35.39556075760047,5.42011692126648,-17.70266718348851,3.541370728870865,-1.4575689089060004,-45.450569185913004,22.36304228141885,5.210414921646134,-0.29031750410582313,-0.06868793724808435,-0.3760716913813,-59.09487844920964,42.83998582192372,5.978708899806248,-105.60332091060376,13.488582607071955,-0.472617452004186,33.063779464628375,-7.585854501819497,-7.894828020809488,-1.2902071945127072,-2.0388648267629237,0.4029665854006961,-3.153494319289797,1.3899814800443415,0.20361466370927644,-0.187860597910672,-1.1190999180436276,0.24663893173609008,-0.33977753106593844,-0.619130235925765,0.05652196383387074,0.014002362509299489,-0.0999667941397654,0.08040110594912532,-0.0679216653629041,-0.23169347334458887,0.062153364141706205
-4.0526341982924565,1.5957229616009259,-0.7145340811997987,-62.27086563011436,41.479211271066696,5.955730241684162,-11.67033928683536,-1.0715224436730053,-1.023388332257139,-51.43602568742325,36.24662616629903,5.1608528863736325,-0.21622280385781173,-0.008383023829882,-0.2574826310649487,-64.13448250836986,46.6885700211978,6.468560968864578,-106.79397318711406,24.67383941488953,4.034805515398773,24.2521113193057,-27.982133000444424,0.13340239230724926,0.8281400795094933,-0.4558339135602377,-0.7676015992305252,-2.300854009391447,-2.076940593011745,1.022682915923479,0.08447551228780553,-0.4225190017770469,-0.3142932341949822,-0.06900205791966865,-1.1367681738028839,0.35287708372277055,-0.02861995934769136,0.00017714034848906844,-0.0867418079862016,0.0040470814693978,-0.05758070054668207,0.04958586584112703
-4.607412999688356,3.5992490445490923,-0.6863252638308962,-67.63962647386215,41.87635286640837,6.126025783074996,-17.233913740213623,11.411218307047806,-1.30539102846729,-61.877196167995976,30.903557087168096,4.9340028047120414,-0.3176231064181614,-0.26562205378737586,-0.08561552462075693,-69.34317833867182,51.322604865108495,7.03010001995597,-131.39901480780878,31.542964198548077,-1.727365994757102,36.88774940781737,-5.558283975728341,-6.011607069902711,-2.341486803260139,1.631785125234503,1.2479331270390177,-4.706296926242192,0.768827107234374,0.38243505961321367,0.02884492633859123,-0.6205840576985351,0.2013350602756915,-1.1326937580109735,-0.13873091774412089,0.13958604910132436,0.12015771755464466,-0.1270822556604695,0.03320532006402308,-0.11464585068285724,-0.03191220507589308,0.06667313121537578
-4.97643511920842,-0.7718114758192511,0.024063443521113052,-73.74237825203295,51.18306005950736,7.840790466838867,-19.53777893849258,-4.200788954919894,-0.7242726615572315,-59.20432602096322,48.101627119692246,9.216810806150047,-0.1743993274119586,-0.22308302602863184,-0.06509163067983238,-76.25357293847833,55.97939700175617,8.032966514976547,-127.50200277767728,33.413860614587605,7.209026962025828,25.308166005769827,-21.84795891410922,4.279018861813626,0.012430944809790859,-2.4492003059071097,0.007432035459950963,-3.391587523392651,-4.291188198368334,1.5502342743324156,0.1304549266060883,-1.364603695760849,-0.2459800859083112,-0.9514534913877685,-2.388733256891085,0.273685230720857,0.032520630400280935,-0.08856212548775261,-0.06838248156133693,-0.2624084815076351,-0.3449327013500611,0.0023767961267275664
-0.9146540588430078,1.8196850403516636,-0.4729944062240372,-80.701544572687,55.952935557404295,8.151966725654631,-4.13917339840975,3.3983339303112263,-0.7626886185757183,-73.14814777809111,47.87248598016858,6.982140366705356,-0.08739643800810987,-0.2838726529635241,-0.07006111141887425,-82.001354889491,60.40588727347813,8.621666456735156,-134.40467499451586,38.433206073725216,5.896230461891564,35.896006754271404,-7.608647542450938,-1.9800837107197535,-2.071595675526655,2.546665819763555,0.5758402660228208,-2.5969901792898775,0.08244433134623191,0.5653339678394319,-0.8502974744887889,0.664320309204855,0.2849552953110566,-0.1423881409934424,-0.10190355847367813,0.187742419722012,-0.16836816392039722,0.11322726353862511,0.1084429848883959,0.08612228507746768,-0.09771074188371152,0.11430711668869757
-2.409861225155052,-0.32653023050960195,0.18026754684548651,-90.34555067831444,60.00433132397927,8.19772728442266,-10.877737045454841,0.8322265554977065,-0.25715069614639186,-83.15742574801929,53.50911425702323,7.884730719819068,-0.13380412621756044,-0.4784047348397461,0.04659815812586425,-86.2980901160709,63.60334909912595,8.447972626553973,-157.06205727580527,43.92656246704792,4.601903816799601,20.577322120739026,-4.419684207909594,-7.818238523929974,5.223016498471207,-5.508313751560725,-1.6085500580906982,-3.046211273637922,-1.1774110418290167,0.8268385654359865,2.22905804915043,-2.5926300691699744,-0.6954908431160939,-0.6288791096224378,-1.0705444621032125,0.20451907183593204,0.387281758294785,-0.35707633014135876,-0.24514293038734747,-0.11713422774744253,-0.08548949319350879,0.0110632849914346
-1.2706845694589803,-2.509326506562518,0.7329437493675535,-95.39315076658862,66.61426729818061,8.706879507751689,-8.405181926883788,-3.4744579360350674,0.8876536066773981,-97.71653323080533,69.62156930958184,8.914186013885672,-0.05701788404182124,-0.7367668936654808,0.17698384994477323,-87.88040197766333,65.09528580462589,8.494574175174387,-168.48535341038817,61.53425523276339,11.595014212549472,30.556988414654825,-17.607375051453875,-1.259559449514541,-5.1083179535947085,2.1611156030646486,1.036561676547702,-4.939275051124747,0.5839319594455821,0.09569061110990242,-1.6587904617655231,0.14516131653465864,0.3973165130061841,-0.939523594328581,-0.7545954831556441,0.061236357618003105,-0.2177731406531656,0.009159426272518013,0.15521964234546773,-0.20913208063402186,-0.17550695641312306,0.021048127771443263
0.6617480071952279,-0.07177076623052427,0.12400379059380104,-100.5938931699179,67.02873770133503,7.72908714620028,-4.377381626757769,-3.442988968192215,0.11129465104656795,-108.00649049603054,60.24487480908879,7.07988353523074,0.261467734326327,0.03962697704637567,0.23535882971254168,-86.9340133470973,64.35267222916498,7.38721928531932,-177.26690435627188,39.81949457439157,6.532118782554495,35.97133806013732,-6.836726818499147,-4.977327994462687,1.4977947075272653,-2.1637784131119666,-0.08548019205117095,-1.6833704325135606,-0.8687347570791761,0.3337898678093514,1.1126980524107826,-1.668155567010642,-0.3600452475753418,-0.02219188722085614,-1.1094400690666761,0.31576922913412003,0.2100049240505104,-0.11437841572937606,-0.10312142180750992,0.0809127448766346,-0.18402951983770283,0.1084904667198686
0.7626393987496313,-3.959573234006245,1.4166934453558266,-100.98591847635896,64.60542998538686,6.78366754260513,-0.7841321577746249,-7.771728912122448,4.195654332822224,-108.29561999423895,68.611896803103,8.077439029308138,0.14352685724858874,-0.8775309447788735,0.4313929239766769,-82.63473211320454,60.740843758050765,6.048482438546157,-164.946391375059,52.59837033035253,15.159494665618023,19.606109590164433,-1.2383188646573564,4.6618133126801355,-3.494634852836756,2.123723940052621,0.6834957639788056,-5.703269676452932,-3.9063112106307285,1.5282273148701304,-0.5153796941440547,1.0346965160599702,0.051372508345814555,-1.3038936113737871,-1.6143902254516986,0.018005315438551803,0.04799049452559992,0.21145483442947607,0.03224277169856101,-0.2647620299388937,-0.16474365626552637,-0.03845777586476695
-0.9820443765686323,-4.670411188530086,0.8332067523779013,-98.23407895111224,60.3306371610116,5.294584264700009,-7.516680945498143,-8.06547131593658,0.5839826478655056,-115.65554822558667,65.37978693502815,4.921449348790346,-0.056142387657703255,-1.020163063078833,-0.08008231148719086,-76.99424815477462,56.183030762277006,4.724095427165326,-180.95299792208138,54.643132167640694,7.599200713735234,21.54568358980287,-3.187278544595723,-6.04729866979398,2.7020366300967074,-1.65431303278925,-0.4530704942720974,-2.9257558703526083,0.6092297540402098,-0.15144370859842657,1.137978832791202,-2.033366675956708,-0.15118601958357086,-0.6740439431813421,-0.5458694602390617,0.09099191927342584,0.1490575523008952,-0.31565445187563435,-0.061827168035135716,-0.16660831516772687,-0.005772298728297162,-0.0011055650856455536
0.7555778964902575,2.150376544975317,0.06207399154251721,-90.32700066255687,55.066907805572356,4.492731658490617,-2.91265879944684,-1.7263598290108255,1.6048014857274782,-107.66407665004915,62.41221853426338,5.715589345701806,-0.18388554070204766,3.5391999134533076,-0.2735697797798305,-69.94562026060996,51.38891453061205,3.719653884416521,-160.426279025351,59.42287850991517,11.764151857236133,30.03154806902378,-1.8106462524999813,1.8284546247352105,0.08947252341364952,4.046107098010562,0.399111334342987,-5.125990709333286,2.5417565150461363,-0.6726166728966901,0.9723668176036404,0.6134378633606671,0.21183249684957847,-0.6390181534833433,-0.21834023321582047,-0.1762367707987923,0.2588230580094572,0.25718094067285335,0.06300987899066787,0.040326532897212636,-0.2464926997516112,0.09815542311110367
1.0837802496016846,8.13073004843884,-1.5373253958071873,-85.13382832002604,50.14222761395102,3.4047194154027367,0.772682719668535,10.879816268143452,-2.96475456254923,-105.47599183645063,50.86077286530822,4.412474699465822,-0.5012610498297955,7.407736827213215,-1.1013987184249427,-64.0337113863632,47.67789218362124,2.6790445385063255,-145.4157550564999,54.102185056370104,2.045939254807716,25.15905108188657,-8.469962564118806,-4.240243277844947,0.6486457076839168,-3.535950337618844,-0.4283435467064162,-1.1721612051846504,-3.305242993661086,0.956894688271596,0.21633326981838177,-1.9146968776202444,-0.331700705369486,0.10721759431066749,-1.8640683511516318,0.35913454328106253,-0.05054010055597852,-0.31579969342311454,-0.09460385446037264,-0.04217507527174397,-0.19107100169226596,0.051695255316416056
1.5984600718793986,3.3608937438176363,-0.02684527149376311,-80.92317961690661,46.52382495603365,2.0339943882979896,-1.3141181677520948,-3.2847961172073643,1.4249800883341364,-93.64563161386621,48.11597484100808,1.7557065843485977,-0.3223572959503628,11.236263372243405,-1.7328356473350517,-61.35936826180802,44.86258778648317,1.6662807832834783,-134.8501731966253,43.98153993430326,5.27532625807274,23.870226234042192,-1.8267737291683832,0.2682359518076749,0.549698266644638,4.23054006477926,0.928558671363171,-5.334860652274072,-1.5002560392998956,-0.19371151185774707,1.5572251187163844,0.02909132841739198,0.6070282983990083,-1.0286422617371362,-1.8007264565602181,-0.30103028862185105,0.34869522007750464,0.11584773264765227,0.14342984702560307,-0.19650162458986734,-0.2825516981631478,-0.05707058543344726
1.9666989686001375,6.7272867739273625,-0.8969227741808217,-80.80138023844334,43.937680174661814,1.1379368341805483,2.762601065464172,4.533902316547943,0.8609182098407271,-94.01238640389265,43.20694115917597,0.3693607006918107,-0.3255645696041028,15.239418300573401,-2.834641550546341,-59.888332827996905,44.0038130459411,1.0114587131460742,-118.17251460956832,42.835214853242974,-0.06958481524134297,16.62026183962649,-12.383749690085644,-7.169362635656058,0.8681917862205805,-4.201478375631023,-0.25960276431503765,-2.7940113341099684,4.177432773979373,-1.0584425517919973,1.16240430769502,-1.8376069127329306,-0.17140936288139308,-0.0018664665658129267,-0.20761335807348125,0.0714575248996769,0.3138960444621255,-0.20298691411908568,0.015733859745756612,-0.0743150024214803,-0.04559908559269195,-0.017783437736180026
0.06530798149005088,7.148190304453844,-1.4204935179356097,-76.6559887893143,42.03439189167149,1.3947496099041679,-4.623250816020939,0.18416666576124938,-2.489196670848279,-85.5064794526242,39.343041608326125,3.517085772064644,0.26398868190551594,18.5180520901265,-3.5662781465588607,-60.46342165559184,44.5734179381464,1.2782322620299582,-121.10685222693061,40.060058112722054,0.45756671096574547,10.2553947602497,-8.260456607231115,3.124063359139491,0.11270736091647107,2.621545982077803,-0.08148641583548503,-3.9222908432953054,-3.798677212190106,0.32981173167548805,0.13277300696420272,-0.6308908990468597,-0.0436576995863735,-0.6310118892391412,-2.2061114839704308,-0.2500519311794064,-0.10958232114968328,-0.04223837933941397,-0.028549709088474092,-0.11402703975055066,-0.20300205274725136,-0.02360224179121177
2.729690433242268,9.679098172250828,-1.6194352329485493,-80.91690130834371,43.20224805793044,0.7303420887424305,-0.577092771303775,1.7063563457378537,2.4851310761743775,-93.4111178503017,40.76055420791356,-1.3139817137575052,0.9601952067703607,20.11629713454311,-3.9508228040782423,-60.392513932593324,44.92467952620117,1.0680562099496052,-117.38952004462135,40.76825240686255,1.1324366164246722,18.60752072538717,-1.6552490182798525,-1.7776216344496272,3.9897775029729705,-1.253109823483969,0.8021293853969151,-3.2937361796727433,0.5778166337533425,-0.563004234740956,2.7509898505237613,-2.420935338019344,0.6662440636556723,-0.13817442076753678,-1.7923559386675811,-0.09444002626626594,0.45685419244877185,-0.2782778540552385,0.06166686531766262,-0.07233686850156634,-0.41883737995601594,0.003088135595818035
1.2576503620090347,9.685376266576773,-2.5573087422780034,-82.13615099650102,41.98589950354924,1.0129263799610302,-8.212836066165892,3.069425151779393,-2.095367664558959,-94.03965261127613,37.58105245458093,0.48935017176280393,0.934872138004465,19.942233154502123,-4.368955784423986,-60.524387650940305,45.698261964438444,1.3547769219972081,-128.72364280147445,39.85298256710452,-3.665581553660498,5.138689609693348,-20.191509798855595,5.243296591654422,-0.4163931574465804,2.9472579635684917,0.028373383805871996,-4.260312198103214,0.17216867794623272,-0.7749600660821894,0.5728470281256964,0.23752248313659186,-0.0317085740980767,-0.5152952050979154,-0.7166188657209274,-0.6079077719275703,0.07615411006464115,0.24383163819465134,0.051557491255486185,-0.09778449542977875,0.11779412824187593,-0.14446279007236498
2.3106359740962796,8.745378640810276,-2.796367723694444,-80.1937801419605,40.602174869854885,1.1944354833956503,-3.4083409979707997,2.6358766777807063,-1.8046361275724931,-93.45627562684943,36.43003176821768,1.0675734159389507,0.33441492882714524,18.65235844217118,-4.401208054337085,-60.87044285214921,46.02212202190957,1.6891803599412787,-109.54779448163873,39.14628405636005,-3.9351935372990345,13.100722495995274,11.467638601310819,-8.096657493247067,4.869958882609553,-5.146364266222783,0.08686837551072013,-1.0323387415855412,0.029074497878293713,-0.39577550014625096,1.716872624357964,-2.1100262800731344,0.32579408273737887,0.46054792978375514,-1.9744961862269648,0.2923761956236205,0.24287966656639415,-0.26382660659648205,0.02594076980190646,-0.03406878579222575,-0.34110355788788005,-0.0051446520473020715
-0.6548451474151196,7.783889126102535,-2.4947220102781946,-84.29576342746277,42.06385370130454,2.3123035594378187,-5.335243235855533,1.8989035388488946,-0.9414408629685695,-110.68861762261596,40.82090260406154,1.5372358393670633,-0.8462488261078767,16.377730142722292,-3.971027226398383,-60.42511046572756,45.65383245019243,2.379695827378553,-128.0972446966672,46.96307437238586,-0.8644767284006579,6.419305499424807,-6.605801781956982,-0.07890914112394419,0.7012351114388077,0.18590809378514067,0.22457973119066318,-4.612417974798683,0.09033052546194587,-0.696266172395561,1.5692978572468212,-2.06732019768417,0.12433450621501639,-0.6092667757476907,-0.6317799698996094,-0.7966430218831101,0.2185893157570392,-0.22181528627231262,0.07345321480747,-0.054952345478520445,-0.07784521617984826,-0.02564263156738369
-4.191822758924967,6.35668607681585,-2.3643922766652667,-80.04702893821369,41.404200125889794,2.9742476166754694,-9.096129429460595,3.07984529883115,-2.369096826269515,-94.54776343701285,56.270107426546154,6.216141794652425,-2.2057039255614197,14.834751776681209,-3.7228343361281513,-60.91098726388482,45.36912467974664,2.9198967273848018,-108.01721274008024,72.42385417680072,3.835146562073513,-21.816637811670763,-3.1574770161314696,-0.9034344646014008,2.9864999499487452,-2.356342780661713,-0.08377016855818072,-3.497697805897472,2.378515017062717,-1.4647540229078255,1.2549608644907282,-1.2012245748998431,-0.04063548080231583,-0.6645021778236646,0.26073868411413476,-0.9459594577086272,0.17436542840518832,-0.09959367878299674,-0.10175597649757623,-0.2004125515301307,0.25880764078386453,-0.30434835095474155
-8.84822,5.4994,-1.40674,-79.24544,41.72361,3.5332,-20.86672,0.62381,1.57749,-98.95581,56.14066,4.96982,-2.95695,14.16443,-3.29842,-61.28183,45.00422,3.51043,-120.59604,62.9081,6.7902,15.82008,-5.06883,1.52298,2.28863,1.57212,0.76094,-2.60257,-2.28271,0.12795,1.59607,-1.49238,0.63424,0.14335,-2.19205,-0.1395,0.19583,-0.09314,0.1738,0.0199,-0.37866,0.08281
,,,,,,,,,,,,,,,,,,,,,,,,,,,,,,,,,,,,,,,,,
,,,,,,,,,,,,,,,,,,,,,,,,,,,,,,,,,,,,,,,,,
,,,,,,,,,,,,,,,,,,,,,,,,,,,,,,,,,,,,,,,,,
,,,,,,,,,,,,,,,,,,,,,,,,,,,,,,,,,,,,,,,,,
,,,,,,,,,,,,,,,,,,,,,,,,,,,,,,,,,,,,,,,,,
,,,,,,,,,,,,,,,,,,,,,,,,,,,,,,,,,,,,,,,,,
,,,,,,,,,,,,,,,,,,,,,,,,,,,,,,,,,,,,,,,,,
,,,,,,,,,,,,,,,,,,,,,,,,,,,,,,,,,,,,,,,,,
,,,,,,,,,,,,,,,,,,,,,,,,,,,,,,,,,,,,,,,,,
,,,,,,,,,,,,,,,,,,,,,,,,,,,,,,,,,,,,,,,,,
,,,,,,,,,,,,,,,,,,,,,,,,,,,,,,,,,,,,,,,,,
,,,,,,,,,,,,,,,,,,,,,,,,,,,,,,,,,,,,,,,,,
,,,,,,,,,,,,,,,,,,,,,,,,,,,,,,,,,,,,,,,,,
,,,,,,,,,,,,,,,,,,,,,,,,,,,,,,,,,,,,,,,,,
,,,,,,,,,,,,,,,,,,,,,,,,,,,,,,,,,,,,,,,,,
,,,,,,,,,,,,,,,,,,,,,,,,,,,,,,,,,,,,,,,,,
,,,,,,,,,,,,,,,,,,,,,,,,,,,,,,,,,,,,,,,,,
,,,,,,,,,,,,,,,,,,,,,,,,,,,,,,,,,,,,,,,,,
,,,,,,,,,,,,,,,,,,,,,,,,,,,,,,,,,,,,,,,,,
,,,,,,,,,,,,,,,,,,,,,,,,,,,,,,,,,,,,,,,,,
,,,,,,,,,,,,,,,,,,,,,,,,,,,,,,,,,,,,,,,,,
,,,,,,,,,,,,,,,,,,,,,,,,,,,,,,,,,,,,,,,,,
,,,,,,,,,,,,,,,,,,,,,,,,,,,,,,,,,,,,,,,,,
,,,,,,,,,,,,,,,,,,,,,,,,,,,,,,,,,,,,,,,,,
,,,,,,,,,,,,,,,,,,,,,,,,,,,,,,,,,,,,,,,,,
,,,,,,,,,,,,,,,,,,,,,,,,,,,,,,,,,,,,,,,,,
,,,,,,,,,,,,,,,,,,,,,,,,,,,,,,,,,,,,,,,,,
,,,,,,,,,,,,,,,,,,,,,,,,,,,,,,,,,,,,,,,,,
,,,,,,,,,,,,,,,,,,,,,,,,,,,,,,,,,,,,,,,,,
,,,,,,,,,,,,,,,,,,,,,,,,,,,,,,,,,,,,,,,,,
,,,,,,,,,,,,,,,,,,,,,,,,,,,,,,,,,,,,,,,,,
,,,,,,,,,,,,,,,,,,,,,,,,,,,,,,,,,,,,,,,,,
,,,,,,,,,,,,,,,,,,,,,,,,,,,,,,,,,,,,,,,,,
,,,,,,,,,,,,,,,,,,,,,,,,,,,,,,,,,,,,,,,,,
,,,,,,,,,,,,,,,,,,,,,,,,,,,,,,,,,,,,,,,,,
,,,,,,,,,,,,,,,,,,,,,,,,,,,,,,,,,,,,,,,,,
,,,,,,,,,,,,,,,,,,,,,,,,,,,,,,,,,,,,,,,,,
,,,,,,,,,,,,,,,,,,,,,,,,,,,,,,,,,,,,,,,,,
,,,,,,,,,,,,,,,,,,,,,,,,,,,,,,,,,,,,,,,,,
,,,,,,,,,,,,,,,,,,,,,,,,,,,,,,,,,,,,,,,,,
,,,,,,,,,,,,,,,,,,,,,,,,,,,,,,,,,,,,,,,,,
,,,,,,,,,,,,,,,,,,,,,,,,,,,,,,,,,,,,,,,,,
,,,,,,,,,,,,,,,,,,,,,,,,,,,,,,,,,,,,,,,,,
,,,,,,,,,,,,,,,,,,,,,,,,,,,,,,,,,,,,,,,,,
,,,,,,,,,,,,,,,,,,,,,,,,,,,,,,,,,,,,,,,,,
,,,,,,,,,,,,,,,,,,,,,,,,,,,,,,,,,,,,,,,,,
,,,,,,,,,,,,,,,,,,,,,,,,,,,,,,,,,,,,,,,,,
,,,,,,,,,,,,,,,,,,,,,,,,,,,,,,,,,,,,,,,,,
,,,,,,,,,,,,,,,,,,,,,,,,,,,,,,,,,,,,,,,,,
,,,,,,,,,,,,,,,,,,,,,,,,,,,,,,,,,,,,,,,,,
,,,,,,,,,,,,,,,,,,,,,,,,,,,,,,,,,,,,,,,,,
,,,,,,,,,,,,,,,,,,,,,,,,,,,,,,,,,,,,,,,,,
,,,,,,,,,,,,,,,,,,,,,,,,,,,,,,,,,,,,,,,,,
,,,,,,,,,,,,,,,,,,,,,,,,,,,,,,,,,,,,,,,,,
,,,,,,,,,,,,,,,,,,,,,,,,,,,,,,,,,,,,,,,,,
,,,,,,,,,,,,,,,,,,,,,,,,,,,,,,,,,,,,,,,,,
,,,,,,,,,,,,,,,,,,,,,,,,,,,,,,,,,,,,,,,,,
,,,,,,,,,,,,,,,,,,,,,,,,,,,,,,,,,,,,,,,,,
,,,,,,,,,,,,,,,,,,,,,,,,,,,,,,,,,,,,,,,,,
,,,,,,,,,,,,,,,,,,,,,,,,,,,,,,,,,,,,,,,,,
,,,,,,,,,,,,,,,,,,,,,,,,,,,,,,,,,,,,,,,,,
,,,,,,,,,,,,,,,,,,,,,,,,,,,,,,,,,,,,,,,,,
