PaulMeinheit/Bachelor_Muay_Thai/processed_Data/N2/roundhouse/scaled/JointMoments/scaled3.csv
R_KNEE_MOMENT,R_KNEE_MOMENT,R_KNEE_MOMENT,L_KNEE_MOMENT,L_KNEE_MOMENT,L_KNEE_MOMENT,R_HIP_MOMENT,R_HIP_MOMENT,R_HIP_MOMENT,L_HIP_MOMENT,L_HIP_MOMENT,L_HIP_MOMENT,R_ANKLE_MOMENT,R_ANKLE_MOMENT,R_ANKLE_MOMENT,L_ANKLE_MOMENT,L_ANKLE_MOMENT,L_ANKLE_MOMENT,WAIST_JOINT_MOMENT,WAIST_JOINT_MOMENT,WAIST_JOINT_MOMENT,NECK_MOMENT,NECK_MOMENT,NECK_MOMENT,L_SHOULDER_MOMENT,L_SHOULDER_MOMENT,L_SHOULDER_MOMENT,R_SHOULDER_MOMENT,R_SHOULDER_MOMENT,R_SHOULDER_MOMENT,L_ELBOW_MOMENT,L_ELBOW_MOMENT,L_ELBOW_MOMENT,R_ELBOW_MOMENT,R_ELBOW_MOMENT,R_ELBOW_MOMENT,L_WRIST_MOMENT,L_WRIST_MOMENT,L_WRIST_MOMENT,R_WRIST_MOMENT,R_WRIST_MOMENT,R_WRIST_MOMENT
X,Y,Z,X,Y,Z,X,Y,Z,X,Y,Z,X,Y,Z,X,Y,Z,X,Y,Z,X,Y,Z,X,Y,Z,X,Y,Z,X,Y,Z,X,Y,Z,X,Y,Z,X,Y,Z
5.112210000000001,9.036490000000002,-1.9582700000000004,-20.725730000000002,5.9315500000000005,4.589720000000002,12.484850000000002,5.382670000000002,-0.6096700000000002,-44.36177000000001,29.182990000000004,6.6742300000000006,0.45782000000000006,12.063630000000002,-2.1327000000000007,-37.1203,50.59238000000001,7.106210000000001,-76.41155,31.291300000000007,6.799170000000001,30.46345000000001,-16.947540000000004,-8.27801,1.8635100000000002,-3.9141500000000002,-1.2084600000000003,-5.025920000000001,1.6825200000000002,-0.08270000000000001,1.6674100000000003,-2.4356,-1.0608900000000003,-0.9361700000000002,-1.4294700000000002,-0.5523700000000002,0.40861000000000003,-0.32016,-0.20929000000000003,-0.18464000000000003,-0.16863,-0.14983000000000005
9.642018702866391,10.0364621770826,-2.3841518122564245,-24.81043316575913,-0.4761384661772999,4.772654011470896,27.020924581961893,8.667458792419861,-2.3898051957252435,-54.99191254621162,31.169718328506278,5.633032531513618,0.7190673244985009,19.271935418333772,-3.595927762453404,-39.586187721407875,48.37045182156814,7.778262821032131,-63.700735075447525,46.008383444320174,4.754198245231741,3.0987782777646165,-22.317227193174766,6.1757120300078645,1.0202870453312443,0.5338996250863105,0.18772832603501038,-5.153217113569924,1.226667264034637,0.21061925694254158,0.24285098615070463,-1.6243085097207184,-0.016688829819670244,-0.8487518149381161,-1.6050277650630203,-0.3071200624720014,-0.03846880457706379,-0.042599136533852326,-0.10352708051626573,-0.04899407559335489,-0.23701716048679614,0.06875167194493313
9.179477211185082,13.975522143698578,-2.8592772630845933,-26.788218434598843,-5.809125716392846,4.484936007531482,20.897918190340015,8.202818797651652,-0.6035405674191302,-54.15088929371413,19.59865735310125,5.9528706150283535,1.2590841730702416,26.506298013595696,-5.216895231586492,-41.749753063107704,46.138870783687224,7.998301283398484,-62.46687094305753,27.68201937020956,5.784431441066495,18.887610511990705,-4.132351316749333,-3.1819511729145056,1.7349091255814486,-0.2930842733767667,1.805925353912805,-3.008602857156095,3.1347375415161043,-1.00039888445712,0.2296935629428161,-2.5699026361048785,1.5366908969853603,-0.20514914962840386,-0.7275744331537368,-0.07949364916325613,0.017389867580159243,-0.2878707422797541,0.32719438912051396,-0.04312989387921819,-0.10161232617933037,-0.02890573199180456
8.15957797243726,17.746481585243483,-3.981711266387679,-27.849469673009008,-9.609094646598667,3.382448257443961,12.390567152732569,7.188591359237843,-1.8740000944861024,-52.9976259076944,5.949760698154142,3.9695902007721,2.160172149138535,32.812524973573744,-6.999919461098418,-43.84054951187933,44.27080033480177,7.643914968917144,-57.17727843968838,10.863994948926331,0.5841271581166718,27.16958598645792,-8.98949742100664,-8.856441511357032,1.3467486243000686,-1.6819409415882183,-2.1367575151287204,-5.791796074693922,1.4334337818788971,0.2968467145692221,1.448981645287756,-0.4161140503617482,-1.770135038900537,-0.9795557284099315,-2.1361246956384536,-0.28155340157340636,0.27096150605275826,-0.1046026118181297,-0.24547145894787079,-0.24653559342512663,-0.2601903571815902,-0.12621978686650237
10.33643452238905,22.18816175808262,-5.1906359654858285,-22.490712520406763,-15.623108065565559,0.46965673747388204,14.039862538503066,25.802583430676634,-4.534800205524098,-26.26310714313592,-5.683747278026149,-0.7078314812660593,3.77302779552461,37.806659171439755,-8.383876857290728,-44.0883399812333,42.55623706125694,7.210962696191016,-13.586563143796564,21.266956308400943,-9.33313239132323,-1.3447962310883654,-32.418523431031176,16.653273090263163,2.469989210310743,0.6565992082172477,1.4017423484863314,-3.598406006700294,1.4420229356898573,-0.6325015667068259,0.6214777289240525,-2.9535020201619386,0.8427241698265812,-0.6619863091629059,-1.572027672512966,-0.15538230914464296,0.06638874174850555,-0.2272188076078812,0.10587005756560648,-0.10573928219966892,-0.1616589719738098,-0.02125385069133467
9.417628200428844,21.26276548175302,-5.0899897379605585,-16.077217036373522,-20.09407551913363,-0.8080018850525766,-0.3024267608159002,19.685144390897868,-3.291022890598224,-17.19793197978329,-19.95290985133825,-0.9723631714071396,5.12483714857275,40.64585143137942,-9.306435977434704,-42.92191505583267,41.09215845802048,7.245049502085438,-18.465839753638395,-0.16076204636815483,-7.718492018586196,7.816990127659886,-16.91906131987736,8.890728459127057,3.804648465970751,0.26124010941080833,0.6154714172747267,-2.227246427772768,-1.0529595070437872,1.8277464393965837,0.5136485531074235,-1.942744729587682,0.28645637184158934,0.11032027830273773,-1.4587648154492738,0.6445591833634742,-0.011546111982731352,0.012747014348023621,-0.02461772547274719,0.06912342349000022,-0.043368968819193277,0.14018590284754562
8.241716773198918,20.46310861261919,-6.179564159032562,-4.525263432786471,-21.72453224608401,-1.7212925753145483,-1.2944417679565385,12.741011382343807,-5.955180732050397,8.725795695255405,-29.341746782647782,0.5400496856351426,5.225066482514049,42.48607737804092,-10.608673139205827,-41.326849645800465,40.363217157100564,8.273727071561396,18.392647676300445,-19.97166499178416,-9.787536370590068,12.798408821610543,-15.101313957273499,-1.0186926219293762,1.39910291548494,-2.0962257972689518,-0.16458688917249664,-3.8578789806524183,1.8834589041924654,0.023909412500447955,0.6444027701181968,-1.3094549471254324,-0.06138132705645848,-0.14690789479077182,-2.1881221764226733,0.6240123352043854,0.18887890394561077,-0.1980104167929739,-0.03973621986394469,-0.03568901335230502,-0.27696206437821835,0.13183354721059826
7.196080249491195,19.62824601914759,-7.198147404996286,-0.7853224616014188,-15.350270336133587,-0.6802264411112541,8.186740971222836,21.749249666453384,-8.860536362343444,10.511356688335907,-18.13322996395445,0.8884254551054814,3.5236969713018333,42.93442453643144,-11.706932913574025,-39.72740976633336,39.928147481428674,9.58848851959137,40.7136446332242,3.737566597196719,-14.09369634985531,5.351557286635985,-14.558809331373782,14.56712201452187,3.941571751480704,-0.28446115534244115,1.201704975248974,-2.2824737129041313,-1.0489926808720633,1.98978239366572,0.4886470531973767,-2.4702232713809247,0.7836496863080737,0.2699746979306793,-1.990843632000605,0.8764056236401857,0.07274445469312718,-0.2671338694005557,0.15911260973620694,-0.0039933890110864165,-0.22423644520505506,0.09563099949552965
2.6069159203064403,20.325615311465743,-7.882127648615943,5.915763123904307,-11.148029631747276,0.09989059370359658,8.555000429822057,26.544640488649094,-8.43314104157576,25.103322819805573,-13.12851506309783,3.1216493425277143,2.0124734469194046,41.80991933086057,-12.502920598494704,-39.336299830255705,39.83100629436902,11.08732552930426,58.30040384421492,14.451499671846058,-13.084747267198265,-14.182049465577578,-12.770289147616381,7.451754000288343,0.4611541778691117,-0.6322163961700253,0.8320712975495976,-2.7206312124225285,-0.6907104412548192,1.1620172874452122,0.6573799391800951,-2.4040068420919383,0.4853316720764925,-0.3444856181262648,-1.4110361055417473,0.23016507428656158,-0.06580667655398874,-0.33780862108606713,0.3064579388404148,-0.11201171003477006,-0.13645757946826298,-0.005258300015894211
-3.283453416458901,19.722621714542676,-8.068861751284537,2.398393306547809,0.5723381269478937,2.368234599143389,-5.062299147466507,24.830581644720247,-7.952145226296334,20.53874599756755,15.817140165581838,8.52681740049257,1.5176890204266842,40.98227810845396,-13.25968362517047,-39.98909932022341,41.016750712098045,12.322756719153173,37.702294781688316,48.02226465746481,-1.2945933003236194,2.9700930305925457,-19.16574453229729,6.991564309356082,4.604252308546612,0.5297077569365541,1.1639870799222407,0.5072243555941448,-0.10581796067934343,-0.11045784075952347,-0.35405291296729524,-0.9709102228297306,0.7884086591656323,0.6943496551609907,-1.945056368612857,1.2274661989185343,0.04989393671235722,0.1318308756656284,-0.1255345227743924,0.07060449339859895,-0.2911950238995533,0.2151256422738973
-6.743020701729265,18.488904356534665,-8.104927908327317,-4.610831413094305,6.650056918348268,4.243833072711365,-20.549647374906314,20.013455606755194,-7.93809617975507,3.4211700256431787,21.93036534462859,10.721907728339831,1.5572878140349617,40.23302884318726,-13.637717478793892,-41.8415064607936,42.2778212923785,12.562527545942853,-6.365268202146046,48.26212002233846,1.5862508217500797,4.002849992767111,-23.47274947559774,8.159494832698375,3.0662687425953745,-1.9720307180408119,-2.358655075914851,-0.18748143939746167,-1.688018451985765,2.2956802060241714,1.4656996544063643,0.1502151348745363,-1.6586086787159466,0.8649328023428247,-1.7408328086977125,1.5737441812581847,0.28835780869973066,0.17722181659557296,-0.40421545543795223,0.12682399171402958,-0.1361641439754524,0.30670805364918385
-7.239272820703672,20.037673204627296,-8.926947349947525,-9.798060318444431,11.68107128781132,5.241183691509168,-20.78116799035452,23.13801578240246,-10.177441107601105,1.388111568014052,24.132288707118768,11.767431211724809,1.5634710838707802,39.65970789667068,-13.843491152270158,-43.52516002025049,43.42098901237709,12.468750875512583,-2.4648073456071726,48.51337186405198,-2.7982673842445513,-18.997675813984415,4.023328916807605,12.369162435611912,2.6376933066627837,-2.1582440096805935,1.161455134240764,-0.8736522385395364,-1.2756830966790242,1.4751300167147392,-0.29307929199155675,-1.6349104872436948,1.2040775690122945,0.3589137573268456,-1.2831294627883867,0.5702670177340895,0.14821086029519123,-0.2435474399106855,0.1472756258665829,-0.04735868799055688,-0.08706000199572884,-0.047357590611438405
-6.816584463004595,22.500072959086143,-9.315381307680626,-16.30648614966661,19.599094959811378,6.479173109850762,-26.616706897580944,21.237935600192433,-6.9105212737144495,-13.971049096712118,40.84040165314397,13.551990774661258,1.716747263593339,39.28388524392858,-13.909132257987412,-44.06218933555158,43.066032017633226,11.98404193016965,-28.32936228815101,63.02060812432644,6.099625381700792,-8.507228301993804,-13.660196503795518,11.867838820181891,4.955701045065889,0.3546766577239556,0.7949158195643427,-1.0298904157128983,-0.09282607665196001,0.0683917388246974,-0.31275230148730615,-0.6349074372163537,0.6060477911534764,0.24736409518608043,-1.140995299523099,0.32249823678162615,-0.007096159622508851,0.1100641626610812,-0.03863219035489342,0.09410717925137806,-0.1634030144779731,0.12654520991712753
-6.267092316278374,23.596726469669473,-10.483707214227135,-20.549845738475028,17.721619655998733,6.3518661486041665,-14.22084800187062,29.130261610322965,-14.050580483509233,-32.39706990700865,38.71578526910787,13.747978474860675,1.3967361795132478,39.250039468640665,-14.049493636581898,-43.65579214052894,42.104514788573766,10.732873981277182,-34.11543443499865,78.589378246305,-2.8283746062311645,-18.086218600476045,-15.198906012329962,15.505728130246967,4.057341708917466,0.8359291124433957,1.4891079369560432,1.7995324753672262,-3.7519457156469214,2.8947500660586276,-1.0611639305196245,-0.9305824628019879,1.2766850379604557,1.074695695110271,-1.6376648551731612,1.4835213393943028,-0.31760409640143045,-0.16063767853469443,0.3337244154615236,0.15819479124872954,-0.13991477507357125,0.30974034032827447
-7.701750287570128,26.52348509809272,-10.687010865944101,-24.059551476666908,22.08870712961026,5.918362465486684,-17.571306205974807,25.89078117323777,-9.191402420708789,-36.956218638658314,42.31894972821745,9.810175947385655,1.112029062127885,38.92589937602117,-14.201144245100522,-42.530101528867434,41.004451330212824,9.423241507774712,-42.973509903551914,72.29097499580519,-3.0943532958301194,4.614281437043297,-25.480835487087752,13.063374964751342,3.534622057711866,-0.6656818825116865,1.1046608583195006,5.415605515555544,-7.293567585542828,5.48896599652178,-0.1943209155632901,-1.7080155848987606,0.7693808200511862,2.4411561805056636,-2.7007940805127286,2.7963836281699317,0.08817481384879212,-0.1988757772021066,0.029620370563817822,0.2536120805891792,-0.294201703498596,0.43737714962703983
-7.981920230898678,25.70150370145018,-10.816467745024205,-23.90415770365582,21.34794392006284,5.3836225606257715,-20.132250508012895,23.97692887249086,-8.258646115081946,-50.18444492189782,47.090906072399676,9.799741169759853,0.6245291379611024,38.484332417403834,-14.486015167329313,-41.68315077965955,39.80112599410787,8.351381108870145,-64.9540122116798,81.60967632861532,0.6353647699997118,-3.966977150451092,-18.67274220168625,26.731365437930627,3.980868012936294,4.095968494508125,3.028180455716562,3.7692860429485178,-3.081823962967413,2.3744500337390013,-1.2896390497258499,-0.9180482972348581,1.4258139506843808,1.3806530691629422,-1.0620184404211723,1.5310765730438067,-0.18663345553943086,0.07103873043014497,0.08343558622475095,0.0877763805603146,-0.08353881020969335,0.1870549218592874
-11.485317826758479,24.999022695380567,-11.29914775740242,-21.323009920351346,19.31883548650554,4.740068047308194,-31.494815798441977,23.997243300772933,-12.816658711744195,-46.06722361551753,38.5768074842294,9.951545609950672,0.6384688824289407,38.75751799814572,-14.996538549755892,-41.3189773868337,39.54027178730655,7.317759101302595,-67.92503910040567,69.27698407816096,-8.461677188896205,-21.917600475212897,-13.198047309411116,11.933235024468905,-0.39991731164466543,1.5495517351633128,0.053481169557364074,3.9784492553996653,-2.819393188574336,1.8701551165326231,-1.557824375083893,2.1799951424996826,0.5069009040685877,1.614718991943827,-1.469108030619684,1.4174074340489737,-0.41867926027455504,0.39518073873482806,0.1248067589748367,0.1455744746650414,-0.23258092805500521,0.1831404795089275
-11.161483332890516,28.45761058747118,-11.795422770711271,-24.468837903507747,13.813999962499006,3.5948751938914945,-29.765215079277603,25.77465180177623,-7.985739353017877,-50.22547820269162,21.227436656837057,-0.5358229867018999,0.37727527719432,38.31908392746427,-15.342139626829322,-42.12392011664324,40.11224063188044,6.165578308176034,-61.534346938412355,43.91786379224361,-19.329023921566773,-20.376581284174705,2.577147834774445,16.15933815086889,4.07042440092321,2.0801830670498958,2.0981660543164313,9.924115264218667,-4.613511592444085,4.32385962869012,-2.1469974716382323,0.1444457470388861,1.932859689070908,4.115242367776555,-1.577538617866923,3.460130168045798,-0.4749959142030979,-0.0037376082852762726,0.37804074784385544,0.5229064683567881,-0.01106552940400858,0.6022720819391785
-12.174522305039472,28.59794490616597,-12.473066802297613,-22.719522238939224,15.919228206195731,3.539988530728932,-33.69019723554711,32.11156162784741,-12.849299851132134,-72.20108893866148,38.075462806567636,3.3801598296500455,0.16432956832966247,38.381349180427314,-15.6808406568531,-44.43904466652609,40.74333295733094,5.463115665185642,-109.91424204547533,82.19534378377767,-16.468738606705994,-29.903913056822745,-45.155773057883515,10.846468396700446,-4.025428915610569,2.5356007595335206,1.4988399674448176,1.9418830861852587,3.0271154252885655,-1.9188804967556292,-2.5751886355939266,2.382405189293948,1.0991790650768003,1.10296842675156,-0.5189623250528069,0.8813095800205797,-0.4515377123623737,0.3814356228036063,-0.03168659244838845,0.0005960905213138147,-0.20450898150375202,0.017960108450434064
-10.335264771183232,29.40872778642974,-12.8142065377395,-18.49187565532857,13.839122344383924,2.6860091300988587,-14.321242532534445,30.038776972911062,-12.895442449379834,-61.64686226526727,31.80624994666349,1.309349917857583,-0.22702788067913515,38.136369167531065,-15.69258658467361,-47.575010907978395,41.34060099986206,4.507053485920833,-62.89495915513804,65.99665154385849,-21.852072112908637,-29.273582797176733,-31.11080529181324,35.512373767501096,-2.7482610456683507,12.442404707457259,8.49012757878535,8.802916596410794,-5.738217209540268,3.8783330639229625,-5.121213917411916,3.033021467729551,4.684510619878467,4.869510170747556,-4.244367492237559,3.179610157246033,-0.9984813025649404,0.6302957077175195,0.3471391464738948,0.4631228668058639,-0.6380989399632323,0.5180435728128719
-12.19249799383899,32.11826277630896,-13.644029766942916,-19.870699284771415,13.659592287666184,2.699648910560537,-33.81677408180651,35.283212757299474,-13.451009519669421,-86.50076274560017,39.179982976012845,-0.4716592957047465,-0.47178050816074113,38.550451860031764,-16.236153114750028,-50.59245064947459,41.830382465355974,3.915385460577987,-123.63771713345882,79.33249929787262,-28.962406816496923,-6.245462719622591,-17.978696321071645,26.53529683976973,-7.453011429841219,12.487328840156579,11.872629669124695,10.518069852649385,-4.648992509358541,3.6325485524203387,-4.514612158202378,1.7220188207223077,6.949644749535607,6.3701668089354495,-4.236980252924643,3.686461502042017,-1.1792024663329084,0.17285397199872052,1.6580231744363905,0.7456799446926994,-0.567793084844524,0.723149886644676
-12.168162758758136,33.2793386514824,-13.670071182497827,-20.149105148624482,17.45604192336874,2.857106352877814,-31.221494490662415,30.835023050473914,-11.110551623066831,-86.42232756785103,41.782559682855855,1.6525644824800751,0.4345044534011175,40.33779676001026,-16.735291987374872,-52.271555509562596,41.02752963240032,3.4530576028508553,-122.07117821517942,79.34526404539523,-20.818610716067198,-29.897519379279146,-34.13465723552599,32.47867858152575,-8.540267910757155,7.376934471229159,2.1616718079773674,12.909142523295007,-2.6433743367189675,4.688124975840473,1.70882685140624,-0.5029639984479346,-2.5575450964960704,7.181120730406034,-3.274313570590871,4.687109112276256,0.5298203774112439,-0.11125033416949556,-0.2745489483333901,0.8270254951017216,-0.6046072219571065,0.8123143046761871
-10.950304626115878,38.75380862980718,-14.45762141427093,-24.09224342943736,17.157627995843526,1.7459184910388896,-29.303532693594764,34.21579643249149,-9.333622629914286,-96.79174972627925,44.90942100965111,-2.972123991608351,0.8954424941960755,43.923182279821106,-17.36320836690817,-53.06697137391594,38.12204815408534,2.1085359755724644,-122.79252790828266,80.98843686723694,-25.939146339230458,-30.517160692252776,-51.53855537468573,24.155836001130957,-10.690904337565927,7.202185180804653,4.171395617893063,9.620776341524579,-1.5818064721734537,3.728613504170855,-1.6370849580735687,1.294699749815742,0.09245718208400372,6.9182838631518155,-3.587273879566443,4.08131184244055,-0.2170582259578554,0.17254768683967242,0.3356637348863507,0.8213932751645409,-0.7699664852909878,0.5926781192849723
-8.841261041445552,46.574180367358004,-16.700409507998177,-25.158268339637225,18.304139242677664,1.3395386172877444,-27.94821186523404,36.844370814293555,-14.61517158908433,-126.44319380580798,59.33309828020441,0.3608122572576448,1.5069642766529117,50.07233061234644,-18.514246239905315,-52.98555878758201,32.56888933323099,0.9992865515153421,-172.37804275264753,107.62344719515858,-25.28073188975284,-11.799506545402775,-22.93715521461265,32.126054720594375,-14.901385586969788,14.264287789244678,10.476317881233129,11.964669575935691,1.8265685177510598,4.699220115840212,-1.3694326020895742,1.3774480148834294,2.0946593541316334,5.186816513736763,-0.9176222282444176,4.204933476944213,-0.18601919146962714,0.2049280937986178,0.6921479893456441,0.5072470388807485,-0.10664800835535798,0.566187420520605
-11.027273341629696,47.40378779576171,-16.033626822721857,-17.331147277230734,21.74385940663923,1.540332327840474,-30.110237498127987,26.438684893611992,-9.693582190362585,-105.99985422588092,62.78358114182318,4.403031951957601,2.6459556307987424,58.0629076467197,-20.393049384320022,-51.60664942293491,26.423842457463206,1.195389500133034,-138.12824609090956,95.5172871488633,-17.39174061460615,-11.664473096450626,-36.73891704248542,11.307020103760742,-7.056667727932881,-3.7198909141228587,-0.6675473308648219,2.96385982035415,-3.5587610741859037,1.0282813936163062,3.167460416139102,-4.255356924081326,-3.9942455416789886,4.630354295372449,-2.818918583532887,1.2566529594090523,0.913925837744447,-0.49556678723141334,-0.540715904604562,0.412654658861297,-0.42403661043878027,0.04030537717642386
-10.045766644230074,51.88149487193824,-15.607095871469355,-10.845418951213016,22.97544859646189,1.1364473416905434,-16.180625711958626,17.318255365384537,-1.822784123184674,-117.04790371659077,70.99968306110664,2.2824750280403263,3.2482338878191697,66.61607102553744,-22.077556433712235,-50.8682742090614,19.309393812419792,1.2109402306527044,-137.81461996105017,86.8222749073939,-2.549886203738752,-7.862300382101756,-41.9849430685534,12.03606233162126,-1.6946758757454463,-1.6226236463103434,-1.334847819080819,0.22729525507096562,2.721692158464377,1.1169889781570606,2.7220904722534223,-4.863639165994485,-3.2232806747861265,3.281414971391733,-0.7130931253317708,2.4310731548844644,0.5050294637171058,-0.7487607976126561,-0.5343055201154291,0.43659956750171497,-0.2658054816040599,0.04133418612279691
-8.846554998185846,51.636588792997074,-14.574316784032977,-4.566879025075244,23.622314144281443,-0.6796976261022929,-23.77303716955831,27.79225156381138,-6.097345682516358,-130.9930324155655,89.0511631085507,3.6049286490304175,2.989342695381271,72.29233081672857,-22.550563542678862,-51.048078439458045,11.91829397171489,0.474342401553212,-177.02539288812622,132.0428185662092,-7.074971141184325,39.16855091726028,-10.112159074112938,22.774929874913447,-1.799746815299195,1.155449240596298,0.612158804848841,-5.931426348631645,1.490219626511193,-1.3344547566178275,3.9511698059567535,-2.999822169301086,-1.8722226045304118,1.776575408251319,-0.1295101461141185,2.1370173474949303,0.6234554884749086,-0.2595872911812187,-0.23009794833463446,0.18766575650368056,-0.019381773595067653,0.40955093154700184
-5.410583959739443,42.62526026339093,-10.36805670937082,-7.040046771671356,24.769186686248723,-1.136017737587457,-16.277269191909426,5.7955643596191075,1.9678290445566564,-100.77027350530223,96.21932390154207,16.459473003220126,1.1190160984027098,71.70131505938622,-20.861255736769582,-50.444165127830644,7.947082367933174,0.7682795820182432,-130.27095438635433,109.33925245113159,22.93308250273899,33.57549828147832,20.31934625317211,-15.426282994959058,5.083105927241506,-11.756056303969368,-4.206274611731494,-13.257824802408505,-6.18604932443133,-12.913017305637736,4.812343116736879,-5.746385246741077,-3.7159843657910985,-3.038173257965521,0.16305814551189093,-7.1151558541508875,0.8871412786317822,-0.7869177921947479,-0.658854017697169,-0.7834671735647576,0.3575488776970987,-1.2169944045454735
-0.6536528624980976,26.889870848621907,-4.502950124970524,-1.3119457523074753,23.97834268314807,-2.375428478437011,-8.722279046383244,-8.635657763870881,8.586933320214209,-86.41533927940111,91.97221930929607,12.037009802601444,-1.8835700367350376,62.1399118314154,-16.52719154633781,-48.445177919129115,7.445213734217802,0.2629793479317197,-112.52843500561974,91.6185341412661,19.43993428090857,33.403478352799226,6.822107691693023,-25.502929127548413,14.880717567901714,-3.7743529435184318,-5.122560153688665,-9.613756760910464,7.081157055928631,-2.0113466211805235,8.976228821937388,-2.534480179118751,-3.1875361816401764,-3.9926386620135434,0.8353572987159963,0.2531914044818306,1.1516576777651557,-0.1970192463755324,-0.6527248481505518,-0.6565264566628448,0.1825932630267005,-0.3917356773017465
-4.738990840145254,6.21278106540064,4.586992964586368,3.0827008965121565,24.032706811004484,-2.9328082049198976,4.333667359707665,-27.82254332102657,18.251167050809904,-80.18361374056425,80.26398992329936,8.400158651316216,-5.8861373620990465,42.180956111189325,-10.026952045627308,-44.090914315334025,12.023912948070981,-0.9290929212933807,-87.2837593873242,49.9251588415135,34.3389329195532,24.690144489051498,8.659937699682295,-24.259259457445918,10.401947226195498,-6.82665337289394,-2.6599475966098245,-10.352855038857282,-0.41149596730292337,-8.526937650959034,6.057261279323298,-2.157840277311506,-2.0760869521311225,-3.3561601315096214,0.13994252701007373,-3.863225142146822,0.7913545426814577,-0.2748166503244489,-0.34929613621135014,-0.531240118529977,0.06803491814473676,-0.7681555300921213
0.010401076977776563,4.658953612215152,2.473354544298756,3.955181773717518,36.15140115697159,-4.306994334968598,20.809950086882907,-18.533423063473762,13.771773341162383,-85.73655469373794,96.9125200089523,8.616493665789488,-6.2029209511698085,20.983806630655565,-3.123761019715721,-36.05371566704879,21.89771489971263,-1.6624430008231983,-88.23360679457096,66.78657606598816,45.73269024768955,29.057248437969463,59.859450670170894,-37.12920289190599,18.42435527578487,-1.690768782319596,-5.6407948728596775,-17.55055850701904,-2.3186298846604525,-16.641324184273167,8.686106223458195,-0.6923965682660166,-2.0896730656156453,-4.415399394150715,0.43139668827371097,-6.2805759901666205,1.2066478328857257,8.6003973312411e-05,-0.2531606299764699,-0.9122960935660447,0.33715384468900483,-1.1292969466313463
-7.557883388253656,14.157027532351108,-3.0053908038233383,12.129055545614268,51.06031376768246,-4.77675399839943,6.7858899611289925,-10.55403455299574,10.892353403008897,-79.98223012402282,100.49885588418319,-0.682522852504216,-4.812096825858801,9.158397504427732,-0.9217608749065128,-26.21180404745557,37.9938837844683,-2.2744881348630206,-111.44951283198188,56.720968748741456,29.32460259056945,86.69265191580341,68.35031096183381,-33.11198142481389,18.4652960137303,-1.7752707959487861,-5.8862016520580775,-17.225461380576657,-2.018442781895,-18.046787422072295,8.642488662166066,0.07874233063609198,-2.9388519363872447,-3.6277143845259454,0.03362219701197113,-6.523583790423177,1.1449780763721737,0.15808109967120704,-0.4248065033099968,-0.44149129085382405,0.11127153090919194,-1.2241137013978702
-8.5449310021202,1.6235031481837419,2.504209510269085,23.171664136587417,66.6647459579132,-4.018425913805283,19.813213701633376,-28.574900600494566,22.256562346266552,-81.21648053821748,91.4544336132162,-8.313523565701615,-2.164212115759668,-0.1553631669925559,0.18077779988491513,-14.797375823059083,57.24001357455537,-3.2978707786993824,-98.75294331620391,18.04473321290523,33.68666941838201,47.902949689659344,45.86567960317135,-51.71539378127734,25.54203676252241,0.5853775543536966,-10.504650434420233,-13.392968585717997,-0.024481937192065456,-13.496515594391218,9.470458285963264,-0.12179315916178926,-4.5624039636775615,-2.2943665184785758,-0.18446458016702963,-3.7879294366675196,1.4336005532739167,-0.04159087948019664,-0.8597286467280987,-0.1542320523582531,-0.05262405151302476,-0.6242487883249973
-0.36794128896683037,-2.7544936500795543,-0.1611013569808859,43.193054432457565,91.50798153699316,-3.8442742643377223,30.625068667599564,-38.291109901476595,25.80755340980292,-56.0173702192817,128.08612599003123,0.4395557503205634,-0.5118923209077678,-2.831198483817156,0.6044888175341299,-2.0059196389578333,77.79546885386311,-3.4277938969966497,-65.59954175253667,47.50398002637098,43.79359001844934,32.239431151094465,49.03195364443408,-44.545658430972786,17.318321491706328,-2.4880398003332034,-8.510627103747494,-19.130191874033983,-1.123412447480621,-18.505132793614237,7.22591836617877,-1.5562683404280486,-4.9008245941503175,-3.764167438055059,0.023222962655002767,-4.858326481278145,0.8401177701438486,-0.3150234729970439,-0.6643877251762358,-0.42521717219123334,-0.010577537235626964,-0.9473922140746598
5.556129684829609,-9.406440822325218,9.831256719785642,60.25626431830149,106.0006948862443,-1.803850456913332,30.166495955574113,-54.058340459889685,41.37527646032357,-53.48466265249155,105.65102914242458,-15.60464713956831,1.4273331245606111,-2.5259749596913332,1.4345326949424633,12.021576655346989,96.9153364400439,-3.345809498206133,-71.28306986521147,2.2576029142020184,34.26797254094272,39.96816484971452,47.953546945806,-56.99872751347578,18.681270585475,1.4201920471652119,-7.812057108846759,-18.170716016831935,2.5792065623122458,-15.936935443157267,5.849998230274159,0.037883182627937335,-2.8344645253890435,-3.288315013392758,1.136221476915856,-2.4746999892354795,0.5428257220132059,-0.10094469625404597,-0.3265819017803575,-0.41500477758443594,0.28332021712463634,-0.37018815417701545
17.078985888862803,0.40655189075029385,-21.68360976391692,76.77975226727025,122.0624498454056,-0.6608129463454361,76.85932793823983,18.527422579895937,28.31952756008683,-18.294996708786833,110.56948010534923,-12.704942498577404,3.589771069552519,-0.703134321596932,-0.796262532138538,26.41949285141621,112.72224990896913,-3.520657303182952,37.350703228851735,92.47041086160063,38.392601047346076,-7.191748870270816,47.40614054724761,-59.332804171017926,17.528713728702648,-4.548781453453978,-9.856528539949322,-16.07753570835173,-0.4010231656025256,-16.62789301480225,7.178885088877912,-1.154702477982076,-6.2524513194186415,-3.3714312792770507,-0.22229744337965102,-4.4700883002034795,0.8899246000809905,-0.24368259428070668,-0.8252595991651932,-0.37579102785448915,-0.1401595982410678,-0.8635708859135163
8.074231759555712,0.4192829924538887,-11.447329279809598,94.40002612862625,134.07417397600307,0.6375239928373551,50.08098971856689,-19.700623580971484,29.141692414190562,10.875702753916428,117.28915266899969,-9.694826876419793,1.886738272241434,-0.6093479415018362,-0.05074770582981052,39.99389643597894,124.35056469742177,-3.3721533239469084,42.68326754918232,30.362865410121216,28.441476461750813,-1.3684057192057668,89.64649908086402,-66.33881255875534,23.40841674729536,2.6289144669850235,-12.79503804546725,-12.52952173303622,1.1001042871566087,-11.284189767173011,7.8752886184214725,-0.7471998079905946,-5.72668585053859,-2.389839205126908,1.1947108510524231,-2.2558672965393805,0.7086383729551083,-0.2343096234672762,-0.6093358423482664,-0.3518321351793219,0.2637909205123509,-0.4234549139650693
8.618422116658078,-0.4155411847261251,-3.6016080849751013,105.36392650094484,140.23404517679262,0.8119375514859032,38.87287334966532,-24.811887518889076,36.113388133715794,28.073915689077687,123.60420841649342,-11.828885572050936,2.4642170604331715,-0.15928630923131107,0.48790316552297924,50.31078669906119,130.30395512511092,-3.1035325464121915,51.73817315902958,31.468193586182874,28.99073662032789,42.89670671234033,33.50865300200404,-12.838564902009994,-2.425329359082767,-1.5915461023800104,-2.598917717370328,-15.885250352158955,-1.8721750164007658,-14.683330509744527,1.7380617849815139,-1.2817597625357209,-4.482492077546327,-1.9857624028156675,-1.4888212417009534,-1.8981597087294384,0.05380200562989548,-0.4246495185790058,-0.9119795207155494,-0.20412153392689475,-0.4044447678409429,-0.08174625036065379
13.393310342990283,7.0577976522918515,-21.066548600468085,109.94063730865363,139.68619766659205,2.0334757063513305,43.04261162274407,-8.805233244996801,33.91028944729655,36.19809609291258,125.33592432881849,-6.496076634045288,2.513178530061999,0.42809355685932965,0.22884941120177782,56.06699456191507,130.1799241708638,-2.2306437610507492,58.752705207779684,58.273899722179536,25.13060863572601,-14.502608609941916,46.4884669247169,-22.258851491074473,1.4461394712813669,-3.920159372493143,-7.688825450691265,-5.648520706226168,0.38945127474356095,-5.624468021291774,1.0936707788974451,-1.2187642631192666,-6.890633078829045,-1.379616068095499,0.6867570668590482,-1.2169679044644202,-0.03402020231686327,-0.5077497485987769,-1.5358144514331167,-0.306984598691992,0.15247268722893945,-0.26394492502618155
11.668312867299122,5.79954942628095,-4.592323320214538,110.28571608981663,128.2356135723858,5.021790018021027,10.742424040851883,9.468291412959214,-1.623591861924745,54.47441612890254,86.85436380439037,-6.208932846020387,1.3497758919812695,0.5720473317055781,0.8561449166161352,57.077524989572254,125.95044602538353,-1.0000315350800462,31.490921392575725,48.16807284755636,-38.8737710574493,-26.0244572604117,54.62902902241498,-37.99600221886758,7.050522885691514,-5.711737218618268,-11.726233031275866,-5.283775898412767,-1.2212284592071758,-3.3061262367118642,1.086073851620332,-0.6265469039491044,-5.975070958052179,0.06830138994595836,-0.08661274479216598,-0.09507452327895563,-0.32289017980287377,0.07276596567905326,-0.1498721227404511,0.06095303824368612,-0.13865365919405412,0.052400270160994675
0.934631848966321,12.668343840278395,-15.229817562322179,103.58296172339195,115.55849209348808,6.8385047731982285,18.17056199769862,-10.071986731350869,38.537224745786425,64.64447662586264,79.73388501716353,-1.62521433058741,0.6184362689330913,0.8720838023888622,0.4262947233774617,55.4267536618608,119.31018057012037,0.5564698642690056,64.78286634021403,38.24593587104091,27.080420007197716,3.667080962847447,45.943048566168144,8.149098531280725,-8.219386130587587,-5.774245609107277,-2.941500022102807,-5.815449043058679,-1.4333806266425293,-2.16300319672068,-1.0218853909780217,-0.2732124019521409,-5.755744608873149,-0.7290738229286449,-0.29724911529337456,-1.1085732367927787,-0.6981548125202864,0.13875466261932826,-0.6478885061381235,-0.0056362436733939794,-0.012865049884443956,-0.20839897481865713
7.924736272243083,17.059026572278796,-3.938603064258902,105.4965216126272,108.01733018036904,8.108974932878864,12.286119304299053,-1.8895776273263427,53.52066402133198,65.12566692360909,96.66076199076481,3.588866741164876,0.8279061426797725,-0.19701830371407486,-0.20094918379915896,53.437062560810176,111.239334689349,2.3175717094335266,56.09961321614522,87.2561541066849,56.03383401061384,-18.92568957955018,24.64905642084201,-1.0461955944232935,3.5802175877118687,2.9680286939400675,3.4776244900780635,1.6140988935415654,-4.035818627337586,3.865607817127136,-0.0389654308375143,0.7100020218789146,4.029326055267244,0.8636394560953238,-0.9795816877239597,1.8544781903124978,-0.029168817018864316,0.3726095691504257,0.3580265838784035,0.04009200182258339,0.09592872894837016,0.1527775332175809
0.1219927749761798,2.294525640788524,0.06050212021523935,103.56924191601699,95.5566311274669,10.656143076917884,4.6013711875924095,-17.968493054264208,36.74492302868348,68.18211949361707,79.84263108413667,7.12374260060018,0.2158574519751802,-1.285784130572626,-0.45064022268285336,52.11676733871442,102.3716584470471,4.103762616333048,48.80363532347261,53.54137612456362,40.799952918044404,-27.794473503363825,32.82209805739128,-3.8746211601686746,-9.062059632104747,-7.432207014487018,-11.910391204069283,-2.6269205058280316,-4.641968819459725,-0.5261539672993559,-0.9917169383848429,2.8287537896468526,-8.530042631916228,0.05274945663894146,-0.994516993952043,0.2679745512215348,-0.3108290832169267,0.5731219402439502,-0.5622737034850033,-0.03773069048519989,-0.2870199453169053,0.02679984607247843
-19.58478140768722,0.41490577220405445,-35.79776061927073,101.01124114898701,89.00104667082402,11.901227305046731,52.78062456443391,-20.32763341356556,-39.371412055302585,44.233512022882316,77.18448182145332,9.311549595811654,-1.9158624604315082,0.6663065591590543,-3.3743295693660693,50.82784426939091,93.93347051077012,5.860919001369737,52.227435605155264,53.13361699360573,-79.39205531490967,-76.96464585151442,69.21223908969498,23.656506331995743,-2.3742232492377524,-0.1625160208703832,-0.7004630235847021,-2.3101140607543527,-11.316157540036771,10.077279467763422,-1.9425033759951396,3.278909719088329,3.8155565747737668,0.0074148903163982795,-2.163098685115097,3.2963461092330926,-0.24680794756242078,0.6355157649616161,0.5637832619831917,-0.09040982922715521,-0.22396851691339312,0.4825968421858625
-39.01003350114168,16.819995598232655,-67.03127640125055,98.29704340477906,84.96238640525897,11.961897898128216,-46.88131659228727,63.138530242898725,-120.1499100262364,47.32160606240674,90.17930527932026,11.366792827785565,-4.959834415052073,1.0785978837970278,-9.455782649933685,50.25535030903541,84.9789788908292,7.291619644294465,-52.23657172368611,174.7118266807427,-144.75391536620552,48.40166394411894,31.827958859480034,40.26080563104344,-2.6415227927239986,3.677977119962603,14.189957511675434,-1.2600748833169404,0.9939457089022297,-1.14595380736122,0.6046580917441773,-4.408126863661206,-5.976975202907181,0.8020135593592871,-0.47693267962699903,1.5398159726898277,-0.16585914738095417,-0.3495932143640039,-0.16483702600489733,0.05432238108394652,-0.07448731918282432,0.3650234816756804
-83.4904064557602,43.963481009801384,-110.50157312603312,100.10697699089638,80.43799001155213,12.638441146682098,-84.15037634942142,85.86661208082057,-204.1157762030964,70.28586053837755,86.39800506007738,12.193231523148043,-8.15063817935555,3.1534119026449345,-10.000720277008588,49.085625089724914,76.12558179354552,8.447486528640468,-60.33497966510855,189.1856030784344,-248.81088524148774,-85.94895907912715,2.037185945157073,43.7698357582585,-6.5594513210477725,-1.089309741592815,3.456127723124204,1.813730353494167,-8.476090714864817,13.730674069345492,0.20057317263502455,0.39153567199227624,-2.1990196987274606,-0.4815881496872036,-2.0677814868242836,2.9175977567014844,-0.0392016822856487,-0.062489450772265365,-0.4169133730857369,-0.2909681425062901,-0.18860054085049877,0.21139363863412491
-74.39755289737133,41.727002582336446,-95.51730151730445,97.92567799900145,73.20166622008034,13.507691188350485,-73.62655898608888,84.02116216140895,-168.97936841455945,54.24922699938633,71.19257515179675,11.300600028923139,-8.098031125660517,5.627827753535429,-9.027677753047529,45.92268558670454,68.4171231688423,9.07977942364943,-55.91630622681935,148.80156881036007,-188.8639662597575,2.4969693797945,16.32567867442173,7.823739953795294,-6.740801087855387,-2.858931903485835,-6.714883525458062,3.7710583663847648,-12.635327314726206,16.283563344515237,-0.4150271399613161,1.226675554195692,-4.09475393966877,2.9064206613586023,-3.6201515977158043,7.256611144722429,-0.26711671917830165,0.18567680701648062,-0.4037840118422565,0.4890239812512211,-0.29462023022495826,1.0323566704198857
-38.148277278663244,23.45725522262263,-5.753665273107977,96.08501259737643,66.02147326342947,14.382242039146854,-106.06013447596214,60.06522447757985,-41.65914518906832,67.61976207581785,50.772030590803105,11.072561862126086,-6.698862264426171,2.9270000237418543,-1.638002146794329,40.95373319437799,62.09883867409218,9.29268313446629,-75.36463847232706,115.88218034937447,-32.83707023645799,0.3147432450392884,-65.16900053358403,13.20679708774148,-0.30002784546427813,2.716226957674012,7.501493228114522,20.829325811923333,-3.0894222189062885,13.747509068698111,-0.37343869883124625,-0.680962528551278,-0.473476197571238,6.173727624068461,-1.3977811984010375,3.3680193976886557,0.03432269631180781,-0.08155950941603851,0.3175117381989716,0.7795164197249623,-0.19241700329148037,0.4282812899033171
-11.067487961591752,10.810037585368772,0.3596068831646679,94.3520653106704,56.97176699106009,14.703006764614205,-67.38073802876683,85.90854092798793,-70.332406558966,75.97015359634781,24.581600884031488,9.11311088928873,-0.9992728787916062,1.5368405366162596,-1.4164471101157035,34.775278492576696,54.75327292410065,8.922458678317794,-26.538976925279865,91.85936009135587,-85.1498373837326,-29.99661407476139,121.02525529467236,95.62727032989785,-4.167017190285381,1.9767395108344987,7.163814407238115,-9.40851158757021,-8.827523177780389,28.523415054677507,0.8201899868616437,1.4223932754689375,2.083125346050616,-1.669954776904178,-2.15312623474888,5.519267860522389,0.3782399150515741,0.10991235628612772,0.3753464572528583,-0.003211253972107588,-0.017835788985416177,0.4103788798881131
9.046249509198404,-6.290530252940757,-0.873524438823192,94.62102256235734,43.37674487753502,15.414354222008113,32.04096890637315,-2.1980932982302974,2.662107479924793,92.56879779241578,-6.476896257204345,11.729061287806179,2.407904484904778,-1.0726932115496866,0.12671950904027263,28.269615537400274,45.5018190910991,7.821596600240493,99.66242926523836,-44.91712423441616,-13.737991672793628,20.330485664037823,-64.77626611748765,56.555538277876465,7.872496953179699,7.919565595984805,21.201431675814874,15.873420498518684,-6.176068405725996,-1.2983701595615653,-1.5217944038458429,-5.168790745257299,-0.4997020985553825,5.053922568495137,-1.9900785159579948,3.5695250393558604,-0.13807270852931453,-0.20063656731090035,-0.24382254663018016,0.816398536472187,-0.4068694921133933,0.7480147265051057
6.501149130567734,-4.0891196650815225,2.064675948167247,89.6691295993312,38.48062711721886,10.377272284493097,11.528332621149525,-15.338799117470572,4.38644588454483,89.73763099907414,9.907984521673134,4.940848547250445,2.241081221092704,-0.8586360502705797,0.9328444264176283,23.020510410904528,31.217472875163722,5.794295968798282,82.10845237075763,-25.213473394784973,3.9654974797993847,-1.325305934146649,18.211219735461743,17.469055036963162,6.788741736863405,3.055207501759701,5.423748670208487,-4.7701758834201895,-9.0725446419167,36.386143394987286,-0.3205741306686633,0.050692098925084146,3.738774142820346,-0.7784344540513459,-3.5813920874579632,10.197746714212961,0.3688184599819771,0.28547673237792426,0.6067999606448544,-0.46634980185373315,-0.4653674816468233,1.7783310086234978
-29.033959484164328,17.236446705682646,-7.570089170897662,86.95706743949282,34.666137562358536,4.504543059947099,-51.57673640669938,21.300853902200583,-8.578607057907062,75.82213095872076,30.33431115504578,2.864743186094562,-5.004512511491279,2.655265113597702,-0.9046613524034708,19.194167138062223,13.960726565457005,3.065523781619232,-2.3156930192816363,47.72335411983089,-4.615499722315683,-15.334804273812695,-31.57951342700068,-0.37699071591758454,4.8595705329232155,5.956778918301206,11.399405444478449,3.8422692308137703,2.014620368915131,-5.488678655305113,-0.61761734164783,-1.066751634848266,2.6089727581224604,1.335809404149881,0.06384848351533286,0.44174832043970863,0.35550821932849247,0.38154724892959946,0.4377479874705707,0.12081992521694884,0.07626932135112383,0.1662541064342047
-0.12871885814931805,6.341337892487804,5.708324733175988,86.65231941016063,21.42666885800456,0.19571144934957793,2.1174108678096,-0.17148700983251125,14.591840201614891,67.0280286628597,22.69777361899302,-0.8047108105896514,0.217427568291322,0.5739568108542692,0.9489750788650427,16.945253685685216,-2.7513862795635315,-0.05025052566962725,41.388753811170176,-8.793474086324416,23.075177576920154,71.04600280950848,-33.75328103991953,28.065242253314494,-0.8937815993866971,3.1366311319584077,7.049379189579016,5.276494203961804,-0.7846010491165283,-4.578674964731174,-0.5407063296161732,-2.6611843808352287,-1.6498705901873003,3.4592510260455276,0.15507341820978254,-1.960743629456724,-0.183666086914896,-0.16774546927916945,-0.21179732271131899,0.7006108427622055,0.18147426381449805,-0.9662111489780233
-2.4778555167359553,-8.67476712837154,-7.14295912824686,88.89913551440023,8.264907131589293,-2.693060732572403,12.425209486508843,-5.118618405545399,-23.609057884621677,77.72560462002333,29.95340113022468,-0.39683183065264155,0.2987597050660032,-1.0184835254047873,-0.467735664018499,15.793106347407237,-17.396300395231243,-2.2942900207039223,69.18944118404896,16.564471121614773,-24.539622601733974,4.867626978448966,49.65972129006229,-4.885085963614747,-6.0246387233374135,-10.974545283100435,-12.084903750507229,-2.0840836415991193,-8.225882337574665,14.258665395117704,0.9353104945936773,1.8586445657151967,-0.13710624998304685,-0.3069485386731159,-2.368144292753538,5.63334300572661,0.22000110334770462,-0.8480570439532525,1.0779546601005785,0.09122724373491134,-0.24540583441499156,0.9542606643337546
-3.3565097403738204,-2.6253674081797707,-2.9024496058588154,85.85648596918803,1.1150357323071247,-4.406625091917853,-16.509479946791007,4.514898599480129,-7.401194770070569,58.56074071579544,22.365635519288947,0.37536808751361994,0.09527397899672677,-0.6504109025642605,-0.4961989205559869,15.831775859173275,-27.878899782210702,-3.460209030182902,0.07910064032063602,22.703981217019418,-14.530237913801951,-4.934091107940128,11.164149127378806,18.727000205835125,9.26895787110563,6.225636830834268,7.374269804889234,1.2802035234806928,0.44836245050369394,11.809834908819104,-0.7037345066661086,-3.0450667179162654,3.4879248333297364,1.2906660870509477,-1.4150034956547608,2.9106599594277616,0.20130930863492164,-8.171337106574819e-05,0.32221901431629013,0.2847613272187872,-0.2673361579313836,0.6769013233593033
-13.91240930062848,-0.696052296752198,-6.213075748293876,84.03710488244936,-6.9407128768139605,-5.219472200194665,18.378012968809895,-3.4523033337496507,-10.963988031157347,86.9735273243849,19.540927376612384,-1.3346603414355205,-1.2214524909241349,-0.10265036424238895,-1.0225207862635914,15.042818831039513,-34.4126940209312,-4.4679955088571335,86.23116978201779,-9.068713351777262,-25.63594291197384,-17.102234019512938,-15.276849029404193,-3.062376214340417,-0.49737328646517726,-1.5044039893471188,-4.230173670959983,2.9600395575245066,-0.36224669349726674,-4.531552126804455,0.1706064400002126,2.452615661314972,-1.3570227794578433,1.3168466835664308,0.285461204933322,-0.22775700982228272,0.0032801141906949986,0.6798469538451211,-0.3036232885463611,0.12147975690716908,0.061397802437615126,-0.06120914583510881
-2.399808802888931,-3.1300462820997255,-1.359160152709776,77.28086726721268,-12.458283285440924,-4.805042138765149,-1.5112514257389067,-6.331390481472037,-13.418999619624014,81.12643241637134,14.906540981672741,-0.9853060581467757,0.43086374241656433,-0.41293495110845985,-0.11562296968661544,13.50404583488998,-36.79531932042825,-4.559934791242861,56.2883467866253,-8.062347158667617,-19.03064415156693,6.531665608804215,3.4941933525519233,7.848132600383195,0.3570411976837297,3.266462166260959,-0.09471082292486038,-9.337554698656122,-3.66245649134135,2.6261351881013435,0.2725140547950086,-1.9457460174752517,-3.3509639571989256,-2.44820081180421,-1.3306360852295012,1.9128510778998307,-0.2722005811972899,-0.1294747675790569,-0.5237262572930822,-0.44069508726077733,-0.1428509584691705,0.3033905111904787
-1.2603314570513353,-0.16789944658480754,0.12479296368354913,64.48834739239207,-12.722859216609688,-5.233273513653299,9.075743417546429,-3.2135137168665753,0.7506109330073134,64.2696988844126,15.973779079723414,-3.48252617858653,0.5773065657879625,-0.530372950104458,0.5052922794441467,11.623098843253823,-36.077993638440574,-4.602686208929009,51.84445560686423,-17.40772399648455,-14.579908430493195,7.845799497868925,29.520729393648153,8.060760580138107,7.386770224735259,4.47086857122785,1.8680964786819934,0.021658096169686253,-2.149217856438055,4.774075963289016,0.004351299382887874,-1.667076595733482,1.9029016024401824,1.5786131081154509,-0.9106976405319105,1.8713906862833118,0.06119797700504848,-0.1913622084073573,0.17136515175958006,0.37852745303183594,-0.19409782285962549,0.4759402918791093
-6.121326070658742,2.3942220741254587,-1.0960410101854996,62.88349811221478,-12.427356096959794,-4.886832927585874,6.591274788325139,2.9675070505816716,27.481876225894208,88.41089274455342,18.144112591400088,-2.4059685766727417,0.37571671002331897,-0.714707017128662,0.10603010756677754,9.532262242211575,-34.23663227759988,-4.731206110239251,83.23459342282014,2.927797297090034,10.848902120944647,-2.3848769758605295,22.04327284472515,6.047639916456628,-2.4427265861457084,-5.067080980327186,-0.6990870801549312,-4.474298686382486,-2.328515206210896,1.9004380679130595,0.2468542031980193,-0.3799764058767637,-0.03208386520947912,-0.3514356951471965,-0.8654192705598245,0.9685451443848524,0.10541155359486984,0.18980817326036897,0.22599768214903648,-0.0020391667278307334,-0.04675994600983388,0.10751906487177723
-13.180464143120362,1.0492258151757206,-1.95194619368662,56.757828483391044,-10.593907668329683,-3.990521443677887,10.79956473686932,-11.75931450726782,-8.969443411048609,73.76910772469766,6.694051492952941,0.23869628540459087,-0.3090655464049497,-0.06893093026000945,-0.29268510228040634,8.203027952192794,-32.50378574893524,-4.418521358155174,64.97083670354112,-43.207674893242434,-33.0912393033415,9.048680416682817,30.212108700817115,10.850147745169506,-0.3701851349852271,0.23549765093750583,0.7931070692695079,-4.48721161891814,-4.090055663726751,3.6024003138619527,0.3770746612136629,-1.35256566158148,-0.4114051168268233,-0.510968917641446,-1.6581706191199808,1.4036655476907112,-0.027258853907577638,0.008011682774783558,-0.12996093694666394,-0.06868072901504955,-0.22916261758231515,0.24376555211674752
-7.696802646379297,4.480474176514647,-2.0408404667672237,48.30447009034348,-6.782536075135973,-4.435876595113934,36.02902906965379,-10.075884804748217,6.39739278446382,44.33839372937342,11.867806990165414,-1.4854216784003247,0.2561541158007348,-0.4048481618916921,0.010334737151251789,7.70833980660462,-31.474381184691804,-4.107406051750461,58.52952605174402,-43.86948472291056,-7.1947299903324256,-15.45577924652504,18.70649202815977,-5.408549546112196,5.065658351993368,-1.0405969641904642,-1.9272913541244436,-5.578818272908648,-0.7144220169779442,-0.37282976272722795,0.8703364630337398,-2.476054523571028,-0.5084223874315235,-0.5773000719283223,-0.3565032933903773,-0.2814897993642071,0.06542368000101909,-0.37624747576522094,0.03825375922696516,-0.14774787561047034,0.06687347788964523,-0.2310690302746548
-4.654687445926417,3.686420325878786,-1.031515663395959,51.74693257342596,-8.036426818094546,-4.779187244150532,38.73267304693648,-13.434028114523551,10.440006496338265,52.272442223691556,20.066889680337486,-3.964823697755379,0.4562439086507761,-0.22553970322692823,0.3329708900923533,6.73968635041289,-31.241892140709606,-4.4275761795916955,65.45951621267409,-36.23441164003107,9.768911142175948,23.948919322877803,3.6769295837346614,15.042514339679498,4.0227415111345355,6.922688354027173,2.583792277114374,-2.131174181838669,-0.3587075138393025,0.1254360446360712,1.238197433848763,-1.82505310914224,1.9033501006305324,0.6381504613490867,-0.24322025456911417,0.4750170277239578,0.1678960079681835,-0.062258506929192624,0.31172447878901655,0.06277720593017777,-0.1200620600524329,0.08840243157813413
-3.3837048152796445,2.532972868962703,-0.8641800477857136,55.09384694674206,-7.707152428076455,-4.1385071901046,43.75457845161365,-12.859799004374777,6.407438667604543,73.04898710692018,10.629619769668125,0.014694915546256584,0.6226725610673118,-0.04295403720991896,0.2828932713287037,5.70375582961956,-30.92114853861255,-4.310997569268558,108.13478636111759,-47.22605566902623,-1.8168521763291166,15.059710743139007,35.94381861791039,-8.520075613173715,-1.2497694068295964,-1.4456437549956123,-0.9503567126262068,-5.545418236572661,-5.0759276438470105,1.4809083614826868,0.17702815275011907,-1.0123005786978527,-1.5320266968600689,-0.9780367234699187,-2.51115789833276,0.4776735665937192,-0.17646379636355045,0.07529440557883545,-0.3202246413031137,-0.17592441023882183,-0.40175501167644234,0.12611299777333967
10.220983435476185,7.522654393326157,-2.7621972968978454,59.3176996888684,-7.165954606132632,-4.975449143991846,36.341602726758985,29.14207287214655,22.00469603787996,64.97259963357797,27.196509720387773,-3.5921219990658457,2.2432898230929963,-0.05714829791555059,0.8177707498772707,6.122878023679248,-30.925317054807618,-4.6066942547958085,82.37835561123941,35.57622862275372,10.913748547583856,9.65593225803665,32.33575083834189,-13.260370575917328,4.981645238634691,1.8253347244795552,-1.6234572316636422,-6.098092624497432,0.060557317781516906,-2.4931149294731214,1.3743853568323043,-2.436867234438622,-0.778760634019261,-0.573464270487016,0.21578343118521365,-0.6089508813579042,-0.18179526027093734,-0.08984476251135319,-0.49850398557716646,-0.0651621938908131,0.09028225467787762,-0.13494406817331517
7.286995164082476,1.3885804816666423,-0.3597940355717489,53.14540684540726,-0.5331270541219608,-6.424753464438594,63.75156502576154,-34.060773049827894,-1.0408640263137257,35.04091036126206,31.46604916939975,-6.314834561315946,1.918885701122947,-0.14366601963632633,0.6405272313737267,5.138029574063205,-30.21376501415105,-4.729578608240999,66.59548988114979,-60.47931079013584,-1.6873687220146472,37.51354061039764,27.34454361091599,-9.429717432387207,1.1606129542913866,1.9967178889143011,0.33435195709567866,-4.75056894764742,-0.39002188978750235,-2.8935648077132483,0.6804425523574041,-0.36717362843458295,0.5814781658742832,-0.7081448826076179,-0.4957793970007686,-0.6840732861991483,0.294227718597106,-0.10220880793847156,0.290037794952748,-0.12666498556324518,-0.021348835000224352,-0.17505835254216262
12.555005311722518,-4.452337243863556,1.1274245747046685,64.89651319674647,-4.795062264244213,-4.549074875924091,56.34115919782714,-28.642545961447603,3.6856473286968376,66.73381946212457,21.39192444354292,-2.0610927155341296,1.805331836661849,-0.6860358909810493,0.2947179144851925,4.41484758383967,-27.18851569638729,-4.328394380596834,109.29306542042475,-56.75575260430764,6.515849656035867,-13.81545088733299,19.024600290602606,-19.60387622732103,3.9941549774853264,-4.118102310699379,-2.0258295448478796,-5.282466114195044,2.495383114940788,-4.373073965636109,1.3576160795820829,-2.5838715946760775,-1.2220279080765126,-0.313149810785692,0.14648894627352266,-0.3381238604585254,-0.10007589096058354,-0.12675806233668035,-0.21284231928621258,-0.05567495195271234,-0.14949395776509622,-0.10319578296810537
3.1316978412251784,0.7692350499550276,-1.2299123346844358,64.16964669774497,-6.421369738020348,-3.927700933571525,38.711274273516956,9.1039157292991,7.907147638491093,68.24107840420562,15.697700756475392,0.06538730877906496,0.9168749795843913,-0.9742614037229274,-0.2557333641126229,3.404870526779839,-23.577583854749875,-4.08854121798894,92.73989933081026,-17.576519058123676,5.98117584162285,24.043429258248693,12.207560044719088,-21.313989322961707,-0.9543859017472017,0.9077766562603071,-0.3394203998089006,-11.715266872528932,6.414845736953735,-9.458043128249738,0.34871197782104946,-1.1194244927423982,-0.5151913025657707,-2.644724432296019,1.4177890304868241,-2.3664778006588083,-0.16976640999008874,0.06878129815404907,0.01824476409812522,-0.5067079858581476,0.05221077573967074,-0.6888559955285107
8.859195385333361,-9.217825282069613,1.1136262980491705,67.23932864430721,-9.551258128324505,-3.2198455390145537,68.19776091670927,-27.032989059614884,10.971394558996096,76.84692217665963,6.27593044138159,-0.8216876336967305,1.1999396839370253,-1.760361685833511,-0.4939397012830737,2.365713245491985,-20.27025624239777,-4.027591497781261,129.14183120045377,-63.319072231381654,22.742323549938597,39.84592901882529,-7.789740569426768,-17.674846844071578,2.392790475859155,-1.0581499670550478,-1.879132796702122,-12.465265178379054,5.517388151967436,-9.040604460837233,0.9998546461551073,-2.163908120087465,-1.267128856961565,-3.664118623827158,1.6278717797596038,-2.562802146644459,0.07880317941422478,-0.42541171336919475,-0.3571794354577325,-0.4146452749122849,0.43031888771733523,-0.311966872868983
12.618141313927024,-11.246216992569735,1.350337991573465,65.82435297712198,-10.523959100971622,-3.2332200101659376,65.110352863072,-58.912620355867055,3.0062248925653225,80.07666269353038,-4.998514896330334,-2.6452745558851856,1.5874535597739832,-1.3573717204100588,-0.1890645681875785,1.9416406996216613,-17.687339588289838,-4.035385836078931,126.90608770738342,-121.16062817687464,6.412107192597762,29.46828792919196,20.230917632040633,-25.91598708680248,7.850165479331295,-1.2598974353337462,-0.995932026910022,-9.251884667585074,0.8748121366298351,-4.471125275296928,2.8065330782945916,-1.3107966821976698,0.5055514717080295,-0.8310807148498848,-0.2976879598875776,-0.8294520667648423,0.3383070885474056,-0.04538219612823284,0.04420458257627827,-0.07205024699993073,-0.13670230415809256,-0.1057523038311697
9.808969280330055,-4.4107519962927455,0.47673911033767197,65.52051060112427,-8.819197420798476,-3.411136945471983,57.337364559796605,-29.26066142142751,3.583884993359944,62.91068383773358,9.483964781997603,-1.4088087369875968,0.942769378063807,-0.5165937960292635,0.17549099159995932,2.1562340042490797,-16.177852567006127,-3.626572698871987,99.74263138929965,-63.328819398761446,12.988700270935942,29.617358390885958,-6.779395940487212,-8.931412251449395,-0.5138507795887275,-1.2553350238890038,-0.19568607719883047,-7.204578016763556,3.082309721931617,-4.417450821107423,1.1963834370096575,-1.6384224326338324,-0.6257911977546028,-1.4820453674160552,0.4846196560902587,-1.5003816237877405,0.16866899104365043,-0.16813882084734488,-0.11626691859204036,-0.32632350602377086,0.050507097801653376,-0.4884390067994586
-3.559059806014187,-4.991576608473593,0.9007243389017514,66.65701653379645,-9.047724268138387,-3.3353421365996603,7.301840201078419,-24.432526390371557,2.2952151395097675,45.88654021927815,16.083984371777188,2.176836271355386,-0.08287200904760184,-0.4842527944501214,0.15190087351533205,3.0614124749675784,-15.589339730419269,-3.436744314747953,17.839544397070707,-43.45561739233964,14.315319869486082,36.99529096218064,-26.448362192716864,-9.498253060164162,3.620206678593085,0.6566491930272534,-0.950432920242779,-10.463077953913752,3.8554911389787256,-5.163984896206763,2.183314022078026,-1.6243031639884462,-0.1030682355160166,-1.9945727778052256,0.9052885616478028,-1.5340692674459793,0.294124223825413,-0.187415309898724,-0.06383960976088653,-0.26431745597413125,0.11556914180155842,-0.32490764720021265
-4.631371268225845,-4.4180142785381,0.4087182736430094,63.596312775154566,-10.318458628348381,-4.262497396986569,-4.918954366075569,-20.116288588074074,-0.3172315280712185,45.78577885827926,12.178091943751857,-3.0944059644782116,0.026430546355225463,-0.5262951122953222,0.02558181196336974,3.8207519278137014,-15.190008515867373,-3.257217617283177,13.268638941144198,-42.764965734455075,-2.7700802989683226,31.590137802097285,-3.946689174440467,-18.29635241204609,2.510946533009218,-3.650569952666572,-0.2840436414849804,-9.279745693061244,3.0381159408961333,-4.066188980145933,1.9606398333241948,-1.8469902308298014,-0.2993593288266191,-1.313416249798409,0.21230175290655362,-1.079606325333098,0.29807039959404824,-0.1549981506636376,-0.06248012208391736,-0.18473664156763764,0.009587634572374038,-0.21032332699753242
4.197997541153784,-1.1118845257031795,-0.018506726349232457,60.60652730470499,-16.05754849885271,-4.06785609685486,24.979199176812827,-11.538764353727071,0.9412836075881428,37.661715789551444,9.59196763803084,-3.3999029182691967,0.43005699366492234,-0.23774585065599937,-0.0006426483119741285,4.207833697829545,-14.87617063118668,-3.370158960883735,36.75312159463562,-35.0708289263598,4.507632099625165,19.360012157290253,-34.56710477906174,-1.7705708944374599,-4.456913361760657,5.7237008547806,1.0055812987912762,-10.812011198290195,2.6177674937490614,-4.296264043089955,0.42722795247631856,-0.46918639024348924,-0.10587051173169747,-1.0819038501811427,-0.7242251126592242,-1.2898249681214382,0.08437340927924732,-0.11063688796595128,-0.043955309739935965,-0.21767456972391205,-0.1660801508481339,-0.2792394026857515
1.7411213069794877,-0.37575429814764755,0.1074569043512738,54.619761495676826,-18.676441592567013,-3.5543964807012896,13.449112099940065,-7.217706331764456,1.4586121104511243,35.712391161585266,-1.7586276288233356,-1.9203225496601548,0.3455095818358202,-0.3323412287761656,0.008265689505767022,4.53132571648806,-14.309048443425773,-3.231072208999217,25.446857419447294,-36.48938822801062,3.035247528039233,35.51727000934303,-64.36514510712865,-0.5695644570491408,3.359729681812307,-1.1465677774133436,-0.16632661156783246,-10.861850008260463,3.5891737372940495,-3.344658887829353,2.9492760744230306,-2.1369194242718774,-0.3208862375308529,-1.1884209505047991,0.3276086616345177,-0.8701128244129288,0.3658013216491076,-0.15736409863714998,-0.08044086716672709,-0.16012296717864627,0.21194979745522163,-0.09176073196384321
-1.3905808044711494,-1.1258559675021893,0.026534807878822977,49.13471281130296,-17.401489830100715,-4.036546118274731,-5.093552539158222,-4.926507056174127,0.40788297553943353,36.23278915655008,1.1831578041661113,-1.7935140990636647,0.28102162206444353,-0.4554389374624578,-0.10490278793416558,4.154775820925998,-13.841161843941084,-3.079188102245209,2.8785908034352117,-27.428318445627383,-3.720949069071686,38.389851191944366,-41.92442110333554,-11.029062494666723,3.7100117057143227,-3.513717809672676,-1.1759813325151633,-6.821657099215355,1.5081641783893263,-2.463480844110372,2.553744591972253,-2.891174261010336,-0.6726591374811175,-0.1328674688407594,-1.1322114336220894,-1.0936352313946331,0.5586156893614643,-0.36840438936857584,-0.1739442596998376,-0.22394377833542914,-0.12218305150649342,-0.40270569725705185
-0.21944397589153106,-1.7378605443382964,-0.3502473849885964,41.52511176859446,-20.675387202237108,-3.563217392899001,9.15317139673415,-8.686951645355865,-1.6419849598924712,20.79475686921848,-7.739225555988047,-4.440695735547111,0.09298648936602909,-0.27207465534315073,-0.1206693309385523,3.1967713927191834,-12.874768364468538,-3.068808281824488,10.35687454395306,-39.68166057115243,-5.596090944633669,-2.7667585056848365,-56.753738077956875,6.297032782846328,6.429458919192644,-1.4782945484553571,-2.1324939343715714,-3.3842204120563246,-5.377832954737846,0.08703908133640245,3.5008274295202395,-2.910630926982479,-0.9138158068190727,1.7568329950890107,-3.158285161397174,-0.7902040317368764,0.5234645166736084,-0.39655379459273715,-0.2785513095077592,0.31396658884015544,-0.5389162894472477,-0.023420929299610514
1.416774238675197,0.5246507064989195,0.14378145319671803,34.10642844788329,-17.250070058096938,-3.155225886336431,7.914302727796811,6.192490061976088,1.3425480287569365,19.42549535756312,2.8171542153782125,-2.2826308676326987,0.3722616808194435,-0.3776169298470805,0.09673993326360684,1.8048126429120062,-9.976294469316166,-2.1749317440699802,8.977211668465015,-1.995183961680763,-0.03726761747288744,25.494711654483815,-53.16115202424913,6.647275177170335,-3.2232014542018748,1.9579440059278532,0.6685589401873363,-7.139304940600566,0.27546789837571045,-0.9493517188102238,-0.05339585767891966,-1.5080179563117178,-0.1151922043521327,0.09098625741143622,-1.6869865878694326,-0.565828193547045,0.006110908034725522,-0.22924383117591277,0.021759690572385,-0.16171275164532548,-0.27422821737652575,-0.17971716870627624
2.493346776541495,-0.7105739291465148,0.35806255534717085,25.212518374176078,-16.785845456071815,-1.9730398803366382,8.86491763117907,-8.042941554889001,1.614879357960127,16.122919246379116,-1.5979357270119179,-1.1999057444251713,0.44218688488891184,-0.23386046713154846,0.15869342732867064,-0.13730853554389744,-6.950210603691524,-1.6159096035029235,4.042537051972573,-29.485874377147887,3.3263202359388124,2.513957431422196,-39.93994766969444,4.752906616431752,2.8640975708241316,2.7302062821155166,-0.8652148924975667,-5.1466116351939855,-1.1559340345203426,-0.988481457023868,2.0455593593362478,-0.7723351191067194,-0.3458644281072094,-0.18110372151983511,-1.8258974058569528,-1.1496677746480395,0.24857423733079695,-0.03958986823894667,-0.13943979583347926,-0.34937264103897536,-0.12751806071910152,-0.4378302725372637
-0.7095581807570046,-1.37783778179687,-0.43745482273521313,15.409440536181291,-11.596752768596811,-2.0463289845153367,1.3723556390135345,-4.45426254080103,-2.006618555122046,2.0358367568464435,4.253148836943923,-1.4691334782372663,0.13147197370024546,-0.3871575087725987,-0.17049266106185457,-2.059960832604422,-4.227346485496122,-1.6646533515811388,-12.488824018498283,-9.134127174259561,0.49614279412984064,26.294399525158333,-45.77069826163624,3.010840444586435,3.1692324569045773,-0.2239512491287477,-1.2616955640340364,-2.390203946327928,-0.4691826040857717,0.02411345111172002,2.146395652900693,-2.6756352953601406,-0.4846809283368643,1.8001300241375473,-2.239573559370718,0.09581044789977891,0.3806457551701243,-0.48345002752547933,-0.18258161448824192,0.2690124203616929,-0.5491727750368829,0.04143768844622238
-1.123738733452803,1.9125762273513727,-0.07769398509819762,9.645856289781968,-12.884890360400266,-0.9267653532791544,-3.2734516310855977,9.290047804056424,0.5701991783925309,6.475989873021051,-8.140581507412673,-2.0122144768181003,0.25287629391344857,-0.3065415949541614,-0.14280682980692921,-3.3061247470855726,-1.2223978426522992,-1.4302090972045969,-14.283598617086025,-8.20870865774199,-7.5140438950702775,21.62118200640357,-20.084906294733035,-7.155596609798932,3.2183640257721624,-3.234507731411539,-0.7291241857780942,-1.3035994934883337,2.950501469475349,0.39739833639374655,1.5032217447034977,-2.3537887759460903,-0.20842133233296276,1.5688013758980242,0.2862809012357289,1.024336322638164,0.19393937921821422,-0.2804758615783542,-0.04356488761134134,0.35500775081969,0.16991030413108668,0.3312802520222605
1.3628539202602417,-0.6091859670915455,0.24275185160042873,8.930043303972266,-10.690497675992633,0.14276725711942573,5.53974524297237,-4.375179887982241,0.9535674120461103,11.788107517793328,-2.5786522325544805,2.7763938179386884,0.28108922616978843,-0.17437934104813885,0.12548661029669134,-3.955632072492885,1.2649301956589818,-0.4966884412773008,2.994715477023667,-14.449807007314146,6.434805086375173,3.666225466521336,-20.75660958056389,8.706490813380945,-2.140313653917304,4.623203664238476,0.5813673327000702,-1.337845743134244,-0.24966558329014715,-0.0710860948244037,-0.9699675507875369,1.064234946864728,0.209246497780947,-0.38898752713043316,-0.2818109454548821,-0.1842485639760033,-0.35032319368141057,0.27698774645244234,0.1078284901836974,-0.1114776016610076,0.059300359328432646,-0.035827165159829345
1.3446325582983254,-3.43841598325549,0.11394636136065785,0.9952950637393274,-13.002452524908822,0.9723253867075708,4.8905976237103035,-13.814358452209975,1.0849958818437018,4.1724967078732424,-22.235927882160652,2.302494202900537,0.3392315078807603,-0.5144783690566956,0.008523028219813981,-4.540848052995622,1.9149991242159876,-0.8998676736616837,1.850790774086511,-46.49159459009689,5.1102186813468835,13.151152060797163,-28.295570388185,1.6645274292357035,0.6027530666751216,-3.2526611030736188,-0.5001867898019213,0.03949429396840874,-3.9805107774212747,0.7656898346031697,0.8258651572671701,-2.026636665789555,-0.6138281688357683,0.863260185214039,-2.3784993166131945,-0.13636579325434833,0.26862770072837044,-0.3703888005249582,-0.17484642623662097,-0.006821661210345534,-0.3585736756321734,-0.0047056628719836305
1.8288679341201508,-0.9891073819921717,0.031684170944942386,-9.82286908377982,-6.005839502046153,0.4812584287686051,7.641672157650527,-10.834651838824238,-1.1047350702492058,-14.997276985286012,-16.74226178043527,0.5660892302905565,0.1949087773881707,-0.14051148986121406,0.09365329842663521,-4.994391461761335,2.564715508437607,-1.3953885443073661,-16.99367617910657,-37.851277881389116,-0.5415780543222383,-0.5285568322094345,-21.549132141100888,7.488356243602172,3.210992728781087,0.16242242230412554,-0.01880270160957685,0.08561255887039651,-0.7577718807706036,0.2541471563616395,1.633218897887211,-0.9963791756665307,0.4649446216796419,0.6412601942898499,-1.1197330615144276,0.2761922638434357,0.25851040716400375,0.08296648876017644,0.1378615685164341,0.07590654283777422,-0.16708855931977115,0.11507007012850132
0.06318890921430481,-0.9579869072285625,0.07156510227265049,-10.015470563812706,-4.086951647449599,0.2513777189969879,1.733221596279298,-1.1274258507004455,1.5148347993795581,-13.3198576993627,-13.104673318356824,-0.5950244575785149,0.33926158923433997,-0.3940118038242023,-0.046753515824761636,-4.572226515228364,2.5664944399065113,-1.101004680630767,-13.60758863299922,-14.376475707309366,-2.00939365640368,3.6072361525626953,-28.20262855962733,3.5102109775714987,-3.178040404586021,-1.2969756805034454,-0.0031977934111781237,-2.8255794463365924,-2.3561880287360273,0.31390195958933026,-0.6352071576349353,-2.264509162713032,-0.8543987917519873,-0.8569478892304756,-1.519442576025041,-0.6748001600849098,-0.04070915569006596,-0.30779751282463175,-0.0790986916712708,-0.28521894895650474,-0.2322705988174788,-0.1773466990018012
-0.3045443610796734,-1.543936669480069,-0.38188025758777405,-5.527620051759187,-5.341448429119598,0.1912601676600595,1.8321279205404974,-9.47476733053017,-2.2611054300466327,-7.178318070930487,-19.96891059193384,0.1212123956143014,0.19933117123177407,-0.2445082870199712,-0.056114067175948926,-3.874211983171005,2.0757699935190175,-0.9164238167630006,-13.14782646441102,-38.44187166310869,-4.918723000267577,2.8274313876987716,-13.021585391671929,-0.6926647654818157,-1.3525354674566397,0.5328674181247117,0.11832064030896272,2.2736695630648622,-0.48829384337622517,0.4835966649276117,0.24700824612002442,-1.5972553198342154,-0.516850566120886,1.4832350654374375,-0.46258688569377865,0.6264479123140058,0.08548882796179981,-0.2655903671702311,-0.12342291931036095,0.21121507245306276,-0.013836842488854736,0.1342194544267312
-0.5385754215175835,-2.3636412905783977,-0.22276035031827476,-4.365564859017986,-1.3966398405533456,-0.478938207817947,-6.219427578296638,-7.662931161258113,-1.1101770359184384,-7.189316257079451,-1.9203704826728218,-1.2721205748692859,0.3552106804676963,-0.5156954315144519,-0.07378163304497597,-3.4424977904303167,1.8966190088056374,-0.8609700334554808,-22.47768736239741,-9.258819438702993,-2.002077897319997,4.357545427756721,-34.71095739834601,12.014265181381937,3.8646352698414317,5.4336086674249096,0.39318465862123336,-2.2100214323952247,-0.9283382366397821,0.44095124159017995,1.5370665500710425,-0.21710485710485578,1.0433197891884187,0.2507093843737672,-2.17111790887101,0.2489308735041551,0.20171659144260307,0.1381571665349789,0.15214375895772686,-0.0455679968170873,-0.31145057129210424,0.09228941877088409
-0.20056601130423107,-1.4861346996184923,-0.2931494988601153,-4.058530631177912,-3.64653870246749,-0.32092457895476106,-1.7436998135647421,-2.5039660832988924,-0.9951855112398589,3.9180327885659927,-16.05821947408305,-1.0510474218729229,0.4177378745133,-0.5503779198762571,-0.13720350223586528,-2.657656276577638,1.151136798224635,-0.8458653951680308,2.0461081171978,-21.65890327839896,-8.669362357247984,17.485637201331006,-8.54829894298,-11.838439249277366,-1.9524253900070374,-3.9811184915496187,-0.3936221647852855,-1.3062019534703952,1.8763898576702849,-0.39377135625943854,-0.5505156034209187,-0.9203464771236171,-0.7441360271736782,0.6198288087622074,-0.32446041767151296,0.22959571637168733,-0.04828844129170342,0.022485926998054077,0.018915537589433686,0.05715428923282943,0.04064317976954571,0.02255036009427264
-1.9371486054012803,-0.8085763170970869,-0.36727156648589643,-3.969188523646258,-0.23061708041755977,-0.11591753284727604,-12.166180273961976,-6.818852619511416,-3.1343619629961643,-8.38868690482598,-4.557086134230634,-0.3651605278379897,0.2053948662495204,-0.2826515126382342,-0.06662951841152277,-1.0954001344720756,0.32781690227256177,-0.4562430929464295,-30.384348806384565,-18.409138512680684,-6.746596481891602,9.644464321957145,-21.602789665502083,7.163617066494698,-0.8960572047696601,4.754729590472251,0.6663229297235913,-2.811506934059881,-4.700256316282046,2.7021813930627876,0.06870082401851915,0.14386349389062242,0.19724968180229724,0.04644480367840223,-2.7935308262254925,0.47522828326446337,-0.08878443643072799,0.19042446119379144,0.029636727889516403,-0.06285277908866825,-0.4626046087153609,0.13949045154054934
-5.019919185160528,0.3633101247927269,-0.742257594885185,-2.9245256997670612,2.054020552747435,0.017125409607583984,-16.051027865354687,-0.3316979874111329,-2.859272586346108,-12.685900715784475,6.50415489587394,-0.026855937633184133,-0.04076474861957834,-0.3276635877861701,-0.32992174010944597,-0.006043931705089657,-0.11359340019552219,-0.08946460337666047,-41.570144602486536,8.321133175718144,-1.6866785258506736,49.414228531424335,-27.51658290376021,-7.442722065444349,-0.31364469272949663,1.7743374005133208,0.4461881276952194,-2.3726262407911127,1.8060320085125054,-0.4714844308053033,0.6917430943186419,-1.4861038955927124,0.054934599955324175,0.4914101633406627,-0.9044256385141873,0.1435485805773344,0.21984929444705087,-0.135476894723969,0.08716930667817993,0.07688087634229908,-0.22285100558874218,0.037294380861048484
-3.326929913072863,1.2829763850859521,-0.22465320401503752,-2.029391123261215,-0.05953733704359643,0.02432314298060967,-2.530205977474133,-0.4874391859265017,1.628974431264565,-4.924425685662869,-0.5720213335930768,-1.2161648372322216,-0.0207434106282886,-0.2697050922130025,-0.26109567679753953,0.24267349263094184,-0.4435735985330743,0.0026963242185889893,-3.125026981948589,-3.072592407563653,1.099486715953911,11.144625730300435,-21.884261557553675,-0.06731069605547371,-0.32923937157738575,-2.752488556264038,-0.7939745564053331,-0.8003482304951306,-1.0610811285965587,0.33502537628439016,0.18335916360663584,-2.5168287058786767,-0.8541500567182788,0.30158743807101507,-0.9303398643472263,0.20372307628803218,0.023764113065783295,-0.1668085110450981,-0.10358990263223704,-0.05716111019434159,0.06597966486542105,-0.039244789208644396
-7.739877894593494,6.165103168057228,-0.7337725875345125,1.3753444569083653,-0.27824583704500133,-0.06758295906261756,-16.382958164307123,9.855461905292321,-2.5927985603537227,3.183940090659657,-3.5653002227241193,-0.38375098082814635,-0.3577158931546269,0.11763817382907321,-0.40179131586013306,0.43419042849966216,-0.5676029286117966,0.08008449724407586,-17.464114479233523,1.7045901633241236,-7.867163019932838,28.788394500955867,-34.017116520558766,0.8185983290018235,-4.319761277682752,4.097941638843497,-0.49504869661493245,-4.74172848994438,2.824613556783868,-0.3254659999243783,-0.6368531219211498,-1.2577009282271483,-1.6288211115009181,-0.6658408753876168,-0.8538561174107803,0.12593454841814875,-0.12257919205150843,-0.06437003664715125,-0.21146147002952392,-0.08130667099002846,-0.17472733650058206,0.06729527353266274
-10.377885641612671,8.114375276662214,-0.8966528244590781,0.35753957562459326,1.0163310420494815,-0.015126719715043672,-23.51823498029331,7.102543535800048,-4.864174912846037,6.458062817071072,-2.7843985458159937,1.1541963109731745,-0.8113017977019528,0.8855182945062334,-0.41272395352830116,0.23523900300174513,-0.18480254964701137,-0.028084710786390958,-18.653582722921673,2.773555907229188,-5.232957925755421,19.672119744220733,-27.832756490531956,5.526155461984594,2.0447428425038057,2.5480874231121144,1.2767597651653484,-3.7364647651165064,0.4347881878735781,0.5213871598192219,0.7650796254900759,-1.3950554389242353,1.2639832425095976,-0.014535658332500069,-1.272378826417178,0.21443431306721453,0.17065149136868019,-0.18300324882857835,0.214394763685151,0.0369589189609792,-0.24815540618384854,0.05664997173159585
-2.8545157246614608,3.7992814433702584,-0.10759930530293696,0.09758935548885113,1.043891054990113,-0.011144007464535198,-12.01575832596215,9.339176477923584,-1.9029879252406579,6.173430959193684,-2.38786158719998,0.553954974281928,0.046382925954077815,-0.05375472257473279,-0.048477255279038185,0.1860156648591156,-0.19821360361344895,0.03129027770334941,-7.360840554872886,7.384103426119579,-6.925087189165483,26.05215635047663,-31.87204355282937,-4.920721327551425,-0.6815785809703293,1.4877738392869193,-0.017653986990527868,-2.224945499794501,-0.5218799274792536,0.633774476046899,-0.08401795920010015,-0.6255975257794003,-0.2898910906692136,0.019490814145027433,-1.2284281071536385,0.3045524235482306,-0.047028901406107486,0.08347519838881279,0.01525195259799766,-0.030779861000651988,-0.1342621671496071,0.034992003436802796
-3.8645051593454154,2.365010527171803,0.0007721937495133793,-0.49386401251883394,0.20570852075007887,0.0390449645511836,-11.400782116764125,-1.068905915609235,-1.8104361661308341,-5.419640636035205,3.719611282354338,-0.8803166957363243,0.1290937105623563,-0.5093350385672358,0.02755584579334157,0.3446780722151337,-0.4299089076125865,0.10214925635615481,-21.232915345252373,-0.3236112410157913,-0.4406134137364767,29.130020615376136,-19.08793096949798,5.770366874185997,-2.494357179953321,2.118282603782862,-0.004979906416503584,-2.1467216472900916,2.1182028163483695,-0.4540550238958536,-0.042368222016648804,-1.7787926229457647,-0.8878892204716472,-0.13444625386798068,0.05794597004556474,-0.0024429001091705875,0.010060561011177057,-0.07671513246572834,-0.053018835560776,0.029578129714854334,0.008462096729162288,0.015270269515316586
-5.7365833153685095,6.222482502938765,-0.25340411470780805,-2.0030435488049703,-1.680632809584813,0.2909142655222513,-20.436355043959917,17.653866840399907,-2.8241088691330556,-4.859875541332654,-12.625200958590462,1.0457871428694283,-0.2255486331021468,0.14234381685753775,-0.3270701571704896,0.13080149891424658,-0.4489803786006934,-0.10591954598498245,-28.99475175459379,2.028339735379662,-9.98563289900655,28.645609720356227,-26.299568157864602,-0.5440374484917458,-1.5508115369483109,1.0431750909887647,0.02057698981868719,-2.3304143084916804,0.6432642083234992,0.06750039602435132,0.20087890681553278,-2.2835637249699157,-0.5989956907894453,-0.09247077319407186,-1.2938265648546012,0.3749723312891779,0.136911485618708,-0.3358345706830394,-0.002660241581947262,-0.040315127494827935,-0.2987870936381991,0.11541501594300266
-5.084204302307709,4.056537987217201,-0.28623896014073025,0.11392294057593322,2.4066230769371963,-0.06011481222840458,-17.751852203914027,5.687433645838723,-4.789200459940847,1.5752256430399567,7.481924687666265,-0.0020687208691211496,-0.26144392199966576,0.21277086511276072,-0.21901533661696565,0.15776805566290775,-0.07193413465390747,0.05600131318235177,-21.523756927375004,17.265413451959176,-4.994525155165334,10.96689249669095,-31.942399472721966,7.502395326996979,0.04330264849581821,0.19553813584945232,0.908741738338995,-4.37129031296792,-3.289514593735003,2.6536602080899088,0.3030263191745979,-0.7249454273657429,0.6116089799727806,-0.39619367986068255,-1.484667519116934,0.530965174410841,0.02363428899358439,0.0001116108763746669,0.0161213530568302,-0.0023989416786354277,-0.08844339763025628,0.08614504336128911
-1.0128750295787832,1.3746006647731404,-0.10408781499994077,-0.84060615241004,0.04207624945209798,-0.27899474768209676,-0.8671953136734011,-2.239710334904581,-0.45601973548160374,-5.499244525329036,1.2555370681731528,-0.9252654802520492,0.035095291585879464,-0.45518419034090646,0.015619828483816971,0.06439493881593623,-0.3657923000229421,-0.26931400385771415,-12.19571810707302,-2.3235076161734805,-2.679885694710964,19.28105338272654,-13.869529082292116,-2.2380012304668453,0.7730176646303335,-1.2668086248947945,-0.24782045995614235,-0.20285494466809656,-1.1046677590718539,0.4352756134519896,0.08092899422795921,-2.1407389925259337,-0.215338746487481,0.48715144477833344,-1.8512431785067467,0.6517602794737406,0.02109124806715842,-0.2831545848377802,-0.05623510637068848,0.09188369131278536,-0.26541277588998935,0.12322506113367672
-3.8308794306542313,-1.3415685528808359,0.6812362473318966,1.9452647114466726,0.43019104420383475,0.10025266560676416,-15.03153056941259,-11.907966839540034,0.2563040761700079,9.031640411630438,-1.8216065454270352,1.0299201294006337,-0.07953835113247697,-0.7840864928448967,-0.12239587543391388,0.310741142977534,-0.34029642243063934,0.12560466554138447,-10.587018944086282,-17.41676434651122,2.9344274161125083,14.485979198624822,-24.047372486521372,4.2632949629003125,-1.5733891275127583,4.085935350514335,0.5859498679988809,-5.023724653375444,3.3603456714522233,-0.7659537492984491,0.21522426940848255,-1.3831533970928882,-0.14368920570429186,-0.7622747616922319,-0.8414945963113338,-0.03739299093921262,0.10705766786690249,-0.047682439303355306,0.2055093698648158,-0.015611885424976366,-0.2018182875210323,0.04575783076258996
1.2288462256081998,-3.4252402923433305,0.6961481064665853,-6.828059293307827,-6.527959684082944,-1.5700562506310036,-2.2864415455167086,-9.763139338974876,1.5449375305071826,-7.118904818044222,-13.830366753596827,-2.126762552233384,0.24311619364151962,-0.9492190734418038,0.39174190052017854,-7.921066991065926,2.6975734870437478,-1.5645756513147844,-19.452952115851694,-27.55611580661276,-1.3351227994691677,24.17269255948029,-7.062779614094897,1.2927590056822789,0.3863093223767981,-0.5113126820198746,0.06434991590978248,-3.466288807274009,-1.8715858494948892,0.7912889139805547,0.43863347533675506,-1.3215856674283322,-0.029825255798818007,-1.1853433875684796,-1.5290240126853125,0.14348120694608976,0.11994565592759572,-0.003964320851775569,0.05287172080216125,-0.3525621105971808,-0.15979494990428628,-0.009470212451498086
2.2123674615679256,-3.2967229965426244,0.5238169885085245,-12.321808133477884,-9.579176922180855,-2.8795534713518607,6.284124845614155,-9.497924700754021,2.6447962764351725,-9.407032940381482,-24.796936142497827,-2.696837036527539,0.2397752097551779,-0.8193647097303952,0.4369828829147499,-16.588941124843178,7.707746048666216,-2.7860683733948064,-14.151912175741733,-41.3325174769328,-3.8202929844198157,-3.2324404609907127,-2.9838579183961182,0.2910149588176366,-1.5770806988370083,0.42992725447001495,0.23064225793614226,-3.9351366068990368,0.5437885938732093,0.778475398850141,-0.2611424616270623,-1.767114052165381,-0.2300713417698825,-0.5134636229951401,0.6910755648268019,-0.30987019722646236,-0.09257658287189231,-0.19056399483080588,-0.03858717824031081,0.025658388755603837,0.26251316325342,-0.061376018931372046
-0.39632143258785973,-0.8862662760515474,0.2199510962738802,-18.539787618871458,-8.932385757670405,-4.474190262780672,-6.159813285457825,-4.0644506696814515,-0.4086596838886575,-10.7586269336673,-28.652966586141904,-5.28642063116027,0.06860991722260512,-0.6138027177425284,0.08173805793718661,-27.745293922095836,15.033211664774232,-3.902385921823657,-39.6537883795639,-35.858169843724205,-11.794971455651382,33.80280662557982,-21.115143578386466,5.607253766048181,2.079444094194353,0.33732575649546,0.4899666786049763,-2.099253303979801,-0.8133531920936421,0.6736447915210906,0.31521797327625894,-1.8190712219757426,0.5379911641068037,0.06471896692805175,-1.7910454280106525,0.5980997168366378,0.05229272320911589,-0.18509095586940938,-0.012843075765424905,0.04077840860470747,-0.24114499236494394,0.1407405211892488
2.451057388317083,-3.5027979925623702,0.33350966944083327,-24.32948754598523,-4.128959604310901,-5.29665068022386,5.750794202400388,-18.735868536122084,2.9277635248156435,-12.602541309300083,-24.13414337112832,-6.693515779185195,0.24668376173252612,-0.4669360240079729,0.27478409835959394,-38.75380248417117,23.71888123770766,-4.182129008852409,-37.31086840931951,-50.407790370391005,-2.61293212479055,23.61208577557485,-13.598379607861839,-5.026194783656129,-0.35600388250361853,-5.460792585475105,-1.3475767576102966,-3.724462970898616,-1.4581967639345843,1.0672807501597572,0.36979070885937154,-1.9003572750995386,-1.0620997927759146,-0.5645609657143144,-2.391013525175725,0.4008272602301157,0.13689138937943263,-0.19445871852522661,-0.09106985044083776,-0.15883713043280892,-0.41784288930010033,0.09700275752385881
2.346297277878666,-1.5834022468641833,0.04537333003497782,-34.02264198840212,2.855869037672071,-5.351048231900544,5.303567212181268,-5.558074867191649,1.3888532500970259,-23.880191512020417,-13.387151295928444,-5.393932791651,0.15524061582331972,-0.30969903716887615,0.2310703026756648,-48.977951072139135,32.35023912400804,-4.057906693839054,-59.00251218666432,-24.587709334877577,-8.724212256114507,2.7203672184143284,-5.512981814471855,-1.074916987902077,0.495658695384054,-0.5842033386563596,0.3589010280213007,-3.3659910666446105,-1.2514475919345642,0.5354147804448747,0.16034054948572232,-2.0933960922907002,0.23711222139908833,-0.6900520665426336,-1.7387138689367647,-0.1660181319766232,0.03483977195005286,-0.2910201547704191,0.01936522608862671,-0.14478896104988564,-0.12302058952174444,-0.08675083585856924
1.4038306633345967,-1.9663536821033132,0.5821573929141888,-37.00854806151204,10.442440940153555,-4.617721903193323,3.91442860117685,-8.968703327025471,3.3915392329941034,-20.204795437067048,-4.433379178836989,-4.277102209880593,0.2351299961081859,-0.28039844533753483,0.29082713355351875,-57.511722375618184,38.08727153345002,-2.988693914886635,-63.58313112850577,-17.631026923633762,-2.752857307855735,14.965976852444644,-8.226389659717372,1.11566458943398,-0.662307682241916,1.4931610359480503,0.6829598178728913,-2.466810909470217,1.43260084419631,-0.25504995101302314,0.09129485655507069,-2.0765386139596593,0.2351425920456104,-0.04497888373317938,-1.3521194319748873,0.22383609122605458,-0.00452774479172477,-0.17913401167499932,0.049795370762469884,-0.020113637369064703,-0.2477339069872596,0.059668203852403935
4.684805802256139,2.090805574425326,-0.5895873089931334,-41.57809631393193,14.632847789868558,-3.887234827440578,14.340334216811467,0.15586045105044302,3.060334856195164,-18.850680420672436,-2.963495409354809,-4.835675720995905,0.5556713237222488,0.020882096604804765,0.5536382735602724,-64.68475622682627,41.12201974277929,-1.8365114838782437,-49.745937967204085,-5.891346348116416,-5.702219372203339,25.79966409631959,-8.890432862338866,0.8812331620866029,2.056620303122877,-2.7213842082690642,0.5776373637197147,-1.8761362137849797,-0.17605880654414596,0.5882321899996769,0.3314069114617721,-1.807563363355783,0.8773879799993444,0.0276492160570538,-0.7633978500353111,0.18245927976454826,0.07966575123612663,-0.26698949350170703,0.15297233901237617,0.06205773176122878,0.012308764252065228,0.05724769871704795
10.192881844167406,-1.5001159311349597,-0.5038862253209274,-53.424442202312335,18.66493809316743,-2.344793256819137,24.900154974193335,-9.475098601572997,1.7316164594051635,-43.489408757014175,14.454994988018015,0.126419005019913,0.980131589706984,-0.6561828375485668,1.2320385234128917,-69.4754974221174,41.920014836440416,-0.8078629093182059,-72.92245693890807,-2.246164606970146,2.0065865500011038,27.754990659466607,-6.125452011526753,-4.402575368259951,-2.2478329682194063,-4.951666855468387,-0.7161629777779657,-5.386590257785174,-3.6915504319539556,2.0127578110399864,0.13448969142314854,-2.2442150348344394,-0.8273607902097259,-1.0621863239581413,-1.723776647253676,-0.3638443136780918,0.04314559944109576,-0.2617756966989699,-0.016463279223974905,-0.15567925766441604,-0.1494820245616578,0.007971069592105803
9.278684179024026,-0.9284220893470615,-0.284245408445035,-65.64063355599987,15.72820767500602,-1.9785753759237015,13.021697965189679,0.15535210352613715,0.44572732510231305,-74.27211637756186,23.80487737579901,-3.7193250084584504,0.8425120847973016,2.403323694458608,0.14927969813287142,-74.11352904812541,40.59469797488996,0.04047532916939724,-124.79789867898289,27.98163541482801,-4.6386504005921045,6.719585890690802,-14.3533031228234,-3.2444543784260493,-0.12872214462969567,-0.48306113417327473,-0.09566633846489103,-2.4280215974815684,0.6570565303090465,-0.7392435330483762,0.40087330575398405,-2.34494972945565,-0.2764813234114262,-0.605757100963952,-1.9022833899945826,-0.275018512534153,0.08873983905441987,-0.2025436902004157,0.03442639895904114,-0.2325519537949874,-0.3394439748815528,-0.09390485267075287
6.066075924629223,4.679898862727087,-1.4209532032007868,-72.47232446197131,11.036165810878584,-0.9909838166880653,6.474243919206504,5.756851141704587,-2.7180838325808394,-80.37909653562217,15.194958765304936,-0.9009271338151894,0.6724556557796795,7.295957948070996,-1.1380626178483757,-77.67874926285091,36.98370046626405,0.7410045466568811,-132.21174780232633,22.628856778029974,-7.299830868189479,10.207298883835204,-13.784290372799559,-1.2966804648733594,0.9656686818090019,-2.65435448008739,0.26962754061445265,-1.9133439852062974,2.6038016817779566,-0.14482853141891033,0.5451482369047627,-2.861175846354932,0.22861435666797839,0.25036520998097744,0.10115592820750306,0.03848628641272475,0.1080319044906795,-0.28898759215414177,0.002930655462440632,0.09885285754434861,0.30844633416827066,-0.016558656745856208
7.660640007258816,7.062967541927759,-1.129945677157978,-82.14270900240835,5.849842306813118,-0.2955015215581631,12.168524864493032,2.464162132611863,1.2039211542799013,-95.981711016033,23.03101257582323,1.120153586256615,1.207167414414782,13.398792958568794,-2.0701259031170323,-80.20777757352464,33.06220843655775,1.0584486042409678,-134.83635105025482,26.546417948705923,4.515528556870886,24.986897143987076,-11.559092650911934,5.146687202584384,0.8395772110566256,-1.3199238696898434,0.20679937137751642,-1.7890726619192092,-4.396892331811058,1.9484524641886676,0.42521914359876717,-2.738928544341159,0.1727002025642646,0.3250131705136884,-2.444582017508568,0.30462788390052176,0.09516678153348124,-0.3609141459933454,0.04225612306324093,0.06063438878440501,-0.49897114526363345,0.1098273895002225
10.90074962808541,9.544206291229635,-2.056462771290462,-87.39514656804313,-2.801318361401275,-0.4507910136816656,23.92081536009179,4.521566720248391,-1.4010049600106333,-118.35239624933484,16.481321978118444,-0.4662546356300015,1.5519565660371708,20.429357753108476,-3.572616521745233,-82.51495565973406,30.258005393433233,1.0466469516828796,-142.1172993479369,23.40254119316008,-0.5080041001384458,10.152788177696772,-23.211295443170716,3.095184245105662,2.5069090048003724,-2.260802244599591,0.5677870582876265,-4.2966798225537755,2.1993736482803157,-0.6466254625292013,0.995849720829575,-3.629758214859401,0.6172292146433254,-0.6473284911077714,-1.2037859712447214,-0.6159756111373781,0.24959426066980223,-0.41870869801055116,0.07646667083819482,-0.2280878336569671,0.02148177093738027,-0.18368683522551313
8.937710708117757,13.783612577739088,-2.844224539553196,-90.53836344764444,-7.131081938885135,-0.20425679197152358,16.548326895203413,7.502644185423254,-2.3362544638701217,-122.54177422203581,25.880409290663426,3.814397305430637,2.6058467800041756,28.047513821377446,-5.5967719977593875,-84.04329691951865,29.48241856257651,1.3017804832293667,-138.20061349347006,40.80479712629744,5.66015006229044,10.714349243567085,-12.792149243908696,-4.483540523791476,3.2536305320357277,-2.5765704735345647,0.8516418605486541,-4.204316903139881,1.221455676025528,-0.8046283717833906,0.881737915235648,-3.420675891291256,0.8975834490479828,-0.2392483636216633,-2.132360367311244,-0.7004756782653819,0.2430380983786867,-0.43856076015922024,0.1367438077890375,-0.0157254173189944,-0.30625376512136143,-0.04701769620156877
9.49538247510856,18.111368521092274,-3.7470014266165306,-91.26695940888685,-14.748691243277197,-2.556644666090341,9.028974819381466,14.047733880309876,-0.17941564775052776,-122.60810889016912,11.77682287990469,-4.784806937995778,3.9264702404670873,34.46461999440604,-7.49847174792167,-84.94633271635337,29.400494383196733,0.6177633076973812,-144.00929674021276,32.894870266300586,-4.4204799254354645,-5.455327983938837,-18.268754282980172,0.6427640667713079,0.3956079929338952,-5.183876351348753,-0.27345574031642444,-4.0439298251780516,0.4355286406014913,-0.33878719050903155,1.1540434286309542,-4.089454388211125,-0.34332395952071304,-0.4714284263963774,-1.774443640554444,-0.6558351124794036,0.24423013156443846,-0.3958011496531815,-0.07158155970250452,-0.14044506436321266,-0.1932122754757116,-0.0864335202114824
6.441906574082283,20.99220847098025,-4.767078895304708,-84.8881577868097,-17.76564410672449,-3.6140995085339798,-1.0535848596535575,11.243525789382273,-2.5378310715894425,-109.99141091622211,-6.002585404879149,-3.234811521654504,5.23360501400445,39.99915631650982,-9.181496151716372,-83.7325263726217,29.917567179398063,0.3753357545860301,-130.50585445342813,8.689573686614006,-7.067305095685398,-1.8969257435722755,-34.083318137094786,5.893949766358937,1.4173398929553565,-1.5438146787993077,-0.027335521142463487,-4.1105983481665325,3.0051797492450865,-0.7161543962811747,1.2182759778240801,-4.284353865271649,-0.2943730823675016,-0.07889466805450812,-1.0811315529795975,-0.5760286949785425,0.2625627119081785,-0.47576800941419073,-0.2172292976518212,-0.05071773363286601,-0.07928099218675984,-0.15713532868260643
10.208086398881651,22.803954795644362,-6.086485082621943,-72.99969258321737,-19.280281041343002,-6.023278324444384,6.865581048549231,17.932863292602743,-5.454046241999476,-88.61366761734959,-16.89775327358456,-6.404749982779911,5.582852788346263,43.25926665407935,-10.187393503224438,-80.27185417167104,29.58028333870997,-0.4866684125770864,-95.34786044894433,0.44754255556295086,-16.823426315981365,-3.0165796833640566,-15.744843792518779,2.9638630916888453,2.8695348058789607,-1.616832446730088,1.4369575030225215,-2.845189482499898,2.561467719065817,-0.660892610788548,0.6626954530254374,-3.180964501616753,1.4421749747127441,0.31881828346120406,-1.7281875077018427,-0.11019673117143526,0.10263907697760936,-0.3832190605717732,0.4281601939526249,-0.030823342714557632,-0.04148672847574556,-0.10621976565209944
6.637761728803774,21.568160602833835,-6.072393437382074,-61.485912009578094,-24.37534157371094,-8.475603258627642,0.11537436162374452,10.44642788636305,-3.257371021486765,-72.99444539747392,-28.839254168078124,-11.252302562833336,5.293781914743071,44.40308668120304,-11.026400587048636,-72.93486408833488,28.754084852365,-1.1993380423854625,-70.86746303769775,-18.90199897558496,-15.142097869618896,2.620617842670358,-25.59450026099466,-0.9660177310415219,3.045741231652179,-4.740759757848501,-0.20828117250933123,-3.7826670722151987,4.64116860957459,-1.4966631533726635,1.1212575941183545,-3.043957585190595,-0.04040660866248316,-0.16471222888422474,-0.6458829223592494,-0.5271643515707493,0.18738022642648788,-0.35000529668916114,-0.003495627526901224,-0.015836287221750105,0.015227799840624173,-0.04835604265967213
4.379211947890905,25.25816236345667,-7.083305505793995,-45.13261699268735,-22.520593907555902,-9.830912127596635,1.4471889242640825,23.26359209909376,-6.245652445310809,-38.9012481511236,-37.84963979479164,-14.229803120891122,5.105111632624198,44.441848242390364,-11.227351241896445,-64.8645518859824,27.34625865999358,-1.342597687553852,-22.543392567238214,-14.713270012339319,-30.693176901760896,7.072223979179827,-11.182118600474006,-12.61690889401425,2.310386958648165,-2.3608184284728,-1.2661942692385024,-1.5506724792605868,2.1559243557291827,-1.2516137149621902,1.0760264159350288,-1.8134871632260159,-1.1316046962703794,-0.002105577765000033,-1.7088975274770137,-0.19709441166888564,0.1809941492321875,-0.22222540561620419,-0.2358599452456988,-0.09417916105887655,-0.26129629859441117,-0.0696518245534524
0.7838601389863101,24.94644075171813,-7.360455184068483,-33.76025089912231,-21.255469758077247,-9.723647640889396,-6.256580388644627,18.360972053936145,-7.172288615263474,-27.18642857057914,-34.520550125980655,-10.875899297132625,4.377604823236185,44.271654010832634,-11.437826250929204,-58.236400430682885,26.449966158961942,-0.9951036993502136,-24.686148466756684,-12.185457485977722,-22.142072362249003,-6.103556193888954,-28.8561734777106,8.411497808779185,2.2767825822049517,-0.9294367241689467,1.7725785069631947,-0.3367732303192,-0.8716798248501091,0.6090326747702421,0.1906868045377376,-2.0500804316804633,1.6166540659764412,0.18698893221353444,-0.9306885663594477,0.3674407162580669,-0.01055661460192531,-0.19417472468684982,0.37448232391108166,-0.040823291253083836,-0.11564366041139197,0.0345794520218515
0.07714844898455513,24.255368063265394,-6.528110094667824,-27.065172862114512,-17.27325761887667,-8.660384785731278,-5.916478496606829,12.07887688346238,-2.779756554593824,-3.6853253739837295,-41.88505373114444,-12.266484098100571,4.173628600144307,44.72212272772843,-11.069595820797787,-54.05020533272013,26.488250185883764,0.30653701577437925,11.179728687584797,-38.72191486668286,-20.352801169247982,-16.071063446797805,-13.157412651614457,5.152148968491848,4.655323647432714,-0.012206661519535986,1.1817604698226134,-3.280899712342406,2.8478540352934507,-0.8552639264628469,0.29856284095052166,-1.320171969866349,0.7669411148934189,-0.24377619342379708,-0.4137928917219513,-0.5984473359657203,0.14415941764414894,-0.02966422915173951,-0.09502444315242684,-0.04721480437203755,0.05031370668773867,-0.10420943205628058
-1.988656085944963,26.3058740697696,-7.02944403058102,-28.178933883106993,-10.657972363912853,-6.199803749232118,-9.340144044147303,21.218926178804285,-5.981933131526565,-9.031495849692574,-28.276115187318652,-10.265567572066633,3.603770411936624,44.21309814130959,-10.923440104293336,-52.90511650814791,26.530678926308532,2.0279242838034697,-3.1864205209352487,-10.516984708359828,-22.464770206197425,-19.574425165478914,-7.497829673542742,8.355797687510401,2.8888019512081047,1.3583327495621105,1.2989586784480016,-1.674446574057704,0.5419997682366007,-0.5870735954190586,-0.2665925373050794,-0.701970564202732,0.8655592509505137,0.12244715191633161,-1.8401551348169651,-0.24792608461575746,-0.06818063652984432,0.08646236232624717,0.02359986296483693,-0.07919129096923007,-0.215644830011643,-0.14514965812395877
-1.56182,23.77446,-6.4096,-35.08231,-0.45094,-1.98027,-12.75878,16.89602,-5.53786,-21.72111,-4.01143,-0.4476,3.43012,44.3452,-10.56171,-55.82017,27.94525,4.20649,-23.67645,18.90534,-5.91438,2.31339,-29.88881,9.29948,-1.08474,-2.0907,-0.64586,1.27271,-0.97734,0.46606,0.83489,-1.5372,-0.3713,0.72187,-1.34074,0.81758,0.05644,-0.29203,0.10601,0.07512,-0.14654,0.13442
,,,,,,,,,,,,,,,,,,,,,,,,,,,,,,,,,,,,,,,,,
,,,,,,,,,,,,,,,,,,,,,,,,,,,,,,,,,,,,,,,,,
,,,,,,,,,,,,,,,,,,,,,,,,,,,,,,,,,,,,,,,,,
,,,,,,,,,,,,,,,,,,,,,,,,,,,,,,,,,,,,,,,,,
,,,,,,,,,,,,,,,,,,,,,,,,,,,,,,,,,,,,,,,,,
,,,,,,,,,,,,,,,,,,,,,,,,,,,,,,,,,,,,,,,,,
,,,,,,,,,,,,,,,,,,,,,,,,,,,,,,,,,,,,,,,,,
,,,,,,,,,,,,,,,,,,,,,,,,,,,,,,,,,,,,,,,,,
,,,,,,,,,,,,,,,,,,,,,,,,,,,,,,,,,,,,,,,,,
,,,,,,,,,,,,,,,,,,,,,,,,,,,,,,,,,,,,,,,,,
,,,,,,,,,,,,,,,,,,,,,,,,,,,,,,,,,,,,,,,,,
,,,,,,,,,,,,,,,,,,,,,,,,,,,,,,,,,,,,,,,,,
,,,,,,,,,,,,,,,,,,,,,,,,,,,,,,,,,,,,,,,,,
,,,,,,,,,,,,,,,,,,,,,,,,,,,,,,,,,,,,,,,,,
,,,,,,,,,,,,,,,,,,,,,,,,,,,,,,,,,,,,,,,,,
,,,,,,,,,,,,,,,,,,,,,,,,,,,,,,,,,,,,,,,,,
,,,,,,,,,,,,,,,,,,,,,,,,,,,,,,,,,,,,,,,,,
,,,,,,,,,,,,,,,,,,,,,,,,,,,,,,,,,,,,,,,,,
,,,,,,,,,,,,,,,,,,,,,,,,,,,,,,,,,,,,,,,,,
,,,,,,,,,,,,,,,,,,,,,,,,,,,,,,,,,,,,,,,,,
,,,,,,,,,,,,,,,,,,,,,,,,,,,,,,,,,,,,,,,,,
,,,,,,,,,,,,,,,,,,,,,,,,,,,,,,,,,,,,,,,,,
,,,,,,,,,,,,,,,,,,,,,,,,,,,,,,,,,,,,,,,,,
,,,,,,,,,,,,,,,,,,,,,,,,,,,,,,,,,,,,,,,,,
,,,,,,,,,,,,,,,,,,,,,,,,,,,,,,,,,,,,,,,,,
,,,,,,,,,,,,,,,,,,,,,,,,,,,,,,,,,,,,,,,,,
,,,,,,,,,,,,,,,,,,,,,,,,,,,,,,,,,,,,,,,,,
,,,,,,,,,,,,,,,,,,,,,,,,,,,,,,,,,,,,,,,,,
,,,,,,,,,,,,,,,,,,,,,,,,,,,,,,,,,,,,,,,,,
,,,,,,,,,,,,,,,,,,,,,,,,,,,,,,,,,,,,,,,,,
,,,,,,,,,,,,,,,,,,,,,,,,,,,,,,,,,,,,,,,,,
,,,,,,,,,,,,,,,,,,,,,,,,,,,,,,,,,,,,,,,,,
,,,,,,,,,,,,,,,,,,,,,,,,,,,,,,,,,,,,,,,,,
,,,,,,,,,,,,,,,,,,,,,,,,,,,,,,,,,,,,,,,,,
,,,,,,,,,,,,,,,,,,,,,,,,,,,,,,,,,,,,,,,,,
,,,,,,,,,,,,,,,,,,,,,,,,,,,,,,,,,,,,,,,,,
,,,,,,,,,,,,,,,,,,,,,,,,,,,,,,,,,,,,,,,,,
,,,,,,,,,,,,,,,,,,,,,,,,,,,,,,,,,,,,,,,,,
,,,,,,,,,,,,,,,,,,,,,,,,,,,,,,,,,,,,,,,,,
,,,,,,,,,,,,,,,,,,,,,,,,,,,,,,,,,,,,,,,,,
,,,,,,,,,,,,,,,,,,,,,,,,,,,,,,,,,,,,,,,,,
,,,,,,,,,,,,,,,,,,,,,,,,,,,,,,,,,,,,,,,,,
,,,,,,,,,,,,,,,,,,,,,,,,,,,,,,,,,,,,,,,,,
,,,,,,,,,,,,,,,,,,,,,,,,,,,,,,,,,,,,,,,,,
,,,,,,,,,,,,,,,,,,,,,,,,,,,,,,,,,,,,,,,,,
,,,,,,,,,,,,,,,,,,,,,,,,,,,,,,,,,,,,,,,,,
,,,,,,,,,,,,,,,,,,,,,,,,,,,,,,,,,,,,,,,,,
,,,,,,,,,,,,,,,,,,,,,,,,,,,,,,,,,,,,,,,,,
,,,,,,,,,,,,,,,,,,,,,,,,,,,,,,,,,,,,,,,,,
,,,,,,,,,,,,,,,,,,,,,,,,,,,,,,,,,,,,,,,,,
,,,,,,,,,,,,,,,,,,,,,,,,,,,,,,,,,,,,,,,,,
,,,,,,,,,,,,,,,,,,,,,,,,,,,,,,,,,,,,,,,,,
,,,,,,,,,,,,,,,,,,,,,,,,,,,,,,,,,,,,,,,,,
,,,,,,,,,,,,,,,,,,,,,,,,,,,,,,,,,,,,,,,,,
,,,,,,,,,,,,,,,,,,,,,,,,,,,,,,,,,,,,,,,,,
,,,,,,,,,,,,,,,,,,,,,,,,,,,,,,,,,,,,,,,,,
,,,,,,,,,,,,,,,,,,,,,,,,,,,,,,,,,,,,,,,,,
