PaulMeinheit/Bachelor_Muay_Thai/processed_Data/N2/roundhouse/scaled/JointMoments/scaled7.csv
R_KNEE_MOMENT,R_KNEE_MOMENT,R_KNEE_MOMENT,L_KNEE_MOMENT,L_KNEE_MOMENT,L_KNEE_MOMENT,R_HIP_MOMENT,R_HIP_MOMENT,R_HIP_MOMENT,L_HIP_MOMENT,L_HIP_MOMENT,L_HIP_MOMENT,R_ANKLE_MOMENT,R_ANKLE_MOMENT,R_ANKLE_MOMENT,L_ANKLE_MOMENT,L_ANKLE_MOMENT,L_ANKLE_MOMENT,WAIST_JOINT_MOMENT,WAIST_JOINT_MOMENT,WAIST_JOINT_MOMENT,NECK_MOMENT,NECK_MOMENT,NECK_MOMENT,L_SHOULDER_MOMENT,L_SHOULDER_MOMENT,L_SHOULDER_MOMENT,R_SHOULDER_MOMENT,R_SHOULDER_MOMENT,R_SHOULDER_MOMENT,L_ELBOW_MOMENT,L_ELBOW_MOMENT,L_ELBOW_MOMENT,R_ELBOW_MOMENT,R_ELBOW_MOMENT,R_ELBOW_MOMENT,L_WRIST_MOMENT,L_WRIST_MOMENT,L_WRIST_MOMENT,R_WRIST_MOMENT,R_WRIST_MOMENT,R_WRIST_MOMENT
X,Y,Z,X,Y,Z,X,Y,Z,X,Y,Z,X,Y,Z,X,Y,Z,X,Y,Z,X,Y,Z,X,Y,Z,X,Y,Z,X,Y,Z,X,Y,Z,X,Y,Z,X,Y,Z
-9.7697,5.57397,-1.58836,-78.38110000000002,41.49786000000001,3.9291300000000007,-21.743640000000003,-0.41987000000000013,0.18662000000000006,-98.98267000000003,54.79251000000001,7.103510000000002,-3.2646200000000003,14.26382,-3.3082600000000015,-61.17750000000001,44.945310000000006,3.68653,-124.73902000000002,59.59327000000001,7.243620000000002,15.262680000000001,1.4583,-1.42793,2.1809200000000004,-1.63705,0.7707100000000001,-1.1419800000000002,-1.26929,0.31126,1.8278500000000004,-1.8241900000000002,0.7442900000000001,0.19140000000000001,-1.50332,0.33260000000000006,0.21013,-0.12388999999999999,0.25188,-0.012599999999999998,-0.17465000000000006,0.11375000000000003
-10.482703569057762,6.024275610516826,-2.1556168200360064,-78.30638145329743,38.59365170605413,3.82777755951619,-18.70687517838204,1.1353860224051016,-2.9466731722480857,-100.55369052841323,47.79787510527184,7.148672956805303,-3.959192574244996,14.71330612900232,-3.4913196381396854,-59.8757376725901,44.01707194017674,3.797228866307018,-119.9493625184793,61.91958772675802,2.185387330358244,-18.009276690179043,-11.48431191625197,10.999536467372792,2.413336243315348,4.830068291038052,0.3393829289002639,0.11152976821030756,0.7355101362883738,-0.3918836308936043,0.8282555356000493,-1.1776749914990516,0.09990545048772484,-0.1408051466839834,-0.16968141368008152,-0.009661042413396742,0.07584174909450685,-0.13703482333404376,-0.10137332172422496,-0.167212958449996,0.17652529675573947,-0.2015926572678517
-13.920069542476915,6.620175151034495,-1.9533113171802556,-80.49751360643216,40.064777808320514,3.7432736248696314,-29.149944255597802,0.7502992577183706,0.38922658482590383,-105.10176163698185,54.332028530871575,4.0014689306017885,-4.080852896532591,15.727299016397225,-3.8136621176003755,-58.606607825724154,42.83439402642456,3.6509804892252333,-127.57468918073326,67.50885829689278,3.796067034240626,5.157962789814536,4.520866217381189,-3.8795909209767556,3.0670609069498114,-2.7273903913681843,1.652402698030069,-3.295938639014107,0.7808497680257898,-0.47319590394751077,0.8888999205179408,-1.0313352343980247,1.7115623986312387,0.2426781509809177,-0.43597295902376404,-0.32904199749704865,0.12246375827470053,-0.13551300405138791,0.383084638292674,0.1513003137149283,-0.09030320745023442,0.06705059546300123
-13.93294311336578,8.82718369417163,-2.662127857420821,-75.91638833992523,38.679432505453335,4.002826197529233,-22.140622702733527,5.169331435996824,-1.8722261171448333,-100.06379617341013,51.026996427400746,7.257337988218702,-4.199280984172084,17.55796682968613,-4.2397671345123715,-57.880152952883726,41.88238931647984,3.728726945728629,-118.19686551206622,68.32501415076463,2.5496932900550915,5.829722629179554,0.07953211770558831,-5.412755402601557,-0.8086896633530384,-5.61642508594583,-1.4190523955831933,-3.8012449473976866,1.3513001848050914,-1.9402139693969163,2.466074822560101,-3.030803975779444,-1.3331874697898543,-0.5925613693207744,-0.7593871579992214,-1.3061327217037384,0.4015393435663495,-0.40832027150032035,-0.08254513352547438,-0.13353643252600989,-0.024937747646300672,-0.25143884175903425
-14.277696527046775,11.27872258664671,-3.492672017252869,-72.12812646327386,34.43918745105595,3.3661628327823885,-25.514504271636834,-5.237652657992563,-1.7891255432901185,-96.20461514025459,37.09557256609196,4.401609996617032,-4.782441048749138,19.118023299134308,-4.760050662382011,-56.236092066211306,40.702385586332994,3.7628764781458317,-112.31188904520405,39.90075779626548,1.5293068670433612,-2.777510932182174,-5.81390221716494,4.204241861578742,2.8756766398048654,0.5508127167610677,1.5242284955118757,0.8565758447721343,-2.775643451339297,1.6863939337455987,-0.17886462549022555,-0.009580702446714483,1.4260735102117168,0.44424087971474546,-1.3854637627192221,0.966074635934728,-0.3170494281458123,0.26421310873485504,0.12956595736646764,-0.0429730387587789,-0.05243446410746884,0.04324255665237818
-15.89928391486136,15.194579738370255,-4.0527256974171895,-70.63882786575465,35.1301460480221,3.427082680565731,-29.226787794287016,7.731657703498448,-0.61128717687898,-88.01918149880657,44.95624660234992,4.397006692222181,-4.854234675648024,21.044770567781498,-5.462719322164836,-53.32048432965055,38.87902632983913,3.5295501345090585,-103.1170832634138,66.23123305422395,0.2650664036039864,-16.81962173622561,10.184208799950367,-2.3339104598166114,4.189388030955,-2.2867332211472613,-0.5507531471836331,-1.631171460894618,-0.035750236637271345,0.9247835265204543,1.299606293008197,-0.9767359890963361,-0.31768445628998637,0.7040635433072902,-1.084610370423718,1.037566084364608,0.3023014162018704,-0.1399058799068095,0.013561665619112618,0.16823020703144917,-0.12315159938969926,0.29715288705614284
-14.84907456728659,14.729955453394153,-4.861822275870433,-64.90271491706807,29.92180452807265,2.9672874793866537,-24.377509631756173,-4.065405474727594,-3.008429298861197,-88.94686386427107,37.796830286965466,5.06968894856074,-4.709876740949018,22.862992405813802,-6.120527940255341,-49.46272407778999,35.76397392042866,3.3106708658590267,-94.2791106223084,48.10217824822577,2.9388242637631565,-1.326960417933741,-18.264062505191625,15.664587346173878,3.1428324670297183,3.711144962299315,1.6631884208909473,0.04472144554021515,-2.9024583594234206,0.6363102352352259,0.5941825652732818,-1.594117541870435,1.1113831537707757,0.08278436307093631,-1.5739687194720007,0.008677844886993342,-0.061761262586227085,-0.099684469281303,0.0632166325290497,-0.05189844123562174,-0.17056210787789822,-0.07255889162163613
-14.371236994828253,15.944969618160556,-5.472487725580004,-57.22459812547507,26.960189132218055,2.350026182902371,-24.729260996548955,1.395894069412485,-3.2834497419177624,-73.15547622026091,33.748671509217786,2.392086953296079,-3.9441203263392217,24.791941460757666,-6.912794926391799,-45.106179102223905,32.25809948634007,2.9821263542396723,-81.58966517881707,45.16935631369598,-1.7510850311946708,-1.9305532007173716,10.664631777573703,2.39342998783151,3.955759650084941,-2.3501345836885914,-0.7117937428199048,-0.09818933027743008,-2.6593162397167287,1.7328333787210324,0.6928787646839757,-0.5058810294866601,-0.5021026059018763,0.6478985200607764,-1.868005965931033,1.0233076123120286,0.00707590006165933,0.1000211740454943,-0.18505869074350195,0.002548649517958201,-0.1250469860453598,0.014229048885309651
-16.29720485995972,18.916087363860015,-6.573054781649488,-51.767232529069254,25.11577512008686,2.489984614986646,-31.563369186910556,9.004056272012923,-4.862216057056335,-63.288203239142426,34.634582534555,4.812954585509426,-3.215103128068246,26.958204228165368,-8.00429244694382,-40.65488471504518,28.972119941358436,2.664586609032157,-71.90120488163768,58.05734766575477,-2.8572509058919557,-14.486725585749584,-14.70997454285296,0.9446459426812893,2.2392026609508964,1.3265077540444015,1.3408445907653201,-1.913213997932887,-1.4818934758350926,0.39931046438167567,0.3475750710034418,-0.7981283588614712,0.9213403040185375,0.3174793752845283,-2.323122568952135,0.5219405286539951,0.16584633843935404,-0.05711595499101149,0.007589006203373703,0.02766877321916068,-0.30573862917484046,0.12350795886344171
-14.103666265487274,19.858922126840607,-7.228135465759369,-41.98914450393988,20.477082048625718,1.9587651659570997,-33.03259479136824,6.257652793352173,-4.334928192246153,-50.38947135299174,26.56081280576425,4.832727819308092,-2.9136940780228326,28.776727231265028,-8.752427562491372,-36.16625802885176,25.046858294924064,2.34759467790384,-57.73680849755056,43.42124304632672,-0.7966068732330176,-13.470987581979841,-3.886868285632213,15.610256181369447,3.1062044497778576,0.2409419543055122,0.6157013116366672,3.7143048464993593,-4.163418347828937,2.960684319841381,0.7418784663315725,-1.1220305375186004,0.4099648684066981,1.1059141883910542,-1.6987624541168764,2.0312964528564503,0.041948044986238706,-0.05492452535088001,0.06212279300728144,0.09884622592662357,-0.16830594022039208,0.3178447727430174
-14.55205023779469,21.37023352475274,-8.317268212255895,-37.239148450663315,17.885581791708365,1.6663575759104041,-29.16067147302657,12.084347719334488,-6.454791913452938,-48.16683778341398,26.251696867047194,3.8113259498586247,-3.0557026546281194,30.95975524999051,-9.869176923657898,-32.10635380311174,21.8564377195079,2.108498980951989,-52.886604830923844,55.61715503775896,-6.273545819520249,8.996531583958312,-4.248567035994894,13.129262013361474,0.6937676810468242,1.2459356930002117,0.6078443140499553,0.5950396774058583,-5.975384074915172,3.740591679835005,0.6286285094280696,-1.0286800774810987,0.1951810004690967,0.9643465840015248,-2.360679654909482,1.4727100440359762,0.02992822372795961,-0.034713968776917875,-0.013311516267655334,0.11539199973381041,-0.3044188393996743,0.2581857997995148
-13.820819418346662,23.08866299336191,-9.153987951804833,-31.308375568886774,14.401212321063698,0.7154550415002073,-29.192618168338633,7.387640580017133,-6.286494662952524,-33.97495402550795,21.25038068684443,2.1607637105974073,-2.786238459757958,33.60095676316511,-10.811294493597847,-28.51864135319209,18.67549052479382,1.4218113013302582,-33.61704734343278,43.361043223351835,-6.599772795916752,-26.58102900813218,-5.121809121212317,-0.6453403802895101,4.094294733179565,-2.1994281435338734,0.9746848780566071,0.8099984763586134,0.02226745918445655,0.19123714107340933,0.37275212636455596,-1.1632836161378564,1.0626086749197716,0.594385774972557,-1.234332202371077,0.9814568899016571,0.022682213631354135,-0.05799692339473964,0.12978128058371174,0.02836052986487096,-0.09727146451833396,0.11901440655855332
-12.949525519258478,26.04089074457415,-10.251679139699997,-26.041524731931684,12.41750626041688,0.6053198895372348,-22.040805476667497,9.89586764206573,-6.702828146145884,-26.11085892085346,19.892978744534155,2.6319872626063803,-3.1427188175503833,36.0351312157946,-11.956986723308335,-25.12165978540626,16.12614573623741,1.259537167837111,-10.288042204094179,42.322013047117046,-4.039995488155942,-10.201224571201461,-14.606382990788893,10.995395844227353,4.967976749932203,1.4713267717405576,1.3627048026311281,1.5816667423174222,-1.3653879155057678,1.6405547788774317,-0.2908378223349035,-0.8146266073054829,0.8769697841130115,1.4318359877958697,-1.8106677763752614,1.7668811688199249,-0.023830282155770974,-0.021038625805397556,-0.07979139615577772,0.18861618373717118,-0.27975452600092054,0.30201285201657024
-12.788591541188461,30.153461357992416,-11.710984884488216,-20.84888227405354,11.39607167812078,0.4885385037728469,-26.918007469066968,14.79024268089794,-9.660091276926844,-18.412346858738623,17.85082762633796,2.5785850985343806,-3.2905866212461095,38.89805016440274,-13.038273998054267,-22.184717363805373,14.210822357495182,1.06856864860209,-15.256023759227757,44.445332067188424,-9.10995885939884,-1.6041784541956376,-5.489648775411103,3.194024682116874,1.5585964365225438,-3.031210750719966,0.009175718759499732,3.41414268164736,-3.435808219296522,3.4710312181888714,-0.15649102802102297,-0.018668700782712055,0.5636709611859452,1.9198518417067787,-2.0543018194954485,2.7054244688973523,-0.022107597771838676,0.07209233441758886,0.03071685263489343,0.1914502904857384,-0.10047587939309816,0.4392627316282999
-13.247057046681135,31.322572777463705,-12.602802640964478,-19.201676617028426,5.979085273526261,-0.23345691794327908,-29.302151751367152,11.353981365065742,-10.321202701792501,-28.931515438025578,12.417370557423657,3.2065694010497996,-3.119945787279334,41.44452018075061,-14.084855658102617,-19.32570995964921,11.49113252512322,0.3367502775614073,-30.49559536803054,41.28868268922194,-7.6267479430216785,-15.245919893055923,-16.357885239182338,18.285968468899735,-0.16043546827691613,4.809148760858846,1.9331903550696898,2.866104210632474,-6.320062700066864,3.206431664792068,-0.9163460006342914,0.3280596095816095,0.9132555868928609,1.1465263116252193,-2.5655362820735292,1.2486130353619642,-0.2511332935926812,0.14747544235797894,0.08292367921476891,0.04740583721114784,-0.37432697128115244,0.14066829846499454
-14.318537946687162,33.692246298876974,-13.390274806800225,-15.217732679019168,3.274595550844635,-0.7527613770171154,-29.961342439411943,15.460522010429923,-9.705992703130145,-18.468761098728987,8.031665741192107,0.7621878707350058,-2.7195327582805287,44.420063107479635,-15.281167452895442,-16.095590683527835,9.034746519158393,0.07891655068021766,-14.302522523317828,37.14206616351086,-8.879235166704955,-24.509446677257447,-4.2077003168063785,25.12374378895336,2.163843699595007,6.730873406435647,7.726456070238771,6.835376170858381,-3.954744959076891,3.523551677410634,-2.992281143940562,-1.7690933837016747,5.846134836096016,2.699231060532349,-2.240410579692421,2.7935459067219015,-0.8864884285668445,-0.4731621407661227,1.2386050611570711,0.3752281146066434,-0.46457837023858883,0.5624468093422634
-11.489348728480078,39.62238109749471,-14.527491433414713,-9.88859228219684,5.364180818604316,-0.37019634909371063,-28.466795425506515,30.101885596712183,-11.78127263444895,-7.836306629650986,8.477198333546081,0.8553465342925246,-2.399144751961951,47.59869606851828,-16.003812809286604,-12.686945893335672,6.938354843919637,0.01587334301161303,-1.8750356012070069,55.63213744169283,-15.911435772722138,-14.604038290326534,-40.884375470000634,15.942442531352304,-1.1119330106117011,4.573835849953756,-0.45953043940775934,6.971909147226331,-2.501379615966281,2.7390238542680825,-0.9805663478062785,1.529688412347825,-1.1318273517067707,3.0469366143238488,-2.7368573644484693,2.9913974617993273,-0.31348250403046496,0.4498660073375173,-0.4124267146898739,0.22660983999992318,-0.23325369589286885,0.429922893562381
-11.853098893213616,41.03523256068759,-15.309940536597868,-8.032546149807914,4.087978989233969,-0.2590809392993779,-28.856812686239707,18.749532553334774,-11.740966472917123,-9.366199881622936,3.1530867103783864,-1.321284393776275,-2.788848820928313,50.29106598945977,-16.915481365601813,-9.240385450470278,4.977153873040186,-0.020871325846560415,-4.13868422465415,31.827903413596683,-16.382624130879094,-22.15217238986239,-15.461961881820896,6.236661742595127,-3.648489099650154,0.7240471723744276,-0.8297989868455734,2.708318223306877,-2.397629716530613,1.5852426099661765,-1.331753788709384,1.8316697032042786,-0.8709998507722989,2.1293866812118782,-2.0110384793106926,1.2818237366670062,-0.21114811134255318,0.3527978065858546,-0.4203515500576527,0.18956894048723008,-0.23995741238859142,0.09990538373044135
-12.366711957319518,44.91865622859212,-15.98299681502931,-7.372081380156053,0.5261902228702771,-0.47850621310258795,-31.82859930550753,27.312942633814046,-13.323802915331555,-16.532445511190325,2.9490714896704047,0.1259956406637941,-2.5627623974321314,53.5003811877615,-17.481750926803503,-6.425437226197174,3.2179432380103647,-0.41224880619395293,-18.158879819043765,46.93385685890594,-16.760415378571537,-3.248758376087318,-27.838574703797562,15.587650020035014,-2.0667446668160836,14.608335325175107,11.025414082078537,3.2322540695238446,0.2198905118401118,0.7849653155418885,-1.9174773195905996,0.7452979457547904,7.080339037583966,2.8841180095634518,-2.653366311546207,2.154302569337806,-0.32486281791268334,-0.046689700146048695,1.227698667044082,0.35219939646402465,-0.46372113628796613,0.4544583590692085
-12.224438683930524,49.02344882342258,-16.604393364450356,-3.8071838966370612,-2.2407030997384743,-1.291455159142904,-23.895764053713464,33.42671007241072,-13.516714657507766,-7.907866811989233,-2.9112261074125834,-2.5805924297696627,-2.5211713005230103,56.41262074502351,-18.147029491852862,-4.047215103699053,1.5148895910050881,-0.9519526363761865,2.1860125211937325,48.85373209983896,-19.173257967609665,-23.404456278140522,-22.01597386805642,22.990719486654285,-5.96981143428407,8.8326237087896,4.5189766545863455,6.123782369129295,-3.5677473240992903,2.736785070361746,-0.5580319514917551,1.204338830912988,1.9123107052868136,3.6033064010431697,-3.2866962863431115,2.3689800627904414,-0.12325255982110982,0.21462809438921965,0.7268641450139705,0.3494134584776239,-0.5823874309622538,0.35060992837193605
-12.875245328035037,48.382496427910695,-16.617506384197437,-2.5471475991750308,-1.678225147927362,-0.9858822493952619,-27.48419354625892,25.230094213765295,-13.066476744659656,-1.6084744856341198,-6.034853193527809,-2.8197464086399178,-2.81273835224533,59.4352029281264,-18.762417547912623,-2.0340736979873544,0.6218130916524041,-0.8779338859202166,5.910793353291158,33.25959412702426,-18.316970824256643,-21.38973999137837,-37.2857805086834,14.421852805992849,-4.5647811012056705,1.5022322967340116,-0.15531716222588496,9.000618036289037,-2.9446472183895804,4.113451209630506,-1.925010006467734,0.5031064202394749,-0.949380626203267,5.350391322284318,-3.1362329744051567,3.4891442982486316,-0.38181586305698795,0.009124374289214603,-0.22947732698719073,0.5948179938565095,-0.5392581798061515,0.42961725529042094
-12.829635997395677,51.88163955490508,-16.410003839755426,-4.849360118940563,-1.4293685191694048,-0.8753487826625548,-34.65810205049881,35.349282827152244,-10.739242077220146,-3.5639591350289397,-7.613468378033334,-5.395791541388798,-2.9517333845091205,61.404367760052104,-18.8066722144216,-1.479986994504072,0.15221100429565654,-0.8248940314496566,0.2128252017017893,43.33092442355092,-22.361539966671078,-14.108847261600953,-28.91987837136569,24.764352266157314,-10.79319126951552,12.136121045893773,7.409589665959092,10.792334052328789,0.24709384305728901,4.411385256353362,-1.9496552769766111,2.1161977029731323,3.1026305656708395,2.9117034776860535,-0.06233112419449702,3.2168752639968905,-0.2631443331367972,0.20815533492944988,0.8109353288181126,0.2889231939302813,0.14893544636268644,0.5430507888962224
-10.968479277029214,53.06932899143867,-16.336675207486948,0.7620832608375185,-0.6303040885689746,-0.9445351860660981,-21.969955144344766,34.14762394300522,-12.744111396423548,14.426678083563392,-9.655437130499209,-0.9269461816501858,-3.2612683841163266,63.95665300896783,-18.778498660170783,-0.24437258715667962,-0.2708938320778316,-1.0207879546005743,35.83845057981354,43.96926034048971,-18.600794768774588,-18.69053874244827,-21.311604323944003,23.026265701577834,-10.286629769158303,8.51944369875783,4.916161017495449,3.6991990844792664,2.340037727070569,1.4001246856944594,0.7710704758740893,-0.3435432386368889,0.23101923704840113,3.3634729997421298,-1.6363115220243634,2.2133712987767495,0.3941295654111149,-0.050584274924405634,0.21190265351836032,0.3264851405638245,-0.3648678543545594,0.15427243557603137
-13.788832307190333,51.0567925467561,-15.053591793927989,2.1015837911049733,6.138443345920739,0.7956536729805067,-29.56305008185573,24.68056577574482,-9.012247119426462,21.009924432142057,3.521522998392039,5.413149103883897,-3.058195864352155,65.3675291043009,-18.692798849801843,0.4892645054419432,0.31411599738261314,0.6718789851737311,32.57996644789955,48.16093571302127,-4.866603510055215,2.810025271014271,-46.81363355728614,14.372252088998849,-4.557517337413835,6.294673853445861,4.042013020033322,0.8645087248989756,2.4326810547181723,1.4839856471634636,-0.030133276102153963,1.4226007086055426,1.3750372900605823,3.765199215483323,-0.8597855637411947,2.49226653118847,0.2399682039545234,0.2857785306314161,0.3685704813166938,0.4657728996984653,-0.1405512454807038,0.23325772631373587
-14.153343901279433,54.501082958414116,-14.836411608301006,-2.8423588282617747,0.6694009896077845,-0.13746416032375416,-35.54976673866901,40.469144485233066,-11.068191651500637,3.977741366139029,3.156345522430334,0.7080194531397515,-3.183983606067903,66.2791684550347,-18.294637763087355,0.25827773697505885,-0.47172391909305333,-0.2862094416584546,-0.5076558956615034,73.6239276054207,-14.917433802557733,29.41343940727849,3.1856086090479323,29.94151393269846,-9.925759122160201,8.425076212933352,3.8948992847138784,5.195624151729828,-4.139107627655921,1.7610770964890337,0.3101626755377086,-0.48869963715608855,-0.318767036598047,1.445420508340148,-0.8090900742917753,0.37360830704261455,0.21274180402497347,0.03574668632529097,-0.013282831621094324,0.13531588103034778,-0.15446133604381834,0.04806720416991091
-11.638830564663474,48.38210215751177,-12.29847032806434,-2.5327099380284763,-1.2802350386650292,-0.38327177665478857,-26.18171109938558,28.496854728183436,-8.041479898418892,6.877057936282621,-7.605621646060017,-3.365988219358432,-3.8545761483453793,66.2711718473453,-17.15496302072214,0.21252311672886762,-0.4326448824743998,-0.5243143832838673,15.532552363675723,45.978477142405765,-17.067550744488223,21.637145955861218,-20.34520251318092,0.30178518548722677,0.565299606892735,-4.480097167337701,-1.902730340156078,-2.023067378202224,-1.3085495670884668,-1.1068859115101055,2.3454002233037397,-4.246289299786832,-2.698838852857705,1.7961331899171502,-1.0142978052682419,0.05157835633296139,0.2061987941001755,-0.4363920105811788,-0.48823986746044645,0.05579346253794238,-0.20452905218926135,-0.1415578812070913
-9.44323297331147,41.4504136193722,-9.206033486991819,2.2330544847159777,2.442476919035111,0.04294615848295492,-14.288413704361936,12.320345267093,-0.09910938831242211,9.796386741951446,8.595130068947075,5.734355978081195,-4.949320259112255,63.57787819414342,-15.630802497795008,0.4996360738254079,-0.0852179632795762,0.31981113597981914,25.586511438679075,45.44735938661394,11.057638492670264,9.88286492072605,4.337911102575214,3.620378687019007,-2.5230253266555613,-1.5782045867141357,0.48485354523457913,-3.603494107703164,4.589782546004331,0.6944176450695945,2.2690296881867607,-2.5846735966256578,-1.15453111065346,0.1835510466013866,0.6388638668221559,2.012765248170629,0.5283748506790303,-0.3361589957057668,-0.29463587372397704,-0.18486610251909047,0.19242643278736077,0.18618580620996034
-12.107304079709182,29.79838681684027,-4.631398788978235,-2.863386371838336,2.9026785805644018,0.26537140795711384,-18.29841708049528,1.141949460224803,3.430710605236848,1.1168640396006875,3.3611507150140194,0.6652444795088941,-6.351765890595004,56.01415115182446,-13.161479346318247,0.33935823057579173,-0.15633093341024198,0.16356208063158445,4.656205706531919,19.02929503280386,10.316920155499815,42.468461021798944,2.668658029110915,-9.618189237105414,9.924603969636188,-0.46121639891242977,-3.7454439280619374,-2.41804997448779,-6.050999037466871,-5.495249935410934,5.284948623080959,-1.2368634742581464,-2.0720165590425728,1.038767679193651,-0.48713106802137274,-3.355463115143728,0.9027290325523984,-0.18579526899163207,-0.49205641820511736,0.14172646783417456,-0.09235371347329176,-0.6867341783698017
-8.920257946591596,17.02345411711865,-0.287238323302848,0.35059300196898113,3.8366810926506543,-0.2921753437437857,-13.873823499711287,3.9512918713026335,3.4164908299847787,17.813040657703173,12.167531890567373,7.538679598714217,-7.740818604102136,42.73398104096378,-8.82834167914437,0.3104935511379031,-0.09173233419364926,0.01184362792141913,32.816481573218894,37.391928696787865,13.471922338399649,19.03247874296437,8.436605612095102,-2.2925117314928527,-6.536725777139418,-5.532845948850245,3.1934267786225563,-4.889946984054519,-1.6709905680633452,-4.716580897477393,0.3911294661422428,-2.616337518956099,0.006557660767957468,-1.1507009742389518,0.1033888305479178,-2.3943581175146904,0.1965534704590942,-0.43363928325392376,0.00266807228058027,-0.39148455447548963,0.17830405029439714,-0.266738364028963
-5.607403089174297,8.85576346971827,1.4975137390287483,0.9941181138064475,1.7676686859173731,-0.0033258866215458913,1.474065725481883,-4.638899058281865,6.342531168989529,17.93719842401353,3.258538635809081,3.9266941450721964,-8.282210995991115,26.131985116303515,-4.168905975094706,0.46496526730976984,-0.20539262075361342,0.24225130358952962,29.55087779504275,9.157668036439837,16.60539757038663,24.69664387603711,48.906521685981815,-23.86366959620078,7.452560516586564,1.7785759923930304,-4.431050317251388,-9.83987446138567,-4.122235381545237,-9.08052637714901,4.950392433897039,0.43597470761178664,-2.361297579173712,-2.4401621697610993,-0.3465164754735093,-4.2726787109938025,0.7941426297913238,-0.015206287970340576,-0.463258598466074,-0.5120038685244924,0.089421323247685,-0.8191506435037711
-4.749367187451737,13.411019041022618,-2.3855460163739837,1.270166163131384,2.341928457773994,-0.6612092314215732,6.375783819457069,-3.8579680528671565,5.385616915408826,18.759791162708638,3.744371725464267,0.9613940649432129,-5.9380577154149226,12.48231740650209,-1.225949369184082,0.3670318952241255,-0.2949323568189567,-0.030342032169090108,21.507729963749963,-10.300437654210324,12.977691819455254,85.06065664865024,40.03956493717492,-27.838816138825432,21.22272787066236,-3.8040508204356875,-8.860853908137354,-10.489407437289923,-6.814013509952161,-12.49328156967772,8.335006316683415,0.19554995400326391,-4.776719670038395,-0.9578549066704689,-0.8814908985514932,-5.4236804468972695,1.0918673103875367,0.31591762560665754,-0.7757328196911916,-0.05035489418326694,-0.14503134748023694,-1.234256061677435
-9.375379137500266,14.592324692661723,-2.4823128325532995,-3.8876199511574026,2.135063450242848,-0.018079129680454893,5.170472997041363,2.3160785417327405,10.483410977877504,-22.597725148540132,10.72065203799408,1.6300046939509039,-3.632155365131786,5.598310799533043,-0.129808316814525,-1.171807245053602,0.9788246100378224,-0.40475614394534626,-27.989623213146572,2.555271211161209,29.47304289665717,35.11930183332259,24.38211284953292,-22.97554827458736,17.406620210858033,2.0223992712596757,-10.262918488650337,-12.238307913877467,-7.00242743056166,-13.050327689103193,5.8609296266282636,1.2138943688250767,-3.735498239381562,-2.9620893269685986,-0.8877162157066991,-5.521267663621289,0.7248922490382377,0.3088697422790691,-0.5178738689997595,-0.5114332322931842,-0.04061859039691742,-1.0300387722746034
-1.990990910461745,-0.014629181878418995,0.02677402776064329,3.1436848497608976,0.9567913045990157,-0.5134045879977561,21.51994166492216,-12.271422714499682,15.59014738940165,-2.239609304945426,0.881233641001552,-1.4873660201168115,-0.29601650693729437,-1.4762936628947805,0.26547305268759513,-1.0700340139698288,1.5059497796787185,-0.12393517359649944,13.270397693069347,-21.538213969889213,21.03452497664662,31.927358340574557,49.1281513565968,-53.51269587071913,18.1656666071366,0.5232297415085131,-11.356149371082163,-11.535205364803549,-7.463939530742746,-14.958508582499373,7.041594989962704,0.3925809345712108,-5.045349379635008,-1.5592221684110168,-1.2601677885288638,-6.03834823042418,1.1172073327904595,0.12310503703456652,-0.8216396955322065,-0.17962801496655514,-0.10195974846044653,-0.9861406989436111
-1.3115426509273644,-2.7151788252211264,1.9876011496207677,6.712640428680184,1.51214997819795,-0.6144761399575327,25.522037989534734,-49.419694028285946,26.626475239856966,10.687307366261466,-8.589029095756112,-2.132078465180215,-0.09464781829700208,-1.9688974746863834,0.3582949430614428,-1.1449553340456735,2.0054940791120806,-0.10274953688086028,30.77322780544367,-92.10591707372194,32.486718403173896,54.73375543177801,62.20427518633966,-50.63179584950255,17.63377318869167,4.350369031092815,-12.975580256749424,-14.171892538045809,-4.715815953440072,-14.172946926966835,6.845372942981159,1.6228351669552794,-5.900984787342244,-2.7083209594025885,-0.8106164164798345,-4.740299361062344,0.7246205050919544,0.12648023003377076,-0.8018412857802137,-0.325289578694612,-0.04702455474081014,-0.9154570992308485
7.477966135503495,-2.5992381540796745,-5.390739864354233,9.834115359004551,-2.033122539400469,-0.001630910448106055,51.00326857922271,-29.516666747892955,36.47227981483745,-4.892726160303025,-4.791457342026398,-3.164235602436898,0.15802739740848198,-1.1209454909501695,-0.15398584567347567,-1.0856947222567137,2.1945529925752565,0.18369713345334687,40.74632604952308,-55.00484190660048,53.62590796919628,34.30359859125754,37.91272445765866,-38.03230410560819,15.253478306143528,5.980990703441743,-11.88797868395937,-17.31914437214667,0.14888430462136,-11.837465068647298,5.806062421894772,1.507971616809861,-4.753508836870195,-3.1974444927020564,0.7395848549937246,-1.4103395265467251,0.5833965856647004,0.03401921230904824,-0.5187276144978253,-0.38348538704087926,0.11260675064503434,-0.4140795674007155
10.376129791610182,-0.004458413350163537,-10.42445189853744,20.003944553153328,-1.0263177081872668,-0.1847032967046778,47.937200419903775,-14.412978624054428,23.746498201534905,19.37658399721194,3.7900583741536633,1.8029824454416108,2.981855427734129,-1.279746047386193,0.33363254516578006,-0.7824156231801449,2.5210555037784026,0.4656494980897577,69.3199358169643,-30.520328778348603,36.69888164873204,30.426724270381253,64.82742028321088,-54.85650638876551,14.202014672396356,5.97983000484775,-11.39469059606228,-19.580080122946956,-4.473362259566267,-19.486940025549874,6.552200280257304,1.9978607469727043,-5.240443230352985,-3.2408120288375777,-0.7514767250656911,-5.060613379232167,0.871996122718922,0.12241714257946526,-0.6881983200452088,-0.4113324938771307,0.08464878875381056,-0.8263290931224372
9.245610823868468,-4.333676865525842,2.9677544677563343,23.365565770930175,1.4947719510298925,-0.3510285615799728,44.68689439814722,-35.106548438658095,38.79059421595451,40.404387740611725,-0.36387850679896594,1.264793512128498,2.642555275990047,-0.9856513290777497,1.0528289399355997,-0.5735059346614897,2.6754152073134274,0.6877397888890189,103.2292698995951,-65.95519751160589,48.26796352463277,7.675253889371533,38.97166166179467,-59.60636056965571,14.622604448448003,9.115882606424936,-12.798413095963381,-14.024029161764739,0.13866821493334666,-12.194399689186156,6.697433160892679,2.869690611384716,-5.778657725924559,-2.4840400700735206,0.36568735441962735,-2.2347720226925305,0.8765842720368405,0.3681961511183957,-0.8006267532485543,-0.14240339255485854,-0.07506934100281389,-0.30487508330474894
4.659098904794206,2.1804146795022974,-8.444931318111571,24.613309824363718,-3.53645031978519,0.39238282241706746,28.758005400083825,-25.681351463549916,10.05573657462702,20.459780950625625,-10.566363521616418,-2.5108876632032255,1.4825898007640153,-0.34759283107062167,0.23581230943383802,0.21065556541784575,1.8433913418273815,0.6103839400479911,46.22957676363892,-76.41180959700652,6.262832361631346,-8.215232059155896,73.90418460598146,-55.348043898726836,17.00426802648006,5.699983657090428,-14.53562759862478,-9.323938595115774,-0.10043209983097445,-8.999108977709506,6.425496418800906,1.291915797914337,-6.167795219822543,-1.064828261344112,-0.8659035164377547,-1.4572148370234377,0.7136575358563706,-0.023130989723736665,-0.7964525803612847,-0.17194510770793928,-0.4022921413298212,-0.3839942500244525
11.9555196547352,0.8516266682327694,-4.224367625861088,39.20277909980592,1.4573959685250821,-0.6294206465389837,36.050181785667434,-27.27012411979914,37.57765880400921,47.97952160554256,10.798226434442203,0.9325263845956906,2.651485383313813,0.07373153794994008,1.0392104167592917,1.2604439950282682,1.0104741758735387,0.8860546713063894,78.38605765588525,-39.833083049435295,30.75236722067575,11.436367618778585,50.963642882867134,-12.363070611359207,-2.1055511328273764,-0.26484699874277684,0.2539449098889143,-14.44498658185445,4.8236092200819485,-12.86399647634063,1.9564339862898459,0.2115402989383151,-3.1980866392411933,-2.8542529893789883,2.109892320221178,-2.06413943150519,-0.13880266936423835,-0.18888597555410877,-0.4804103923265854,-0.35666070100427316,0.2937455735620917,-0.2505013373248305
12.282585535093986,4.537020164026578,-5.751372451628174,42.22385629875651,0.21255584720504037,-0.9817308365994655,25.702284950976175,-8.326327086489156,26.41402085140838,39.255881274847894,-3.6620518551022276,-2.5784016701581844,1.5772212469811855,0.13187337876133073,0.5356537787710572,2.7576882583852993,-0.7524996415857215,0.28789859246322697,58.21198082597837,-35.84581313248063,9.205552036278064,-21.30928964207446,44.11977353638921,-30.932340219795663,1.552374282798597,-3.799819498972963,-6.289760973672051,-5.4654010269597615,-1.4784846943692074,-4.846462184774565,1.6087058415623776,-0.921275883217374,-5.715936281443592,-0.5763249305290851,0.5969942616196745,-0.5409621171134491,0.3201995193983226,-0.1567565401719453,-0.7328687055927131,-0.13761001310712803,0.2364184361022681,-0.15860797196827142
18.679363108019505,8.351103159609735,1.29013389458493,57.56684752183287,3.2967646515619835,-1.8264459405636027,22.373409610498882,5.223738396284209,24.555295073553644,75.40048685809185,18.978717251903607,0.9301569962293506,2.2746757862182823,0.801552376744977,1.2879062440186275,4.590544734586184,-2.397325465822499,0.5083392323845829,93.49304859836022,17.892483269367037,14.864031439940648,-0.024152147196466498,25.914094402068983,-3.1337700307847447,-2.673618894463216,-2.731637440395304,1.6979068659835528,-6.098884856258881,9.658795581978255,-6.510804471638572,-1.317280775065605,-0.8584622668449409,0.24212067300880252,-0.6637136901606929,3.59820382425526,-1.1425615611835078,-0.2710546746210694,-0.23636527470300203,0.08773253046153362,-0.07406424220123868,0.4828558063043981,-0.16173971685588118
3.2529218945777574,7.431361304302991,-2.567192581517821,68.78899951653632,4.886072467156529,-2.3028794072162686,26.04693411820209,-17.80031463171533,16.582744254603934,63.4242481729681,28.30067812218416,2.3376363168603764,1.1866471161714442,-0.2915227391650348,1.4064539547369803,7.049778635795396,-4.306662831571232,0.5722663316943618,71.19135348493019,11.285842506594015,13.081624341913974,-33.8947931753909,0.5528774895657919,10.504979680475476,-1.3240895507927937,-8.714652681594545,-10.434703942080144,1.606168566119791,-10.689266982511384,7.388206935532893,-2.173539840911645,-0.46560430856053975,-5.2608317100573805,0.2949500066834808,-4.45020740784615,1.8331974902820842,-0.8024068702222791,-0.058772751158131034,-0.3217720440962352,-0.1831132836941347,-0.9026648776580007,0.2390456882936376
12.717599019207999,13.87688126427898,11.827999528517145,77.25046905153512,0.030614181970453902,-2.653855422237617,4.425648431694067,-16.539472982837,85.00561683648634,75.17184176982818,20.101860083248134,-2.8883161235169847,0.8142910719964921,-0.13233983941811056,0.7715554403831326,10.084705354132598,-5.986347626187502,-0.1045506779486606,60.43420054518453,7.711525406292728,94.73566445122569,-19.41895902621696,34.73541578275194,-29.28878834857498,-4.919018020888037,-12.755899869442743,-17.63367507310734,0.41391345876297136,4.760065464951987,-5.740864249368037,-2.4933154019313135,0.7428368162938955,-10.705265894767175,0.8242964301017722,1.863238800287147,-1.1230622300842572,-0.43747854868811925,0.11122350960717578,-1.4959768042033654,0.14751785147231208,0.22203405982514807,-0.25636765682220763
-14.131158843510518,9.657862002119284,-16.642063558830788,93.44148277532425,3.2606586709557286,-2.3174739737330428,9.992507413781738,-7.112908909381223,-0.6651582250634999,91.18478381902642,15.463730945058755,0.31463408962302875,-0.5497769985285963,0.24693741303909633,-3.2280371213683683,13.67669529839399,-7.297476224872657,0.2833510782975784,66.67243335250417,10.654286156809585,-32.890655711112736,-94.76854659485717,30.520748376388607,-8.329256420258735,-7.874088480772008,-7.0384660136615,5.582320441385407,-6.8307372985215515,-6.2614827193816955,0.739898795333485,-1.3820627086232364,-0.2894694359718845,1.5790914440754122,-0.8608188014854967,-1.3079877242045836,1.070287998856852,-0.0035795784875475275,-0.16184720895848564,0.5169030949677492,-0.19442510352555695,-0.03847368715552207,0.038953991926785725
-32.59990520467041,16.876016725698012,-40.82389168472908,97.38834738051183,6.234947081349884,-2.906158604838412,22.54370846168851,11.034229777052163,-58.30900794725525,90.25794091956656,27.922340033479326,0.7516801164986205,-3.9032995762354195,3.327742643738053,-6.061314910864163,14.936563093713978,-7.560592689820673,0.24511161386240027,80.02753619027439,39.532697293089136,-91.51192178492389,1.5311141998786382,28.69042844265232,52.5026394399257,-10.911148254843097,-3.387696913190406,8.10551905710114,2.9287428527929107,-7.120107686688265,9.034065938458065,-1.2991055937176794,0.4912077857871976,-3.3545379839973983,1.5651540413957181,-1.414460747882037,2.9275469755804227,-0.26340388645777907,-0.010463751925657162,-0.800119671245776,0.06969084900602915,-0.22202487351372635,0.42478466053547176
-78.78597883830484,35.44396987802429,-101.94494647069052,104.81379678585405,1.5831053850916876,-1.2873942649706704,-120.2915180696446,112.9124664215984,-197.45145948809548,105.1755135626657,14.628989848206755,0.011352762342674893,-9.056587120942861,1.6340840986485246,-9.896570578804626,15.460987318768279,-6.140041293374,0.6808265573427067,-48.62121458022727,150.51488141455368,-214.02384027683817,-6.105466745899523,55.15795065548072,36.41281850192282,-3.4057700801307633,2.434152515916532,5.275392103584667,3.3443407054830496,-6.778288772983796,14.95012821817239,0.7273090083699276,0.3011670299664991,-4.42285013056898,0.8901830200581056,-0.8908484286517631,3.0710824115214614,-0.23135252642286774,0.13937603116345681,-0.26811094288316234,-0.02540220509113076,-0.031077642499522763,0.5460062296365028
-74.6614912548105,37.02226237513896,-47.95829053771613,102.86008108505237,4.1577462791172595,-0.36031576991927944,-112.46663630862516,93.4139598905385,-131.2093574412656,101.7844035392915,15.313223059671126,2.3409661860928637,-6.2530107404968405,3.721899096415848,-4.735785411288801,13.646101074142464,-3.929239647629918,1.2638229817110815,-56.39186866817093,122.35497595073134,-168.54893312424213,-36.48297292886166,-23.824864233616083,18.500441329629737,-2.8810360821912555,-1.6945739789427634,-0.9682033784804335,-7.0127954772739916,-9.86547384328447,3.5519993817562043,-0.396018911256236,0.8067754114164276,0.5702505429962578,0.5774957807857962,-3.4430341182557966,4.592434780601415,-0.04908898467792325,0.17636499859598836,1.03480568286359,0.32221794987998653,-0.4618331605047405,0.4391492747002147
-34.70162913865712,16.130566769739723,-63.271015718000804,105.65881400505228,3.9572936554882823,0.6833719969950465,34.64090792108092,4.69367313642146,-72.46215804895438,130.748393564351,2.581918649311679,-0.654190517598338,-4.424078986732697,4.976944885514892,-6.822671473382618,10.063158484624115,-2.3090982191798246,1.4727636230885033,146.6627078304138,-15.283581044245452,-105.72915878182064,-41.96462751560391,31.663758579709466,8.991426097619033,-1.089423970784818,2.9246057019941403,2.972510609580716,28.43149410581242,5.996798567623275,2.5405617243998684,-0.013219769042476797,0.3235458595741227,-2.6993622429293245,6.499244226365061,1.1254034468183223,-0.10035238387969547,-0.32268445919405425,0.1801052072808937,-0.7108301460088202,0.3729696911620603,0.1243794659463229,-0.0542621786609495
-28.805878584279586,14.513258258987568,-9.154771462806371,99.83631868555982,8.587755993633563,0.2090065706323204,-64.4407083987397,42.59042244807056,-54.10886984137116,109.58177401685991,9.821016412940583,-2.1668226682468332,-3.4174103913624765,3.1517178030217097,-1.50074795323192,7.417977474569533,-0.9715540725062708,1.7062877210175578,18.746094600451944,43.91143184483318,-60.767230013795604,-10.272692977108479,103.59906548658483,92.57042135059446,2.306582509750493,4.049948252947863,12.625256988876387,-27.23473920543459,-15.597073381050988,51.225430467833654,0.8315296577602219,-2.148285716916453,2.3550249198930784,-7.699363169059365,-3.689699092054175,11.331915144478348,0.10313676254882163,-0.050118295525578144,-0.17898597092060287,-1.1056360720879697,0.1548801847882675,1.2280193007724471
-12.272695863823735,13.28856518722654,9.011244716912932,97.09836080788314,7.70701657811213,1.2608928790202405,-95.79521019433349,65.48041585645353,-22.717681266501945,98.03056628894942,3.7920841345935665,0.4547604958174554,-1.7120939998917493,1.7279695998644973,-0.01015689942288911,5.193892006746283,0.8423213248781753,1.9898796265923697,-37.13216779612258,88.55359151614279,-35.07504467958317,16.52936405094425,-85.84304824431825,21.57254111526762,-1.0073996653098112,6.466696761990602,21.708386763435858,20.021415469033865,-5.645545272274818,-2.1454401917040102,-0.5788648916791087,-2.1083218323456623,7.050297417133419,6.953642121466679,-2.6384693936386463,4.817920440121519,-0.020007454469767743,0.05737809471000532,1.5595567867442903,1.2031187897235867,-0.6714355071911157,1.1804959817256433
37.37528288594776,-16.532776538636757,16.566244503141625,97.1684095415801,7.655007816456167,1.6765727640404873,61.50609166476746,-13.424990473916779,22.075238278900443,104.65235690096235,8.674911691783647,2.229775326358186,4.445518649205322,-3.203044422624807,3.0190284398343703,2.972478484943572,3.317268754912957,2.565761079354202,150.08098616123615,-47.352672787432674,29.108065716377045,-9.38010393170271,27.68242558554218,21.427287566838498,6.003654199457496,4.78502831089823,4.303690352470355,5.917378993451739,-5.2358227073453945,20.5735672111518,0.5796182890312724,-0.5497965558301898,0.200342169405404,2.5894541514518674,-2.188131438345236,7.7256718558971444,0.04236553310286942,0.17404191228358912,-0.3381540728033816,0.4055701013480701,-0.17694781308524737,1.2588594240631796
8.923302376757118,-4.462411157143563,2.6027465923993924,94.5957962303859,3.1422384995986214,2.6800540685297025,0.700987482114962,-7.050172526431602,-3.4557830351327845,107.92171449837588,-1.587543898178684,0.9472071002673328,0.1822565822183444,0.028541961497954477,0.566449758726139,1.6386942951820735,5.465634101170689,2.9268268753870355,90.48493636735036,-32.360595483112675,10.356774641974516,-14.087878117734228,77.83733434071294,1.8951956898479203,5.738650309235494,-0.25864052658221154,-11.016458074185671,0.3215170268170755,-5.982085480051394,19.074155028968384,1.7580483839633563,-0.4733927332075919,-8.15727597691239,0.7736686857352868,-1.576366729394254,5.490034148752835,-0.1958064587079499,-0.4626632774538627,-1.645326164295775,0.10332389429823463,-0.044575893056317484,0.3562157737040577
-7.147723782590062,1.106760891073536,-3.943769033162238,96.85140600382647,1.668224780183941,2.11234859576007,1.3465284245668283,7.182051571133815,-17.62623006379864,99.64238952432697,-1.6620130585259703,-0.08491486131483275,-0.10791356391884094,0.00672033337002402,0.001056361221639806,1.010261455555923,6.981251942433495,2.826375791048535,69.35950614720952,-5.955104952499516,-37.68031863247006,31.724337315604224,32.62656185714582,29.168359429048717,5.979408654060349,1.3931790692786488,11.563819500086161,-3.0793528556402614,-2.5978264753797515,6.868310879093483,-0.517233121124274,-2.4662978358879606,9.51599596954847,-0.03704147447790587,-0.6151442293697711,1.1792656571300466,0.3589238571934411,0.21450227622633428,2.9294774293920756,0.03881209421118454,-0.12516190867020008,0.12489282999222076
1.8164971281974585,-2.684067405340468,-2.2962039930941853,91.91553126142857,-2.69631257912805,2.7643254867274654,-10.872056386975977,11.997247890814688,-11.747692583306367,91.13248615955027,-13.053159110195292,2.0796399173730564,1.0410133168938345,-0.9155644266465919,-0.30948858415564845,0.9224968107613041,7.075112617551213,2.767658814219028,57.2994734825303,-14.92800405404908,-16.69091018286964,30.84586855015375,40.0194722707203,39.36598963308007,-0.43678359553484836,3.1313444396766568,11.802155440214127,0.17833184874708438,-1.797694011335101,9.51661704777891,0.16910132487252488,-1.9465217584331127,5.0345109503258305,1.5605671270278854,-0.7829888520807876,3.6188886021774382,0.29103065507021625,0.0032959397740165383,0.6906627566119027,0.34831042044178684,-0.13258389150097846,0.6479358260294386
-3.4302148553388014,-2.6691057588104687,-4.857263864587254,93.44761500355759,-3.6562176761708107,1.2637985079488578,33.2921583368933,-10.694683287363537,-8.557006837130444,100.69815934013744,0.2809388782924811,2.7581197008346834,-0.4796751808231223,0.09191079191342265,-0.6806977352636016,0.9789334565843683,5.292452734843739,2.4181923727018626,113.98209044619108,-45.57682111355961,-11.674363637900825,2.906373370852065,-7.969196027662362,19.061541389786967,14.543503567056213,9.229426126367951,10.013562683876202,1.3990686966725132,0.2507169688974487,3.305136496473555,0.5278936966749433,-3.8171569510039665,1.0516932624425352,1.3407483645624734,0.2072058816801789,1.4053402283691205,-0.060009422889220176,-0.2191610268678559,-0.9258357082230779,0.3065257058107046,0.07743577691129278,0.305498127552027
-5.9138209920312645,-5.46257719382231,-6.657431842303955,90.925042600385,-4.029063697563226,-0.11447946762841545,17.990963065930664,-9.065220647212739,-23.172924217051737,102.05584877947192,13.460371783326522,4.224781586731557,0.03751244032661919,-0.9264081213284755,-0.4215260497391333,0.48598138763292226,3.129269723404315,2.074644360073109,102.17170263472397,-18.62871070134551,-27.633235249919494,-5.445386493377037,34.286649797272545,6.890148025397849,5.7711723449762475,0.1374066935926681,-1.8462011176107116,-5.0951735363729895,-2.4845298867777794,6.27590688736857,0.40887657937690924,-1.432288765650556,-1.556743863798101,-0.9399597655211482,-1.4957338458963145,2.602420589721841,-0.09276389758050961,-0.22642090447623836,-0.27313776971982473,-0.14565897936314445,-0.19503856130382138,0.21829190839340185
-8.811293413162668,-6.707299872781575,-8.129289702074601,88.89970965830443,-5.242095044946728,-1.5538680369248572,2.7255118581651283,-5.33093468427823,-28.82603152632431,101.30059790266944,22.567164648336348,3.7087733894260486,-0.2628869590442599,-0.7998011387933742,-0.8520370583410418,0.5389916172543434,0.4398910488933703,1.3888398827021902,79.16498070181075,6.821890313234333,-42.765210395269676,13.478654933421824,54.17689528089312,17.741553273819157,-8.726983031421497,-3.6545735133594732,0.23784449323077594,-2.6867818366634366,-5.586709836105025,11.778351037213644,0.34103025694252953,-0.4830686341862657,0.18633344846608244,-0.873158189926979,-1.0519958120713497,2.4663866401998815,0.11916626810377642,0.3367184286657616,0.8358337299172898,-0.21935003364426764,-0.07945141101294134,0.3279725112321434
-15.873416079236714,0.4716983555022265,-4.504952239398659,85.623199274965,-6.067869039420607,-2.4955529256513858,4.600794188302637,-10.867746581057949,1.0946044000432265,100.91990904599669,35.45913059734687,2.9529722121708586,-1.6618843982419342,0.039610692700317834,-1.284586587209226,0.7295538803702737,-1.3188856900627561,0.9728423836293612,86.80300392176335,5.538142500597241,0.08375437975432387,7.74835352306661,31.24124714348431,5.485185671775652,3.068574243908772,-0.32243107491399026,0.2633571213204335,-2.867566907858532,-2.9104100928081964,2.107729302501457,1.126328077994456,-2.5995049508129586,-1.0392700836845647,-0.22878350367282702,-0.9464131230707361,1.270692726178551,0.06554674063195175,-0.4579331357471147,-0.15406029064379662,0.05577618663730997,-0.08387931140479865,0.07088802468987918
-12.608214307247437,4.6506638715811075,-0.8603895535073975,81.67243668323108,-9.487105154932545,-1.5077763318201247,-12.380641895913518,3.60345297002281,23.66387232869745,99.19898401779747,17.92197272845875,2.7162666378757434,-0.928085334616775,-0.07053744656157868,-1.0451334580262994,1.0580380480737224,-1.7563937676548989,0.7185635510787112,73.99735938749546,10.620060146523633,18.35563695033069,8.571203895923398,34.19772825997284,-8.11356828874644,5.919357593503504,5.374609283677485,4.010779095858508,-10.79483955310309,-0.7204286596145311,-6.376591821011067,0.837408705355936,-1.299798338978717,1.184306647396054,-2.0240544708680512,-1.5776270000131138,0.8169879116278937,0.19318807037622232,-0.09998251247349842,0.40875982556482376,-0.2781755645554342,-0.31618009477691256,0.20380005108646
-9.411110914629655,1.9989551214317585,-1.1384888383980567,76.64548107797224,-8.68329216305067,-0.9308728206270425,-0.45055190795555067,-3.3590447434477637,-2.139548448158048,89.00386805956893,8.958986741684484,2.594267217759584,-0.19687146931840868,-0.2455795873579807,-0.33630665068044885,1.6945928013596752,-1.966660743019933,0.4887447573632959,64.95741000507729,-17.489944393896547,-16.373826444047932,15.056968891511778,17.377241139686856,15.533800081563465,3.7504028213386933,1.6915019324864156,1.4963585349701514,-1.6401003359875137,-1.5662097802269146,3.2238110658415757,0.5750553912553558,-0.4885642980387175,0.6785747452580358,-0.38728085725589173,0.12013221785897275,0.223950095811575,-0.08962036968120124,0.39537636252242925,-0.024483789906725034,-0.056053242695885075,0.08728504076015471,0.07761173342631698
-0.7032195268137352,4.323578097332593,1.6848530471428371,71.47650701171771,-6.950698034871444,-0.9691752380691679,47.008574899665724,-17.117967347299818,4.369736622401435,87.19820338374983,13.463689655658484,3.635618322128565,0.6648282772624416,-0.2520655593913045,0.6198655178646995,3.4526991341012776,-2.8520663182239487,0.08743090813671492,113.03208538744153,-48.89948079767242,-5.4777424676765465,10.662067169890205,39.438102625748314,1.249313379473667,0.7097330503594074,0.014571711159718915,-0.46831738300924763,-4.6096561623070045,-3.654271516144104,2.957460245391247,0.39968035185851125,-1.5463524617413165,-1.2794181773781468,0.24927699809924214,-1.2589752556393277,1.3329176426230538,-0.16545535466416503,-0.09355176991530041,-0.3168363200944812,0.262947805573109,-0.08023084765771525,0.2518090323245449
-6.512658212959767,10.259585662984625,1.5385966533810695,71.0822785633284,-4.666587791212086,-0.7584695492065587,6.740254938448874,11.893236771249592,15.813027494344405,88.34519835901193,6.265392821115739,4.06628673552992,0.19934629890974748,0.16222618568972838,0.48333978404455463,4.308963871904975,-3.1962911277214214,0.06658546936882041,68.18023429598449,-17.106719392311554,-3.5521328065551523,9.049454190842974,33.52629015268929,4.548566127652025,-0.6835882763460146,1.692009778391659,0.6642283426544773,-1.9502071002854686,-1.102615117801338,0.21856200062452297,0.3349628880700618,-0.9287450539431491,-0.5022436471761748,0.16104724727144634,-0.8605426844832824,1.0005557822060784,0.07638040790927397,-0.29813118194041743,-0.07728594899654247,-0.058052514371012894,-0.2998052185763006,0.24618102824879484
-3.4672651504824668,5.215468526882989,0.2469294426898168,69.85255241951951,-7.800103640958114,-0.9641186370730858,28.971630025387984,-9.363676068808248,10.514818967523155,83.84840795750615,6.421718380497773,1.5159168993057948,0.48343379640545564,-0.62565815067749,-0.12465455220493345,5.848301964728006,-4.684467641881569,-0.4688210853076734,96.75694590059307,-36.09202506883775,5.275890379795326,14.43154083810838,-1.2678930899881429,12.910126095770693,1.68231563280948,5.062158936601316,2.9389848503354856,-2.489959890095253,-1.5184170189770458,-0.5036828663305408,1.0824323307757937,-0.5244183471404081,1.1286211974625382,-0.27277483200821284,-0.5681342078596552,0.046464691941819375,0.18182700466194987,-0.02574998370869793,0.22087807728050143,-0.16969743407370502,0.07990780072895795,-0.2748788198926578
-2.0531514628314045,6.9021572087137955,0.3442631680307434,59.434061887120734,-5.600570979663438,-1.8427006968046653,42.56081669240017,-11.037307799699828,7.657038592205392,53.702846066098516,12.201513873147068,0.38728875187711853,0.5887760419992069,-0.41954296544974706,0.5357761314109231,8.83492771605097,-6.893581915221182,-0.942990614472807,71.45996811992146,-36.19133513223855,2.8395789212920697,19.0693768403259,27.55951039512701,8.852736352094684,-2.8718006244962293,5.427925251993831,2.467374733169605,-6.615505066948459,-2.024312699384181,-1.643896206850104,0.17297045556718507,0.4154982222465332,0.5658714615714548,-1.0552212690933311,-0.20240335591417014,-1.1996394777531139,-0.21134622878610293,0.5232975834470587,0.16307341437461806,-0.14409189072718992,0.08532735324253322,-0.26253245335553455
7.445592934317361,-1.1236139263930651,1.4200526194089111,61.55226301623995,-6.373946553756778,-2.9093112324971155,39.539028963848835,-19.500758255971167,6.381388651873728,66.477445671208,10.587595827984554,-1.0543635988787918,1.149336858988163,-0.4530920782226513,0.5715800331459012,10.549683726345606,-9.131066410542752,-1.5680750582254275,93.5569569868385,-48.38561522612126,4.554572584215467,11.112798275135193,14.001897479495147,-4.9829780051234005,-0.0473257175031947,0.14314908196195275,-1.0977939327405424,-4.026193810124618,-0.618762525667514,-2.124055026948798,-0.6800271488144366,-1.0477563574040378,-1.1534221256434707,-0.31497980054134617,-0.48361618838314285,-0.17411095949671346,-0.2828945324035161,-0.10575610271433433,-0.250990739424051,0.020300602576411263,-0.11009532232022164,0.08871378428339145
6.937656688205312,-1.3474564017139985,0.6672199085500846,57.754197052859574,-6.2345563501246,-3.5522051590869275,37.783909352852284,-6.818303369389383,5.9836145337635065,65.54698772883607,15.816585953131723,-1.2833051718024244,1.0152091180213254,-0.7633762917760115,0.5915054875114383,11.71791033766813,-10.561376520346954,-1.7488927370281637,89.33611779214797,-16.84881710976058,-4.5909978906974755,26.472776792180394,11.69361268567176,-5.344432349993476,5.626988880354874,9.281148985209756,1.905148671498824,-1.1875436305791127,-1.6714802606969958,0.6315207426718088,2.014503417216386,0.25115240697003294,1.2816764391584814,0.3861553939970285,-0.854604003598869,0.7626246823601074,0.11149390229422675,0.06378101607223338,0.10981706523590742,0.029933298961900244,-0.13610398822669414,0.15024573386771903
-2.339612955337224,4.994911056636802,-0.7942788094396447,59.14734332833403,-7.267154955335349,-3.483824336924667,14.509304612720673,1.823254050783433,3.3142799888840133,62.83209605013457,18.84954460664718,0.9432426412228876,0.7596288788191952,-0.5443352647134279,0.295510985742161,12.78218625397075,-11.332906450148387,-1.8708994825542564,42.43763495331162,-8.070518559850777,-5.203785466876566,38.03995310059396,-24.982156212810597,4.321412083172563,-0.21021020038242846,-0.10421201774227624,0.72236423609233,-7.849923381779258,-0.21976720363703073,-6.6474467729600715,1.629069960302319,-1.2047519378975768,-0.06128820869744284,-1.2229547187143845,-0.9714730707153161,-1.8194162217059238,0.2983604931233544,-0.1958585436350519,-0.03517945590106996,-0.24405001378742952,-0.20648175083761114,-0.4560380054515551
7.435484605005415,0.9304735190639459,0.4947389491335061,49.39345949701081,-7.343990724781915,-4.100839012288791,47.842970575223084,-19.431575346527325,6.4998522995541315,43.60541415874263,15.287654518282638,-4.141174788598085,1.1151753238572528,-0.5293523225793428,0.47488415118994526,11.927336512574549,-11.168238127227921,-2.2181886745520956,83.16168962908557,-36.067513123632715,12.044433925487366,9.619972627360882,34.159786526775314,-11.835604817138012,-2.5146361221209026,3.1000857437855474,0.5424677752681714,-6.873389982312169,-0.4770595645418249,-3.906957185668418,-0.6655485563630512,0.6336314647776703,-0.09118387742056593,-0.9029110980705063,0.016716878895706035,-0.7972310666308069,-0.24570236185064612,0.35660953798038136,0.060070350281703065,-0.17290962969123547,0.07086098469918024,-0.12754732805857277
5.08369953591287,-4.629833032489374,1.3112650418327254,41.55008109355778,-3.9852036806115363,-3.890799165799959,46.653780847056076,-43.077480404617454,4.191755914533263,36.00192146984796,17.50332506355455,-2.236281423469581,0.9348745787662378,-0.866483832994539,0.3304986425130659,11.206590979152635,-9.960931089626431,-1.872239610305344,81.5009840226115,-54.23481760753901,20.30802938758621,19.797350465903804,28.41195145161367,-14.794104534050874,5.622529180725307,0.9229233488983711,-1.1845626857023106,-1.0373733974486667,0.39782338576688836,-1.670748747200584,1.2793586592528432,-0.604777463512582,0.09437268530008718,0.1131039936711929,-0.3637272715815601,-0.18637192060052624,-0.05377846240405852,0.06411829574401456,0.09048561754801471,0.024141800848692996,-0.05208657245834874,-0.05221718850224256
2.9468831337707853,-3.027641935053243,-0.20810496355887992,32.75576022097307,-4.98786439159899,-2.425465973867347,18.839939420007187,-3.351711772037018,-0.07824827208134186,33.5744437252549,2.9296822240887583,0.32142908508215173,0.7952757729451365,-1.3767899586285721,-0.18540054114384305,9.253067276467812,-8.205122012165404,-1.4756087267580245,36.877811646695385,-18.632203732041795,-3.426603686891083,42.25538438154078,-43.37231011981693,-13.277204966994649,-1.6211833985288648,4.612030958698169,-0.47696432664748484,-13.891047937360925,0.9240372899670741,-9.618310248583457,1.0220987924363165,-1.0785364455720545,-0.22279512594767387,-0.8809013901447188,-0.9006877806389053,-1.6443023162733124,0.27534647561057235,-0.3497841732367503,-0.10965453222555908,-0.14856427348985554,-0.19528450092341731,-0.36288051541661653
4.140393653146542,-1.4720393090882833,0.41498584790956206,25.409814001154366,-6.874057905112731,-2.0028867823729053,26.1039682499705,-15.727881649182526,4.725050795475201,20.135484538475428,3.4664073607759383,-3.0688332635231936,0.8058369088401998,-0.8000893682333278,0.2615607930567173,7.505449669642318,-7.239110580865445,-1.3929968689780379,28.16625371889825,-34.37224929813771,4.606451327102397,41.160513459755826,7.33027520188216,-18.590830071689364,-2.8189527657902023,3.0771555374685553,-0.5132686075214493,-7.628495407201416,2.2772738349061186,-6.312291319027503,-0.7896694702186006,0.1710635418320416,-0.23483671083237942,-0.9851200496462168,-0.10857708489094056,-1.434217004537456,-0.30940695533334966,0.14424918322129385,-0.011391051037115057,-0.12546007516354427,-0.014803820994508388,-0.27388607361986617
4.344883903405238,0.8236803739136765,-0.3834282180868606,19.048071647861388,-3.718722154661661,-1.2224377463456844,31.1936160730167,-7.852662377490504,4.396527896898117,25.86698140007268,0.8099680373904368,0.8864712375978476,0.5042992448527861,-0.20124643121504754,0.18027028824603977,5.869914725760249,-5.424342364887063,-0.679931103445966,57.60603274659,-20.496719485776023,12.888975109286427,18.07445082125903,-34.3706237079124,-4.232932792565712,9.012969445066982,0.42397998572640844,-3.603416383407482,-6.383783376835871,-2.4500633512184504,-3.2784531710808107,4.499174944596322,-1.1877941899408364,-1.7499138165171337,-0.35643071743805865,-0.9145771533084104,-1.1557722345571935,0.6415115829520448,-0.3602555833264823,-0.5023501724953238,-0.06885592734805825,-0.15218944898722045,-0.2240166165306162
6.088163505416793,-8.076711733442314,2.3243130005195956,12.587507102826919,-1.9299940152926296,-0.4868042013394206,20.124801222719313,-34.61904127633796,6.881443144889968,8.615294836497197,4.362474335147559,1.0286486094901985,0.7600350248391,-1.072942674141361,0.40509743028151973,4.364911983640041,-3.8920866096811837,-0.10447528858561295,21.626710822336317,-44.04526392357033,21.129718459957594,33.565138556999145,-15.46839379820213,-12.252116878568309,5.583109334120702,-2.5677290516955935,-1.4596190004513832,-12.208741785602658,-1.0136428201578584,-6.23525153894474,2.6307206831847667,-1.1673464717783348,-0.873499727205924,-1.0537214611620902,-0.4853102835975377,-1.6620497423374898,0.2984576150845631,-0.08465883018122611,-0.15800586171206696,-0.15879775703378746,0.06407038614374728,-0.19828655585644203
6.606247191969464,-7.152216360887466,1.939929706080353,6.697789171495513,-5.853995308560502,-0.30843614994301133,25.15089503951796,-25.28326960244383,4.996251201753835,-6.963435601482483,1.9713135288520796,-2.0569090773041316,0.8334567347279732,-0.9295264234197849,0.6724556870010656,3.012474434067053,-3.4048557337037284,-0.6365976236701129,12.915303711706647,-29.272180757179505,12.913998726533233,49.07913807239171,-20.38590929278955,-15.781490768201113,0.8237602848184294,2.4583986317886626,-1.0555900711305783,-8.383776847241549,0.7168191792859303,-4.495580472312599,0.7999513177388847,0.8623758557088979,-0.11410212775643941,-0.7357251238070915,-0.34599718024994336,-1.1914954713552441,0.016344633608340698,0.44899217213345805,-0.0011164497916032298,-0.16770578384126295,-0.025674585205060264,-0.28557319462218245
2.612096389115452,-1.3017472309874145,0.26803255378708457,5.837985746736135,-5.537341195533345,0.044423509385430715,11.672013489850782,1.5760822627355084,-0.04327356263605914,5.245014646242133,-11.97225107543195,-0.47980209377969046,0.48549612829883354,-0.5637845931450844,0.43833244355422474,1.7733603190586504,-2.5178585458970453,-0.4392050265418342,14.632077435905842,-15.041723304440108,-1.8458138995916022,23.081784816617034,-1.2880921400052119,-16.562694337972644,2.756533723659076,-1.8809393717142917,0.06827954118021509,-7.152593449639204,-4.586797730197361,-2.970355376034685,1.653947453821684,-0.8309025264296286,-0.6478099798259382,0.15880141443608123,-1.819083181317398,-1.4346117196825674,0.35130126564714526,-0.15528100878923884,-0.14995786739395028,-0.03823781558331614,-0.2449867279245901,-0.21507713944680304
-0.49596365090676914,-4.472633817329385,1.6382455708676176,3.7367805169740604,0.6919904409565799,0.27322982398137613,-1.6163983841698475,-22.34024656337319,6.258062394567441,8.661543491175303,-3.0833517545665314,1.0982757824029776,0.12924663051496887,-0.9092692237788373,-0.013059249264511172,1.0906569336012841,-1.212919714419591,0.5401407095529379,-0.447902145595325,-41.3828378365865,11.21380093489532,35.85944149616794,-18.508391557755395,-1.1266628349597698,-1.3158504349985143,-4.344828142531714,1.5420880151071592,-3.3204198414493162,-1.1447472209937997,-1.1728524434348333,0.2677620267999104,-2.2917990660920298,0.4469743892510322,-0.6825494628043965,-0.09082741796462761,-0.6700729484569194,0.08889880430138695,-0.23948069548785314,0.07047345054612862,-0.21075217044014666,0.06392224549482384,-0.15467313736772356
1.6145507094974552,-3.6042251033715864,0.8880716815713287,1.3076963360690355,0.7683448255828526,0.18081506253159588,10.56572497449901,-14.637141534274415,3.4828273965802587,2.3932695028064215,5.295766222678297,0.2783824647377169,0.21644611005473194,-0.6373328372136247,0.03020680808728589,0.22289570337340114,-0.6435443850051487,0.4388329517622224,11.442731653799365,-13.62468192430306,10.41988256662366,25.62865185954997,-57.777302293008596,-15.581224485070553,7.8109935406873,0.7354943646696909,-6.102021027715717,-10.68533628830569,1.2234166861652782,-5.0729048987876535,2.9259245042489406,-0.48924389385798384,-1.8535038064228007,-0.7166378309695072,-0.9285388030174742,-1.6385828657938826,0.3311987198281618,-0.13461311791588734,-0.25630790085093086,-0.027122042306230703,-0.1896392267943189,-0.22846866954922926
0.13706501670322066,-1.4016040997538886,0.24231293984072952,2.2183777927192585,0.05298992631807725,0.3391867133934836,-3.2154186429239284,-5.706910222190583,-0.8073088573296646,5.892996432438783,1.4562917578069,1.6123422623408519,0.08581906490254232,-0.22548753132956836,0.07393329423666192,-0.4869127724901427,-0.31842407328727546,0.31883721940217746,-0.1593744387938032,-6.831566732591605,-0.891504573277439,19.53476541756106,-18.50932146963315,-10.937857503870939,2.1559498191288022,-0.05498932256257715,-0.3190808963006583,-5.624532971719783,0.16306363937632593,-1.9586111297756723,1.1085049314950999,-0.6586565766509925,-0.44557707441561123,0.046773000361507354,-0.7628249317050666,-0.5865664095472707,0.18859212649864598,-0.08101175529169947,-0.08270594343080948,-0.06699516888357053,-0.18265577146268594,-0.18633032615200898
0.4299616325380298,-2.0266058015685227,0.8889437256560808,-1.3967378729230648,-1.2466206550534833,0.6560986982372724,2.8141745380880323,-10.040168915550804,3.396532757019087,-7.058929021991554,-2.5783507473967258,0.17930054880137594,0.18379524922570678,-0.44341196633759333,0.2768320814359698,-0.5054335728753612,-0.181296281849044,0.45798902081591425,-10.107246098014405,-18.294307922200893,8.655493445045304,37.6604470092755,-31.27480670505533,-1.9129180402892378,1.2866129400101705,-4.6054982969914775,-0.23852915251967025,-2.8060012995069394,-3.703264069809278,-0.3411192102572128,1.1790184447447183,-2.077964561708579,-0.359861309911246,-0.5547488897788355,-0.2847437963647981,-1.0186317683855042,0.1395728293744794,-0.34069977660281575,-0.012880398373821988,-0.16311952625163872,0.1349154073965334,-0.14403433211013525
1.1781892537250807,-0.6638108876811573,0.30339592573752255,-2.086020197941948,0.27950560075109226,0.18206421689411553,8.845151546297393,-5.62407455185445,2.82605213616837,-8.061384297343787,3.185594764264363,-2.276234330005634,0.19724948890350685,-0.5491009049098061,0.2668492219672987,-0.9051397796823251,0.02453057775460645,0.4533948371216273,-3.4971044990405256,-4.3908811517265445,8.728457119601336,34.79025624500439,-19.038281137631785,-13.243508580602878,6.842797703820551,-2.369645451582562,-4.597920797462218,-6.0746887022970855,-2.2133370161073964,-1.8039225135226296,1.9756379884759385,-1.0068420278071042,-1.2243960114046741,-0.9731833231517282,-1.019701288239702,-1.4505472347964705,0.22907588128589557,-0.22469186443075922,-0.1437839932222896,-0.14423978375011268,-0.28114719044571734,-0.3007207596056405
-0.24176115472724383,-0.981180771825408,0.206952005542906,-0.2504779404988279,-1.4779682844427484,0.5372053303184036,-5.875421544743258,-11.737710328959423,1.9029568242481636,0.32868992629243265,-5.9855489786749985,2.156013853901783,0.03182689470326787,-0.1653865438124978,0.03332649962280156,-1.2703931338799797,0.07073991310692132,0.12071600882140544,-11.820326678980857,-25.025257963758452,5.638219008970063,13.463728768646089,-41.83510428600833,-11.506094985410968,1.8976117814794293,-2.2874179870462688,-0.303400772315804,-8.828113486004675,-1.7335453620344472,-2.6493414861245754,1.1632112694611028,-1.353404972656685,-0.2145057574416596,0.38579087411436846,-2.366578278507246,-1.567489853837704,0.18270053704937708,-0.18592048406420222,0.02302836735871956,-0.02297860372690415,-0.4781964330785825,-0.35936026082375594
0.7658785461155017,1.7656740803666937,-0.43623716548745006,-3.823870220551296,-0.5478999547595566,0.15781619999100893,0.417910226322343,3.3588393995266195,0.37688701218338394,-5.098928187920454,-2.590033896432999,-0.6313695446318307,0.20093589213235244,-0.12092163909831981,0.16094351184121516,-1.213970435841316,0.2925983654992343,0.17919519025011582,-9.622629253131805,-1.4334363185864398,-0.14226757193533224,21.681160434090458,-29.49503046865323,-0.8679724331612224,-1.5278881355350162,1.3375213133982955,1.0747943357396916,-2.5255704085961166,0.1121698689251937,-0.10978562690688239,0.07084511944204185,-0.6639802056442634,-0.04112360464731253,0.6432452536938703,-0.18374298712776668,0.25999039131429297,0.048596373991328934,-0.15985691581024833,-0.035311440277247315,0.016642379539543836,0.1711077439867587,0.12433098297814053
-0.10922576715673812,-0.38062867845961307,0.11696771450601195,-2.5116101617044175,-0.42088183359172715,0.603884677072478,-1.8196480312429923,-0.819032652512934,-0.4799990688802368,2.5136956816425946,-7.3584432355568365,1.344002407602434,-0.01826678739034308,-0.19678442091973855,0.133337077257713,-1.3275685007582996,0.3530554974825006,0.5062058084145026,4.955336938452862,-11.58332113919155,-1.793065270808784,33.26995603962812,-40.736606106609266,-10.681007842950965,0.6285525076493643,-2.26483684773683,-1.0796227041645345,-2.985161387152861,-1.5121080803530405,-0.6507568801264042,0.5025483885568512,-0.671819087260241,-0.31479674069223823,0.19998977405428653,-1.2112508273528029,-0.5330023552673251,0.1753081065251622,-0.02680699364476871,-0.18768386235830364,-0.022250581296741134,-0.18279650459776828,-0.0814480808094494
-0.779060795972519,-1.0666037464289813,0.5290269163440092,-3.582155642577703,-3.51065790743507,0.28976123031108236,-4.410168916210544,-5.5369384370246415,2.608214022631011,-10.166572216157233,-12.721515704098719,-2.035403350361643,0.02322288004299648,-0.35802232343866014,0.04906984801926086,-1.1916225145121129,0.19784028193357264,0.17568478543301852,-22.989914420465574,-24.266758838323344,2.5351672318970007,30.254334618684965,-19.775873843982556,-13.298055667201767,-0.41530849107219714,-1.7855204083707807,1.9876662497530533,-7.306370454616043,-0.8385678830252742,-0.940312317882255,0.5161389406772994,-1.6830684958697548,0.02572969620891264,-0.324753214809957,-1.4095579840559571,-0.7012581908083476,0.05002740790589652,-0.24249701453184014,0.0626983187574757,0.12437921925141328,-0.3733897979727842,-0.010639190350928527
1.3700513544059327,1.658965866659363,-0.5495788061929128,-3.553142534394738,-4.667242258892495,-0.023905288507554037,2.6491094275942815,5.290925206240798,-1.2251188976073775,-8.943972010844933,-13.592325745829907,-0.9534906479798286,0.17671966841322648,-0.24889158588650165,0.2329705698104655,-1.0878766386013727,-0.11846368377040062,-0.32999127885360086,-11.114647839267237,-8.3473893976511,-3.3621394378160345,15.249458462906937,-37.28473481298572,7.51847395310579,-0.17301304215953967,0.6771724569956029,0.9980505568653084,-2.431731424667409,-1.765983550654414,-0.01727761337903226,0.12801900639709635,-0.21298417864552954,0.07646814440650578,0.23135444337462624,-0.9349665474988512,-0.38129429128285774,0.004844319587460082,-0.020674110759124398,0.047062416059843834,-0.09782549212367052,0.006342088227301661,-0.11238671250797076
4.371531648036668,2.135949876714436,-0.7272087114760241,0.49405521750987114,-3.454855669607429,0.1057980277719741,8.367750180017442,2.8150005362085415,-0.2614297066025247,11.132296978161474,-19.63163294720412,1.2005553644026443,0.5707976004636811,0.13979932817467475,0.4311760331439577,0.277508267354636,-0.40769286598561766,-0.1722365433840665,24.591674060128426,-20.214630230111954,-0.8697441441740172,15.519947952352389,-42.71192494904349,-5.53982293135841,1.2033548568431838,-6.0288243942077715,-3.4710002086213505,-2.17548361364095,0.35309062258299206,0.24555208588335017,0.055798361799732035,-1.5376846574545273,-0.15178321007700177,0.6250180583066779,-0.45796668966143395,0.2041444815291886,0.031158783015215505,-0.14670003735539147,-0.07251470913674536,-0.08602911579904654,0.00709581641137389,-0.024786905391458124
0.5489215313276627,0.900342004481094,-0.3313503245823157,1.737902991229152,-0.5833092788137816,-0.1764408463983345,-1.5440632227085371,-1.2411111056192556,-0.039229000053352045,16.40079231575221,-12.856956560803365,0.8928207822022928,0.08589070103596476,-0.44502662230377393,0.2455254485301553,0.4927519629596788,-0.3152140975108297,-0.19048425716306316,21.94796438224689,-17.600390755852825,-0.8537069575435043,24.72109667197433,-28.23861080047766,-4.827470577100457,-3.442202666004724,4.077566732506777,4.0872663112893095,-5.038869694076153,2.171442301442816,-1.4633688206970057,-0.5322237473550555,-0.19016983966372478,0.5445645198128524,-1.5983477563625685,-0.16049286210203478,-0.8159412434495099,-0.0584028614868363,-0.03853576369766704,0.12205244681956096,-0.5419520418157117,-0.07604748520825236,-0.36019409074604386
-3.0550172731591063,-8.351203064605997,2.53425453611569,1.077151876685318,1.715979017090873,0.27626232029553527,-13.053934791113932,-19.096683449697043,4.577565270497188,7.336856993396293,-6.223583333186993,0.4880492644513081,-0.38152114117059965,-1.5650967589088618,0.029752828389387274,0.3921527280585293,-0.035472193990087136,0.3722052551898203,-7.654777460781605,-32.76346849701048,5.637476096852576,45.56688291551788,-23.620617143469907,-3.8163314166035613,-2.7403432896856974,-0.2954140096825812,1.4595502251721941,0.5011018203960675,-6.746414275880464,1.7253273785063827,-0.9570276413297074,-0.5904989013306976,0.5615184565698952,2.2089424332011083,-3.0818011892350237,0.26404086334379967,-0.09131782500412186,0.04726488452071754,0.0965430080349601,0.5814297647806271,-0.5274627290048552,0.22676706300547494
2.661979769030075,5.474902386862902,-0.6970236586070769,-0.8850386752459238,-1.1858900746368601,0.1451495185148549,-0.3443405689631721,4.1129781270827666,0.7351543185390275,-6.00850581899379,-4.685827082868162,-0.3069482763330837,0.5145637343454607,3.9624704975092286,-0.03762966271514551,0.31242778814059735,-0.3728457800103469,-0.04579853813074168,-12.370803696621715,-6.697373421913089,4.885801482658383,34.406529638465955,-13.339057656025677,-1.503517137797805,1.9790518920644673,-0.0018211304284522362,-1.8057520701050924,-0.7977824838209163,-3.91488982565861,1.5289513015234941,0.8187202153585385,-0.5642621439014535,-0.534530562961967,1.0712142377300164,-1.606464007832428,0.3762260002233802,0.06379506308409183,-0.042996082415550224,-0.10134871191140134,0.09625411419638301,-0.08912103952797007,0.09872734127187482
0.90334272010403,7.388092088296428,-0.8643164285674059,-1.9062642665851164,-0.43351851516082207,-0.020048289692324736,-11.467462221018286,11.569326466675713,-1.0656239460409531,-12.10240720961825,-1.9549453939607842,-3.3510827208238485,0.785765536969296,6.652158320507695,-0.7375648433258506,0.37372852210398205,-0.21710735076539708,0.05751517597747344,-34.88177491705363,14.721048861853234,-4.54797391386811,37.17835428442097,-57.033199877675344,9.182376646825333,-4.020132950089636,4.780825881800359,3.4210124777064403,-1.8829270780033298,0.9910812913663138,-0.21036103685635396,-0.40776241951553643,0.34251077200956126,0.2846572602844002,1.6236789135418728,-1.4623612024772485,0.44630533466545197,0.0843583273420886,-0.02475452897604581,-0.015169319280623629,0.28145138223465055,-0.3824300499012406,0.12602375737816374
3.6200122273453657,5.883789798056118,-0.6916518156288222,-0.6237497040651145,-0.3274105527428309,-0.2173495693736881,4.66405274236839,-1.0225123827645155,0.8491164645973093,-0.7830059418055757,-1.194253072964329,-1.0277488714842833,1.1771716750259107,9.283784722728875,-1.2865900135263733,0.3977982302561005,-0.41828070161486836,-0.14825087347941868,12.273164541155046,1.2671586808923425,3.741132794552142,46.048391986601956,-24.379485039904424,-7.146591937455063,-5.0532204689999345,4.077563556618085,2.3903229258750542,-4.161855256391341,4.005155498001371,-1.0653518126898418,-1.531534226923001,0.42151598570500004,0.7462677878617975,-0.14870661697550497,0.013676741063858001,0.14903206119852325,-0.10359014508719154,0.22920562095314445,0.18536873581596805,-0.01505887733756709,-0.14145536155368393,0.07664085963932703
6.317202959273281,6.964432183800737,-0.9382354376830144,-1.7374715850756983,3.0582267011718614,0.05049137161860129,7.762203481270481,1.2215063948485272,0.8622148538022112,-3.2794108513094153,9.066250159621218,0.8805685857777523,1.827635092055339,12.081146177466163,-1.7936850570813503,0.20534230485028102,-0.04726930530042655,0.07923304935502412,7.824704918320253,12.191410768413194,7.445227448763578,1.1107724188360475,-23.780944511209942,4.781252653019471,-3.5904720306202984,5.228675687146934,1.2966852926625465,-4.399253537823435,-3.031625730112033,1.1009446756625145,-1.3372003036635058,0.10562861086539824,0.07442486177101867,-0.6475759432478128,-1.205231377492908,-0.26523650104066027,-0.26313380245342516,0.059521141765233404,0.033286800089325747,-0.21043368677368196,-0.02384222070561558,-0.11980656067421683
4.55394444676736,10.864798282174268,-2.2860859108963636,0.5619184870719673,1.2495915871650647,0.13914554181523592,-2.433544321118836,9.707947084474187,-2.1282886217793577,4.231884313571899,0.5844431096635205,1.6849857639016013,2.2127333474049293,14.678451688177113,-2.940120309511995,0.2997716947871376,-0.210851407257824,0.04053182125822056,5.162764578085263,11.255489718631464,-0.9792615290735398,33.59975685308595,-28.958786964773562,-1.258902722211566,2.5086190825786563,1.8611525379645133,-0.8208456993993979,1.4611056261542053,-4.322282288572785,1.4298766567182108,0.7929768895627599,-1.2044187088135103,-0.33237684942036333,1.4425928006755606,-2.5907918359468485,0.7954956018030218,0.04762932205426427,-0.19683717432511239,-0.08016463656010613,0.12389591162693589,-0.3431237349651671,0.17453031128431198
3.8755900129845586,10.871385239287779,-2.2499256749884915,2.119432251911463,-1.8152390762469428,0.06560667025349684,2.0104975137497467,11.285830096200492,-1.2101673530292651,10.178670482467878,-1.9996094084618001,0.4217058220343774,2.651940861024475,16.44137428801087,-3.599641375737032,-0.452373159068282,-0.34329462395444804,0.28782667196304823,25.274463898786458,16.627451432699786,-0.2109505858767825,25.029762431543794,-22.619062708767842,-3.5897323703971233,-1.3552969406976536,-0.9292989223216004,0.08411186977467856,-4.1772636184379754,2.5854778962352003,-0.9480473217252687,0.15766000131113678,-0.9536233043383462,-0.5055803798661671,-0.5665687467450634,-0.2198562959645992,0.020728563726792652,0.13187383189641766,-0.03800788689633941,-0.13160002673202342,0.04366198149303292,-0.14577101744321008,0.09468764081541191
4.8289548710622645,8.264337520687675,-2.170543980930343,-0.26238559252365146,-3.633833277989837,0.49103251605408416,6.084180306280378,-2.108375662183594,-1.2903740474046277,3.314121429316924,-15.154707009541086,0.775335706766961,3.168154473291067,18.03366561978108,-4.048669104186297,-1.625128000936457,0.40415252938063084,0.388046407443701,21.892079598382352,-18.907761507820847,-1.006486012018787,19.200384425995544,-25.35610680395122,3.259937475016093,-3.605037360925655,9.040808709438977,1.8669550335401066,-3.086771720335475,1.1077047098771153,-0.28648799974040884,-0.3765542392101583,0.6921341756165185,0.18926285529664466,-0.27051530232327164,-0.461446472486389,-0.14815648662550163,0.012311962969317105,0.021582758127168547,0.019278974053352743,-0.18026777022414753,-0.019264980256662873,-0.10183478684262513
5.0922730301893635,11.65873215048356,-2.9558766347061542,0.817207339513662,-6.830560747390019,-0.24943887710759247,0.18723187363200947,19.752272095391998,-4.422759420770239,3.5625170796711556,-8.731341747389935,-0.20136652940422245,3.6614388441005636,18.91324852555092,-4.366880830506238,-2.9089736724248767,0.8283966865984218,0.12899649050534526,6.2816813711262585,16.335663918735207,-9.339486290859224,11.268792729334223,-23.474470750681668,15.755299223374282,0.7674287680025876,7.538557206235572,1.077116817210064,0.5731690558336323,-1.892787154136404,0.6367364589375116,0.5207954796529559,1.0366136496611313,0.8115580029848737,0.8294336844930921,-0.8638784923495997,0.2160651998653615,0.1325262369804547,0.14949192787765408,0.19454605299612163,0.20898452949560603,-0.07121123834195915,0.0343459539319978
3.3515872115981953,6.79074272624743,-2.1530794274478735,0.8018284410309333,-10.723248427929912,-1.3583700938338932,-6.294869268274717,-1.114907879702607,-0.2357417899426509,-2.0507091251110703,-16.678606877443418,-5.195205782842502,3.8566267566235335,19.430031148595294,-4.846270174878725,-4.629840506457192,1.6629466101609902,-0.3115391748957263,-10.649681038540695,-23.14328331598587,-8.629567022392386,19.293303269506975,-4.964835520791403,-6.964290390199582,-0.21493660368561288,1.625317199267568,-0.43113691555994976,-0.45169934178247817,0.48524776958188043,-0.1186337055254463,0.20426399028178588,-0.9562238521444829,-0.8122090193943934,0.7836815792871811,-1.4243552525036658,0.43067102649550654,0.09645777777090468,0.03952960387436792,-0.1390680376930706,0.10835904569792464,-0.3634274188053444,0.11985424616478012
3.000626645201309,9.686503550853624,-3.147864173675719,0.38713578978497326,-10.59560843863454,-1.7355322656361898,-4.587391697755215,7.706115164944228,-2.933837320565831,1.5224988676910074,-14.956645216322183,-0.18589981287190305,3.7607488467576693,20.315670843011343,-5.242290437301005,-6.967924883327599,3.3910606406639188,-0.9136147882922768,2.709829402498364,-10.991452979377124,-6.706322569237688,9.731913302274826,-22.863506080884104,9.74095573451188,-1.0946214696769423,4.705548708630455,1.9003655232805043,-5.324391200628475,-0.8330072384303013,0.9862585408487718,0.812574375895423,-0.0585071364497651,0.48354653617573484,-0.6064001115117664,-1.185406681759747,0.18011250573945353,0.144347607992604,-0.05135549717075893,0.07490190132879927,-0.08340430706094966,-0.06905058317588962,0.026930353460952072
2.3015433281363884,9.475837234097881,-3.4790352070157713,-5.021533660705168,-9.150980656751745,-2.8963254252980253,-4.292115946393968,11.11381937676923,-2.915575904976009,-6.020471042006581,-0.8659129332499249,-1.585318164310849,3.180472178263515,20.66248057863544,-5.6709227482615026,-9.16996428863357,5.040530663110382,-1.4831765801131807,-9.931728666962114,13.447709328036725,-8.594299072729372,-2.595956774781585,-11.445627148554598,12.48936344000791,3.2302186527393624,7.393686080659304,1.8626277961861082,4.060478663290477,-4.045003374338237,1.258648719085236,1.4604796354469292,1.1808983488352238,1.550023239368182,1.3845054594189472,-1.3218984606975528,0.7307298578120921,0.24085334543594872,0.32957833541010634,0.3273668074858961,0.1290469956094758,-0.10891294043803401,0.0905050225845157
-0.6871180431520572,7.1119521068011045,-3.2827951871855903,-8.60055256889658,-7.815900252717589,-3.8876939305820555,-9.027629772743442,-2.0334203093361554,-1.036166906931086,-9.816945684432632,-10.480510013628278,-5.86521179235139,2.453864073752484,21.1454461931778,-6.003442449735239,-11.36961810842276,6.5264525812456915,-2.130876421962874,-21.007918924126297,-16.75255668537697,-13.20882697936273,12.784129895093582,-10.640095733501852,-6.129704082244357,1.9433396392574258,0.9815992857820657,-0.8100660890117839,0.7005171688887744,1.813610657570075,-0.8339141572526697,0.29957323203609726,-0.8694292745680601,-0.4155737045584499,0.8033327452377556,-0.9737839259560732,0.40979844180463015,0.015135341187527782,-0.09746113358760321,-0.1223777810576352,0.07936769750572117,-0.25717304336924335,0.08215196333892988
-2.5000689343784988,12.799074476073834,-4.809854374421787,-14.213075933845088,-2.381774290456357,-3.9963995479936427,-10.080775787990554,10.242855317816655,-4.731740521536615,-21.168345584382298,9.178967100248139,-1.4028997941938066,1.5906638597676381,21.963314123201783,-6.503719931605541,-13.834170943676488,7.809379634824925,-2.889682367184165,-30.286818754325925,27.031447602428013,-9.959941000915144,-6.525934671724326,-18.303607510933027,11.330239491404908,3.7160625560660305,2.0511870221237842,0.6183067852140463,-3.1873184187434442,0.3387146127290931,0.24109768746515559,0.8949065454657278,-0.8769479233297452,0.8876074276899687,-0.23159200592750598,-1.0262699773971335,0.10885437135201936,0.06485659911387147,-0.031200292512299926,0.1742797607678927,-0.004540596735486954,-0.07092267214077477,0.0022282845165754904
-7.402701322529524,12.1048942915685,-4.9934525464759805,-24.611068837764883,3.367056659765749,-4.015294832808361,-18.64031571230315,8.990684938119784,-5.046022052248112,-48.77830552901249,20.619787193898404,-2.769328690096109,1.0803558898768084,23.246637646447372,-7.1360175646945985,-16.238455126268736,9.676747983341821,-3.2364672163235744,-66.33736225327075,39.58552183837742,-13.893779116794507,-14.604142009235343,-6.923558267215265,11.77593836746791,0.5304376787580516,5.993605029425517,2.0576496001958864,0.33877233553437225,-2.4577198601264314,0.9171814396714616,1.209620191777139,-0.24308294765586091,0.9177355207049211,0.4258886864296245,-2.024819055604292,0.7033810525719836,0.15728625662597182,0.09945506896283912,0.09678296879729989,0.04886046921480894,-0.354125811444113,0.14950934180131728
-12.089920468345,15.664946323200065,-5.188273713813365,-33.99829748844576,8.44729723569964,-3.5302452317553277,-28.204434555838493,14.459597572092765,-3.926475778524974,-70.20969834255168,32.45304863200552,-3.3955137397738855,0.7939136113983551,24.412684162321277,-7.365335650489127,-19.21763150714204,11.293639155340948,-3.06959142510033,-106.89029462720684,54.794332491911725,-11.024938238091156,8.81132815106269,-17.338384869490216,-2.702370573405503,0.12627482759785774,0.17524539838983072,-0.4479179181025464,0.2889580979976984,0.5218617138173101,0.01637413470428152,-0.02936744543061419,-0.6538068853668358,-0.4776360896129667,0.4870632298764942,-0.8191577608245094,0.4845170935076252,-0.014283412482341286,0.023075517339624103,-0.012277091111058151,-0.05636129298414557,-0.0584436152688648,0.029943817744675704
-12.361769713185886,16.329850893638618,-5.632469205761117,-39.10736527177288,12.084002705399689,-2.444366862017092,-22.60503342674742,11.842498004611317,-4.542284597940493,-75.82560998664464,47.308634697761754,1.2992612298372248,-0.38976085167696706,25.16732046904882,-7.594648884149715,-23.43576182877852,12.169792412359497,-2.52707938094764,-102.18701696271503,71.00260255564602,-3.601528193629215,-25.952890305082107,-32.40109324442697,12.591216807912113,1.754655714490537,1.6645342679171764,0.011448910725979575,-2.087346628933557,-0.6286566382328544,0.4649769854837889,0.16040006427322817,-0.41183907966859407,0.10070645357589389,-0.2377067324534426,-1.4581443438927906,0.43406458179522134,-0.044046467943577965,0.0018006481815801946,-0.05051373039209255,-0.08273698131150765,-0.16270469072158963,0.08958437013451297
-15.376919011136724,14.590555885523779,-5.498135358364116,-51.55591319321621,16.13752907499893,-0.97212113239221,-34.81352811774401,6.744654849068543,-4.0778035927751395,-98.68197664910743,52.331324863581415,2.7246421600938318,-0.6257116431038215,25.95569589126339,-7.82953571663026,-28.322284091015444,13.073537399149505,-1.7440127365952618,-136.96046218880159,71.04868310403782,-1.80284271911187,-18.340116138240084,-14.706233806199055,8.627867679070466,1.6586530252532004,2.9012567443191206,1.2584255415769032,0.25775456329688606,-0.5111624720898448,-0.19630426998649494,0.28537202930507466,0.08353128735260099,1.1880230001920087,0.29836403402032674,-1.5857071514898904,0.26702649258043165,0.004691256683007721,0.12112019581325445,0.2893804855676993,0.04445594743794279,-0.2556408449034694,0.024679480265275028
-16.688811110263153,16.351794068151907,-5.66587528488008,-60.738275028931696,19.408906083027627,0.747926777203629,-34.270161035757546,13.476433710727655,-4.868569617715522,-105.39415896293923,56.642561795705305,3.8950121719611506,-0.10146007145196399,26.413778949255683,-7.865933427524194,-33.1876726437346,14.298704210666058,-0.3552679422261109,-138.0199455566055,83.43856284870768,-2.4282097452250424,-10.238121001123037,-0.9139401107117202,5.385657428394991,4.653542594893499,1.086355390878762,0.9899978151453328,-1.4179293965195465,1.3231965235778274,0.06573217536851278,1.2472753473457994,-1.008222563706499,1.3636390969047532,0.20078412010458666,-0.4927644350585003,0.4310504984896815,0.24748982505087005,-0.1329806678139267,0.18371408518357613,0.024260587463987016,0.04005767376162195,0.07608843894020259
-15.306829367330181,17.00403285836432,-5.728503087103189,-72.34158621242229,20.692192201834875,2.5920118525413756,-30.465236575302512,18.757461696753673,-5.766828403050837,-133.605287010981,65.39424118557199,6.778712584879115,0.11171036551233066,27.12023999606233,-7.752235573015185,-39.138354670363285,16.76121211711065,1.1159971935088362,-170.01015183309028,102.00516319029273,-1.0333564711644883,-13.437087763254983,-19.7968971625601,4.35234452922062,0.19779024816440227,-0.7547789290033406,-0.2960235221950937,0.6194515349538606,-1.9743366174239256,0.6118064235553211,-0.025088398514224994,-1.3155787425645555,-0.28484189749077615,0.7203383117667795,-2.400936968994622,0.85746125071066,-0.042544983375520956,-0.1597917103224857,0.023930091401232867,0.04604394537985111,-0.28684272493058377,0.08800290552904559
-14.225225343678341,15.200100689005831,-5.320957037085345,-77.65001199445062,18.346838648744175,3.4356918824126823,-31.621874227107483,8.675827351057853,-2.9280159294624974,-138.0330827584083,59.328620187115014,4.889380001679637,0.22464870006112792,27.784970616241836,-7.695445454138483,-45.76108559939713,20.532867745734446,2.8506741942185765,-179.64072172101,80.63218988996313,3.173405578987083,-5.620349194579272,-6.654543148643443,3.406060593605803,3.0033774110509364,-0.6048350932951871,0.7733774491813432,-2.331896640721804,-2.049915433852893,1.0277801212709192,0.5026230847542663,-1.0593358169431006,1.0685537961655933,-0.44380617940637423,-1.7600763738313305,0.1363224977882739,0.0019754223687906904,-0.06142891966709855,0.0882891421644059,-0.1536234489589723,-0.18813983707006252,-0.01432165879580877
-13.348082730809402,17.69720859449372,-5.67213351454595,-82.15162036506031,18.38475180004032,4.289625166468462,-31.847321592543395,13.994702690187674,-5.265441218029418,-134.47392034098814,55.04142641486274,8.90626659069616,0.3052724122872949,27.98621618497207,-7.477531188569343,-52.389420947194296,25.01097257102857,3.8546018333440695,-173.945150869969,80.79990763313204,5.040172641748981,-15.312304668438866,-12.649453024648025,11.74642502259257,2.174427967759585,1.242290030166252,0.5680289290579563,1.599359201957788,1.1308984930091674,-0.48599444771321587,0.794302290620325,-1.1100507945568538,0.5387089152946919,0.8084526982835133,-1.259752435960614,0.8939479350308588,0.1353048688640863,-0.009806153926875682,0.1287439187368172,0.08593981127476193,-0.2223823584482119,0.1530998307669853
-10.2747262427828,15.10124955592307,-5.470258470439781,-86.61955703686343,12.40409636793354,3.008817247869689,-21.177242598611713,8.18744576652272,-5.702781451082717,-140.75290317402684,37.05139786460598,3.64918449975013,0.360804883000471,27.742375329109148,-7.18281046592581,-56.58132022609918,28.601862280245644,4.086656043699079,-169.75829844062588,56.51121622656639,-4.808709059424148,-22.642481291028265,-17.785577212725986,0.8179228368945289,3.993661672381737,-0.7915029293870641,0.23797863230176475,-0.693231934353569,2.055770663768245,-0.5301052964085065,0.7694065811634663,-1.8405670528205715,0.5377194711447533,0.2140214330435714,-0.7363288708976307,0.3100313123231095,0.14085558034993845,-0.2589565390333569,-0.08759858323422143,-0.03695373611846201,-0.06848702856623266,-0.004305277176777637
-10.614458060079565,15.960158335342612,-4.8157087727687555,-91.48224600481927,14.908506615716572,2.86041781905945,-30.09785967830313,12.994855774392196,-2.6512973426017776,-144.44097957458402,46.03532194426229,3.757633781981791,0.8162428524821257,27.185193969617828,-6.733776420470624,-58.33735497424834,30.52684157406543,4.176680270642574,-184.23698422541008,72.15093299179574,0.29341856696514057,2.029423300194863,-8.197539227527034,5.755393058696777,0.607056652629212,2.534358155648113,1.4118936881339366,-1.376618028866369,-3.2021769391879302,1.5947886037345753,0.18359519630695983,-1.266781483194827,1.0730652367976188,-0.01266334885619918,-1.4158348367141604,0.3178736152690131,-0.04578277515266873,-0.12875641400567142,0.30178966522227196,-0.0011099364661370922,-0.06461198407972323,0.05705851367409818
-9.400105321172083,16.184677066424314,-4.7524739223446435,-85.14481466488678,12.237386379450218,2.034835153837601,-26.530674638299445,9.706769507396745,-3.9952948453825563,-126.03863785525968,21.932174426621014,0.3469348535168718,0.8426782702547673,26.16175600338567,-6.226194779085653,-57.48740642590106,30.472207664934537,4.285642051276002,-156.0304648060535,35.42862282074071,-6.701605874471359,1.9396841945138923,-15.452331388595272,-0.33714117330493515,3.060889116320241,-3.073526428105946,0.4165858324568102,-1.524708360639826,1.145159885650931,-0.2203152559900337,0.5946944507905048,-1.6188581759384404,0.8602249029527547,-0.22360978462339304,-0.23521720187445053,-0.13860025698472594,0.06474579482674035,-0.12573349755305757,0.1644082417612444,-0.007399117390391072,0.07275172623843974,-0.0189844025840316
-8.281798783892143,15.273228932854437,-4.244533784535299,-72.04584182994809,9.244461641693906,1.1763015963237688,-20.443023976140932,7.766747323499954,-3.375700526297349,-98.91823279157855,17.148824091414472,1.515986324260998,0.20234587596782225,24.36366896431057,-5.535602742643231,-54.30448248698217,28.522147978880835,4.095173027716542,-105.75959472340494,32.35346057240851,-4.850409931185161,-18.904397370603792,-18.729797771210396,4.065750788480587,2.9141019789248084,-0.938895122026213,0.4038256846417952,-2.8103793964095454,0.5701114181963145,-0.05221100752288083,0.6449010294256843,-1.949333404602151,0.5086969670861713,-0.47413535347300106,-1.043240162545862,-0.23684324311416188,0.08885206775947067,-0.1541870650972413,0.02230583382552977,-0.10930265628902154,-0.041366714125704716,-0.0675510357659513
-8.543823639021527,13.723035638729758,-3.7603124753251826,-56.72754060906375,3.9342522858778963,-0.35005504356170636,-20.940016098280253,7.790022373387248,-3.0579083353725913,-74.86458254522994,5.040435814456513,-3.4458576466001203,-0.4304035169144258,22.442877846652973,-4.989255528436859,-49.276303950122355,26.336478928259393,3.924319740055673,-87.94725643334853,20.33056903963334,-10.369537168991991,-0.6883250006440554,-10.548061324028962,4.356304288484302,4.165351289836306,-2.1767958389706914,0.6047091796269345,-3.015802483530592,-1.8254620594190827,0.8402954261094032,0.940904023309516,-2.2262746308342356,0.9600595952375378,-0.3397750546448163,-2.045605189981621,-0.07370796992474626,0.15008976089183115,-0.15697077464830275,0.086715400457529,-0.0950398419813676,-0.257809813685874,-0.005636514273672046
-7.5245443813682575,13.652963006903262,-3.1985570899783595,-39.199762222602885,-3.3288126451014652,-1.9793134904028857,-16.307664077985567,13.820327844432624,-1.4886994781295673,-27.48946845609593,-14.780026508586241,-4.964882043810751,-0.9723996099594487,20.6837438356011,-4.420689691175805,-43.40333679647277,23.89145850586732,3.6936326448600836,-18.218942774611882,0.4593854567507787,-12.638066570038161,-8.734630860283197,-4.901108629963612,0.38509252543901157,1.7485650311632042,-0.8005686373864217,0.5040565957051492,-0.5089442874958592,4.016259723969178,-1.604857115377869,0.678283487497058,-2.781430788008283,0.3182578544307795,-0.07582876320488091,-0.10183189000653986,-0.07977165748301521,0.11942860675839485,-0.2922851746209419,0.07051834783674849,-0.025445364265631383,0.06336679730896876,-0.05065579847387364
-7.202962401731459,10.604527889051965,-2.741861358759566,-28.413458543365305,-3.1530998932406074,-1.0386553518667083,-17.75154192677939,0.6809524571094754,-2.9420839357118136,-20.9798782653147,-13.34818837647682,-1.1984493060859673,-0.6971332908950649,19.411554102226933,-3.75710471760944,-38.649717576195414,22.286622842716476,4.080283600866602,-18.06541985944084,-13.798173383673097,-5.5372889508246805,-9.426567268256607,-19.080062209146334,3.093873981780786,4.529275080022289,0.5356858900496431,0.9345811489699346,-4.3755764787640725,-0.7923603349058342,0.47307505367840774,0.9985182187865039,-2.638737206535483,0.8609242096259976,-0.4234691400213419,-2.504903419066695,-0.2854189503471118,0.16630528603768727,-0.17565369538111392,-0.03633018167754008,-0.13894278505406282,-0.31894793182488534,-0.08857130346076704
-6.922055795579318,11.15871437205061,-2.3272427220288026,-21.202972380373815,-2.57179713186819,-0.5731500566194756,-18.74507509137276,13.077053931894795,-1.492289053097753,-10.184857482605773,-9.590037127527633,-1.9001743979461378,-0.4337723342293241,17.27614914188988,-3.3508604062457112,-36.010443524061586,21.0836441812985,4.628769823380818,-15.013698832316688,12.632982401718648,-9.65651451121332,0.7974595830001354,-25.525610074138868,0.05896417116390007,2.624319441756885,-2.3310961275180886,0.23894120562978544,-2.633147060344491,2.9876715315411584,-1.2795616524820808,0.951208962274741,-2.810146015219809,0.3405578615244737,-0.47042156979329663,-1.386253138761009,-0.2621460138723988,0.20571913391757687,-0.29535370134422206,0.02974461716803654,-0.11497501934843216,-0.19092473746776156,-0.026444158182436527
-8.70735841492605,6.698129470935438,-1.8041701635875949,-20.52196359562249,-1.5548143718015262,0.43879582384779625,-18.88599358688604,6.618683117836649,-2.294112520934217,-7.009336687565449,-8.981553905757787,0.7058177947330045,-0.19735772178624475,16.431795277170828,-3.1106930444239675,-36.13395324821216,21.7794784277573,5.458115843295297,-6.059291673481043,2.4729946675122956,-5.692597088874643,9.34555126656494,0.21754488238867004,-3.9533007427253333,1.0782702866680451,-2.2813807769368473,-0.035883329985103504,-2.7499714564964837,2.6362396797363887,-0.43786032192406943,1.0287050983882648,-3.045320948697285,-0.11058639732800721,-0.18032871959085306,-0.8755474652315288,-0.07560864558483141,0.2485563327598221,-0.37912024784193143,0.0809812235263357,-0.07156446901209501,0.08414090511165193,-0.11854751294435797
-4.900432525281133,7.147465107174919,-1.6488717979962448,-23.364889228622953,1.5825451965627997,1.352219070726122,-13.539192167659127,6.710787400990496,-0.9744729609941696,-3.4302601010041514,-10.286943290129297,0.582911243689018,-0.25126104792670273,15.477933461319138,-2.761191024183177,-38.968458482580694,22.9989141994565,6.028735739366404,4.631103606660137,-3.021886124652404,-5.217671034392979,-14.53990135359241,-1.26309312832822,-0.9639475802078796,3.573290901474933,-2.0215924698115875,0.6409353570652154,-3.02722358803731,5.4467264791352905,-1.8225845358398618,0.9276939488208915,-2.916426610170313,0.8138236433063291,-0.4477651541649956,-0.7348952626197038,-0.47345907734526227,0.1803893142094982,-0.3543427670893757,0.15739259780051057,-0.06739337033213735,-0.20979401050614305,-0.013307237576038198
-4.87991,5.78659,-1.53536,-40.91313,9.83483,2.95712,-11.52767,6.61312,-2.13231,-43.74815,10.14857,2.63801,-0.06237,14.80987,-2.56158,-43.9101,25.16436,6.19171,-48.86086,24.16404,-2.51616,-9.46799,-21.05592,-6.30808,1.36298,-6.83813,-1.35351,-3.23244,0.1829,-0.24111,0.82336,-2.25422,-0.77048,-0.51686,-1.92261,-0.46714,0.1805,-0.15977,-0.23559,-0.11731,-0.26092,-0.0799
,,,,,,,,,,,,,,,,,,,,,,,,,,,,,,,,,,,,,,,,,
,,,,,,,,,,,,,,,,,,,,,,,,,,,,,,,,,,,,,,,,,
,,,,,,,,,,,,,,,,,,,,,,,,,,,,,,,,,,,,,,,,,
,,,,,,,,,,,,,,,,,,,,,,,,,,,,,,,,,,,,,,,,,
,,,,,,,,,,,,,,,,,,,,,,,,,,,,,,,,,,,,,,,,,
,,,,,,,,,,,,,,,,,,,,,,,,,,,,,,,,,,,,,,,,,
,,,,,,,,,,,,,,,,,,,,,,,,,,,,,,,,,,,,,,,,,
,,,,,,,,,,,,,,,,,,,,,,,,,,,,,,,,,,,,,,,,,
,,,,,,,,,,,,,,,,,,,,,,,,,,,,,,,,,,,,,,,,,
,,,,,,,,,,,,,,,,,,,,,,,,,,,,,,,,,,,,,,,,,
,,,,,,,,,,,,,,,,,,,,,,,,,,,,,,,,,,,,,,,,,
,,,,,,,,,,,,,,,,,,,,,,,,,,,,,,,,,,,,,,,,,
,,,,,,,,,,,,,,,,,,,,,,,,,,,,,,,,,,,,,,,,,
,,,,,,,,,,,,,,,,,,,,,,,,,,,,,,,,,,,,,,,,,
,,,,,,,,,,,,,,,,,,,,,,,,,,,,,,,,,,,,,,,,,
,,,,,,,,,,,,,,,,,,,,,,,,,,,,,,,,,,,,,,,,,
,,,,,,,,,,,,,,,,,,,,,,,,,,,,,,,,,,,,,,,,,
,,,,,,,,,,,,,,,,,,,,,,,,,,,,,,,,,,,,,,,,,
,,,,,,,,,,,,,,,,,,,,,,,,,,,,,,,,,,,,,,,,,
,,,,,,,,,,,,,,,,,,,,,,,,,,,,,,,,,,,,,,,,,
,,,,,,,,,,,,,,,,,,,,,,,,,,,,,,,,,,,,,,,,,
,,,,,,,,,,,,,,,,,,,,,,,,,,,,,,,,,,,,,,,,,
,,,,,,,,,,,,,,,,,,,,,,,,,,,,,,,,,,,,,,,,,
,,,,,,,,,,,,,,,,,,,,,,,,,,,,,,,,,,,,,,,,,
,,,,,,,,,,,,,,,,,,,,,,,,,,,,,,,,,,,,,,,,,
,,,,,,,,,,,,,,,,,,,,,,,,,,,,,,,,,,,,,,,,,
,,,,,,,,,,,,,,,,,,,,,,,,,,,,,,,,,,,,,,,,,
,,,,,,,,,,,,,,,,,,,,,,,,,,,,,,,,,,,,,,,,,
,,,,,,,,,,,,,,,,,,,,,,,,,,,,,,,,,,,,,,,,,
,,,,,,,,,,,,,,,,,,,,,,,,,,,,,,,,,,,,,,,,,
,,,,,,,,,,,,,,,,,,,,,,,,,,,,,,,,,,,,,,,,,
,,,,,,,,,,,,,,,,,,,,,,,,,,,,,,,,,,,,,,,,,
,,,,,,,,,,,,,,,,,,,,,,,,,,,,,,,,,,,,,,,,,
,,,,,,,,,,,,,,,,,,,,,,,,,,,,,,,,,,,,,,,,,
,,,,,,,,,,,,,,,,,,,,,,,,,,,,,,,,,,,,,,,,,
,,,,,,,,,,,,,,,,,,,,,,,,,,,,,,,,,,,,,,,,,
,,,,,,,,,,,,,,,,,,,,,,,,,,,,,,,,,,,,,,,,,
,,,,,,,,,,,,,,,,,,,,,,,,,,,,,,,,,,,,,,,,,
,,,,,,,,,,,,,,,,,,,,,,,,,,,,,,,,,,,,,,,,,
,,,,,,,,,,,,,,,,,,,,,,,,,,,,,,,,,,,,,,,,,
,,,,,,,,,,,,,,,,,,,,,,,,,,,,,,,,,,,,,,,,,
,,,,,,,,,,,,,,,,,,,,,,,,,,,,,,,,,,,,,,,,,
,,,,,,,,,,,,,,,,,,,,,,,,,,,,,,,,,,,,,,,,,
,,,,,,,,,,,,,,,,,,,,,,,,,,,,,,,,,,,,,,,,,
,,,,,,,,,,,,,,,,,,,,,,,,,,,,,,,,,,,,,,,,,
,,,,,,,,,,,,,,,,,,,,,,,,,,,,,,,,,,,,,,,,,
,,,,,,,,,,,,,,,,,,,,,,,,,,,,,,,,,,,,,,,,,
,,,,,,,,,,,,,,,,,,,,,,,,,,,,,,,,,,,,,,,,,
,,,,,,,,,,,,,,,,,,,,,,,,,,,,,,,,,,,,,,,,,
,,,,,,,,,,,,,,,,,,,,,,,,,,,,,,,,,,,,,,,,,
,,,,,,,,,,,,,,,,,,,,,,,,,,,,,,,,,,,,,,,,,
,,,,,,,,,,,,,,,,,,,,,,,,,,,,,,,,,,,,,,,,,
,,,,,,,,,,,,,,,,,,,,,,,,,,,,,,,,,,,,,,,,,
,,,,,,,,,,,,,,,,,,,,,,,,,,,,,,,,,,,,,,,,,
,,,,,,,,,,,,,,,,,,,,,,,,,,,,,,,,,,,,,,,,,
,,,,,,,,,,,,,,,,,,,,,,,,,,,,,,,,,,,,,,,,,
,,,,,,,,,,,,,,,,,,,,,,,,,,,,,,,,,,,,,,,,,
,,,,,,,,,,,,,,,,,,,,,,,,,,,,,,,,,,,,,,,,,
