PaulMeinheit/Bachelor_Muay_Thai/processed_Data/E_01/E_01_Teep/scaled/JointAngles.txt/scaled6.csv
L_MTP_ANGLE,L_MTP_ANGLE,L_MTP_ANGLE,R_MTP_ANGLE,R_MTP_ANGLE,R_MTP_ANGLE,L_ANKLE_ANGLE,L_ANKLE_ANGLE,L_ANKLE_ANGLE,R_ANKLE_ANGLE,R_ANKLE_ANGLE,R_ANKLE_ANGLE,L_KNEE_ANGLE,L_KNEE_ANGLE,L_KNEE_ANGLE,R_KNEE_ANGLE,R_KNEE_ANGLE,R_KNEE_ANGLE,L_HIP_ANGLE,L_HIP_ANGLE,L_HIP_ANGLE,R_HIP_ANGLE,R_HIP_ANGLE,R_HIP_ANGLE,L_SHOULDER_ANGLE,L_SHOULDER_ANGLE,L_SHOULDER_ANGLE,R_SHOULDER_ANGLE,R_SHOULDER_ANGLE,R_SHOULDER_ANGLE,L_ELBOW_ANGLE,L_ELBOW_ANGLE,L_ELBOW_ANGLE,R_ELBOW_ANGLE,R_ELBOW_ANGLE,R_ELBOW_ANGLE,L_WRIST_ANGLE,L_WRIST_ANGLE,L_WRIST_ANGLE,R_WRIST_ANGLE,R_WRIST_ANGLE,R_WRIST_ANGLE,NECK_ANGLE,NECK_ANGLE,NECK_ANGLE,NECK_ANGLE_SHADOW,NECK_ANGLE_SHADOW,NECK_ANGLE_SHADOW,Trunk_Joint_Angle,Trunk_Joint_Angle,Trunk_Joint_Angle
X,Y,Z,X,Y,Z,X,Y,Z,X,Y,Z,X,Y,Z,X,Y,Z,X,Y,Z,X,Y,Z,X,Y,Z,X,Y,Z,X,Y,Z,X,Y,Z,X,Y,Z,X,Y,Z,X,Y,Z,X,Y,Z,X,Y,Z
-7.335520000000001,0.0,0.0,-4.686860000000002,0.0,0.0,-6.099110000000001,-7.633070000000002,7.569730000000001,13.869720000000003,-0.15057,-22.678330000000003,-18.33888,-0.8387700000000001,0.00093,-18.03856,-3.3347700000000002,0.0004000000000000001,25.527899999999995,13.221200000000001,8.358160000000002,9.912140000000003,4.38498,-14.513180000000004,15.350010000000001,18.3914,-3.882700000000001,38.268530000000005,-11.785530000000001,30.251310000000007,127.62245000000003,0.0005700000000000001,-106.83827000000002,120.86077000000003,-0.0003300000000000001,105.17319000000002,-5.714860000000001,-11.95763,-0.008530000000000001,-3.9306600000000005,5.46436,-0.0021300000000000004,-7.744020000000002,-9.520030000000002,8.404560000000002,-30.879030000000004,-12.028510000000004,4.021050000000001,0.39028,-0.44615,6.841700000000002
-6.731241484286173,0.0,0.0,-3.8785218257665504,0.0,0.0,-5.648325659200471,-7.428788649865992,8.079727178546857,14.361040089785083,-0.4757878213260571,-22.929254291676916,-17.60667491618828,-0.4544659787744943,-1.0461896513107089e-05,-19.5279514573612,-3.389743678259847,-0.00154268564927056,24.88443343937501,12.578927850160515,8.631564071031121,10.492220724179296,4.058818098814493,-13.92103701155294,15.594018552086096,18.185335992539287,-4.002176023939587,38.91824769019156,-12.161898930660065,30.423610939453475,127.58382013928828,-0.0006917321495791399,-109.31372272154027,120.7191485708165,0.002330788471874941,107.43816898741792,-3.4029525444248647,-12.490882152159525,-0.0057470962340080735,-4.113361316103432,5.506004244112365,-0.0006827811005809364,-7.7281000347380795,-9.394525093408879,8.274968327648303,-30.856257710131175,-11.862870231696476,3.9512923931430715,0.612252373048289,-0.29255228696354046,6.505672890088942
-6.027557992591313,0.0,0.0,-2.8804159715938096,0.0,0.0,-5.02857784158999,-7.6249989604471144,8.553702154614834,14.87437701758868,-0.6527547125374397,-22.98958340611956,-17.372994123529626,-0.14573846518733477,-0.0018632035241424342,-20.994749878706205,-3.4075627981267282,-0.00011511498549422982,24.52875268061149,12.131566032991241,8.557244233119372,11.118905541362137,3.77942506275363,-13.464657820927776,16.078366099142833,18.064013039043246,-4.26107267928675,39.94985710811708,-12.610217365279238,31.035011622429977,127.50405474966257,0.0018603739356814317,-110.85375483282446,120.46834404971386,0.002590956012792799,109.43362991226199,-2.2413807216433046,-12.962848136746528,0.00025601357145121147,-4.695165191952578,5.699360830827662,0.001687013777438742,-7.863291427440995,-9.691068681655917,8.177641707442804,-31.018773228864518,-12.097833223266225,3.7419267004730066,0.932042960249739,0.1468667215139394,6.243564360501048
-4.770718178116187,0.0,0.0,-2.0491026999664177,0.0,0.0,-4.492827990630048,-8.061070305379893,8.628719781959424,15.471826563379583,-0.7048438074623163,-22.86608797974085,-17.82858595978089,0.026287904297517265,-0.0038620452426001294,-22.42384791697038,-3.5540627729078165,0.0010960975694922705,24.509654782837558,11.912053425871665,8.330431746461706,11.733592834754358,3.4884174876984493,-13.381921526934384,17.207893066144674,18.232684581291853,-4.763357027821691,41.579816567568855,-12.808446724999609,31.975556144459546,127.50448947339758,0.004964850469406847,-111.23203060926886,120.18583623457928,-0.0015274793140168568,109.27684997556233,-1.9149340282753957,-13.214343579858392,-0.0006783412557144631,-4.593364353036342,6.062127060066289,0.004181718579178999,-7.91012629097916,-9.996793067408888,8.355657792448055,-31.08712412158853,-12.447906238031441,3.7838624660232276,1.2162717754081402,0.555584196467713,6.0649070393613895
-4.066571695606162,0.0,0.0,-1.547896028079935,0.0,0.0,-4.1350759653496985,-8.441679864435278,8.322203788400493,15.977692352830687,-0.7730770755026654,-22.853960629395146,-19.333402040057237,-0.11815724545360015,-0.0018391339258278638,-23.648994677451764,-3.6914569112649827,0.0003414585369455359,24.901275753539814,11.963307145523594,8.022492593265564,12.12399245827324,3.119811388686632,-13.216482851500945,19.129176552587325,18.55983285202049,-5.636885274849084,43.624239193015754,-12.663475096111384,33.099961433199304,127.75093908862607,0.00013218742003564556,-110.08882653363897,119.94624837179387,-0.005153456474184604,106.81981190161767,-1.9674648252704645,-13.58939689053728,-0.0013752167402751806,-4.154041182113811,6.507322678914598,0.0026428999567820032,-7.841182585048704,-10.299546571495249,8.777656302750664,-31.033489781040984,-12.889749868568149,4.053085974615275,1.33709110357162,0.7426767325325745,5.980104159654152
-3.7070353565570406,0.0,0.0,-1.4253530631398084,0.0,0.0,-4.540853867419318,-8.414596001208622,7.512186229489248,16.255900176910153,-0.8667023732994728,-22.656075146240422,-22.313659357205534,-0.5721299883211233,0.0037737070556453953,-24.462408491880925,-3.7421981125986683,-0.0003578489763361728,26.03259012487256,12.359598140539937,7.91598431411534,12.190194832764337,2.6380304375702,-13.144796918560258,21.552419856278338,19.012963943323612,-6.838690203213191,45.858712963064065,-12.342134397189506,34.30408630423338,128.42919771790034,-0.010291370925737212,-107.01991272907156,119.57271523430323,-0.0011211698729572592,104.82259045356321,-2.960401512411722,-14.350608051289756,0.004760406978873944,-4.034766796298009,6.482561837516939,-0.0006333649657405941,-7.529341570903062,-10.826880273187587,9.250714250096053,-30.75677550590623,-13.557675481991943,4.278640847867204,1.25607141357781,0.8517922583785705,6.001074368000574
-3.5768065968842895,0.0,0.0,-1.9575618592298223,0.0,0.0,-6.6793297522532145,-8.440853769370069,5.95027023116228,16.558804188564213,-1.1088138729189447,-22.0779417635308,-26.9731900427566,-1.1110293669832516,0.009470500795159285,-24.91845104112023,-3.7082477823216853,-0.0005373302288218192,28.197738757308485,13.10901467923926,8.321305579935066,11.982795007613246,1.9577324437467267,-13.340465245723449,24.280201951162475,19.75849930457284,-8.074036271732323,48.24946134464549,-11.881710677916342,35.57455378696668,129.41059714425904,-0.006048413787624889,-103.50274153439764,118.97047947113914,0.007470537974240202,105.49866133528464,-4.937309404517433,-15.181819021501195,0.006589424503123688,-3.3408760882729487,6.075802038796684,-0.002400479224763622,-7.042055082579277,-11.464295807200216,9.598081610839916,-30.321402502574667,-14.277864411485016,4.341995048908806,1.0004800149280277,0.9537855316599041,6.135889031828745
-5.599437443757044,0.0,0.0,-3.0126176365224078,0.0,0.0,-10.835083624592215,-8.555092380253717,3.4631350405638193,17.048452483281274,-1.261678407706725,-21.585360917172277,-33.32212898777622,-1.5945535635236263,0.007195449291741289,-25.224026357302844,-3.6532243818505745,-0.0003685106633999523,31.528248892067566,14.117504204237123,8.769944396003405,11.638758815223945,1.1092171506754387,-13.32131343255092,27.539330769684778,20.687382041193647,-9.080238565942928,50.78937431700399,-11.378956301308536,36.91027438670067,130.4436625368884,0.001279175099522248,-100.81870100726246,118.29179519471833,0.00680466750230899,107.38679707619345,-6.678528119113898,-15.945569695393042,0.0013922169427471266,-1.8985094092945742,6.014964624401121,-0.00026169901040222764,-6.787658646186961,-11.992184009942596,9.962949758978917,-30.110113711892243,-14.904012747790407,4.4652628993740775,0.6116329071450062,0.9190982073611332,6.4903869341703455
-9.175778386728167,0.0,0.0,-3.777676836778262,0.0,0.0,-15.901682813092176,-7.6663362471445895,-0.11189488650884877,17.367621586931048,-1.0730119076014768,-21.286012130294633,-41.25203799536437,-1.8111295262361067,-0.009694135461398162,-25.60061127814338,-3.6938703287677894,0.0005805987254328188,35.9483313206502,15.06274813544939,8.901211156227513,11.391461863597016,0.032381136138857076,-13.016267455448288,31.597719621777074,21.69150698725721,-9.982029684358618,53.36956389242446,-11.052315515233484,38.171550751113685,131.38564596678097,-0.00042205927756212174,-98.34248573801356,117.942743609004,-0.0013288390158174633,109.14557523010056,-7.199473234252817,-16.604048968769256,-0.0037997905328159276,-1.233589721800531,6.581661842410671,-0.004421137415256325,-6.870141652213816,-12.207774447036488,10.23612691571657,-30.206846315201037,-15.207757988854727,4.630843371304721,0.1027504554590914,0.5546655043887715,7.135058517966169
-9.89586323069457,0.0,0.0,-3.7002773635664004,0.0,0.0,-19.368813020600445,-6.0537906830077945,-3.464970394571047,17.51062016359585,-0.5919065494831902,-20.755739965085013,-50.400347843362674,-1.7958259080862387,-0.012285297779689251,-26.386401974486372,-3.7975727811324638,0.002321261047900298,40.980889316025795,15.716360232011032,8.897828837179459,11.41466221032861,-1.5607964112111614,-12.810378812726677,36.01868918960876,22.855320317072188,-11.150615421510611,55.781984544068884,-10.848627164952697,39.14262888381216,132.3122763595593,-0.001855604558648687,-96.12040495731284,118.0248415855367,-0.00417742125053931,110.04635875829707,-6.74917599197735,-16.96669606921939,-0.0010982101834456765,-1.1943807925238796,7.66166783031505,0.006121853170601994,-6.99397960361245,-12.077261561530939,9.978400794124248,-30.32494635426627,-14.988116246543223,4.444766989461284,-0.48584552588868474,-0.24023324849004657,7.8329162663189695
-5.744712558537603,0.0,0.0,-2.512957714471626,0.0,0.0,-19.824218731607292,-4.996835869060111,-4.706825705201624,17.799056631169854,0.16642233495940262,-19.88057996586887,-60.07526511948561,-1.8340014147524333,0.00925051073283621,-27.70614435711355,-3.837660032836554,0.0015595421348941873,45.96386615052359,16.059205675255967,8.788847513843098,11.343598636300346,-3.7899873153166923,-13.205914665801092,40.20978117250354,23.919832516235342,-12.723673145181568,57.83825818502268,-10.836022521072552,39.48100055606499,133.0943908975161,-7.74023329633954e-05,-94.4156913708906,118.30849319920112,-0.00012609649742660123,110.08265813503779,-6.503587637808622,-17.407444048892195,0.0034701040198817225,-0.09604950969687459,9.35747696967037,0.019457843252947842,-6.880749702274409,-11.888122392497884,9.320886457476162,-30.21120341482048,-14.559721909321032,3.9114401968447936,-1.2967269699000192,-1.2987685368411594,8.173704661157792
-1.2505750545705492,0.0,0.0,-1.0397693319018566,0.0,0.0,-17.62674322564049,-4.740315824233516,-3.4664438076819386,18.33116657697703,0.9409817120043473,-19.536926510358388,-69.46877363823774,-2.02462103961405,0.024897488822923683,-29.20436910117205,-3.5073238801186197,-0.003097684513148586,50.73210619681964,16.017914158892783,8.421132307850602,10.783065117759493,-6.470317076485275,-13.745533852549208,43.825631908129736,24.70143198782235,-14.227708968882936,59.488801755916874,-11.18771674557859,39.39797293179232,133.56114125450918,0.0027034996892309595,-93.32559461366242,118.63438220525799,0.005171102173531411,107.91557178354851,-6.6332403104336395,-18.270580303748563,0.0028084535461876297,0.3057235136309282,10.995872958264565,0.00308231467104286,-6.767800106487346,-11.848542612193167,8.926523432493306,-30.10451952708179,-14.370510006701204,3.5616553777077873,-2.306418495642148,-2.363704990036259,7.883180662135248
1.0914748612617615,0.0,0.0,-0.15102998279194432,0.0,0.0,-13.913406563019215,-5.142232415523271,-0.7129141075431029,18.923151603567774,1.0128334682540057,-20.240892868415006,-78.02791792440469,-2.032472574331213,0.005399946184790295,-30.468849094205616,-2.724394837422241,-0.0033624280579960418,55.497047199432764,15.83146595733248,8.169016354315776,9.909991696989277,-9.19555941954937,-13.346440416986221,46.828795596817415,25.528130097588804,-15.310469905561835,60.86529803801304,-11.581242624187706,39.38673521676477,133.7432317456931,0.0049335598265039735,-92.9042077279571,118.76509644399853,0.0015140741164545218,103.91816693850504,-6.483749960729014,-18.528142902096835,0.0020809150855845156,-1.052898030840782,11.340082837373641,0.0031840412594507385,-6.851116577728994,-12.072503999455499,8.96510451263702,-30.20979911558887,-14.591089124629868,3.50577581511186,-3.307755198396926,-3.410594211347994,7.228431997682983
1.9478899118101338,0.0,0.0,0.2772410591857354,0.0,0.0,-9.197671940884169,-5.602904428908917,2.7554142818285614,19.5576170240452,0.8958873086100909,-21.263283976094506,-85.41646096277452,-1.3729583175417457,-0.023728922430310804,-31.489202095442753,-2.0842034252836026,0.0009276247932921406,60.082287719817906,16.12264635004914,8.640861197252562,8.793441429118356,-11.587573189964356,-12.24282794333665,49.48353050269773,26.435162775591547,-16.42089963252346,62.178209995395214,-11.718310125075291,39.613608813810124,133.7236434743325,0.003913108977972776,-91.02620277347901,118.53830530897719,0.006002994193463039,102.96701642601737,-6.216836839788535,-18.361439457554415,0.0024770038698497944,-2.2202753844348613,11.011090385441566,0.002064772042489688,-6.896058251045556,-12.527736650801934,8.846233201837414,-30.305200962937413,-14.96284382196663,3.208667897682182,-4.60168320356717,-4.481570964256871,6.83558272930442
2.014600524507914,0.0,0.0,0.31458804607175195,0.0,0.0,-3.829744865072243,-5.300182688013976,6.502142238148606,20.49626143702491,1.3415676139927113,-22.037438598054564,-91.40043500915401,-0.20229683268727003,-0.018828396810906162,-32.620354560795,-1.905528645579079,0.0018825133962987193,64.34307578476248,17.37930904554366,9.747425855760005,7.4818040154849434,-13.639781645314697,-11.146982965831459,51.72781201256467,27.31639984176106,-17.87671399406352,63.47376002755197,-11.79114273927101,40.08164168868537,133.82450565938726,-0.012000216539870141,-85.31529676468439,118.2460146931558,0.002941446239509736,106.21959235952602,-6.735468088166346,-18.307788821156002,-0.004253047391728153,-2.241175462546409,11.072137923030045,-0.0007535693061913239,-6.715065886503629,-12.869652267463932,8.465110429563909,-30.16867749495108,-15.128714157203326,2.714625382109931,-6.373590109902401,-5.505674571436429,6.860455229592481
2.5167002366603985,0.0,0.0,0.05180733504037251,0.0,0.0,0.9733992565014715,-4.155941730330837,9.458298506598187,21.596496262692515,1.5075780991734757,-22.768887290340878,-95.66597490502024,0.945774072938414,-0.0014329418182290376,-33.95961527097289,-1.7811583400722015,-0.001586685196724268,68.39920508311508,19.499785424506253,11.051035339534234,6.215205860904637,-15.70782689585715,-9.958386978080513,53.343554136396016,28.224326693694334,-19.352985318309525,64.69775804542516,-12.178757340869657,40.479732199557205,134.20983047945634,-0.01054851660127735,-78.95187333796919,118.51335176719452,-0.004592140131393416,109.05822902400227,-7.938235360038439,-17.444722797942756,-0.012262691696932903,-1.8684375881454391,11.368261338586256,-0.0019363753704768956,-6.298240769148051,-13.146070851247053,8.20816059190359,-29.786352828773563,-15.282540337023558,2.362569761781127,-8.29647657665343,-6.639225199773072,7.000462797553718
3.6529219965121693,0.0,0.0,-0.16132742058564045,0.0,0.0,4.56135579390284,-2.6816915770924683,11.07376956507264,22.520641328964793,1.0936974940942839,-23.44530121275132,-97.87448491796404,2.2063550918419796,0.006133642042310785,-35.22143848325598,-1.5862335058092512,-0.0004756638428162589,72.1423614359222,21.91789884237609,12.41765134635599,4.776709041888205,-17.95360813592046,-8.862546160346602,54.740918432406595,29.02550907664412,-20.66122458093634,65.9237239726638,-13.092524913109012,40.445437420634676,134.40461464465602,0.003261045230755905,-77.33752872933958,119.51539343469125,0.013024618978986453,108.18082902160619,-8.084171204379361,-16.14195663823967,-0.0019036000188767852,-1.7920849101932945,12.067914422144295,-0.0014441584138664416,-5.766346192884214,-13.56233019931903,8.109132339506834,-29.301927081152403,-15.625820335141647,2.098617601367938,-10.395842682834855,-7.966227312631614,7.076316393610575
4.0096,0.0,0.0,-0.002170000000000019,0.0,0.0,7.373649999999999,-1.6171699999999998,11.712639999999999,23.37323,1.1456000000000002,-23.531789999999997,-97.94995,3.81631,0.0129,-36.36024999999999,-1.7288799999999998,0.00396,75.56775000000002,24.346779999999995,13.622469999999998,2.98326,-20.18391,-8.57684,56.37874000000001,29.640819999999998,-22.121370000000002,67.16297,-14.206099999999998,40.09119,133.99687,-0.010789999999999998,-80.01378000000001,120.78414000000001,0.019440000000000002,105.05163999999999,-6.814399999999999,-15.494150000000001,-0.0013899999999999997,-1.6534399999999998,13.240059999999998,0.00201,-5.45147,-13.797779999999998,7.98531,-29.01525,-15.793579999999999,1.8863200000000002,-12.711479999999998,-9.233959999999998,7.0076
5.252908747752371,0.0,0.0,0.689471953134686,0.0,0.0,9.008805903892092,-1.5968851818777092,11.396840119122624,24.323149082039794,1.6412741530664083,-23.228506045456207,-96.0484229261384,4.869928150614174,-0.003935867950780867,-37.6867147131617,-1.893364145750031,0.000748586043031243,78.90307316378593,26.741335809653002,13.873143754858189,1.280334182319861,-22.539306524256123,-8.635419187572246,58.06200526872524,30.03377922051546,-23.737854744067896,68.33258459313177,-15.285672092310612,39.94161055834107,133.24302466704611,-0.015441148874398338,-84.02453435077254,121.8875054229093,0.003970169058663383,102.05192128412071,-5.2254954707052415,-15.267668296286946,-0.004354274830592953,-1.4078865758230235,14.21930777515553,0.0016548926534924154,-5.478014933052105,-13.69661343128381,7.428334525379107,-29.036943303315066,-15.484584170535506,1.4133330205451033,-14.766359626855401,-10.424388840661486,6.723341828996213
9.745929433667545,0.0,0.0,1.7168837434035835,0.0,0.0,9.019490564614856,-2.229069094095214,10.151049694919422,25.366043938333608,2.1538417338571447,-23.238716594764362,-92.25797323422229,4.543913624451614,0.0003288788230441414,-39.252725403946116,-1.488596687911242,-0.006530908727253123,82.08406519339596,28.69237063237646,12.812031562622032,-0.03817921620796878,-25.28780763051863,-8.263564836271744,59.44112769708427,30.16749599143359,-25.03018911116454,69.46523226296935,-16.448290577656646,40.22047601265157,132.71999874244017,-0.00015982121987644012,-86.0698346436521,122.66032047583988,-0.006240559517349265,100.6329988424116,-4.649528429281944,-14.90283116050669,-0.004174862052457636,-1.6616510987814375,14.65394369500183,-0.001504045848927073,-5.322672417864877,-13.5788543221728,6.645674117477392,-28.874664864639456,-15.072675904316114,0.7393581733912991,-16.267830356252414,-11.679665037420682,6.074431372282995
15.327902929143345,0.0,0.0,2.5537176072051637,0.0,0.0,8.405975488189922,-2.6898532615045636,8.910484448054094,26.24533372615057,2.4817868688497438,-23.501322699130213,-86.67637700348062,4.3841250985137545,0.08284760439772185,-40.63546744233039,-0.7557686751419039,-0.0046855679043318,84.53894437707405,29.912652498718757,12.255080953101803,-1.4625888253394477,-28.08838332976927,-7.9330551460312595,60.51655882276466,30.21033679235832,-25.832987818546048,70.64244043536972,-17.64157330264249,40.81459705407288,132.6454176762923,-0.00012547725985141686,-85.06388185184821,123.01477849802315,-0.003784658308097042,100.3476656016944,-4.477824974815742,-14.960380990166623,-0.0038528798566127807,-2.5114917751265686,14.976307258247468,-0.004074443114360036,-4.893615249497629,-13.66283454892854,6.143215287716515,-28.456336159504346,-14.954492871255468,0.24116247588967088,-17.51959551379617,-12.795000568188314,5.017516193094401
18.707914024600633,0.0,0.0,2.960237082699304,0.0,0.0,8.123660824888903,-3.3231802649220756,8.39035281827263,26.874881945996844,2.8161559224192296,-23.579263914937176,-79.83781061204301,4.21957785425401,0.030336294344299776,-41.53124861921459,-0.5407402629004018,0.0017796118920786958,85.60397391786934,31.31942924198524,12.054005198948992,-3.2781276702788498,-30.35959680976544,-7.969090470425636,61.06109096603874,30.484351468535742,-26.264310918226805,72.00403937533834,-18.692679884013238,41.89001273127726,132.91531123226792,0.0012395552781172107,-84.41161527832206,122.92110355465203,0.0007825632281270292,100.6546965416678,-3.8786425913944447,-15.886423373962357,-0.003938287385811001,-3.457910025604424,15.185258049870214,0.0006641396444206043,-4.837423134540218,-13.829693695387721,5.885542138464468,-28.41816000573859,-15.007330567905708,-0.06539274658847352,-18.772931715213335,-13.646264814578698,4.210126708399783
20.939755272855574,0.0,0.0,3.2115301734910155,0.0,0.0,7.144325504449883,-4.767679020699299,8.749956366224321,27.49772281610838,3.3693650431491324,-23.646878042091615,-72.33228668297915,1.2868221044361885,-0.12848040950476755,-42.037359809804016,-1.1406773515907809,0.003179981003919142,85.30466436594267,33.62543003958256,9.41782358759692,-5.0741397873566205,-31.992557060508958,-7.900121390786557,60.84944746473133,31.027593802607335,-26.492253032480463,73.60146628102979,-19.77351048411247,43.50085028769444,133.45928671443255,0.011179429452376767,-86.34243206799813,122.61891529759224,-0.00011825950642633886,100.96072533222726,-3.276353245446146,-17.12841307099061,-0.007792668011349868,-4.666991355570593,14.759206214361646,0.009142294504752504,-5.3002832992495,-13.967390212569759,5.592957483898731,-28.895322615368865,-15.019873338173355,-0.3919291452221516,-19.750328104474555,-14.46903316972712,4.0470539223704876
20.72441556542276,0.0,0.0,3.1952926290427834,0.0,0.0,4.376152800034549,-6.27462723128101,9.42150231403652,28.129839658282577,3.532475097257857,-23.91009301227595,-64.48979620956926,-2.9827112986548707,-0.08898288273713047,-42.26600831960482,-1.8714220325936182,0.0012786761367199412,84.08373068793674,36.45505498994576,5.870154816990922,-6.650140165011065,-33.37146808797768,-7.42286897960179,60.255922876793804,31.50785306701342,-26.736001634226824,75.31389293181157,-21.32042067963168,45.478810683062704,133.9399890003291,0.007406178261450264,-89.89757051843685,122.60348145370223,-0.0033594189575143884,101.00596357781394,-2.3342615477779667,-18.32858745006008,-0.012478081012032544,-6.215375270879263,14.345203155584084,0.0036944784044644257,-5.925334485447934,-14.116185732359325,5.2120471032659434,-29.53476404549914,-15.00827042291154,-0.804198326663189,-20.15954173458418,-15.31732294313872,4.325117874002894
15.62681970783051,0.0,0.0,3.08705770121921,0.0,0.0,-0.6861710828027789,-6.495668765513859,9.255912293901684,28.574194831590454,3.3314667042547765,-24.004324946398633,-56.62142338341652,-5.567568739105001,0.031610086031593244,-42.125867480876614,-2.1652151440963174,-0.0006807286173951425,81.77419763357634,39.15635211519932,4.684102155436597,-8.493176197807957,-34.95632651753113,-6.937631721069727,59.425652416983084,31.757238967043648,-26.963897826187218,77.18782222723631,-23.48294238137772,47.85399579851583,134.0733764497664,0.0002309143973983396,-91.214400009916,122.92943370883579,-0.002335118299964285,100.85127266603746,-1.4640840784011606,-18.36934877731116,-0.00835736807352364,-6.91708767824455,14.910593497633478,0.0005125745694758877,-6.6657110781096485,-14.381834495210027,4.830787626406803,-30.301009730892943,-15.10358252774705,-1.2650261177549664,-20.171222199117572,-15.991893834675134,4.972166033494039
7.327409904844238,0.0,0.0,2.9901091793755454,0.0,0.0,-7.636275270816414,-6.139732655236284,7.828513490808911,28.814096352817888,3.897478710073508,-23.276866470910488,-48.89337128186402,-6.707033644862387,0.030452862629552328,-41.5509971443202,-2.6100040507033313,-0.003977941721742509,78.09860752589755,41.46299763152708,5.494770418432354,-10.748736867898158,-36.780688106940495,-7.59449641110049,58.376821780693604,31.84307893277786,-27.09682181583659,79.493370775865,-25.9852089900313,50.71514465680815,134.04521822709316,-0.001050995239478144,-88.20823992421569,123.36273297439931,0.005699126653705772,99.01032720656002,-1.687923418830877,-17.429073114643984,-0.011953739259548707,-6.854679306031876,15.657514350295688,0.0018691132352465,-7.5856394971503125,-14.782013106904417,4.544434861526688,-31.26167008361099,-15.358941121932622,-1.6945169515204654,-19.931434353995208,-16.408234062902157,5.9233978661554865
-0.5282116780990125,0.0,0.0,2.7700489928139334,0.0,0.0,-14.342284980509714,-6.526385374972338,6.152625537778414,28.942001256499154,5.25599874801817,-22.051720456320428,-41.3058550072262,-7.571568933852249,-0.018203541117950493,-40.683674169185,-3.142404408307301,-0.0013733980263471608,73.46635230605847,43.30906377410557,6.1383766019640555,-12.787367037311741,-38.53998623615032,-8.963258361540055,57.16353953855978,31.863909407933537,-26.86018986999487,82.31154828081351,-28.275094008847564,54.327669838658835,134.15646372855508,-0.003916053658118654,-84.09770153029785,123.75532645959434,0.00690773030393867,94.80826477345715,-1.7118547315690176,-17.05852726263096,-0.006666796449195949,-7.3716844990264505,15.515171313272946,0.0052259922123646186,-8.385927875778727,-15.250125361291424,4.533389124660201,-32.11426965997863,-15.783282319750041,-1.9000060503763654,-19.11205727369652,-16.405324004300063,6.9381762243208716
-5.257183218464299,0.0,0.0,2.9263767039265876,0.0,0.0,-17.92728616537896,-6.6384361338131095,5.322112870335309,28.836797862192057,6.369851502325463,-21.02050541857957,-34.20745841405518,-7.874718472285343,0.0091292162374546,-39.613052453148306,-2.9955912828594045,0.004320114175508525,68.24135653061605,44.70638270369043,6.113690720947146,-14.09366747669037,-40.22716922085148,-9.419946866143787,55.85316431773168,31.96237763449052,-26.217162236574797,85.72813244978846,-30.237838983915687,58.86187776086091,134.5140756919944,0.0033733661629763534,-83.14356539573028,123.94550264205643,-0.0010083717112673173,90.69199763794646,-0.9208677456042451,-16.68476720522508,0.00544871300822901,-8.535874665064593,14.924500874682781,0.0038387081998335635,-9.281449093967195,-15.776075851114024,4.782932006645872,-33.074169889903615,-16.361530223374093,-1.8915174641665646,-17.43736139428701,-15.896240530709445,8.332195673914839
-7.492518422727481,0.0,0.0,3.3686211949190623,0.0,0.0,-18.001624774067793,-6.202280711708567,4.74218961575463,28.38064685025093,7.145702480284607,-20.12411009902097,-28.181902254220393,-6.90940991839487,0.03959886007654568,-38.294147233877595,-2.648148622175048,0.0028423532171325244,62.88172857882492,45.690973741106944,6.095253401538526,-14.755690728345416,-41.61152357611045,-9.233058212038443,54.914351797326724,32.23551924987493,-25.872039744319544,89.66384193375798,-32.163396051450384,63.92466482397703,134.861560169112,0.0041200086098792665,-86.34848709943046,123.94300662742083,-0.0029723856349988297,88.43873988215869,-0.05965741609095998,-15.300481272358013,0.007134975071017928,-9.031406224206858,14.744139754395368,0.00011169487558823423,-10.746161238054311,-16.1353208731456,5.037598159972,-34.58538441299487,-16.789052917187803,-1.809161521995654,-15.022832930619382,-14.78348267127139,10.502146070219517
-7.537846521266544,0.0,0.0,3.697927191465781,0.0,0.0,-17.205620455909294,-6.213300774994288,3.640123352189156,27.708437854272542,7.734481266972981,-19.590788593236546,-22.938323424335067,-5.710540245142328,0.008445025604170948,-36.869362709797024,-2.7347086175824744,-0.004083814312758509,58.31788949899396,46.49471605913867,5.881376857711246,-14.908309289558176,-41.87051644768625,-9.022208417115888,54.418015252434564,32.88689720049532,-26.015553387974617,93.5702616222674,-33.84456652260934,68.94741144136255,135.09881308255174,-0.0033305469879450975,-89.5634066514771,123.89880488367956,-0.0014669194392209661,87.79413591107144,0.05759060666665449,-14.031067933371844,-0.000800035011768539,-8.423438955055339,15.18005931565469,-0.0005774545964904006,-12.241365651883617,-16.10858403741861,5.258156635694842,-36.079986485879445,-16.850233164092852,-1.5953971666457267,-12.072853510500844,-12.803438973780603,12.863000186142319
-4.644086477054839,0.0,0.0,3.6493159204114063,0.0,0.0,-17.74868174185739,-5.9974303771156565,2.6462692678427935,27.11522400030447,7.843140172677313,-19.725252821955277,-17.280323894709074,-5.3074687537900225,-0.02735277737371032,-35.544913272404436,-3.2143749848638783,-0.0035269246509969936,54.55129254306463,47.14855419567435,6.258883692389138,-14.940111797256355,-40.81128760072245,-8.949150376636894,53.85922563433173,34.06931195356409,-26.075887157987594,97.04297690826427,-35.09713142093588,73.58558528013045,135.44304922671483,-0.0033006683043877373,-90.52299594971862,123.93574876997153,-0.0014220691753723607,88.53775769854781,-0.23876875526609934,-13.997012391033556,-0.0013045018924198392,-7.849486879437663,15.28535639176898,-0.0023856749156671757,-12.920843073838883,-15.76326433994031,5.266563792356609,-36.71773931259183,-16.53758873332508,-1.4420906600718715,-9.128634900796795,-10.19544447667528,14.402915170119947
-6.329346386780885,0.0,0.0,3.9611753621833317,0.0,0.0,-20.019824805393096,-6.433097470752881,4.644476770321198,26.641145468758374,7.341551485701516,-20.784288327858597,-10.82578966433714,-5.281713879853914,-0.009645715678179135,-34.54000347485222,-3.4028303570008527,0.0005284492775535681,51.004867684952146,47.36806895277806,7.345106401147019,-14.791610172514014,-39.21736139337692,-8.071983376574668,53.18123846647178,35.27763185844852,-25.972629736631834,99.98530416100915,-35.93824068905363,77.65517135377887,135.79688939578585,0.0012945929842990865,-92.57821596587391,124.01849169545046,-9.677818945188251e-05,89.06844606730681,0.2269242381032681,-14.475736903039179,-9.60632070039815e-05,-8.332350551392462,13.634091894341283,0.01691651329661406,-12.849526031799904,-15.49993985939109,4.992533798356783,-36.612315767858526,-16.19021388405258,-1.5831094549297926,-6.52849331994736,-7.640035016449021,14.976116658491051
-16.028792081763118,0.0,0.0,4.896431402251103,0.0,0.0,-22.26231759560431,-7.914658913919047,8.300727201240667,26.27551577552196,6.7272281518329935,-22.281881809259243,-5.136946486266589,-4.759270119156741,0.016826178622280915,-33.89669928159286,-3.3076519585403297,0.0012041612292911885,47.96837078745938,47.086465340261356,7.956036026330486,-14.556717532752257,-37.4451822262145,-6.544047789739685,52.694099664910716,36.28833674428426,-25.8915275752295,101.737457445686,-36.33552309341246,80.44424858245262,135.88472889716982,-0.004120100068098552,-96.40099894345224,124.24037359254999,0.0035819088891158235,88.20667967571573,1.7063385890479257,-14.31325300102961,0.005822995394692857,-9.83731542769884,11.48788515652551,0.017609215710290577,-12.718241822140325,-15.405131959533255,4.603670329721027,-36.465247640315155,-15.952454349245961,-1.9003693271502662,-4.423472247496988,-5.435800652941293,14.904284572557831
-25.12059080976814,0.0,0.0,5.8343277865579655,0.0,0.0,-21.98980577536963,-8.736226853263508,8.265446592517623,26.05159766044782,5.9430499998986885,-23.506014210633847,-1.7541116230874685,-4.261495891458235,0.005801479131171148,-33.53442245921763,-2.9822760503438426,0.00044356464823798214,45.90619571906137,46.98157100311759,7.883331529449713,-14.627630431679906,-35.36469061899499,-4.8665125477793145,52.83860180448499,37.05508441597259,-26.25610564828307,101.85905151474878,-36.69677760792828,81.3409368149709,135.57306814629294,0.0012126378116894972,-97.94284818439215,124.65059123083239,0.0024813423322326907,87.00954895329144,2.928144827711543,-13.677689510156599,0.001626955311532813,-10.588820857303135,10.972867631154509,0.005663859188088852,-13.072834473685383,-15.401663838352677,4.0648821028895705,-36.81129069139791,-15.74014529908725,-2.393176886373468,-3.0341919159508586,-3.443827506270413,14.586311369532714
-26.713179999999998,0.0,0.0,5.941800000000001,0.0,0.0,-19.1496,-9.42066,4.10843,26.028900000000004,4.964310000000001,-23.95817,-1.2461799999999998,-4.495720000000001,0.00678,-33.47034,-2.63194,-0.00038,44.96009,47.361180000000004,7.008479999999998,-14.61048,-33.22194,-3.4920999999999993,53.971709999999995,37.22389,-27.34848,101.28855999999998,-37.434110000000004,80.89778,134.93362000000002,0.014589999999999999,-95.81685000000002,124.90501999999998,-0.0012299999999999998,87.05369999999999,2.9800100000000005,-13.280200000000002,-0.0016700000000000003,-9.54106,11.98276,0.013930000000000001,-13.68812,-15.392580000000002,3.3489300000000006,-37.411860000000004,-15.454029999999998,-3.045430000000001,-2.31088,-1.67609,14.554789999999999
-24.272897538203868,0.0,0.0,5.05003393846957,0.0,0.0,-16.742116557283826,-10.047666215731992,0.15432864183663197,26.215770196599717,4.032840271879234,-23.811914184463557,-3.842106763803162,-4.740982238922876,-0.007608743387586126,-33.70249472805064,-2.658218254365892,0.00025821932467771447,44.96304721583144,47.25597885858837,4.826348064460916,-14.206989746191772,-31.42100773337078,-2.9972649777105973,55.56757843462585,36.87877462305156,-28.512896014419816,101.10541589396003,-38.33092173360384,79.91593429111822,134.4002865000862,0.00603645527778305,-92.4254082639469,124.75377049301386,-0.0031414548000208526,87.21894233188081,2.3147630052003567,-13.89089512595246,0.0038671968025494685,-8.069231434297347,12.844423106614643,0.0050798775875835695,-13.895877570705997,-15.155211886508246,2.659617901498055,-37.577652687406705,-14.969377124220188,-3.577518244670788,-2.235321673349573,-0.4499648673813217,14.770684541414742
-25.977575202459466,0.0,0.0,4.030155247899663,0.0,0.0,-17.034657297721296,-8.400011987449203,-0.44453920448537076,26.46904324326761,3.4010437708313943,-23.429558414179233,-9.109776142566329,-4.235767577266946,-0.04564108690862408,-34.074489894037285,-2.9603980342067127,0.0003951199886527446,45.21140026826948,45.84835477038835,2.88891777098253,-13.875777177237381,-30.21636293633346,-3.412812311706912,56.72615282159966,36.49547781872697,-28.942757557472845,101.04182615428874,-38.77240877857887,78.68131872713703,134.18069599566465,-0.005996503044985274,-92.65012142830157,124.22818858732572,-0.002162490410686913,87.00910380873088,1.6638945271281287,-15.104210680376205,0.0017234004822138183,-7.830776970355743,12.517966166142052,0.0023962947583771183,-13.611987946645138,-14.945462726139315,2.248383844162139,-37.26080213550355,-14.617859836715887,-3.8666478836692915,-2.8609447858988464,0.04479991901631311,14.623822251052047
-27.327479707641217,0.0,0.0,3.17325522444655,0.0,0.0,-19.0984750767024,-4.7899098351783955,2.0547366727202165,26.724376319065282,2.982617580928463,-23.160726036138225,-16.010041151606195,-3.738949360871027,-0.020650812406592393,-34.412735181855375,-3.091806719351544,-0.00014006516610557237,45.56124379792146,43.46827930856043,3.004018555957965,-13.643040578018299,-29.61120818351142,-4.290879744149752,56.84426540928456,36.09777268382749,-28.620324770186542,100.57607976530252,-38.59089578007257,77.36535720034097,134.0383287633263,-0.005380946970940452,-95.91791930952084,123.44380440407103,0.0034442831533409183,87.57101386495847,0.9471601019611832,-15.462407860052142,-0.003749747862853261,-8.700471327382058,12.105374431501858,0.0005035384366944356,-13.223922671887355,-14.83304193677387,2.1241726205329186,-36.85764271828995,-14.466742703347215,-3.9336750077404408,-3.5488814880352146,0.06981991851231771,13.717722321564574
-23.252891476650426,0.0,0.0,2.4959548594105514,0.0,0.0,-19.654796386610368,-2.9575445400644877,6.722771265249175,26.97194851370303,2.9656570607814414,-23.104644309960978,-23.419274636989982,-4.354988399047182,0.038324541622681486,-34.690658378933364,-3.183073244194313,0.00037778161132563757,46.07278426854987,40.95426198672609,3.7568701114678884,-13.158529102239532,-29.207540523694725,-5.299705069700358,56.29594192945595,35.41052688779781,-28.08773081587713,99.64164398533089,-38.2099799491469,75.70277976199112,133.89768414568312,0.0007928676521613217,-96.22668891724956,122.62388545819836,0.0035983678671445032,88.81820441325404,0.09110385682928243,-15.080525000729512,-0.0029908114049665593,-9.619243760602588,12.650809574958693,-0.001809294535364358,-12.818340822072056,-14.499642911972746,2.2297651387056834,-36.42074671576865,-14.202200875375663,-3.6992027080853527,-3.8414424204453668,0.010181662595824094,12.46073163143487
-15.606950711913356,0.0,0.0,2.1593012370017934,0.0,0.0,-17.46522225046844,-4.041498025275161,11.814003368472028,27.17450705511282,3.453498097528041,-23.376461727583617,-30.737550646861852,-5.694535283678884,0.04399698451398769,-34.83675010501719,-3.520737103737244,0.0005494449318569011,46.68431694195106,38.62633008948501,4.018835249289172,-12.197193819215663,-28.562184652573514,-5.985366045692914,55.904854394399294,34.75442326847914,-27.61003834360043,98.03651550603932,-37.91203864846644,73.19820653509525,133.79495536163836,0.002627409030666531,-92.2875353179077,122.02882825675617,0.0005067450998701323,90.13484745709081,-0.43041125855953777,-14.683426243386798,-0.0010860347410139271,-9.876804222870737,13.520524481261878,0.0007727633544271241,-12.212198735149471,-14.072768016550826,2.4985196956025337,-35.778387471728436,-13.9151756354238,-3.27709078831884,-3.7158430774631253,-0.10541622898253793,11.344929952758966
-9.872310338074088,0.0,0.0,2.0440046344866847,0.0,0.0,-14.009121582140047,-5.120970477120213,14.930708196886588,27.219591328323837,3.8074030917604142,-24.07540334595552,-37.887839944180605,-6.736305632338932,0.016401759456250404,-34.6684336280387,-4.071333959156707,-0.00016421071235847795,47.43259181495789,36.46946041094617,4.736768095658191,-10.84633088631837,-27.46561847520154,-6.049637303630776,55.45827538451849,34.72639703208906,-26.671134304630048,95.62323887927315,-37.44743366383039,70.06618532684105,133.73727994226272,0.0007436029857228776,-88.61396989622588,121.7315534180159,-0.0011058529527478134,91.43413930155901,-0.6201934524111902,-14.285195426762904,-0.0023128655359582963,-9.798078429625468,14.17483741670461,-0.0005523886349671257,-11.529809792904876,-13.886880968668248,3.103333977617987,-35.090048183112096,-13.97941455193771,-2.646215485767126,-3.204483465862004,-0.1704011532840234,10.194219152840493
-7.653980384711277,0.0,0.0,1.5456110931715603,0.0,0.0,-10.703674718875282,-5.294451375824617,15.294285815330161,27.078531977310075,3.7548975674907856,-24.80006148531607,-44.712437137196815,-7.051160255352873,-0.014483254925451243,-34.19674869695274,-4.648510991409385,-0.00025805299992866964,48.11646571939562,34.447303285048164,6.143888281727155,-9.373707293799054,-25.946162766071755,-5.711524766742039,54.65440180152974,34.93339404607797,-25.290246419407598,92.91944726350751,-36.911848229254225,67.01698025259174,133.77399278248072,0.0014206378431517266,-89.23064871299634,121.59834604014922,-0.0005984340766970468,92.20649787156694,-0.6762007352871436,-14.628427366353197,-0.001146989912423989,-9.336544426396138,14.164435865395927,-0.003448420852200753,-10.891645830870308,-13.861842794305264,3.8188359975725175,-34.46093117470909,-14.234163217507565,-1.9793905594445236,-2.486715574578426,0.08111167738338422,9.021655018642658
-5.8165753848211095,0.0,0.0,0.5867509113038153,0.0,0.0,-8.802474662833633,-5.473967265484533,13.290322522900286,26.782780942701997,3.837277855665987,-25.033624669999877,-50.81984500563356,-6.4596671082681505,-0.03619830970320673,-33.50415938838631,-5.174944064896918,-0.0005256758784257211,48.57271624981764,32.27509566136772,8.02108026569117,-8.014577435477348,-24.203534674161677,-5.706875533606527,54.10425654072917,34.68404686363391,-24.373687468599087,90.36301124912565,-36.70421419804627,64.3827535795911,133.8900043814307,0.0017581758505965,-91.34800100567224,121.53776792850385,0.0007197215786350755,92.29264621499122,-1.1023415042295137,-15.737153663458415,0.003938620997972231,-9.303794245685891,13.47577550869183,-0.0008998388529436004,-10.22965252308642,-13.744899785834946,3.8881771476720757,-33.78805250853716,-14.153887032115733,-1.8675054742231139,-1.7694759816248526,0.540730152957506,8.065396092665885
-3.542986018401914,0.0,0.0,0.13795968811185724,0.0,0.0,-8.950135175030344,-5.936779103112905,9.889050197202332,26.200590093192798,4.3600808304426995,-24.806471924006473,-55.83367123680021,-5.454429881181184,-0.019331885511649376,-32.6599921315968,-5.723270307971129,-0.0011190402425070576,48.67289099309704,29.936549696689333,9.906851232709602,-6.770277754653909,-22.343590364012634,-6.19380113200553,53.87570644687759,34.282133677281415,-23.86168951908424,87.95435128579513,-36.53615259250434,62.045662862519194,134.03234746738093,0.0011251380692164628,-92.11048195496328,121.57078965009823,0.0008924714006257029,91.48957605741359,-1.8238958024480254,-16.513856111121484,0.0007182746256191939,-10.274511441809546,13.185722869176887,-0.0032554500321527375,-9.32182899792581,-13.455693718205099,3.7070903324544147,-32.84905648134903,-13.818453077703705,-1.9147428987396038,-1.1662713198583972,1.1790213934173115,7.222738225286031
-3.3704699934078457,0.0,0.0,0.2612417436312561,0.0,0.0,-10.597534605787166,-6.806495424017575,6.39169047638953,25.308512339851646,4.606640441971795,-24.39689291848815,-59.46897465803332,-5.079322758981877,0.0112092713426766,-31.77198557495812,-6.223984745226147,-0.0005313003690859303,48.17259218649652,27.78843998670559,11.11612427936217,-5.431663411199349,-20.429038082434083,-6.597844898715769,53.48463903387749,34.18926934054947,-22.93109434875326,85.67871566451777,-35.98669600395131,59.8930463502556,134.30353364772128,-0.002237592224209308,-91.91783887330271,121.53502541579077,1.8294492616150936e-05,90.54650493259247,-1.7137714235625157,-17.161474800104465,-0.005450025697923676,-11.254312164866977,13.47351582371213,-0.002086372264370143,-8.358477483188034,-13.048886434449253,3.6615252367738966,-31.84579121371203,-13.427717582649985,-1.7896396034390842,-0.6506997752357457,2.07001132934765,6.535396778268595
-5.335161290338602,0.0,0.0,0.27491398039945936,0.0,0.0,-13.66639622000115,-7.953627951127612,2.8033253808198024,24.348942079676124,4.132817419665346,-23.925970642619994,-61.82883799071851,-5.486055155625524,0.012289519330402487,-30.869118525222056,-6.482402625826011,0.00033102749928129715,47.237098858570675,25.80875715213058,11.440717958835576,-4.057890543678394,-18.587069688769294,-6.785005137179832,52.98153145237248,34.28203439370063,-21.652008369764026,83.52360128877983,-35.328257277811524,57.79061862507514,134.67927748321122,-0.005327405350468619,-90.08716028185911,121.33650854401411,0.00021268635473154626,90.29357014031896,-1.1148324800671263,-18.073538614283837,-0.003966118461322452,-10.995173510001342,13.744149486834463,0.0019450653189732887,-7.563161714273145,-12.592730619300298,3.5843230720342243,-31.006941857179758,-12.979313659154467,-1.6739902674049605,-0.1715720477555323,3.0052914515939393,6.155217232171288
-7.784768098057946,0.0,0.0,0.1294037532713253,0.0,0.0,-18.383902658727006,-8.438907488376683,-1.527267089339502,23.577362686059377,3.8174753871155964,-23.55670985960004,-63.121332691314706,-5.7935478946780155,0.0020262030284045837,-29.976064293852026,-6.566329948926142,-4.800687684575418e-05,46.42093834216014,23.782798089794728,11.571783231786167,-2.5274282276012423,-16.874863138120794,-6.969805834706255,52.567062994226575,34.2987862350121,-20.65066797343969,81.43059023054488,-34.72238883822443,55.71039294883184,134.84376319495473,0.0018390173139111704,-87.33234797719695,121.05750618756431,-0.0007613799610716122,90.54115668843329,-1.5232295832388356,-18.23889080183205,-0.009706810051532677,-10.1141330364472,13.620562824409518,3.0857918135673723e-06,-6.970441998125889,-12.10687946158476,3.8930201952036185,-30.37334684478356,-12.65337326552004,-1.1921448522693792,0.4712183238599318,3.765483292569627,5.903515536420642
-10.698903050012362,0.0,0.0,-0.1796906194400011,0.0,0.0,-22.61039754555466,-7.623970399899002,-6.013358581967199,23.066299901788405,4.179906606393306,-23.319803068578057,-63.181343771830655,-6.187064078625607,-0.0037402691165385497,-29.185150452598062,-6.531760083182242,0.00014007403754708216,45.49234547525659,21.671834499337955,11.798188250892679,-0.7011746999220817,-15.48385546022271,-7.0729650899252094,52.12714095398654,34.21861050713297,-20.115275426035033,79.26511248674473,-34.05457865916272,53.60228013780912,134.56056010726013,0.002916282766376466,-85.61781705070824,121.00130970858639,-0.0003771527151539794,90.65616990018768,-2.920645563073964,-17.158376460759825,-0.01748381210881459,-9.579247038198423,13.067579443708288,-0.0007348835197589034,-6.477924691463788,-11.430224937076169,4.428716486914826,-29.824582634457094,-12.240318108589685,-0.4242360149078731,1.2994081230214354,4.201757666849556,5.586328791236634
-12.455781723694965,0.0,0.0,-0.4829341838538116,0.0,0.0,-24.03327789861509,-5.951394581584948,-9.156080652439709,22.481999877177664,4.550675040854766,-22.86077662823006,-62.076808890430314,-7.028375345732986,-0.009116633930177536,-28.36962866039784,-6.316077656291162,0.0013249542593282493,43.82201871029845,19.521609148491805,12.191560503728796,0.9614853271523008,-14.502368786090715,-7.202729903829499,51.6705645395513,33.905564135839256,-19.827990075342903,76.89787398378107,-33.555206292885885,51.37593837514933,134.06709643905296,-0.004830532137708461,-86.37461799700111,121.2576174351543,0.0036503891448716745,89.6109701814515,-3.260310489697984,-16.143567454479797,-0.006096259473364578,-9.521913044809873,12.484537822577229,0.0008382899007687491,-6.04826469578732,-10.797073768919132,4.562429142421651,-29.34197459296485,-11.710831532779006,-0.04485007348737056,2.0157877549067935,4.396299366980342,5.382659112669497
-11.527144591069804,0.0,0.0,-0.38946636325654616,0.0,0.0,-23.103681264704072,-4.897133435780104,-9.562645972918974,21.56948633790516,4.318174080844328,-22.150075760328946,-60.2998075382167,-7.72423611355295,-0.004411633856911778,-27.312631352864354,-6.0481744801236665,0.0012173785330432817,41.62553765368041,17.524544605589874,12.862833882170062,2.0996993032832525,-13.470238733989762,-7.568550635873371,51.13033884714577,33.294451943131655,-19.644351512484818,74.39936353440717,-33.19486362205684,49.130476936037496,133.8803809698008,-0.0005821803038313356,-88.34401048717183,121.48410881496912,0.0022790456169913885,87.24064913336827,-2.124974964746261,-16.536957920108865,-0.007062817938602545,-9.826418447914815,11.752014556747207,0.001040465536284573,-5.832744465954691,-10.45784812726607,4.193341786294682,-29.09884829291891,-11.255849146189513,-0.24806533608463519,2.591324239453484,4.683451075796768,5.322385162352891
-9.346109773622006,0.0,0.0,-0.4320581432659432,0.0,0.0,-21.744180051492872,-4.645685989120428,-7.408405694253008,20.577700954184895,3.7736657711214314,-21.447250185458998,-58.092168293153726,-7.73661278457192,0.002080770873976826,-26.11438386972677,-5.968089599118349,-0.0009709820723887686,39.4473183809358,15.808243472505497,13.757027576946589,2.993762778503816,-12.042514017438181,-8.086877721118277,50.23187079736036,32.83531536977805,-19.45291525575667,71.99343610078162,-32.39506073605193,47.12713048334928,133.93540530221145,0.0029935798543735373,-88.32440147907751,121.4923505325473,0.0015108493350268258,85.75806399112906,-2.2172144255799684,-16.96756820156264,-0.01482265264362317,-10.264303959660655,11.114450417080052,-0.0011420391074572058,-5.728359626983898,-10.077971392962658,3.950424418596116,-28.96474036361194,-10.812476731852138,-0.3190384664932007,3.1653550069824905,5.147079967675536,5.073490309036194
-7.017500000000014,0.0,0.0,-0.8542299999999972,0.0,0.0,-20.741880000000005,-4.60283,-4.460530000000018,19.61792000000001,3.569490000000001,-20.68410000000001,-55.26398000000003,-7.335250000000004,0.0009400000000000186,-25.029140000000012,-6.103030000000001,-0.001680000000000006,37.32295000000001,14.166950000000012,14.378619999999998,3.9605999999999946,-10.508390000000011,-8.737279999999998,49.10806000000001,32.75102,-19.148220000000006,69.49940000000001,-31.157770000000014,45.26180000000002,133.92635000000007,0.004829999999999999,-86.49751000000003,121.55952,-0.0003499999999999633,86.71939999999998,-4.456839999999984,-15.889960000000011,-0.032910000000000036,-10.574200000000003,11.210379999999999,6.999999999996126e-05,-5.452710000000003,-9.512680000000005,4.188979999999998,-28.647550000000006,-10.38562,0.12744999999999657,3.739049999999997,5.588709999999999,4.664420000000003
-5.229636614370561,0.0,0.0,-1.2251317281770144,0.0,0.0,-18.38352486965043,-4.8350443862498205,-1.7741166285942487,18.571849474663264,3.4657790762028293,-19.837139848200813,-51.73182176484676,-6.822490878139863,0.0017840117917493458,-24.111651853593003,-6.165969740238691,-0.0004724049083936417,34.975853447475345,12.38589119973795,14.488045006610125,4.938240251960781,-9.280888321693789,-9.324422502916489,47.99321126498282,32.67404220131318,-18.589209236436194,66.69197922382693,-29.919171914742574,43.36643991328868,133.94960558911006,0.002783929879457205,-86.53464918310102,121.89549149744693,-0.007296997402434281,89.74248963103807,-6.3578378449490645,-14.555425045166025,-0.008215329496405596,-10.017860356178092,12.09237219793503,0.0077076548285689135,-5.146912874509669,-9.166029380455486,4.627916592732289,-28.31571751552694,-10.23744465491644,0.6708399696620756,4.297138870658183,5.935570311577658,4.415025497732924
-3.2323717444416964,0.0,0.0,-0.9798270103351884,0.0,0.0,-13.519623181257673,-4.734020003352683,0.9426919424782448,17.505800547372452,3.573311319308991,-18.93526204987448,-47.58099168519993,-6.0740637844126475,0.005869235637555944,-23.1925209895115,-6.155121082374577,-0.0006798690635064157,32.33746542957292,10.565302511299112,14.380005099434355,5.694728673479229,-8.298697704563136,-9.892410869127529,46.99189174326307,32.26998344432888,-17.77206944804219,63.79381052861873,-28.730279889692685,41.54367829097326,133.88718153601533,-0.004347565895257878,-89.20959801826498,122.39866372127061,-0.0053588001199153775,93.3044698901655,-6.41905188663767,-13.89708003665434,0.007255977589615802,-8.982013797887609,12.937533700833297,0.005090154989073005,-4.9090563516437005,-9.135563398728719,5.142165738643948,-28.07244301622232,-10.409170899056496,1.1574675444956832,4.705740172723359,6.2729316873340855,4.340694223205422
-0.7105080166075275,0.0,0.0,-0.5655366687343263,0.0,0.0,-7.460170782266355,-4.249289592321374,4.180985889892384,16.669739850756734,3.9331077002279264,-18.380695117739354,-42.79111848029424,-5.346217963189378,-0.005578059855234643,-22.32038182800279,-6.087101106737819,1.327528472983375e-05,29.532015544445034,8.909097792537066,13.677759625192303,6.1119104124466705,-7.300965402004983,-10.201216743649951,46.00017654145706,31.664161938923016,-16.85642852184115,61.106784641992235,-27.66855710983638,39.67538350481542,133.61417120524604,-0.0032378583598067067,-91.75635396445455,122.9496701515488,0.0046089832103727545,95.0066893953658,-5.769581908619945,-13.51100744081134,0.005479717897609269,-8.205527962533765,12.26016279064017,0.00019380141536515157,-4.616651728621915,-9.160336289375513,5.355732595690127,-27.780004148540325,-10.514890818994749,1.3446818743854303,4.735085309097865,6.59145184307972,4.267149220049898
0.6102169522462921,0.0,0.0,-0.8853995728157197,0.0,0.0,-2.2159067626304445,-4.125760992710889,7.620357158715515,16.291017223920065,4.093013055673258,-18.911333902261312,-37.758165194327,-4.787733486237904,-0.0023461925566456545,-21.860936214927335,-5.717722140473874,1.2548333650224766e-05,26.95269196466582,7.563307699177186,12.404220125572866,6.444550102336472,-6.36240835499963,-9.45075547362851,44.817054955524014,31.18900478412373,-15.716934275642009,58.758236755613616,-26.67116854996518,37.73135713435726,133.49994514226,0.0015211529887848667,-92.23016595726304,123.4576341161969,0.0023695188604959047,95.21962837410695,-5.369132526822733,-13.16771084212375,0.0037800463076089292,-7.8302272044835615,10.418356925403101,0.004976049160217435,-4.274376641625224,-9.24845211545316,5.087725318395857,-27.446373972033285,-10.491807082852871,1.0620609915600174,4.436017981302893,6.730878560275159,4.112309714264805
0.3785002600485009,0.0,0.0,-1.2600794207912103,0.0,0.0,0.9762095426978991,-4.098397217593859,9.84135774348818,16.13219162348772,4.271793170910795,-20.023959941010393,-33.33688900967805,-3.788037935317603,0.014454818461948352,-21.855032052411335,-5.393488497011562,-0.0003184559357545046,25.166829169624826,6.410572923637589,11.759169690039403,6.9976202277137896,-5.688787076244092,-8.545227203169627,43.4457504783149,30.986171082535215,-14.391266161945223,56.57866325143097,-25.576008291868796,35.87145223992261,133.72428239497427,0.0018543605049412923,-92.20524898268798,123.92908653062293,-0.004281873542489112,96.57135360435221,-5.395803859933561,-12.673852306530769,0.001778623248360937,-7.18591822935479,10.001655575390515,0.012438745030803472,-4.084201252977747,-9.499487268251812,4.841496060149682,-27.276140433045327,-10.626952234540466,0.7343673174247217,4.217708368024761,6.521570846991825,3.8152623289536596
-0.358160814012023,0.0,0.0,-1.1028388897671533,0.0,0.0,2.379156490797724,-3.9967194574607436,10.722253572007745,15.839318069449199,4.428355772717788,-20.747165701890616,-29.916088289804723,-2.6282133089869535,0.006093717252732964,-22.099815059868867,-5.452489792667727,0.0003929122837410043,24.1779736476751,5.47165112511844,11.729556812678599,7.774279689255621,-5.262024655776151,-8.50231590771144,42.23321305207615,30.919322216556544,-13.302619458094746,54.47300496922885,-24.68233531037203,34.13744617787002,133.94362148533187,0.0010439576245757575,-92.0200603713974,124.45774949104221,0.0035786694277544114,97.18055994821563,-6.264153968895323,-11.779416697658283,-0.004897192696196059,-6.887127189806647,10.774603700559734,0.009962690930411508,-4.012544782907051,-9.493814857467049,4.874792640370762,-27.203893341630767,-10.63466906750729,0.7673505782442293,4.186727776886858,5.973274062648438,3.535920526872244
-0.9900126030346159,0.0,0.0,-1.11156378812229,0.0,0.0,2.966045200135146,-3.836225485918556,11.084907745702152,15.513115225894092,4.376500737096774,-20.821372575317607,-27.387040841922403,-2.1114832947476057,-0.007394364138173282,-22.446515193361222,-5.628760259287814,0.0002000316051439728,23.63785754195189,4.927091453519318,11.39725414536934,8.649752970325245,-5.052658837021591,-8.964888722286988,41.1908014823452,30.715432517671577,-12.497670242654806,52.575112279128746,-23.91735845744249,32.70986766742131,133.99954756494364,0.000706567675879562,-91.56509714400141,124.94266829930525,0.0067361186634752575,95.22159860596155,-7.724458659542792,-10.515480357915152,-0.009081648834666084,-7.749147760756955,10.42220965394619,0.011020767055982744,-3.8954470648751913,-9.073223311855706,5.205344171625703,-27.05381705564014,-10.376386134978429,1.2407042749402286,4.130089849408417,5.223996156081821,3.34988626342561
-1.5438857388210239,0.0,0.0,-1.3723667420414998,0.0,0.0,3.2391370076981754,-3.8466223024340906,10.99648700125448,15.29771759287729,4.225839570588537,-20.635170998575735,-25.47117499568517,-2.152327400049874,-0.006292987095151237,-22.74369612281136,-5.561364192184951,-0.000534718953359768,23.35693195359009,4.706125283414244,10.910354691133206,9.562677821527783,-5.12708835948729,-9.200363212712865,39.8296968022543,30.246984430621094,-11.61618270184789,50.859285560783064,-22.752378704007054,31.8460330959881,134.12253962193063,0.0012430051917239888,-91.15056751946194,125.11099305116171,6.415292721579375e-05,92.94547829726059,-9.34403654159143,-9.366286958161664,-0.005852865477343403,-8.674631743869892,8.942099711802163,0.006221206143902172,-3.7514968836149647,-8.672959938062254,5.881912127026793,-26.873601964189895,-10.271034635846238,2.0253902884724067,4.006567963681712,4.380408607318072,3.1983855956080856
-1.9275655181472489,0.0,0.0,-1.3111338780316197,0.0,0.0,3.2093736583539365,-4.179078716271292,10.26673311716215,15.062570106733647,4.0355341452603355,-20.37542836252206,-23.909596056204787,-2.242286261837648,-0.001443806438855832,-22.863098878138718,-5.22584681474001,-0.0005225459793631103,23.217975642845957,4.660314052311151,10.866548033040274,10.360359637538867,-5.379578606241746,-9.335126811900736,38.31932080920227,29.67275180158758,-10.535153202575053,48.98363572525807,-21.30366366026998,31.318111851622923,134.2220276797228,-0.0010465103947200234,-91.91795110653703,125.11425751292292,-0.001902934093785311,92.1652607439597,-10.253658800941434,-8.758106462768504,9.294924624633197e-05,-9.163542840929326,7.452422106494987,-6.498036006338668e-05,-3.6287679765068144,-8.394741756755757,6.730329007261079,-26.716558995251212,-10.34438326612694,2.920743619749937,3.8330680539003588,3.5516324673585293,3.060120816990947
-2.334973169989229,0.0,0.0,-1.187408599891151,0.0,0.0,2.975528913628911,-4.498722309538098,9.599743844534025,14.773163746985194,3.686840094877933,-20.344898233104473,-22.545076806470096,-2.2949829672782727,-0.0005535726347807534,-22.785718940223926,-4.576642517137134,0.0005338751381886902,23.140514860868045,4.619300299556229,10.871296141448791,10.861256257413974,-5.660487288821604,-9.42613737483076,37.294472804491114,29.080513608742557,-9.67438097430454,46.82311530261735,-19.982750402344507,30.67425764116605,134.00493404234282,-0.011772140406511223,-95.49633129149223,125.31788068834045,-0.0052711512412938295,93.6390062811731,-10.052830285514155,-9.107344845665459,-0.0013932514534827649,-9.532729363426482,6.891278384998398,-0.0029904604412066835,-3.6225613126078504,-8.158251176195304,7.33075311983435,-26.679993041462907,-10.359661647283835,3.5706536982455006,3.573266081513858,2.7876931271357033,3.026030043003772
-2.9395808024102763,0.0,0.0,-1.2771940775512143,0.0,0.0,2.7177143026371535,-4.523530396366002,9.457881397576866,14.398374924228186,3.363844845137269,-20.71447359275286,-21.242239548482782,-2.252561359932239,0.00033182411534504936,-22.516662050739907,-3.695067328453363,0.0014173371386860378,23.154130413016308,4.43059658830103,10.661176689433832,11.158988542139063,-5.918388431460851,-9.2825205039441,36.67870289996879,28.44460677550028,-9.362314114633039,44.801652634226755,-18.86164948062247,29.933845316442675,133.5794268168353,-0.008308409837259835,-99.46843704265056,125.56791848221984,-0.0030209822464876556,96.45010139316005,-9.768743992286359,-9.732208989086168,-0.0005043758219749928,-10.019133222310137,7.143292544049619,-0.0013568334974054074,-3.561400568138735,-7.958027528773139,7.366225044042317,-26.603740373810087,-10.189187146760297,3.6831622561254362,3.2801676825560673,2.099293079674485,3.258229165391729
-3.410291430879451,0.0,0.0,-1.4177592580267957,0.0,0.0,2.401899702851612,-4.259866295555728,9.607813997326465,13.985260918145014,3.398534878114752,-20.98127827499457,-19.947905746685258,-1.9677215536063235,0.0019421383179350936,-22.16186983238056,-2.9911172698365975,0.0002292701760654116,23.30721371992807,4.040434169338553,10.499182623363827,11.510125223132519,-6.178195315793908,-9.363859060177369,36.00932988274745,27.845013238081503,-9.408937265050303,43.328868845106676,-17.929119113461958,29.394855357297704,133.21568728142657,0.004209347314484838,-100.46174373751327,125.64614366107739,-0.0004797029988162332,97.4768868864514,-10.205043512800875,-9.777762519635099,-0.0005962142226838334,-10.652530885776011,6.811660510536422,0.004586691345596215,-3.4286824340212245,-7.721046252340706,6.9777936113105214,-26.46415048362905,-9.82050622436087,3.417766501235316,3.0840163629742294,1.5073664054710345,3.6323932204991234
-3.460698540085186,0.0,0.0,-1.4240716121806047,0.0,0.0,1.902556032972315,-3.9519461776282405,9.76670122687335,13.62879760307602,3.8341328983623035,-20.68098980501963,-18.772184778038774,-1.541029368154325,0.00144061028695822,-21.75390565382956,-2.71933073416637,-0.0011859636038384503,23.555417398177845,3.589297602990869,10.429523383591592,11.925400812974946,-6.407050783059337,-10.074767419366628,35.17287947108722,27.156299205485794,-9.492515168659637,42.404578883979205,-17.062625425114273,29.14107483599082,132.90290567539896,0.00984637391771203,-98.39830558063072,125.5795510399914,-0.0017673019219441924,96.38763602288567,-10.697830366056925,-9.09526252390811,0.000196734597107853,-11.04422095267099,5.893506780953874,0.002896567942616538,-3.453076879096885,-7.510124392205251,6.6864846572862895,-26.481148482168738,-9.513435164243106,3.2319207302571615,2.9567730014949722,0.9293293719403725,3.968913674126115
-3.094056276950707,0.0,0.0,-1.3592460699902738,0.0,0.0,1.2994806822428047,-3.740249347676621,9.6073367316879,13.219528048510933,4.108162013313386,-19.837912421322454,-17.90050599645797,-1.1870911436203406,-0.0001995337338025613,-21.145336777444353,-2.690897547273912,-0.0009270673190419815,23.79783048042337,3.354824506046915,10.385476473950614,12.152929269951434,-6.450246255685072,-11.168715811131857,34.206324444228414,26.395538402250878,-9.45451772890681,41.7027032195019,-16.21006794916363,29.096134004967467,132.63366697592673,0.005239344501283558,-96.63601521875968,125.42187703256951,0.0015741843882616862,97.09162265661139,-10.858621288735318,-8.92882512092646,-0.0008642210624804704,-11.07891614873257,5.89775416888664,-0.00018027835095173355,-3.5495801721220595,-7.293771099508378,6.819111766961796,-26.56054649645537,-9.365739478193216,3.440392368383786,2.7641402741501886,0.2964541688066111,4.25744430424985
-3.2487426632716967,0.0,0.0,-1.6020225649030673,0.0,0.0,1.0021020336292006,-3.972992996565009,9.37737324949987,12.830331068632674,3.7966688205628283,-19.405219039787198,-17.37762617361723,-1.0037679933439798,-0.0007519520730663405,-20.46088865663325,-2.477132783811777,0.001121238855912888,23.961360817652015,3.422692369592845,10.121182308914701,12.131391657905521,-6.2682967605636115,-11.670251859793954,33.21205769060793,25.74637826776852,-9.331692450055835,40.9678393508317,-15.401295582834518,29.28762761264526,132.45974523891604,-0.0016253319438409275,-99.1200667551451,125.1888204475612,0.004561367379334248,100.8164219981388,-10.349674103976946,-10.434592830099573,-0.009331282661737713,-11.18598426662413,6.834295180924355,-0.0012414903925193651,-3.5693119851110557,-6.998462216415576,7.091604422656579,-26.55463500895707,-9.199537044144593,3.809498029528729,2.430187926662474,-0.34889455372259703,4.499289117841391
-3.9849093738234567,0.0,0.0,-2.1835054635594093,0.0,0.0,0.9834159081907698,-4.60031096009057,9.398269875227706,12.623697838434857,3.283835919730815,-19.88011451204586,-17.046759328335657,-0.885693921368585,-0.00021957100450572265,-19.923389354267577,-2.1228463836034193,0.0005309135466390831,24.03333594667834,3.674604316902852,9.566979166987029,11.976679918159922,-5.879275337403947,-11.359205304183245,32.25063168014139,25.3082017998036,-9.20929058331089,40.29574161323912,-14.573740138447764,29.55675538005536,132.22540802422645,-0.004198576939378975,-103.26418964594295,124.85654836777661,-0.0008587123245794889,103.58077308916538,-9.235576985197966,-11.800615615332708,-0.0022520532563285824,-11.347659756525012,6.936885092164778,-0.00021838325643751272,-3.517535710921464,-6.726647679241017,7.173939940713988,-26.483688330843307,-8.981196168659979,3.993162845589164,1.9552676382066514,-0.9216522290876652,4.6080263429197865
-4.25319,0.0,0.0,-2.64261,0.0,0.0,0.6494100000000002,-4.76064,9.46595,12.538440000000001,3.25098,-20.2807,-16.74156,-0.7608999999999999,7e-05,-19.53925,-2.1510900000000004,-0.00082,24.126329999999996,3.9896400000000005,9.10404,11.870239999999999,-5.335510000000001,-11.34468,31.28288,25.26241,-9.091660000000001,39.90696,-13.776679999999999,29.666230000000002,131.90871,-1.0842021724855044e-19,-105.35399999999998,124.45615,-0.00421,103.94918999999999,-8.470670000000002,-11.918040000000001,0.00422,-11.350580000000004,6.12382,5.9999999999999995e-05,-3.4749799999999995,-6.485909999999999,7.094280000000001,-26.428679999999996,-8.72866,4.01447,1.40769,-1.38624,4.68165
-4.397934968810052,0.0,0.0,-2.819259475098056,0.0,0.0,0.15640181714497256,-4.562519551174606,9.56087853579664,12.425476721919512,3.2458483239218907,-20.410699132128133,-16.472883336758944,-0.6863931958887401,3.8967690315166725e-05,-19.242062723380563,-2.317406313763354,-0.00045311995617396513,24.37422457234441,4.31412394477604,8.850899349256995,11.985169679787825,-4.811068466377607,-11.557005513110036,30.20840468307442,25.408753027980204,-9.014035251895406,39.65983094934634,-13.16564592094624,29.614440138816544,131.76062419523316,0.001319266437854485,-105.0078167464404,124.15008412049875,-0.001342305194292157,104.4205935429576,-8.472451331977485,-11.48937893105322,0.001783211473000095,-11.538452984152153,5.828745505052411,-0.001338057966389302,-3.5666625368194964,-6.266443204299864,6.9501813208924075,-26.511366483249965,-8.470725444702113,3.9676321840737696,0.9743407201024635,-1.7593263223935771,4.98183077105612
-4.842330074809309,0.0,0.0,-3.015562287983215,0.0,0.0,-0.045485772491043366,-4.5428248671440805,9.595787708470185,12.232517895063223,2.833996568885071,-20.577307111165677,-16.337241711010392,-0.6802086039747912,-7.960738143650968e-06,-19.118073218004294,-2.175142908866616,-0.00010740424325713633,24.673106213211803,4.706875313933568,8.844773193552141,12.306497662276044,-4.425133654027693,-11.31146900318878,29.08018102223509,24.984986062262504,-8.732174153136416,39.47213447371935,-12.626750849884031,29.78792004450185,131.82876721939655,-0.00045814240979823954,-103.64761946960752,123.98449605334261,-0.0005453084929062969,106.17928465037981,-8.487675087147517,-10.879214040569444,0.0006119331989027801,-11.836096262591727,6.451820228472991,-0.0026407714993302283,-3.6799685495258543,-6.266304878171297,6.969654316924783,-26.624132655162253,-8.478137219855716,3.9857111797623554,0.6002155649011615,-2.0481121372993103,5.538274551402429
-5.38544025201583,0.0,0.0,-3.457966868565136,0.0,0.0,-0.007945771527043373,-4.6855926949522155,9.615703834384753,12.078345404601336,2.7032505845621975,-20.788495565477245,-16.360350651476395,-0.7781034606398101,3.172318272823845e-05,-19.100551820652427,-1.9518293088184768,-0.00027845418792852065,24.965164050533836,5.2580104997075425,8.852008113519679,12.682266072304635,-4.030403796365798,-10.79552794602457,28.12118126621676,23.98263510739042,-8.141188779499393,39.43096530560255,-11.976861297374604,30.288693351750673,131.9592142884346,-0.0006819296211404526,-102.5303470748413,123.722988729297,-0.0043059817936396535,107.42584278511332,-8.30854385415444,-10.582891099058697,1.106577387592555e-05,-11.560088899161101,6.705627454233988,-0.004585111966930202,-3.6235311752400508,-6.512149683749036,7.283091324174769,-26.57350868091599,-8.825971032504906,4.178902875084051,0.23349755484936086,-2.255670727333707,6.156719707671866
-5.509820845715293,0.0,0.0,-3.520673582518585,0.0,0.0,-0.09890885529328837,-4.642955331993599,9.572791094958237,11.930234794992112,3.0720629043830057,-20.49987624601603,-16.416493193914636,-0.8152611510061835,1.3727812298811494e-05,-19.01074315787072,-2.073094818294227,-0.0004136623072806363,25.390839925009296,5.707771120591245,8.696592592559634,13.06916339169413,-3.6183244265130865,-11.081502919706294,27.219210952852865,23.234263860327225,-7.428022963209815,39.41494952867744,-11.425550689382629,30.805527073665857,131.9903234714261,0.0005613947590212544,-101.59787074922815,123.26630340295293,-0.004278511270529545,107.15086989219279,-8.102151583584222,-10.574065130091249,0.0007547483571914457,-11.024685031288888,6.269423230175822,-0.0046676443351437455,-3.722510253250884,-6.740272648308687,7.674152877706005,-26.675012516538622,-9.187510299661966,4.451001156960283,0.17715859468232878,-2.4948491638629813,6.51612293384352
-5.880412283391592,0.0,0.0,-3.455560925120668,0.0,0.0,-0.2675529615654205,-4.620397666929634,9.583926551436903,11.84182510479206,3.302217603996331,-20.161369349573416,-16.354081912755202,-0.7244779791050437,0.00016496596139916502,-18.910999103224174,-2.2559334635469734,-9.21799251693633e-05,25.827225439385558,5.940762072236976,8.419048712337487,13.399627615197828,-3.290279272949614,-11.728907860995468,26.33517995074363,22.795180986198005,-7.024756424758212,39.32404402130415,-11.01888257866523,31.228205538596132,131.7971383225989,0.0002056462487654014,-101.34293772885259,122.75018140291115,0.0018760588948914328,107.74271322708478,-8.297807899090525,-10.731449684677267,0.0035235093428974597,-11.035603049033607,6.58005806837558,-0.003444142651616609,-4.2347406307887265,-6.820448716680627,7.971435433106037,-27.183028899860574,-9.376452869232441,4.694766059189417,0.3823635273685934,-2.8193006656601103,6.632103881645024
-5.916095653732774,0.0,0.0,-3.2611453609334746,0.0,0.0,-0.5645115862477345,-5.0999441908015575,9.496791100627373,11.753061900277812,3.409561490397209,-20.31704704485233,-16.164428721653277,-0.6152491419307977,0.00013683068004782963,-18.76024508475933,-2.2519603434810027,0.00016553040605609993,25.974229097127314,6.249411415616409,8.231497597920294,13.406372121976375,-2.9225070990428614,-12.064492034173185,25.513725072754088,22.198028437371033,-6.968278503337173,39.23949069635923,-10.54515939962963,31.448699847322338,131.44746715157342,-0.0021809604646571873,-102.00985593486091,122.18617935593178,0.0029167327474713687,108.86936239713089,-9.061860434773429,-10.845025010551563,0.0023123478898126135,-11.333178207438351,6.884456038582845,-0.00045127912080930886,-4.7132059430964715,-6.874441679307922,8.118202066820439,-27.660203446243017,-9.48298860530297,4.809448278447196,0.3814307112165786,-3.118787566090671,6.784658519940467
-4.902128643341042,0.0,0.0,-2.670839882005791,0.0,0.0,-1.000894864464142,-5.498048930896224,9.283988409383173,11.590010821404391,3.7126875898376848,-20.594481861121515,-16.066403538268943,-0.6637256848437679,8.294358672429432e-05,-18.489656073285715,-2.2719038415509787,7.750183507240726e-05,25.937939531781392,6.801032487510921,8.090747867695457,13.14113826872612,-2.380081597664091,-12.366713515147966,24.653618587694258,21.443049892453395,-6.737026172088536,39.207693651495994,-10.113219903680726,31.56272617568303,131.00429878243145,-0.001194338501497543,-103.23253251657543,121.64508517470435,0.00098275338136185,109.6447055000536,-9.870645235819037,-10.14227785251058,-0.004306155629374839,-11.587628375341941,6.318334568038896,0.002933937522589896,-4.869386287116353,-7.1478078902647795,8.243612050844348,-27.8303347859185,-9.783246504023596,4.8175694066062205,0.11423155233316659,-3.286093619362188,6.993718988813691
-4.304991917543043,0.0,0.0,-2.4913993645249075,0.0,0.0,-1.220295676951668,-5.2726155554392165,9.07387960339092,11.604024727223427,4.062556564405352,-20.889216548931874,-16.175804762213918,-0.8534254139132105,0.0002113638989686608,-18.210609774620078,-2.397374144546789,3.5686081236846646e-05,26.00429437530373,7.404132428118145,7.985526858910875,12.939582690958348,-1.7614524434890768,-12.509777007011753,23.71584333259512,20.781788239909147,-6.336826136294057,39.01375790182356,-9.816582694262861,31.78524197037777,130.57222649359153,0.0010957567603809535,-103.8303109340254,121.23992240769124,-0.0018750038343418654,109.6790637405522,-10.671597404772868,-8.908801158870132,-0.003924877276788772,-11.859268209201671,5.0256232044729146,0.0013349234361594367,-4.992885440363366,-7.499168332813021,8.529285903292491,-27.96842174330358,-10.217325265905023,4.943255134408488,-0.05529565567532859,-3.454271065221349,7.205284582898299
-4.73655476716342,0.0,0.0,-2.8424701626954745,0.0,0.0,-1.2214091994439047,-4.875447298943904,9.011545169619746,11.726266205007576,4.168631582481171,-21.270908606725985,-16.34477748563736,-1.025442710862684,9.251716051728732e-05,-17.889581028891318,-2.580358027502151,-0.00027967798329683495,26.14991229805893,7.903843350319941,7.730911790546631,12.774376743927762,-1.1116408320233853,-12.371299368801347,22.810711414939966,20.078374747819723,-6.2156243534520375,38.53899587200535,-9.646515440917108,32.02199817648701,130.2927893885738,8.877243068655105e-05,-104.19939323262243,120.96967460591256,-0.0028013426338274433,108.58478927258528,-11.489623522521526,-8.496089950043105,0.002379304802127522,-11.680303695073103,3.7173095621196195,-0.0024836464590926523,-5.303765417482405,-7.530384087476808,8.795694790640237,-28.272230699266114,-10.349141172436106,5.178016167132935,0.008906264146805783,-3.626851197282796,7.40649942233605
-5.471043494411241,0.0,0.0,-3.143178153221199,0.0,0.0,-1.2551764926010045,-4.864758859238847,9.072960607355833,11.705786011111808,4.053298723116806,-21.473590047244972,-16.430631315761946,-1.0824981770794044,-5.880389247358408e-05,-17.314021797595863,-2.7774171869701756,-0.0005375925840001768,26.314790181442756,8.37399546341521,7.2742132928652286,12.468114377633713,-0.3691614038101425,-12.435808455811374,22.08745488018975,19.359845690126644,-6.348953397152855,37.99555050814886,-9.479101936852823,32.07868084927271,130.07601169265413,-0.0012498785484816876,-104.47900509141714,120.8951259329842,-0.0005777568278332923,107.34078211073825,-12.115950111574461,-8.942791103868437,0.0024308533933264593,-10.950207827295008,3.3598091656875,0.0015912862070618422,-5.68366332483175,-7.2197303815998755,8.889382391529812,-28.62686841209693,-10.099331902048954,5.388067321128949,0.19300089554145694,-3.618779350957552,7.455990611454686
-6.094972067847201,0.0,0.0,-3.470891908106679,0.0,0.0,-1.3035247291413492,-5.124107438999319,8.982929250131052,11.648703560899856,3.890566335465567,-21.53043707605627,-16.43397495939465,-1.0381144141207352,-2.2660786003738688e-05,-16.539674993336032,-2.8814102976110183,0.00018420435143722848,26.378452143583708,8.869439558587693,6.942743857827294,11.938587176251282,0.4136782773455776,-12.78286456271524,21.521027705091324,18.880065017169166,-6.426466599075769,37.509024025457826,-9.254503503447658,31.958702529511715,129.86159323834673,-0.0005552069283875448,-104.05322027178741,121.0022918590525,-8.733264281089572e-05,107.13584597012571,-12.04922231805059,-9.631049910210363,-0.0015349529879659946,-10.258743236743891,3.762769915072792,0.0024201193139758576,-6.0611193375252475,-6.986917841994774,8.70812889742488,-28.995066686383897,-9.814829028880526,5.312017003288262,0.28186934048425616,-3.446007576852072,7.377387001309283
-6.174836543005999,0.0,0.0,-3.921370200700736,0.0,0.0,-1.3929452387702306,-5.570228660205157,8.71671979752164,11.632772390758474,3.742608873592779,-21.47314602693652,-16.380466714115254,-0.9541033521175806,3.845784587314918e-05,-15.759852767061604,-2.8863567249469013,0.00019572381888696426,26.28835169265882,9.362900552047297,6.829168564476528,11.29261154340728,1.1266225402121257,-13.232564119465588,21.14845546887992,18.666649868767728,-6.455754060283028,37.0298020264748,-9.126245262825023,31.80791751816519,129.62831834698216,0.002400658896597017,-102.68122902498317,121.13860021991466,-0.000725712276902679,107.85241513046746,-11.600712853834235,-9.723959148065111,7.241923905316664e-05,-9.995653961607879,4.290168880835378,0.001225055408017904,-6.375732148744605,-7.0205699186746955,8.412872236488678,-29.322420337784298,-9.731601266819316,5.0248604309691745,0.21601813737849926,-3.31737192621137,7.3730074404078545
-5.741752656047967,0.0,0.0,-4.2564699631124085,0.0,0.0,-1.5913817769295204,-6.224552608535115,8.39106185941439,11.525143563275002,3.3595979854121736,-21.061559162518904,-16.31582753328954,-0.8500237323381862,1.5772555839890456e-05,-15.028312303730464,-2.9345743527544506,-0.00023577781417073273,26.1712324256536,9.840324642835238,6.791248651251454,10.728852426040666,1.7721369211702278,-13.821393915647306,20.849489967804494,18.585456660581777,-6.574725449163724,36.55538710487122,-9.061262937372792,31.55313860433212,129.2921365712567,0.004125477385428888,-100.73504969348416,121.16262022589517,-0.001253199756024952,108.66145294932048,-11.54954832770877,-9.035794518468839,0.00040751686780628833,-9.64010313596866,4.432853342223118,-0.0022087099082282492,-6.534071856800643,-7.068911199490111,8.350938190939683,-29.486126380294795,-9.752141910040235,4.9482965592564065,0.1484972390172136,-3.2782463072928536,7.494009121527445
-5.607766145429968,0.0,0.0,-4.607903677238625,0.0,0.0,-1.8093088806929383,-6.9744371726622685,8.119593957511114,11.490218206369253,2.6703593204513862,-20.76841922810452,-16.304499908686232,-0.6666504793732327,-8.445141243524687e-05,-14.361962567215855,-2.9731708289937218,-1.4389999350351011e-05,26.110605348659067,10.252682279377295,6.632709256463562,10.228097234621345,2.397367033979024,-14.237579202529439,20.369839741324316,18.49037273833248,-6.764826672648559,36.07807456036335,-8.99683263801869,31.227291715482053,128.95037489183386,-0.0002852540449764807,-99.75856137265936,121.0254631902362,-0.0027079910600076437,108.09997108388032,-11.984707293753418,-8.692520807308876,0.0017898023183284654,-9.041242089977546,3.524206970778085,-0.004742465250087596,-6.721834807909929,-6.965780478402514,8.476900995075638,-29.66264640022637,-9.705912035555919,5.105901054885568,0.15837731437848943,-3.175080343740472,7.555410071004027
-5.557070477103614,0.0,0.0,-4.907205984982886,0.0,0.0,-2.063500029261747,-7.430915619397156,7.736148109953685,11.618364926051967,2.2421648801826186,-20.910829691186137,-16.351014287552854,-0.43412721758340217,-6.423713132770648e-05,-13.78020395087624,-2.952195569178263,-6.717942285131473e-05,26.13928214301169,10.658369034381908,6.484437814571971,9.735126834625678,3.0548449885170883,-14.434519825183022,19.91408432881693,18.341725762212974,-7.035758979408449,35.68094121774693,-9.014229988954009,31.118671652055294,128.66449556838134,-0.0031816494130323383,-100.30576295639447,120.96135112680366,-0.0011949764577601344,107.18512053992298,-11.96158525847378,-9.087153598722521,-0.000226226625983234,-8.72054808151813,3.066389771145817,-0.0013034373310712225,-7.062025466193749,-6.8253289858408674,8.653403376646102,-29.9871766156337,-9.644835521479491,5.325126962124904,0.1911678041029476,-2.8986752646576766,7.496561055183323
-5.674754765533053,0.0,0.0,-5.04232619225523,0.0,0.0,-2.192260957398533,-7.2034669969220095,7.35703525625907,11.677568291811863,2.4384016579003203,-21.11343498192978,-16.378270882737734,-0.3764453224014142,5.7791119396297864e-05,-13.225482225460912,-2.946561962643295,-0.0002905368689896296,26.199443225395182,11.168622263226764,6.359596862624461,9.299918893492693,3.7543155648735764,-14.620766838289523,19.697992711523252,18.16170622931711,-7.3776902413002725,35.513233550379525,-9.309967611034649,31.262999528985905,128.39201104679827,-0.0020774127949274215,-101.38579470640887,121.0054593052471,-3.689405037085365e-05,106.93775992465498,-11.07457868422803,-9.572142306005956,-0.0017820108249736824,-9.073452889130264,3.8018124780764486,-0.002919103237943819,-7.42984472295159,-6.939452057131995,8.85707159615529,-30.355073581892842,-9.828708822731585,5.468973122546214,0.2254448479227748,-2.4511619758235876,7.572227671596045
-6.097660000000001,0.0,0.0,-4.770310000000001,0.0,0.0,-2.21594,-6.658109999999999,7.241439999999999,11.419919999999998,2.62132,-20.965359999999997,-16.33401,-0.47513,1.0000000000000003e-05,-12.618829999999999,-2.8786,0.00022999999999999995,26.191640000000007,11.697450000000002,6.235669999999999,8.91874,4.335689999999999,-14.904199999999996,19.4293,17.97853,-7.5518,35.43056,-9.71292,31.38518,128.34039,0.0027100000000000006,-103.03046000000003,120.92940999999999,-0.0004900000000000001,106.53176,-10.080909999999998,-9.95604,-0.00078,-9.496099999999998,4.46508,-0.00072,-7.70537,-7.25504,8.998530000000002,-30.646960000000004,-10.174049999999998,5.475380000000001,0.33092,-2.0101699999999996,7.811989999999998
-6.302998561936755,0.0,0.0,-4.422892698379714,0.0,0.0,-2.3602634502425666,-6.348235996080773,7.48134246918934,11.01213233586154,2.453013053119743,-20.886249527410133,-16.2566296178688,-0.6402579161096058,-7.861763947717683e-05,-11.920690257276618,-2.685753777586409,0.00032913422093707226,26.004235657790574,12.201856875663001,6.111838921438944,8.40609044261656,4.7799567718211184,-14.891878787180543,18.834989138778827,17.95155130024303,-7.414398533992746,35.25239212524278,-9.771265613741605,31.442258128125417,128.5669815938961,0.005359962806085544,-105.37330533368966,120.80565537839327,-0.000392023073610577,106.08666512228845,-9.528148512358646,-10.283388482202154,0.0004462060681198175,-9.485150554682715,4.75756299129479,5.8422021050326315e-05,-7.76978599311325,-7.5840733528896775,9.199610709417579,-30.727225073379138,-10.55478664572783,5.531610307914334,0.3991493950115242,-1.6682550332977668,8.045145534729516
-5.992234427550462,0.0,0.0,-4.2884819656246,0.0,0.0,-2.751930018668564,-6.095309203208294,7.664974060681077,10.72445125496546,2.250804369567127,-20.959300514716443,-16.248101137753586,-0.819952297270431,3.192186385362432e-05,-11.17646559904752,-2.5325129240342603,-0.0003460211121194414,25.88565019090292,12.702014508410386,6.10740077413336,7.874235353647169,5.234740365247079,-14.682125731722032,18.064471623076496,18.24901856252605,-7.145864674504515,35.06692428209404,-9.454304870114543,31.52150935954818,128.82646170680619,0.0010724497316774843,-106.57488789985138,120.82863323576046,-0.0015391895065826084,107.68007319697222,-9.722901212718341,-10.358641300125113,0.00010870939876920203,-9.594925414565678,5.447630280533283,-0.0014299592784211366,-7.678104258251071,-7.825577622683913,9.641429450015908,-30.636121375511145,-10.947952646112238,5.8460846146045915,0.4558306542447096,-1.364254517397884,8.165097714216921
-5.9494314725051805,0.0,0.0,-4.363466127780438,0.0,0.0,-3.174691784457539,-5.776772613833543,7.741130460546362,10.625234234400203,2.0922989650995043,-20.92755317528661,-16.384853630627852,-0.9385508145559156,0.00010167572685455405,-10.475090764011469,-2.388812853791937,-0.00017204571121976956,26.03819872484424,13.12275743795781,6.126848070452356,7.504185150846639,5.653864620615112,-14.565824348208793,17.428712592160142,18.604705541763007,-6.996909089503447,34.9109156579482,-9.293156880569848,31.522676908608766,128.9496304371405,-0.0005544922536426732,-106.01068946903078,120.98815468457042,-8.591021006856098e-05,109.53122458731433,-10.381357163005712,-10.238721268026241,-0.0007948667668717679,-9.503576512775808,6.302051601602496,0.00040500572170481543,-7.67701558376023,-7.891704708346989,10.091788620773244,-30.62131233126363,-11.182799806935392,6.238407850430501,0.6674253846788458,-1.1026024605761586,8.244733379084188
-6.438546346789849,0.0,0.0,-4.623586813501506,0.0,0.0,-3.439872131152014,-5.919892717293536,7.946646499937366,10.599588119753317,1.9746261579865125,-20.838352038933362,-16.55352862977348,-0.9407451762798218,8.350129040886469e-05,-9.846615768200929,-2.129496291119551,0.0004474975097924073,26.18604570575035,13.43787306695519,6.093779117618563,7.119830123413918,5.932984410395117,-14.386904252147515,17.031352779608905,18.660477264855917,-6.944593789951346,34.81731853005311,-9.274558740618538,31.45278601874981,129.06406132936362,-0.0007577463888124381,-105.0212980097778,121.05276515566922,0.0011675138564567961,109.48097687500963,-10.367463032964109,-10.298230109051069,-0.002747671003694462,-8.884997022169681,6.639965107565903,-5.632342355974176e-05,-7.7666856112020985,-7.884925306573246,10.20882830333344,-30.705368452572063,-11.221745951469204,6.349931433748639,0.8752229881179958,-0.8925861390423012,8.385013171464909
-6.489672852556101,0.0,0.0,-4.691772400095301,0.0,0.0,-3.872045252731132,-6.438247065231439,8.020714848506586,10.491716734637173,1.881621091038423,-20.641967318234702,-16.647009095325018,-0.8643239407725417,2.1231386601446352e-05,-9.305392201026093,-1.7810781180996864,0.0004910879574888157,26.135726687008187,13.719534904244174,6.188904141760005,6.604601754496055,6.08796193328493,-14.21798998799377,16.86168910057246,18.533557586338762,-6.828200057797967,34.862278263237236,-9.053511908291084,31.520043983814933,129.2142055511168,-0.0009756141059936286,-103.7283348176467,120.8860725322666,0.00038550288369988147,109.01813931384517,-9.521024989427803,-10.56356606928848,-0.001999964631691265,-8.413884552736958,6.579424829712391,-0.0009107434991522127,-7.7832821211272645,-7.878157651383716,10.020563219757765,-30.72958749725879,-11.142820140789773,6.1775668537036745,0.8714700784403593,-0.7042438764944805,8.594304675884452
-6.222496608453995,0.0,0.0,-4.79544912274839,0.0,0.0,-4.534283586449252,-6.790104929516652,7.83700238308482,10.378516246932394,1.5398063930430688,-20.261002184779358,-16.90670045892798,-0.7461342925419748,-0.0006063720796209805,-8.932471010416721,-1.4705986624421499,-4.618119391407983e-05,26.22706682430589,13.944978015452266,6.381297414208449,6.238242976069931,6.181869827593944,-14.366552510152363,16.74363656437748,18.51338018428028,-6.4396768149012065,34.99911775208799,-8.848749847443099,31.677532040405122,129.31836947281568,0.000845036187101281,-102.91192449348789,120.69611878555244,0.00039048284966684366,108.76159805139667,-8.391164748086089,-10.405385228158059,0.0018341831706285686,-7.947389071060942,6.462343535114534,-5.4840839105811876e-05,-7.7312157072387,-8.070189280456164,9.829314162267973,-30.700329187354995,-11.245778788057041,5.923434593570132,0.842734931515458,-0.49638025759594867,8.821770345676224
-6.372242101140756,0.0,0.0,-5.034041292890773,0.0,0.0,-5.10328349035841,-7.065867071760345,7.558019564834972,10.348873031220426,1.2134969100242237,-19.728714426976268,-17.58828561610194,-0.6291173078308465,-0.0007419130840352905,-8.669778004627071,-1.3818809584896048,-0.00041319071164998695,26.670082547519375,14.102595433530572,6.529248456914817,6.079014008921175,6.296605703278724,-14.911644637972872,16.436666423964837,18.73306077325785,-5.732126485642064,35.24245327925789,-8.779179753778976,31.8412027217258,129.41787128838888,0.0030947400956570586,-104.61542279673517,120.5911752452264,0.0003594693652260163,108.35585054855507,-7.53964381099183,-10.11345987927756,0.00012579382023788355,-7.110719372207721,6.580046019557408,0.002739795420015091,-7.613415591067585,-8.553093919827795,9.832231076897783,-30.620662212680447,-11.69145532782998,5.733706038899916,0.8832083383375158,-0.22788020544301985,8.916221933652322
-7.037731884284476,0.0,0.0,-5.470124284999211,0.0,0.0,-5.548649794877989,-7.395975604819668,7.297637233241335,10.361275539554526,1.1559351030631366,-19.08524882229588,-18.622457736117106,-0.6735524361864248,0.00026374728535486836,-8.477498055304121,-1.491012553433185,-0.00024829195491149464,27.38443146108399,14.363491029345766,6.673520656594206,6.062071269468345,6.445603773342677,-15.512066487581857,16.11868416041142,19.106319125673444,-4.897079795647185,35.65353461609136,-8.861644920453193,32.08125903738311,129.47404458408792,0.0010752381897623973,-107.02652550811858,120.56629583016567,0.00043458172933222023,106.8341825443344,-7.038573003501571,-10.187573865041022,0.0009687332350816154,-6.4639316748292295,6.882347946754635,0.0032250562462622953,-7.432567237793009,-9.008833334008557,10.089531625562968,-30.46728327881487,-12.210337614190454,5.790757515518339,0.9477644635434769,0.06679342920183627,8.94950249502859
-7.7648364647157555,0.0,0.0,-5.919416171296995,0.0,0.0,-6.186998352892241,-7.504687087996937,6.914209521838517,10.239534288763938,0.8971697565617357,-18.5932354020274,-19.812248480641117,-0.8605883749143483,0.0005433613516875568,-8.380049101145156,-1.5200607914339117,2.228372821369438e-05,28.20350577604086,14.652441755268862,6.791143270553993,6.11771964702385,6.46183509231774,-15.77398859138661,16.131831749858062,19.452375531974166,-4.274563162105511,36.15966519118051,-9.03390706179622,32.4041108498132,129.24489878031667,0.0044488255958493135,-106.6355243927488,120.51153925726732,0.0005028088317356251,105.66839014838838,-7.076791276962745,-9.964185350765943,-0.0013638212836588376,-6.30451366733875,7.105045337793598,0.001773962798839789,-7.195165399138193,-9.409853615247606,10.442245440789467,-30.250218884053844,-12.715643895245892,5.958096560519807,0.9637648455197491,0.23801841489312978,9.012151676012165
-8.336154343583816,0.0,0.0,-6.2735414258157425,0.0,0.0,-7.200337373387822,-7.408941742299779,6.3540383350292,10.0953166136946,0.5548462169109653,-18.47730398676531,-21.07545565413089,-1.0894837004782636,0.0007263629324545758,-8.387961254088221,-1.4338377327329734,-1.906381267559002e-05,28.95481345143528,14.859811535737968,6.8175185734929125,6.113727622854271,6.300321883085568,-15.697687083502007,16.292939249877936,19.80484456688507,-4.068741421442114,36.80920339926608,-9.08056161881127,32.955139267428585,128.8368712688025,0.006524583766712054,-104.05138455901422,120.29186296368518,9.400767993547789e-05,105.52934862292055,-8.117891239373977,-9.299012789431034,-0.011517190427509713,-6.920323920848478,6.94999359173573,0.003028831833904321,-6.877678100011352,-10.014332126104504,10.728552952811405,-29.975772460336998,-13.382365560938897,5.9813893425667395,0.7885710478163425,0.2644880002420369,9.006503035373887
-9.074287100308878,0.0,0.0,-7.039918173692203,0.0,0.0,-8.427995658522086,-7.289123397523443,5.642967065037861,10.252264908662367,0.5064656548167283,-18.63712649038583,-22.378720461014524,-1.355660774583371,0.0009801478806175815,-8.558916651861708,-1.4534480285215237,5.4259979403475133e-05,29.691597214254354,15.097430883968846,6.855877795699399,6.148685010990272,6.1287797594284035,-15.560440765321935,16.411795087682894,20.323003948196945,-4.032931948872497,37.633448959104356,-8.938576636814233,33.69057849319783,128.63433523433162,0.002753163397602018,-101.94514881519838,120.00277071951434,-0.00121596107427168,105.18939026521615,-9.781975130823593,-8.631287528932194,-0.008687647672426399,-8.237593074108286,6.582958131285675,0.0031514165195878,-6.569931182564194,-10.62403590696163,10.935950096040754,-29.71780443366761,-14.023217335309539,5.928089193367719,0.49872364087909654,0.22479298869204684,8.874357135286537
-9.69869686544761,0.0,0.0,-7.93686160820912,0.0,0.0,-9.830017990218106,-7.389984143869854,4.870894096589022,10.60793705693134,0.7685930901653435,-18.832573817270074,-23.528034435001995,-1.5736279566769609,-0.0004865167508851866,-8.856505730661917,-1.5861787358358672,0.0001719483793961731,30.39677697501672,15.328372757442104,7.071429904437907,6.297496746162384,5.936613713796645,-15.47508378256136,16.57492128458707,20.76928798326919,-3.9121660204244346,38.377692789806716,-8.700187635746685,34.174426343305825,128.91646941997098,0.005911737536725874,-102.23677282827514,119.73202614229686,4.612669864513774e-05,104.78749669418846,-10.649524111805352,-9.054612441390812,-0.004075909365477666,-9.171440382502205,6.330784546351964,0.0012635826817049619,-6.373228081946459,-10.938356394149446,10.915895381201157,-29.55312706244602,-14.304454277475445,5.781894196305643,0.21945924156628754,0.12255666550254402,8.783320688909495
-9.23159977374899,0.0,0.0,-8.02552355918423,0.0,0.0,-11.536436476120493,-7.497552578005508,4.074148858481469,10.749225958774302,1.182319952085312,-18.76345995183468,-24.388214977177253,-1.6854402056127284,-0.0011670440765330678,-9.167012805854423,-1.7749783572776126,0.00022150144781190668,30.877728804530044,15.43205162457991,7.639081852405522,6.431428488772937,5.61486746509259,-15.466827661751708,16.8094528055656,20.874538629738687,-3.719224624825615,38.88409606223492,-8.45873229693108,34.32298279416084,129.43922234321482,0.0014259389218666749,-102.77469404679331,119.50193648778911,0.001593829369871574,105.4741893192703,-10.643427402493773,-9.799558356806545,-0.004343344325508353,-9.180017229777006,6.194935219853437,0.0007426800920695625,-6.156781679756653,-11.019359651439093,10.619389557073431,-29.356447678880667,-14.264285981118766,5.4728850819195145,-0.12077194193042118,-0.05619236469843002,8.945059544119436
-8.886334041702066,0.0,0.0,-8.004328585685109,0.0,0.0,-13.01500812592345,-7.25682618525013,3.478145238428129,10.746619946260024,1.4876688905364153,-18.578599902626305,-25.115330060092333,-1.8990017932953074,-2.0834614293238328e-05,-9.4397686535141,-1.960061033036226,0.00013075321885838186,31.221509093129985,15.463460939460344,8.104139689020489,6.49839273611493,5.2575720999288995,-15.476870970408172,17.09482440739278,20.543711705325627,-3.4607654716116567,39.28539220424923,-8.283072392854326,34.402514653798995,129.80017054198333,-0.0022521620143274696,-101.82730529082016,119.38814654323276,0.0009193304841388226,106.08523756260308,-10.379033192032503,-9.670284406908166,-0.0009771269823272326,-9.055876195475122,5.777019381616985,0.0016944716832044111,-5.850092952652051,-11.123584998198504,10.372077546705771,-29.06942635941665,-14.26443634035165,5.200344000916393,-0.5214314101820812,-0.24924209338588815,9.20591807143531
-9.522083721435198,0.0,0.0,-8.585962755796752,0.0,0.0,-13.861433067557371,-6.980297943592062,3.324840217953606,10.812230735296806,1.4205688802795855,-18.535471873231444,-25.86521789235064,-2.311583166720879,0.0012008769978896587,-9.730274532368886,-2.0224186640176622,-0.00013010296142361343,31.64726087965464,15.550955284654444,8.110156652365605,6.63517941235969,4.976518324418367,-15.401015603089473,17.372067895379875,19.986458321972865,-3.0775971336427044,39.681458791868735,-8.17665709805113,34.46172606038157,130.01380081861848,-0.0001654210794410178,-101.33653035971483,119.42198684224275,0.00097438949441608,105.53853581548994,-9.523128012777388,-9.10446733930525,0.003114201277446605,-9.076868359330575,5.292296015845168,0.001645350270640688,-5.604876303477575,-11.321819946930574,10.313322376853007,-28.846303028059243,-14.423868232799771,5.06496763135571,-0.8653407629121155,-0.3926485296254073,9.351712738406531
-10.382991426260103,0.0,0.0,-9.340405811773046,0.0,0.0,-14.15094684461633,-7.114030741208839,3.606628117665074,10.933250968585465,1.1560065131400152,-18.62169528026077,-26.71143447846963,-2.735034637773645,0.0008808675451965699,-10.045627813948283,-1.9171893729532952,-0.0002799411845765017,32.2122818271062,15.69553867293146,7.87823829249964,6.8617997235430614,4.75345097301603,-15.27486199123197,17.56503255336982,19.587956477713234,-2.707665131610099,40.037107158972,-8.075528460578358,34.51212872187984,130.13554740274176,0.0010337848838818592,-102.44735635852243,119.46708850954299,0.0006157384471473025,105.54443372434238,-8.208762800449156,-8.514625771368232,0.0030736130119237664,-8.998162040155194,5.2231698701903495,0.0006411811417383084,-5.549732379189582,-11.416272738841627,10.192588756158043,-28.804984029976616,-14.463927816053028,4.914167669733755,-1.0827203637702618,-0.43748702838888565,9.308419102305356
-10.466480000000008,0.0,0.0,-9.39126000000001,0.0,0.0,-14.059320000000001,-7.552379999999996,4.082299999999995,10.903200000000007,0.8952800000000035,-18.68813,-27.50398,-2.9832599999999982,-0.00016999999999998993,-10.285349999999998,-1.7464500000000025,-9.000000000000318e-05,32.632090000000005,15.83243,7.7528500000000005,6.932290000000003,4.582670000000002,-15.17943,17.66452,19.288860000000003,-2.602409999999999,40.26492,-7.920970000000002,34.53690000000001,130.23454000000004,0.00033000000000001274,-103.77173,119.45952000000003,0.000180000000000005,106.59359000000003,-7.078050000000011,-8.210650000000003,0.00021000000000002237,-8.907270000000004,5.538579999999995,0.0005699999999999977,-5.59119,-11.393540000000003,10.044820000000001,-28.849130000000002,-14.385850000000005,4.78603,-1.3100699999999965,-0.3707200000000015,9.225550000000002
-9.259372826678936,0.0,0.0,-8.120404525677834,0.0,0.0,-13.688350289398834,-7.710564554172146,4.357770018593499,10.570477278667271,0.5279129247939764,-18.591522213201447,-28.00822124819365,-3.0416102151825397,-0.0004907582802669237,-10.418033683430389,-1.6264312191331494,2.955789908658363e-05,32.68996295467701,15.946044037066283,7.844573069067443,6.744248983420616,4.505502242093447,-15.231173962412436,17.89968112840797,19.011643418177705,-2.8134627148707843,40.36951191079792,-7.850097687597162,34.455560942795465,130.34634755048825,-0.0003671774919542686,-104.19892137221903,119.52110969366159,0.00028610872936818996,107.1149777305155,-6.734096144347605,-8.475839921979649,0.00044977469112252917,-8.76997688623016,5.839492019217593,0.00021334947833565472,-5.579622634669324,-11.399149345687972,10.072219263549584,-28.837224234873933,-14.401606410162541,4.809207642841147,-1.642046195329519,-0.19826289155379057,9.224617820292393
-8.154441332182127,0.0,0.0,-6.631269826635658,0.0,0.0,-13.114330345532842,-7.585852987259741,4.207034865864879,10.227806066167727,0.09079209831700422,-18.35192328415202,-28.1531965878297,-2.9693989622903887,-4.148794282787928e-07,-10.553407175135945,-1.6120511368557813,-0.00013773804110611711,32.656416470983444,15.99463149165988,7.994169928568669,6.627781154139199,4.502444920112329,-15.459143539578267,18.37067947104803,18.840651860274235,-2.999145493268876,40.471526154328174,-7.896416262511117,34.40195637760045,130.42723104448075,7.489768312289951e-05,-103.71822049369312,119.67850672680838,0.0001636190373441227,106.78802394010921,-7.061035013575879,-8.79543181266494,-0.0019824884217952174,-9.022090254486066,5.886660362800728,-0.0012671809258243368,-5.535440865496932,-11.438332009132145,10.192915637377531,-28.792916554898724,-14.484320354097713,4.9054778843087,-1.811693976653779,0.03527842422232018,9.15705331066221
-7.766888625299383,0.0,0.0,-6.2605532529774495,0.0,0.0,-12.692354722650299,-7.842320627852621,3.922455007369966,10.28193946341179,-0.1766156223084394,-18.286334135320963,-27.87165944923228,-2.971169013397821,-0.00016801192429592414,-10.833922579223604,-1.6402679479635358,-0.0003597735762486422,32.501897520831996,15.964924744912325,7.975280097830516,6.672322109135643,4.464244875269322,-15.520928739827204,18.7782123248154,18.734349355376835,-2.9570197161199556,40.513368575309606,-7.894617224248799,34.443751894901055,130.38287929331108,0.0023034901652366976,-101.3152301359896,119.81541650762132,-0.00019197247508435784,106.93035612607201,-7.968247574526375,-8.31530964592408,-0.007132978487293429,-9.671527656942867,5.979968555731617,-0.0013554247629337917,-5.569543852920029,-11.449103618750472,10.326095460288071,-28.823501750952456,-14.54575751406007,5.0249604899527,-1.785945262986673,0.19867183670918434,9.034303262570369
-6.626857536604535,0.0,0.0,-6.465756587883301,0.0,0.0,-12.825927057319177,-8.173862171897404,3.5005591297515197,10.693805418936149,-0.11434683394326582,-18.42862232875549,-27.22079548639066,-3.123814876764909,-0.0009587672316753264,-11.28922203804323,-1.74852151530737,2.9819042362986657e-05,32.05915581523996,15.975028354537404,7.940897906181087,6.743861878258381,4.4462736388089255,-15.358949102984445,19.013973112443054,18.53172026539509,-2.8696774810810024,40.42511104091058,-7.8917855505428465,34.366350215748696,130.22802756765216,0.000987198230990482,-98.89521801012877,119.84740179745472,3.5202481281781585e-05,107.1392476622089,-8.911117226409766,-7.6757195440779995,-0.0014571138191956066,-9.959487834712592,5.682635310982975,-0.001281609558166868,-5.610763472920674,-11.508880286594131,10.432304670838283,-28.867110507516422,-14.641770452400214,5.099387120041213,-1.789519252460965,0.2857732689856742,9.070385162190897
-5.527331041820135,0.0,0.0,-7.34300743903827,0.0,0.0,-13.38937409277722,-8.171636950842597,3.176768244157753,11.3865206098636,0.4768143721726398,-18.796598568756934,-26.410823871446684,-3.2849818656203578,-0.00028420478085845296,-11.891901363282184,-2.017399424317632,0.0008915847464925958,31.59405260684856,16.0333814034215,7.897564709785731,6.907212376169841,4.590673778643895,-15.243323341953067,19.348260185839333,18.266711090670253,-2.9342785222490573,40.19878171669906,-8.080626800992123,34.05246331961449,130.10816492200635,-0.0002981832609030473,-98.45618342041911,119.93717073265289,-0.0006786527220261974,106.99523883796302,-9.003048730126936,-7.366965895515685,0.0021104991669184505,-9.84619640372712,5.287475595655619,-0.0016662358702416915,-5.611277710153598,-11.470994981334934,10.464881790266729,-28.86255265964004,-14.619564937030658,5.1451658818433925,-1.7866636749991718,0.45850889317985755,9.166223864791364
