PaulMeinheit/Bachelor_Muay_Thai/processed_Data/E_01/E_01_Teep/scaled/JointAngles.txt/scaled4.csv
L_MTP_ANGLE,L_MTP_ANGLE,L_MTP_ANGLE,R_MTP_ANGLE,R_MTP_ANGLE,R_MTP_ANGLE,L_ANKLE_ANGLE,L_ANKLE_ANGLE,L_ANKLE_ANGLE,R_ANKLE_ANGLE,R_ANKLE_ANGLE,R_ANKLE_ANGLE,L_KNEE_ANGLE,L_KNEE_ANGLE,L_KNEE_ANGLE,R_KNEE_ANGLE,R_KNEE_ANGLE,R_KNEE_ANGLE,L_HIP_ANGLE,L_HIP_ANGLE,L_HIP_ANGLE,R_HIP_ANGLE,R_HIP_ANGLE,R_HIP_ANGLE,L_SHOULDER_ANGLE,L_SHOULDER_ANGLE,L_SHOULDER_ANGLE,R_SHOULDER_ANGLE,R_SHOULDER_ANGLE,R_SHOULDER_ANGLE,L_ELBOW_ANGLE,L_ELBOW_ANGLE,L_ELBOW_ANGLE,R_ELBOW_ANGLE,R_ELBOW_ANGLE,R_ELBOW_ANGLE,L_WRIST_ANGLE,L_WRIST_ANGLE,L_WRIST_ANGLE,R_WRIST_ANGLE,R_WRIST_ANGLE,R_WRIST_ANGLE,NECK_ANGLE,NECK_ANGLE,NECK_ANGLE,NECK_ANGLE_SHADOW,NECK_ANGLE_SHADOW,NECK_ANGLE_SHADOW,Trunk_Joint_Angle,Trunk_Joint_Angle,Trunk_Joint_Angle
X,Y,Z,X,Y,Z,X,Y,Z,X,Y,Z,X,Y,Z,X,Y,Z,X,Y,Z,X,Y,Z,X,Y,Z,X,Y,Z,X,Y,Z,X,Y,Z,X,Y,Z,X,Y,Z,X,Y,Z,X,Y,Z,X,Y,Z
-5.709860000000001,0.0,0.0,-1.9470700000000003,0.0,0.0,-9.17549,-6.846910000000001,2.436650000000001,16.723100000000002,0.20797000000000007,-20.423,-23.869730000000004,-1.8614000000000002,-6.0000000000000015e-05,-21.2891,-4.76612,0.0024,29.215860000000006,11.715200000000001,8.077660000000002,11.63704,4.39803,-12.61071,29.870780000000003,20.80849,-4.271940000000001,43.20602,-10.33311,34.82967000000001,131.21028000000004,-0.0006200000000000001,-103.51073000000002,118.04192000000002,0.002640000000000001,102.66441000000002,-3.960530000000001,-11.826740000000001,0.0013700000000000001,-10.569170000000003,2.5773500000000005,0.0007200000000000002,-10.649900000000002,-13.050730000000001,10.446970000000002,-34.07348,-16.063140000000004,4.479590000000001,-1.0631400000000002,-0.08899000000000001,6.264210000000002
-6.288035078656975,0.0,0.0,-1.5483078525698284,0.0,0.0,-8.001726334890977,-6.493431601561955,3.9156529510855895,17.587079688007616,0.9469087085393029,-21.12441554977473,-23.642400563782985,-1.6774248769450004,-0.00024428207197981237,-23.1108284610187,-5.2183518565147695,-0.00017706583502056085,28.945648511802013,10.85811458426726,7.479977433977683,12.384032724803477,4.34920567321546,-12.015874940664013,29.897054926067554,20.571722439383954,-4.409083846942873,42.97006307526239,-11.368109842559967,34.47325176071412,131.28877051595677,0.0018662673659999806,-101.15171859266773,118.39689477616851,-0.002192982453599042,102.78422339183362,-4.179195900317432,-11.53547138916732,0.00039985966545767325,-10.724089557314638,2.754612180688548,6.641794969750888e-05,-10.277303450991441,-12.494984478372448,10.317478100730126,-33.64263823332229,-15.502941457777512,4.5884423977041155,-1.0388984169607682,0.15007321979035365,5.782577358914172
-4.791912894386071,0.0,0.0,-1.1800533621553337,0.0,0.0,-7.358319082900386,-6.471520069038313,4.439627502693046,18.004205037250095,0.9035030101133202,-21.499747818107018,-24.26715319685157,-1.3577285013410578,-0.0026415313411785888,-24.782158461301982,-5.329544807645272,-0.0018309976223260496,28.926647039076784,10.208898896300374,7.282221736623357,12.870665296152463,4.015789292624775,-11.93213576783831,30.281371276388054,20.64043013715948,-4.485400998290843,42.842323086478004,-12.31593408248761,33.93552777459276,131.22127046526293,0.0017977320496158499,-97.7941914575667,118.79371624109388,-0.0016939217904792998,104.05951084246543,-4.0179211991904475,-11.01717966609519,9.327265814720692e-05,-9.939421984359024,3.6753297351166174,0.002642885335731294,-9.844245934169011,-12.149741604364172,10.082647728963405,-33.17965219235588,-15.095046873606325,4.511939895444127,-1.0668716580077255,0.4105562662079863,5.501458515462366
-2.9501599139047485,0.0,0.0,-1.3302747003581241,0.0,0.0,-7.445781656671655,-6.528842066012157,3.990189708917724,18.10834581901848,0.4911906818578877,-21.562824590448002,-26.172759867396717,-1.1177544405556874,-0.0031431479523666324,-26.22636809095935,-5.3450429002447875,0.0010202302897461858,29.729064940284907,9.953952431747727,7.691597741422301,13.415825756065013,3.3715526829973275,-12.258688610261773,30.676037247218762,20.874645136240833,-4.48872650689607,43.04683643846159,-13.131673437535774,33.52114340922406,131.52132490695945,0.007089870439834004,-97.27157598857849,119.00738469978234,0.00012793333354561617,104.97117383742236,-4.356414124995511,-11.934356365131613,-0.0018434467784685178,-8.542590499026618,4.389111719716522,0.0017986442890464902,-9.50809232680703,-12.203544063415475,9.984428652066248,-32.85231258041323,-15.106407557989753,4.3985674238476635,-0.906242564725201,0.6955237461024045,5.453386028730816
-2.301393086365416,0.0,0.0,-1.6440209887229997,0.0,0.0,-9.365133843500379,-6.292628133511677,2.5505948036328796,18.194984521501635,0.5548895719064306,-21.390818020016987,-30.123925621100643,-1.3286319018823616,0.001933929735797858,-27.48695934849536,-5.4604006982050945,0.0009621300786238092,31.846901551731072,10.277706659119406,8.5584281969586,13.928628786038676,2.370288628845786,-12.860406699704225,30.96761576950567,21.10295468489715,-4.571270715223144,43.590007244685225,-13.817224479316986,33.368959174873865,132.1038724396341,0.00459506078576902,-99.18220805516117,119.39776488681335,-9.814641184188147e-05,105.04090965976454,-4.360409000641039,-13.779344654545739,-0.0034703621218482327,-7.533527424976872,4.7472373221919435,-0.0005827982541002045,-9.118807376597715,-12.461829566771435,10.367626348455163,-32.47887590045968,-15.491921074773082,4.648741167931966,-0.7566622937798069,0.8379439233175671,5.452833606460777
-3.645958785132295,0.0,0.0,-2.1675431350759045,0.0,0.0,-13.613163819519547,-6.389946314370369,0.4386853815673066,18.614946805857148,0.37785778088021943,-21.76311572124218,-36.47845046685261,-1.7689305059034397,-0.0011354183778358128,-28.815595849619655,-5.02558509401232,-0.0031015782252665903,35.33196769547694,11.077728800594924,9.514377145729817,14.083809526765545,1.0015644362268576,-12.569322201009523,31.663107430368097,21.521953801044525,-5.167774500988199,44.33607537042787,-14.21919686699522,33.63575569195775,132.59752558499105,-0.004744230675190385,-98.96759081414619,119.85106283995931,-0.00043088237120157566,104.70595439180588,-4.5382904793882455,-14.690785614440497,-0.0001795953968113669,-7.93705916095009,5.03422792672205,-0.0018588949529294008,-8.618678751595096,-12.61142890903742,10.734874572293009,-31.982966664959957,-15.771416479189122,4.928876131316157,-0.8800668020181718,0.5852396388877503,5.512053147027833
-5.622659475712018,0.0,0.0,-2.808484390156379,0.0,0.0,-17.989111157897685,-6.281190726484295,-2.2846880774562095,19.440703292478172,-0.049088967069464196,-22.316927639010682,-44.885819305486365,-2.201974249526156,0.02066916952293221,-30.221193196880474,-4.299917417578785,-0.0025684489734530934,39.78444183886552,12.023916471670136,10.00366398642946,13.85928044326817,-0.6493591989980655,-11.862941729098422,32.93841496715691,22.10864657337381,-5.881198603672218,45.45493662400915,-14.36652177768687,33.78826835837305,133.31136091096283,-0.0017476266155850633,-98.37805401509962,120.23004467317456,0.0017368313732024757,103.48163995214595,-4.16714025666853,-15.491437559394472,-0.0041883325901528115,-7.360436257762983,5.218781000037764,-0.003958111679641901,-7.9763103061610385,-12.758654727650693,10.880320224374827,-31.35211998752425,-15.962847349752757,5.003576166136403,-1.5528506828714208,-0.07136225454183494,5.474140933756033
-5.573914657680015,0.0,0.0,-2.7468018944771946,0.0,0.0,-18.83044873474855,-5.7991609960913335,-3.999259503239208,20.281665098891622,0.04785712859393409,-22.471841501064304,-54.86639659108876,-2.771011410250856,0.01804783797183791,-31.697600980851146,-3.946941227440034,0.0029269173502983314,44.766160282209405,12.906217502584749,9.71314829633691,13.426615238633817,-2.53245545773059,-11.7076483471228,34.60726748892211,22.700617750054484,-6.665483703512378,47.236151622242176,-14.606065027177818,33.70656812666918,134.14299054974222,0.005064892555156335,-99.55251468456893,120.43635791770691,-0.00011695470065818076,101.28161649158949,-2.807694400154295,-16.4227288111619,-0.004779235561499751,-5.1327498796348765,4.7517535443089125,-0.004150318129297973,-7.321068561558043,-12.967195604601974,10.63528980064717,-30.728998811336886,-16.059407492320048,4.689349146588878,-2.710289864980606,-0.9196970616068072,5.344224226896931
-2.4338843001818096,0.0,0.0,-1.439107435547377,0.0,0.0,-15.978679837517088,-6.006471143435674,-3.365514999532225,20.65121192338971,0.7912772664314547,-22.127908727497527,-65.42577963814475,-2.471570816662379,-0.035634387183229185,-33.26851901536928,-4.095585534173921,0.003693890967619023,49.93510176766208,13.42161664164425,9.966509919732763,12.790219507305059,-4.791633125022253,-12.22855119296683,36.459181945377466,23.012063622409983,-8.195292726251989,49.570016231240984,-14.968096635959819,34.321324977049535,134.77222936136104,0.0028929834854089804,-101.82536245585412,120.49287745482438,0.0003737549557191034,99.86263844552366,-1.503404257852648,-16.841779513163072,0.0024609542477075884,-4.717275992592604,4.147574496887899,0.004351284352779807,-7.147462146211245,-13.111916428217665,10.005653684989303,-30.591272071945017,-15.94832898242758,4.04395041307845,-4.0424400267022085,-1.831227523923505,5.1847105631258
0.8007980145763044,0.0,0.0,-0.5821240453864956,0.0,0.0,-10.702456091849763,-6.1200776303454285,-0.9847543767570164,20.98462147350173,1.1105483113427153,-22.23106549551792,-75.34273356781785,-1.6681375395978715,-0.007272304069072253,-34.801854586025364,-3.7706248726802083,-0.003512641902654365,55.281268576675686,13.750388175635395,10.548925429778345,11.957673209053896,-7.314721602405751,-11.949949077847075,38.38047113375766,23.40325683881337,-9.951612137261423,51.92972574548426,-15.351243293734793,35.537373734484596,135.1042491356837,0.00117031140640911,-101.83575961876376,120.87483412180313,0.0007040521073689233,99.09716152531172,-0.5603268768879572,-16.344437531654886,0.00165771307984758,-5.681397667427125,4.479101247858468,0.0008410554380909393,-7.547408983936214,-12.943172090126591,9.492416246179166,-30.98613691709406,-15.594594112597623,3.637008547855963,-5.129328037371944,-2.80108970816905,4.73862462720053
1.744730070146354,0.0,0.0,-0.11688821096161292,0.0,0.0,-4.021886269667387,-5.3856359195310155,2.7511135999133987,21.63154648314266,1.1521183111512134,-22.806808878330916,-83.66195170091086,-1.312917951098443,0.018497760340278616,-36.46727632712545,-3.0833263903980344,-0.0020738754816343567,60.354140970732985,14.49409613522915,10.658749742214678,10.785282594988894,-9.881504337270453,-10.874253673103762,40.52390303625668,23.959060724508856,-11.717482617915527,54.41742492907188,-15.849262377245271,36.88281849387913,135.12329645553078,0.005826509759671384,-96.11949966851459,121.33904183179966,-0.0008465867213247986,99.93276576521008,-1.5803642633858899,-16.12734752458276,0.0036013885486952148,-5.945575224844223,6.006342143559547,0.0023762001147285823,-8.128075545987272,-12.644025962621138,8.914854249958154,-31.54807792109997,-15.096167775063828,3.2244581683022084,-6.490815879061295,-3.8546021943280664,4.384288200288731
1.6707119165955346,0.0,0.0,0.4994590095662943,0.0,0.0,2.5154990055754536,-4.279125541947968,7.973730726087929,22.628333155114984,1.4597442138615502,-23.18937994536304,-90.00342089354861,-0.6847239342367905,-0.005595377978544999,-38.16370922493955,-2.8616193387605846,0.002220773651969307,64.96653567854382,16.308485850810932,10.966017217862822,9.101958834323844,-12.25536192262123,-10.015221885490266,42.78464493201781,24.44323524846863,-13.91099161204561,57.211130688398804,-16.45296492461223,38.23548069351317,135.17528301845752,-0.0017559390365695215,-90.30134161158225,121.26366069666211,0.0002910468559011193,101.36049098500007,-4.613191085189802,-17.151307541152114,0.01006929071442286,-5.683572182962256,6.447391514223269,0.0007345035231804649,-8.384005345947182,-12.710943402146151,8.665924111244523,-31.816590174256095,-15.061021284502132,2.966110851485156,-8.5316480189056,-4.889850086071357,4.6043528667093705
2.548162331549525,0.0,0.0,1.0273250372118727,0.0,0.0,7.488050729335134,-2.7540238784452016,12.692728215225456,23.86665678461851,1.9068434707833226,-23.265180848747928,-94.025058329864,0.93026562040024,-0.014115334395859401,-39.35719330996528,-2.779443397254628,0.0008792756197354957,69.48353282751002,19.006749663202058,12.020871319504533,6.896992823949453,-14.567794675039082,-9.458404610684006,45.041147309533855,24.934630262811993,-16.408911301977856,59.69634467138708,-17.49523887590395,39.218000709745766,135.39334142904625,-0.0036045508337004925,-86.72876174572875,121.31492184780326,-0.0001934834768433612,100.8153384030894,-7.2042301964369875,-17.404383330032374,-0.0078036697141532566,-5.326091392860592,6.199752140669814,0.0005993754104898156,-8.249051015043285,-12.670077135167718,8.708465889342104,-31.676362175997035,-15.040028068794118,3.0223765958035305,-10.629884518972807,-5.930390901313421,5.107144594422282
4.459974871978051,0.0,0.0,1.406277033662951,0.0,0.0,10.312513938317153,-1.2439107957684756,14.656888256188191,25.28930509458191,2.481576012555762,-23.043545982773523,-95.27690712040837,2.7313105896121272,0.005944226540006573,-40.27433611138799,-2.426854923658237,0.0005160607300859535,73.94405520455342,21.57615839692557,13.13005414734829,4.322354198019378,-17.444102862251608,-9.313224737251783,46.97090286931247,25.164287556310512,-18.57269680536939,61.56841852802149,-18.977145087707463,39.79940972075487,135.51597252039912,-0.00043911803848810106,-87.19691758648251,121.94272611771896,0.004640797944501489,98.88460080952903,-7.208181615386802,-15.817382413976722,0.00698913659879584,-5.902054488807134,6.964020031345291,-0.0049842790119879535,-8.112522985005855,-12.103128080413882,8.588934304564706,-31.483114864534304,-14.473333123440018,3.1444059299279234,-12.602799874507904,-7.4151495199479704,5.143093214231537
7.211067119522687,0.0,0.0,1.5127451117853843,0.0,0.0,11.88234959774279,-0.8760754188241249,13.628629575021098,26.990775503476403,3.0334759181340383,-22.741994353499194,-93.87581173766424,3.7317131621393793,0.016345158128171413,-41.24567550513333,-2.0212195716929218,-0.001501108372161185,77.88508619671941,23.916693046712325,13.422475418795045,1.4602172959096391,-20.857074011292962,-9.45633413332194,48.46310377084721,25.488741648810077,-19.737828291723297,63.170163617440004,-20.669864531360773,40.14571014753066,135.54433943773734,-0.000299816545277698,-86.56368410658365,122.82752110726895,0.007987342895370588,96.22636773354522,-6.882612376699705,-12.680333603376791,-0.014639011375205707,-7.396159386405739,7.79259633604404,-0.0018739439307380594,-7.934799571571604,-11.571934152521042,8.646959492534487,-31.25064959702748,-14.008116396492351,3.4153511812617894,-14.810653633690194,-9.291707365298008,4.7146423087859155
12.521907259206163,0.0,0.0,1.0488298195851224,0.0,0.0,12.447259128570417,-1.322308283443951,10.5944222562609,28.519930574251475,2.855216346518012,-22.76306616800671,-90.12528497772159,3.8969716009441395,0.011695937669923651,-42.09167597429711,-1.0106631743362329,-0.0023419014295597233,81.24858588571219,26.619126195460936,12.675311237462079,-1.3248446936983238,-24.01506184417661,-8.644326573301262,49.8477403437854,26.160847192617588,-20.42045312858428,64.29084961320777,-22.097946890363357,40.190894570261854,135.46130323097466,0.0021849870333333654,-81.88346544242701,123.84090336014165,-0.0048219806950415825,95.18401363562546,-7.84656354235959,-9.931286662288583,-0.01281733509027603,-8.009174076079677,8.491619061914875,0.003779516475909636,-7.255077100346643,-11.65591809420952,8.927802043339035,-30.572348670041094,-14.194120069897503,3.6415539023515517,-16.92318927518706,-10.8475735081858,4.168755707418677
17.198944335184144,0.0,0.0,0.8633313601937092,0.0,0.0,12.440928965972844,-1.8710831670060473,8.497840846699143,29.642064007839913,2.9320165788513313,-22.872047564185422,-84.3166600153072,2.8744669663005755,0.011487998354588795,-42.60518072953312,-0.38024806730682903,0.0009381790731191155,83.90175185231645,29.24400433060717,10.995269594290065,-3.944157754485566,-26.728575792952718,-8.160062481628858,51.242341281686194,26.832049266542036,-21.225250899364962,64.97043389650233,-23.449115494274384,39.746583586562586,135.2998763215839,-0.0010661961348228102,-77.67027645633551,124.82755997442116,-0.0058826113070599585,96.45701932534973,-8.402766412851722,-9.88534911418166,0.0017723855625980903,-7.219508466580318,9.336476094983093,0.002678536237487629,-6.579652671639116,-11.989576832133809,8.896834706199916,-29.931486188635162,-14.488495135121628,3.4764263071265993,-18.52307734013613,-12.128454996252481,3.2074595476773786
20.774620741324142,0.0,0.0,1.9000028739418067,0.0,0.0,12.1109472265016,-2.6667071337969563,9.994287121182037,30.156084490128947,3.372749757385934,-22.934004715143686,-77.00841099706226,1.006872721652245,-0.01980306872614368,-42.971325472155506,-0.5077143617082077,0.0005812021242090881,85.29419330280865,31.473650979147788,8.63122742116614,-6.31023459229843,-29.38987278743132,-8.208749031208164,52.30331987226086,27.326586055640266,-22.099258165486905,65.7446714133297,-25.789885291644282,39.34081089399216,134.97259253387745,-0.008908332108150226,-77.55532411701884,125.7750002531042,-0.002964037530310103,97.64486971501049,-8.334656031644151,-10.156106389884725,-0.0002268135380906231,-7.134710636306591,10.013823459386494,-0.0027150407159295107,-6.553458029957562,-12.273304424324815,8.286055200694845,-29.947799426432557,-14.5120439537155,2.793974453662043,-19.777935133963265,-13.538628353574392,2.4179929315492403
24.82283001775692,0.0,0.0,3.4803863199053007,0.0,0.0,10.423865229812238,-2.359797901597375,13.79129377817652,30.232775600250314,3.137046261739979,-23.180444291605735,-68.89767814817253,-2.3577908119615087,-0.07225452565703627,-43.34593598233486,-0.5126750061634637,0.0003020815923012901,85.0840014532301,33.834266614791616,4.827828661024249,-8.263734666023531,-32.26002673103612,-7.358682421552429,52.54813250256429,27.877014830883812,-22.52311061644274,67.01093381048923,-29.60585395578538,40.05187194462372,134.85418485206304,-0.0034293766510417765,-80.2547818004862,126.71975430827962,-0.0014418569529738,98.14005237661432,-8.058733992230724,-10.848133515250078,-0.0006509015429886196,-8.297660553876337,10.011968064087181,0.0006786116823531321,-6.951638209421532,-12.730792436341329,7.403696055398961,-30.40735630345596,-14.589350716913753,1.7894490913899155,-20.58613298523713,-15.043908968081183,2.358627315162748
23.475655575588792,0.0,0.0,4.972350296666338,0.0,0.0,5.992285954473601,-2.0005313630816164,16.489935134085634,30.29249496350239,3.333603087231273,-23.244863617707466,-60.42716776469739,-5.20777710564341,-0.002302982368776441,-43.54193134733207,-1.0699422743460123,0.000313574929253934,83.09918621869456,36.90352938929189,1.9717985134129348,-9.81228794115324,-35.28403392555443,-6.528825700146031,51.59095965814872,28.95545022405129,-22.323536679260556,69.07740317546875,-34.36816554123317,42.27265025593496,135.25629773790996,0.0050920538110110145,-84.55723842977791,127.71605968741194,0.003745058261460974,97.10747998148871,-8.29192509431274,-11.935401589328476,0.0032950833162986057,-8.8189951153196,9.544152333298445,-0.0006501038318729386,-7.522745006229627,-13.232526209246323,7.561607222212111,-31.029506800183697,-15.11084571851292,1.7286360800750415,-20.443849462866577,-16.426708734588946,2.8265284882547372
16.056903436971307,0.0,0.0,6.168770606289364,0.0,0.0,-0.33307739103004674,-3.155297791819317,15.232128336014185,30.070632309216396,4.198392968096343,-23.01532783523627,-52.026838862180014,-5.978111932394668,0.03835778642662389,-43.119762540569646,-1.8883394190420644,-0.0011488011360626972,79.16425527293612,40.89365209168381,1.4673358943432493,-11.159350087712467,-38.26834773316876,-5.739237942689162,49.92217714829971,30.19573853502349,-21.823615745954527,72.40792138908418,-39.580402735861156,46.39031709482648,135.90481243311834,0.005578223926726766,-89.18541688554531,128.50914213718738,0.006855395391392622,93.97037698303363,-8.520020166045708,-13.114450787727481,-0.0029841223894369415,-9.046138704172067,9.688302062499453,-0.001028669841700392,-7.9195139459571955,-13.674074815849895,8.425455068657364,-31.462728561232918,-15.851035797429855,2.345077911449318,-19.304840493794547,-17.307797675295216,4.319497827594837
14.398721997140203,0.0,0.0,6.86848607318338,0.0,0.0,-4.633597379495779,-2.699602236786743,11.521924899285628,29.532738957462634,5.223885004896578,-22.351627966673778,-45.08231668260936,-5.981313295089312,0.011651800585971627,-41.728591348447345,-2.2064557737981163,0.000524086811429698,73.99575344819323,44.77221886028762,2.0495018692945854,-12.66949301576333,-41.00006113271638,-5.12354448356241,48.18963537331297,31.119596690087917,-21.165387013140094,78.10580803072509,-44.879815124248125,53.31983084996315,136.75461688309747,0.005825902962689618,-92.65907199861607,128.9494263522881,0.0017787058583150785,90.3050299930502,-7.591138694645463,-14.450061039776553,-0.008607752841643461,-9.440000840134964,9.419630332208039,-0.0011256160518060862,-8.548900719315029,-14.387201203012836,9.183305157233095,-32.16202492282065,-16.798722274584453,2.7500072907424955,-17.525567866869093,-17.109266023076163,6.662285914139812
17.583079979825442,0.0,0.0,6.810200755452034,0.0,0.0,-5.202435533806959,-1.31617539143347,9.505116270390936,29.021424894962966,6.428328385291191,-21.816887570244024,-40.25786406153648,-5.89288540119226,-0.004043693891223316,-39.4696043922965,-2.2033616525692077,0.0024705292423030825,69.25290756641927,46.92918524025208,2.8803287244653353,-14.546389867909555,-42.646403221645365,-5.40087737818146,46.63782941140281,31.853588894308466,-20.73843028550813,86.45692132257875,-48.94822262983115,63.393718597324714,137.16260290407266,-0.004437736209173008,-95.01081145883026,128.6960108305594,-0.008761025263134933,87.33944954300048,-6.1244332659597,-14.660889940448971,0.004654373458981095,-9.577267850599668,8.504827937856366,-0.0011199977709343807,-9.874522653042936,-15.17422887915448,9.607764529852442,-33.57728243294719,-17.68429437696739,2.8129470608514233,-14.947174067492092,-15.65559770632564,8.50079832596336
11.469817456086195,0.0,0.0,6.227889747495185,0.0,0.0,-6.104716276008293,0.25815134527247324,10.840294425988521,28.590656678181148,6.94640824848198,-22.095850143814136,-35.55017854175629,-5.582078264941206,-0.01678173475314572,-37.124972543526475,-2.265749339545472,-0.00041182920140305667,65.29446869045475,47.3372610855632,4.331923896301758,-15.968380146689272,-42.595691791991975,-5.841696605807081,45.18739475679892,32.21769474381087,-20.868040186086986,95.26013600461042,-50.66503420213127,74.51678042104514,136.9183626831849,-0.004757408351788586,-95.24054152416754,127.78905385855542,-0.004779119576975089,85.08557059299163,-5.238554366572527,-13.651544770013317,0.00023379191377788077,-9.928610231001999,7.476566454321522,-8.796686143883657e-06,-11.660479611256823,-15.509922703878019,9.209996534432198,-35.4137522198213,-17.837249044629676,2.302371076018695,-11.42177909194556,-13.463902833711938,9.534444216207232
-0.39227593435177716,0.0,0.0,5.581522997791223,0.0,0.0,-11.360622767353043,3.9643365695171173,14.988478901416435,28.116132436530254,6.781548146290878,-22.4552931812632,-28.70596076806388,-5.17929019080488,-0.009696920348170048,-35.403637581435376,-2.619345270451602,-0.0025898547266072353,61.544761335216975,46.757988613476364,4.850814609120395,-16.060642158289383,-41.076932186779494,-5.804341016916526,43.95926065091364,32.19910126977754,-21.2518119924469,101.85311329417141,-50.54517925630529,83.54089356451374,136.66865784368412,0.0015923475299450952,-92.11903101002154,127.2811946094145,0.003995950686657822,83.70707648502906,-5.601931222564601,-12.82472832717673,-0.005550300757959472,-10.729312011011798,7.673636557554716,-0.004590977094948439,-13.173667484447288,-15.550082933227932,8.467915608842027,-36.942409217587766,-17.585918403224156,1.598428594861242,-7.975677986770836,-10.927212410790554,10.213064122556725
-6.619544485671137,0.0,0.0,5.696424124393066,0.0,0.0,-17.399972850349815,6.482319162371783,17.85545483583236,27.36735770672206,6.990997578940586,-22.146751705312138,-19.880738940951993,-3.9128656757636726,0.044767954529619576,-34.22237711324482,-3.007098319562343,-0.0007921300444969747,57.43560756411162,46.120571127115824,2.8303199379605273,-15.039206266361704,-38.67039081270862,-5.290559874689621,43.65312215667909,31.789636779890156,-22.106528757215255,105.24769827496858,-49.87060988851139,89.1001938822472,136.27789131002027,0.006166340895888729,-87.18461707745546,127.46690829044283,0.0026923556389471717,82.36873859231949,-5.860741336282657,-12.765763436719373,-0.001157489185662565,-10.831477663914834,8.463199757653214,-0.0007186132136880713,-13.982542775475556,-15.20172912301226,7.2931575673119875,-37.71726697407747,-16.810831796118464,0.6600211293051825,-5.4950580313130795,-8.31795725338745,11.127598048279529
-18.64637645533718,0.0,0.0,6.324066824331881,0.0,0.0,-18.57480637406552,1.0060092313067255,19.370454096398536,26.445813823473156,7.030893698540115,-21.61805452229724,-11.289075569702083,-2.025987431501182,0.03273952622293391,-33.01709072263326,-2.6969290748650017,0.004520295122668877,52.472500036697184,46.983218366358784,0.16470008700059519,-14.220567166702098,-35.94722429668314,-3.806138114661614,43.777166964221934,31.684554256782846,-22.66237891319708,106.29751485147901,-49.33125502189411,92.11548509740895,135.82439962213715,-0.002371664981148211,-85.26167450261579,127.81184203374075,-0.0029647726199662685,83.68633505826845,-4.8818584574555075,-11.947652610412096,0.01179061976802924,-9.88773498658821,8.761409322774862,-3.904976487913763e-05,-14.071153530559068,-14.720367487962818,6.506419675375731,-37.75098637462255,-16.064507928612308,0.13621504252020764,-4.096370052810035,-5.583197282322002,12.405312805585421
-28.599856834841887,0.0,0.0,5.895562989455186,0.0,0.0,-19.053448829218233,-8.4546521876223,20.401468107486554,26.03564343743235,6.255678624927011,-21.02203257639796,-4.787047261576411,-1.2645997501550341,-0.030756906769538156,-31.868764879178453,-1.9604788624544005,0.0016910168520195708,47.66660004153871,48.140285976384924,0.3764176485134005,-14.1475482549458,-33.79604090625251,-2.9268513551436093,43.13992727648932,31.846545593291157,-21.889652834397022,106.14235185471766,-48.539557688155426,93.64360699364019,135.75206489076794,-0.0008148271696103147,-85.08312823341656,127.55229750384376,-0.00661976404113516,85.15924806003092,-3.2321519376011443,-10.757978394301734,0.001465329715886824,-9.33366059380566,8.460690504868962,-0.0034955621838766646,-14.449846927522714,-14.323161444859625,6.353532553205631,-38.08459182822722,-15.641281378529598,0.1609755615765491,-3.0546323886609317,-3.1938088643685467,13.051654153549686
-23.904283994390084,0.0,0.0,5.046464139097855,0.0,0.0,-20.08881689943244,-11.30241865649618,15.779779197628685,26.096335504873657,5.695936357871099,-20.748717823474706,-3.045419425535581,-2.208019824257917,-0.019588780598292527,-31.408682113442033,-1.8625427392184977,-0.0011077975233909935,45.220924115034244,47.36088440089471,1.4787065087436393,-13.95050802007004,-32.19582872514873,-3.597370163932437,42.592979495080534,31.509451781669114,-21.277431264879677,105.14305997035203,-47.366675889009024,93.5750993858708,135.768330627779,0.0032932023824668614,-83.56097651555012,126.37532163324329,-0.0047988302051715165,84.14150538798656,-2.8661478978962656,-11.335129738945186,-0.0029938154474555513,-8.979653103021201,6.902390629117294,-0.0013166979646145169,-14.99836804985129,-13.506100910722388,5.677353194840001,-38.544743858991765,-14.629857875224417,-0.12339175165942261,-1.9337613774621538,-2.0239522383267077,12.705581639103094
-19.73311738796398,0.0,0.0,4.587928217998896,0.0,0.0,-19.671645762555645,-8.988090664499952,11.158016970150413,26.303898730317997,5.528717794628436,-20.74632793698964,-7.583470607452995,-3.5686350129318227,0.01595698217527276,-31.73946581145574,-2.227415028844335,0.0005858549285588804,44.67186853488926,45.484866288908336,0.9617980207249313,-13.185698117620525,-30.967731759293034,-4.054716998947154,42.76843709891421,31.186526661391778,-20.929627327995867,103.46148524257393,-45.98939851892108,91.8929294686783,135.7684042493039,0.0006273702347159247,-79.67345216660631,125.0906981722921,0.006759038989261067,84.3725912913527,-4.302875144040389,-11.318339530430304,-0.004763389158342015,-8.369333021838521,6.256635007376771,0.008014279940737721,-14.4545136839903,-12.548061307164057,5.060072709640098,-37.90424179260931,-13.511473675823966,-0.2981797501948017,-1.5801594773995402,-1.6960777939640141,12.279328379091396
-20.826985956690628,0.0,0.0,4.015681575092618,0.0,0.0,-18.719527955950443,-6.383387844856971,11.420196668362246,26.894458164885496,6.036323762152168,-20.295589477825885,-15.589397107690576,-5.011353017853896,0.018748889583628133,-32.23394608257408,-2.627795485909802,0.00034145687480942446,43.92530420050202,43.022996221248455,1.7897379987312305,-12.4844656450796,-30.68495973021185,-4.936052610952758,42.5531846183337,30.849390818314454,-19.623637616380634,102.04109496762977,-44.905150657603244,89.60509539184942,136.09295249147561,0.003626876266318147,-79.41883813954551,124.34429901409253,-0.0018199564600637277,83.86307914254017,-5.034900960027348,-10.58330640553259,0.0012818319697922682,-7.462787417313304,6.965986850998217,0.005557477747672864,-12.870241305417693,-11.951149127259308,5.253612884858747,-36.2641033673587,-13.038933680589373,0.12391930535207941,-1.9870786674534502,-1.660781757943496,11.804019065936673
-19.67912676987064,0.0,0.0,2.7650040185685465,0.0,0.0,-16.727118288343377,-5.828351949480918,13.15931729343656,27.42819945733324,6.471150441458001,-20.004701516350178,-24.289026964865407,-6.212828536419795,0.004105537085862316,-32.23600194103399,-2.885781061044334,-0.00033778102007228124,43.341467763060685,39.89615780170637,4.636862838056749,-12.168937920293146,-30.42677960255786,-6.261621126894895,41.99527226440287,30.123969228898016,-18.518222218065432,99.89565396819667,-44.25127799424345,86.85718804230125,136.48455063385572,0.004264332364917519,-83.09356924305838,123.66293856239548,-0.0007081629935091881,82.40325181553521,-5.168858839277354,-11.041339646848664,0.0014980191319308373,-7.892915092993042,7.424678112122344,-0.005436794322479527,-11.858130228606887,-11.556586992168096,5.198020113515899,-35.216356123644196,-12.655154042836823,0.2332551134677177,-2.1805904863781422,-1.825199330716077,10.821386907534913
-17.603379308427066,0.0,0.0,2.0627612799055597,0.0,0.0,-13.568624435048285,-6.4926880224625565,15.302448484434791,27.41073230890204,6.188687808900937,-20.196323067947027,-32.917102890437576,-7.115959287033626,0.006315850985600658,-31.74662400283294,-3.044079539527595,0.00037892146088787447,43.682093844896734,37.28806109755797,6.693291272681371,-11.444617452642078,-28.851472153106617,-6.817984326633809,41.88299106974846,29.52669193057626,-18.127397712369476,96.40631901791302,-43.65009581114054,83.66903932181302,136.58053566834155,-0.0013089290442320695,-87.39789260874421,122.73395267280648,-0.00043859512782493804,81.83312239847078,-4.855595974362043,-12.671901776319071,-0.004111112114247949,-9.18137954812803,7.959899773509213,-0.005748248470742342,-12.34596405000632,-11.221756791291135,4.643518728767677,-35.67520782213545,-12.132349409993568,-0.1419125573934401,-1.800376675459178,-1.5786637961958878,9.738519272288581
-12.56366718637228,0.0,0.0,1.6213195863236192,0.0,0.0,-11.117786549164215,-6.71448819905764,15.818679339769135,27.06735207265812,5.533637467847866,-20.684234712942036,-41.171164015769655,-7.566886558488266,-0.007340794102843542,-31.053261432420737,-3.0870262102258534,0.0006722275158659746,44.13627763136602,35.19076141133383,7.9140714872660345,-10.3693839683038,-26.363317892650095,-6.553417153025797,42.18434774643623,29.221391515414552,-17.78066414814529,92.30706511967934,-42.59421904619638,79.72082556195822,136.49522488247874,0.0003576333708466733,-88.20576272568877,121.68241231839748,-0.0024878584020963292,81.00682758598876,-4.15564553118515,-14.326902017215565,-0.0038599187278776383,-8.736729412475322,8.07512423376267,0.00012909221206533123,-13.01286013614365,-10.941131292424126,4.4549347714492376,-36.31834521905628,-11.801376596437132,-0.20208552560308174,-1.410457943028031,-0.8428128290940331,8.584434350417482
-6.893610074034754,0.0,0.0,1.2372405280128649,0.0,0.0,-10.892175311780928,-6.89422831832487,12.750441191864569,26.443512524155135,4.979187422102459,-20.832084719755194,-48.17986595566196,-7.367620668010605,-0.010755881532197595,-30.411618471081198,-3.5362697084388257,-0.000951145482326617,44.02400323273097,33.09341340384119,9.316915706660875,-9.045745533518073,-23.57036155512278,-6.3800952913798055,42.71169302524951,29.009246913554254,-17.572243517645568,88.50039754044703,-41.464885248350384,75.48916340181768,136.3699120478177,0.0029897961715319218,-87.61477510288066,121.04703669266549,0.0009544023692702387,80.57483491663406,-3.693000561339437,-15.550435724889029,-0.0005331457436978515,-7.27980970880498,8.37895824093253,0.0015081389471530433,-12.76648593887596,-10.70648172150637,4.76455868863672,-36.05268322934424,-11.706131845421718,0.17800887671135124,-1.2671793764296917,0.11965978043650907,7.668012186281143
-6.327886617197223,0.0,0.0,0.8420378592663788,0.0,0.0,-12.658258134125369,-7.75128559933427,8.017489555296562,25.82707419757249,4.413588697614197,-20.772687248198274,-53.3094761266913,-7.070740298289714,0.00021936564608290529,-29.831848855575792,-4.308477619887957,-0.0005908775407527229,43.63034374170965,30.955189554978258,10.48987464805646,-7.175365778781891,-20.744544522141506,-6.332600556960908,43.43505393258012,28.810839352515327,-17.72736686109587,85.4323929283667,-40.93381366467449,72.08243690459321,135.67115935767717,-0.007456131626522827,-87.88857812463901,120.75061511660802,0.000682493332830012,80.53961702141093,-3.7329073385612404,-15.628867091629623,-0.0027745958871037146,-6.824754048028941,8.204711827961344,-0.005049476453289248,-11.899908338909203,-10.191550395518815,4.9646384666849235,-35.14416800984909,-11.310789116623813,0.5700382779782657,-0.8472368999389317,1.1550987394056016,7.249799775822304
-7.890012787973238,0.0,0.0,0.615214429865607,0.0,0.0,-16.10159792530659,-8.361680690434792,3.390172090382097,25.32316935351054,3.924408421363895,-20.90666741959892,-56.954415955211715,-6.670417405295518,-0.0018900620668403697,-29.202934224584272,-4.791565534300711,0.0003728201105512039,43.26385306454323,28.536971433028476,11.370334830151851,-5.171004245006564,-18.091616087518833,-6.256660365046677,44.016823896474726,28.655007264167885,-17.80327799290177,82.5612947894551,-40.67568200428995,69.14721017898054,134.84468675760817,-0.0034688011830448745,-91.28640262252843,120.80984184138626,-0.0010695745356314127,80.19631182915691,-3.7863858099291274,-15.869559596287056,-0.0066580252569295485,-6.082092658705907,8.052246236078522,0.002760790121849258,-10.790052072054207,-9.37000276404611,4.76751499598388,-33.972864814974216,-10.479190983532272,0.7179936305697119,-0.07560021398855012,2.1541834253593226,6.792032982480303
-7.560835001301909,0.0,0.0,0.5052102715248799,0.0,0.0,-20.89685315969782,-7.565509331259652,-0.8579473155059767,24.63591987722154,4.20168418110892,-20.534088677038625,-59.26548916305231,-6.206072439278374,0.0006128443344666415,-28.438308851946864,-4.967466342718416,0.00037794078051810106,42.87800440477476,25.709242430775213,11.681618167635161,-3.303249521833905,-15.688916580723536,-6.642693015025749,44.1999779926608,28.514955993032707,-17.299255630566282,79.561872542945,-39.93697561359706,66.03742456032678,134.92806249752812,0.009484919881081121,-95.42636383158478,121.47362855274443,-0.0044802046173688355,80.81319067872462,-3.6230840616884072,-17.046852605738213,-0.002026615158885217,-5.099142304449984,10.419303358261383,0.00919827075312275,-9.682728725179127,-9.211584353537885,4.68435937433485,-32.854516031306275,-10.301259178922422,0.7046818581386589,0.7578929359165177,3.232192182039239,5.831901823196992
-5.806208882119303,0.0,0.0,-0.12410557255237631,0.0,0.0,-24.318012841923526,-5.832056222580196,-5.082661095001715,23.65742173596516,4.753077676620059,-19.298019849041275,-59.93277438467462,-6.360582545225552,0.001998144088759109,-27.606293030038135,-5.107249448467191,-0.0003139367946417245,42.03841781690095,23.138027550165635,11.553355108367805,-1.2328682587619062,-13.694928192794535,-7.4676065114614785,44.12429564486335,28.36740858408043,-16.725574743602966,76.82163073861354,-38.765392613457436,63.097726775354744,135.4473575378718,-0.002790507848372733,-94.99691625462175,122.10718081379746,-0.0005976610435016063,81.21204824657536,-4.132901036833126,-17.564576841238242,-0.002778218163238047,-4.562863093131985,12.169325271078904,-0.003268810504443576,-8.875841853448177,-9.834910043950522,4.879114697548406,-32.09279585656955,-10.949839260681893,0.6345345888736047,1.4680984895176334,4.374670084966492,5.068832998207625
-4.163851428408442,0.0,0.0,-0.8166664868811735,0.0,0.0,-23.70283049289956,-5.1075294939005245,-7.183874228609947,22.59368917728455,4.786211214524708,-17.92613433700653,-59.298430407888326,-7.3058669863856815,-0.004743889538592158,-26.74258959846749,-5.215341701216351,3.871890499442278e-05,40.442776165830956,21.12188133034653,11.464605781891184,0.7588255088205764,-12.112269732093182,-8.301436559627964,43.3675991372631,28.48435950632896,-16.053610494217644,74.19041459570492,-37.581628206865545,60.202120259329945,135.79375938413307,-0.00039361815335198523,-91.53905857110006,122.31545476433232,-8.149424883362993e-05,80.64412465386128,-5.237728183536756,-16.89758767140288,-0.013620634591037609,-4.119923672206817,11.652862070767387,-0.004449969369575247,-8.422973517108439,-10.106394747497806,5.088556912834305,-31.659979222834483,-11.280677519034322,0.7186020462847105,2.072320786322786,5.246210124871862,4.8401482333162695
-3.463654187356742,0.0,0.0,-0.60198310435258,0.0,0.0,-20.988391038964014,-5.4754771657471615,-6.480599319282421,21.46910371837024,4.455926337167096,-16.843165636735133,-57.66993675679921,-8.056819424975037,-0.0047590834026647166,-25.65229960691286,-5.194598881732037,0.0009829517070311673,38.4340116105303,19.349367028918724,11.822158521436972,2.223453593167886,-10.617483611300633,-8.805012363900808,42.09427177108755,28.636687006418175,-15.298730718649061,71.5486145643892,-36.37808615696454,57.34445747146003,136.1417909060551,0.006087960573380427,-91.06871916163499,122.34366723331432,0.0025676109054945375,82.73072501917231,-5.758630745350148,-15.909113543281013,-0.005233489899164374,-4.021246180501724,11.214393413405862,0.0017041817654004751,-8.321161103266444,-9.613061637605714,5.132321071412217,-31.519892926375,-10.844290852572561,0.9571438769243882,2.751354135887811,5.83881164609112,4.6837687281474425
-3.0419378773533685,0.0,0.0,-0.10844800262570103,0.0,0.0,-18.700862698469148,-5.339456389032221,-4.792809447380377,20.190025650599406,4.18732073105215,-15.953228392929226,-55.253713368313406,-7.924176365536606,0.003133554320563915,-24.40207895500481,-5.163810145125185,-0.0003316830396993286,36.29690408320711,17.69988585262567,12.804938758646918,3.2721247642994693,-9.03685973474521,-9.001767016985815,41.19521446586801,28.653576238221582,-14.663029126439525,68.93532929426344,-34.88269266438497,54.77243437927581,136.19692832392886,-0.003666411803839772,-94.45172188810913,122.27847295739849,0.0026462768296839703,87.14477714260838,-5.54677592765365,-15.531196439660642,-0.00040483865347647956,-3.5511355603052057,11.914181344139399,0.004052341384585545,-8.139340892911777,-9.203181207690593,5.464205993353628,-31.30478497893725,-10.596397130478634,1.4276913795375872,3.198335659014536,6.455653611631514,4.525785492254736
-1.6711661034523453,0.0,0.0,-0.03861996419967809,0.0,0.0,-16.19506255722218,-4.980460702303701,-2.4910030725622443,18.781254792047623,4.199312334765613,-14.982243146253586,-52.06552576915333,-7.095898481084382,0.005005678444087262,-23.14768782375661,-5.4261541348199644,-0.001421838677983105,34.112867772178056,15.999255270081497,14.130593347884398,4.224684992959671,-7.581134506914883,-9.563453925550846,40.85914441023047,28.723725443736043,-13.929454906968404,66.45717508599861,-33.24793170554085,52.537215498247456,135.85411012669368,-0.002503708876096486,-96.87142254916718,122.40849284541898,0.0024903232670039303,88.71026424092334,-5.5286826921684025,-15.248577141627784,-0.00011720032372369003,-4.076682388911721,12.3417075773808,0.00912065345757878,-7.623287621506229,-9.392099905241919,6.223484794478138,-30.793831823138444,-11.064880671405774,2.0533884381110457,3.2841148726184537,6.953391251963722,4.488580787143816
0.018708613029820645,0.0,0.0,-0.7103295973238707,0.0,0.0,-11.912045040105806,-5.0851572395099565,1.3284680659512251,17.660890910895816,4.193830896313839,-14.771486199726626,-48.01437493926083,-6.2649381508153414,0.0021576153755146297,-21.950812351199737,-5.534113676665976,0.0008342892794106398,31.743231058906005,14.113459569173584,15.056746091417313,4.864951321088382,-6.458907026451696,-9.669421511663774,40.33700772644313,28.69892333414983,-12.758562011272787,64.89313529645983,-31.736814194107378,51.104095932527976,135.46392741494498,0.007061261935176769,-94.38274367760464,122.51023650845637,0.0012880806945951475,88.4743407264967,-5.358338481081432,-14.353307726868534,-0.0020104529540156384,-6.454987894377932,11.521130097566212,0.01320917240452579,-7.311825252224586,-9.937228590431236,6.538694086251769,-30.521002722839924,-11.688332023752238,2.1257786090619963,3.063923981231436,7.179527236187925,4.429302705836469
1.232175158035393,0.0,0.0,-1.1592058429433225,0.0,0.0,-6.674641814047805,-5.201534815319109,6.090555103286997,16.85089322424137,4.434103942895666,-15.012874489725627,-43.18448938462829,-5.582532722541028,-0.002115440749945732,-20.911231390693256,-5.530815118138234,-0.00019716731479975662,29.399622543799808,12.164099942611207,15.10850435154539,5.37495850817917,-5.553751529567066,-9.293740420071833,39.436474630272514,28.783523812111493,-11.386433470569582,63.69670077025672,-30.36128596763966,49.91434071180165,135.14093054242488,-0.0003655948956873121,-90.86674067672186,122.67809001374752,-0.00726892066001733,91.27299708386306,-4.9705293144599585,-13.86483839172266,-0.003481909837278632,-7.977152438673707,11.517835450699858,-0.0005316743494294625,-7.316766070605349,-10.31131634065,6.407385291898599,-30.558673036631433,-11.981127592779542,1.8536816136049592,2.725851841938025,7.244587906438401,4.276807660824106
1.1081924110415546,0.0,0.0,-1.3780625765535348,0.0,0.0,-1.779427964224756,-4.593620057134065,10.214456988311829,16.194420789248777,4.587584263162083,-15.152454950720701,-38.245759372571385,-5.025266127911211,-0.00026911136873441783,-19.922562907245247,-5.637170437735552,-0.0004918793965921119,27.387302550522424,10.441270367169256,14.108512041710913,5.72696598119975,-4.620029556371994,-9.044444599033817,38.754659438915596,28.86668476778835,-10.791707485723892,62.00004394475707,-29.229070909571103,48.17069875627383,134.70581854515208,-0.006435539400466423,-91.67186661933059,123.18457159224941,-0.002533890798662024,94.26712527040573,-5.115084169458407,-14.437926788469408,0.009122285493120467,-8.436060981656027,12.296488458081217,0.003642691730895233,-7.255191534153255,-10.354462725739054,6.838305127750247,-30.49464175509481,-12.188057919441096,2.234635046658104,2.485089457530931,7.227821929144895,4.109400891548354
0.572345558098082,0.0,0.0,-2.117358597430109,0.0,0.0,1.608730059435651,-3.762444394091447,12.220656941719637,15.672829738877653,4.218464591835429,-15.50935465311216,-34.23347387909699,-4.251176906671837,0.0026365788434246813,-19.011017564946787,-5.543091550676698,0.0005356118812297893,25.971669041969598,9.207201864994474,13.040475962121226,5.876080652420348,-3.812941912634237,-8.802513847486443,38.20752600759558,28.6803626332491,-10.55556627089394,60.08028859586962,-28.1838143495477,46.20747878805838,134.1838960331913,0.0009520245528812261,-91.33945465426268,123.68359152522382,0.006635055888851932,92.36619949092002,-6.748187798176639,-14.415071058897714,0.00318569629340958,-9.433901432083669,11.418654695975048,0.008308799381566643,-7.173711310301208,-10.342263995616106,7.46395158613338,-30.401143231698,-12.419634751907315,2.8184133711697408,2.376804580325049,7.210004431709685,3.925006869337319
0.4600202096793017,0.0,0.0,-2.771989718123395,0.0,0.0,3.1445600003518805,-3.4227035876388654,12.406835390527892,15.180239491383958,3.902594937097275,-16.179940590789258,-31.431695211078903,-3.3877954916616955,0.0012883958801244598,-18.387294560645294,-5.371661632720988,2.0404518479747935e-05,25.2766208712132,8.345343147647617,12.402098683229928,6.184435629585765,-3.3573505873275327,-8.473868091574849,37.36577145200684,28.466183798144762,-10.463769260526933,58.158132985094056,-26.872715343090977,44.2828392621415,133.985477938036,-0.0017519622644533508,-86.35264569302953,123.80110580924726,0.0015281175110172572,89.83323734016268,-10.023465258325896,-12.611158105736124,-0.030796175937561968,-9.41332067612512,9.578403040159218,-0.006671910121522465,-7.294714514737839,-10.27349143358573,7.483129311232401,-30.51580622160597,-12.363869831873842,2.863921675633777,2.320452424154463,6.854370220163304,3.853412208818646
0.22987882649558433,0.0,0.0,-2.984482448713286,0.0,0.0,3.731687883199701,-3.5271338532373706,11.782302886444336,14.940915256119576,3.7671487098451584,-16.75263770258385,-29.47877711704507,-2.732782350512108,-0.0012387521235563137,-18.085258753914744,-5.220361653144554,-0.0001590963774356194,24.982427672181327,7.707646846866115,12.224672512111463,6.663084251336009,-3.345420173212995,-8.434597425615397,36.681838491050605,28.301422101955133,-10.633301884648679,56.351516348938546,-25.424455198809643,42.49372486888878,133.91819957637983,-0.004810505415258326,-81.33941790388853,123.5142895117666,0.003575240987707725,91.18629444108463,-12.220588926699447,-9.144790085813783,-0.0030143851259208914,-8.746156908801364,7.38148443883258,-0.006049592347810415,-7.295134427743958,-10.035828086209209,7.192618022381784,-30.501578404813003,-12.032741732539387,2.690896859339222,2.187065312544247,6.026986936650756,4.062115123697309
-0.004966080546952175,0.0,0.0,-2.9596801970756617,0.0,0.0,4.04980739792901,-3.8984733931647986,11.318357367301932,14.78328949060617,3.751458915211481,-17.071771122169892,-28.100138657191852,-2.549538824817983,-0.001978641230427572,-18.07530308044922,-4.978265033723063,-0.00014433469741393084,24.85658225126017,7.326090342618393,12.169860237927187,7.200772482563954,-3.657448386429439,-8.673347255795393,36.52330183366023,28.161735819223622,-10.899024673423144,54.66213001495013,-24.067294498444717,40.93943529927999,133.72980754941048,-0.00828502702850636,-85.36656751288513,123.21320890413985,-0.00031936573995949966,92.41666520490773,-12.4396015145496,-8.048284307338818,0.00886921626400197,-8.91604140135771,5.244888740474866,0.0052028236833427674,-7.326542446461783,-9.570954716883914,7.180775398714462,-30.494915686935087,-11.60081394486715,2.8669384166178054,2.0651436950372073,5.1114885098169385,4.409923724775481
-0.20236314579745268,0.0,0.0,-2.242920075135288,0.0,0.0,4.2027655890391875,-3.7734292320810527,10.813091494121274,14.382172711166668,4.293702132186869,-16.73849707889224,-27.1375227668996,-2.631056912346118,-0.0006489753511266166,-18.12563452048711,-4.886637104767892,-2.0364376360041348e-05,24.792423747055135,7.08211210280248,12.350796442322187,7.687331505182558,-4.101029933720637,-9.320965189417457,36.12893003133857,28.169437454566648,-10.624051708947432,53.100058363834094,-22.54057747704177,39.57254905897357,133.8142277980515,-0.0013515372468375444,-90.00770192238593,123.01115989032388,0.00044856378306861426,93.41194770368939,-12.276844461712399,-9.721755777936234,0.0016995246156788915,-9.280700336957176,4.951292055735657,0.001949052724415704,-7.515230597631835,-9.117407034608359,7.691969944387435,-30.63606565245862,-11.382039735575399,3.522154318503955,1.964851627556914,4.304295379104945,4.714002032970925
-0.5757002309618278,0.0,0.0,-1.646903687668834,0.0,0.0,4.186744304859732,-3.2656036963981565,10.292068044565681,14.14230272056668,5.058686717155108,-16.056287272583898,-26.316111316224948,-2.652662237083172,-2.347653315762711e-05,-18.09343075039421,-4.860128816245354,-5.688380670861783e-05,24.73835836431093,6.748454109108257,12.765677200967989,8.042865586308778,-4.604718297028954,-10.220308226557401,35.36880524402207,27.99053248978638,-9.75848245373077,51.69821862330256,-20.865108183180872,38.140699223853396,133.94822239277008,-0.00294974995370155,-90.43611302328158,122.77213018553829,0.00018241393321912408,95.01936141579041,-12.393321656948517,-11.24542815818798,-0.0007792178359246197,-8.603383409380712,5.280459512479136,3.135955328168395e-05,-7.152152039521544,-9.044568664838678,8.325757718337204,-30.250411710275923,-11.560684194462455,4.138677912425977,1.6668114405929497,3.5310532425582593,5.074487505678069
-1.215592196754252,0.0,0.0,-1.8935469980890691,0.0,0.0,4.294572202624895,-2.8889664367533436,10.310774713672982,14.075400295732656,5.428927907175827,-15.984846916892957,-25.54895389892013,-2.662447147750806,-0.0003811475732098235,-18.146516242082228,-4.662540453284659,-0.00015282544585830057,24.776010398670316,6.40984721482936,12.895058817099796,8.442130415701007,-4.959171821946971,-10.549896243482511,34.85238380660729,27.467740931871976,-9.008060364056801,50.26185073246997,-19.069112453519992,36.79096474361752,133.38106720127905,-0.010231280678716658,-92.36356198398354,122.64218995308612,-0.0007753873836424869,95.64126964400859,-11.777287976801972,-11.59023731377912,0.0011629471853562244,-8.499532638206922,5.416600817837216,0.0005943163941947434,-6.530064865503518,-8.988147827128952,8.951801399732265,-29.604537269372415,-11.751227434572286,4.742030027094463,1.2949142506458131,2.791269370939954,5.573830929069542
-1.3683750093889,0.0,0.0,-1.850087931824187,0.0,0.0,4.155084722144775,-2.6208365722771334,10.408717345856077,13.7566930396429,5.456414994264892,-16.108629102495325,-24.783603194738372,-2.4317820270729396,0.0008349107491730474,-18.254188393410875,-4.437645832103732,-0.00012928755879331542,24.87776073186994,5.954071637698529,12.584179324703156,8.736182008808907,-5.161818685720244,-10.945736366363139,34.49857714476747,26.949434278451886,-8.534921667859237,48.853188858990094,-17.491764230649682,35.66418849591799,132.38472165908456,-5.7182585947114257e-05,-93.76818165727609,122.69165273172604,-0.0006156928636420483,96.04642550120424,-10.274234387382357,-10.765544812665487,0.004308693803463757,-8.941603791053767,5.847248631758285,0.003977227771715635,-6.076183862076659,-8.574929325066487,9.223179330345246,-29.10810579994479,-11.476031140100542,5.159165407890037,1.034996120174267,2.100073507760784,5.9374491503722195
-1.2538025967707198,0.0,0.0,-1.2498043006047712,0.0,0.0,3.7313334658898536,-2.273949575418254,10.564229245624954,13.222654631677717,5.6726996074288785,-16.200742581649223,-23.99968719058529,-2.0332877613407097,0.00038663388783122905,-18.471760056611473,-4.219703296086564,-0.0003802063145594868,25.026148942758624,5.391942635174036,11.920906423387782,8.973002171825097,-5.3206036453896335,-11.503955555423222,34.25473319944319,26.517917961879334,-8.121940905176016,47.932597145053975,-16.06507082936833,35.18839260534691,131.59401502175405,0.01020548261976283,-92.50820022707678,122.60355688064209,0.0005476821814119143,97.34627081495628,-9.04390719945439,-10.03654809638902,0.0003975867402221569,-10.459759566889883,6.311765997418791,-0.006060225048974443,-5.781084102918754,-8.077739096027953,8.878521976380094,-28.78671268599166,-10.885090058903073,5.037396390545975,0.9031692093464637,1.4413183411098427,6.010027162905916
-1.2507830995479947,0.0,0.0,-0.9409568348777341,0.0,0.0,3.4973489630312393,-2.2249699091572595,10.696817390111834,12.989805390941395,5.825374767060453,-16.525558368220718,-23.476601477794325,-1.6462776107418369,8.723148170495795e-06,-18.75262530058899,-4.090388978233483,0.00014390706298561542,25.25072114181673,4.9312224449079265,11.307441750520962,9.221331386480127,-5.345102272834709,-11.792194061506427,33.96248739625269,25.976693567449157,-7.77318276630602,47.19917336607972,-14.650975138603696,35.029695851313384,131.06942756961425,-0.0016487683377754566,-91.80078732809964,122.46006001798158,-0.0007766026557746708,100.5042536446268,-8.771657816458742,-10.081650433127198,0.0017175705792288637,-12.284106879718209,8.186818638122967,-0.0044639917207557655,-5.85530882559974,-7.814166470305214,8.211796974088303,-28.863557821550742,-10.38439333909897,4.523779613681953,0.8378769258166437,0.8707835926714903,6.023867636268218
-0.9443242762856918,0.0,0.0,-0.611531502139292,0.0,0.0,3.42893414304981,-2.4731322994255587,10.40327370030609,13.008027726443087,5.756863389983928,-16.421746738570782,-23.26380347750526,-1.334004181034686,-0.00022771586467722004,-19.049764140797137,-4.1943313111399165,0.00032749946236646546,25.495825470512848,4.611770432031318,10.979386139197542,9.465114297965235,-5.328166942022936,-12.520993109143099,33.66587271490525,25.249924749992093,-7.464902679020905,46.392672345784604,-13.409706348089514,34.784059590299094,130.68625768314527,-0.003986872679760046,-94.69514956973048,122.30681567520358,0.0004567495939806461,104.17281382918537,-8.349938138313194,-11.587408863396885,-0.005754739745728866,-12.084767743043251,10.650184128990897,0.010892218430331276,-6.154332548754655,-7.904718616481471,7.575803251679709,-29.187456900948717,-10.221354704086625,3.8984485422158373,0.719268389263154,0.3704084258561444,6.0861143971010865
-0.8402261476360524,0.0,0.0,-0.5100032969614378,0.0,0.0,3.5817592683872856,-2.715544622240938,10.136087459924026,13.247564186551854,5.652116231357959,-16.61670276521353,-23.307736826447965,-1.2185037639943253,-0.00012714959808910917,-19.464193790380925,-4.077722250279615,-0.00019037845661808942,25.821002556567635,4.539552175442987,10.644943110570217,9.776823163569357,-5.293605134093252,-12.901757520151277,33.36052340299561,24.471664559031172,-7.181718350002153,45.78988128947551,-12.280969764200155,34.65160518992292,130.42770785233193,0.0008287780752623536,-96.3471776850066,122.01081930125251,0.0007810977812998618,106.1294488875225,-6.92969167132632,-13.221594160933012,-0.007587309756204589,-11.920295558450817,11.757491918584861,0.0001909370734315652,-6.342938765067017,-8.098824868818499,7.135968326210311,-29.40083297827734,-10.229473644421335,3.413975270250427,0.5173211405631488,-0.10276782552225865,6.186992440197709
-0.7697831215203529,0.0,0.0,-0.5211846396084172,0.0,0.0,3.6426123291476915,-2.70988228462975,9.770542826775026,13.696496437120908,5.773515135946367,-17.01788080071424,-23.39542608724747,-1.2205437995064208,-1.0240130389997804e-05,-19.999172468746448,-3.7835319415486874,-0.00023231530977972133,26.232913099064742,4.6053424560976515,10.615969766928204,10.209120562067575,-5.337751923842987,-12.847490856581373,32.83791531414587,23.75409196296027,-7.121754004320735,45.22287227759189,-11.133631556536374,34.398316132638364,130.32205979407922,0.0006747690896644897,-97.62413234694968,121.74480444651721,-0.0009702164652978118,106.55775267700575,-6.0731752534501195,-13.806449845997824,0.0012129919171506532,-12.711913414795877,11.334977661218192,0.00108195122726785,-6.614469303532036,-8.060237086491272,6.76736169391264,-29.677912326956292,-10.051005233843817,3.088218701231838,0.3029695173880698,-0.7055211725835194,6.298073446428947
-0.9520502079796522,0.0,0.0,-0.8617222517504574,0.0,0.0,3.5560582549483275,-2.8157110422837897,9.780195894328825,14.140725004780544,5.60968529193661,-17.406249878216116,-23.272665959444055,-1.4001477472832926,-0.00020174072627761566,-20.498290828959508,-3.391961540348516,-0.0004675850224888871,26.492496483065707,4.628757856734635,10.38071646350977,10.584198218866032,-5.48765240743074,-12.564162793444718,32.14114817264191,23.12426385067943,-7.064038228767525,44.7574096299435,-10.198175673612711,34.10683373083501,130.28256422447862,0.00043114402830692723,-98.71092288130009,121.49484326325778,-0.002936840699241684,104.51911145678898,-6.599419631492015,-13.259450234279234,-0.0019939788639702764,-13.017418276158223,9.714351299443635,-0.0014725022418959465,-6.721659671576999,-7.827331110746095,6.33166137684441,-29.77803433578484,-9.66768532105449,2.777825859001754,0.05603021082482596,-1.4290965858409483,6.53647696369981
-1.4711219238960136,0.0,0.0,-1.517702020000222,0.0,0.0,3.4949091579941416,-2.8173121531127885,10.135603672914495,14.306725045424372,4.7946953855829175,-17.76266976983586,-23.037478792305443,-1.4605596775800302,3.9473814451820635e-05,-20.807884764352778,-2.8944225095838285,-0.00012089250676344838,26.60748706146875,4.498495100599271,9.906531935036023,10.800202233258801,-5.661920579263094,-12.375296383571659,31.46830532079227,22.63231031459032,-6.833928933097581,44.3669671857378,-9.694527291486004,34.05522107459562,130.20017713433447,9.448068015874384e-05,-99.0410620891592,121.3064459475413,0.00021258203412405791,101.85157719161982,-7.090401965367165,-12.423101830838908,-0.0005988598157616633,-12.891848504631685,8.486276820191636,-0.001298522436158852,-6.780763714993287,-7.459437535738006,6.12234095236006,-29.817111387358814,-9.24794153977724,2.7302970138553873,-0.14595249942993388,-2.0588952284125965,6.862621875662823
-1.6211334477057942,0.0,0.0,-1.3442670189050185,0.0,0.0,3.3205238247358704,-2.829446249187766,10.047875297127979,14.025356712902127,4.5129633225303225,-17.43339078036496,-22.90654237262929,-1.287634441869081,7.909484722951834e-05,-20.89296394515096,-2.836718696098998,0.0002511374668259565,26.893098692097976,4.519001772657286,9.647115846112927,11.04144598342944,-5.548577269381573,-13.040967793560142,30.742041179458056,22.189831523284514,-6.4888389095901315,43.92410621986991,-9.417459281461662,34.10439885656309,130.04642488862447,-0.0008649168746136848,-100.13794730577037,121.16517988531311,0.0013819755640642273,100.18408449741226,-6.725516916044348,-11.61949902571988,0.00329039324564076,-12.203341036566878,7.671973337228891,-0.002724154168305518,-7.180287967610737,-7.154873407926361,5.982657711545485,-30.200208527973164,-8.913449652030776,2.72182143662984,-0.16540844964770376,-2.3738227939310885,7.140334362981335
-1.1582424400222113,0.0,0.0,-0.7513440257916126,0.0,0.0,2.945314912020977,-3.0451671422211524,9.646343618994154,13.637723717833632,4.8777710545693065,-16.739226159812496,-22.75396074907238,-1.2240335095277821,-1.5448227737646746e-05,-21.001389753299826,-3.11737994887781,1.4510367656322812e-05,27.178643720815913,4.817499162596683,9.328580766007196,11.298969998358565,-5.1945646330369,-14.187934592121435,29.896803921174282,21.72699114195708,-5.940542600961521,43.608829496703734,-9.079121446188282,34.01329118559708,129.80335227172142,-0.0005025020535749869,-101.41023375582857,120.95009982364176,-0.0006842111906714205,98.89228001990342,-5.9794017066675025,-10.775681828847388,0.0010466546208668338,-11.196131141594753,7.196128220703783,0.00112450808575726,-7.63336393971132,-7.0417036232934835,5.770831801372406,-30.650264842324553,-8.727087048192553,2.5708256658629947,-0.1488974999530337,-2.5660195762856555,7.324367385563088
-1.0994627713199685,0.0,0.0,-0.9884881900030799,0.0,0.0,2.699079709513855,-3.334712421482951,9.415414540671943,13.626547989469385,4.675392539245953,-16.92927220288192,-22.605689011900527,-1.313382719543593,-9.210004719327858e-05,-21.190216153365363,-2.8998758249884733,-0.0003423441646914431,27.215427472949788,5.106663229810565,8.704254716445218,11.288387260777647,-4.938856908224035,-14.502265953304816,29.190082879082272,21.16541641959417,-5.635872651165133,43.34889638760197,-8.772146101204894,34.00779861346767,129.47928518926207,0.00047280074826189423,-101.70689175468299,120.52396058500183,-0.003998958719254872,97.4494488534729,-5.90006955584521,-10.29021007273611,-0.001664142219984133,-10.915171655331404,6.678200385962532,0.0013668391620133974,-8.084452154356498,-6.963600132528166,5.75148800268149,-31.09702267245774,-8.647706886293392,2.5838346155609497,-0.22471003391035224,-2.757871742582637,7.448149800159614
-1.4393559863200458,0.0,0.0,-1.636298336071174,0.0,0.0,2.5931558783959523,-3.8177869223385583,9.231926278873004,13.877829588817335,4.228080204224224,-17.66541520094138,-22.48759240460877,-1.4004184099792665,-3.810079310002419e-06,-21.177604825661156,-2.3715480021870956,0.0003595090195309113,27.17848577342362,5.446348988968799,8.186619096968105,11.115387565001022,-4.64939816521397,-14.03901131482102,28.84673904562434,20.541413841553283,-5.716962105350206,43.028991358277516,-8.522069823551021,34.14729468155155,129.21433881376083,4.4927570014906775e-05,-102.02930833787364,119.97045806387368,-4.524802979673909e-06,96.93986167751835,-5.787442215225803,-10.034182321357243,-0.0015757099951832275,-10.452262583348197,5.396489141643323,-0.002007441372996479,-8.606303202229808,-6.884082368710427,5.777122584366214,-31.613701760926098,-8.584459983788442,2.6389640291058907,-0.2487350614700051,-2.8341330817112738,7.5896231749661265
-1.444710948259912,0.0,0.0,-1.7301529942535434,0.0,0.0,2.2703005603747877,-4.244979054271357,8.769934828539133,13.862386437336546,4.110268242974637,-17.92172676268505,-22.294218023153494,-1.2253357407869803,0.0002599168762711782,-20.92407439664211,-2.2290465257117726,-0.00026935830079686905,27.283082749619954,5.76434842014108,8.223299214550142,11.065016918793393,-4.22943985396589,-13.950994386422508,28.64445048797449,20.10285565280133,-5.78619108209825,42.738941017016124,-8.38787585708002,34.20661493983251,129.1409451762575,0.0020977116822780374,-102.50965552563501,119.68551969841856,0.0004853347066236902,98.31627466451828,-5.529162619036481,-9.941015680921556,-0.0032931842920351133,-9.881728582478688,4.545036429308157,0.0009358336468312388,-8.85781939023304,-6.965321300230664,6.096484736900072,-31.86400272008277,-8.783146611549013,2.902036356322677,-0.14187313918619532,-2.981771973516949,7.785652049369356
-1.1881358597968206,0.0,0.0,-1.4186702495365917,0.0,0.0,1.857827967337895,-4.452617609201083,8.125067646336745,13.571750743509801,4.248944651061257,-17.545049959838042,-22.13056895231628,-0.9637107281888978,2.3521340308462725e-05,-20.46886252425527,-2.5011253296391156,-0.0005854227226452575,27.51990744247769,6.126067394003529,8.493003854395674,11.047225010897986,-3.6702800247703915,-14.7358393660671,28.08675423765172,19.922158947561087,-5.605462053094194,42.538915203383475,-8.26720267586476,34.34528010818865,129.37546121502737,0.004195426276281359,-103.99769763664949,119.60271636564426,-0.00034620470240110003,99.611968278454,-5.496505675811556,-11.155697220767463,-0.001040984854595747,-9.891154900689724,4.55295733713074,0.0016332955660238993,-8.967678875170183,-7.169062456403526,6.461581995214166,-31.978816535782638,-9.112297299760103,3.159027820884169,0.09151381316399579,-3.1508243687288937,7.8512552962811215
-1.466117407096717,0.0,0.0,-1.6601628949351588,0.0,0.0,1.7381955034987158,-4.740503021829675,7.9226181363940125,13.500902658418623,4.239177741088047,-17.40506784059287,-22.027892352915483,-1.0044688438034957,-0.0001518653919980172,-19.750606842674607,-2.5905144893171297,-7.430458848275935e-05,27.563057301502678,6.6304670634593785,8.347770879899775,10.687187268723633,-3.0371461752277553,-15.254262593431948,27.57932061169501,19.64534879170862,-5.434428068792461,42.37056884970658,-8.05635747854867,34.60096357823504,129.60479373438963,0.00046005153083521455,-105.281876505207,119.60986036335946,-0.0005121947744044308,101.05611392979188,-5.698126769896117,-12.863865439285272,0.0020331646270928855,-10.000746558552288,5.487108050431152,-0.00038316053116653346,-9.147786323342762,-7.384123946497826,6.442468345484283,-32.172951564215005,-9.302828861601974,3.056154072825642,0.1591273511722131,-3.251443705207847,7.855621855769142
-1.8918844284305527,0.0,0.0,-2.1307610162712582,0.0,0.0,1.6269568140843427,-4.953553930742356,7.8972209886176215,13.582255615537983,4.18013277648543,-17.52476247500508,-21.900666766418574,-1.1131594962575142,-0.00011002987391540993,-18.856057281243896,-2.578327075788855,0.0003264225688437648,27.411457751899782,7.076584052077436,8.108030881738664,10.08302020260557,-2.4519651888184697,-15.368338386797223,27.399404203822904,19.256239207458965,-5.462418272182158,42.112610733302645,-8.018639957828118,34.93967265168755,129.46484564011868,-0.0020512707998776654,-105.88162529997712,119.73542798269627,-0.0004242999448713455,102.58171302269437,-6.28373667504329,-13.445495670205704,-0.0010754370230235807,-10.631510556059103,6.255800091817659,5.701870451078436e-05,-9.365281810488638,-7.4066409530975825,6.2536249955832055,-32.39573744020745,-9.250290218705876,2.8725998722409276,0.08949094351008346,-3.3758036030457563,7.937660625306039
-2.141917280685342,0.0,0.0,-2.079342405270266,0.0,0.0,1.363307595510787,-5.175220859615593,7.6710987532816475,13.436432553955347,3.9531598962736374,-17.888278612965447,-21.69251994297372,-1.0551295433915202,0.00011604337902300897,-17.9186937844116,-2.520871749672131,0.00016437691214142325,27.36784487122842,7.454938602603728,8.000298856215757,9.580738562969433,-1.838019671427517,-15.180960288536035,27.33982000573792,18.996315245798744,-5.548541637851909,41.94669346694241,-8.104964359152355,35.30848566447134,129.254603565247,-0.0009509862602392487,-106.99398158636936,119.86800734494842,0.000483393530938241,103.85259776737927,-7.237564802277873,-13.064379094588602,-0.0019519865537495416,-11.188589585295674,6.298323814028876,0.00012089610275477694,-9.307459955208161,-7.3505071974113205,6.569211467151815,-32.32775424699642,-9.321044820684182,3.186717787504615,0.07985791198577737,-3.461236944051552,7.961374265368792
-2.5580894121345,0.0,0.0,-2.234840359451301,0.0,0.0,0.9978794134255062,-5.50151723854297,7.592848197556678,13.40734053010039,3.705030143729162,-18.42727369852923,-21.420067282258287,-0.9198005185133812,7.793900983852076e-05,-17.014880232038514,-2.6091200663427436,-0.0003045271981802263,27.478766279068836,7.791725354735805,7.849803172093936,9.218002113096624,-1.1154003885006751,-14.933125867924552,27.19560130389494,18.92812738600321,-5.580801159267992,41.830299922522364,-7.958172195468973,35.51028992056912,129.36568657153447,-0.0007268169631173745,-106.95237220276174,119.8014138487745,0.0007679297561283788,105.14919042887149,-8.000774858253491,-12.75429912392405,0.0014898860840792851,-11.283979274751017,6.009974070200816,-0.00061103354775442,-9.308307505748388,-7.577550297263621,7.224726953614196,-32.32803708052502,-9.78417779309441,3.7032939847427304,0.19383753992820954,-3.5532773034897605,7.927198932948788
-3.194799056845397,0.0,0.0,-2.985984728757963,0.0,0.0,0.5899672556227178,-5.737562739891466,7.780342432077916,13.560330062348612,3.694172867956523,-18.94054704944504,-21.11497805093675,-0.8762156433997972,4.918227963553465e-05,-16.259802665455148,-2.7750738676065883,5.642210252193563e-05,27.5598154378511,8.223961120080501,7.640235054901178,8.947571285097297,-0.347525420408166,-14.71517912913453,26.82511869792376,18.839069615367624,-5.5237783797876,41.390968441583674,-7.71417325780566,35.64236896067159,129.50890639111577,1.658746855167901e-05,-105.7579193053751,119.56719299328508,-0.001609634417048747,104.68600429873308,-8.216256746411426,-11.855019393246584,2.718013242332416e-05,-11.404177052304465,5.320453778931319,0.0007894875666279066,-9.298358553357751,-7.84402838706504,7.776099072438281,-32.32166923510574,-10.24311437894041,4.1081182792405,0.4816384574919741,-3.5716250078206495,8.018128531662247
-3.5623306584285412,0.0,0.0,-3.4087091755107246,0.0,0.0,0.07947156573446912,-5.658046862758376,7.690300627905703,13.292411054919915,3.809764536311155,-19.05150524465142,-20.719115180512084,-0.9276009955878063,-9.00365027612427e-05,-15.532810401379583,-2.955260479466188,-0.0005234466150980262,27.490883544339997,8.83426993571005,7.5606268535395875,8.721161329654917,0.4645033691870686,-14.670299257442817,26.405952643731457,18.778141973247635,-5.1383411789994256,40.96466823033997,-7.520667462738405,35.87831992895467,129.5413087585789,0.0002972964907233689,-103.88767289378318,119.37042362114077,-0.0010802987025161283,103.23618865091015,-8.678006777024176,-10.1738188854287,-0.00495310633521134,-11.527023777013866,4.630932390002396,0.0006812128865052793,-8.847862557775255,-7.966043010466802,8.290545947721979,-31.864617074635937,-10.554681727808036,4.536415853669634,0.7464755283294753,-3.4205452630322424,8.062224354491665
-3.030216380501819,0.0,0.0,-2.7764293852019564,0.0,0.0,-0.5181727773826805,-5.561359561082993,7.377502523173652,12.685000658735387,3.6846299162934133,-18.416664938546152,-20.20980360748048,-1.0691673323446087,-0.00023808766174421693,-14.770915366778512,-3.1948307832387646,-0.0005242751039615744,27.294978416582463,9.540464253755111,7.633523284395018,8.488449649386354,1.2400232999194076,-14.97262715711647,26.06344605712144,18.75150241232165,-4.684253155242916,40.841892171719834,-7.4381945086286665,35.97045457100534,129.71094519935096,0.0012146964564669998,-102.77300936157701,119.43228303639998,-0.0005935609317676046,103.05794182991755,-9.35220631475542,-9.658302321756654,-0.0007887287942899696,-11.376678998641808,4.545941526634262,0.00021388618011716618,-8.338435863635622,-8.047580438540193,8.659607960478361,-31.3492590865202,-10.772610932943895,4.846272783309994,0.8563591380701661,-3.254011642713994,8.157958059071781
-2.908312417608649,0.0,0.0,-2.6805906247610216,0.0,0.0,-0.8328965689899469,-5.497181337055407,7.597427789700822,12.51276290977817,3.4497956450674057,-17.83113062251168,-19.62685561352811,-1.2538764982160777,-5.2508625592012485e-05,-14.113645032575413,-3.187281446425234,0.0004447322371494453,26.95409083603385,10.093010303059856,7.490483034150971,8.163983673820411,1.7484947590899875,-14.980968085158585,25.73526079334412,18.70546458192535,-4.273982711360072,40.945929809997644,-7.540835173533512,36.0571609646797,129.9850799162211,-0.0004605310827206752,-102.56384094284645,119.58024894167438,-0.00025264751879237066,103.49635704438793,-9.546623749305015,-10.015445453375921,-3.4007371746611665e-05,-11.416984250024694,4.878892000813475,-0.001394531905063696,-8.066741010753303,-8.306667616041347,9.247170892969843,-31.07673272312879,-11.238426142777767,5.288449476977994,0.8415497855390476,-3.180298630564212,8.277052313969598
-3.3137711782029737,0.0,0.0,-3.153463312097232,0.0,0.0,-0.9741983123252768,-5.653398771845668,8.003743474008592,12.461454550985875,3.4570841064780518,-17.695046068078884,-19.026043440301308,-1.3113480505110005,0.00022524963274601174,-13.380376742450345,-3.0419377320517222,0.0004675418446908507,26.445074084872694,10.58335272431691,7.178542089111464,7.5977515648219,2.271751160364415,-14.817518629945196,25.274308855425332,18.77125357603099,-4.051856193957988,41.04794280571021,-7.80248195533344,36.048064906723155,130.3803730038348,-0.0010671300910504126,-101.22995862137728,119.68472318132063,-0.00038852537820982356,103.78077360184164,-10.44465210071906,-10.312133708215732,0.0038173997481282087,-10.557580008938006,5.6325130044154745,0.0013582647525468116,-8.101503093735793,-8.76943517172247,9.954225447990456,-31.121599145324836,-11.937722924369513,5.760704755520544,0.7282468921002483,-2.960057747480287,8.321675481137568
-3.8883044869215655,0.0,0.0,-3.6637074238741176,0.0,0.0,-1.1682025417787627,-5.863749881435629,8.268747843087432,12.306605954841455,3.3601987181836517,-17.722943671984353,-18.53526877467077,-1.4342115612091657,-0.00030546329460272434,-12.477943369772186,-2.9793120082049622,-0.00035896635432697684,25.964952878989042,11.195364334724339,6.86130204086461,6.892256959089894,2.9764869491105514,-14.815836389234237,24.95400579817128,18.941941078947803,-4.374137029752683,40.78399894035871,-8.162387588139437,35.629054378571475,130.6322901491217,2.7179177275362005e-05,-101.11644822462713,119.83897713465426,-0.0003482294166915562,103.7259152219822,-12.123482567718213,-10.633856304198458,0.0017656851141736793,-8.749211485979167,6.075175275556388,0.001000864478331823,-8.448288568523543,-9.010735389944935,10.2824280055983,-31.47531480813444,-12.286624035037962,5.969407881977274,0.5955734248539408,-2.6668724508161286,8.336937303469542
-4.363658878610262,0.0,0.0,-4.656309762245467,0.0,0.0,-1.3903183051166002,-5.971983325511924,8.359013644098313,12.379714260168335,2.9847222583882314,-17.209715566602295,-18.14138940315575,-1.5312045118296005,0.00023646195871042047,-11.696021448641776,-3.0468580044424938,-0.00037484147044772586,25.889219256788362,11.777778448984233,6.8021220673344445,6.597470767524478,3.6426266440543635,-15.201620041189242,24.868175855227026,19.1062655104305,-4.598357021836343,40.16796266440918,-8.506445771051276,35.2893812678953,130.31990814980657,0.0007570411587409906,-101.46151688435128,120.11128496865201,0.00041862546177883907,102.9501595193942,-13.210141153024068,-10.397379829434144,0.0017463454639638021,-7.872472212434888,6.15300539807509,-3.3598768237826645e-06,-8.673593799122813,-8.965020140751847,10.654384790315897,-31.680866204348906,-12.388199934140292,6.333834549587565,0.7556171420776711,-2.5579423463117825,8.296591266181895
-4.963193431159106,0.0,0.0,-6.569400683739225,0.0,0.0,-1.604087265553143,-6.292951884407069,8.25672244820687,12.70769509686537,2.802513500193128,-16.994766582598437,-17.68122706530539,-1.3143494295409857,0.0006458297783290758,-11.225171437128138,-2.9485931946018384,0.0002974105316392376,26.067148978298704,12.174590895202911,7.107660328252652,6.7699449220232815,4.095750973296102,-15.146028523625422,24.706861633266683,19.23551814936684,-3.9048383638320776,39.738998094779554,-8.594339939317567,35.358062749464466,130.13936420191916,0.00037146568003288305,-100.6920239010057,120.42907186479292,0.0005414733437559412,102.02391315736244,-11.944622420825704,-10.250309056526726,-0.007629899403407063,-9.14316795021738,6.072961609879542,-8.190811690692799e-05,-8.6600496173928,-9.074352853339668,11.469348657745478,-31.639065447545036,-12.803255630929085,7.049290825605593,1.1997640499172144,-2.480094723626955,8.291290959656992
-6.669976004323598,0.0,0.0,-8.349973926430327,0.0,0.0,-1.6944051217877618,-6.758207162707557,8.63349183713339,12.942362019994412,2.9746112810437633,-17.287925150275324,-17.11646309596417,-1.2025601045896752,-0.00031014880223492183,-10.808594284092832,-2.8124457634293014,-0.0003486670717420902,26.07426576773971,12.465966130528548,6.986506833458526,6.8555227668988925,4.471985183173871,-14.676248890465965,24.10729623488592,19.355665067753748,-2.5897826681557894,39.49642193470668,-8.674782808141837,35.414035187889304,130.78214674012045,0.0030733398359442422,-100.68079322983016,120.64799891588298,0.00021149813300247734,100.6336558137168,-8.255657408416644,-11.124547521470548,-0.01884698031447437,-9.856453246328323,5.934362833069052,-0.0008724674007638655,-8.722750819662998,-9.59837493589796,12.473125879908403,-31.69820250729197,-13.672352904055467,7.775938782948723,1.639357910314586,-2.231390178131887,8.26180976209734
-7.0098910221338695,0.0,0.0,-6.535968021240967,0.0,0.0,-2.111903838174743,-6.951121063743761,9.004444473254862,12.377870594005655,3.525791091333006,-17.111774830344903,-16.501111186427888,-1.3338292086025731,-0.0005005642416502189,-10.070203667903364,-2.9438113119645526,-0.0009522364465045059,25.46592038427056,12.834898419686045,6.7755031170507145,6.249262915059617,4.9615103776020115,-14.675989211402634,23.398856786618715,19.459094734975327,-1.580475075319649,39.199527300455586,-8.937426432763397,35.22823352631985,131.44582025534635,0.0010157905509033218,-101.92413556527613,120.57242605407957,-0.0013249758435460277,98.87784339009526,-6.007954465589866,-12.16027151762695,0.00039233895707261137,-9.366019593221004,5.042792483749492,-0.0016937742770087327,-8.906821557433641,-10.040652628262801,13.191159341932126,-31.88524440199405,-14.35572675866508,8.269348189559613,1.564751880488626,-1.9247264343248964,8.11467104468129
-6.509046404392245,0.0,0.0,-4.899258764711018,0.0,0.0,-2.72021393153176,-6.932935818605478,8.919184317051995,11.827540149707481,3.7825089183631255,-16.75933373411793,-16.113158270861508,-1.3720227559476794,0.0002272580395855294,-9.263531553924192,-2.951357630475928,0.00022602087648866497,25.023558851820155,13.26340064516856,6.845711323381505,5.630991674896211,5.477035613068729,-14.740764547596743,23.145434818270598,19.574988317947064,-1.0897573836271564,38.90356226166302,-9.114200220148792,34.86792476481826,131.40747318116993,-0.0013526007938876282,-103.11956639586812,120.49417783455185,0.00021707054874174487,97.65388021993817,-6.028783881399952,-12.965628935482027,0.0034613051624127443,-8.947550049978666,4.488726168281266,0.001035622084872379,-8.895475518589365,-9.88509416792165,13.408118255932255,-31.845701776465255,-14.295863876779642,8.535068560525056,1.403241627273704,-1.6844701633143297,7.954115814305677
-6.55041416211822,0.0,0.0,-5.3418528891431505,0.0,0.0,-3.275064099315039,-7.389517125668235,8.957150237421612,11.65357408179792,3.1494069069192583,-16.325687831365475,-15.717287021663642,-1.2891569496994435,5.5471015294717435e-05,-8.742514582666466,-2.659104497854436,0.00029758143344521965,24.88858974134191,13.669502134312868,6.9165576183263076,5.42009188850065,5.8315397772514,-14.68675908339475,22.99718346209689,19.583253200758865,-0.7042988448677173,38.614544410941896,-9.308477823545587,34.36681302689488,131.10728027319206,0.0007294265634492068,-102.71331844695352,120.59868074026117,-0.0003806534361246473,98.17899982274264,-6.4160027258108485,-12.888465218607381,-0.0012004465358966825,-8.744756877719237,4.880283880487174,0.0008827828226125782,-8.742948014171759,-9.691493005440151,13.237433519582076,-31.684208827302754,-14.052010636303601,8.453151590720678,1.439754288852932,-1.4468029094200683,8.019710893479667
-6.643289405389633,0.0,0.0,-6.545129691020553,0.0,0.0,-3.7532450236455883,-7.592591122739815,9.332389829260256,11.73390524831704,2.556923125559447,-16.0482140263543,-15.323746297625746,-1.3696420838259264,-0.0002347100177741964,-8.367587738204195,-2.3570167768168915,-2.5843881734253966e-05,24.869355981126617,14.054208057235773,6.74580231915942,5.351641575552609,6.123270563082334,-14.629098699114527,22.770055639159374,19.497034537471162,-0.2661975073583779,38.459456973340295,-9.69109027779011,34.020437342340095,130.9393722663885,-0.00035236858530916646,-102.63197082915184,120.70926850859925,-0.0006245287986060104,100.25835099965016,-5.992825070058635,-12.991559059227134,-0.004909415011079604,-8.831176796100593,5.4624462610337,-0.0007082931477314322,-8.461169554585176,-9.547476667315491,13.494566360397702,-31.373000051322546,-14.018132949224185,8.751652973277915,1.5439460099509201,-1.0629975336211526,8.088464461370473
-6.643002889370887,0.0,0.0,-6.980848599146467,0.0,0.0,-4.253406163994022,-7.350401357699093,9.332578734378492,11.744342214531283,2.35226072358458,-15.873921907487897,-15.16927272413017,-1.3419525552991067,-4.495623272106252e-06,-7.868056072372819,-2.2170219370789512,-0.000177359891391816,25.009305762196668,14.34041307186683,6.864151052577975,5.2741741832702385,6.423159714805849,-14.657749765391152,22.456084191186598,19.629128325949146,0.18183590253331966,38.45694539656976,-10.063009532619095,33.99905973007597,130.955234276753,-0.0005439338190113202,-103.08540250854386,120.7606331499593,-0.00025955010051665234,101.94447692385452,-5.1678091932635475,-13.682532869426725,-0.0014566394150060664,-9.144522520976098,6.1580108465095975,-0.0014912002457468684,-7.925660888124274,-9.471147832567004,14.281485721792851,-30.779966608967126,-14.249602919618116,9.519610486846116,1.7219147991349062,-0.6479647030885297,7.913161925096401
-6.046455186995082,0.0,0.0,-5.8064070510810915,0.0,0.0,-4.970778837270988,-7.6277559751308415,9.119115391241008,11.251405852320511,1.85494613528132,-15.560202681354752,-15.112094328657092,-1.190011157288415,-8.434026102256333e-05,-7.387128282882096,-2.1432773494040758,-5.892895165168687e-05,24.943973526074863,14.657930282699509,7.118021168625463,5.01860747755598,6.751642540494586,-14.640456195325454,22.13336733480361,19.72737931680441,0.5200147763863753,38.32231322127974,-10.27018383798761,33.94614547699865,130.99283417402114,0.0011888445104858252,-102.69005949037914,120.89582552124673,0.0002807658242589086,101.87437171864927,-4.722975522297469,-13.70831342405815,0.001705697084140828,-9.543353460728188,6.605192351721962,-2.285715844518101e-05,-7.554120429325639,-9.472441054990764,14.81341380568036,-30.372370658388313,-14.45442334434151,10.018216097357358,1.7516631917615197,-0.29105083742175397,7.80044032471548
-5.483001779191654,0.0,0.0,-4.971627108210513,0.0,0.0,-5.554734779638801,-8.036341689771987,9.477525754036371,10.705690447309436,1.318528950358663,-15.113021603056387,-15.119692906952128,-1.252626268592577,-5.468913283190135e-05,-7.018656265027244,-2.0075952214006985,8.04299059284484e-05,24.734909214052802,15.06531704843474,6.912092121258425,4.638302792502049,7.03937769165351,-14.651261839902077,22.075266958010452,19.579262436575913,0.5946481575336544,38.09976485224637,-10.446176345296733,33.61513159681742,130.79096566078326,0.0031575853162790005,-101.32210959980762,121.01270191821474,-0.00019111436528491133,99.79074440187111,-4.905616017044607,-12.84483045351162,-0.00439084336248742,-10.054798817294333,5.844869473697005,0.003385559092192579,-7.777291501471996,-9.199704313646613,14.586193288656846,-30.58438191120576,-14.116089285592437,9.91407140206794,1.627440982268361,0.06309604141980858,7.9420840390249765
-5.767452307438343,0.0,0.0,-4.806847606226377,0.0,0.0,-5.782376069138926,-7.843950272064831,9.755199669908961,10.431167824893443,1.298577540840434,-14.77578866335312,-15.447120964191607,-1.4933865869350504,0.00026202485383591486,-6.789852125060299,-1.8829475015426076,8.541777399963932e-06,24.6578809570878,15.564141847651825,6.70328033976704,4.2832655233422505,7.288704864268971,-14.612169007236368,22.114245256556522,19.44026254476081,0.37966884908540843,38.11349744975478,-10.661016677933834,33.33802016688621,130.7857052834367,0.002426142240406926,-101.05245210520079,121.08913025791517,-0.0008425388871299411,97.87816293320138,-5.5968279835554,-11.898610544922182,-0.0030443986429721376,-10.552027447348935,4.753653173357845,0.0007711954678145539,-7.978772166325889,-8.85723743776815,14.035438481856506,-30.790336841026186,-13.589537660871953,9.534398299789459,1.3258752465118184,0.42964742451201304,8.097937510430627
-7.099694355106022,0.0,0.0,-4.922550940481051,0.0,0.0,-5.770304257260339,-7.749694857146743,9.541078681152275,10.430293186017023,1.6495670537329787,-14.662151039036548,-16.106739563241817,-1.6720485589832006,-6.730988495711056e-05,-6.71914352724826,-1.8859092229842027,1.6827227617701105e-05,24.884056319903635,16.022413981617635,6.912013798527227,4.177264325810989,7.478961752402406,-14.418283003387042,22.24754117386896,19.486554025081137,0.12166889281793525,38.2599401144025,-10.516684557055372,33.254637326770506,131.0188008757415,0.0005173283196578082,-101.91794887149398,121.26500463659988,-0.0018460389998807504,98.29821419810959,-5.8111150002368746,-11.823031785725634,0.002222618548949751,-10.447763911885566,5.179395863361974,0.002264038471591884,-7.722612762110205,-8.681721447847053,13.675471296159532,-30.541396778744115,-13.289807417750737,9.26721476019656,1.092942981120449,0.700162514860684,8.147558534586219
-7.967500278013773,0.0,0.0,-5.4615788352682735,0.0,0.0,-6.095022462562264,-8.212595599930824,9.342883086488674,10.61668711352726,1.9463338470085023,-14.63276405557518,-16.898387069087246,-1.755833632239169,-0.0003804011639337069,-6.783787513625334,-1.9331675441440983,-1.6778942001905388e-05,25.55828051302364,16.356609622390557,6.933958826617572,4.421882989397903,7.621456701510583,-14.505942149882209,22.467325939299407,19.564278358956006,-0.21348356906931953,38.28940892674319,-10.28926786233156,33.20962249362482,131.16802002119616,-0.00034050687633900155,-101.55506795665625,121.38992263382737,-0.0006136682080909922,99.19933144786178,-6.621116827256816,-12.467343154408008,0.003946977733469483,-9.767790308394773,6.111417120605475,0.0022680258885897217,-7.58423885599651,-8.738997436956259,13.638942944426535,-30.41061773521765,-13.32860245497506,9.210184939565213,1.2670063470253141,0.9942677718630264,8.038617772996622
-8.340753228357883,0.0,0.0,-6.139778528134458,0.0,0.0,-6.794491076836109,-9.180203775342935,9.180144372935718,10.757036145937091,1.8177625102610444,-14.842046741651298,-17.75730700763014,-1.9016772744928654,-5.2768387884753024e-05,-6.905935260464749,-1.7693063835545466,-0.0001391679621500239,26.241655913446966,16.63564333665832,6.56942530735493,4.550022215241232,7.6457942139572,-14.57965896638346,22.671880727590292,19.65946413415486,-0.4475911983898301,38.44072259128571,-10.362775664233004,33.3627778543638,131.33968170585496,0.0019812671314607035,-101.83807528995321,121.31068376924664,0.0007756984295768268,99.9888912950801,-6.855697534048389,-13.377664836712063,-0.00924339919542379,-9.367484321136134,6.594828123006272,0.00039922655160925657,-7.574772111842145,-9.017748100696664,13.758169575870298,-30.419459899011514,-13.63121171851569,9.21058435280609,1.325906509979853,1.3311046410617946,7.876748394331789
-8.446841236103664,0.0,0.0,-6.124982938879904,0.0,0.0,-7.607887175761791,-9.54909494430092,8.541323325510795,10.62738764616663,1.308301203590061,-14.984271003005393,-18.713657441044674,-2.148701761991119,0.0006216234543565088,-7.002776064720363,-1.5286331705867322,-2.7032081982590643e-05,26.90024168830957,17.083962747080157,6.715475565459894,4.654269594589869,7.668388644755338,-14.41187109045238,22.914473312263375,19.76425807647264,-0.5626274138023437,38.79478032868826,-10.49532991471955,33.59582386297597,131.5373041848105,0.0018296443230667125,-102.380384882589,121.18892777305263,0.00030283428005327883,100.31320165825291,-5.951517028067682,-14.396486696796606,-0.009513347973333645,-9.237952937857383,7.069815456889668,0.0005086349399616553,-7.536491157159621,-9.189378700750172,13.627123331816293,-30.40571289631489,-13.739101347963986,9.019253242563254,1.2015689699599161,1.6407510963084135,7.980924311634779
-7.461865484652142,0.0,0.0,-5.739590495888771,0.0,0.0,-8.54965794965785,-8.720834713017593,7.675396630652903,10.49664714935375,1.0175430432208004,-14.898705967120115,-19.71181975172467,-2.469611805917633,0.00020807307644112407,-7.056967613426703,-1.4772125353619252,9.618808466231246e-05,27.47756658034724,17.53731844230535,7.268799904484464,4.6929267802771,7.6943767628193465,-14.526962703211451,23.254246720538692,19.820189429613276,-0.6871893087252666,39.169756819883034,-10.522210954349237,33.665789912942635,131.39345664627052,0.003242740704555301,-101.03854475839049,121.10000301467556,0.0004648757336558901,99.71860614140482,-6.01896646459565,-13.858067020253582,-0.00411730005475249,-8.93617113677137,7.151667867103331,-4.247892884300458e-05,-7.377994179867134,-9.194313280668148,13.433702414334102,-30.25968610366683,-13.669438088641805,8.836194761486109,0.9496767360854034,1.8035138771608137,8.153455409928558
-6.423326955068596,0.0,0.0,-5.337409208650606,0.0,0.0,-9.618886285752424,-8.324743849324514,6.739529653616943,10.36918375701684,1.3095644931529307,-14.576750229128098,-20.669875793315793,-2.6688380092015405,-0.0005883559712774085,-7.185846299467175,-1.5336447234002117,-3.7906207179507465e-06,27.91881996564188,17.832948661531837,7.786203389689173,4.6189147120513825,7.591863566167358,-14.972651682106498,23.492625215129515,19.72293836294262,-0.6860463644588596,39.40262452262259,-10.524794394621917,33.66899110616205,131.05777746921783,-5.781274686066077e-05,-100.70470294406148,121.04163611319714,0.0005002132114349763,98.92657334492412,-5.954185194940182,-11.87518766478392,0.0003031178657310783,-8.162742400119498,6.741141688215146,-7.326771516354426e-05,-7.055464515142076,-9.083551458018112,13.5626969286471,-29.918715448965333,-13.616877115239564,9.001248897678249,0.637665629778105,1.879422290374408,8.177327773542707
-7.177290491741819,0.0,0.0,-5.387923183669246,0.0,0.0,-10.295590981255616,-9.119428584275262,6.1219590652802625,10.365048933635949,1.4009169947224067,-14.52645267271912,-21.573027326276858,-2.8598870564749346,0.00011609334090333264,-7.482303390195922,-1.426839934572101,-0.0003311038535121164,28.38829378855885,18.07816358307544,7.902311719112009,4.681684181104212,7.373033170352573,-14.971326976392055,23.69367508311944,19.574174866564583,-0.7649312607127225,39.6270846577745,-10.451440886318002,33.72830735063867,130.90431986699966,0.0004951576734566718,-102.75233637591526,120.89596633513627,-0.0005371682972526761,98.87810070158858,-5.881890910914223,-11.139757903970162,-0.0009440243282467731,-7.191245579239768,6.534400646264127,0.002177171181969406,-6.934599016120501,-8.984154798341121,13.730726766427297,-29.7778915350934,-13.589725165686758,9.198300227393654,0.40463709168275985,1.954510039384774,8.17102371759927
-8.347963325981624,0.0,0.0,-6.07219486034825,0.0,0.0,-10.721568063367835,-9.60239952149323,5.7249245801610735,10.613490060707065,1.4504734987310173,-14.620373321277324,-22.320377474558935,-3.2183563193398883,0.00040086252186891715,-7.865616814937817,-1.3237739907745234,7.083941448840908e-05,28.75377769242352,18.3075912571029,7.670952120619603,4.810576929809442,7.124639173382906,-14.742484233140082,24.002658600639137,19.683318195048255,-0.9565011716080816,39.87294989172831,-10.20464141107086,33.78327811311993,130.95529417359546,0.00019588496181537475,-103.15310826263004,120.57646086080476,-0.0023281700167398574,98.11283257640177,-6.747387912876776,-11.932393029310248,0.0027729642842975067,-6.810890127510816,6.162502144468427,0.0015621846373463414,-6.954588507008743,-8.952803213944078,13.700603923474706,-29.796861256966466,-13.549289312028705,9.182612150212487,0.1902373930800359,1.9070341560098636,8.230319040686082
-8.771080786450536,0.0,0.0,-6.558934309567975,0.0,0.0,-11.34369364385352,-9.306391546656913,4.8832054345826155,10.83635287534329,1.9038181215100152,-14.494138824608227,-22.919269536852358,-3.4907015813720896,-0.0001641611546055572,-8.257791391473571,-1.4312407570144816,0.00015071300769721395,29.106890508796813,18.559399451240225,7.715116583054183,5.0289931615938235,6.969767480752312,-14.834835449842462,24.105555452519074,19.902099993274078,-1.1585784457415893,39.977583885996964,-9.985395821627376,33.89961775193394,131.14819307059716,-0.0009338777772723417,-102.03409810958213,120.36815950129252,-0.00036422995760012906,97.07246956533734,-7.63267892357671,-12.806249118453838,-0.00020053159938343562,-6.9840974990867055,6.140135567095869,-0.00018159782847921481,-6.8969673980464625,-8.90506481177497,13.70254130841115,-29.73465792883872,-13.506033965714765,9.203474580587717,0.1588750917045392,1.8432189141671333,8.308832513453869
-9.085673585282667,0.0,0.0,-6.257386519482831,0.0,0.0,-12.081201427563487,-8.960757007611134,3.9950417622766916,10.88009729586348,1.9859358286672475,-14.759339542936827,-23.30009010295311,-3.709830497282014,-0.00013337532745057775,-8.604058066481556,-1.4832825027684164,-0.00010480113211511109,29.167170206389287,18.765115276866837,7.92400633936643,5.021498832549148,6.832565510593346,-14.592083649783255,24.0984385817084,19.8044910052513,-1.2623921192182577,40.250746274034285,-9.933501601672408,34.154705982665625,131.33758664772395,0.0002907866410731205,-101.2263109721845,120.3078496702826,0.00041721995877069053,97.19548437115235,-8.316165088876927,-13.151711050583685,-0.0018807023429494674,-7.6337241123543516,6.6316721936686935,-0.001353108169123412,-6.838523290856246,-9.058366350954092,13.596747979516357,-29.697268741337247,-13.606736064232368,9.04319955570008,-0.039581810860159376,1.8049630371997916,8.390930500636653
-8.896748750843361,0.0,0.0,-5.586890735179008,0.0,0.0,-12.838957287111539,-8.812562814160184,3.026233486811473,10.906748567849244,2.072969875897738,-14.963194728225602,-23.513185619128006,-3.8650833372900566,-0.00022557441767272963,-8.835452810380518,-1.6205342676667662,7.050667066719397e-05,28.918776143907415,18.911785127931143,8.261938473687254,4.800588780780772,6.699632626639416,-14.329370236768744,24.152146413702198,19.545782607784915,-1.2290983143422411,40.813744418047165,-9.893337507240155,34.38680770582598,131.4559076191538,0.0013527516814113476,-101.83386872656916,120.18533882416955,-0.0003944882514878761,97.5389484603851,-8.324971700836112,-13.778207496403338,-0.0045695733851490936,-7.963813868841622,7.010315251572442,4.776302089246258e-06,-6.780012452619555,-9.305365368378837,13.54078423648195,-29.665658073627963,-13.812834662277446,8.89198579206482,-0.4545801176091297,1.752067701084557,8.526134674354063
-8.48218755848138,0.0,0.0,-5.226170139481982,0.0,0.0,-13.544424621748075,-9.011562305590125,1.7842033206829078,11.035542963954551,2.468452329575443,-15.074429984916474,-23.738176255636674,-3.8001005716845278,-0.0001253460319455392,-8.985887422177303,-1.7747045449035699,2.8231466399950895e-05,28.76644824759029,19.004122493360786,8.609826575445855,4.594348232680664,6.596738209352725,-14.300911750678765,24.178894102767043,19.372299617839303,-1.2863077354891863,41.27819500396384,-9.847838490478754,34.5442888081104,131.50691642192444,0.0003593116434878834,-103.75588031393883,120.07234628273915,-0.00035902839924616207,97.00700222016981,-7.592094629038938,-14.88033341951743,-0.005170885812102926,-7.998874322831366,6.9833879091378614,9.103545944651993e-05,-6.813610716757148,-9.543024713548531,13.38962744745408,-29.73136712961839,-13.973734206549405,8.655214036719533,-0.7836683220423208,1.7481594369344544,8.54637945426864
-7.481159382973568,0.0,0.0,-4.536511042643301,0.0,0.0,-14.149423781557177,-8.57910883987942,0.5422145039044896,10.973629622887525,2.5588843240349446,-15.114468951563722,-23.96668716863601,-3.8467940902875264,8.630607707517449e-05,-9.161397427469872,-1.7473097961843005,-8.476012815588045e-05,28.780984783823477,19.15083807453587,8.773888331165898,4.499782900643758,6.502137965966014,-14.381123477182856,24.191351041253334,19.205519679901073,-1.4338897458120003,41.4458997602505,-9.841774895196393,34.57773330260217,131.4754815584278,-0.000628763711974378,-105.12531916025202,120.15955284400455,7.583174236051075e-05,96.7850757104462,-6.711111450792378,-16.11657684830978,-0.0020075043262219707,-7.880793940020088,7.015972762996983,0.0009745121579065873,-6.907956284744138,-9.589263493241322,12.978300096536795,-29.854368269598126,-13.85827932306312,8.251803123602143,-0.9086871536231735,1.808352446205647,8.571300660869305
-6.750916563426633,0.0,0.0,-4.4779482813093425,0.0,0.0,-14.286564571193288,-8.088763785224483,-0.3911099695835327,11.008058999350276,2.2353812093353977,-15.152686196355495,-24.372919205430307,-3.9057615887755204,-0.0005270967127890137,-9.406105851994496,-1.6061171862958923,-3.45217713048613e-05,29.063377233501974,19.220520018044326,8.904653872558903,4.597665529571794,6.3525712284880615,-14.563341389767157,24.211049763470772,18.998688195791274,-1.53817415964975,41.547293032210696,-9.930734493166526,34.64079218905492,131.33481028577424,-0.00041889040643338244,-105.62759032273067,120.29932002701928,0.0002725652841082233,96.82152180381982,-6.605657960198219,-16.813795247959504,0.0021225958418512117,-7.488555838467337,7.614769661255215,0.000867455587051691,-7.2518334112677465,-9.631086469974928,12.458683970074551,-30.231175723177905,-13.696916094442557,7.749296624753965,-0.8043771290747224,1.8650796065671853,8.64827240576844
-6.181850034841546,0.0,0.0,-5.128670064086665,0.0,0.0,-13.882092161639378,-8.589436312805736,-0.7798000282403227,11.314033029227316,1.6187966169016776,-15.206255367160558,-24.987712729836463,-3.878137142019646,-2.5354247381555387e-05,-9.748032150972032,-1.5420618943637792,5.719300353888357e-05,29.64664912870073,19.123111333558313,8.863837862621319,4.907233871871313,6.17538661943556,-14.932190457383381,24.152714721787056,18.863142012326783,-1.5369689940843592,41.79264486054776,-10.115401849415257,34.85606576655317,131.1296129844115,0.001724345637108944,-105.1921882511571,120.23635696237038,0.00038724390294721033,96.96442542724988,-7.504228967155549,-16.361660645382898,-0.0021567769737659472,-7.43374430854278,8.291966996390526,-0.0006554145895998649,-7.694039023362605,-9.824895731515102,11.885625582493759,-30.72148520334779,-13.654591042898879,7.1362775947536665,-0.5718060068327995,1.8542664252802705,8.569559601109564
-5.4824899828118445,0.0,0.0,-5.993739718824479,0.0,0.0,-12.980471025597428,-9.008378403255367,-0.5411624817612221,11.74815911795928,1.091707564483425,-15.40340054582968,-25.613640321011395,-4.124958324908172,0.0007743552076367879,-10.129459342549735,-1.4649975082974915,-0.00016046298938472735,30.155407581214796,18.939545270344446,8.257950417418227,5.20213771484578,5.8841193456373775,-15.062412813570456,23.976184479684154,18.843626680070507,-1.3859674022024706,42.03775725986239,-10.109646510124664,35.115183405408196,130.79657797958706,0.002417309910711309,-104.27141114824585,120.08311936005435,-0.000302731168006005,96.6508111371224,-7.514767008356871,-14.583438128542292,0.0020152436434127917,-7.426031234513351,8.200932044687905,-0.0003768895420706853,-7.7996530000750655,-9.978118110219691,11.769674530065943,-30.847417603465793,-13.750883294538825,6.966371382236408,-0.3665573381916879,1.6982226641568625,8.43383964776538
-5.657744706508991,0.0,0.0,-7.0427710381185875,0.0,0.0,-11.743014101491063,-9.098277489262491,0.02963652485707681,12.12257335711622,1.158557767366591,-15.767514311937425,-26.10529141377262,-4.284332319990739,-0.00036060610070566773,-10.42685674878374,-1.3988820710977499,9.873061588500703e-06,30.444932022932207,18.772968338604638,7.7452861734753204,5.370186207697022,5.623956727244414,-14.955835553958224,23.79801978009333,18.935661781805653,-1.3544309854295822,42.154058084468275,-9.96678019282272,35.237796197044375,130.49141954089316,-0.00019756169332698433,-104.9648407176242,119.91636583328795,-0.0013034331996736952,95.79443835559326,-6.527133786185331,-13.519388649127837,-0.003674297044484514,-7.459176435463557,7.342325457793698,-0.000519991761810827,-7.902421967882888,-9.865224333049094,11.66368698202279,-30.94455130038402,-13.606130523239074,6.9129666618962835,-0.18299496109486144,1.52789841359989,8.397254078043375
-6.575133256598383,0.0,0.0,-7.222656096653951,0.0,0.0,-10.468097262449856,-9.143712092371398,1.1079004960506071,12.291063643876587,1.5462754558404495,-16.285378239117044,-26.186768628601666,-4.008584237925325,2.965917039634422e-05,-10.458218258800239,-1.5292864319558293,-0.0001222984564285981,30.36160924702501,18.659841500211797,7.958534326583202,5.225670146023119,5.637588608816886,-14.860750702128561,23.696381405965624,19.168839002489324,-1.6665611634053992,42.234035724922926,-9.894546978857957,35.17477674043416,130.19447027196276,0.00329855485656917,-105.38077424620685,119.62802020924494,0.0006133605746503235,95.6184400994033,-6.747267233414737,-13.20426371135729,-0.008922613820299592,-7.601768431822308,6.327980561080988,0.0006653976528550837,-8.214932196930647,-9.67603403638911,11.414669373465918,-31.251158623271248,-13.335991008475556,6.756887262487203,-0.1940284991320666,1.4671562059980994,8.382621800380832
-6.408751347114084,0.0,0.0,-6.156456754149423,0.0,0.0,-9.874436326548325,-9.077913616657817,2.4056225299239737,12.160369679374389,1.54137296631697,-16.63593852860466,-25.675506240839322,-3.5395973010230652,0.0006408054179999086,-10.268015348377197,-1.7101276584577685,-0.00010804788534773346,29.742770932795032,18.549728112250172,8.511270414814998,4.681536162907668,5.765004368421475,-14.759481076188289,23.550802228613264,19.30644831022241,-1.9404279523033898,42.39378319586688,-9.820043060901138,35.22110901732137,129.9984198528913,0.0028916311641929197,-104.01129800717139,119.33377058727372,0.0016782286570521312,97.33242419972112,-8.075704735696165,-12.63494631757841,-0.004521153956045794,-8.137782266073827,5.880654634773187,0.0017972805866035035,-8.380582505898529,-9.574314675025974,11.244137832488118,-31.415368699253573,-13.176594465829744,6.638814495162245,-0.5065881200311061,1.4450479253131612,8.42983943148785
