PaulMeinheit/Bachelor_Muay_Thai/processed_Data/E_01/E_01_Teep/sliced/Raw_Data/E_01/E_01_Teep/JointMoments.txt/sliced7.csv
Unnamed: 0_level_0,R_KNEE_MOMENT,R_KNEE_MOMENT,R_KNEE_MOMENT,L_KNEE_MOMENT,L_KNEE_MOMENT,L_KNEE_MOMENT,R_HIP_MOMENT,R_HIP_MOMENT,R_HIP_MOMENT,L_HIP_MOMENT,L_HIP_MOMENT,L_HIP_MOMENT,R_ANKLE_MOMENT,R_ANKLE_MOMENT,R_ANKLE_MOMENT,L_ANKLE_MOMENT,L_ANKLE_MOMENT,L_ANKLE_MOMENT,WAIST_JOINT_MOMENT,WAIST_JOINT_MOMENT,WAIST_JOINT_MOMENT,NECK_MOMENT,NECK_MOMENT,NECK_MOMENT,L_SHOULDER_MOMENT,L_SHOULDER_MOMENT,L_SHOULDER_MOMENT,R_SHOULDER_MOMENT,R_SHOULDER_MOMENT,R_SHOULDER_MOMENT,L_ELBOW_MOMENT,L_ELBOW_MOMENT,L_ELBOW_MOMENT,R_ELBOW_MOMENT,R_ELBOW_MOMENT,R_ELBOW_MOMENT,L_WRIST_MOMENT,L_WRIST_MOMENT,L_WRIST_MOMENT,R_WRIST_MOMENT,R_WRIST_MOMENT,R_WRIST_MOMENT
ITEM,X,Y,Z,X,Y,Z,X,Y,Z,X,Y,Z,X,Y,Z,X,Y,Z,X,Y,Z,X,Y,Z,X,Y,Z,X,Y,Z,X,Y,Z,X,Y,Z,X,Y,Z,X,Y,Z
2868,22.89343,-50.41395,4.88891,-19.90594,9.28784,2.54441,-16.50304,-34.25636,4.94387,-19.88486,16.71602,5.11371,3.271,-11.21883,3.83827,-34.93885,15.84884,3.94377,-30.09804,5.90891,-1.7484,42.99405,-0.48499,-2.46924,5.50043,-1.51209,-0.49237,4.92841,-4.33821,-0.81417,1.04008,-1.43715,-0.10909,2.27405,0.89873,0.07337,0.1956,-0.09164,-0.01022,0.24921,0.06958,0.03043
2869,22.82476,-49.05909,4.89752,-21.40808,10.74188,2.88702,-15.81417,-33.30646,4.33304,-21.74614,17.97384,5.15168,3.3286,-11.0617,4.03236,-37.06873,17.05695,4.28727,-32.99534,4.39733,-3.3897,44.98094,2.50703,-1.20339,5.75311,-1.40675,-0.77232,5.44101,-4.89834,-0.70871,1.23015,-1.05296,-0.24184,2.17274,0.8595,0.05523,0.21943,0.04443,-0.04731,0.21646,0.05435,0.03074
2870,22.77614,-48.24294,4.99446,-22.80824,12.20703,3.31447,-14.81209,-33.71432,3.9625,-21.76474,17.49393,5.05013,3.32189,-10.82297,4.22472,-39.11626,18.27031,4.68109,-31.55816,0.09392,-5.33497,42.20121,4.74931,-0.59718,5.80724,-1.58146,-1.10923,6.07129,-5.33089,-0.49512,1.39987,-0.90483,-0.41588,2.05148,0.80412,-0.0024,0.24991,0.0935,-0.09248,0.2086,0.02846,0.02529
2871,22.61043,-47.8007,5.21309,-23.87021,13.5241,3.78066,-14.12455,-34.52275,4.18234,-19.6323,15.89837,4.87349,3.24215,-10.47733,4.40517,-40.93277,19.45651,5.13058,-26.80708,-4.49183,-6.86903,36.56952,5.07512,-0.60605,5.48422,-2.02896,-1.47335,6.61163,-5.43331,-0.16413,1.56438,-1.00402,-0.6212,1.93049,0.71497,-0.05605,0.28606,0.03757,-0.13193,0.22579,-0.00663,0.02145
2872,22.05471,-47.51134,5.57241,-24.59865,14.69674,4.24672,-14.49914,-34.91838,5.09985,-16.21932,14.32833,4.81127,3.04294,-9.95689,4.55349,-42.41791,20.59332,5.61042,-21.48293,-7.05688,-7.22313,31.22731,2.7028,-0.67548,4.82789,-2.54376,-1.73179,6.87915,-5.18043,0.2446,1.6985,-1.26643,-0.78553,1.80198,0.56544,-0.06809,0.3121,-0.08713,-0.14402,0.24714,-0.05022,0.02354
2873,20.89445,-47.32458,6.05811,-25.30477,15.87584,4.70657,-16.22989,-34.90608,6.39954,-12.63077,13.67475,5.18822,2.64618,-9.16045,4.64821,-43.58169,21.67365,6.07004,-17.29266,-6.9508,-6.27885,28.93289,-2.37333,-0.23955,4.18902,-2.8677,-1.67842,6.8281,-4.76301,0.61185,1.72688,-1.67191,-0.81419,1.70746,0.37373,-0.01172,0.31055,-0.23672,-0.11649,0.25813,-0.09478,0.03499
2874,19.11782,-47.31736,6.61012,-26.13043,17.16231,5.14666,-19.25624,-34.84234,7.58884,-9.13771,14.15823,6.16011,1.97375,-7.99813,4.66854,-44.42304,22.64189,6.4519,-14.27889,-4.66527,-4.83308,30.01873,-8.95267,0.78757,3.99813,-2.84986,-1.22182,6.52789,-4.46812,0.75892,1.6205,-2.21434,-0.68987,1.71631,0.20488,0.10156,0.28755,-0.37435,-0.06495,0.25866,-0.12693,0.05206
2875,16.80077,-47.6665,7.18739,-26.94819,18.44015,5.48015,-23.35284,-35.2736,8.37778,-5.61891,15.36935,7.43908,0.96224,-6.40632,4.59456,-44.84028,23.36102,6.67666,-11.96989,-1.35258,-3.75194,32.22736,-14.67027,1.86395,4.43131,-2.50229,-0.52329,6.11977,-4.47107,0.56158,1.45002,-2.75363,-0.50915,1.85807,0.12881,0.2076,0.27301,-0.45764,-0.03036,0.25795,-0.13555,0.05986
2876,14.02075,-48.59067,7.79288,-27.66355,19.44542,5.58268,-28.26167,-36.76619,8.739,-2.40343,16.62193,8.4673,-0.42025,-4.35076,4.41405,-44.64795,23.6524,6.65482,-10.35606,1.82572,-3.32483,32.62935,-16.98518,2.23822,5.28259,-1.98778,0.09594,5.76056,-4.69782,0.06626,1.32786,-3.06967,-0.39836,2.09596,0.18843,0.23812,0.29126,-0.45799,-0.04336,0.26793,-0.11763,0.04723
2877,10.87376,-50.18493,8.45255,-28.37181,19.99294,5.39442,-33.93455,-39.48148,8.78497,-0.25685,17.51992,8.87452,-2.14994,-1.86224,4.14697,-43.61306,23.34475,6.33058,-10.25602,4.63243,-3.26418,30.14037,-14.83712,1.5351,6.10535,-1.52565,0.38293,5.56052,-4.92989,-0.55357,1.32767,-3.0649,-0.42311,2.36318,0.39824,0.17444,0.33709,-0.39573,-0.09564,0.29642,-0.07624,0.0196
2878,7.49196,-52.31034,9.18547,-29.25117,20.1104,4.95542,-40.48559,-43.0813,8.69814,0.23817,18.05249,8.66377,-4.15436,0.96192,3.84153,-41.51344,22.31488,5.69773,-12.61039,7.59748,-2.98288,26.07841,-9.60724,-0.07737,6.50328,-1.22717,0.26749,5.51713,-5.009,-1.12992,1.47191,-2.81236,-0.602,2.59597,0.72273,0.05377,0.38486,-0.32116,-0.16223,0.33591,-0.02165,-0.00712
2879,4.06521,-54.64784,9.98353,-30.50233,19.83928,4.36728,-47.76049,-46.66594,8.78821,-1.12805,17.87357,7.87795,-6.32536,3.97689,3.54387,-38.23404,20.516,4.80743,-17.53613,11.16745,-2.06025,22.61519,-4.70697,-2.09612,6.36801,-0.99508,-0.10765,5.56153,-4.94289,-1.55604,1.71827,-2.4346,-0.89784,2.75501,1.06763,-0.05701,0.41059,-0.26464,-0.2238,0.368,0.03044,-0.01989
2880,0.76729,-56.99357,10.82374,-32.19185,19.04194,3.72986,-55.2409,-49.31751,9.35321,-4.27309,16.04893,6.30478,-8.53317,7.0126,3.2653,-33.8598,17.99909,3.75154,-24.45914,14.71891,-0.56913,20.72505,-3.56613,-3.92266,5.94443,-0.67574,-0.42626,5.67632,-4.83993,-1.76391,1.91513,-2.03868,-1.15347,2.85328,1.33186,-0.09523,0.39891,-0.22123,-0.25619,0.38629,0.06979,-0.01499
2881,-2.28629,-59.42008,11.67273,-33.86996,17.6628,3.14279,-62.02573,-50.9279,10.26576,-8.15475,12.20604,3.93443,-10.65904,9.91884,3.00127,-28.65895,14.94006,2.65693,-31.44077,17.01503,1.30928,19.92333,-7.3274,-5.02205,5.60501,-0.28688,-0.42947,5.89955,-4.77123,-1.66519,1.84272,-1.68624,-1.15965,2.9091,1.42964,-0.02512,0.33729,-0.16704,-0.23278,0.39761,0.09021,0.0049
2882,-5.08003,-62.00583,12.48025,-34.46091,15.87226,2.66973,-67.64353,-51.74898,11.05956,-10.27177,7.38503,1.45219,-12.61491,12.58928,2.74207,-23.00303,11.6098,1.66179,-35.4414,18.20159,3.52832,18.66204,-13.82148,-4.95522,5.57799,-0.06562,-0.17705,6.18024,-4.69703,-1.18106,1.39442,-1.38877,-0.84548,2.83122,1.29753,0.12636,0.2281,-0.09236,-0.15264,0.38544,0.08182,0.03108
2883,-7.69986,-64.68837,13.23432,-32.68754,13.81364,2.28454,-72.8894,-52.03346,11.50434,-7.72071,2.91689,-0.2282,-14.33707,14.95858,2.47053,-17.2697,8.29335,0.88159,-34.50833,19.06189,5.8161,15.47277,-19.08202,-3.34329,5.81691,-0.26719,0.05051,6.3423,-4.50139,-0.35987,0.67876,-1.16521,-0.32366,2.46602,0.95597,0.26703,0.09711,-0.02221,-0.0408,0.31364,0.04038,0.0506
2884,-10.16284,-67.38399,13.9641,-27.81526,11.41807,1.90973,-78.69878,-52.3709,11.71256,0.66635,-0.95558,-0.72356,-15.7761,16.99837,2.17281,-11.79327,5.25114,0.38972,-28.79,18.90648,7.83245,9.93471,-20.13436,-0.1047,6.07482,-0.8756,0.08089,6.24127,-4.12602,0.53667,-0.06036,-1.0253,0.23795,1.81639,0.56639,0.30747,-0.01523,0.01454,0.07644,0.17908,-0.01705,0.05693
2885,-12.34018,-69.91172,14.67018,-20.19336,8.48083,1.51271,-85.18395,-53.11087,11.90344,13.62511,-4.97109,-0.31328,-16.91436,18.73377,1.84291,-6.87555,2.68765,0.21483,-20.03364,16.5787,9.42063,3.21822,-16.70973,4.02178,6.14824,-1.5447,-0.02267,5.85945,-3.65047,1.09656,-0.579,-0.91706,0.70674,1.10917,0.36561,0.21864,-0.06728,0.01759,0.17658,0.02867,-0.0559,0.05294
2886,-14.039,-72.01958,15.31066,-11.35594,5.00879,1.12845,-91.75517,-53.86982,12.31289,28.16068,-9.87444,0.23904,-17.79122,20.2208,1.47796,-2.8206,0.71089,0.29919,-10.98793,12.02506,10.3348,-2.38984,-10.9718,7.37979,6.0335,-1.90111,-0.04152,5.265,-3.25,0.97318,-0.79656,-0.86028,1.00568,0.64231,0.49321,0.04228,-0.04874,-0.01684,0.24004,-0.07619,-0.04937,0.04273
2887,-15.04002,-73.63522,15.80725,-3.17416,1.55114,0.7652,-97.23366,-54.00543,12.98748,41.38652,-15.43196,0.28118,-18.49719,21.50528,1.07122,0.12965,-0.62955,0.47387,-3.32993,6.63501,10.32749,-4.75909,-5.88067,8.10231,5.84196,-1.84827,0.17623,4.58859,-3.09306,0.10488,-0.83947,-0.96909,1.09697,0.61386,0.88981,-0.13486,0.00326,-0.10484,0.25069,-0.09546,0.00218,0.02572
2888,-15.18781,-74.87194,16.07366,3.09805,-1.18071,0.43308,-100.39497,-52.91151,13.61614,51.85683,-20.5976,-0.07645,-19.12854,22.6167,0.62764,1.93814,-1.37494,0.61118,3.42747,2.72751,9.55317,-2.83819,-3.69798,5.31912,5.63883,-1.56464,0.49201,4.03493,-3.28529,-1.21548,-0.82657,-1.25564,0.9314,0.99397,1.35473,-0.24321,0.04752,-0.22678,0.18943,-0.03683,0.07538,-0.00239
2889,-14.5509,-75.6957,16.08009,7.24946,-2.82832,0.11175,-101.21618,-49.82735,13.82524,59.5007,-24.2326,-0.16157,-19.742,23.57934,0.18174,2.81327,-1.66812,0.6634,9.95912,2.79029,8.41164,2.81932,-5.31689,-0.02461,5.40971,-1.29403,0.6108,3.84236,-3.80051,-2.45662,-0.76652,-1.57668,0.50437,1.5695,1.69254,-0.25891,0.06756,-0.32535,0.05563,0.0627,0.14562,-0.04035
2890,-13.3743,-75.95007,15.89516,9.95306,-3.60665,-0.26377,-101.09166,-44.42259,13.60745,64.78065,-25.85181,0.41074,-20.34195,24.39689,-0.21831,3.0931,-1.69598,0.62795,15.0705,7.66341,6.90116,10.12795,-10.49262,-5.59935,5.22961,-1.18262,0.43147,4.24936,-4.4842,-3.10739,-0.68128,-1.80389,-0.03773,2.13188,1.84217,-0.2018,0.05857,-0.36113,-0.10296,0.17935,0.20376,-0.07795
2891,-11.89411,-75.80236,15.67749,12.20999,-4.1446,-0.69717,-101.50731,-38.14127,13.22739,68.04282,-26.06026,1.17812,-20.89894,25.0742,-0.54018,3.13605,-1.63534,0.55477,16.60375,14.51911,4.4339,16.01753,-17.95953,-9.15464,5.33774,-1.24234,0.12232,5.24005,-5.05756,-2.8944,-0.62599,-1.93243,-0.46405,2.50484,1.831,-0.13769,0.03,-0.34476,-0.21648,0.29037,0.24438,-0.10881
2892,-10.16694,-75.70031,15.56482,14.60426,-4.89665,-1.11405,-102.66869,-33.76097,12.75858,69.43384,-25.8474,1.42266,-21.37555,25.6859,-0.77186,3.15357,-1.57522,0.50307,13.88102,18.41245,0.7099,17.78614,-25.64687,-9.8244,5.94892,-1.40966,-0.10904,6.38245,-5.18403,-1.87373,-0.59749,-2.02272,-0.63063,2.53775,1.69034,-0.13625,0.00998,-0.31292,-0.24583,0.35574,0.25738,-0.1347
2893,-8.05089,-75.78468,15.54756,17.10711,-5.76607,-1.44623,-103.52454,-32.94455,11.99784,69.50659,-25.74302,1.09893,-21.75014,26.39174,-0.90951,3.19253,-1.51199,0.50838,8.94251,16.56204,-3.4447,14.8734,-31.29768,-8.23916,6.88358,-1.57747,-0.15406,7.08959,-4.67384,-0.42553,-0.57344,-2.07741,-0.51434,2.25014,1.47045,-0.1802,0.01087,-0.28714,-0.18793,0.36101,0.24416,-0.14783
2894,-5.35101,-75.63365,15.46664,19.36142,-6.29724,-1.69422,-102.87769,-34.56623,10.85687,69.23063,-25.63693,0.89453,-22.04272,27.35733,-0.95735,3.23134,-1.41435,0.57821,4.9793,10.95432,-6.46827,9.38375,-33.12508,-5.54455,7.57788,-1.61251,0.04782,7.07534,-3.71142,0.88554,-0.62851,-2.01628,-0.13191,1.8702,1.25418,-0.17463,-0.00128,-0.25463,-0.05054,0.3409,0.21741,-0.12809
2895,-2.01802,-74.64614,15.15905,21.03163,-6.14718,-1.91346,-100.27785,-35.80222,9.60827,69.37656,-25.14901,1.55995,-22.30639,28.6849,-0.92744,3.24985,-1.27714,0.6835,4.15764,6.70392,-7.07761,4.30941,-30.39893,-2.44281,7.41808,-1.40125,0.49482,6.50475,-2.79917,1.57308,-0.83614,-1.74658,0.43502,1.60941,1.1215,-0.07943,-0.06751,-0.18651,0.14055,0.33308,0.18682,-0.07129
2896,1.74089,-72.58339,14.59832,22.00033,-5.4268,-2.13888,-96.05103,-34.75962,8.65258,70.0976,-24.18186,3.3225,-22.60218,30.41233,-0.84384,3.24613,-1.14635,0.76621,6.77911,7.44842,-4.81297,1.30972,-23.98276,0.87445,6.30441,-1.0005,1.06703,5.82462,-2.40624,1.47083,-1.11455,-1.36,0.97408,1.51679,1.14375,0.03602,-0.17306,-0.09481,0.32312,0.34319,0.1637,-0.00291
2897,5.51677,-69.75149,13.90153,22.36543,-4.42664,-2.39826,-90.74423,-31.90174,8.18229,71.29466,-22.91271,6.05598,-22.96522,32.52052,-0.75966,3.21664,-1.074,0.75819,12.29316,12.61286,0.2548,-0.17831,-16.37813,4.15294,4.76507,-0.6591,1.53648,5.40109,-2.62911,0.85371,-1.26038,-1.12864,1.21779,1.50616,1.29898,0.09082,-0.24919,-0.04529,0.4194,0.35322,0.15316,0.04714
2898,8.87287,-66.77819,13.25758,22.43378,-3.36539,-2.70832,-85.06772,-29.05289,8.12125,73.01179,-21.72297,9.40738,-23.39143,34.93695,-0.73584,3.17299,-1.07295,0.63266,19.90998,18.3308,6.73314,-1.42706,-10.53237,6.62603,3.60836,-0.61593,1.6185,5.28423,-3.17724,0.28221,-1.102,-1.20972,1.01814,1.45941,1.41733,0.09318,-0.22452,-0.08459,0.37912,0.34186,0.13924,0.0725
2899,11.57969,-64.2976,12.81817,22.34005,-2.57295,-2.96984,-79.79571,-27.67791,8.2088,74.37828,-21.07908,12.3344,-23.84587,37.56409,-0.81266,3.11723,-1.12807,0.40888,27.37269,20.55644,11.65477,-2.73172,-8.15001,7.36055,3.34584,-0.85736,1.14195,5.26871,-3.63666,0.20334,-0.62196,-1.44233,0.45133,1.30542,1.32094,0.11597,-0.07885,-0.17675,0.20964,0.29452,0.10189,0.08685
2900,13.72279,-62.61983,12.58649,21.91695,-2.33494,-3.02577,-75.12115,-27.86033,8.10593,73.78358,-20.9909,13.61928,-24.27542,40.28841,-1.0027,3.05647,-1.20054,0.14051,32.0104,18.44787,13.07193,-3.63546,-9.36795,6.11821,3.87787,-1.12848,0.28822,5.13724,-3.76836,0.61489,-0.00415,-1.5554,-0.23469,1.06676,1.01242,0.2033,0.12926,-0.24297,-0.02269,0.209,0.04458,0.09947
2901,15.55182,-61.5369,12.41828,20.96401,-2.59441,-2.82884,-70.59355,-28.22738,7.61365,70.52311,-21.05142,12.75438,-24.63838,42.99022,-1.29228,3.00314,-1.24216,-0.10804,33.14695,14.85522,11.44663,-3.94218,-13.81326,3.71856,4.6452,-1.14903,-0.3756,4.82088,-3.60873,1.12526,0.43033,-1.47957,-0.75927,0.83313,0.66209,0.32698,0.28794,-0.24595,-0.2202,0.10127,-0.0094,0.10628
2902,17.26562,-60.64068,12.16212,19.49849,-2.95183,-2.4712,-65.86774,-27.17917,6.84735,65.61203,-20.88975,10.28172,-24.93024,45.56007,-1.66652,2.95934,-1.22176,-0.28129,32.366,13.67478,8.58741,-4.12662,-21.62675,1.49576,5.08606,-0.86129,-0.2633,4.43992,-3.35551,1.31409,0.41859,-1.41605,-0.94998,0.70873,0.4702,0.41809,0.30828,-0.22292,-0.30231,0.00812,-0.03483,0.09899
2903,18.98552,-59.73928,11.77188,17.67674,-2.83175,-2.06092,-60.86776,-24.42352,6.08759,60.96045,-20.26087,7.58602,-25.17143,47.92968,-2.11694,2.91552,-1.12732,-0.33297,32.24899,16.94666,6.68394,-4.74642,-32.24619,0.35865,5.03587,-0.49225,0.715,4.1904,-3.15334,1.0297,-0.07598,-1.59261,-0.79164,0.7432,0.556,0.40206,0.18608,-0.23603,-0.24792,-0.03209,-0.01438,0.06946
2904,20.81527,-58.85991,11.28143,15.71468,-1.92287,-1.6148,-55.52389,-21.15363,5.45672,58.04976,-19.15858,5.7722,-25.38161,50.08587,-2.62738,2.86546,-0.97509,-0.24236,34.82966,23.41252,6.85154,-5.84279,-42.75134,0.23113,4.71923,-0.36362,1.96715,4.15996,-3.02988,0.40689,-0.86992,-1.96172,-0.36764,0.8853,0.89301,0.24116,-0.00994,-0.29245,-0.09921,-0.01365,0.04986,0.01399
2905,22.80262,-58.00946,10.74188,13.82204,-0.55157,-1.07479,-50.04449,-18.96059,4.84729,56.63287,-17.74925,4.40272,-25.56827,52.0436,-3.16967,2.81793,-0.81663,-0.02926,39.03551,29.23194,7.64856,-7.25143,-48.23714,0.22704,4.48041,-0.63695,2.58268,4.24172,-2.99321,-0.27694,-1.69521,-2.18794,0.21579,1.0029,1.29118,-0.0133,-0.1957,-0.32844,0.0711,0.02921,0.12543,-0.05345
2906,24.85857,-57.05788,10.20792,12.02337,0.72961,-0.41538,-45.305,-18.5704,4.12319,54.30434,-15.74629,2.32674,-25.72347,53.81427,-3.70835,2.77652,-0.70133,0.26115,39.45418,31.24783,6.58534,-8.91247,-45.15799,-0.67299,4.5302,-1.22991,1.95936,4.25059,-3.06931,-0.76804,-2.32628,-1.95928,0.83649,0.97704,1.523,-0.25143,-0.31659,-0.27516,0.19841,0.05498,0.16922,-0.10505
2907,26.87544,-55.92939,9.72113,10.136,1.80315,0.33387,-42.07903,-19.55616,3.2642,48.42923,-12.56792,0.02219,-25.81653,55.40221,-4.21737,2.71906,-0.64495,0.58473,30.97449,29.59163,3.75533,-10.62449,-34.49878,-2.76323,4.87608,-1.89517,0.24246,4.08454,-3.2767,-0.90988,-2.63884,-1.28681,1.3339,0.73681,1.46669,-0.4076,-0.35866,-0.13161,0.24782,0.03693,0.15643,-0.12251
2908,28.99485,-54.67874,9.23079,8.02139,2.95733,1.15342,-39.69089,-20.72308,2.36119,38.62638,-8.36158,-0.14947,-25.78146,56.81507,-4.68152,2.61111,-0.63781,0.8956,14.86248,27.10343,2.48475,-11.31303,-21.80821,-5.33382,5.39366,-2.3766,-1.74588,3.79821,-3.56155,-0.69822,-2.60424,-0.53343,1.52467,0.31983,1.19309,-0.48551,-0.33442,0.02318,0.21562,-0.02436,0.10115,-0.10946
2909,31.4884,-53.32219,8.6035,5.80872,4.44579,2.0921,-36.61399,-20.70624,1.56303,27.03252,-4.12236,3.53291,-25.55322,58.06747,-5.09654,2.42692,-0.66,1.16995,-2.10099,26.66508,5.25387,-9.47246,-13.22622,-7.37593,5.93922,-2.54268,-3.06452,3.60683,-3.8146,-0.33573,-2.27692,-0.13508,1.31459,-0.04999,0.95257,-0.4941,-0.26399,0.09328,0.12441,-0.09083,0.05381,-0.08303
2910,34.45191,-51.94202,7.77062,3.63676,6.20113,3.21233,-31.84371,-19.16371,1.02266,16.50531,-0.64206,9.77171,-25.12966,59.16282,-5.48102,2.15437,-0.68005,1.41479,-13.02593,28.93267,10.19879,-4.81953,-11.16067,-8.57322,6.39371,-2.44199,-3.26721,3.70894,-3.98983,-0.11921,-1.80694,-0.26482,0.83588,-0.09545,0.94055,-0.41589,-0.17418,0.04221,0.02355,-0.11112,0.05151,-0.05882
2911,37.84515,-50.80283,6.7848,1.32394,7.76213,4.41215,-25.0934,-17.11511,0.79769,8.85169,2.19047,14.83854,-24.55593,60.09585,-5.85289,1.7771,-0.6776,1.63171,-14.87782,32.44342,12.89899,0.66496,-13.39387,-9.51381,6.6447,-2.23561,-2.58516,4.10401,-4.19363,-0.20956,-1.4128,-0.72368,0.42258,0.26093,1.08335,-0.25095,-0.09998,-0.08164,-0.02484,-0.06332,0.07286,-0.04334
2912,41.58001,-50.15808,5.7444,-1.27932,8.39396,5.27608,-16.54398,-15.83241,0.79446,4.64284,4.72309,15.36626,-23.89026,60.88184,-6.21141,1.33048,-0.67092,1.76151,-8.42128,35.16022,10.16972,4.00934,-15.75857,-11.04533,6.62319,-2.05612,-1.64144,4.58819,-4.55202,-0.58197,-1.24188,-1.12548,0.35167,0.85176,1.16416,-0.04226,-0.06117,-0.1872,0.00754,0.03724,0.07077,-0.034
2913,45.50592,-50.24917,4.77856,-3.80097,7.58091,5.26849,-6.68198,-16.38784,0.81744,3.59191,6.65019,10.81613,-23.19908,61.54722,-6.54741,0.9308,-0.68605,1.70883,3.90126,34.92932,2.10264,3.52954,-15.99143,-13.32491,6.37008,-1.93774,-0.96367,4.95646,-5.03663,-1.10469,-1.28102,-1.22358,0.61268,1.43474,1.11594,0.15987,-0.04812,-0.21326,0.08728,0.15893,0.03818,-0.02031
2914,49.46258,-51.22882,3.99997,-5.58754,5.70209,4.32239,3.78562,-19.2246,0.63939,4.32422,7.24799,4.38017,-22.53532,62.12035,-6.8506,0.64748,-0.70121,1.46467,18.70347,30.6689,-7.07416,0.02812,-15.02187,-15.45707,6.0215,-1.84861,-0.67348,5.15454,-5.48002,-1.59339,-1.42381,-1.07009,0.96159,1.86603,1.05036,0.35061,-0.0465,-0.16507,0.1563,0.27143,0.00705,0.01191
2915,53.29544,-52.8508,3.42084,-6.61337,3.93469,3.10613,13.64196,-23.26562,0.11598,4.0158,6.38234,0.87878,-21.90787,62.65551,-7.11272,0.4115,-0.66055,1.15333,30.57788,24.09729,-11.37274,-3.49555,-15.6101,-16.09748,5.70924,-1.73694,-0.59076,5.3063,-5.79253,-1.87292,-1.52251,-0.88279,1.10657,2.1477,1.07735,0.56022,-0.05214,-0.08719,0.17765,0.35745,-4e-05,0.06962
2916,56.83337,-54.69263,3.02124,-7.71239,3.21892,2.42274,21.32039,-26.91317,-0.71243,-0.57051,5.00112,2.73663,-21.29794,63.21022,-7.33955,0.09977,-0.53866,0.9139,33.36607,18.1291,-8.40861,-3.31778,-19.79142,-14.42557,5.54533,-1.60729,-0.52266,5.56214,-6.06133,-1.87843,-1.40907,-0.88516,0.83103,2.32882,1.19918,0.78508,-0.05082,-0.03262,0.13766,0.40706,0.01274,0.13997
2917,59.99309,-56.4045,2.74722,-9.52199,3.47806,2.43669,26.0321,-29.08843,-1.69304,-10.4798,4.32326,8.27399,-20.69488,63.82214,-7.55417,-0.3674,-0.35299,0.78009,24.9845,14.63797,-1.50473,2.6349,-27.63875,-10.70551,5.61906,-1.54315,-0.39282,5.93278,-6.43806,-1.73314,-0.97172,-1.20777,0.10451,2.39523,1.37203,0.93222,-0.00859,-0.04925,0.0399,0.40535,0.04006,0.18541
2918,62.88823,-57.77053,2.46752,-11.59446,3.98196,2.71401,28.53024,-29.20984,-2.65221,-23.11903,4.59494,13.9168,-20.11463,64.51472,-7.78393,-0.98359,-0.13763,0.69423,10.22873,14.2049,4.17272,13.44874,-37.15886,-6.19888,5.91794,-1.61581,-0.15882,6.28333,-6.97179,-1.7118,-0.31141,-1.80309,-0.80958,2.31615,1.57492,0.87806,0.08875,-0.15092,-0.07985,0.34524,0.08709,0.16387
2919,65.77947,-58.87755,2.06705,-13.03245,4.33574,2.97151,30.68,-27.70661,-3.45923,-34.61652,5.15153,17.56429,-19.58725,65.29866,-8.04857,-1.60981,0.0873,0.58795,-3.08234,15.96288,6.59032,25.02092,-45.39909,-2.36949,6.26083,-1.77626,0.22709,6.51968,-7.62617,-2.02209,0.22148,-2.41753,-1.45561,2.16581,1.77724,0.6159,0.18831,-0.28912,-0.15518,0.25574,0.14231,0.07331
2920,68.86337,-59.86566,1.47305,-13.67108,4.87265,3.64985,34.16278,-25.43745,-4.10105,-43.64042,5.65429,20.06924,-19.14133,66.20605,-8.36462,-2.03653,0.29926,0.48976,-10.90443,18.97955,7.99506,32.76826,-49.86798,-0.05196,6.39979,-1.87942,0.70216,6.6719,-8.31054,-2.59745,0.28881,-2.73156,-1.54342,2.10622,1.9183,0.31397,0.20771,-0.37712,-0.14443,0.19184,0.17171,-0.03197
2921,72.09098,-60.78482,0.69303,-14.33329,6.08934,5.50797,39.30303,-23.00987,-4.57268,-51.71534,6.58083,23.72119,-18.81565,67.28459,-8.76417,-2.16047,0.45833,0.52561,-14.85647,23.16738,11.87346,34.91818,-50.08017,0.83006,6.26978,-1.88962,1.06075,6.82743,-8.89196,-3.15075,-0.1337,-2.67698,-1.21676,2.24799,1.98259,0.19409,0.12075,-0.37805,-0.07707,0.18859,0.15981,-0.08343
2922,75.2831,-61.72628,-0.17125,-16.22834,7.90196,8.51006,45.38124,-20.95101,-4.78622,-60.29654,8.53147,28.99737,-18.64863,68.55537,-9.28224,-2.02766,0.53433,0.76762,-18.20399,28.30051,18.81048,33.41438,-47.32067,0.88146,6.06853,-1.96902,1.09494,6.94074,-9.24942,-3.38062,-0.7527,-2.51499,-0.89129,2.5102,1.94182,0.3609,-0.01656,-0.34532,-0.02501,0.22071,0.11143,-0.0533
2923,78.33752,-62.81211,-1.01923,-20.06731,9.53399,11.30711,51.61214,-19.81762,-4.76317,-68.7821,11.50341,33.01129,-18.64025,69.98746,-9.92452,-1.78718,0.51817,1.12305,-22.20164,33.15226,25.07139,31.81968,-42.14026,0.70779,6.08746,-2.26134,0.69142,6.80892,-9.35229,-3.22467,-1.1634,-2.49072,-0.8766,2.66257,1.72557,0.71761,-0.10982,-0.34524,-0.04171,0.22161,0.03197,0.02592
2924,81.22626,-64.13688,-1.77983,-25.5467,10.16584,12.09063,57.60226,-20.08069,-4.68906,-75.07391,14.78108,31.75121,-18.74333,71.48548,-10.6478,-1.61259,0.4272,1.38152,-25.50964,36.12944,25.72578,32.69714,-33.48533,0.65882,6.47784,-2.72993,-0.09676,6.33719,-9.28202,-2.93925,-1.14977,-2.60841,-1.16787,2.56827,1.37002,1.05952,-0.10195,-0.38854,-0.12658,0.15719,-0.06073,0.09793
2925,83.82491,-65.67303,-2.37077,-31.48893,9.58635,10.03122,63.03418,-21.92586,-4.68468,-77.21606,17.37885,23.62629,-18.8966,72.90597,-11.37701,-1.61949,0.30356,1.38659,-25.8656,36.36827,18.90818,36.32419,-21.982,0.7457,7.13494,-3.19602,-1.01508,5.719,-9.1896,-2.79206,-0.7867,-2.73228,-1.55965,2.32299,1.03916,1.26564,-0.01079,-0.44249,-0.23561,0.06485,-0.13813,0.13873
2926,85.95658,-67.25779,-2.73367,-36.50776,8.20327,5.813,67.76111,-25.32069,-4.68029,-74.90002,18.64748,10.66836,-19.05272,74.08594,-12.03233,-1.81357,0.19939,1.13904,-22.06195,33.80814,6.9061,40.88416,-12.54193,0.52706,7.70457,-3.43419,-1.67832,5.29252,-9.18423,-2.75579,-0.30312,-2.74176,-1.85826,2.1231,0.92074,1.32092,0.10206,-0.46962,-0.32136,0.00958,-0.16611,0.15397
2927,87.53255,-68.60856,-2.92117,-39.28675,6.5649,1.04438,72.15603,-30.03675,-4.6211,-68.8511,18.25179,-2.8905,-19.16895,74.88452,-12.55077,-2.0828,0.14355,0.75396,-13.58858,28.54498,-5.79981,43.52477,-10.53945,-0.4895,7.82341,-3.29594,-1.76483,5.29056,-9.24998,-2.61503,0.06766,-2.5877,-1.95595,2.10968,1.14925,1.22414,0.17813,-0.45147,-0.35679,0.03537,-0.11084,0.14743
2928,88.52237,-69.31458,-3.10603,-38.734,4.94158,-2.68373,76.63509,-35.03248,-4.6352,-59.52241,16.08191,-13.22237,-19.20012,75.22839,-12.91262,-2.24149,0.0716,0.39893,-0.25194,21.51995,-15.62144,41.44114,-16.54398,-2.0932,7.40326,-2.87625,-1.19553,5.66718,-9.27624,-2.21429,0.10672,-2.34435,-1.8036,2.29591,1.687,0.99706,0.17971,-0.40649,-0.33266,0.14502,0.0219,0.12443
2929,88.9157,-69.03689,-3.45183,-34.26542,3.29732,-4.55351,81.10927,-38.59353,-4.86981,-46.40446,12.37375,-18.94266,-19.1115,75.13005,-13.14175,-2.13284,-0.13293,0.21708,18.20742,14.86001,-21.78575,33.52667,-26.58509,-3.34509,6.772,-2.49236,-0.19191,6.15738,-9.16726,-1.56017,-0.2916,-2.1802,-1.44477,2.57462,2.32365,0.71529,0.10529,-0.3758,-0.26009,0.29452,0.1805,0.09757
2930,88.7823,-67.74353,-4.01478,-26.15286,1.53453,-4.71837,85.24131,-39.52001,-5.38728,-29.14496,7.79934,-21.11402,-18.89155,74.69724,-13.28779,-1.7448,-0.51531,0.26207,41.6206,10.62897,-25.67847,20.99842,-36.28548,-3.41853,6.45616,-2.42756,0.83263,6.49504,-8.87946,-0.75896,-0.9933,-2.20478,-1.02337,2.80547,2.8477,0.44247,-0.00242,-0.38011,-0.17079,0.41668,0.32028,0.06376
2931,88.28063,-65.73161,-4.73319,-15.74538,-0.24668,-3.8269,88.84876,-38.05741,-6.1781,-9.17865,3.26905,-21.35555,-18.56642,74.13084,-13.40894,-1.22447,-0.9873,0.51052,68.50829,9.39727,-28.50393,7.09469,-43.17261,-2.32015,6.72182,-2.67465,1.48885,6.53412,-8.45179,0.14215,-1.67142,-2.32945,-0.68752,2.87845,3.11717,0.18273,-0.08523,-0.39369,-0.09853,0.46266,0.41725,0.00404
2932,87.64738,-63.5556,-5.45546,-5.07349,-1.73385,-2.69459,92.00591,-35.79898,-7.0586,10.4655,-0.3555,-20.68184,-18.19985,73.65931,-13.55698,-0.73847,-1.33387,0.84302,96.1059,10.01045,-30.27109,-4.51086,-46.38396,-0.86754,7.33718,-2.9718,1.64996,6.22477,-7.96069,1.16596,-2.07183,-2.36225,-0.50427,2.75762,3.01652,-0.02549,-0.12159,-0.37414,-0.05935,0.43368,0.43929,-0.07119
2933,87.1529,-61.8466,-5.9936,3.91102,-2.59207,-2.33056,94.81754,-34.63489,-7.66684,27.25817,-2.59048,-19.93159,-17.86377,73.4519,-13.75869,-0.29356,-1.28563,0.99546,121.74623,10.60921,-30.74095,-11.44544,-46.10911,-0.10236,7.74454,-3.07413,1.5487,5.65772,-7.49357,2.18867,-2.21309,-2.23319,-0.43887,2.5278,2.55801,-0.05744,-0.14482,-0.31734,-0.03969,0.37801,0.36839,-0.10904
2934,87.05853,-61.0444,-6.2218,10.03836,-2.68299,-3.40043,97.12254,-35.71149,-7.66024,40.30693,-3.63925,-19.23001,-17.61108,73.58041,-14.00971,0.28571,-0.74146,0.70796,143.31354,9.50343,-29.16565,-13.62728,-43.54316,-0.56281,7.51324,-2.9824,1.58129,5.04095,-7.06514,2.86837,-2.31905,-2.07125,-0.35955,2.33407,1.97069,0.16582,-0.20353,-0.26965,0.00279,0.3444,0.24241,-0.06959
2935,87.67154,-61.29594,-6.1517,13.25061,-2.15415,-5.474,98.64758,-38.98531,-6.89562,49.81084,-4.34067,-16.72433,-17.45318,74.03162,-14.28093,1.10796,0.08177,-0.02248,159.11099,5.91563,-22.98403,-13.02733,-40.59314,-1.92921,6.68855,-2.85999,1.90086,4.55327,-6.60463,2.91146,-2.53049,-2.00719,-0.14076,2.25684,1.53111,0.55403,-0.30078,-0.2695,0.09692,0.34096,0.12526,0.02733
2936,89.30216,-62.41916,-5.95738,14.04992,-1.36831,-7.3848,99.75287,-43.33804,-5.54966,55.6652,-5.53451,-9.89645,-17.34826,74.70935,-14.52348,1.95592,0.80092,-0.92426,168.39484,0.6163,-9.4964,-12.81082,-39.15793,-3.26497,5.76637,-2.83019,2.23876,4.24084,-6.08342,2.38853,-2.75911,-2.01781,0.16609,2.25992,1.36375,0.88676,-0.38158,-0.303,0.20339,0.34239,0.0568,0.11883
2937,91.99781,-63.86808,-5.9189,12.46732,-0.70107,-8.44987,101.43237,-47.22116,-4.15187,56.61683,-7.30218,0.62383,-17.24226,75.45611,-14.69015,2.385,1.15474,-1.69594,171.2843,-4.59164,9.3245,-15.5584,-39.42773,-3.41927,5.29622,-2.89468,2.17146,3.96961,-5.53318,1.76296,-2.81257,-1.98833,0.34564,2.19762,1.42648,0.93921,-0.38307,-0.32698,0.23512,0.31566,0.04837,0.14923
2938,95.34952,-64.81133,-6.29962,7.9887,-0.31061,-8.71213,104.15878,-49.22147,-3.46345,51.01207,-8.94418,10.22788,-17.11102,76.09609,-14.74769,2.1003,1.10179,-2.13524,167.85335,-7.83699,25.61485,-21.29271,-38.71416,-1.48407,5.47902,-2.93404,1.51828,3.48681,-5.03195,1.54989,-2.585,-1.78879,0.28216,1.88005,1.56815,0.60638,-0.29008,-0.29911,0.15225,0.23212,0.08765,0.10141
2939,98.52454,-64.52576,-7.15128,0.87822,-0.07823,-7.86254,106.90889,-48.69429,-4.12803,39.88435,-9.92377,14.89117,-16.96357,76.47215,-14.67274,1.15192,0.74686,-2.06864,159.52898,-8.34017,31.9582,-27.3969,-32.8642,2.56088,6.07656,-2.82287,0.50984,2.67764,-4.63047,1.83968,-2.19124,-1.36759,0.12334,1.26998,1.65842,-0.0391,-0.15597,-0.20684,0.01446,0.0966,0.15108,-0.00566
2940,100.6663,-63.19054,-8.11489,-6.89707,0.1757,-4.89651,107.99458,-47.05533,-6.04052,28.11398,-10.43055,15.25081,-16.82849,76.46731,-14.45044,-0.11438,0.25631,-1.37296,150.59523,-7.8243,28.32451,-31.51259,-20.36677,7.33809,6.70024,-2.61112,-0.39309,1.78778,-4.37179,2.25394,-1.923,-0.86313,0.11372,0.61469,1.6947,-0.75563,-0.07183,-0.09385,-0.07373,-0.03065,0.21684,-0.12506
2941,101.50704,-61.90927,-8.63214,-12.71024,0.48651,0.52655,107.12849,-47.0907,-8.17843,21.16804,-10.82881,14.60045,-16.72898,76.02225,-14.06769,-1.26711,-0.1887,-0.15442,146.59892,-9.01724,20.65077,-34.3524,-4.64108,10.63209,7.08132,-2.46949,-0.82527,1.18119,-4.26816,2.41498,-2.00686,-0.50632,0.35547,0.22177,1.71724,-1.26243,-0.09732,-0.02517,-0.05239,-0.08388,0.25971,-0.20012
2942,101.37593,-61.44481,-8.48935,-15.35001,0.8454,6.88659,105.61887,-49.57193,-9.48189,20.45467,-10.87506,14.08038,-16.6685,75.14405,-13.52292,-2.03681,-0.4224,1.18067,149.56136,-11.62896,13.12397,-39.31949,8.42832,11.00836,7.16367,-2.47824,-0.70165,0.98698,-4.24875,2.3305,-2.40829,-0.40464,0.74462,0.1797,1.75436,-1.44447,-0.21453,-0.01969,0.05764,-0.05263,0.26782,-0.20369
2943,100.63126,-61.58628,-7.92552,-15.94358,1.38081,11.57835,104.58413,-52.33767,-9.72159,21.95143,-9.76356,11.54874,-16.63055,73.878,-12.85522,-2.42463,-0.34676,2.14195,154.79274,-12.22807,4.59211,-48.87653,15.14517,9.01595,7.07108,-2.61084,-0.18801,1.06459,-4.21534,2.31634,-2.89398,-0.53581,1.04552,0.35202,1.83982,-1.39679,-0.34818,-0.05589,0.17707,0.02398,0.26023,-0.15321
2944,99.43209,-61.92899,-7.23028,-16.75977,2.2554,13.08494,104.13557,-53.44508,-9.30208,19.46217,-6.93981,5.55063,-16.57611,72.27004,-12.1285,-2.60425,-0.00736,2.49346,154.09785,-8.75301,-6.45793,-61.71746,15.75287,6.54469,6.98033,-2.82638,0.39732,1.20031,-4.12364,2.62907,-3.20736,-0.83693,1.04538,0.55516,1.97667,-1.26959,-0.42057,-0.11359,0.22357,0.09867,0.2593,-0.08357
2945,97.89409,-62.53682,-6.46898,-19.16879,3.40474,12.3047,103.90943,-53.38781,-8.54044,10.00627,-2.77289,-0.84969,-16.46605,70.36784,-11.39739,-2.7432,0.3928,2.38811,143.22037,-2.90966,-15.94211,-73.31979,12.44053,5.07822,7.02575,-3.0827,0.71862,1.31147,-4.06958,3.18746,-3.20062,-1.20291,0.71739,0.71262,2.12344,-1.13193,-0.39792,-0.17752,0.17061,0.14652,0.26339,-0.01933
2946,96.05443,-63.70527,-5.51974,-22.64544,4.50645,11.36545,102.92835,-53.93917,-7.40665,-3.56743,1.6284,-2.27808,-16.29114,68.23257,-10.69033,-2.87067,0.61131,2.15522,124.8266,2.02637,-16.86571,-79.30469,7.12619,4.76598,7.21646,-3.3189,0.60186,1.46898,-4.17521,3.63332,-2.9023,-1.49631,0.25221,0.86921,2.26156,-0.98071,-0.30369,-0.22789,0.06427,0.16973,0.2641,0.02744
2947,93.94764,-65.5421,-4.30568,-25.4448,5.20447,11.43336,100.1594,-56.13868,-5.87568,-15.23801,5.13659,3.55755,-16.06303,65.92104,-10.00395,-2.88005,0.51648,2.00317,105.39736,4.10303,-6.60006,-78.88536,1.37331,4.97579,7.4237,-3.48321,0.17155,1.71284,-4.48064,3.6393,-2.52014,-1.63093,-0.06891,1.04311,2.40669,-0.8542,-0.20047,-0.25233,-0.01525,0.16799,0.26256,0.04262
2948,91.76468,-67.867,-2.93933,-25.82844,5.31538,12.18095,95.68358,-59.58046,-4.2,-19.83236,7.02804,14.24812,-15.7797,63.47435,-9.31241,-2.64324,0.15037,1.94432,91.90123,3.30978,10.89555,-75.46564,-2.96271,5.15444,7.47586,-3.52752,-0.21596,1.92745,-4.92345,3.17912,-2.2987,-1.59676,-0.05584,1.14361,2.53699,-0.86165,-0.14917,-0.25066,-0.01186,0.12679,0.26048,0.00824
2949,89.61432,-70.33578,-1.58986,-22.93349,4.82267,12.35258,90.46452,-62.95385,-2.68132,-15.0981,6.90218,24.08168,-15.43971,60.91303,-8.58744,-2.11404,-0.30547,1.86261,89.59229,0.42123,27.19395,-73.81767,-4.24249,5.05477,7.28373,-3.40725,-0.20117,1.96581,-5.40794,2.50745,-2.34838,-1.43891,0.27349,1.08255,2.57632,-1.05491,-0.1695,-0.22904,0.07064,0.04765,0.25348,-0.07498
2950,87.35796,-72.63165,-0.32881,-16.98381,3.66311,10.43733,85.30362,-64.89143,-1.41849,-2.12864,4.53044,26.73443,-15.0581,58.27173,-7.82114,-1.34284,-0.64759,1.57767,99.44147,-3.75277,33.44379,-76.35702,-2.33444,4.52366,6.90031,-3.14118,0.35211,1.81344,-5.84092,1.94471,-2.61191,-1.25305,0.71377,0.89031,2.47341,-1.32347,-0.23898,-0.20353,0.17786,-0.0389,0.23817,-0.17317
2951,84.80605,-74.59899,0.8526,-9.2641,1.736,5.8535,80.86369,-64.77915,-0.32948,15.07758,0.1259,19.27592,-14.6659,55.62412,-7.03183,-0.45462,-0.76492,0.975,117.55709,-8.35036,25.88474,-82.04557,1.34515,3.43553,6.47835,-2.81449,1.2477,1.59556,-6.12448,1.6635,-2.95085,-1.11616,1.03628,0.69441,2.27591,-1.47977,-0.31915,-0.18841,0.24705,-0.09043,0.22549,-0.23863
2952,81.86292,-76.26087,1.98,-1.69305,-0.72855,-0.10263,77.86057,-63.11479,0.72814,31.3243,-5.26742,4.45829,-14.30901,53.05164,-6.26527,0.35631,-0.67278,0.15831,137.48335,-12.44555,8.35441,-87.80951,4.98329,1.74831,6.16131,-2.50893,2.01286,1.48151,-6.17695,1.65636,-3.20301,-1.00893,1.13576,0.63587,2.09805,-1.40392,-0.3723,-0.17951,0.243,-0.07509,0.23022,-0.23885
2953,78.50054,-77.68856,3.06526,4.08747,-2.95504,-4.91917,76.39623,-60.89178,1.86074,42.66252,-9.94173,-11.03325,-14.03632,50.624,-5.58877,0.92236,-0.47613,-0.5719,153.04033,-14.88463,-10.54557,-90.6511,7.29451,-0.48781,6.03294,-2.29951,2.13276,1.52319,-5.97476,1.82712,-3.20809,-0.88087,1.02554,0.7415,1.99431,-1.12475,-0.36373,-0.16791,0.1644,-0.0003,0.24649,-0.17696
2954,74.66122,-78.86814,4.1341,7.42629,-4.06341,-6.83084,75.11158,-58.7693,3.11043,47.81406,-12.44531,-21.08358,-13.88463,48.40588,-5.0621,1.21166,-0.29299,-0.95635,159.59659,-14.67385,-23.04224,-89.20341,7.68355,-3.12008,6.06092,-2.26679,1.38088,1.61964,-5.55477,2.05962,-2.92607,-0.74627,0.78831,0.9023,1.93024,-0.7847,-0.28856,-0.15879,0.04362,0.08523,0.254,-0.0908
2955,70.3543,-79.70349,5.20201,8.52511,-3.87669,-6.17692,71.89384,-56.93811,4.41335,47.81973,-12.65511,-24.07344,-13.85711,46.43255,-4.70491,1.30503,-0.1862,-0.99526,155.26442,-12.13853,-26.81013,-84.49065,6.26168,-5.73429,6.15296,-2.4493,0.01592,1.63719,-5.02045,2.24371,-2.5326,-0.65985,0.55953,0.98101,1.86734,-0.54848,-0.19304,-0.1588,-0.05881,0.1292,0.2471,-0.03007
2956,65.77435,-80.06424,6.2199,7.92094,-3.26272,-4.89919,65.60696,-55.4095,5.56812,44.77459,-11.97685,-23.28062,-13.91307,44.6824,-4.48633,1.29968,-0.16424,-0.91321,141.99004,-9.37117,-25.66936,-79.63553,3.69561,-7.47338,6.18171,-2.7578,-1.3333,1.54199,-4.54837,2.31062,-2.26187,-0.64242,0.47947,0.93061,1.83274,-0.52275,-0.13404,-0.16425,-0.08794,0.11624,0.24214,-0.02499
2957,61.36415,-79.84988,7.04627,6.34337,-3.42668,-4.69934,57.20719,-54.15395,6.27772,40.8751,-12.15297,-23.12706,-13.98309,43.09507,-4.33743,1.26329,-0.22247,-0.93229,125.1611,-8.65531,-25.28167,-77.67529,0.92742,-7.283,6.05888,-3.01152,-2.01137,1.39267,-4.33379,2.28035,-2.21874,-0.67365,0.61245,0.79394,1.84838,-0.69611,-0.1331,-0.16635,-0.02793,0.06957,0.24501,-0.06492
2958,57.63433,-79.11274,7.53118,4.79296,-4.65849,-5.59204,49.07382,-53.16235,6.33596,37.78985,-13.57592,-24.71556,-14.01572,41.61378,-4.1962,1.24871,-0.34575,-1.06547,110.77384,-10.32291,-27.4005,-79.27039,-1.03138,-4.56195,5.7702,-3.04972,-1.69469,1.28074,-4.51255,2.26652,-2.36846,-0.71199,0.89653,0.65002,1.87998,-0.9391,-0.18174,-0.15352,0.09321,0.02477,0.2383,-0.10856
2959,54.88835,-78.09513,7.64947,4.37921,-6.06142,-6.38745,43.22576,-52.629,5.86013,36.5516,-15.09236,-25.69606,-14.00328,40.20228,-4.02997,1.30204,-0.49426,-1.14518,102.67493,-12.88157,-29.15756,-82.27438,-1.37226,0.28553,5.40437,-2.86189,-0.57665,1.27511,-5.08601,2.42218,-2.59575,-0.75386,1.13403,0.56279,1.87539,-1.08651,-0.25428,-0.12436,0.21203,0.00384,0.20672,-0.11826
2960,53.11262,-77.09008,7.53095,5.66046,-6.45551,-6.11392,40.09319,-52.71293,5.28781,37.50081,-15.27933,-23.43006,-13.96263,38.8341,-3.82378,1.44178,-0.61219,-1.01506,101.5704,-14.34335,-26.86688,-83.89809,-0.32787,5.7305,5.1193,-2.60935,0.77685,1.39774,-5.9532,2.82003,-2.76904,-0.85919,1.10843,0.55418,1.8129,-1.05199,-0.31159,-0.09981,0.25967,0.00538,0.15617,-0.08881
2961,52.01144,-76.19387,7.35169,8.18458,-5.28873,-4.70686,38.52965,-53.07863,5.02096,39.88739,-13.5132,-17.28178,-13.91182,37.49329,-3.57172,1.62063,-0.65225,-0.668,104.96027,-13.11807,-19.35382,-83.42086,0.40582,9.61473,4.9843,-2.43949,1.80587,1.60729,-6.95039,3.33621,-2.8057,-1.03446,0.79997,0.58577,1.73903,-0.92571,-0.32136,-0.09585,0.21499,0.00539,0.11341,-0.05686
2962,51.20323,-75.40558,7.2536,10.68417,-3.10812,-2.94587,37.04085,-53.2464,5.17162,42.09393,-10.42482,-9.2082,-13.85706,36.16382,-3.27293,1.73866,-0.61376,-0.28225,108.96004,-9.0435,-8.78656,-82.21671,-1.0978,10.31876,4.90717,-2.34955,2.27373,1.80395,-7.80284,3.67985,-2.72289,-1.17646,0.42199,0.57646,1.73794,-0.89873,-0.28491,-0.10185,0.12085,-0.02583,0.10694,-0.0692
2963,50.33612,-74.75607,7.31688,12.06672,-1.04666,-1.68435,34.46204,-52.96259,5.61338,43.11547,-7.31356,-2.1451,-13.80046,34.81487,-2.94853,1.73591,-0.54986,-0.0569,110.53074,-3.30155,1.21528,-81.68594,-4.99215,7.98822,4.78659,-2.28447,2.27979,1.95828,-8.24182,3.58307,-2.60062,-1.21246,0.1745,0.53165,1.84004,-1.00432,-0.23669,-0.10676,0.03568,-0.07949,0.1363,-0.12191
2964,49.15598,-74.20603,7.52926,12.23441,0.13439,-1.21548,29.87965,-52.05749,6.10938,43.76249,-5.34893,1.67021,-13.74401,33.41412,-2.64141,1.64764,-0.50611,-0.03872,108.5069,2.24102,7.10928,-81.35321,-8.82013,4.67784,4.68564,-2.28593,2.00907,2.15902,-8.14041,2.94538,-2.49682,-1.21413,0.04766,0.59053,1.97065,-1.04387,-0.21156,-0.12661,-0.01951,-0.09785,0.16546,-0.1544
2965,47.56476,-73.66602,7.81864,11.8266,0.166,-1.40271,22.91304,-50.69337,6.47075,45.97509,-5.62182,0.8813,-13.67917,31.95469,-2.39748,1.56294,-0.50546,-0.12982,103.70176,4.99262,6.07757,-79.54162,-9.53892,2.96287,4.77181,-2.45969,1.53599,2.46981,-7.58326,1.89857,-2.41355,-1.30011,-0.07279,0.85971,2.03825,-0.8509,-0.21358,-0.18484,-0.05842,-0.03524,0.16299,-0.12061
2966,45.61633,-73.03888,8.10371,11.47091,-0.66347,-1.84706,14.18642,-49.28461,6.65073,51.01784,-8.45603,-3.85878,-13.59582,30.47387,-2.23969,1.56014,-0.54708,-0.18629,98.49229,3.63139,-1.38744,-75.80934,-6.57741,4.1482,5.12141,-2.82776,0.91846,2.76065,-6.82422,0.84066,-2.35204,-1.4841,-0.19045,1.20886,2.01873,-0.52739,-0.22365,-0.27421,-0.0863,0.07775,0.136,-0.04172
2967,43.5723,-72.21165,8.27279,11.30838,-1.44264,-2.05485,5.42832,-47.89574,6.61671,58.19411,-12.59675,-9.4722,-13.49463,29.05479,-2.1564,1.63631,-0.58982,-0.11921,95.59961,0.08097,-10.75352,-71.85181,-2.65814,7.5764,5.57181,-3.22212,0.37203,2.80194,-6.17213,0.31165,-2.33855,-1.64341,-0.17409,1.34512,1.9637,-0.35267,-0.22856,-0.34823,-0.07984,0.15744,0.12094,0.02002
2968,41.83955,-71.20023,8.2261,11.03353,-1.37912,-1.81509,-1.40503,-46.38337,6.27179,64.6683,-16.03895,-12.71631,-13.39518,27.79888,-2.11142,1.7027,-0.58442,0.03948,95.46616,-2.56063,-17.13626,-69.63286,-1.11751,11.37692,5.81385,-3.37238,0.16172,2.51824,-5.79138,0.59781,-2.38184,-1.6227,0.06647,1.10531,1.95458,-0.51571,-0.23328,-0.35577,-0.01904,0.1483,0.15109,0.01576
2969,40.72052,-70.22862,7.98429,10.35272,-0.5718,-1.35018,-5.25544,-44.93277,5.6349,67.20684,-17.5481,-12.52339,-13.32663,26.79588,-2.05776,1.66172,-0.54075,0.16534,95.85754,-3.11001,-18.71226,-69.0608,-2.99182,13.66558,5.65654,-3.14195,0.31244,2.10896,-5.62537,1.43409,-2.45155,-1.36749,0.44744,0.64264,2.04333,-0.94703,-0.24798,-0.28265,0.07464,0.06896,0.22711,-0.05754
2970,40.21712,-69.54904,7.68696,9.37363,0.07431,-1.0722,-6.38401,-43.82116,4.94413,64.57703,-17.29704,-10.10378,-13.31313,26.10535,-1.96088,1.49489,-0.5349,0.14718,94.44093,-2.22702,-16.75656,-67.67917,-6.86914,13.22783,5.18943,-2.65657,0.56803,1.88544,-5.52883,2.19891,-2.48682,-0.97939,0.75994,0.30832,2.16228,-1.33304,-0.26975,-0.16637,0.14623,-0.00747,0.30372,-0.14785
2971,40.0841,-69.23013,7.48797,8.54712,-0.27398,-1.19497,-6.20676,-42.94223,4.47383,58.31627,-16.18556,-7.15861,-13.34996,25.73014,-1.80414,1.29071,-0.65207,-0.0205,90.24005,-0.3883,-13.45442,-63.29558,-10.82835,9.78687,4.7101,-2.19745,0.66498,2.00821,-5.45006,2.41801,-2.4203,-0.65633,0.83074,0.35205,2.16818,-1.35293,-0.27626,-0.07173,0.15114,-0.01684,0.32233,-0.18363
2972,39.95759,-69.1023,7.46149,8.36594,-1.50169,-1.58041,-6.55337,-42.13094,4.32282,51.7092,-14.72451,-4.31113,-13.40532,25.60274,-1.5984,1.19814,-0.89456,-0.23143,83.7393,2.58846,-9.90475,-56.91887,-13.93012,4.27413,4.44867,-1.95343,0.61284,2.3711,-5.48522,2.11275,-2.21738,-0.55298,0.65286,0.71188,1.98471,-0.95495,-0.24528,-0.04684,0.09256,0.04046,0.26222,-0.13594
2973,39.41711,-68.94167,7.62247,9.04238,-2.54671,-1.91391,-8.69384,-41.79079,4.46286,48.22927,-12.71297,-1.12998,-13.46115,25.60717,-1.38596,1.31886,-1.14395,-0.33373,77.45254,6.57027,-5.8261,-52.13519,-16.27198,-1.25187,4.45532,-1.94266,0.70191,2.73708,-5.74045,1.6937,-1.95273,-0.72494,0.36702,1.1074,1.67186,-0.37795,-0.18707,-0.10169,0.01954,0.11063,0.1542,-0.03733
2974,38.07248,-68.57437,7.95715,10.37918,-2.33123,-1.99613,-12.97976,-42.3617,4.87525,49.61423,-9.82284,2.6678,-13.54267,25.62069,-1.22135,1.6494,-1.24339,-0.23471,74.2368,10.95652,-0.87099,-51.45655,-18.38591,-4.60479,4.6596,-2.07986,1.20572,2.97959,-6.18016,1.51009,-1.77962,-1.12439,0.13915,1.32555,1.41379,0.05654,-0.14206,-0.20746,-0.01123,0.14878,0.06477,0.04962
2975,35.77213,-67.76109,8.37101,11.86127,-0.65904,-1.85287,-18.97246,-43.14137,5.50788,54.48608,-6.24068,6.46766,-13.69652,25.56847,-1.14272,2.08287,-1.11804,0.03427,73.99809,15.4443,4.18912,-53.81795,-20.39987,-4.90829,4.94644,-2.24826,2.06445,3.10583,-6.58503,1.53128,-1.79902,-1.58313,0.08003,1.34025,1.38789,0.1546,-0.14131,-0.30289,0.02761,0.14774,0.05254,0.07547
2976,32.69909,-66.35149,8.71979,12.96386,1.75424,-1.61425,-25.50725,-42.78353,6.2069,59.85378,-2.93928,9.17689,-13.9639,25.44981,-1.16056,2.46354,-0.82605,0.36755,74.75396,19.69817,7.82652,-56.15261,-21.64026,-3.16923,5.2181,-2.37895,2.87065,3.12775,-6.7576,1.52575,-1.99071,-1.88098,0.22384,1.21801,1.56373,-0.04957,-0.18342,-0.32785,0.12446,0.12034,0.10915,0.03719
2977,29.22284,-64.5127,8.91037,13.51203,3.98439,-1.39976,-31.26435,-40.81334,6.72349,63.60672,-1.12414,10.15685,-14.37068,25.32515,-1.2676,2.67144,-0.48339,0.65978,75.28379,22.70911,8.93005,-56.34943,-21.21086,-1.40569,5.40546,-2.5163,3.15768,3.0027,-6.662,1.41313,-2.25911,-1.92113,0.49973,1.00589,1.69583,-0.36514,-0.24601,-0.27284,0.23797,0.07775,0.16369,-0.02847
2978,25.78769,-62.7328,8.94491,13.78209,5.46212,-1.28803,-35.25167,-38.23631,6.84246,65.30466,-1.41522,9.53065,-14.90756,25.2655,-1.44058,2.68924,-0.17237,0.85485,75.69266,23.01175,7.46398,-54.83183,-19.04691,-0.91977,5.54183,-2.77174,2.73752,2.73337,-6.45313,1.32908,-2.50478,-1.80338,0.7436,0.73006,1.57814,-0.61258,-0.30564,-0.18736,0.31533,0.02408,0.1572,-0.08361
2979,22.68704,-61.63276,8.9436,14.25679,5.93772,-1.31695,-37.41064,-36.82289,6.67075,65.73357,-3.64551,7.77882,-15.54079,25.28207,-1.64794,2.61983,0.05185,0.952,76.37338,19.74309,4.34714,-53.74771,-16.51286,-1.31452,5.69144,-3.11504,1.84223,2.43996,-6.30794,1.43961,-2.61029,-1.68444,0.78366,0.45672,1.22709,-0.70263,-0.33721,-0.1315,0.31475,-0.03055,0.09141,-0.10984
2980,19.94339,-61.37114,9.01687,15.01436,5.56035,-1.4512,-38.41257,-37.08159,6.62467,65.71355,-6.63645,5.67361,-16.23243,25.33744,-1.86066,2.57251,0.1528,0.97717,77.19665,14.85884,1.4038,-54.95581,-15.79953,-1.03187,5.86041,-3.3236,0.99486,2.31328,-6.33857,1.7596,-2.46201,-1.64618,0.55443,0.3015,0.8232,-0.62312,-0.31401,-0.13167,0.22993,-0.06618,0.00335,-0.10266
2981,17.36304,-61.44917,9.14505,15.48864,4.95916,-1.60696,-38.9713,-37.92444,6.96644,65.03846,-8.5401,4.11052,-16.93939,25.40299,-2.07291,2.54222,0.16081,0.9447,77.2217,12.14669,0.50381,-57.87404,-18.26137,1.05344,5.97309,-3.17958,0.67428,2.4594,-6.4934,2.12278,-2.03989,-1.6838,0.16085,0.35447,0.55052,-0.4125,-0.22726,-0.1745,0.1037,-0.06673,-0.07392,-0.0648
2982,14.5545,-61.22057,9.26642,15.07932,4.66448,-1.72367,-39.98193,-38.20039,7.54091,62.95256,-8.36773,3.43176,-17.60653,25.47213,-2.30259,2.44818,0.13102,0.85398,74.6642,13.17221,1.8611,-59.15425,-23.16221,4.45352,5.94403,-2.68735,1.02288,2.80391,-6.56904,2.26775,-1.48353,-1.75896,-0.17494,0.60349,0.52375,-0.15692,-0.10471,-0.23099,0.0067,-0.03536,-0.11252,-0.01101
2983,11.22211,-60.26222,9.32947,13.69642,4.6862,-1.76836,-42.2257,-37.32228,7.94575,59.32003,-6.67389,3.37104,-18.17032,25.55011,-2.55889,2.23726,0.0741,0.71683,68.39953,16.52246,3.91925,-54.82135,-28.08611,7.38865,5.76221,-2.04839,1.7808,3.15895,-6.36488,1.98554,-0.99024,-1.81443,-0.28594,0.96387,0.74922,0.05309,0.00614,-0.27449,-0.01504,0.0182,-0.09268,0.03654
2984,7.45914,-58.60627,9.31743,11.7579,4.7241,-1.72912,-45.78208,-35.61234,7.87785,54.98121,-4.75256,3.55502,-18.56999,25.63683,-2.82557,1.92789,-0.02531,0.563,59.34843,19.52636,4.95506,-43.47915,-30.65329,8.25469,5.49689,-1.48848,2.47196,3.39011,-5.90341,1.26692,-0.69434,-1.77801,-0.18899,1.364,1.09961,0.17784,0.06931,-0.28232,0.0225,0.09503,-0.02337,0.05996
2985,3.62658,-56.66423,9.27205,9.97424,4.50868,-1.64468,-50.30425,-34.15638,7.35057,51.37162,-3.6425,3.76857,-18.77259,25.72318,-3.07103,1.61792,-0.16386,0.41619,49.76849,20.1471,4.33341,-27.6483,-29.72846,6.81083,5.2535,-1.14122,2.68549,3.48026,-5.39895,0.33707,-0.63203,-1.59547,-0.04451,1.74635,1.40069,0.20801,0.07629,-0.23906,0.05698,0.19374,0.06351,0.04882
2986,0.1337,-54.82421,9.23655,8.94314,4.0617,-1.58581,-55.31575,-33.79914,6.57378,49.74759,-3.62001,3.97213,-18.78991,25.80401,-3.25957,1.41819,-0.30254,0.29181,41.95783,18.32923,2.53745,-12.35523,-25.5245,4.16693,5.13114,-1.07016,2.29418,3.48384,-5.12137,-0.45704,-0.77926,-1.29576,0.0188,2.01884,1.55627,0.13984,0.04134,-0.1569,0.03997,0.28603,0.13875,0.00458
2987,-2.66145,-53.23022,9.18778,8.78731,3.66434,-1.5909,-59.87651,-34.62658,5.72036,50.28314,-4.36268,4.12786,-18.68048,25.86977,-3.36945,1.35043,-0.36615,0.20929,37.54037,15.30396,0.50505,-2.58115,-19.08195,1.92106,5.15546,-1.28644,1.45979,3.4718,-5.19353,-0.8148,-1.05101,-0.98581,0.00192,2.10383,1.56749,0.0169,-0.0045,-0.07604,-0.02587,0.33695,0.18859,-0.05141
2988,-4.59236,-51.86714,9.07696,9.24944,3.44863,-1.64593,-62.88947,-36.20024,4.98542,52.06984,-5.41551,4.0926,-18.52909,25.87179,-3.4123,1.34137,-0.30981,0.1861,36.85992,12.17596,-0.90582,-0.54939,-12.05354,1.26559,5.32497,-1.76295,0.4876,3.56471,-5.55963,-0.63215,-1.34906,-0.81028,-0.04136,2.06516,1.50307,-0.06021,-0.03266,-0.04081,-0.1083,0.35058,0.21258,-0.08497
2989,-5.75042,-50.53648,8.87538,9.9721,3.24552,-1.71341,-63.86348,-37.47649,4.64614,54.05796,-6.33392,3.82639,-18.40566,25.74172,-3.4163,1.26939,-0.14655,0.22594,39.17456,10.16544,-1.16391,-5.00174,-6.33486,2.567,5.59824,-2.3883,-0.33626,3.80985,-6.0335,-0.04041,-1.58463,-0.86568,-0.10569,2.01619,1.4111,-0.02011,-0.0348,-0.06826,-0.18001,0.35254,0.20856,-0.07304
2990,-6.41193,-48.92764,8.58313,10.51548,2.85566,-1.73616,-63.24846,-37.21337,4.778,55.33403,-6.92322,3.40484,-18.33246,25.47203,-3.39441,0.97354,0.12166,0.31729,42.71517,10.22255,-0.55079,-12.45324,-3.5058,5.24032,5.89176,-2.98401,-0.83194,4.06787,-6.4129,0.70606,-1.67554,-1.15095,-0.21367,1.93943,1.27972,0.10191,-0.01857,-0.14521,-0.224,0.33828,0.16871,-0.02211
2991,-6.85908,-46.98653,8.24671,10.3367,2.24931,-1.6295,-61.89719,-35.20217,5.17051,54.93437,-7.57319,2.7793,-18.27825,25.13312,-3.34363,0.3113,0.52145,0.44364,45.20026,11.56537,-0.12839,-19.47942,-4.65739,7.87768,6.06746,-3.36109,-0.92461,4.13722,-6.56217,1.35384,-1.56709,-1.57034,-0.34423,1.74203,1.09889,0.21232,0.00398,-0.24421,-0.22514,0.28496,0.09574,0.04203
2992,-7.26789,-44.96697,7.95951,9.1002,1.59402,-1.33352,-60.4791,-32.36801,5.67713,52.1686,-8.59704,1.92516,-18.17978,24.79659,-3.2547,-0.76575,1.0817,0.60593,44.70333,12.64405,-0.56374,-24.12706,-10.13091,8.82782,5.98291,-3.36611,-0.60241,3.9606,-6.45814,1.68618,-1.30403,-1.94855,-0.39926,1.45133,0.92109,0.25775,0.01508,-0.32804,-0.16875,0.20169,0.01658,0.09422
2993,-7.67399,-43.09219,7.7709,6.90863,1.15878,-0.86969,-59.21308,-29.68565,6.24366,47.21155,-9.58285,1.13359,-17.98386,24.49336,-3.1295,-2.22278,1.83387,0.81252,40.62783,13.04666,-1.50571,-25.75899,-18.33234,7.08008,5.61891,-2.98872,0.02779,3.61901,-6.1236,1.49071,-1.03708,-2.11318,-0.27451,1.24839,0.84267,0.24289,-0.00363,-0.36257,-0.05583,0.13724,-0.0238,0.11387
2994,-8.01687,-41.46017,7.64448,4.17997,1.18654,-0.33729,-57.98636,-27.86853,6.59343,41.02982,-9.62593,0.98023,-17.68039,24.23319,-2.97903,-4.01544,2.81719,1.04531,33.89072,13.26752,-2.11215,-23.84741,-25.56312,2.88713,5.12263,-2.42913,0.69398,3.21547,-5.61294,0.67685,-0.89244,-2.0277,0.01344,1.312,0.90242,0.20849,-0.05072,-0.34707,0.08018,0.13807,0.00074,0.09208
2995,-8.29675,-40.10875,7.53224,1.45135,1.73442,0.12876,-56.72968,-27.44635,6.38897,34.82934,-8.17616,1.82343,-17.30522,24.02078,-2.815,-6.11084,4.05079,1.25285,26.2202,13.47678,-1.82355,-18.22985,-28.21901,-2.20884,4.69684,-1.97289,1.10203,2.85258,-5.11324,-0.51148,-0.87999,-1.80956,0.32223,1.63573,1.03966,0.18194,-0.10446,-0.3099,0.18892,0.19996,0.06838,0.04006
2996,-8.53491,-38.92306,7.42505,-0.84439,2.52854,0.41517,-55.44217,-28.16228,5.77667,29.38829,-5.67882,3.30724,-16.90004,23.84499,-2.64323,-8.50709,5.49345,1.38235,19.11364,13.45183,-0.87957,-10.19191,-25.55862,-6.14107,4.43682,-1.74308,1.11367,2.65649,-4.92069,-1.52941,-0.91048,-1.57653,0.48487,2.00134,1.17631,0.13634,-0.1399,-0.26564,0.22952,0.26449,0.13599,-0.02093
2997,-8.6393,-37.56993,7.32404,-2.39766,3.22533,0.46731,-54.09557,-28.7473,5.36627,25.08478,-2.81727,4.74203,-16.47693,23.68069,-2.45841,-11.1802,7.05991,1.43974,13.45381,13.77217,0.17793,-2.82129,-20.20513,-7.48209,4.27855,-1.66092,0.80077,2.68833,-5.19983,-1.87217,-0.92834,-1.36036,0.43353,2.1276,1.25435,0.04549,-0.15632,-0.20661,0.19535,0.26131,0.17148,-0.06817
2998,-8.44094,-35.71965,7.18584,-3.11914,3.68146,0.30361,-52.65555,-27.91643,5.51861,21.87952,0.24898,5.69231,-16.03483,23.52566,-2.26432,-14.02242,8.65548,1.47267,9.2109,15.59591,1.07164,1.04449,-15.76869,-6.2418,4.137,-1.63577,0.36096,2.855,-5.8135,-1.46398,-0.99873,-1.15027,0.27682,1.88813,1.2307,-0.05973,-0.182,-0.13007,0.12675,0.16498,0.16137,-0.08297
2999,-7.83561,-33.35366,6.93454,-3.34577,3.8742,0.01298,-51.27694,-25.2539,5.93785,19.0873,3.4582,6.00857,-15.5794,23.40693,-2.08749,-16.85817,10.1811,1.50352,5.16809,19.3712,1.44075,0.81042,-14.04393,-3.65922,4.10028,-1.66417,-0.01926,3.00243,-6.42737,-0.71602,-1.1939,-0.94734,0.20131,1.43333,1.12563,-0.1299,-0.2353,-0.05265,0.0789,0.0233,0.11767,-0.06434
3000,-6.89193,-30.81155,6.54786,-3.74289,3.78317,-0.29836,-50.25834,-21.44122,6.1289,15.68133,6.47889,5.68806,-15.11845,23.34672,-1.96386,-19.53094,11.55077,1.50362,-0.26722,24.21716,0.89739,-1.85395,-14.44212,-1.12957,4.37243,-1.76191,-0.25149,3.04588,-6.76776,-0.11991,-1.45089,-0.7928,0.27714,1.05014,0.98089,-0.12729,-0.29242,-0.00178,0.07102,-0.07977,0.05778,-0.02287
3001,-5.82146,-28.51753,6.09963,-4.77975,3.37232,-0.55535,-49.6826,-17.70928,5.96377,11.22652,8.85413,4.91921,-14.65515,23.33995,-1.90659,-21.93908,12.7113,1.44155,-7.44811,28.47688,-0.39448,-4.58186,-15.4987,0.696,4.98039,-1.84931,-0.34184,3.01554,-6.76225,0.13683,-1.57077,-0.7107,0.40753,0.94157,0.79884,-0.029,-0.30399,0.01242,0.08177,-0.08909,-0.01658,0.03198
3002,-4.77267,-26.6685,5.66413,-6.37075,2.71468,-0.72074,-48.99226,-14.96607,5.4799,6.37829,10.25706,4.16418,-14.18882,23.37444,-1.8898,-24.06257,13.68675,1.331,-14.56254,30.73026,-1.73674,-5.41436,-16.40166,1.96367,5.61139,-1.81464,-0.35632,2.97799,-6.49448,0.08574,-1.35074,-0.70342,0.42941,1.11181,0.63125,0.10539,-0.23459,-0.00051,0.08065,-0.01373,-0.08705,0.07904
3003,-3.79738,-25.28253,5.26026,-7.99548,2.07112,-0.77865,-47.33126,-13.8988,4.59153,2.29546,10.61771,3.86238,-13.72302,23.43469,-1.88123,-25.96405,14.60555,1.24519,-18.95836,29.79791,-2.42658,-2.80001,-17.13957,3.06614,5.87503,-1.67268,-0.37032,2.95407,-6.1075,-0.19227,-0.74231,-0.81364,0.23844,1.41129,0.58521,0.16624,-0.08489,-0.03655,0.05069,0.08306,-0.11577,0.09233
3004,-2.95882,-24.34941,4.92302,-9.17798,1.68155,-0.74171,-44.69502,-14.85491,3.49518,-0.47281,10.14502,3.89161,-13.27187,23.46944,-1.86872,-27.73854,15.60588,1.274,-20.22148,25.34297,-2.37369,3.70508,-18.05692,4.15957,5.65261,-1.56251,-0.44144,2.96898,-5.76972,-0.5081,0.10385,-1.08081,-0.14523,1.68146,0.66452,0.13499,0.11486,-0.09495,-0.00872,0.14167,-0.0997,0.07472
3005,-2.2978,-23.64159,4.67891,-9.83726,1.54848,-0.64016,-41.84474,-16.84194,2.76999,-2.48711,9.27694,3.68515,-12.85696,23.41051,-1.8566,-29.46827,16.74897,1.46899,-20.67997,19.21334,-2.11439,12.55612,-19.16253,5.06632,5.17956,-1.60903,-0.5996,3.14125,-5.63059,-0.57518,0.90975,-1.44128,-0.58633,1.87551,0.75073,0.08907,0.31745,-0.159,-0.08583,0.1572,-0.07651,0.05251
3006,-1.72651,-22.7992,4.47184,-10.12259,1.6058,-0.47798,-39.03778,-18.15596,2.68915,-4.70486,8.60868,3.02645,-12.49732,23.23876,-1.85272,-31.15982,18.03465,1.83602,-22.32402,14.28717,-2.05725,20.51371,-19.9862,5.46809,4.7605,-1.81752,-0.82054,3.54643,-5.6988,-0.23833,1.38484,-1.74057,-0.90046,1.99209,0.75124,0.06344,0.45847,-0.20067,-0.15481,0.16219,-0.06986,0.03664
3007,-1.09293,-21.74424,4.21603,-10.11546,1.90145,-0.23203,-35.89842,-17.92334,2.90856,-7.44574,8.69667,2.36539,-12.19446,22.98117,-1.86096,-32.74855,19.42887,2.34847,-24.888,12.32751,-2.11053,24.71642,-20.19688,5.04182,4.57157,-2.09775,-1.0176,4.04442,-5.84167,0.3536,1.35934,-1.86996,-0.95516,2.00669,0.67487,0.02944,0.47659,-0.20702,-0.18286,0.17954,-0.0676,0.01857
3008,-0.33194,-20.67738,3.89191,-9.82624,2.50336,0.10764,-32.29059,-16.29501,2.95454,-10.41795,9.79679,2.26568,-11.91926,22.67396,-1.87242,-34.16235,20.86939,2.95602,-27.29531,13.5365,-2.05316,24.70476,-20.12688,3.45069,4.60865,-2.33108,-1.12467,4.31618,-5.87264,0.80899,0.94116,-1.85049,-0.78786,1.92839,0.58823,-0.02098,0.36987,-0.19222,-0.15996,0.2093,-0.04662,-0.00712
3009,0.42408,-19.79817,3.57578,-9.21603,3.35322,0.50668,-28.9305,-13.94471,2.77275,-12.97298,11.7284,2.80661,-11.6273,22.32545,-1.87271,-35.37072,22.27875,3.6113,-29.46362,16.83056,-1.94504,22.08708,-20.3632,0.56721,4.77984,-2.44645,-1.138,4.11967,-5.70333,0.73944,0.44281,-1.80277,-0.57082,1.87179,0.56022,-0.05331,0.20713,-0.18464,-0.10875,0.24863,0.00339,-0.03572
3010,0.95363,-19.09305,3.36614,-8.27651,4.25512,0.89205,-26.80184,-11.48626,2.70877,-14.39229,13.98612,3.57925,-11.28419,21.92224,-1.85381,-36.40432,23.5815,4.27226,-32.00912,20.58583,-2.01719,18.7417,-20.88216,-3.06631,4.95124,-2.42349,-1.07252,3.48939,-5.43311,0.05066,0.13757,-1.81853,-0.44656,1.96402,0.62495,-0.04192,0.07148,-0.19974,-0.05932,0.29602,0.07449,-0.05915
3011,1.17215,-18.36232,3.25671,-7.15333,5.03852,1.22088,-25.9606,-9.39696,2.86086,-14.5,16.0009,4.22437,-10.89235,21.48676,-1.82414,-37.35329,24.74774,4.90177,-34.93309,23.14619,-2.19347,16.22015,-21.11518,-6.17125,4.97148,-2.29551,-0.92127,2.67516,-5.27881,-0.96778,0.08656,-1.90423,-0.41825,2.17812,0.74594,0.00527,0.00494,-0.2313,-0.02373,0.33192,0.14082,-0.06861
3012,1.21787,-17.42975,3.12003,-6.07091,5.73442,1.52606,-25.38033,-8.19971,2.73807,-13.82536,17.46649,4.81373,-10.4841,21.109,-1.80523,-38.32116,25.81049,5.48558,-37.20797,23.27463,-2.02917,15.75379,-20.56048,-7.34025,4.75109,-2.13441,-0.66241,2.00344,-5.40268,-1.85026,0.16029,-2.02355,-0.38955,2.36741,0.852,0.04931,-0.00459,-0.2643,0.00622,0.32769,0.17681,-0.06397
3013,1.26133,-16.31528,2.86935,-5.15857,6.5412,1.85626,-24.19168,-8.11386,1.9902,-13.00442,18.59804,5.53205,-10.09364,20.86217,-1.81639,-39.35847,26.7962,6.03489,-37.65764,21.38183,-1.16543,18.2499,-19.40466,-6.01924,4.35193,-1.98236,-0.29143,1.73146,-5.75281,-2.2697,0.19365,-2.15078,-0.28783,2.42946,0.91109,0.03621,0.00329,-0.28896,0.04026,0.27871,0.17933,-0.05852
3014,1.37263,-15.15723,2.55792,-4.42053,7.6279,2.20895,-22.44645,-8.53381,1.07771,-12.11567,20.04288,6.29794,-9.73702,20.72173,-1.86167,-40.46902,27.67431,6.56958,-35.9265,19.79836,0.29009,23.31163,-18.51495,-2.94498,3.95564,-1.78452,0.13146,1.9518,-6.11761,-2.13375,0.16142,-2.26772,-0.16913,2.38351,0.91676,-0.03172,0.00626,-0.30044,0.06671,0.21155,0.15778,-0.05802
3015,1.53177,-14.00917,2.28487,-3.78559,9.00461,2.55941,-20.80815,-8.45528,0.66806,-10.70909,22.21856,6.95463,-9.41035,20.62679,-1.92585,-41.6638,28.40598,7.10403,-32.87526,20.47261,1.78224,28.97068,-18.72727,0.24228,3.7345,-1.46246,0.49934,2.52752,-6.26442,-1.5289,0.15686,-2.35694,-0.15233,2.30615,0.82544,-0.05886,0.01269,-0.29815,0.06063,0.15976,0.10769,-0.04372
3016,1.69926,-12.88594,2.08312,-3.28749,10.60877,2.90748,-19.76073,-7.75802,0.7503,-8.7,25.02467,7.59332,-9.09795,20.56927,-1.98647,-42.99572,29.01533,7.62037,-30.16254,22.8051,2.84889,32.83282,-20.02665,1.91868,3.77451,-1.0515,0.71338,3.1855,-6.13325,-0.70021,0.22478,-2.3806,-0.25423,2.28386,0.59728,0.04892,0.03324,-0.28089,0.01815,0.14646,0.01953,0.0034
3017,1.82673,-11.89241,1.94217,-3.09547,12.33241,3.25293,-19.39182,-7.3435,0.85057,-6.83074,28.11959,8.34338,-8.78894,20.57067,-2.02995,-44.50488,29.55916,8.06691,-29.473,24.65724,3.39945,33.96763,-21.16511,1.39799,4.05228,-0.69958,0.71289,3.679,-5.84487,0.0205,0.30512,-2.27101,-0.36914,2.36968,0.28584,0.26509,0.06125,-0.24219,-0.03665,0.1796,-0.08639,0.06858
3018,1.9066,-11.12904,1.84876,-3.44446,13.93675,3.57031,-19.46712,-7.8223,0.73418,-6.28186,31.10404,9.02121,-8.48467,20.61632,-2.05669,-46.16507,30.057,8.39524,-31.73998,24.84271,3.42152,33.69219,-20.83436,-0.58226,4.46023,-0.52737,0.49869,3.94855,-5.58456,0.46237,0.35416,-2.01402,-0.42149,2.54935,-0.00685,0.49057,0.08525,-0.18201,-0.07968,0.24727,-0.16901,0.11772
3019,1.97529,-10.52774,1.76941,-4.45153,15.12015,3.82941,-19.43542,-8.78954,0.48481,-7.6628,33.50089,9.3231,-8.20539,20.66672,-2.07921,-47.89036,30.49219,8.58999,-36.2744,23.70942,2.95895,33.96641,-19.53088,-2.31089,4.79737,-0.54647,0.15815,4.11764,-5.44377,0.75342,0.42962,-1.73857,-0.45284,2.72638,-0.24198,0.66993,0.1066,-0.12914,-0.10524,0.31881,-0.20815,0.13436
3020,2.07798,-9.84013,1.64511,-5.97636,15.73317,4.03295,-18.66635,-9.29025,0.22246,-10.27002,34.862,9.24951,-7.9765,20.7014,-2.10849,-49.5741,30.85767,8.67567,-40.7424,22.18542,2.33295,35.21933,-19.47911,-2.4583,4.84418,-0.71293,-0.18845,4.33559,-5.3955,1.04381,0.62864,-1.64858,-0.55816,2.8152,-0.39723,0.76836,0.13636,-0.12806,-0.12137,0.36384,-0.20555,0.11962
3021,2.26449,-8.77569,1.42908,-7.68104,15.90364,4.21073,-16.90411,-8.41577,0.04798,-12.64804,35.07884,9.07355,-7.80989,20.73419,-2.1417,-51.12561,31.17086,8.70234,-42.83245,21.35091,1.93623,36.37466,-22.29739,-1.12994,4.54253,-0.9836,-0.46129,4.56981,-5.38673,1.21201,0.95941,-1.8305,-0.76028,2.82047,-0.40025,0.7315,0.17761,-0.19201,-0.13457,0.37098,-0.16671,0.08103
3022,2.60801,-7.21403,1.12501,-9.23136,15.89505,4.3881,-14.3959,-5.86318,0.08663,-13.70459,34.51217,9.01639,-7.6963,20.79654,-2.16188,-52.48625,31.45691,8.72389,-41.68555,22.09939,1.89477,36.51771,-26.79792,0.42662,4.05912,-1.30996,-0.60261,4.56018,-5.38697,0.96132,1.2999,-2.18391,-0.94876,2.79306,-0.18217,0.53148,0.2179,-0.2874,-0.13484,0.345,-0.10065,0.0352
3023,3.11274,-5.33013,0.78648,-10.51684,15.87116,4.56588,-11.75852,-2.36623,0.39192,-13.57648,33.75691,9.06498,-7.61926,20.90773,-2.16047,-53.63644,31.73335,8.76901,-38.64639,24.22463,2.08913,36.16415,-29.62769,1.04189,3.65843,-1.61759,-0.54409,4.07892,-5.35765,0.15983,1.47367,-2.535,-0.95531,2.75668,0.24287,0.19451,0.23804,-0.36605,-0.10313,0.29708,-0.02008,-0.00283
3024,3.64563,-3.49622,0.48435,-11.69756,15.86248,4.74212,-9.74321,0.65862,0.82084,-13.43967,33.2114,9.07022,-7.56747,21.0714,-2.14694,-54.59939,32.01291,8.84244,-36.56667,26.12594,2.22765,36.41376,-28.08884,0.45723,3.49172,-1.81744,-0.30494,3.21795,-5.26145,-0.94603,1.40892,-2.74508,-0.74,2.6857,0.7473,-0.20167,0.23243,-0.39653,-0.04554,0.23554,0.06093,-0.03233
3025,3.98137,-2.07972,0.27391,-13.03414,15.89719,4.93431,-8.91245,2.01335,1.0588,-14.42262,32.96,9.00957,-7.53581,21.28156,-2.13718,-55.43781,32.31185,8.93836,-37.60457,26.08724,2.04117,37.58282,-22.45698,-0.77036,3.55441,-1.83672,-0.02331,2.37528,-5.11663,-1.87045,1.19084,-2.75037,-0.43545,2.58024,1.13181,-0.53085,0.21275,-0.37336,0.00412,0.17437,0.12303,-0.05804
3026,3.95615,-1.30557,0.18426,-14.66763,16.10998,5.17866,-9.22262,1.3315,0.84755,-16.85768,33.13083,9.10639,-7.52302,21.52803,-2.13583,-56.22345,32.64794,9.05546,-41.67914,23.91112,1.71161,39.16525,-15.80165,-1.96535,3.81773,-1.63442,0.17564,1.93732,-5.00846,-2.27019,0.9593,-2.57553,-0.19779,2.53742,1.23201,-0.67167,0.19287,-0.31267,0.0211,0.1433,0.1419,-0.07875
3027,3.57853,-1.14411,0.21045,-16.41215,16.67104,5.49079,-10.11826,-0.60512,0.2525,-19.96012,34.02368,9.59384,-7.53246,21.79559,-2.13888,-56.98695,33.01369,9.20324,-46.85588,21.31586,1.68025,40.83511,-11.95237,-2.87765,4.28582,-1.21196,0.26789,1.98239,-5.04383,-2.16894,0.79944,-2.30515,-0.08717,2.6923,1.01712,-0.57436,0.1796,-0.23813,0.00616,0.17142,0.10284,-0.08506
3028,3.03295,-1.27289,0.30383,-17.94405,17.58721,5.83675,-10.96956,-2.15003,-0.354,-22.57019,35.59104,10.36507,-7.56319,22.06524,-2.14165,-57.71069,33.36322,9.38196,-51.25444,20.42126,1.99103,42.77381,-12.81505,-3.7065,4.90066,-0.66727,0.27168,2.26403,-5.22902,-1.83718,0.71455,-2.01791,-0.07388,3.02903,0.62938,-0.30637,0.17094,-0.16837,-0.02446,0.24818,0.02639,-0.07032
3029,2.56887,-1.27795,0.38808,-19.0618,18.63997,6.14961,-11.33485,-1.9411,-0.64449,-23.94247,37.17777,11.02606,-7.60244,22.31404,-2.13968,-58.33558,33.63082,9.56641,-53.81198,22.00373,2.15823,45.04236,-17.56016,-4.73086,5.44342,-0.25569,0.16849,2.45283,-5.40807,-1.52381,0.66333,-1.76551,-0.09686,3.33959,0.27653,-0.01472,0.15725,-0.117,-0.04984,0.32681,-0.04213,-0.04237
3030,2.39906,-0.98799,0.39673,-19.81741,19.54114,6.38223,-11.04137,-0.04953,-0.63205,-24.27714,38.16956,11.28026,-7.62802,22.52354,-2.13387,-58.78152,33.76535,9.72223,-54.661,25.05149,1.7434,47.36901,-23.66643,-6.04309,5.62814,-0.27648,-0.1143,2.42719,-5.41403,-1.33192,0.64236,-1.56545,-0.14213,3.45478,0.08314,0.16805,0.13504,-0.09087,-0.05998,0.379,-0.07468,-0.01969
3031,2.60381,-0.55481,0.32068,-20.36083,20.12054,6.52425,-10.1996,2.15007,-0.56308,-24.33747,38.66216,11.17496,-7.62199,22.68546,-2.12266,-58.98073,33.74518,9.82473,-54.73457,27.75785,0.91795,49.253,-28.38309,-7.4105,5.30021,-0.80021,-0.60977,2.29218,-5.21947,-1.24295,0.72177,-1.39742,-0.26036,3.37115,0.04489,0.19728,0.11983,-0.08357,-0.06394,0.40934,-0.07984,-0.01188
3032,3.07594,-0.24626,0.20984,-20.74373,20.40526,6.59263,-9.1766,3.18338,-0.58752,-24.89189,39.3462,10.97974,-7.58692,22.78903,-2.10684,-58.89293,33.56824,9.86972,-55.19068,28.93062,0.40661,50.37031,-30.03502,-8.28682,4.57011,-1.5583,-1.18878,2.23246,-4.94528,-1.16636,0.98427,-1.27354,-0.48735,3.19719,0.06791,0.13312,0.13887,-0.08692,-0.07473,0.42649,-0.08686,-0.00955
3033,3.57966,-0.20904,0.12684,-20.88532,20.5495,6.61241,-8.44091,2.63733,-0.65975,-26.23356,40.79159,10.94235,-7.54419,22.81521,-2.09307,-58.51296,33.24211,9.8651,-56.74755,28.79768,0.7995,50.68268,-28.603,-8.13266,3.79247,-2.1204,-1.5816,2.38447,-4.7196,-1.02076,1.37122,-1.25039,-0.74212,3.07867,0.05505,0.07258,0.19505,-0.09935,-0.08915,0.44016,-0.11563,-0.00103
3034,3.91297,-0.42497,0.10071,-20.65606,20.70083,6.61281,-8.1717,1.08707,-0.73776,-28.04121,42.85073,11.17038,-7.51534,22.75742,-2.08313,-57.8673,32.78547,9.82578,-59.25208,28.04439,2.04475,50.17119,-25.78477,-6.73084,3.3544,-2.2219,-1.56181,2.77935,-4.61697,-0.76759,1.66882,-1.39225,-0.85269,3.10015,-0.03317,0.08384,0.25393,-0.12845,-0.08801,0.45656,-0.16342,0.01733
3035,3.97681,-0.80768,0.13471,-20.02957,20.93341,6.61378,-8.17621,-0.62864,-0.78658,-29.56029,44.83477,11.57723,-7.50821,22.6284,-2.07548,-56.99976,32.23195,9.76802,-61.6379,26.95561,3.60815,48.72626,-23.86243,-4.3846,3.4442,-1.86625,-1.10752,3.28232,-4.6472,-0.40424,1.68748,-1.69782,-0.70834,3.19148,-0.18663,0.19697,0.2761,-0.17348,-0.06225,0.46035,-0.21501,0.04881
3036,3.7955,-1.25389,0.22426,-19.15222,21.16144,6.6062,-8.29084,-1.75722,-0.65245,-30.04598,46.07672,11.90333,-7.50487,22.44045,-2.07144,-55.93577,31.59599,9.69888,-62.66142,25.98691,4.87416,46.40444,-24.09199,-1.85319,3.89849,-1.23148,-0.43754,3.66756,-4.76321,0.02099,1.47581,-2.07086,-0.40732,3.19633,-0.36037,0.39587,0.26306,-0.2167,-0.03536,0.42063,-0.25356,0.09637
3037,3.51248,-1.6246,0.32854,-18.23838,21.21566,6.57089,-8.43273,-1.84386,-0.32747,-29.29003,46.37591,12.01494,-7.46852,22.21602,-2.07062,-54.68052,30.87778,9.60848,-61.74556,26.06334,5.59284,43.73811,-25.92018,0.01463,4.3148,-0.59756,0.11471,3.77065,-4.91232,0.36891,1.28841,-2.38586,-0.18846,3.03624,-0.46929,0.59519,0.25324,-0.24308,-0.03953,0.32784,-0.26242,0.1497
3038,3.27388,-1.8097,0.38122,-17.47525,20.99352,6.50572,-8.42775,-1.11103,-0.11052,-27.89,45.91185,12.05894,-7.3789,22.00466,-2.06979,-53.26715,30.09373,9.47243,-59.3975,27.31253,5.98938,41.7373,-27.42768,0.81675,4.31666,-0.26864,0.31427,3.58359,-5.03634,0.46352,1.3395,-2.57483,-0.21499,2.78127,-0.42457,0.6678,0.27594,-0.25743,-0.07661,0.21324,-0.22838,0.18085
3039,3.13432,-1.81755,0.36313,-16.94389,20.47769,6.40049,-8.17639,-0.19531,-0.12597,-26.79569,44.93021,12.10789,-7.25397,21.85162,-2.0737,-51.7657,29.25802,9.26742,-56.76712,28.92024,6.32707,41.42099,-26.72723,0.78521,3.82572,-0.35061,0.15731,3.23404,-5.08586,0.22907,1.64046,-2.63978,-0.47026,2.57941,-0.2095,0.54151,0.32564,-0.27156,-0.1219,0.12937,-0.15443,0.1656
3040,3.04813,-1.73754,0.32617,-16.56883,19.6749,6.22026,-7.99846,0.48303,-0.09507,-26.4659,43.70619,11.97214,-7.12983,21.74573,-2.08683,-50.23303,28.35824,8.98942,-55.09758,30.13113,6.50945,43.63952,-23.25965,0.44059,3.09311,-0.62193,-0.13115,2.89933,-5.03724,-0.22295,2.05189,-2.65006,-0.80089,2.56261,0.08301,0.28177,0.37674,-0.29293,-0.14626,0.11674,-0.06791,0.11024
3041,2.94069,-1.68195,0.31828,-16.11934,18.64997,5.93508,-8.24751,0.59312,0.14412,-26.36618,42.59273,11.54064,-7.03188,21.63576,-2.10542,-48.71225,27.39676,8.64971,-54.66824,30.26631,6.32512,48.20247,-18.10869,0.08411,2.51022,-0.73028,-0.25411,2.72778,-4.94185,-0.68295,2.40596,-2.71069,-1.01025,2.76978,0.31929,0.02421,0.4089,-0.32733,-0.12828,0.18003,-0.00265,0.04171
3042,2.80404,-1.75898,0.32905,-15.47903,17.53785,5.56432,-8.74626,-0.15807,0.36297,-25.67734,41.80777,10.98553,-6.96711,21.47506,-2.12235,-47.25729,26.42343,8.26811,-54.55792,28.77369,5.73417,53.74764,-13.42602,-0.42384,2.31814,-0.55204,-0.10491,2.77692,-4.89853,-1.00068,2.59103,-2.85095,-0.99348,3.10768,0.4225,-0.15824,0.41876,-0.37078,-0.07264,0.28216,0.02653,-0.0225
3043,2.73096,-1.9908,0.32061,-14.80444,16.45561,5.16104,-8.91117,-1.58554,0.31192,-24.27703,41.18217,10.51187,-6.92819,21.24599,-2.12511,-45.92876,25.51498,7.8645,-53.63988,25.9557,4.87351,57.89758,-11.20201,-1.29059,2.45583,-0.32815,0.11486,3.01885,-4.99903,-1.11709,2.57861,-2.94851,-0.82509,3.39808,0.38758,-0.26764,0.41055,-0.39746,-0.01708,0.37118,0.0207,-0.0755
3044,2.80635,-2.28806,0.28236,-14.43965,15.4371,4.79073,-8.45001,-3.0658,0.03212,-23.06153,40.25031,10.14457,-6.89768,20.96981,-2.10052,-44.76266,24.73172,7.46868,-52.07687,22.65293,3.97527,58.58239,-12.27026,-2.36741,2.64223,-0.45141,0.09278,3.40644,-5.22744,-1.012,2.40282,-2.83172,-0.6807,3.52281,0.24866,-0.30506,0.38503,-0.37648,-0.00422,0.42002,-0.01506,-0.10548
3045,2.96981,-2.54137,0.24542,-14.62791,14.44887,4.51222,-7.85513,-4.02103,-0.23079,-23.12345,38.56811,9.78458,-6.85977,20.69229,-2.05022,-43.75433,24.09265,7.12441,-51.34415,19.4973,3.20559,55.29837,-15.73271,-3.26152,2.6534,-1.10244,-0.29114,3.88851,-5.4253,-0.71006,2.13665,-2.45649,-0.6693,3.48506,0.07482,-0.26333,0.34412,-0.30342,-0.04354,0.43353,-0.06592,-0.10186
3046,3.04275,-2.67922,0.24777,-15.2968,13.4856,4.34149,-8.1268,-4.19103,-0.27981,-24.74728,36.16722,9.36187,-6.80882,20.45639,-1.99192,-42.86636,23.56703,6.85815,-53.06221,16.82707,2.50794,49.79737,-19.40931,-3.75024,2.55266,-2.02586,-0.81006,4.34342,-5.37066,-0.32621,1.86336,-1.9837,-0.71216,3.36162,-0.04498,-0.16645,0.2977,-0.21099,-0.09338,0.42537,-0.10435,-0.07181
3047,2.91474,-2.68102,0.28641,-16.1301,12.66306,4.24976,-9.6942,-3.68316,-0.14189,-27.13401,33.77475,8.93736,-6.75441,20.28719,-1.9462,-42.05195,23.10129,6.66375,-57.21599,15.10184,1.78707,45.41268,-21.40245,-3.91377,2.67031,-2.65644,-1.07577,4.59388,-4.96991,-0.02923,1.66445,-1.68176,-0.63461,3.24471,-0.05335,-0.06118,0.26418,-0.14607,-0.09859,0.40825,-0.10991,-0.03367
3048,2.65317,-2.57579,0.30985,-16.77367,12.13987,4.19468,-11.73535,-2.86969,-0.02979,-29.06675,32.33746,8.64882,-6.7148,20.18989,-1.92739,-41.26947,22.65243,6.51929,-61.61359,14.96147,1.23376,44.94656,-21.46484,-3.85888,3.29521,-2.53046,-0.89883,4.54503,-4.35475,0.09937,1.60545,-1.72854,-0.38435,3.20399,0.01764,0.04516,0.26253,-0.13488,-0.05271,0.3989,-0.09203,0.00543
3049,2.38402,-2.44568,0.28738,-17.06965,11.93725,4.15211,-12.9321,-2.24209,-0.08274,-29.86379,32.16277,8.54798,-6.7092,20.15456,-1.93163,-40.49928,22.19388,6.4097,-63.65835,16.43216,1.22189,48.12681,-20.81187,-3.50061,4.39075,-1.66106,-0.40872,4.26376,-3.82622,0.08515,1.676,-2.08916,-0.05691,3.24889,0.08875,0.15937,0.29226,-0.16928,0.00553,0.40633,-0.07724,0.0458
3050,2.18894,-2.36883,0.2451,-17.10073,11.90717,4.11457,-12.60665,-2.09576,-0.18305,-29.66714,32.5606,8.47889,-6.74813,20.16433,-1.93847,-39.75101,21.70982,6.32754,-62.34163,18.43506,1.79287,51.73869,-20.57964,-2.78807,5.59654,-0.55589,0.08438,3.88472,-3.62841,-0.02735,1.78988,-2.54892,0.2123,3.31354,0.11784,0.24699,0.33219,-0.21984,0.0369,0.41746,-0.07824,0.07808
3051,2.11142,-2.37991,0.23511,-17.04497,11.88504,4.08255,-11.09315,-2.34993,-0.07627,-28.90366,32.44263,8.20743,-6.82858,20.20964,-1.92382,-39.04965,21.19132,6.26669,-58.33658,19.67563,2.48378,52.43276,-20.49159,-2.00088,6.45648,0.13183,0.2926,3.54694,-3.78342,-0.21271,1.87176,-2.86965,0.31101,3.32916,0.12285,0.24458,0.36338,-0.26025,0.02308,0.41323,-0.08563,0.08326
3052,2.12382,-2.47522,0.27448,-17.01126,11.84419,4.07114,-9.32069,-2.8578,0.27742,-27.80607,31.34929,7.75771,-6.94242,20.30785,-1.88672,-38.42368,20.65238,6.22082,-53.10321,19.49801,2.8725,49.37465,-18.98495,-1.61148,6.69527,0.0729,0.12636,3.34214,-4.10391,-0.42897,1.88244,-2.91497,0.21269,3.26639,0.1389,0.12901,0.37216,-0.27541,-0.02569,0.38759,-0.08525,0.05366
3053,2.12505,-2.67389,0.34184,-17.00454,11.9159,4.11198,-8.0849,-3.81478,0.60208,-26.40267,29.84936,7.4935,-7.08115,20.49271,-1.84464,-37.8897,20.13224,6.18707,-47.93311,17.90318,3.08691,44.39838,-14.76159,-1.81436,6.3339,-0.57067,-0.26625,3.29285,-4.38997,-0.60067,1.82026,-2.70149,0.00448,3.13815,0.17422,-0.04425,0.35108,-0.26261,-0.07475,0.34963,-0.07592,0.00715
3054,2.03206,-3.03691,0.42194,-16.9918,12.23059,4.21577,-7.72137,-5.44145,0.69485,-24.7413,28.88529,7.68039,-7.23813,20.77387,-1.81432,-37.42561,19.6579,6.16422,-43.59644,15.61816,3.46583,40.25236,-8.27257,-2.44993,5.67091,-1.37626,-0.64365,3.331,-4.57109,-0.70131,1.72003,-2.36665,-0.17335,2.9915,0.21673,-0.20277,0.30919,-0.23225,-0.09163,0.31659,-0.06539,-0.03314
3055,1.83064,-3.52512,0.51038,-16.9991,12.71681,4.34623,-8.19868,-7.29458,0.67698,-23.31859,28.73948,8.10167,-7.41142,21.13379,-1.80793,-36.98086,19.2161,6.14855,-40.92747,13.85379,3.95149,38.58792,-1.73172,-3.27341,5.05545,-1.99723,-0.85671,3.36354,-4.69044,-0.77246,1.64709,-2.06876,-0.24489,2.88882,0.26297,-0.30894,0.27077,-0.20084,-0.07176,0.30052,-0.05932,-0.05392
3056,1.55491,-3.99014,0.59008,-17.11807,13.15183,4.4616,-9.18857,-8.52904,0.70435,-22.79712,28.87193,8.34134,-7.60004,21.56156,-1.8309,-36.52786,18.79347,6.14185,-40.37184,13.42642,4.0486,39.07892,2.28411,-4.14823,4.62309,-2.3063,-0.90807,3.35694,-4.79166,-0.82568,1.68173,-1.90581,-0.25658,2.87719,0.30702,-0.3288,0.26263,-0.18292,-0.039,0.30319,-0.0615,-0.04456
3057,1.28392,-4.34427,0.64034,-17.41768,13.33277,4.547,-10.16673,-8.70438,0.71144,-23.40834,28.59756,8.24174,-7.79209,22.05433,-1.86865,-36.07986,18.41096,6.14601,-41.30655,14.37748,3.34861,40.18786,2.38054,-4.93138,4.25852,-2.30697,-0.87058,3.39983,-4.88038,-0.82232,1.88663,-1.90301,-0.31927,2.96353,0.33827,-0.26282,0.29951,-0.18659,-0.02347,0.32103,-0.07066,-0.01048
3058,1.10675,-4.65083,0.66677,-17.89432,13.1288,4.60162,-10.83659,-8.18798,0.57808,-24.92073,27.60011,7.94172,-7.96683,22.58774,-1.89208,-35.66756,18.08944,6.15274,-42.88619,15.99139,1.98759,40.67322,-1.05099,-5.27756,3.79552,-2.01565,-0.77944,3.64549,-4.95239,-0.72044,2.22132,-2.00847,-0.47284,3.10184,0.35189,-0.16893,0.36775,-0.20677,-0.03431,0.34852,-0.07916,0.02255
3059,1.05772,-5.03886,0.71545,-18.47454,12.52746,4.6297,-11.29547,-7.90277,0.39976,-26.94299,25.91988,7.62162,-8.10902,23.11005,-1.87295,-35.32573,17.82833,6.15557,-44.78779,16.96865,0.71897,40.65461,-6.16366,-4.78476,3.26073,-1.50698,-0.63706,4.14162,-4.95512,-0.48231,2.51911,-2.11333,-0.63459,3.18336,0.35414,-0.09444,0.42288,-0.22298,-0.05399,0.36925,-0.07704,0.03691
3060,1.05801,-5.52151,0.83354,-19.08958,11.69262,4.63984,-11.91567,-8.49777,0.44979,-29.03363,23.86589,7.36627,-8.22291,23.57128,-1.80683,-35.08903,17.61651,6.1537,-46.98779,16.37524,0.40699,41.09661,-10.40791,-3.42563,2.92196,-0.98453,-0.4909,4.70843,-4.74739,-0.11534,2.57451,-2.10349,-0.6855,3.10329,0.35412,-0.03432,0.41914,-0.21147,-0.06453,0.36281,-0.05813,0.03578
3061,0.98499,-5.96246,1.01983,-19.63415,10.91749,4.6412,-13.00807,-9.78709,0.86498,-30.62008,21.97233,7.22674,-8.33089,23.95185,-1.71137,-34.97231,17.45173,6.1472,-49.30542,14.55348,1.3392,42.48505,-11.90626,-1.65542,3.06112,-0.68933,-0.43424,5.06963,-4.25463,0.2742,2.31333,-1.94377,-0.5912,2.88242,0.35282,0.02828,0.35469,-0.16933,-0.06936,0.32885,-0.02548,0.02637
3062,0.80434,-6.21358,1.2217,-20.06426,10.43914,4.64476,-14.48905,-11.00415,1.47135,-31.39722,20.67763,7.23443,-8.45723,24.26794,-1.6049,-34.95894,17.33698,6.13649,-51.40811,12.79396,2.91116,44.41249,-10.73404,-0.05745,3.66062,-0.691,-0.49472,5.03824,-3.59197,0.51144,1.87659,-1.71974,-0.41809,2.65523,0.34723,0.08202,0.27867,-0.12189,-0.08205,0.2911,0.00916,0.00972
3063,0.59874,-6.26673,1.38389,-20.43861,10.30305,4.65764,-15.84443,-11.65696,1.98231,-31.4481,20.09368,7.35337,-8.61587,24.55778,-1.49657,-35.0042,17.25992,6.12507,-52.5908,12.17738,4.18227,45.97951,-8.89841,0.96068,4.28744,-0.79903,-0.5873,4.62172,-3.03924,0.4572,1.51304,-1.55008,-0.27861,2.54659,0.34372,0.09175,0.24324,-0.09435,-0.10889,0.26963,0.03308,-0.01489
3064,0.48456,-6.26384,1.49253,-20.85802,10.3939,4.67639,-16.5696,-11.98756,2.25523,-31.13901,20.10577,7.50306,-8.80851,24.8605,-1.38684,-35.06886,17.20113,6.11625,-52.30208,12.75099,4.70372,46.5103,-8.67899,1.1849,4.45385,-0.74403,-0.58375,4.00467,-2.81764,0.12326,1.41504,-1.51263,-0.24503,2.57104,0.35038,0.03786,0.26504,-0.09394,-0.13995,0.26108,0.04033,-0.04485
3065,0.51917,-6.3749,1.57096,-21.3029,10.49539,4.68186,-16.67094,-12.56862,2.31416,-30.5906,20.3338,7.58979,-9.02927,25.20793,-1.27132,-35.13849,17.15202,6.11129,-50.49524,13.60917,4.47708,45.79588,-10.73324,0.57361,4.09125,-0.44977,-0.41204,3.46133,-2.91359,-0.27433,1.60145,-1.6254,-0.27906,2.64814,0.35383,-0.027,0.31976,-0.11588,-0.14795,0.25102,0.02995,-0.06405
3066,0.63999,-6.74129,1.66594,-21.6167,10.37601,4.64089,-16.7131,-13.82007,2.30719,-29.45599,20.21567,7.4884,-9.26803,25.60814,-1.1491,-35.21314,17.11291,6.1084,-47.40633,13.78314,3.54337,44.14764,-13.52246,-0.72279,3.56483,-0.11018,-0.12867,3.18882,-3.12183,-0.44723,1.9051,-1.82801,-0.27831,2.69046,0.32103,0.00743,0.36038,-0.14877,-0.11178,0.23763,0.00292,-0.0468
3067,0.6837,-7.4358,1.83358,-21.64036,9.91191,4.52571,-17.3859,-15.80679,2.45986,-27.31763,19.3277,7.0951,-9.5206,26.04279,-1.02069,-35.29123,17.07266,6.10044,-43.35157,12.96091,1.99887,42.09554,-14.56567,-2.27097,3.21606,0.03022,0.1203,3.19484,-3.24008,-0.30065,2.10866,-2.00805,-0.20131,2.68085,0.24784,0.17855,0.34435,-0.17677,-0.03957,0.236,-0.03272,0.01059
3068,0.52846,-8.37688,2.08783,-21.35207,9.18623,4.34477,-18.72573,-18.25179,2.88152,-24.28891,17.5767,6.46566,-9.79262,26.49925,-0.88864,-35.37586,17.01944,6.07405,-38.65475,11.11445,0.29909,39.84733,-12.70841,-3.38127,2.99215,-0.0611,0.24685,3.32854,-3.21317,-0.01696,2.11765,-2.09543,-0.10259,2.63644,0.18398,0.37832,0.26204,-0.19412,0.04268,0.25071,-0.06046,0.07555
3069,0.18859,-9.36499,2.38329,-20.91119,8.41394,4.14009,-20.01908,-20.65298,3.47961,-21.23648,15.29198,5.8232,-10.08829,26.97935,-0.75942,-35.46413,16.95152,6.01384,-33.90564,8.50174,-0.79837,36.97896,-9.1859,-3.5553,2.65086,-0.20119,0.27565,3.43908,-3.10057,0.14248,1.97502,-2.09696,-0.0552,2.58948,0.18977,0.45974,0.14146,-0.20782,0.1097,0.27565,-0.06695,0.10837
3070,-0.24867,-10.216,2.64967,-20.62543,7.74362,3.94864,-20.59677,-22.42636,4.07768,-19.5153,13.14501,5.35047,-10.39662,27.476,-0.64823,-35.5237,16.85391,5.9082,-30.49166,6.1382,-0.89942,33.03783,-6.44353,-3.00394,2.2046,-0.23078,0.2445,3.52028,-2.98277,0.06171,1.7548,-2.0319,-0.08185,2.59586,0.29136,0.36503,0.02842,-0.22004,0.14083,0.30845,-0.04879,0.09238
3071,-0.75132,-10.85133,2.8269,-20.73684,7.20404,3.78012,-20.38398,-23.22801,4.46322,-19.91738,11.74593,5.06377,-10.70296,27.97223,-0.57684,-35.51091,16.70473,5.75692,-29.51503,5.34587,-0.39355,28.31103,-5.91531,-2.53735,2.04628,-0.16762,0.1539,3.63735,-2.91606,-0.20204,1.49177,-1.89798,-0.12768,2.68713,0.4682,0.14453,-0.03961,-0.21837,0.12748,0.34495,-0.01038,0.0369
3072,-1.34697,-11.3005,2.8954,-21.247,6.76594,3.63158,-19.69117,-23.23938,4.43381,-22.11039,11.2728,4.9123,-10.99391,28.46015,-0.55008,-35.3934,16.49881,5.57298,-30.60078,6.62811,0.155,24.65793,-6.86683,-2.7303,2.57203,-0.13007,0.02811,3.7944,-2.96531,-0.52541,1.24588,-1.7303,-0.10416,2.828,0.6622,-0.10221,-0.03804,-0.19438,0.08252,0.37037,0.03735,-0.03536
3073,-2.06275,-11.70549,2.89249,-21.838,6.36788,3.48916,-19.0514,-23.28248,3.97632,-24.74031,11.43954,4.90054,-11.2545,28.92829,-0.55134,-35.13503,16.23792,5.36762,-32.20354,8.94372,0.6545,24.49804,-7.24347,-3.19463,3.71914,-0.17564,-0.06038,3.9189,-3.1703,-0.787,1.15894,-1.62752,0.0138,2.91896,0.80378,-0.28249,0.05201,-0.16611,0.03202,0.37051,0.07972,-0.09806
3074,-2.85874,-12.27346,2.88372,-22.08725,5.94095,3.33407,-19.00323,-24.50622,3.32465,-26.43184,11.78326,5.07009,-11.47783,29.35359,-0.56095,-34.68282,15.90685,5.14243,-32.94099,10.2652,1.41514,28.4974,-5.65169,-2.81834,4.944,-0.25131,-0.04501,4.02427,-3.46732,-0.84838,1.35789,-1.69462,0.15466,2.88889,0.84836,-0.32747,0.22402,-0.16634,-0.00361,0.35284,0.10251,-0.12343
3075,-3.60768,-13.1582,2.93103,-21.81878,5.48356,3.13736,-19.76416,-27.50952,2.84652,-26.67071,12.05353,5.36053,-11.66886,29.70975,-0.55736,-33.99679,15.47111,4.87688,-32.21746,9.45393,2.58112,34.19645,-2.80383,-0.90942,5.63274,-0.25357,0.0978,4.19451,-3.68244,-0.60596,1.75567,-1.92964,0.24728,2.70837,0.78801,-0.22675,0.41177,-0.20315,-0.01568,0.32933,0.09825,-0.0988
3076,-4.17671,-14.30368,3.0494,-21.16903,5.06355,2.87434,-21.05705,-31.62277,2.81095,-25.99941,12.19747,5.52576,-11.84968,29.97248,-0.52988,-33.05853,14.89981,4.54748,-30.31188,7.28614,3.80764,37.58101,-1.10185,1.92319,5.57731,-0.1482,0.35003,4.41199,-3.64503,-0.12505,2.11048,-2.23644,0.30207,2.40034,0.65143,-0.05,0.5246,-0.25286,-0.00166,0.29568,0.07027,-0.04228
3077,-4.54045,-15.44858,3.19397,-20.35768,4.72762,2.55092,-22.40397,-35.30867,3.16564,-25.37176,12.08645,5.30606,-12.04648,30.13341,-0.48591,-31.86658,14.19755,4.15752,-28.22784,5.48568,4.51445,36.44432,-2.64151,4.13876,5.08303,-0.00768,0.67822,4.5121,-3.35026,0.3497,2.24844,-2.53276,0.39627,2.08686,0.4905,0.11975,0.51641,-0.28894,0.04136,0.25047,0.0278,0.01681
3078,-4.78601,-16.40449,3.30665,-19.53652,4.41058,2.20744,-23.65167,-37.4942,3.60848,-25.3324,11.37943,4.63431,-12.27075,30.1987,-0.44113,-30.43952,13.40215,3.73784,-27.18529,4.905,4.20421,32.16593,-7.3499,4.50573,4.59062,0.05084,1.01285,4.35232,-2.96938,0.55264,2.16944,-2.78032,0.56124,1.92193,0.37159,0.227,0.40687,-0.2981,0.1033,0.20685,-0.01551,0.05685
3079,-5.08431,-17.20191,3.37556,-18.69341,3.97342,1.89299,-25.12586,-38.2582,3.93503,-25.39872,9.65928,3.61125,-12.51585,30.17683,-0.41143,-28.80049,12.5521,3.33336,-27.37642,4.89533,2.67277,28.29203,-12.90985,3.07007,4.268,-0.01944,1.23477,4.01919,-2.71032,0.40255,1.98791,-2.93505,0.70778,1.95303,0.35055,0.23471,0.25828,-0.2781,0.14996,0.17829,-0.04325,0.06566
3080,-5.52401,-17.93156,3.42828,-17.69723,3.3445,1.62289,-26.93527,-38.28926,4.24394,-24.67783,7.10327,2.44301,-12.75998,30.06779,-0.40612,-26.96974,11.66728,2.97125,-27.81063,4.62307,0.55867,27.3553,-16.41403,0.94856,3.99512,-0.13323,1.22333,3.80701,-2.66638,0.07088,1.83655,-2.92749,0.68022,2.11108,0.43365,0.14785,0.14001,-0.23113,0.14038,0.17263,-0.04574,0.04515
3081,-6.08502,-18.61924,3.49967,-16.39536,2.59974,1.37471,-28.90864,-38.13855,4.7833,-22.75842,4.8547,1.50273,-12.97352,29.86647,-0.42377,-24.97729,10.7467,2.65017,-27.72731,4.5059,-0.64344,28.88544,-16.12089,-0.73681,3.60784,-0.10633,0.93586,3.93358,-2.79246,-0.1821,1.7747,-2.68408,0.38559,2.26463,0.57631,0.01642,0.08987,-0.15608,0.05586,0.18298,-0.0243,0.00992
3082,-6.7238,-19.27022,3.58801,-14.78088,1.91263,1.13338,-30.80734,-38.15078,5.47669,-19.79603,4.02219,1.22501,-13.13983,29.60341,-0.45464,-22.89211,9.81491,2.35352,-26.61414,5.38195,0.0614,30.09171,-12.01501,-1.71492,3.14117,0.16369,0.46358,4.31538,-2.98049,-0.24809,1.78438,-2.22668,-0.1012,2.32836,0.7232,-0.09957,0.10482,-0.06072,-0.08005,0.19767,0.01119,-0.02254
3083,-7.43297,-19.89792,3.65062,-13.16123,1.29691,0.91997,-32.48494,-38.46909,5.85102,-16.59181,4.32812,1.6758,-13.27222,29.35375,-0.48606,-20.81635,8.92645,2.065,-24.30957,7.10696,1.99233,28.61908,-5.67677,-2.43885,2.85308,0.52181,-0.00091,4.68331,-3.15707,-0.20235,1.7927,-1.71143,-0.53797,2.31987,0.82944,-0.15644,0.15448,0.02242,-0.20183,0.2181,0.04322,-0.0377
3084,-8.18021,-20.55548,3.65944,-12.01115,0.58395,0.75822,-34.04187,-39.07029,5.66853,-14.57724,4.56188,2.34064,-13.38609,29.15924,-0.51581,-18.81678,8.09921,1.77013,-22.19327,8.76707,3.59887,23.90091,0.50759,-3.37035,3.03393,0.60688,-0.3051,4.90352,-3.3038,-0.14315,1.67013,-1.31102,-0.66332,2.29344,0.87739,-0.15769,0.19494,0.0518,-0.23862,0.25011,0.05708,-0.03262
3085,-8.88312,-21.37437,3.63981,-11.48826,-0.23809,0.64655,-35.64262,-40.08157,5.26689,-14.58482,3.98691,2.51749,-13.48317,28.98599,-0.55698,-16.89327,7.31228,1.47573,-22.04908,9.41137,4.04931,17.07084,4.5413,-4.3695,3.73161,0.15102,-0.47309,5.09801,-3.39777,-0.04167,1.34938,-1.08383,-0.43429,2.23593,0.87024,-0.14643,0.20368,0.01316,-0.17654,0.28123,0.05116,-0.01831
3086,-9.46992,-22.43104,3.62065,-11.30814,-0.89752,0.57963,-37.19226,-41.49875,5.07823,-16.01591,2.75693,1.90295,-13.57292,28.77264,-0.62848,-15.03168,6.55378,1.22053,-23.8633,8.85042,3.58639,10.41761,5.72052,-4.73015,4.66666,-0.74106,-0.61637,5.4006,-3.35388,0.20834,0.95668,-1.00255,-0.05402,2.07995,0.81105,-0.15189,0.20066,-0.0716,-0.06711,0.28668,0.03498,-0.00868
3087,-9.90089,-23.6586,3.59271,-11.02103,-1.09542,0.54561,-38.25612,-42.84972,5.14955,-17.22401,1.49758,0.80722,-13.68254,28.47912,-0.7322,-13.24162,5.8237,1.03199,-25.25577,8.14267,2.87253,6.42688,4.21925,-3.88023,5.4065,-1.63482,-0.75784,5.69413,-3.10689,0.60045,0.73701,-1.03379,0.23091,1.81818,0.7039,-0.15254,0.21529,-0.16434,0.02903,0.2582,0.01933,-0.00668
3088,-10.14768,-24.91395,3.52785,-10.31059,-0.74275,0.52944,-38.46301,-43.61279,5.21717,-16.72412,0.85101,-0.13346,-13.83707,28.09842,-0.84517,-11.54522,5.11669,0.9099,-23.71889,8.59809,2.38626,6.50459,0.34773,-2.0913,5.66875,-2.10217,-0.83296,5.69265,-2.7045,0.94266,0.82446,-1.13895,0.30615,1.59046,0.57977,-0.09505,0.24881,-0.23076,0.08246,0.22185,0.01043,-0.0031
3089,-10.22438,-26.08201,3.4113,-9.09351,-0.00035,0.51003,-37.98467,-43.78061,5.01313,-14.20656,1.15264,-0.42849,-14.0426,27.65578,-0.94187,-9.95445,4.42276,0.82845,-19.14405,10.45095,2.31044,10.02736,-5.39801,-0.3449,5.50473,-2.01033,-0.80516,5.25397,-2.32597,0.98409,1.14487,-1.26741,0.20423,1.54987,0.50949,0.01766,0.28055,-0.25369,0.09201,0.20168,0.01346,0.00445
3090,-10.27834,-27.11288,3.26074,-7.49524,0.78703,0.4732,-37.66567,-43.81938,4.49789,-10.40341,2.13473,0.00412,-14.29375,27.21767,-1.02506,-8.46385,3.73705,0.75586,-13.6171,12.72521,2.66334,14.94354,-11.33229,0.44436,5.19976,-1.51789,-0.69934,4.55927,-2.15305,0.61757,1.47834,-1.35825,0.04521,1.70768,0.57246,0.09373,0.28883,-0.23421,0.07241,0.19038,0.03502,0.00134
3091,-10.54147,-28.0047,3.13199,-5.84952,1.16476,0.42425,-38.53643,-44.09487,3.94747,-6.43805,2.74267,0.75332,-14.58497,26.88469,-1.11903,-7.06997,3.06028,0.6688,-9.52631,13.94386,3.17565,19.21767,-14.97013,0.0234,4.98223,-0.91319,-0.58278,4.0072,-2.24492,0.00334,1.62235,-1.34418,-0.06725,1.98541,0.77519,0.07278,0.26173,-0.17989,0.04091,0.18445,0.07153,-0.01827
3092,-11.1345,-28.80102,3.07925,-4.50863,0.78018,0.38582,-41.13521,-44.45167,3.76865,-3.20237,1.79313,1.17171,-14.90974,26.75416,-1.24865,-5.77467,2.39722,0.57057,-8.28034,13.3579,3.24552,21.63272,-14.71429,-1.30979,4.91571,-0.49229,-0.54567,3.90275,-2.49342,-0.53487,1.52007,-1.1932,-0.11209,2.30144,1.02953,-0.00289,0.20875,-0.1053,0.00593,0.2007,0.10662,-0.0389
3093,-11.9442,-29.5865,3.1139,-3.64372,-0.28748,0.37458,-44.99976,-44.57779,4.13118,-1.24225,-0.78199,0.91077,-15.26006,26.88672,-1.41197,-4.58551,1.76958,0.47938,-9.97597,11.67968,2.53059,21.74506,-11.21819,-3.06463,5.00368,-0.44886,-0.66739,4.22098,-2.71463,-0.75379,1.26259,-0.9399,-0.13646,2.53556,1.21664,-0.06846,0.15763,-0.03326,-0.03359,0.23715,0.12661,-0.04793
3094,-12.67323,-30.37948,3.17924,-3.10774,-1.50588,0.38225,-48.67947,-44.50987,4.80048,-0.26794,-3.74136,0.177,-15.63448,27.31634,-1.58999,-3.50683,1.21104,0.41427,-12.5732,10.42303,1.42047,19.78956,-7.02083,-4.63741,5.21741,-0.73688,-0.92569,4.68247,-2.80532,-0.63683,0.99271,-0.67066,-0.17688,2.56392,1.2656,-0.10427,0.1311,0.01567,-0.07411,0.26251,0.12834,-0.04791
3095,-13.08228,-31.08953,3.19854,-2.58995,-2.29299,0.37961,-50.74596,-44.62691,5.36993,0.65585,-5.63544,-0.5615,-16.03585,28.04476,-1.76489,-2.53976,0.74643,0.38066,-13.1359,10.60632,0.72359,16.53421,-4.77998,-5.27531,5.45049,-1.05847,-1.1392,5.02432,-2.79626,-0.33764,0.81708,-0.50578,-0.19772,2.36586,1.18353,-0.12215,0.1326,0.02775,-0.09676,0.25356,0.11342,-0.04394
3096,-13.15524,-31.63008,3.13613,-1.90059,-2.43806,0.34971,-50.90126,-45.44158,5.54786,2.36123,-6.02743,-1.02106,-16.46324,29.03521,-1.92758,-1.69002,0.3743,0.37262,-10.2841,11.61604,0.71183,12.96171,-5.53987,-4.4428,5.54488,-1.11032,-1.09449,5.1262,-2.76853,-0.04475,0.80454,-0.57826,-0.14775,2.04979,1.02482,-0.12661,0.15795,-0.00785,-0.0865,0.21877,0.08324,-0.0345
3097,-13.03931,-31.9974,3.0061,-1.16226,-2.12619,0.31234,-50.04942,-47.17085,5.27834,4.72296,-5.56132,-1.23723,-16.90983,30.21582,-2.07759,-0.97854,0.08395,0.37804,-5.50055,11.80444,0.75652,10.22331,-8.42262,-2.39554,5.38761,-0.84089,-0.74861,4.97591,-2.75946,0.12296,0.95552,-0.92679,-0.03993,1.7799,0.83905,-0.09919,0.195,-0.08551,-0.05379,0.18943,0.04024,-0.01549
3098,-12.85895,-32.21943,2.83107,-0.6561,-1.68151,0.30687,-49.2394,-49.289,4.67593,6.74885,-5.10603,-1.32219,-17.35931,31.49081,-2.22316,-0.4272,-0.13073,0.38258,-1.60842,10.50008,0.21229,9.51619,-11.65919,-0.12845,4.98411,-0.43468,-0.25926,4.62382,-2.74593,0.15041,1.22458,-1.43736,0.05367,1.67045,0.64792,-0.02144,0.226,-0.17587,-0.02147,0.1877,-0.00796,0.00864
3099,-12.6667,-32.28095,2.62002,-0.52281,-1.31218,0.3622,-48.79987,-50.93719,3.89901,7.5374,-5.00856,-1.22703,-17.79104,32.7776,-2.37991,-0.04022,-0.27274,0.38263,-0.23836,8.53496,-0.60303,11.59633,-13.76928,1.33859,4.49347,-0.09858,0.17046,4.18751,-2.68865,0.09955,1.55891,-1.92521,0.08472,1.71135,0.46853,0.08644,0.24511,-0.24676,0.00108,0.20593,-0.04731,0.02354
3100,-12.47371,-32.11631,2.39383,-0.65676,-1.09101,0.45856,-48.55609,-51.59986,3.19824,7.14181,-5.11469,-0.93003,-18.17131,34.00494,-2.55586,0.20392,-0.35679,0.38089,-0.90655,7.12778,-0.85129,15.5599,-13.86399,1.58345,4.14848,0.09228,0.41432,3.8842,-2.58692,0.06255,1.85105,-2.21365,0.07036,1.81541,0.35103,0.17413,0.25108,-0.27505,0.01762,0.22161,-0.06248,0.02047
3101,-12.27617,-31.6939,2.20674,-0.87384,-0.99871,0.53644,-48.58505,-51.30446,2.9572,6.32016,-5.07746,-0.66726,-18.45303,35.09237,-2.73944,0.34698,-0.40844,0.38139,-2.50539,6.98238,-0.32497,19.04395,-12.0213,0.86406,4.11333,0.16001,0.43961,3.93357,-2.50287,0.09273,1.92093,-2.18355,0.06896,1.91513,0.36464,0.20284,0.23339,-0.25017,0.03202,0.2285,-0.04456,0.0067
3102,-12.02369,-31.11101,2.10136,-1.04236,-0.89573,0.55191,-49.16125,-50.47872,3.36766,5.82797,-4.5015,-0.64501,-18.61104,35.97938,-2.90487,0.43493,-0.44261,0.38773,-4.35053,8.22366,0.46226,19.88804,-9.46483,-0.16856,4.39438,0.14636,0.28787,4.37763,-2.50388,0.16038,1.67536,-1.85094,0.11462,1.98084,0.54007,0.15331,0.18813,-0.1841,0.04293,0.2327,0.00469,-0.00825
3103,-11.59511,-30.56189,2.04351,-1.10196,-0.60101,0.52931,-50.01318,-49.78867,4.05713,5.86048,-3.10889,-0.61677,-18.6687,36.67241,-3.03198,0.48962,-0.45702,0.40784,-5.95454,10.417,1.20636,17.61388,-7.82347,-0.93367,4.8524,0.09916,0.06931,4.95635,-2.58737,0.1724,1.19393,-1.37684,0.2072,1.96612,0.82052,0.0245,0.12826,-0.10836,0.04924,0.22456,0.0701,-0.02448
3104,-10.8637,-30.17609,1.94152,-1.04283,-0.05668,0.53432,-50.08964,-49.85069,4.29434,6.23959,-1.08082,-0.09535,-18.68825,37.23271,-3.11296,0.49891,-0.43693,0.44502,-6.32674,12.4577,2.12962,13.28632,-7.63051,-1.24341,5.29752,0.05811,-0.08999,5.28952,-2.69193,0.061,0.67351,-0.97064,0.32687,1.85874,1.08545,-0.13532,0.0749,-0.0538,0.05381,0.19366,0.12577,-0.04048
3105,-9.77736,-29.91017,1.74227,-0.91838,0.5807,0.59383,-48.55299,-50.62368,3.72709,6.95013,0.746,0.95738,-18.72033,37.70598,-3.14349,0.42661,-0.37088,0.48371,-4.38626,13.22599,3.18523,8.62557,-7.8809,-1.30177,5.56091,0.01405,-0.12443,5.19228,-2.77408,-0.15943,0.28889,-0.75973,0.44867,1.73532,1.23038,-0.24376,0.04144,-0.03286,0.06146,0.15527,0.14841,-0.04671
3106,-8.4073,-29.66023,1.4833,-0.87608,1.04552,0.67157,-45.67735,-51.49233,2.7292,8.02023,1.3613,1.96099,-18.75881,38.07436,-3.12901,0.22524,-0.26057,0.49818,-0.27729,12.12149,3.80251,5.2309,-7.3106,-1.48499,5.55623,-0.08681,-0.08212,4.77672,-2.84507,-0.42751,0.13507,-0.73704,0.52241,1.70118,1.23444,-0.25717,0.03451,-0.03891,0.06863,0.1384,0.13338,-0.0379
3107,-6.97475,-29.36357,1.25473,-1.0903,1.16138,0.71131,-42.59222,-51.96079,1.93738,9.12796,0.36053,2.29343,-18.76029,38.29844,-3.08401,-0.15075,-0.1021,0.47173,4.37459,9.26389,3.58239,4.51096,-5.90975,-2.1151,5.33645,-0.28039,-0.09224,4.28626,-2.94644,-0.69664,0.20964,-0.7994,0.4819,1.80777,1.15707,-0.19469,0.05872,-0.05723,0.0595,0.15756,0.09657,-0.0195
3108,-5.71383,-28.96309,1.11718,-1.6372,0.88571,0.67138,-40.15341,-51.69401,1.6589,9.62216,-1.79158,1.81087,-18.67681,38.37028,-3.01802,-0.71471,0.10019,0.39751,7.77725,5.92334,2.68974,7.20387,-4.84927,-3.19414,5.06701,-0.54721,-0.27291,3.92787,-3.06368,-0.90311,0.40928,-0.80609,0.2973,2.00981,1.06724,-0.10408,0.11017,-0.07041,0.01899,0.20153,0.06072,-0.00264
3109,-4.67513,-28.44097,1.06481,-2.4014,0.34908,0.54342,-38.19431,-50.31925,1.75173,9.1661,-3.97173,0.89361,-18.47188,38.31345,-2.92702,-1.44154,0.33569,0.2886,9.63393,4.23434,1.55807,12.20083,-5.07763,-4.20103,4.89547,-0.83245,-0.62313,3.89079,-3.13582,-0.93774,0.55245,-0.64232,0.03967,2.17696,1.00476,-0.04786,0.16134,-0.05759,-0.04418,0.24158,0.04195,0.00103
3110,-3.7285,-27.90823,1.05719,-3.16442,-0.16167,0.36075,-36.03417,-47.84415,1.90015,7.94763,-4.95622,0.12213,-18.13662,38.14581,-2.80398,-2.29361,0.60758,0.18252,10.74204,5.61271,0.58583,16.69733,-6.47659,-4.29332,4.77986,-1.0743,-0.99389,4.28726,-3.12075,-0.69874,0.52156,-0.31436,-0.15782,2.15378,0.97051,-0.07146,0.17258,-0.00642,-0.09697,0.24683,0.04185,-0.01086
3111,-2.71639,-27.60518,1.07944,-3.8581,-0.36222,0.1902,-33.41248,-45.22787,1.93885,6.17008,-4.08428,-0.11393,-17.69085,37.83963,-2.64662,-3.23271,0.92709,0.12117,11.38586,9.44096,0.22604,18.37329,-8.29354,-2.99819,4.46951,-1.20151,-1.1792,5.01624,-3.07187,-0.23516,0.41598,-0.00325,-0.22839,1.88474,0.95621,-0.1726,0.1318,0.06767,-0.11223,0.20565,0.05121,-0.02785
3112,-1.56928,-27.72037,1.15461,-4.64978,-0.16506,0.11138,-30.87168,-43.94883,1.90993,3.83373,-1.77359,0.16719,-17.17289,37.33558,-2.45307,-4.24069,1.30261,0.13832,10.74772,13.09268,0.6585,17.50352,-9.53487,-0.85883,3.75115,-1.12034,-1.02941,5.69187,-3.09384,0.18386,0.47948,0.01205,-0.21738,1.48985,0.96779,-0.31198,0.07204,0.11949,-0.09256,0.13715,0.06178,-0.04068
3113,-0.34145,-28.19023,1.3127,-5.77966,0.28814,0.16506,-29.35625,-44.76516,1.92025,0.94291,0.64624,0.59144,-16.62933,36.59965,-2.21625,-5.34371,1.74017,0.23865,7.61381,13.52431,1.32203,16.40025,-8.91134,0.80112,2.75519,-0.77725,-0.52941,5.91245,-3.2395,0.26922,0.85076,-0.45262,-0.19806,1.19454,1.00541,-0.43861,0.04843,0.09817,-0.06212,0.08365,0.06901,-0.04933
3114,0.86288,-28.71836,1.56016,-7.24518,0.77064,0.32564,-29.37096,-46.85796,2.08326,-2.21013,1.95708,0.73747,-16.09065,35.62401,-1.92748,-6.58447,2.24175,0.40946,1.7201,9.9717,1.38669,16.99052,-5.45429,0.90095,1.93857,-0.2645,0.14284,5.67329,-3.45504,0.00488,1.41024,-1.26943,-0.19385,1.19839,1.04526,-0.49556,0.09015,-0.00498,-0.04131,0.09218,0.06663,-0.05199
3115,2.00868,-29.00104,1.85994,-8.72491,1.17924,0.53164,-30.34632,-48.32611,2.44793,-4.94454,1.98382,0.45961,-15.54911,34.39498,-1.58754,-7.99346,2.81844,0.64769,-5.15939,4.90264,0.51596,19.25101,0.09814,-0.52492,1.76297,0.19532,0.71008,5.36339,-3.60579,-0.3402,1.85465,-2.04407,-0.15558,1.51507,1.06686,-0.46111,0.1744,-0.14249,-0.02833,0.17007,0.05178,-0.04468
3116,3.14197,-28.9788,2.15037,-9.92061,1.5887,0.75173,-30.9004,-47.84464,2.82619,-6.73666,1.49279,-0.01486,-14.96802,32.90123,-1.20153,-9.60593,3.49159,0.9638,-10.2093,1.43481,-0.9112,22.04606,4.9161,-2.55578,2.36257,0.37226,0.95499,5.27165,-3.57258,-0.51832,1.93709,-2.42377,-0.03987,1.94925,1.07276,-0.37543,0.25237,-0.25501,-0.01218,0.26351,0.03149,-0.03257
3117,4.29275,-28.8246,2.39099,-10.87926,2.14206,1.00203,-30.00788,-45.50657,2.89332,-7.56132,1.30272,-0.2955,-14.31928,31.16206,-0.77283,-11.47117,4.27626,1.3536,-11.68684,0.67517,-2.32323,24.6134,5.86796,-4.3706,3.45088,0.17037,0.76036,5.2556,-3.35707,-0.54815,1.64901,-2.2792,0.07579,2.28603,1.06617,-0.29486,0.28661,-0.30351,-0.00099,0.30898,0.01489,-0.0276
3118,5.39648,-28.78866,2.60444,-11.93705,2.94469,1.32349,-27.93183,-42.35745,2.60838,-7.95439,1.78165,-0.08821,-13.60168,29.21494,-0.31396,-13.61821,5.1739,1.79563,-10.47293,1.6649,-3.28335,27.16893,2.03005,-5.68612,4.54757,-0.3054,0.14896,5.0166,-3.08923,-0.62181,1.22247,-1.71166,0.0446,2.47944,1.05087,-0.23829,0.26967,-0.27301,-0.01438,0.29986,0.00622,-0.03393
