PaulMeinheit/Bachelor_Muay_Thai/processed_Data/E_01/E_01_Teep/sliced/Raw_Data/E_01/E_01_Teep/JointMoments.txt/sliced4.csv
Unnamed: 0_level_0,R_KNEE_MOMENT,R_KNEE_MOMENT,R_KNEE_MOMENT,L_KNEE_MOMENT,L_KNEE_MOMENT,L_KNEE_MOMENT,R_HIP_MOMENT,R_HIP_MOMENT,R_HIP_MOMENT,L_HIP_MOMENT,L_HIP_MOMENT,L_HIP_MOMENT,R_ANKLE_MOMENT,R_ANKLE_MOMENT,R_ANKLE_MOMENT,L_ANKLE_MOMENT,L_ANKLE_MOMENT,L_ANKLE_MOMENT,WAIST_JOINT_MOMENT,WAIST_JOINT_MOMENT,WAIST_JOINT_MOMENT,NECK_MOMENT,NECK_MOMENT,NECK_MOMENT,L_SHOULDER_MOMENT,L_SHOULDER_MOMENT,L_SHOULDER_MOMENT,R_SHOULDER_MOMENT,R_SHOULDER_MOMENT,R_SHOULDER_MOMENT,L_ELBOW_MOMENT,L_ELBOW_MOMENT,L_ELBOW_MOMENT,R_ELBOW_MOMENT,R_ELBOW_MOMENT,R_ELBOW_MOMENT,L_WRIST_MOMENT,L_WRIST_MOMENT,L_WRIST_MOMENT,R_WRIST_MOMENT,R_WRIST_MOMENT,R_WRIST_MOMENT
ITEM,X,Y,Z,X,Y,Z,X,Y,Z,X,Y,Z,X,Y,Z,X,Y,Z,X,Y,Z,X,Y,Z,X,Y,Z,X,Y,Z,X,Y,Z,X,Y,Z,X,Y,Z,X,Y,Z
1989,16.73856,-60.12228,8.66222,-11.58755,0.42012,-0.49796,-36.88461,-38.78945,9.54572,-2.85201,-4.30057,-1.99766,1.70792,-14.5478,5.9514,-13.85897,5.41338,0.08687,-6.43431,1.53681,-3.19754,24.60251,-8.19267,-3.08183,5.30009,-1.3468,-0.44133,4.57136,-4.04618,-1.04684,0.84221,-1.53131,-0.37077,2.3142,0.84942,-0.33711,0.23086,-0.14748,-0.13676,0.25412,0.01863,-0.06588
1990,18.01508,-59.85027,8.8951,-12.305,1.77176,-0.23453,-36.55689,-40.16914,9.21014,-1.24156,-1.89821,-0.23213,1.76246,-14.72084,6.36108,-15.70595,6.33022,0.3115,-5.25399,0.48296,-1.56723,29.32111,-6.94212,0.28187,5.05494,-0.99975,-0.06668,5.39079,-4.20651,-0.30144,0.9469,-1.7256,-0.37379,2.12845,0.73332,-0.27061,0.25253,-0.15892,-0.13469,0.2108,-0.00466,-0.04543
1991,18.79757,-59.67023,9.20478,-13.63161,3.48843,0.19112,-36.26932,-41.13989,9.07295,-0.87792,0.5951,1.53109,1.74744,-14.78256,6.73031,-17.69967,7.39905,0.64576,-5.48479,0.01866,0.03905,31.92857,-6.62007,3.45601,5.00091,-0.84164,0.25408,6.09828,-4.4522,0.34999,1.03413,-1.9583,-0.32651,1.90466,0.65741,-0.21172,0.25412,-0.18499,-0.10484,0.16026,-0.01528,-0.02394
1992,19.15653,-59.88005,9.59259,-15.64285,5.23328,0.66581,-36.8154,-41.39189,9.19539,-1.74904,2.54721,2.73559,1.69383,-14.78583,7.03274,-19.90797,8.62944,1.04314,-7.91286,0.22562,0.45133,32.46324,-7.98951,4.91338,5.11416,-0.99721,0.3875,6.39668,-4.67294,0.67253,1.1147,-2.19347,-0.25336,1.75819,0.61013,-0.16637,0.24038,-0.23267,-0.05206,0.14235,-0.0241,-0.00389
1993,19.2145,-60.78551,10.05629,-18.1005,6.78949,1.08485,-38.69067,-41.09436,9.56316,-3.017,4.10081,3.41122,1.60146,-14.7232,7.24197,-22.40679,10.04105,1.44977,-12.02659,1.59371,-0.3125,31.18774,-10.52752,3.94381,5.25931,-1.37975,0.29567,6.13071,-4.66025,0.6429,1.18217,-2.32041,-0.17312,1.70391,0.57897,-0.11873,0.21701,-0.28092,0.01266,0.15176,-0.03057,0.01392
1994,19.04985,-62.53275,10.58228,-20.56315,8.09106,1.39133,-41.66113,-40.79751,10.00462,-3.28193,5.51888,3.98746,1.42583,-14.51566,7.34159,-25.22946,11.65509,1.82144,-15.49719,3.99502,-1.54405,28.58312,-12.94681,0.88446,5.32928,-1.76827,0.0223,5.44802,-4.36906,0.35106,1.19651,-2.20735,-0.09981,1.80351,0.56169,-0.0377,0.18696,-0.28652,0.06934,0.18278,-0.03077,0.03024
1995,18.61661,-64.98042,11.16327,-22.64446,9.16912,1.57949,-45.35353,-40.92493,10.37901,-1.48026,6.76957,4.82571,1.08176,-14.03527,7.33159,-28.27385,13.43565,2.13333,-16.32097,6.74457,-2.54515,25.6873,-13.93705,-3.05621,5.33543,-1.97908,-0.35325,4.75004,-4.02705,-0.07808,1.12532,-1.82156,-0.05578,2.12257,0.56562,0.07627,0.15623,-0.22427,0.09406,0.24077,-0.02359,0.04205
1996,17.78858,-67.7552,11.80482,-24.24129,10.07352,1.6759,-49.92065,-41.45149,10.75386,2.37777,7.42437,5.85771,0.47022,-13.13515,7.21832,-31.2669,15.24308,2.3749,-14.83219,9.01735,-3.16702,23.86162,-13.0283,-6.23311,5.40294,-1.98717,-0.7374,4.48674,-3.9676,-0.46491,0.99575,-1.32221,-0.07035,2.61653,0.58917,0.18928,0.13743,-0.12602,0.07403,0.32535,-0.0118,0.04504
1997,16.42664,-70.45239,12.52635,-25.49438,10.82027,1.69897,-55.85221,-42.10599,11.39001,7.15442,7.0294,6.65735,-0.49994,-11.69838,7.00602,-33.7849,16.82226,2.51676,-13.23963,10.30615,-3.5725,23.93023,-11.1307,-7.27233,5.65272,-1.89799,-1.0431,4.88091,-4.3467,-0.55447,0.88004,-0.96928,-0.16167,3.08518,0.58904,0.28913,0.14493,-0.05854,0.01396,0.41394,-0.00417,0.0451
1998,14.58423,-72.91417,13.31992,-26.5772,11.34019,1.64922,-62.95271,-42.76254,12.51769,11.13542,5.53073,6.81581,-1.87026,-9.69718,6.69346,-35.34073,17.84737,2.50899,-13.46487,10.65332,-3.64911,25.19828,-9.95665,-5.652,6.08364,-1.81646,-1.22188,5.8038,-5.03167,-0.157,0.86692,-0.92667,-0.33183,3.27973,0.51306,0.3859,0.18844,-0.0597,-0.07039,0.46743,-0.00814,0.05257
1999,12.5069,-75.3522,14.11987,-27.5489,11.55485,1.53466,-70.01493,-43.75532,13.94831,12.95722,3.22457,6.20656,-3.61666,-7.19943,6.26929,-35.49925,18.03218,2.31046,-15.56338,10.15489,-3.10747,26.03484,-10.81388,-1.93186,6.52165,-1.76697,-1.23421,6.85897,-5.73503,0.62962,0.99029,-1.18792,-0.53915,3.08773,0.37033,0.46137,0.25855,-0.11788,-0.15167,0.45736,-0.02124,0.06625
2000,10.36039,-78.05457,14.84372,-28.30608,11.50343,1.38296,-75.87744,-45.5839,15.02771,12.19412,0.71593,5.02716,-5.64632,-4.34195,5.72827,-34.00152,17.23983,1.92014,-18.69218,8.92793,-1.85487,25.36674,-13.43801,2.35819,6.72599,-1.7238,-1.0577,7.56983,-6.208,1.36933,1.1829,-1.61474,-0.70036,2.62098,0.25761,0.45435,0.32171,-0.19393,-0.19639,0.38525,-0.03264,0.07286
2001,8.01709,-81.03148,15.4752,-28.67388,11.31816,1.2103,-80.8587,-48.06849,15.27624,9.67627,-1.20223,3.62951,-7.82037,-1.3033,5.07673,-30.87528,15.51776,1.37983,-22.75858,7.98356,-0.21034,23.53795,-16.05594,5.31181,6.55715,-1.69394,-0.7677,7.6142,-6.32778,1.57464,1.32873,-2.00322,-0.7479,2.11454,0.29678,0.31489,0.34526,-0.24735,-0.1875,0.27952,-0.03283,0.06416
2002,5.25872,-84.06489,16.06796,-28.37388,11.09484,1.02995,-86.39724,-50.34808,14.85337,7.43926,-2.15742,2.29619,-10.0029,1.74662,4.32091,-26.39481,13.04918,0.78838,-27.71563,8.81827,1.26942,21.38281,-16.93194,5.80909,6.11744,-1.73267,-0.52194,7.07124,-6.15638,1.13855,1.34641,-2.19641,-0.67176,1.74591,0.52028,0.07491,0.32528,-0.26052,-0.13701,0.17712,-0.02489,0.05077
2003,2.14741,-86.90916,16.64104,-26.91291,10.84381,0.88254,-93.16341,-51.79376,14.18953,8.01072,-2.57508,1.27297,-12.10722,4.73589,3.46385,-21.00219,10.13092,0.29821,-31.78724,11.64911,2.36767,19.15233,-15.78307,4.36982,5.6879,-1.85374,-0.44125,6.3963,-5.8821,0.46998,1.22511,-2.15224,-0.51793,1.54103,0.80766,-0.15294,0.28323,-0.23996,-0.07669,0.10404,-0.02424,0.05083
2004,-0.92217,-89.43147,17.13001,-23.79547,10.52921,0.80672,-100.29456,-52.5629,13.47175,13.12808,-3.23908,0.88779,-14.09453,7.69997,2.51479,-15.24504,7.12834,0.04213,-31.96742,15.09829,3.42521,16.28413,-13.84393,2.75557,5.49993,-1.96353,-0.52879,6.1201,-5.70848,0.15725,1.00319,-1.90536,-0.35201,1.44348,0.96266,-0.25884,0.24054,-0.19552,-0.03625,0.07174,-0.04317,0.06642
2005,-3.46185,-91.59752,17.43409,-18.97018,9.98935,0.7852,-106.12043,-53.2593,12.60913,22.87031,-5.0045,1.29087,-15.9458,10.70507,1.49699,-9.71006,4.3825,0.04975,-25.88791,17.10039,4.6973,12.50866,-13.00109,2.55449,5.613,-1.9476,-0.67031,6.48441,-5.72948,0.5087,0.73715,-1.56251,-0.21045,1.43418,0.86,-0.19585,0.20773,-0.14558,-0.02276,0.0886,-0.07727,0.08401
2006,-5.18733,-93.18597,17.47665,-13.07312,8.92775,0.78948,-109.58266,-53.80987,11.56897,35.24721,-8.49794,2.15296,-17.65152,13.79443,0.44758,-4.95137,2.1419,0.26804,-14.42179,16.63373,5.85774,8.18478,-14.63767,3.9761,5.92359,-1.77455,-0.73857,7.31985,-5.90195,1.37002,0.47208,-1.24635,-0.09033,1.54434,0.54309,0.00841,0.18316,-0.11315,-0.0215,0.15879,-0.10574,0.0923
2007,-6.12421,-93.77638,17.26277,-7.26585,7.17345,0.80439,-111.1593,-53.13713,10.60666,46.85865,-13.50655,2.83326,-19.21541,16.95616,-0.58086,-1.37205,0.50674,0.57906,-2.47966,14.74676,6.28101,3.90908,-18.57715,5.77927,6.24332,-1.48066,-0.7167,8.15778,-6.08639,2.25206,0.24123,-0.98461,0.00191,1.78136,0.19212,0.26435,0.16046,-0.096,-0.02397,0.2645,-0.10628,0.08918
2008,-6.41534,-93.08144,16.85672,-2.50686,4.95582,0.77421,-112.0122,-50.23946,10.04631,54.82366,-18.71284,2.86569,-20.64538,20.13276,-1.53334,0.91674,-0.53478,0.82051,4.61899,13.6052,5.69322,0.38888,-22.93764,6.35049,6.43636,-1.15911,-0.66352,8.49001,-6.11996,2.64856,0.07814,-0.78684,0.02995,2.09474,-0.02079,0.47643,0.14204,-0.08205,-0.03885,0.36757,-0.07604,0.07951
2009,-6.16345,-91.18405,16.33521,1.15507,2.75974,0.63076,-112.71597,-45.28767,9.97216,58.66539,-22.37714,2.41224,-21.93887,23.25642,-2.36867,2.1496,-1.09168,0.92192,5.45176,14.61272,4.58212,-1.92273,-25.08488,4.9629,6.51862,-0.97125,-0.60747,8.05679,-5.92697,2.32612,-0.02377,-0.74064,-0.0085,2.38129,-0.03634,0.58841,0.13613,-0.08039,-0.06934,0.4248,-0.03319,0.06847
2010,-5.39583,-88.60576,15.77967,4.32757,1.05014,0.29777,-112.84937,-39.96607,10.17138,60.13624,-23.3741,2.14728,-23.07264,26.28485,-3.07135,2.73169,-1.31885,0.90928,3.14308,17.28971,3.86361,-2.93485,-23.19404,2.1806,6.60253,-1.03873,-0.56148,7.00208,-5.56342,1.41911,-0.12615,-0.87969,-0.05567,2.50882,0.11717,0.56595,0.13821,-0.09896,-0.10066,0.40818,0.00656,0.05097
2011,-4.16023,-86.04257,15.27034,7.59297,-0.06412,-0.25313,-111.46408,-36.52474,10.23046,61.27731,-22.08777,2.50453,-24.0069,29.20411,-3.65054,3.00058,-1.35697,0.84111,2.01615,19.18808,3.84869,-2.74565,-17.83988,-0.63981,6.75073,-1.31521,-0.54085,5.73114,-5.13625,0.34022,-0.32018,-1.09957,-0.0466,2.35043,0.36094,0.39559,0.12096,-0.12355,-0.11417,0.31421,0.03871,0.01706
2012,-2.57774,-83.90834,14.84693,11.14771,-0.83424,-0.92841,-108.00122,-36.06089,9.68847,63.16175,-20.23992,3.18398,-24.70515,32.00601,-4.11929,3.17191,-1.30641,0.78466,4.36079,17.67749,3.63314,-1.16638,-12.44499,-2.30575,6.89594,-1.62337,-0.52169,4.64959,-4.73543,-0.44018,-0.65457,-1.29067,0.02722,1.89569,0.56772,0.13604,0.05367,-0.14451,-0.10211,0.17094,0.05465,-0.02769
2013,-0.79886,-82.13097,14.50429,14.70109,-1.51871,-1.57393,-103.0028,-37.60601,8.32798,65.76537,-19.50035,3.50915,-25.15663,34.68134,-4.47419,3.31511,-1.21796,0.77241,9.37318,12.47222,1.85376,2.34557,-11.29204,-2.68744,6.91129,-1.81162,-0.44644,3.99069,-4.42313,-0.68559,-1.08272,-1.43373,0.13255,1.33754,0.63103,-0.08977,-0.06563,-0.17331,-0.06579,0.03969,0.04362,-0.06159
2014,1.1231,-80.3969,14.23476,17.79812,-2.15346,-2.07489,-97.79102,-38.87657,6.44857,68.78001,-20.32363,3.28599,-25.38107,37.20274,-4.68753,3.43092,-1.11729,0.80936,15.20916,6.33995,-1.71114,7.4534,-15.92141,-2.6668,6.7339,-1.84972,-0.29099,3.81651,-4.28298,-0.54598,-1.47262,-1.52874,0.2607,0.98424,0.57676,-0.18383,-0.19847,-0.21467,-0.00539,-0.01287,0.01213,-0.06642
2015,3.30134,-78.46474,14.03067,20.0969,-2.7017,-2.40393,-93.19761,-37.78927,4.74783,71.79903,-22.08748,2.98582,-25.41235,39.52667,-4.72893,3.48331,-1.02357,0.86382,21.07397,2.97117,-5.76737,11.74062,-23.41233,-3.07504,6.44702,-1.79673,-0.10448,4.04057,-4.3787,-0.37319,-1.67736,-1.5175,0.44747,1.00348,0.54063,-0.13836,-0.28731,-0.24023,0.08101,0.02928,-0.01901,-0.04021
2016,5.88547,-76.26505,13.85672,21.54104,-3.23184,-2.59147,-88.97872,-33.70183,3.76222,74.23312,-23.98211,3.22065,-25.28102,41.63128,-4.60359,3.45376,-0.97081,0.88477,27.11329,3.84993,-8.70832,12.03844,-28.60298,-3.82639,6.21146,-1.7164,-0.00801,4.46614,-4.65877,-0.42098,-1.58783,-1.35196,0.65746,1.31077,0.63924,-0.02211,-0.28483,-0.21793,0.16851,0.12043,-0.03115,0.00214
2017,8.86487,-73.82482,13.67234,22.16551,-3.70464,-2.71369,-84.46207,-27.39798,3.54939,75.31755,-25.29003,4.39354,-25.00871,43.52803,-4.3481,3.33728,-0.97576,0.81431,32.93098,8.32122,-9.35008,7.153,-28.07044,-4.12329,6.12693,-1.65842,-0.12601,4.83381,-4.93434,-0.73403,-1.1793,-1.14306,0.6937,1.67771,0.88843,0.07325,-0.17863,-0.16946,0.19014,0.1966,-0.0139,0.03633
2018,11.98099,-71.2518,13.49016,21.85041,-3.90058,-2.81661,-79.44097,-20.61372,3.85046,74.33746,-25.48787,6.47906,-24.61084,45.23725,-4.02373,3.13974,-1.01863,0.62669,36.83258,15.01912,-6.76775,-1.21296,-22.15509,-3.36489,6.09269,-1.62545,-0.41348,4.89915,-4.99079,-1.24129,-0.6254,-1.05338,0.43207,1.90967,1.22611,0.08724,-0.01619,-0.14471,0.10765,0.22369,0.03774,0.0433
2019,14.82899,-68.7978,13.41311,20.56077,-3.66236,-2.89365,-74.47048,-15.55925,4.35825,71.39619,-24.57812,8.91101,-24.11091,46.76858,-3.69713,2.88662,-1.06548,0.34444,37.09661,21.76062,-0.80135,-10.19861,-14.14088,-1.60809,5.92197,-1.5551,-0.59352,4.55306,-4.74826,-1.85622,-0.21155,-1.10729,0.05578,1.93054,1.57166,0.00848,0.1276,-0.15436,-0.02133,0.20659,0.1202,0.01937
2020,17.13054,-66.86008,13.55403,18.78171,-3.14201,-2.92595,-70.11785,-13.95752,4.84636,67.8925,-23.26603,10.71872,-23.5479,48.11086,-3.42842,2.65493,-1.09855,0.03114,34.51946,25.42963,6.67124,-17.59398,-8.60832,0.67201,5.61092,-1.44116,-0.32311,3.87097,-4.27975,-2.48127,-0.12569,-1.31277,-0.11257,1.7556,1.85402,-0.14789,0.20792,-0.19142,-0.09041,0.16448,0.21501,-0.02797
2021,18.97215,-65.82673,13.89706,17.28459,-2.73425,-2.90213,-65.92552,-16.00217,5.17809,65.55095,-22.43159,10.98932,-22.95969,49.22842,-3.26491,2.53981,-1.12452,-0.24772,32.92549,23.97631,12.38116,-22.5109,-9.06488,2.88389,5.3322,-1.34916,0.50727,3.08752,-3.72027,-2.95976,-0.38817,-1.71143,0.04668,1.45874,2.02097,-0.34663,0.21615,-0.25921,-0.05214,0.11721,0.29526,-0.08522
2022,20.73371,-65.57202,14.21057,16.42294,-2.71406,-2.80989,-60.57994,-19.4712,5.31471,64.79692,-22.33018,9.19804,-22.37067,50.10755,-3.22294,2.58088,-1.15117,-0.46073,35.79845,19.33422,13.99061,-24.85755,-15.73383,4.36537,5.18446,-1.29912,1.59307,2.51108,-3.1796,-3.10115,-0.86608,-2.20994,0.34239,1.19602,2.05505,-0.49927,0.16091,-0.33816,0.04038,0.09308,0.34059,-0.12853
2023,22.70746,-65.43885,14.20913,15.98665,-3.08898,-2.64471,-53.5695,-20.91014,5.33197,64.29129,-22.42763,5.33928,-21.81116,50.78775,-3.29001,2.72659,-1.16911,-0.60629,42.23059,16.26345,10.90219,-24.65815,-25.07394,4.54098,5.06399,-1.26217,2.39735,2.33976,-2.75191,-2.77574,-1.33515,-2.5843,0.48404,1.09881,1.9435,-0.49622,0.06534,-0.38917,0.09677,0.10805,0.33905,-0.13204
2024,24.81263,-64.8687,13.84821,15.499,-3.66432,-2.41671,-46.38069,-18.575,5.36226,61.71746,-21.76164,0.26401,-21.31699,51.33942,-3.43658,2.85257,-1.15413,-0.68663,46.40348,17.87303,4.14418,-21.93591,-32.28422,3.21025,4.86191,-1.2586,2.50526,2.52239,-2.50273,-2.01631,-1.59122,-2.66825,0.34652,1.14618,1.67076,-0.31231,-0.03359,-0.3943,0.07488,0.14116,0.28558,-0.09241
2025,26.74245,-63.88939,13.37495,14.60314,-4.02336,-2.14188,-41.41091,-13.92115,5.51823,55.59117,-19.55014,-4.0183,-20.90527,51.83871,-3.63377,2.84968,-1.07667,-0.68293,42.3341,23.12983,-3.30577,-17.38021,-34.11627,0.66797,4.63391,-1.35028,1.86421,2.83841,-2.41689,-1.05826,-1.6109,-2.41501,0.09047,1.21237,1.29154,-0.05989,-0.11107,-0.35674,0.01042,0.15975,0.19816,-0.03916
2026,28.29592,-63.41481,13.20142,13.20761,-3.653,-1.7852,-39.64643,-11.10318,5.81214,46.49623,-15.77414,-5.06794,-20.57375,52.32313,-3.87481,2.69728,-0.92909,-0.56228,29.39377,27.29646,-7.32043,-12.97475,-30.53977,-2.46846,4.56432,-1.56614,0.76114,3.07604,-2.40113,-0.26293,-1.58015,-1.86875,0.02586,1.20483,0.96125,0.08785,-0.17543,-0.27769,-0.02242,0.15265,0.11947,-0.01344
2027,29.6496,-64.32824,13.49329,11.38703,-2.29018,-1.23603,-39.05067,-13.22681,6.06046,36.63452,-11.26899,-1.73407,-20.29983,52.80547,-4.16282,2.48469,-0.75408,-0.31118,13.74069,26.24989,-5.08972,-10.62009,-24.10457,-5.58847,4.81608,-1.84979,-0.39065,3.11773,-2.39111,0.06527,-1.68664,-1.15496,0.31727,1.119,0.81217,0.04785,-0.24622,-0.15619,0.02125,0.12583,0.07918,-0.03114
2028,31.20703,-66.02126,13.83807,9.32263,-0.10797,-0.38435,-36.16341,-17.8875,6.05738,28.41348,-7.2151,4.69757,-20.07141,53.33967,-4.48831,2.31946,-0.60961,0.05867,3.69974,22.29577,2.70169,-9.96856,-18.1746,-8.3133,5.35975,-2.0661,-1.24222,2.97963,-2.43421,-0.193,-1.90809,-0.46561,0.82785,1.04776,0.85941,-0.10139,-0.31655,-0.00358,0.12255,0.09564,0.07273,-0.07098
2029,33.19167,-67.45754,13.79794,7.34084,2.37312,0.78185,-29.31491,-20.993,5.87961,22.98006,-4.30921,11.25301,-19.91705,53.95659,-4.83393,2.22066,-0.5271,0.5303,3.17362,20.39692,12.45379,-8.56704,-15.06181,-10.38936,5.96946,-2.09885,-1.56345,2.77872,-2.63275,-0.98223,-2.05288,-0.03657,1.23836,1.12832,1.04228,-0.20624,-0.34909,0.13358,0.21874,0.08679,0.08271,-0.09967
2030,35.52723,-68.47276,13.38927,5.70873,4.54506,2.13631,-19.57785,-21.92566,5.65196,19.899,-2.37346,15.13874,-19.86638,54.60529,-5.18276,2.17261,-0.52573,1.05597,10.07813,21.62342,19.80263,-4.74801,-15.20093,-11.51248,6.34376,-1.96342,-1.25991,2.59071,-3.01068,-2.1148,-2.00145,-0.0651,1.3216,1.4027,1.27934,-0.17239,-0.3166,0.17756,0.25486,0.11129,0.09907,-0.0991
2031,38.0838,-69.01682,12.74219,4.43991,5.95793,3.43881,-9.35429,-21.21571,5.28866,18.00722,-0.73938,14.99681,-19.90833,55.24072,-5.50656,2.14842,-0.60683,1.53846,19.7468,25.34189,21.20082,0.11661,-17.42209,-11.40204,6.3324,-1.7753,-0.44088,2.41928,-3.50964,-3.34043,-1.83644,-0.52971,1.12686,1.76955,1.51149,-0.02968,-0.23777,0.0886,0.22741,0.1561,0.12412,-0.07693
2032,40.80189,-68.94256,11.94905,3.37587,6.52546,4.46504,-0.82018,-18.99853,4.83074,16.01686,1.27267,11.48405,-20.012,55.86826,-5.77845,2.03919,-0.71674,1.89078,27.77582,31.28186,15.90085,2.63818,-20.23693,-9.92293,6.01484,-1.62503,0.58268,2.30872,-4.10284,-4.39782,-1.7062,-1.16359,0.87304,2.08444,1.71041,0.11183,-0.15829,-0.08312,0.17662,0.20105,0.16267,-0.05713
2033,43.70824,-68.55988,11.17364,2.14624,6.5373,5.13169,5.52246,-16.52872,4.58525,12.96758,3.94612,6.97459,-20.14272,56.5122,-5.99443,1.74823,-0.77832,2.07157,31.92464,37.72755,7.53905,0.86066,-23.36776,-7.33015,5.64746,-1.54747,1.44737,2.36138,-4.90333,-5.06999,-1.65095,-1.69357,0.68403,2.25648,1.82465,0.18469,-0.11082,-0.24074,0.13983,0.23232,0.19491,-0.04903
2034,46.90097,-68.45707,10.56705,0.30466,6.19315,5.34648,10.82013,-15.6354,4.71769,8.8531,6.72444,3.55203,-20.25477,57.20935,-6.16761,1.33194,-0.75544,2.04951,32.95923,41.77863,0.8261,-3.54154,-27.66424,-4.6675,5.45611,-1.54138,1.91084,2.63294,-6.06854,-5.32465,-1.59689,-2.01198,0.50303,2.31364,1.79916,0.23483,-0.09782,-0.31373,0.12154,0.24589,0.18205,-0.03454
2035,50.44552,-69.06511,10.19803,-2.3694,5.46851,4.93398,16.28391,-17.23733,5.04693,3.95466,8.60527,1.53607,-20.29793,58.01162,-6.31861,0.88943,-0.64945,1.81403,32.59309,41.39236,-2.87431,-6.48251,-33.34113,-3.57251,5.56928,-1.61348,1.93597,3.05355,-7.53829,-5.33536,-1.47566,-2.17856,0.22809,2.38501,1.64209,0.3553,-0.10264,-0.30449,0.1036,0.24704,0.10945,0.00359
2036,54.37789,-70.49747,10.03263,-5.80707,4.6057,4.00679,22.39259,-21.03873,5.17104,-2.39834,9.12491,0.70167,-20.22488,58.95824,-6.47104,0.39893,-0.47482,1.44044,30.88697,36.5626,-4.42923,-5.16331,-38.85937,-5.00664,5.96626,-1.77372,1.66658,3.482,-8.97804,-5.24431,-1.2791,-2.31925,-0.15452,2.55738,1.41587,0.57274,-0.10186,-0.27719,0.06816,0.24146,0.00376,0.05702
2037,58.66439,-72.38956,9.90233,-9.58418,4.24894,3.25384,28.97219,-25.51627,4.68789,-11.04741,8.62228,1.7779,-20.01591,60.05774,-6.6483,-0.20416,-0.26988,1.08442,26.86429,29.56311,-3.87443,-0.37446,-42.20057,-8.12718,6.5558,-1.99875,1.35078,3.82401,-10.04665,-4.97904,-1.05837,-2.51856,-0.55072,2.75902,1.19678,0.81007,-0.0775,-0.29331,0.01385,0.22339,-0.0903,0.10091
2038,63.19341,-74.04417,9.57053,-12.83067,4.95298,3.64413,35.30385,-28.52076,3.48757,-21.65607,7.80648,6.22668,-19.70243,61.29419,-6.87314,-0.87639,-0.08859,0.88409,20.17556,23.84254,-0.2903,4.38721,-42.75418,-10.78599,7.21903,-2.22488,1.20122,4.03886,-10.64111,-4.42468,-0.90851,-2.75737,-0.8274,2.81941,1.07546,0.93639,-0.03382,-0.35505,-0.04092,0.17781,-0.12971,0.11202
2039,67.87434,-75.06355,8.92416,-14.68795,6.61512,5.66494,40.72834,-29.20311,1.92285,-32.63605,7.2116,14.50838,-19.3475,62.6265,-7.17155,-1.48227,0.03783,0.8736,11.99479,21.10952,6.48587,6.31337,-41.61179,-11.45607,7.83886,-2.41245,1.22169,4.10422,-10.90227,-3.7307,-0.9157,-2.94693,-0.91987,2.68606,1.15513,0.86927,0.00311,-0.41585,-0.07631,0.1087,-0.0859,0.0806
2040,72.76854,-75.6398,8.0033,-15.31592,8.46195,8.73871,45.61036,-28.57031,0.52369,-42.49819,7.05625,24.60802,-18.99429,63.98772,-7.55926,-1.90351,0.12078,0.99444,4.65625,20.56091,14.72646,5.36567,-40.4936,-10.32012,8.30414,-2.57574,1.18196,4.0247,-11.07197,-3.24649,-1.06591,-3.00603,-0.89046,2.53438,1.41755,0.69029,0.01295,-0.4306,-0.09269,0.05864,0.01995,0.02697
2041,77.96159,-76.09998,6.85012,-16.26188,9.7346,11.58822,51.01672,-27.56576,-0.49532,-51.29065,7.55155,32.89491,-18.64425,65.29872,-8.03821,-2.10811,0.19142,1.17135,-0.65127,21.52112,21.56275,3.74613,-40.64791,-8.57783,8.55749,-2.74975,0.82146,3.84441,-11.36524,-3.13996,-1.22449,-2.92049,-0.87008,2.57693,1.65222,0.60981,0.00442,-0.39208,-0.10692,0.06836,0.10922,-0.00323
2042,83.41208,-76.62534,5.48296,-19.39104,10.15246,13.12441,57.80367,-26.22611,-1.33694,-60.33308,8.95676,36.3647,-18.26303,66.48861,-8.59656,-2.17955,0.23905,1.36338,-4.94475,24.31386,24.65333,3.53317,-42.60648,-7.15824,8.60053,-2.92628,0.09871,3.62445,-11.84325,-3.23992,-1.2181,-2.73903,-0.94941,2.84166,1.6382,0.76311,0.00962,-0.32545,-0.13046,0.13468,0.11331,0.01859
2043,88.8293,-77.17704,3.95719,-25.29045,9.7707,12.80076,66.16261,-24.20202,-2.35211,-69.99271,11.10379,33.89177,-17.81142,67.51459,-9.21579,-2.26115,0.24416,1.48888,-8.92615,29.11299,23.09288,5.0507,-46.4558,-6.23694,8.45214,-3.02752,-0.72803,3.41895,-12.42649,-3.19985,-0.96671,-2.53261,-1.12884,3.16767,1.34666,1.08081,0.05233,-0.26299,-0.15998,0.21774,0.03209,0.07666
2044,93.63251,-77.36257,2.37322,-32.83018,8.70805,10.53954,75.30072,-20.94566,-3.66117,-78.88331,13.36561,26.04209,-17.28518,68.34996,-9.86511,-2.42581,0.21081,1.43745,-12.26938,35.66597,17.1763,7.54447,-51.58461,-5.73823,8.11044,-2.96167,-1.27209,3.19523,-12.9397,-2.77355,-0.5787,-2.35208,-1.3329,3.32529,0.94655,1.36127,0.11872,-0.22536,-0.18648,0.26659,-0.07581,0.13099
2045,97.34361,-76.93174,0.93165,-39.91981,7.11612,6.6941,84.01913,-16.98392,-4.85594,-84.75891,15.01682,14.51922,-16.71825,68.93774,-10.49099,-2.62731,0.17155,1.15718,-14.03191,42.33722,8.06675,10.97296,-56.29958,-5.85812,7.54653,-2.69658,-1.32454,2.87656,-13.21479,-1.96333,-0.27335,-2.18839,-1.46006,3.18835,0.68837,1.41869,0.16687,-0.21224,-0.20505,0.25167,-0.13853,0.1489
2046,100.01413,-76.15967,-0.14039,-44.35007,5.20374,2.07035,92.0027,-14.75045,-5.31948,-85.32742,15.35473,1.83981,-16.14673,69.20378,-11.01635,-2.75403,0.15635,0.71083,-11.66758,45.24968,-2.16285,16.14166,-58.21127,-6.59606,6.80706,-2.30486,-1.00843,2.46138,-13.11774,-0.89444,-0.20445,-1.99071,-1.42799,2.82511,0.71458,1.19064,0.16628,-0.20501,-0.21078,0.19319,-0.12159,0.12247
2047,101.99348,-75.28674,-0.82255,-44.68051,3.22773,-2.22063,99.63416,-16.33288,-4.95257,-79.53904,14.006,-9.22214,-15.5811,69.09425,-11.37107,-2.71369,0.14681,0.26101,-2.60027,41.27031,-11.21117,22.60377,-55.65599,-7.00201,6.02542,-1.94082,-0.67078,2.06056,-12.6218,0.41211,-0.35898,-1.73813,-1.22146,2.41829,0.96705,0.76105,0.12146,-0.18648,-0.19686,0.14277,-0.04645,0.07057
2048,103.57236,-74.06902,-1.35258,-40.5896,1.39571,-5.32962,106.84573,-21.09746,-4.31997,-67.47395,11.24923,-17.07005,-14.99915,68.58028,-11.50982,-2.45076,0.08878,-0.03173,13.98237,31.6179,-18.21867,27.37026,-49.24052,-5.72202,5.36247,-1.75717,-0.64036,1.7572,-11.77567,2.02165,-0.59347,-1.49249,-0.9443,2.09168,1.23978,0.31142,0.05975,-0.16456,-0.16912,0.13247,0.03469,0.0258
2049,104.92416,-72.11465,-2.00332,-32.71893,-0.191,-7.18949,112.83845,-26.4263,-4.12852,-49.6133,7.93638,-22.18824,-14.35984,67.67176,-11.41768,-1.94534,-0.04005,-0.1197,37.01235,20.97003,-24.23826,26.74705,-41.62189,-2.49364,4.91505,-1.81399,-0.9739,1.54364,-10.67446,3.8194,-0.78929,-1.37078,-0.75817,1.8822,1.37108,0.00242,-0.00026,-0.1666,-0.14511,0.16168,0.08981,0.00618
2050,106.23164,-69.39084,-2.88828,-22.52404,-1.49468,-8.35814,116.73521,-30.09995,-4.784,-27.39838,5.07178,-26.36301,-13.60806,66.43928,-11.11419,-1.25192,-0.20106,-0.06536,63.63397,13.59229,-31.10594,20.0169,-35.30773,1.30038,4.68638,-2.02107,-1.38998,1.37142,-9.38708,5.39644,-0.93667,-1.42811,-0.74331,1.79137,1.34922,-0.1139,-0.06079,-0.20219,-0.13314,0.21791,0.1244,0.00475
2051,107.6927,-66.28639,-3.95121,-11.87554,-2.46541,-9.47328,118.23561,-31.70089,-6.26919,-4.00417,3.4799,-31.35504,-12.70771,65.01988,-10.65538,-0.46492,-0.29377,0.00959,89.35905,10.70045,-40.39873,10.7612,-30.67422,3.94817,4.59522,-2.19875,-1.48562,1.18948,-7.95362,6.28837,-1.0948,-1.60525,-0.85123,1.76773,1.24573,-0.08754,-0.12778,-0.24679,-0.12704,0.27682,0.15112,0.00796
2052,109.42342,-63.28986,-5.0914,-2.46123,-3.01143,-10.77531,117.91644,-32.22028,-8.24007,16.43011,3.51296,-37.80061,-11.68188,63.57106,-10.12298,0.35813,-0.21259,-0.02093,109.89848,10.68941,-52.51667,3.472,-26.49307,5.00637,4.55544,-2.21724,-1.08375,0.96611,-6.41838,6.2628,-1.30792,-1.77041,-0.94199,1.71256,1.13123,-0.01318,-0.1979,-0.2656,-0.11148,0.30753,0.17165,0.01116
2053,111.45541,-60.79261,-6.24688,4.63511,-3.0375,-11.97592,117.37063,-32.87873,-10.19215,30.50575,4.71671,-44.20842,-10.60435,62.20728,-9.60319,1.19566,0.07291,-0.23777,123.88431,10.95635,-65.00807,-0.94359,-22.24703,5.22982,4.52335,-2.07316,-0.39867,0.71861,-4.93529,5.444,-1.55475,-1.78905,-0.84881,1.57285,1.04806,0.03088,-0.25701,-0.23918,-0.06837,0.29526,0.18017,0.01747
2054,113.76089,-59.13078,-7.37307,9.045,-2.50871,-12.39049,118.72811,-34.31837,-11.63196,36.93789,5.85925,-46.7324,-9.57409,60.97676,-9.18517,1.94771,0.48961,-0.62917,133.77206,9.50807,-72.06609,-5.93883,-19.23118,5.16584,4.48749,-1.87161,0.15998,0.46997,-3.82452,4.26968,-1.75162,-1.62921,-0.52592,1.37035,0.97487,0.02829,-0.28332,-0.18174,-0.00156,0.24553,0.16247,0.03134
2055,116.227,-58.50227,-8.42453,10.95818,-1.57487,-11.35788,123.56831,-36.23846,-12.25971,37.2185,5.52738,-41.2407,-8.69242,59.88537,-8.93387,2.41037,0.86946,-1.08275,144.52036,5.91036,-67.64711,-14.91679,-18.83263,4.53049,4.51175,-1.78446,0.37612,0.21762,-3.42452,3.32121,-1.85272,-1.43866,-0.11592,1.17988,0.87075,-0.00159,-0.26306,-0.14046,0.05586,0.17787,0.10984,0.04935
2056,118.59901,-58.82957,-9.35613,10.99048,-0.63419,-8.7327,131.81378,-37.56431,-12.11262,35.30339,2.86195,-26.55015,-8.03636,58.94771,-8.87322,2.4054,1.00321,-1.42956,160.93173,1.50881,-50.01487,-27.16947,-20.39569,3.07605,4.70453,-1.95521,0.3567,-0.03926,-3.76917,3.06885,-1.8889,-1.4401,0.16529,1.08632,0.76481,-0.08531,-0.20308,-0.16338,0.0704,0.12219,0.04146,0.05533
2057,120.40915,-59.81248,-10.07094,9.96336,-0.15119,-5.04454,141.38693,-37.4612,-11.47835,36.02822,-2.01286,-6.18622,-7.64821,58.20433,-8.99099,1.92798,0.75588,-1.50191,184.97649,-1.79842,-23.79279,-38.15453,-21.15109,1.62947,5.14453,-2.41785,0.31111,-0.25062,-4.48818,3.63521,-1.94199,-1.75119,0.17878,1.15954,0.76448,-0.29788,-0.13062,-0.26144,0.03171,0.115,0.00059,0.03222
2058,121.06689,-61.11966,-10.41973,8.34576,-0.30223,-1.20716,149.19914,-36.25315,-10.71719,42.00804,-8.00132,13.21595,-7.54141,57.68448,-9.25606,1.10565,0.1947,-1.20323,213.56419,-3.15175,2.60627,-43.91854,-18.52179,1.77104,5.71161,-3.02576,0.31914,-0.35441,-4.9952,4.75993,-2.08371,-2.24369,-0.02698,1.37592,0.93449,-0.64475,-0.08582,-0.38742,-0.03585,0.16742,0.01798,-0.01566
2059,120.18108,-62.62584,-10.26877,5.51599,-0.78613,1.82549,153.23502,-35.59346,-10.04879,50.09663,-13.29231,25.80634,-7.6945,57.35823,-9.62584,0.10034,-0.39453,-0.59083,237.66017,-3.41273,22.35572,-44.83174,-12.71513,4.42693,6.12329,-3.48446,0.32906,-0.33513,-4.92301,5.99292,-2.31559,-2.58518,-0.19829,1.62685,1.23252,-0.9925,-0.10215,-0.45684,-0.07196,0.24729,0.08822,-0.05974
2060,117.84776,-64.58772,-9.50323,0.13875,-0.96434,3.39702,153.58643,-37.94439,-9.25119,52.58172,-15.94009,29.57974,-8.0407,57.18477,-10.05525,-0.93406,-0.63126,0.07799,246.18588,-4.71748,33.41521,-45.83334,-7.00798,8.86769,6.20177,-3.57027,0.29242,-0.22605,-4.36412,6.96625,-2.59234,-2.51693,-0.04935,1.81501,1.53271,-1.15666,-0.18833,-0.41814,-0.01541,0.3088,0.17054,-0.06577
2061,114.65485,-67.2211,-8.16866,-7.71175,-0.35326,3.38349,151.69403,-44.24783,-7.88647,45.20562,-14.99788,25.76962,-8.48277,57.19265,-10.50235,-1.78166,-0.30122,0.48494,235.74289,-8.06071,36.28236,-52.20075,-5.03688,13.05514,6.06445,-3.3117,0.22695,-0.12568,-3.73581,7.55182,-2.87971,-2.07351,0.48187,1.88436,1.70443,-1.0878,-0.32148,-0.29844,0.13508,0.32296,0.21508,-0.02356
2062,111.27138,-70.02635,-6.62292,-15.74124,0.94178,2.24474,149.07605,-51.98965,-5.9906,31.70264,-11.18917,16.05263,-8.9514,57.44247,-10.91237,-2.23314,0.42215,0.52763,214.56171,-11.48876,30.22946,-64.36194,-7.33961,14.99743,6.06441,-2.95043,0.12353,-0.14431,-3.38302,7.77891,-3.15255,-1.52348,1.13624,1.8153,1.70138,-0.92353,-0.45262,-0.17381,0.29606,0.2894,0.20211,0.04136
2063,108.11737,-72.22456,-5.27646,-22.05097,2.3938,1.30855,146.61078,-57.52916,-4.10898,17.79148,-6.23867,2.8228,-9.44766,57.91722,-11.2206,-2.40955,1.08623,0.47098,193.43611,-12.30337,15.43811,-77.19394,-10.72131,14.14546,6.47674,-2.74998,-0.0871,-0.24631,-3.40878,7.66007,-3.35901,-1.15976,1.51179,1.71099,1.60366,-0.83518,-0.52892,-0.11033,0.35499,0.25127,0.16042,0.08556
2064,105.30574,-73.58006,-4.23238,-27.03496,3.59995,2.70747,144.34367,-59.55538,-2.6945,4.3886,-1.62043,-8.03236,-10.02507,58.53571,-11.37526,-2.71584,1.33152,0.75959,175.70853,-9.83382,-1.26293,-85.42339,-10.89005,11.87861,7.22468,-2.81762,-0.36268,-0.2799,-3.68405,7.15448,-3.4346,-1.13304,1.395,1.71488,1.5364,-0.9105,-0.52304,-0.12903,0.26911,0.25407,0.13855,0.06944
2065,102.76436,-74.38655,-3.32163,-31.39676,4.49982,8.06147,141.72464,-59.27141,-1.85427,-9.99687,2.04264,-8.22344,-10.71456,59.24967,-11.35471,-3.30766,1.09235,1.64768,159.28741,-5.15158,-7.37651,-89.28574,-6.15133,10.28353,7.9028,-3.0641,-0.39325,-0.15777,-4.00835,6.25959,-3.38265,-1.42067,0.93324,1.84848,1.56843,-1.12242,-0.45211,-0.2093,0.10789,0.28802,0.16041,-0.01658
2066,100.33866,-74.96851,-2.34873,-33.92192,5.19415,16.74701,137.95341,-58.32421,-1.5032,-23.38282,4.75243,6.70891,-11.48974,60.0798,-11.18192,-3.82781,0.52329,2.95336,144.23898,0.59473,5.79344,-93.46909,1.24699,10.21899,8.09385,-3.30166,0.20214,0.10867,-4.21592,5.05115,-3.29444,-1.88932,0.4711,2.02502,1.6867,-1.3309,-0.36476,-0.31303,-0.01264,0.3085,0.21285,-0.13365
2067,97.87138,-75.43299,-1.22603,-32.71747,5.76567,25.49111,132.3499,-57.61652,-1.3557,-30.5219,6.56354,32.10788,-12.30933,61.06459,-10.92446,-3.81428,-0.11751,4.11044,134.04189,6.1234,34.84309,-101.65553,7.37287,10.78123,7.75774,-3.40443,1.40432,0.4916,-4.25368,3.63541,-3.27101,-2.36543,0.25682,2.196,1.84987,-1.38413,-0.30273,-0.40287,-0.03184,0.30476,0.27193,-0.22088
2068,95.34006,-75.76527,0.01289,-27.82489,6.10718,29.82919,124.86544,-57.32321,-0.97607,-28.33126,7.11949,55.1392,-13.16419,62.19991,-10.66344,-3.1926,-0.5744,4.4793,130.64366,9.32023,64.77674,-112.47662,9.81068,10.46809,7.21674,-3.35018,2.59684,0.96175,-4.17491,2.15763,-3.32038,-2.64423,0.3403,2.38289,2.01609,-1.22449,-0.27941,-0.44446,0.02993,0.30841,0.32014,-0.23682
2069,92.98978,-76.01811,1.23004,-21.39893,5.68656,26.59966,116.29604,-57.19357,-0.17807,-18.64983,5.60016,61.65272,-14.0536,63.43225,-10.45786,-2.25279,-0.72606,3.73052,131.83459,7.93011,77.08308,-120.99941,8.96496,8.75363,6.85411,-3.18333,3.00496,1.42367,-4.10119,0.85332,-3.36981,-2.56345,0.64993,2.58064,2.13287,-0.91575,-0.28885,-0.4146,0.12286,0.34239,0.34296,-0.18005
2070,91.18132,-76.36068,2.27781,-15.47443,3.72889,16.13408,107.82314,-57.08627,0.87346,-5.58592,1.30995,45.2705,-14.96647,64.69518,-10.32933,-1.30224,-0.65869,2.06522,134.09048,0.93536,61.32254,-122.74607,7.04886,6.6066,6.87472,-2.99501,2.34957,1.69565,-4.17579,-0.01138,-3.35119,-2.15051,1.05117,2.69585,2.16286,-0.64834,-0.31731,-0.32483,0.20993,0.38667,0.33534,-0.09752
2071,90.01088,-76.84605,3.08856,-10.24616,0.10737,2.63306,100.222,-56.95587,1.89994,8.25027,-5.2721,12.86282,-15.90053,65.93215,-10.26205,-0.43086,-0.57855,0.1423,136.12328,-9.98093,23.41022,-116.4022,6.27627,5.6228,7.2602,-2.8958,1.03016,1.60093,-4.47877,-0.28396,-3.2498,-1.64061,1.37351,2.59753,2.12877,-0.67308,-0.34404,-0.22191,0.26828,0.39705,0.31382,-0.06352
2072,89.15707,-77.24327,3.65579,-5.17869,-3.90985,-8.13354,93.70518,-56.56302,2.60188,21.2175,-11.87346,-19.37975,-16.86461,67.08597,-10.22525,0.37254,-0.601,-1.28726,137.84346,-20.30294,-17.72361,-104.58439,7.11493,6.38898,7.77788,-2.91567,-0.23705,1.12043,-5.02094,-0.0124,-3.08163,-1.2837,1.48232,2.24112,2.0882,-1.07711,-0.34702,-0.14983,0.28407,0.34659,0.30108,-0.11522
2073,88.04736,-77.10856,3.99469,-0.78289,-6.41944,-12.63837,88.12031,-55.30573,2.7515,30.55373,-15.64041,-37.94069,-17.85709,68.08022,-10.1892,1.01124,-0.6632,-1.82475,137.6049,-24.95329,-44.54358,-92.1516,7.62154,7.48495,8.07988,-2.96871,-0.90513,0.46462,-5.71553,0.55761,-2.88109,-1.17885,1.33345,1.73166,2.05266,-1.63355,-0.32089,-0.12063,0.25388,0.2446,0.29808,-0.21424
2074,86.1472,-76.01842,4.15109,1.74212,-6.57793,-11.55863,83.03908,-52.61101,2.44092,33.57254,-15.48556,-40.80339,-18.85066,68.82809,-10.13238,1.33795,-0.64387,-1.60651,132.99947,-21.9471,-52.48602,-83.65488,4.72149,6.33809,7.91902,-2.92378,-0.83937,-0.02171,-6.42944,1.07444,-2.72083,-1.25058,1.00036,1.2896,1.97716,-1.94113,-0.28671,-0.11732,0.18752,0.12673,0.28294,-0.28195
2075,83.19703,-73.83422,4.19741,2.02158,-5.17816,-8.15478,78.05332,-48.69058,2.04102,30.71176,-12.91862,-35.08401,-19.80527,69.27159,-10.05393,1.32143,-0.49953,-1.10881,124.4819,-13.92812,-48.41101,-81.15672,-2.82675,1.62721,7.3589,-2.7057,-0.30003,-0.07688,-7.02752,1.29898,-2.65418,-1.3218,0.65486,1.1197,1.81621,-1.73143,-0.26692,-0.11122,0.10806,0.03507,0.23388,-0.26438
2076,79.29522,-70.76193,4.16763,0.93295,-3.78978,-5.47632,73.04525,-44.43928,1.7804,25.69342,-10.67765,-29.17066,-20.68835,69.39896,-9.98068,1.08524,-0.29788,-0.79198,115.77698,-5.77747,-42.10585,-84.07021,-12.52652,-4.86062,6.72629,-2.3611,0.28951,0.30123,-7.44226,1.29442,-2.63438,-1.25499,0.47744,1.27077,1.57665,-1.07198,-0.25735,-0.08739,0.04799,0.0002,0.15211,-0.16763
2077,74.82478,-67.27509,4.04948,-0.0897,-3.50776,-4.73903,68.33146,-40.82733,1.57931,22.82475,-10.6194,-27.03712,-21.48232,69.22549,-9.9504,0.82227,-0.14716,-0.85461,111.15695,-0.97683,-39.07409,-90.29288,-19.7609,-9.08698,6.31432,-2.04932,0.67919,0.89125,-7.7062,1.37403,-2.57565,-1.10213,0.49773,1.61981,1.34197,-0.3116,-0.24209,-0.0656,0.02738,0.02647,0.06836,-0.0472
2078,70.29979,-63.94848,3.83503,0.21394,-4.22453,-5.27561,64.45421,-38.60503,1.26577,24.47925,-12.5068,-27.31597,-22.1772,68.78057,-9.98335,0.7171,-0.11958,-1.16132,112.80096,-0.1945,-38.41146,-97.03868,-21.47321,-7.96165,6.17512,-1.91348,0.93455,1.41925,-7.90537,1.80991,-2.47094,-1.05642,0.54741,1.95458,1.20871,0.1761,-0.22119,-0.08005,0.03093,0.08877,0.02136,0.03366
2079,66.058,-61.32124,3.63115,2.32331,-5.10625,-5.90068,61.20369,-38.36382,0.89311,30.48304,-14.8329,-27.09733,-22.77166,68.11173,-10.08036,0.85424,-0.21704,-1.43882,119.53759,-2.58146,-37.01018,-101.22008,-18.34775,-2.04247,6.17243,-1.93119,1.22788,1.74743,-8.1175,2.51783,-2.37231,-1.19089,0.47851,2.13171,1.21059,0.24303,-0.20402,-0.12862,0.03051,0.15489,0.02549,0.04634
2080,62.13507,-59.66327,3.62201,5.75767,-5.27663,-5.84068,57.22962,-39.99334,0.7419,38.89891,-15.98317,-24.57565,-23.2782,67.30278,-10.22736,1.19245,-0.37898,-1.49291,127.2521,-6.06111,-32.97376,-100.06026,-13.65219,5.06559,6.1787,-1.97708,1.58843,1.90484,-8.33807,3.03241,-2.3388,-1.3685,0.37645,2.15206,1.32193,-0.00681,-0.19673,-0.17448,0.0272,0.20805,0.06657,0.00647
2081,58.42302,-58.74913,3.87845,9.51697,-3.97985,-4.74319,51.26532,-42.25979,1.03143,47.43911,-14.6079,-18.55491,-23.72724,66.47722,-10.39923,1.60688,-0.50646,-1.257,131.92763,-7.14982,-24.95354,-92.92726,-10.42192,9.86839,6.16484,-1.99289,1.87265,1.96084,-8.46499,2.87052,-2.40612,-1.42261,0.44169,2.08692,1.49246,-0.36419,-0.20062,-0.1947,0.0426,0.24191,0.11651,-0.04485
2082,54.86286,-57.99947,4.28022,12.51182,-1.17261,-2.87603,43.35151,-43.52906,1.6925,54.15498,-10.59241,-9.34669,-24.15968,65.75574,-10.56464,1.949,-0.52677,-0.80531,131.82668,-3.46004,-13.12979,-82.57546,-9.70433,11.27374,6.15222,-2.04109,1.87832,1.89829,-8.38514,1.97271,-2.55236,-1.32713,0.73019,1.948,1.61617,-0.63254,-0.21421,-0.20029,0.0835,0.24109,0.13923,-0.06586
2083,51.51843,-56.9099,4.63415,13.98852,2.14159,-1.00293,34.60159,-42.91732,2.40689,57.99216,-5.62837,0.42688,-24.60053,65.21665,-10.68995,2.11571,-0.44853,-0.30146,127.59106,3.94227,-0.48639,-73.77859,-11.07188,10.11509,6.13096,-2.20677,1.52066,1.69749,-8.13268,0.76546,-2.70418,-1.18267,1.10383,1.72789,1.5973,-0.71099,-0.23589,-0.20827,0.13987,0.1925,0.1168,-0.047
2084,48.46902,-55.34343,4.83841,13.63844,4.69488,0.28941,26.29333,-40.80279,2.87392,58.67265,-2.00825,7.3305,-25.05873,64.87598,-10.74561,2.09125,-0.32951,0.11708,120.71992,11.42206,8.83262,-69.9191,-13.91405,7.45348,6.07108,-2.50829,0.93748,1.49693,-7.84256,-0.1758,-2.78344,-1.1365,1.33815,1.53306,1.45883,-0.60405,-0.26066,-0.22173,0.1941,0.12194,0.07558,-0.01842
2085,45.68507,-53.54884,4.94667,11.77106,5.83488,0.88616,18.90347,-38.44054,3.01809,57.00824,-1.16027,9.18084,-25.53938,64.70007,-10.72901,1.91811,-0.21623,0.39366,112.61191,15.3226,11.85848,-70.73143,-17.88112,3.84186,5.98604,-2.88458,0.40813,1.51884,-7.63068,-0.48022,-2.74332,-1.30293,1.25372,1.53321,1.29283,-0.35629,-0.2768,-0.24451,0.21915,0.08441,0.05769,-0.01281
2086,42.9922,-51.89007,5.08746,9.38113,5.77072,0.95635,11.78257,-36.88343,2.93528,54.50252,-2.80498,6.48422,-26.0507,64.6377,-10.6753,1.68269,-0.12921,0.52323,103.62267,14.70671,8.65173,-73.44852,-22.26322,-0.126,5.96434,-3.22383,0.11827,1.8156,-7.47954,-0.07299,-2.55234,-1.66961,0.82155,1.74153,1.14278,-0.04372,-0.26477,-0.28347,0.18847,0.1041,0.07476,-0.03582
2087,40.1186,-50.56028,5.33895,7.95934,5.02598,0.59729,4.12935,-36.28466,2.73168,52.98409,-5.5984,1.82003,-26.60722,64.62075,-10.64161,1.5209,-0.09276,0.51157,94.57643,11.40934,2.00339,-75.67091,-25.48528,-3.29915,6.09523,-3.39972,0.01092,2.21983,-7.28721,0.86233,-2.19031,-2.0577,0.18719,1.97709,1.03019,0.18962,-0.21076,-0.33107,0.09777,0.15644,0.11104,-0.07415
2088,36.90156,-49.5644,5.66097,8.74444,3.78426,-0.24149,-3.83265,-35.94828,2.42876,54.29834,-8.61076,-2.32885,-27.23128,64.57535,-10.68197,1.57419,-0.16393,0.37,88.45033,8.00241,-5.0888,-76.83886,-25.64253,-4.41809,6.30144,-3.29285,-0.08146,2.51131,-7.00737,1.97115,-1.70866,-2.20853,-0.4145,2.03799,0.98097,0.22422,-0.12288,-0.35242,-0.03076,0.20098,0.14084,-0.10248
2089,33.44113,-48.91463,5.95663,11.89704,2.1735,-1.45425,-11.1052,-35.17281,2.03938,59.50598,-11.27019,-4.22546,-27.93245,64.44208,-10.82656,1.91026,-0.38661,0.1622,88.45014,6.50125,-10.22412,-77.21119,-22.0686,-3.09308,6.32872,-2.82384,-0.17333,2.59912,-6.74886,2.87231,-1.25945,-1.94156,-0.75377,1.88686,0.98454,0.09661,-0.03729,-0.30053,-0.14904,0.2209,0.13651,-0.08712
2090,30.0089,-48.65243,6.16436,16.18377,0.8061,-2.63049,-16.76875,-33.90799,1.68636,67.65288,-12.54094,-2.68886,-28.68523,64.18228,-11.05995,2.44931,-0.70928,0.00946,94.82781,8.18315,-11.1647,-76.43837,-16.85699,-0.2689,5.95986,-2.06644,-0.02413,2.57646,-6.72738,3.32177,-1.06293,-1.3337,-0.67898,1.68241,1.00346,-0.02843,-0.00807,-0.16953,-0.19222,0.23075,0.08835,-0.01242
2091,26.83244,-48.71802,6.28449,19.76117,0.33627,-3.35588,-20.52688,-32.561,1.55931,75.9224,-11.71722,1.90858,-29.42717,63.78572,-11.3265,3.00176,-1.00419,0.00683,104.34814,12.85857,-7.33958,-73.82059,-14.0553,2.33192,5.23824,-1.29322,0.55698,2.58499,-7.04327,3.28736,-1.23848,-0.71396,-0.23935,1.60288,1.01747,-0.021,-0.06084,-0.02521,-0.13348,0.2434,0.02036,0.09235
2092,23.92933,-48.89632,6.35567,21.45775,0.78928,-3.50834,-23.15173,-31.48604,1.74783,81.40864,-9.44491,7.36348,-30.08802,63.28219,-11.56929,3.3972,-1.17322,0.15955,111.84603,18.51009,-1.0148,-69.91999,-16.48954,3.40234,4.48864,-0.81025,1.40063,2.69752,-7.57547,2.9277,-1.67098,-0.39485,0.31146,1.70519,1.03091,0.1147,-0.1562,0.04984,-0.02147,0.2555,-0.02746,0.16985
2093,21.06344,-48.92382,6.4445,21.29013,1.69442,-3.24251,-26.30621,-30.81852,2.19411,82.7364,-7.21198,11.16346,-30.6225,62.72585,-11.76264,3.56435,-1.18625,0.40175,112.78559,22.31043,4.311,-67.10887,-23.47858,2.9833,4.0412,-0.75802,2.15514,2.94974,-8.10936,2.49676,-2.12997,-0.48111,0.70543,1.97096,1.05154,0.28267,-0.23393,0.01881,0.07106,0.27678,-0.03581,0.18412
2094,17.88015,-48.65554,6.62821,19.96852,2.57674,-2.80651,-31.38191,-30.36023,2.792,80.43736,-6.27417,12.04608,-31.0299,62.15875,-11.91669,3.51008,-1.05106,0.6467,105.81992,22.57657,6.32787,-67.43062,-31.46354,2.33426,4.07791,-1.07547,2.6315,3.31313,-8.50769,2.20563,-2.4456,-0.89559,0.83024,2.31301,1.07152,0.3676,-0.26549,-0.09358,0.11543,0.32187,-0.01697,0.14031
2095,14.25042,-48.07557,6.90465,18.16691,3.20625,-2.38658,-38.20092,-29.38798,3.41705,75.94353,-6.87381,10.50319,-31.34107,61.59131,-12.05305,3.27204,-0.80539,0.82214,93.17929,20.53508,5.11833,-70.17863,-36.81751,2.75898,4.53287,-1.5586,2.83087,3.65435,-8.71891,2.08275,-2.52628,-1.44984,0.73873,2.56842,1.11548,0.2685,-0.25051,-0.22291,0.13079,0.37457,0.01588,0.05918
2096,10.34905,-47.2913,7.20088,16.20253,3.60503,-2.06326,-45.37526,-27.3958,3.94957,70.63223,-8.15783,8.20178,-31.59398,61.0219,-12.19395,2.89091,-0.51123,0.8873,78.80145,19.2774,2.64301,-71.76041,-38.27444,4.39341,5.13182,-1.97433,2.77016,3.77215,-8.66186,2.05367,-2.33872,-1.91443,0.54204,2.54803,1.18698,-0.01849,-0.19675,-0.30887,0.1372,0.38574,0.05315,-0.03343
2097,6.43071,-46.51725,7.46247,14.2837,3.85134,-1.87155,-51.67644,-24.95431,4.33812,65.71596,-9.08985,6.52285,-31.82464,60.44409,-12.36103,2.44098,-0.24161,0.8387,66.12521,20.54988,0.78263,-68.84559,-37.09275,6.20954,5.57112,-2.1863,2.43756,3.54036,-8.2727,2.11911,-1.96487,-2.11825,0.33346,2.15319,1.20286,-0.36891,-0.12537,-0.32891,0.1322,0.31411,0.07463,-0.10708
2098,2.72209,-45.82892,7.62696,12.73003,4.00094,-1.8338,-56.57842,-23.00638,4.47646,62.14574,-9.20498,5.77563,-32.04991,59.84967,-12.55761,2.03938,-0.05722,0.71304,57.08543,23.88341,-0.07011,-60.82875,-34.96118,6.98892,5.71256,-2.2293,1.89206,3.03439,-7.55744,2.31132,-1.62547,-2.03726,0.20632,1.48616,1.10737,-0.63868,-0.07835,-0.30023,0.11687,0.17586,0.0754,-0.14635
2099,-0.65966,-45.13473,7.6443,11.79213,4.15598,-1.9248,-60.02431,-22.14725,4.16922,60.33904,-8.66795,5.63851,-32.24461,59.22777,-12.75845,1.78566,0.02169,0.57713,52.38156,27.43316,-0.52113,-49.69441,-32.28136,6.36505,5.66594,-2.25724,1.26216,2.5105,-6.65222,2.58043,-1.50477,-1.7954,0.21102,0.83938,0.96129,-0.72654,-0.08042,-0.25629,0.10165,0.04509,0.07651,-0.14769
2100,-3.85186,-44.42784,7.59648,11.54208,4.29057,-2.06917,-62.57283,-22.90182,3.5055,60.12548,-8.174,5.56842,-32.35926,58.55101,-12.93279,1.72644,0.00367,0.49441,51.11821,28.26392,-1.12258,-38.10793,-28.57901,5.05842,5.60066,-2.36169,0.67797,2.21243,-5.84651,2.8062,-1.58366,-1.54837,0.29427,0.504,0.83341,-0.56292,-0.11228,-0.21856,0.08757,-0.00664,0.08592,-0.09975
2101,-7.08083,-43.6483,7.62618,11.95731,4.22295,-2.20391,-65.24571,-25.03989,3.02525,61.25797,-8.21331,5.28576,-32.3494,57.78835,-13.05338,1.85501,-0.1034,0.49165,51.4009,25.03684,-1.70288,-28.38896,-24.0286,4.16763,5.55338,-2.46025,0.28217,2.2454,-5.53551,2.81438,-1.72922,-1.36562,0.36555,0.62305,0.74286,-0.16605,-0.14465,-0.18362,0.07068,0.04441,0.08488,0.00077
2102,-10.27047,-42.52654,7.75506,12.8638,3.87405,-2.31105,-68.56573,-27.01832,3.22187,63.36964,-8.34332,5.1556,-32.18306,56.9467,-13.083,2.08869,-0.2738,0.5491,51.83331,20.49924,-1.38847,-22.60456,-20.21418,4.12319,5.45201,-2.38849,0.20501,2.55862,-5.97466,2.42379,-1.83235,-1.24655,0.35634,1.14975,0.70311,0.30395,-0.16564,-0.14168,0.04688,0.17029,0.05727,0.12108
2103,-12.94282,-40.9026,7.8612,13.87792,3.31077,-2.38602,-71.79778,-27.40136,4.03687,65.60038,-7.81152,5.68945,-31.8473,56.08206,-12.99315,2.27146,-0.44642,0.61625,52.22456,18.75165,0.47539,-21.99343,-19.01496,4.40263,5.24745,-2.09406,0.45389,2.99219,-7.0282,1.61169,-1.84474,-1.19932,0.2356,1.86428,0.74579,0.60884,-0.17228,-0.10036,0.01147,0.31246,0.01441,0.2003
2104,-14.67364,-38.9342,7.83253,14.48032,2.62555,-2.40549,-74.00194,-26.08622,4.9682,66.54845,-6.60718,6.6437,-31.3588,55.25483,-12.78422,2.22058,-0.54371,0.64279,51.83904,21.11941,3.06916,-26.15591,-20.86847,4.18187,4.96407,-1.6893,0.86762,3.34557,-8.17475,0.62231,-1.77149,-1.21884,0.05254,2.45511,0.86457,0.60542,-0.16546,-0.07389,-0.02796,0.40655,-0.01676,0.19494
2105,-15.50799,-36.80072,7.63804,14.19605,1.96623,-2.33888,-75.15677,-23.85692,5.4586,64.79691,-5.39429,7.10646,-30.7493,54.49458,-12.48738,1.79052,-0.48707,0.60821,48.45251,25.57338,4.39262,-32.54845,-24.13554,3.16943,4.66338,-1.34318,1.20303,3.46656,-8.7941,-0.15925,-1.64374,-1.24669,-0.07886,2.67862,0.97493,0.35227,-0.15234,-0.06393,-0.04919,0.4087,-0.02373,0.11386
2106,-15.83977,-34.51457,7.30437,12.855,1.50629,-2.17384,-75.57469,-21.77361,5.238,59.73596,-4.88191,6.3378,-30.04978,53.77922,-12.13937,0.93846,-0.2217,0.53026,40.49785,28.40988,3.12359,-37.68791,-26.54381,1.90872,4.40826,-1.1553,1.285,3.3576,-8.59013,-0.46383,-1.47394,-1.20079,-0.05948,2.51232,0.99333,0.0244,-0.14118,-0.06075,-0.02888,0.32471,-0.01394,0.00348
2107,-15.99372,-32.03507,6.87348,10.66474,1.32025,-1.91755,-75.14503,-20.65768,4.50679,52.2397,-5.3391,4.39863,-29.29131,53.03512,-11.76979,-0.31306,0.27915,0.4585,29.44972,26.86304,-0.19973,-38.73472,-26.40985,1.42895,4.2975,-1.14589,1.09643,3.13675,-7.72543,-0.27131,-1.27772,-1.04707,0.14167,2.11293,0.91461,-0.2249,-0.13427,-0.05541,0.04054,0.20266,0.00049,-0.0858
2108,-15.93695,-29.28258,6.34674,8.02975,1.4082,-1.60416,-73.3557,-20.33333,3.71097,44.4294,-6.28377,2.20729,-28.49902,52.18618,-11.38511,-1.99803,1.05812,0.4394,19.62416,21.59337,-3.67403,-34.71992,-23.38454,2.39054,4.44233,-1.30954,0.71435,2.89936,-6.6026,0.21405,-1.08391,-0.85323,0.42821,1.66109,0.80271,-0.328,-0.12305,-0.05308,0.12884,0.09328,0.01498,-0.12299
2109,-15.47007,-26.2097,5.70645,5.32506,1.74699,-1.27289,-70.01358,-20.02009,3.08336,38.14621,-6.85691,0.9226,-27.68842,51.20822,-10.9713,-4.29495,2.21484,0.49314,14.42617,15.44111,-5.62597,-26.33827,-18.54971,4.37782,4.85804,-1.6571,0.25187,2.69787,-5.58678,0.63719,-0.94017,-0.80579,0.5978,1.34027,0.74592,-0.2906,-0.09946,-0.08392,0.17675,0.04064,0.03529,-0.10698
2110,-14.60194,-22.93757,4.99323,2.94132,2.27358,-0.98341,-65.81484,-19.36701,2.58387,34.21099,-6.49646,1.13712,-26.86132,50.11894,-10.52177,-7.46377,3.88261,0.60932,13.80079,10.47677,-5.74328,-15.50314,-14.2452,6.01418,5.34512,-2.12789,-0.13139,2.57249,-4.91255,0.65985,-0.89112,-1.04952,0.51633,1.3343,0.7879,-0.12727,-0.07045,-0.16751,0.15066,0.07856,0.06174,-0.05138
2111,-13.59154,-19.63042,4.30225,1.1214,2.83494,-0.79815,-61.90458,-18.24321,2.18348,32.20003,-5.00593,2.56465,-26.00511,48.94194,-10.0393,-11.6822,6.12082,0.75864,14.70022,7.84218,-4.84869,-4.63159,-12.89314,6.00819,5.57467,-2.49528,-0.27636,2.51355,-4.71014,0.21928,-0.91541,-1.4892,0.22924,1.66392,0.87641,0.15312,-0.05062,-0.26945,0.07231,0.18741,0.0729,0.03417
2112,-12.62252,-16.35186,3.68661,-0.28235,3.28823,-0.71077,-58.57668,-16.121,1.91968,30.70998,-2.32913,4.43399,-25.09905,47.69479,-9.52565,-16.83991,8.81599,0.93496,14.22199,8.88925,-3.91262,3.75702,-15.49631,4.27239,5.31677,-2.5016,-0.12163,2.46811,-4.97973,-0.43117,-0.91882,-1.8853,-0.13111,2.09996,0.94023,0.45131,-0.04482,-0.33918,-0.015,0.28825,0.05187,0.12596
2113,-11.65826,-13.16875,3.13823,-1.88295,3.69941,-0.65285,-54.97503,-12.66237,1.76303,27.61408,1.76419,6.09329,-24.13058,46.39201,-8.98159,-22.56265,11.74238,1.13614,10.91963,14.58498,-3.17032,7.93351,-20.79699,2.03477,4.65177,-2.09727,0.23032,2.4187,-5.5316,-0.93391,-0.79632,-2.08651,-0.47628,2.33465,0.97824,0.57226,-0.04093,-0.36179,-0.08618,0.31115,0.01766,0.17514
2114,-10.54279,-10.26473,2.63109,-4.07628,4.1708,-0.56744,-50.19037,-8.55847,1.55811,21.58156,7.21662,7.28912,-23.093,45.03199,-8.41504,-28.25789,14.61358,1.3403,4.85427,23.68619,-2.29584,7.32509,-26.16504,0.93446,3.88942,-1.47818,0.56022,2.39255,-6.05184,-1.00088,-0.51527,-2.0932,-0.7826,2.19205,0.98507,0.41443,-0.02182,-0.35165,-0.14034,0.2477,-0.00483,0.15245
2115,-9.18763,-7.90143,2.17293,-6.44475,4.64273,-0.45868,-44.30375,-5.3101,1.16693,13.30327,13.30365,8.06359,-21.98233,43.58165,-7.83824,-33.35376,17.20095,1.53093,-2.89725,32.63508,-1.09701,2.83972,-29.46406,1.82863,3.40138,-0.94877,0.6696,2.44805,-6.32328,-0.54859,-0.15733,-1.98682,-1.03542,1.74167,0.91289,0.07414,0.01889,-0.32261,-0.18497,0.14857,-0.01929,0.07985
2116,-7.69573,-6.23967,1.80575,-8.12571,4.96381,-0.3686,-38.44982,-4.11553,0.65793,4.89379,19.08827,8.55074,-20.79464,41.97242,-7.27017,-37.56189,19.4315,1.72081,-11.09364,38.04145,0.26671,-3.30348,-30.27113,4.29824,3.47359,-0.76888,0.52525,2.62537,-6.31124,0.23698,0.12504,-1.88008,-1.175,1.22615,0.74892,-0.26126,0.07667,-0.28744,-0.21709,0.07864,-0.04165,0.00474
2117,-6.27227,-5.15882,1.54971,-8.57544,4.97812,-0.32731,-33.89375,-4.94646,0.25695,-1.70923,23.77167,8.77324,-19.53027,40.1399,-6.72707,-40.93348,21.36123,1.93499,-19.09736,38.60645,1.37444,-7.72237,-29.76096,7.0072,4.20113,-1.06999,0.26878,2.8946,-6.13277,1.00493,0.21982,-1.91569,-1.12768,0.88614,0.55437,-0.44744,0.14453,-0.27127,-0.21922,0.06775,-0.074,-0.03626
2118,-5.07467,-4.35773,1.37504,-7.96544,4.67943,-0.31917,-30.97881,-6.71703,0.10968,-5.86475,26.9628,8.68488,-18.20412,38.07366,-6.21691,-43.709,23.10345,2.19288,-26.50751,35.4127,1.90872,-6.86073,-29.59328,8.40176,5.41125,-1.78407,0.06877,3.13617,-5.93526,1.42318,0.1447,-2.17533,-0.88336,0.83661,0.40274,-0.42815,0.21127,-0.29618,-0.17316,0.10263,-0.10062,-0.03462
2119,-4.11476,-3.62946,1.23832,-6.95427,4.3045,-0.29647,-28.90742,-8.2713,0.15544,-8.16396,28.81583,8.33108,-16.84241,35.82931,-5.73175,-46.12482,24.76107,2.49827,-32.52893,30.71173,1.9466,0.85799,-30.40824,7.40969,6.67687,-2.62553,-0.02772,3.23471,-5.81148,1.32943,0.03416,-2.5505,-0.52518,1.07653,0.3367,-0.2284,0.25981,-0.34412,-0.07914,0.15621,-0.10014,-0.00611
2120,-3.29464,-2.95911,1.10563,-6.10395,4.1766,-0.21268,-26.64939,-8.98949,0.18743,-9.69416,29.72187,7.82837,-15.47673,33.49417,-5.26289,-48.32249,26.39368,2.8472,-36.80461,26.18286,1.55239,13.11902,-31.40488,3.97833,7.50026,-3.21855,-0.0804,3.21212,-5.82358,0.77982,0.00325,-2.7725,-0.17095,1.55161,0.38803,0.05489,0.27027,-0.35266,0.039,0.2148,-0.05606,0.02132
2121,-2.52479,-2.36821,0.95493,-5.46108,4.49142,-0.05034,-23.93119,-8.62805,0.0251,-11.01534,29.90988,7.26576,-14.14639,31.16111,-4.80979,-50.32271,28.00448,3.24209,-39.69371,22.43608,0.46774,24.60839,-31.19677,-0.78001,7.58145,-3.32322,-0.14306,3.19023,-5.99151,-0.03043,0.03839,-2.66348,0.06109,2.1415,0.58397,0.26249,0.22849,-0.27839,0.13691,0.26748,0.03181,0.01882
2122,-1.80211,-1.8264,0.78326,-4.68268,5.25171,0.17448,-21.19779,-7.22323,-0.32769,-12.11323,29.68382,6.69389,-12.89533,28.9075,-4.38264,-52.07413,29.53993,3.69056,-41.95386,19.63616,-1.33931,31.05233,-29.48556,-5.12282,6.94394,-2.96514,-0.16367,3.21945,-6.27349,-0.89672,0.00893,-2.35001,0.07628,2.66252,0.87776,0.27187,0.13203,-0.161,0.16834,0.29345,0.13278,-0.02374
2123,-1.15471,-1.28168,0.60123,-3.44696,6.35854,0.43857,-18.95674,-4.93431,-0.71477,-12.78468,29.66347,6.20856,-11.76147,26.80105,-3.99787,-53.52926,30.91772,4.20016,-43.99651,18.43218,-3.30377,32.21919,-27.23564,-7.58534,5.84332,-2.33214,-0.06005,3.19939,-6.50293,-1.64911,-0.1508,-2.07831,-0.13129,2.93958,1.13205,0.10005,0.00552,-0.07781,0.11894,0.27642,0.19691,-0.0849
2124,-0.53862,-0.74768,0.41854,-1.68873,7.74596,0.72616,-17.23262,-2.08871,-1.00358,-12.85371,30.69399,6.03317,-10.7733,24.9071,-3.66733,-54.68761,32.06555,4.76497,-45.55004,19.80481,-4.54985,31.52877,-25.45848,-7.75887,4.62641,-1.642,0.14269,3.02855,-6.47603,-2.11418,-0.34074,-1.92385,-0.43172,2.90951,1.2125,-0.10815,-0.09972,-0.05447,0.02562,0.22681,0.19252,-0.12493
2125,0.11116,-0.3455,0.25759,0.44173,9.41588,1.02086,-15.55373,0.60398,-1.14141,-12.24538,33.47653,6.41715,-9.94731,23.27342,-3.39197,-55.57701,32.94529,5.35558,-45.96563,24.05973,-4.32503,32.32541,-24.34851,-6.25532,3.62929,-1.13062,0.36471,2.74545,-6.1206,-2.15338,-0.4529,-1.86491,-0.62341,2.64339,1.09505,-0.20278,-0.14668,-0.07778,-0.04587,0.17584,0.13102,-0.11569
2126,0.77103,-0.22434,0.16513,2.61028,11.29523,1.28613,-13.51967,2.24608,-1.06725,-11.20693,38.03438,7.3449,-9.28456,21.90498,-3.16325,-56.23559,33.5504,5.90108,-45.2814,30.09285,-2.46906,35.15238,-23.26228,-4.14856,3.08372,-0.97462,0.52807,2.50051,-5.60097,-1.80036,-0.46476,-1.8969,-0.59397,2.30406,0.87789,-0.13679,-0.13041,-0.13665,-0.05627,0.15436,0.05648,-0.06136
2127,1.29817,-0.46016,0.20289,4.5225,13.17103,1.49596,-11.25541,2.38679,-0.661,-10.01072,43.46836,8.45477,-8.76041,20.76746,-2.97083,-56.70512,33.90276,6.34717,-44.1498,35.86276,0.3936,38.00451,-21.49916,-2.36519,3.05076,-1.13856,0.55564,2.40916,-5.17326,-1.30617,-0.39038,-1.95627,-0.39834,2.07449,0.68518,0.02696,-0.06323,-0.20681,-0.02231,0.17721,0.01127,0.00416
2128,1.56213,-1.01798,0.40009,6.01854,14.79896,1.64421,-9.22926,1.27453,0.16211,-8.73609,48.47528,9.291,-8.3369,19.811,-2.80987,-57.05557,34.05245,6.67594,-43.03269,39.70837,3.29873,38.61842,-19.51762,-1.24964,3.39801,-1.37655,0.42518,2.46442,-4.99606,-0.98997,-0.25118,-1.91668,-0.19094,2.0527,0.5886,0.17016,0.0317,-0.24447,0.00717,0.23105,0.01133,0.03963
2129,1.57371,-1.72476,0.69788,7.06777,16.03739,1.75257,-7.67315,-0.50467,1.22646,-7.50927,52.06673,9.65223,-7.97639,18.98747,-2.67479,-57.38348,34.07832,6.89912,-41.99896,40.87469,5.63423,36.6729,-18.85366,-0.66657,3.9209,-1.48886,0.19802,2.53895,-5.02999,-0.99953,-0.10189,-1.74732,-0.08881,2.17397,0.57645,0.21825,0.11972,-0.22633,0.00084,0.27592,0.03967,0.03144
2130,1.43309,-2.29558,0.95025,7.72981,16.87697,1.86771,-6.5191,-2.57904,1.97472,-6.60124,53.7177,9.69475,-7.64948,18.27908,-2.56095,-57.78521,34.07426,7.04141,-41.11651,38.88688,7.20407,33.81235,-20.77426,-0.45094,4.46384,-1.50871,-0.07473,2.55902,-5.18865,-1.18227,0.00482,-1.54876,-0.10899,2.29747,0.56628,0.20981,0.17253,-0.17519,-0.03514,0.28219,0.05814,0.00736
2131,1.15251,-2.52722,1.05139,8.06895,17.38322,2.02958,-5.95504,-4.98327,1.91245,-6.19243,53.44028,9.68945,-7.34031,17.68591,-2.46767,-58.31623,34.12016,7.12978,-40.86627,33.55314,7.96385,32.01329,-25.01789,-0.82769,4.96877,-1.63249,-0.44652,2.60639,-5.43106,-1.21938,0.08195,-1.42484,-0.21536,2.33901,0.4557,0.24536,0.19017,-0.12982,-0.07976,0.25628,0.03351,0.00588
2132,0.66787,-2.4325,1.03692,8.04975,17.60614,2.23705,-6.49998,-7.61066,1.22804,-6.28245,51.89081,9.6771,-7.03719,17.17912,-2.39709,-58.97187,34.24281,7.18975,-42.05555,26.07556,7.88678,31.5046,-30.38647,-2.15342,5.37492,-1.98021,-0.96122,2.86771,-5.75815,-0.88791,0.16387,-1.38814,-0.35397,2.32063,0.2107,0.37282,0.18479,-0.10776,-0.11443,0.23026,-0.03597,0.03722
2133,0.02603,-2.11938,1.01159,7.55759,17.60743,2.45481,-8.24735,-9.58737,0.63893,-6.81239,50.15474,9.50689,-6.73038,16.69633,-2.34303,-59.70122,34.40905,7.24054,-45.17206,19.32966,7.01503,30.80247,-35.85357,-4.13956,5.56572,-2.43065,-1.47255,3.45678,-6.08794,-0.19996,0.24491,-1.42294,-0.47763,2.3041,-0.08846,0.54157,0.16153,-0.11161,-0.12878,0.23336,-0.11439,0.0776
2134,-0.53151,-1.67455,1.01663,6.58832,17.51788,2.65403,-10.29221,-9.70965,0.6294,-7.63714,49.33487,9.23979,-6.42688,16.18891,-2.28924,-60.4429,34.56581,7.29224,-49.36189,16.49129,5.74097,28.63761,-40.87912,-5.59571,5.40229,-2.67921,-1.70695,4.28114,-6.25054,0.64491,0.32116,-1.5284,-0.58123,2.29236,-0.31015,0.64961,0.1298,-0.14216,-0.12748,0.26222,-0.1565,0.09347
2135,-0.68141,-1.17686,1.00413,5.35137,17.4733,2.82628,-11.19075,-7.53555,1.04076,-8.47849,50.0184,9.23974,-6.14047,15.65044,-2.2122,-61.15401,34.67622,7.3351,-52.49012,18.98137,4.74565,25.93568,-44.37269,-5.45064,4.87626,-2.51121,-1.49218,5.01082,-6.10341,1.32495,0.40877,-1.70023,-0.66609,2.23212,-0.36883,0.62411,0.10683,-0.19546,-0.11849,0.28235,-0.1438,0.0692
2136,-0.19849,-0.70915,0.89555,4.15865,17.5158,2.97906,-9.91684,-3.90079,1.30544,-9.04273,51.95261,9.82643,-5.87061,15.11426,-2.09288,-61.80552,34.72428,7.35216,-52.59538,25.39266,4.48059,25.44414,-44.25004,-4.05719,4.24023,-2.01834,-0.89327,5.2022,-5.62994,1.44218,0.49699,-1.91398,-0.67649,2.11302,-0.23127,0.45279,0.0993,-0.25584,-0.09232,0.26151,-0.08745,0.01464
2137,0.83019,-0.32472,0.66195,3.25435,17.56566,3.10915,-6.66043,-0.38375,0.97166,-9.27843,54.38998,10.93611,-5.61178,14.62585,-1.93471,-62.35917,34.70572,7.32887,-49.64808,32.51722,4.86348,29.1178,-38.78448,-3.11183,3.86508,-1.51602,-0.18975,4.58246,-5.00078,0.71179,0.5487,-2.09711,-0.54167,2.00392,0.09566,0.17042,0.09659,-0.29528,-0.03193,0.19835,-0.01154,-0.04761
2138,2.0003,-0.04115,0.37352,2.63521,17.47323,3.19851,-2.85524,1.72322,0.08921,-9.50109,56.66146,12.12943,-5.36419,14.21506,-1.76101,-62.75813,34.60913,7.26022,-45.74738,37.54665,5.42825,36.39122,-29.15528,-4.00253,3.9869,-1.30979,0.27717,3.35484,-4.53048,-0.67888,0.55238,-2.18646,-0.29219,1.98402,0.49816,-0.1227,0.0922,-0.29478,0.05066,0.12355,0.04748,-0.0898
2139,2.84867,0.19287,0.15342,2.12924,17.14454,3.2294,-0.34041,2.23915,-0.81258,-10.06838,58.40591,12.88373,-5.13376,13.88636,-1.60088,-62.92876,34.41535,7.15537,-43.68581,39.56737,5.66435,44.30485,-19.78955,-6.32177,4.4911,-1.47593,0.31278,2.1391,-4.4958,-2.03953,0.54701,-2.18211,-0.08468,2.05967,0.76002,-0.27084,0.09533,-0.2641,0.10692,0.07587,0.04989,-0.0856
2140,3.141,0.5111,0.07771,1.60503,16.62292,3.20367,-0.23116,1.94964,-1.15581,-11.29972,59.57933,12.93667,-4.92464,13.62776,-1.47277,-62.80636,34.109,7.03132,-45.65141,39.31425,5.43192,49.84537,-15.19313,-8.40122,4.97501,-1.81338,-0.02398,1.51834,-4.89884,-2.71554,0.57248,-2.09984,-0.06831,2.20164,0.74557,-0.1771,0.10993,-0.22025,0.09566,0.08144,-0.01117,-0.03003
2141,2.95422,0.96573,0.13703,1.06942,16.07957,3.15317,-2.23895,1.54351,-0.80974,-13.45082,60.29399,12.45362,-4.73589,13.43099,-1.37673,-62.3714,33.70396,6.90413,-51.90408,37.78464,5.06219,52.08523,-16.30565,-9.17736,5.12701,-2.01221,-0.51231,1.60905,-5.43801,-2.65393,0.64504,-1.91472,-0.26079,2.41444,0.55411,0.08371,0.12919,-0.16322,0.01909,0.14674,-0.08984,0.04554
2142,2.54491,1.41594,0.2712,0.71453,15.65433,3.13347,-5.13005,1.02552,-0.12141,-16.22374,60.58111,11.8809,-4.56317,13.29148,-1.30737,-61.6538,33.24144,6.8022,-60.31486,35.4383,4.95426,52.07812,-20.39246,-8.9964,4.9975,-1.92369,-0.92187,2.08805,-5.72357,-2.34129,0.7672,-1.65193,-0.55019,2.7142,0.43894,0.29547,0.14993,-0.09753,-0.08152,0.25572,-0.12116,0.08712
2143,2.14014,1.68357,0.42542,0.7363,15.27,3.15954,-7.82968,0.26261,0.48641,-18.87337,60.38289,11.54533,-4.40582,13.19983,-1.25732,-60.72619,32.74836,6.72847,-68.25529,32.64938,5.16487,51.28877,-24.09161,-8.66837,4.86143,-1.63701,-1.08208,2.58416,-5.58302,-2.21552,0.91895,-1.45964,-0.78302,3.05874,0.54502,0.2966,0.1771,-0.05836,-0.1564,0.37592,-0.08434,0.06439
2144,1.86388,1.69787,0.56144,1.26833,14.74963,3.19781,-9.67023,-0.52695,0.77853,-20.39423,59.7343,11.5025,-4.26832,13.13726,-1.22077,-59.67818,32.23551,6.66907,-73.25619,30.18098,5.43833,50.43173,-26.11572,-8.22826,4.84245,-1.31866,-0.91982,2.97344,-5.15843,-2.2222,1.06567,-1.49775,-0.86844,3.32435,0.75574,0.14969,0.21449,-0.0874,-0.17797,0.46952,-0.02542,0.00809
2145,1.80506,1.51597,0.64358,2.35299,14.05193,3.19298,-10.16763,-0.96561,0.73713,-20.12715,58.92928,11.60046,-4.15233,13.08921,-1.19505,-58.5856,31.70432,6.60796,-73.71751,28.77703,5.4815,49.58723,-27.17748,-7.05014,4.76533,-1.05572,-0.47651,3.32361,-4.74156,-2.01654,1.15613,-1.778,-0.8014,3.38675,0.83621,0.05838,0.24903,-0.18591,-0.14674,0.50744,-0.00593,-0.02071
2146,2.03099,1.25764,0.64598,3.88574,13.33315,3.10532,-9.07556,-0.95121,0.52368,-18.46868,58.45934,11.60413,-4.05785,13.04756,-1.18017,-57.47555,31.13858,6.53201,-70.1171,28.55386,5.30193,48.52333,-28.21675,-4.91938,4.41225,-0.864,0.07767,3.6573,-4.54877,-1.47863,1.16116,-2.15143,-0.64844,3.21409,0.69056,0.13394,0.26115,-0.30674,-0.0866,0.47628,-0.04105,0.00504
2147,2.5321,1.01879,0.57514,5.57126,12.80957,2.9482,-6.60039,-0.69084,0.33834,-16.6869,58.52421,11.33498,-3.98206,13.006,-1.17007,-56.32205,30.52335,6.43882,-64.59599,28.9921,5.09458,47.48064,-29.43008,-2.57155,3.83789,-0.77457,0.49913,3.86062,-4.58199,-0.83807,1.11523,-2.43873,-0.50958,2.88949,0.41616,0.32666,0.25109,-0.39347,-0.03368,0.38898,-0.10156,0.06695
2148,3.17953,0.82057,0.4665,7.07581,12.5715,2.77069,-3.52549,-0.44104,0.28007,-15.92055,58.82803,10.76976,-3.92182,12.95771,-1.16298,-55.06881,29.84875,6.32866,-59.63412,29.36896,4.92587,47.13389,-30.39711,-1.03951,3.35563,-0.84321,0.62586,3.83213,-4.69206,-0.3892,1.07389,-2.55564,-0.44266,2.56514,0.16341,0.52592,0.23508,-0.41831,-0.01136,0.28675,-0.15058,0.12862
2149,3.7443,0.64296,0.36403,8.23235,12.52287,2.62185,-0.87758,-0.34742,0.29976,-16.47559,58.92592,10.08268,-3.87871,12.89866,-1.16414,-53.65377,29.09713,6.19982,-56.88256,29.16561,4.75715,47.75792,-30.35708,-0.72128,3.26567,-1.08833,0.45861,3.60701,-4.7091,-0.25397,1.05877,-2.52425,-0.43871,2.3501,0.02424,0.62662,0.22525,-0.38812,-0.0193,0.21162,-0.16327,0.15282
2150,4.03821,0.45854,0.30665,9.17078,12.48425,2.52485,0.69595,-0.48339,0.26769,-17.6999,58.62149,9.57991,-3.84744,12.83245,-1.16895,-52.02861,28.23631,6.05316,-56.44194,28.1774,4.63353,48.66852,-28.80274,-1.25841,3.67453,-1.454,0.1049,3.33179,-4.61035,-0.36974,1.04861,-2.39319,-0.45094,2.25502,0.00144,0.58208,0.222,-0.3267,-0.04234,0.1747,-0.13823,0.12343
2151,4.01114,0.27308,0.31061,10.15804,12.30304,2.46329,1.06007,-0.80056,0.10656,-18.65213,58.10731,9.47764,-3.8117,12.76926,-1.1679,-50.17316,27.22223,5.88584,-57.68224,26.64994,4.69579,49.00812,-25.79366,-2.20893,4.4673,-1.8431,-0.30172,3.13943,-4.5133,-0.59104,1.00422,-2.18773,-0.42479,2.24402,0.03578,0.44735,0.21808,-0.25473,-0.06093,0.16688,-0.10194,0.06487
2152,3.72764,0.12999,0.36467,11.38106,11.89347,2.38764,0.53493,-1.07741,-0.20195,-18.57239,57.72072,9.77209,-3.75931,12.72353,-1.15271,-48.08796,26.01372,5.68376,-59.45248,25.22837,4.93444,48.91648,-22.21711,-3.54703,5.31906,-2.1396,-0.65584,3.11156,-4.54041,-0.84439,0.93272,-1.92189,-0.35574,2.34174,0.10527,0.30913,0.2138,-0.18342,-0.0683,0.18794,-0.082,0.01742
2153,3.3324,0.05992,0.42868,12.8354,11.24238,2.24602,-0.3193,-1.14327,-0.6446,-17.31026,57.70488,10.24961,-3.69369,12.70198,-1.12898,-45.77718,24.6037,5.43086,-60.63716,24.44389,5.05531,49.34813,-19.53734,-5.27866,5.84523,-2.24503,-0.84628,3.26704,-4.68802,-1.13617,0.8797,-1.68762,-0.28092,2.55687,0.25284,0.18287,0.21496,-0.1309,-0.0675,0.23335,-0.07642,-0.00485
2154,2.94768,0.06215,0.47407,14.36883,10.36392,2.01176,-1.17017,-1.16299,-1.05337,-15.63149,58.16175,10.57794,-3.6301,12.68982,-1.11416,-43.24863,23.02579,5.12198,-61.41869,24.15863,4.92478,50.96499,-19.10143,-6.92441,5.80343,-2.09987,-0.7703,3.57357,-4.83911,-1.42568,0.8602,-1.60314,-0.22418,2.80892,0.49078,0.03953,0.21458,-0.11487,-0.0583,0.28183,-0.0659,-0.01568
2155,2.59926,0.03966,0.52491,15.77317,9.29402,1.7001,-1.99204,-1.6812,-1.15803,-14.55282,58.87909,10.52723,-3.58915,12.65521,-1.12082,-40.52577,21.34405,4.76666,-62.41435,23.58459,4.80492,53.60595,-21.13987,-7.7158,5.22342,-1.75826,-0.47741,3.97498,-4.89198,-1.57943,0.87113,-1.67839,-0.20202,2.97607,0.7397,-0.1112,0.20266,-0.13083,-0.0437,0.31232,-0.04106,-0.02971
2156,2.33209,-0.17438,0.62408,16.91886,8.11457,1.37592,-2.60607,-3.07351,-0.80682,-14.53896,59.35025,10.12143,-3.57773,12.57757,-1.14259,-37.6562,19.63343,4.40269,-63.23299,22.19953,5.07541,56.6083,-24.46822,-7.26636,4.37667,-1.4232,-0.20383,4.36593,-4.8146,-1.50861,0.9405,-1.8053,-0.24335,2.9872,0.90331,-0.22307,0.18572,-0.15866,-0.03342,0.3189,-0.00595,-0.04876
2157,2.22651,-0.62864,0.77613,17.82013,6.97598,1.0989,-2.80979,-4.99195,-0.01136,-15.38318,59.32961,9.56125,-3.58711,12.46251,-1.16984,-34.71651,17.95511,4.0688,-63.28572,20.55968,5.96278,59.04699,-27.32652,-5.88785,3.58934,-1.33345,-0.18183,4.59949,-4.61546,-1.26001,1.07604,-1.86821,-0.35028,2.85839,0.9432,-0.25773,0.17352,-0.1844,-0.03094,0.3098,0.02913,-0.06473
2158,2.30208,-1.19432,0.95402,18.62652,6.02134,0.87978,-2.77462,-6.56666,1.09291,-16.49058,59.05386,9.05785,-3.59755,12.32558,-1.19159,-31.80685,16.34594,3.77754,-62.99841,19.66755,7.37869,60.03184,-28.35776,-4.42649,3.11739,-1.57267,-0.46638,4.5631,-4.32491,-0.96696,1.24183,-1.8318,-0.49731,2.67469,0.87146,-0.20427,0.1693,-0.20498,-0.0362,0.30013,0.04991,-0.06721
2159,2.46784,-1.70848,1.12076,19.53005,5.2906,0.6951,-2.94713,-7.09018,2.16868,-17.21088,58.86905,8.76243,-3.58715,12.18527,-1.19895,-29.03391,14.83379,3.51788,-63.19327,20.0629,8.77182,58.93196,-27.02054,-3.77223,3.13397,-1.99502,-0.93745,4.30432,-4.03387,-0.72908,1.41488,-1.72642,-0.66317,2.53428,0.7158,-0.07651,0.18333,-0.21509,-0.05712,0.30019,0.04174,-0.04941
2160,2.55722,-2.09042,1.24001,20.70883,4.698,0.51881,-3.57143,-6.57444,2.75836,-17.07046,58.77133,8.73481,-3.544,12.06178,-1.19559,-26.47101,13.45248,3.27168,-63.80499,21.23037,9.40613,55.75919,-23.66411,-4.31198,3.66274,-2.33561,-1.38156,4.01896,-3.86945,-0.55688,1.57693,-1.58624,-0.80548,2.49135,0.50767,0.09619,0.22343,-0.2029,-0.09466,0.31312,-0.00151,-0.01105
2161,2.44909,-2.31836,1.29627,22.232,4.05464,0.33732,-4.53947,-5.55122,2.65449,-16.14197,58.22339,8.81745,-3.47424,11.96438,-1.18853,-24.14037,12.21799,3.02783,-64.36607,21.7802,8.84408,51.55891,-19.38547,-5.62395,4.53229,-2.43251,-1.57438,3.91499,-3.89465,-0.43718,1.66946,-1.48931,-0.83843,2.562,0.30591,0.26016,0.27546,-0.17592,-0.12688,0.33951,-0.06557,0.03452
2162,2.19283,-2.39221,1.28659,23.92771,3.16386,0.15445,-5.36754,-4.53074,2.0698,-15.01152,56.46219,8.67922,-3.39834,11.88407,-1.18518,-22.02361,11.10953,2.78739,-64.52842,20.41222,7.20055,48.03063,-15.47121,-6.75928,5.4062,-2.31612,-1.42437,4.00086,-4.02301,-0.4283,1.66103,-1.54799,-0.7312,2.69217,0.20336,0.32198,0.31677,-0.16499,-0.13368,0.36406,-0.11325,0.05628
2163,1.95969,-2.35537,1.20272,25.50762,2.00833,-0.01117,-5.36311,-3.90083,1.31832,-14.25265,53.32278,8.16463,-3.33599,11.8088,-1.19483,-20.08178,10.09541,2.56205,-63.88981,16.80401,5.12366,46.61982,-12.77314,-6.9676,5.92291,-2.09182,-1.03844,4.08516,-4.09708,-0.61939,1.58043,-1.76096,-0.55602,2.80258,0.26696,0.22151,0.33023,-0.18175,-0.1182,0.36586,-0.11169,0.03185
2164,1.92806,-2.30723,1.03785,26.76912,0.83078,-0.14113,-3.99535,-3.80905,0.52218,-13.84856,49.80517,7.55236,-3.29318,11.73647,-1.21926,-18.2834,9.15956,2.3667,-61.55717,12.40087,3.47266,47.15495,-11.60674,-6.182,5.90791,-1.84307,-0.5864,4.01153,-4.06603,-0.97288,1.46399,-2.01138,-0.38413,2.87125,0.4557,0.03193,0.30689,-0.21043,-0.08678,0.34979,-0.06479,-0.02088
2165,2.12658,-2.33957,0.82418,27.66781,-0.04373,-0.23967,-1.63131,-4.01204,-0.27255,-13.36031,47.53687,7.28663,-3.26359,11.66436,-1.25163,-16.61982,8.29475,2.20747,-57.40814,9.78175,2.79842,48.2547,-11.79935,-5.09966,5.48617,-1.63028,-0.18133,3.79663,-3.98764,-1.32792,1.31569,-2.17753,-0.21538,2.9293,0.65967,-0.10819,0.24699,-0.22939,-0.03592,0.33945,-0.00225,-0.06447
2166,2.39316,-2.45539,0.63429,28.31791,-0.48677,-0.335,0.40128,-4.18434,-0.91687,-12.48753,47.44356,7.51743,-3.23867,11.58554,-1.2848,-15.0938,7.49281,2.07593,-53.14078,10.23529,3.07289,48.70027,-12.45396,-4.77847,4.99668,-1.51562,0.08141,3.54223,-3.93837,-1.5521,1.12111,-2.17068,-0.03969,2.95635,0.79917,-0.14227,0.16248,-0.21911,0.02712,0.33475,0.05064,-0.08115
2167,2.53155,-2.61653,0.54984,28.79548,-0.64707,-0.44874,0.81732,-4.32774,-1.16751,-11.50212,49.01287,7.96144,-3.21244,11.49703,-1.30988,-13.71508,6.74235,1.95843,-51.17422,12.49488,3.84244,48.65467,-12.50683,-5.81958,4.74055,-1.58736,0.09731,3.3737,-3.96227,-1.61593,0.8995,-1.9736,0.10487,2.9087,0.86868,-0.11547,0.08014,-0.1789,0.07773,0.31697,0.08228,-0.07622
2168,2.5002,-2.82939,0.61155,29.05187,-0.78662,-0.58972,-0.66121,-4.62449,-0.82803,-11.00729,50.8349,8.12995,-3.18158,11.40686,-1.32288,-12.49302,6.03608,1.83913,-52.65407,14.32695,4.50051,49.15852,-11.51541,-7.77941,4.79988,-1.91144,-0.16153,3.40737,-4.05832,-1.54465,0.7241,-1.68728,0.16417,2.78844,0.90124,-0.09393,0.03412,-0.1381,0.09503,0.28143,0.09121,-0.06142
2169,2.41256,-3.11315,0.78181,29.01844,-1.09623,-0.74023,-3.19195,-4.9753,0.00826,-11.30669,51.63648,7.7744,-3.14497,11.33499,-1.32685,-11.43144,5.39132,1.71579,-56.3761,14.79758,4.60784,50.79411,-10.06128,-9.4972,5.03316,-2.39921,-0.6027,3.67836,-4.18784,-1.39087,0.67483,-1.44261,0.10053,2.64686,0.92693,-0.11966,0.0451,-0.12462,0.07052,0.24463,0.08571,-0.051
2170,2.38469,-3.44757,0.95444,28.76895,-1.58258,-0.85368,-5.39195,-5.13221,0.83677,-12.09774,50.94022,7.14851,-3.10838,11.31254,-1.33142,-10.53773,4.85243,1.60451,-59.65117,14.26442,4.155,53.15646,-9.16915,-9.97988,5.20353,-2.79966,-1.05153,4.06517,-4.28072,-1.23129,0.77805,-1.30139,-0.0842,2.53285,0.95382,-0.20044,0.10598,-0.13619,0.00841,0.22466,0.07964,-0.05851
2171,2.42667,-3.8341,1.04631,28.49902,-2.03241,-0.89302,-6.17037,-5.21746,1.17196,-12.8233,49.30972,6.75117,-3.09004,11.36893,-1.35182,-9.82018,4.45976,1.52494,-60.37745,13.39773,3.64302,54.95063,-9.44031,-8.94595,5.15015,-2.88106,-1.30166,4.36145,-4.29035,-1.1276,0.97711,-1.27293,-0.30358,2.49588,0.9695,-0.27991,0.18526,-0.15572,-0.06278,0.23685,0.07846,-0.07653
2172,2.49737,-4.29557,1.07065,28.30009,-2.22088,-0.86982,-5.35856,-5.70873,1.12812,-13.30322,47.90796,6.79819,-3.10612,11.51062,-1.39813,-9.27296,4.20023,1.48343,-58.484,12.8235,3.83234,55.20142,-10.60879,-6.79686,4.85511,-2.60539,-1.23064,4.39333,-4.21448,-1.08005,1.20214,-1.36259,-0.44359,2.55141,0.9471,-0.26039,0.25614,-0.17885,-0.10464,0.28199,0.07262,-0.075
2173,2.51774,-4.73235,1.09351,28.07761,-2.14067,-0.83273,-3.9937,-6.75857,1.20553,-13.89509,47.35014,7.03106,-3.16061,11.72408,-1.46471,-8.87106,4.01806,1.46497,-56.2293,12.56999,4.89627,53.86354,-11.8303,-4.27465,4.45047,-2.12929,-0.90522,4.17838,-4.10544,-1.04004,1.44339,-1.56305,-0.47607,2.64579,0.86936,-0.11679,0.31738,-0.20991,-0.10582,0.33563,0.05026,-0.03883
2174,2.40241,-4.95488,1.12814,27.75077,-1.97511,-0.80351,-3.4649,-7.97435,1.51646,-14.71165,47.08924,7.15,-3.2527,11.99276,-1.5379,-8.57263,3.87199,1.45489,-55.81826,11.77621,6.06993,51.72863,-12.66911,-2.10974,4.11287,-1.63725,-0.50917,3.9745,-4.02494,-0.93953,1.69084,-1.80734,-0.45269,2.70196,0.75528,0.06006,0.36967,-0.24179,-0.0839,0.36762,0.01341,0.01051
2175,2.19847,-4.91568,1.11926,27.38338,-1.93831,-0.75928,-3.9383,-8.80103,1.64371,-15.39171,46.099,7.14754,-3.37498,12.30173,-1.60374,-8.33619,3.76366,1.45322,-56.72486,9.87461,6.55222,49.56531,-13.51215,-0.65614,3.97207,-1.23311,-0.18034,4.09912,-3.98303,-0.70054,1.87668,-2.01705,-0.41865,2.66866,0.6551,0.16032,0.39854,-0.26122,-0.06035,0.36282,-0.02237,0.04255
2176,2.05771,-4.77262,1.03888,27.06171,-2.12872,-0.68988,-4.43031,-8.85904,1.34925,-15.59007,44.04668,7.08576,-3.51212,12.6173,-1.65436,-8.13171,3.70003,1.46466,-56.70544,7.67413,6.22203,47.8251,-14.70665,0.16178,4.02427,-0.92863,0.04859,4.59712,-3.91252,-0.30851,1.91526,-2.14115,-0.38162,2.52239,0.60595,0.14724,0.38748,-0.25999,-0.04666,0.3243,-0.04256,0.04726
2177,2.0448,-4.71088,0.93943,26.82429,-2.46725,-0.62381,-4.36383,-8.03068,0.96684,-15.26938,41.70338,6.88474,-3.65103,12.88886,-1.69405,-7.93348,3.65475,1.49822,-54.95644,6.8334,5.41031,46.40139,-15.45528,0.56093,4.14409,-0.71244,0.20551,5.19914,-3.77511,0.08044,1.78003,-2.16886,-0.32728,2.33564,0.62799,0.04979,0.33695,-0.23956,-0.04236,0.27979,-0.04053,0.0308
2178,2.06784,-4.79359,0.88799,26.61941,-2.77175,-0.58643,-4.13998,-6.7338,0.85117,-14.52402,40.11082,6.56333,-3.7887,13.10032,-1.72939,-7.72472,3.59246,1.55385,-52.40451,8.08308,4.55608,45.13475,-14.221,0.52904,4.17113,-0.60195,0.28473,5.50951,-3.63801,0.2112,1.54078,-2.09581,-0.26416,2.23157,0.72652,-0.06761,0.26804,-0.20522,-0.04361,0.25901,-0.01829,0.00823
2179,2.00179,-5.0243,0.90404,26.27929,-2.89134,-0.55557,-4.47352,-5.88051,0.89304,-13.54513,39.59402,6.38646,-3.92988,13.2865,-1.75738,-7.50305,3.50459,1.61926,-50.2162,10.44042,3.96484,44.06545,-10.43801,-0.26924,4.06527,-0.64,0.22485,5.25674,-3.60541,-0.05807,1.31223,-1.91016,-0.23115,2.2494,0.87778,-0.14019,0.21227,-0.16179,-0.05228,0.259,0.01653,-0.00493
2180,1.80815,-5.43204,0.97839,25.61527,-2.80099,-0.49186,-5.86954,-6.22305,0.83831,-12.67017,39.65835,6.54914,-4.07699,13.49012,-1.7735,-7.27108,3.40553,1.67737,-49.34262,12.10812,3.57525,43.34291,-5.65068,-2.22168,4.01062,-0.87363,-0.00488,4.50902,-3.71335,-0.64975,1.16541,-1.64671,-0.2444,2.33672,1.04064,-0.15996,0.19268,-0.11964,-0.06987,0.2557,0.05708,-0.01008
2181,1.61501,-6.05992,1.10229,24.55955,-2.64181,-0.39534,-7.99024,-7.86181,0.69822,-12.34797,39.49881,6.8981,-4.22574,13.7282,-1.77055,-7.03286,3.30259,1.70698,-49.95207,11.81854,3.27059,43.17733,-2.65584,-5.1896,4.24037,-1.29313,-0.32402,3.67109,-3.86659,-1.28172,1.10235,-1.41585,-0.26836,2.45672,1.16271,-0.1494,0.21248,-0.0976,-0.08868,0.24626,0.09423,-0.01838
2182,1.61322,-6.92547,1.26363,23.18576,-2.5935,-0.29566,-9.72669,-10.29051,0.65035,-12.91112,38.66945,7.1183,-4.374,13.99112,-1.74392,-6.799,3.18948,1.69969,-51.13762,9.66089,3.15027,43.62381,-3.11971,-8.1965,4.71153,-1.77482,-0.57191,3.18749,-3.90915,-1.61767,1.11229,-1.35124,-0.26195,2.6181,1.186,-0.09493,0.2549,-0.11164,-0.09467,0.25082,0.1104,-0.02568
2183,1.88187,-7.95126,1.43464,21.68017,-2.70046,-0.21853,-10.18792,-12.64775,0.76701,-14.25291,37.34943,7.04757,-4.52056,14.26106,-1.69813,-6.58221,3.05739,1.66653,-51.74661,6.91864,3.27672,44.73046,-6.07106,-9.95784,5.10139,-2.12365,-0.6184,3.18388,-3.73733,-1.51029,1.1746,-1.49564,-0.21365,2.78799,1.08553,0.0186,0.28813,-0.15676,-0.07804,0.27561,0.09455,-0.02084
2184,2.29706,-8.97332,1.58334,20.26593,-2.85643,-0.16494,-9.51287,-14.30604,0.94763,-15.70732,35.98191,6.80378,-4.66424,14.52839,-1.64772,-6.38903,2.91106,1.62775,-51.1412,4.8576,3.55682,46.26033,-8.7765,-9.78521,5.14581,-2.2443,-0.47987,3.42253,-3.37519,-1.11517,1.24893,-1.74735,-0.14174,2.88668,0.90306,0.15007,0.28511,-0.20717,-0.04043,0.3041,0.05647,-0.00691
2185,2.57857,-9.86176,1.71288,19.08241,-2.91345,-0.10706,-8.88775,-15.33087,1.05777,-16.48103,34.80169,6.64992,-4.80563,14.79798,-1.6047,-6.21679,2.77412,1.60631,-49.58649,3.82986,3.83135,47.44331,-9.03371,-8.0715,4.96271,-2.22894,-0.3072,3.64192,-2.99487,-0.71649,1.26083,-1.91625,-0.06049,2.88418,0.71925,0.23274,0.23875,-0.22988,0.00604,0.32061,0.01556,0.00318
2186,2.49346,-10.60756,1.85886,18.12678,-2.80134,-0.01807,-9.61429,-16.23389,1.09559,-16.23798,33.72734,6.71378,-4.9449,15.08395,-1.57687,-6.05738,2.66999,1.61701,-47.96695,3.53348,3.95152,47.08561,-6.58521,-5.96459,4.88541,-2.22725,-0.26903,3.80646,-2.80066,-0.50567,1.14919,-1.83135,0.01623,2.81718,0.6165,0.21153,0.16195,-0.19662,0.04233,0.32632,-0.00971,-0.00308
2187,2.06555,-11.26282,2.04734,17.27548,-2.5847,0.09405,-11.88051,-17.28027,1.24666,-15.41201,32.57989,6.82102,-5.07374,15.39014,-1.56545,-5.8978,2.598,1.65541,-47.04644,3.71708,3.895,44.57981,-3.05213,-4.50292,5.08916,-2.30529,-0.41659,4.06591,-2.90846,-0.48953,0.96253,-1.50282,0.06046,2.71593,0.65161,0.06884,0.09092,-0.11318,0.05196,0.32666,-0.00583,-0.0283
2188,1.55349,-11.83975,2.2661,16.41825,-2.43025,0.1892,-14.67475,-18.09182,1.73759,-14.78911,31.21175,6.63168,-5.18317,15.7058,-1.56319,-5.72408,2.53032,1.70195,-46.90475,4.52918,3.69133,41.26655,-0.76268,-3.91452,5.36489,-2.3882,-0.64316,4.48352,-3.27029,-0.54584,0.85876,-1.151,0.03356,2.57224,0.80491,-0.13672,0.0715,-0.03188,0.0312,0.31966,0.02317,-0.05626
2189,1.25553,-12.33922,2.46338,15.47393,-2.46647,0.24225,-16.64007,-18.28189,2.54718,-15.01154,29.51988,5.99849,-5.27637,16.02333,-1.56441,-5.54596,2.44713,1.7357,-47.10075,5.77973,3.4654,39.37434,-1.15165,-3.64572,5.31355,-2.30528,-0.7638,4.89789,-3.75388,-0.59026,0.94164,-1.01567,-0.07231,2.37482,0.98363,-0.31049,0.11573,-0.00801,-0.00789,0.29327,0.0547,-0.06662
2190,1.27304,-12.83917,2.58854,14.38574,-2.65765,0.27721,-17.0449,-18.25779,3.29694,-16.24777,27.55852,5.20742,-5.37367,16.35092,-1.56782,-5.40254,2.36289,1.74572,-47.28977,6.26027,3.51317,40.27539,-3.88826,-3.06702,4.74098,-1.93952,-0.67929,5.0468,-4.22134,-0.65668,1.14546,-1.12948,-0.21906,2.1485,1.09241,-0.40034,0.18228,-0.04548,-0.04625,0.23689,0.0667,-0.05706
2191,1.4406,-13.47978,2.63846,13.16819,-2.84549,0.34449,-16.22859,-18.80142,3.55683,-17.92051,25.53697,4.75776,-5.5041,16.6989,-1.57322,-5.33615,2.31191,1.73895,-47.20166,4.87783,3.93041,43.06404,-7.27424,-2.05676,3.83738,-1.36733,-0.4494,4.78044,-4.52719,-0.83104,1.33619,-1.34173,-0.34968,1.98898,1.10599,-0.40765,0.22004,-0.10502,-0.06736,0.1687,0.05659,-0.04106
2192,1.49853,-14.30728,2.66322,11.96708,-2.89623,0.46196,-15.13316,-20.08575,3.33265,-18.75466,23.72541,4.88505,-5.67761,17.05258,-1.57925,-5.34683,2.31186,1.73606,-45.9509,2.10576,4.47582,45.77571,-9.58492,-1.06269,3.02763,-0.83662,-0.21487,4.17634,-4.54628,-1.13149,1.47274,-1.50779,-0.41919,2.02138,1.06879,-0.34663,0.22356,-0.15321,-0.06063,0.13657,0.03844,-0.02841
2193,1.30605,-15.14593,2.71265,10.96656,-2.75672,0.60182,-14.50536,-21.50491,3.08104,-17.78688,22.45661,5.37987,-5.87394,17.36814,-1.5852,-5.38279,2.34311,1.76061,-42.71581,-0.27384,5.02974,46.96796,-9.86779,-0.74409,2.70845,-0.60358,-0.10556,3.44546,-4.25669,-1.45343,1.58326,-1.56116,-0.41716,2.25042,1.01813,-0.22262,0.22356,-0.17606,-0.03114,0.16377,0.02298,-0.01568
2194,0.84003,-15.68219,2.78592,10.23417,-2.47175,0.73272,-14.71848,-22.20611,3.10167,-15.24604,21.77111,5.85204,-6.07091,17.62152,-1.58495,-5.39852,2.38367,1.82498,-38.06578,-0.71758,5.48381,46.0951,-8.00771,-1.53872,3.02759,-0.76025,-0.18141,2.81947,-3.80877,-1.6687,1.62434,-1.47596,-0.36511,2.5379,0.96837,-0.06863,0.23746,-0.16699,-0.00466,0.22201,0.0158,-0.00183
2195,0.16307,-15.77912,2.84736,9.64072,-2.16857,0.85347,-15.82744,-21.96041,3.17425,-12.45513,21.10904,6.04196,-6.25911,17.84305,-1.56182,-5.40746,2.43815,1.9207,-33.84297,0.68848,5.41843,42.94629,-4.60111,-3.30619,3.81989,-1.18117,-0.36741,2.45202,-3.44517,-1.74861,1.48383,-1.29134,-0.27147,2.72106,0.94348,0.03893,0.25036,-0.13237,-0.0019,0.26541,0.02603,0.00072
2196,-0.52583,-15.66496,2.8766,9.00681,-1.9415,0.97658,-17.41831,-21.49995,2.99138,-10.76065,19.87609,5.91215,-6.43028,18.07812,-1.50658,-5.45282,2.51406,2.02452,-31.53774,2.36073,4.51974,37.69186,-0.9766,-5.31907,4.69777,-1.60913,-0.48106,2.4055,-3.32067,-1.6785,1.08751,-1.08855,-0.10289,2.71709,0.93735,0.06786,0.22923,-0.08825,-0.01229,0.27236,0.05159,-0.01187
2197,-1.00485,-15.73122,2.90391,8.23449,-1.79433,1.10284,-19.01243,-21.87663,2.67818,-10.83749,18.1261,5.55762,-6.57015,18.34641,-1.43024,-5.55376,2.59546,2.11532,-31.78259,2.75681,3.1218,31.45381,0.96749,-6.55524,5.267,-1.8344,-0.39429,2.73335,-3.39379,-1.39738,0.54188,-0.95756,0.13799,2.57299,0.92645,0.04979,0.16422,-0.05096,-0.01276,0.26456,0.07971,-0.02776
2198,-1.22414,-16.17706,2.97655,7.30531,-1.68641,1.21905,-20.47229,-23.452,2.63065,-12.3924,16.42904,5.16125,-6.67123,18.64871,-1.35739,-5.70384,2.66429,2.17996,-34.04762,1.79442,1.97161,26.39983,-0.11327,-6.1715,5.42172,-1.81027,-0.11568,3.53903,-3.51635,-0.85946,0.1192,-1.01949,0.36521,2.42567,0.92277,0.0117,0.09409,-0.03804,-0.00133,0.28358,0.10419,-0.03839
2199,-1.31155,-16.85548,3.09592,6.2639,-1.5829,1.30694,-21.71922,-25.50218,3.04812,-14.44735,15.28515,4.89066,-6.74412,18.97976,-1.31132,-5.89175,2.72102,2.21236,-36.63633,0.89496,1.6735,24.11516,-3.5783,-3.99275,5.36215,-1.61389,0.24581,4.83488,-3.5844,-0.11682,0.06636,-1.35246,0.46673,2.37169,0.95706,-0.0603,0.07528,-0.05538,0.00141,0.34411,0.12625,-0.04889
2200,-1.42446,-17.46798,3.23098,5.19543,-1.48513,1.3428,-22.63053,-26.91076,3.82982,-15.94127,14.85007,4.74101,-6.80522,19.30986,-1.28954,-6.10744,2.77336,2.2126,-37.85762,1.61716,2.31034,24.62608,-6.97665,-0.82907,5.3319,-1.33202,0.55992,6.30679,-3.60406,0.64339,0.40541,-1.84398,0.40785,2.3813,1.01814,-0.1748,0.12365,-0.08148,-0.01636,0.41329,0.14069,-0.06427
2201,-1.61531,-17.86378,3.34345,4.18956,-1.43681,1.31338,-23.06731,-27.24965,4.67438,-16.29895,14.91711,4.54694,-6.86672,19.59773,-1.27419,-6.34321,2.82646,2.19263,-36.96434,3.95388,3.41401,27.04506,-8.1969,1.87785,5.38774,-1.03115,0.73449,7.30005,-3.61513,1.16289,0.94715,-2.24893,0.24938,2.34965,1.03468,-0.26684,0.20552,-0.08896,-0.04204,0.43582,0.12971,-0.06883
2202,-1.816,-18.1357,3.39186,3.29094,-1.4294,1.24749,-22.80746,-27.11351,5.15471,-15.43228,15.06705,4.25795,-6.94658,19.84623,-1.25407,-6.6178,2.90369,2.17603,-33.54581,6.13856,4.29039,30.02214,-7.18711,2.93144,5.39932,-0.80478,0.7089,7.24437,-3.63532,1.24911,1.45803,-2.38346,0.06195,2.19997,0.94883,-0.24728,0.27975,-0.07568,-0.0604,0.37574,0.0823,-0.04006
2203,-1.96679,-18.42678,3.34781,2.40919,-1.32147,1.21173,-21.84513,-27.30297,4.94528,-13.8225,15.06564,4.08988,-7.06476,20.11281,-1.23229,-6.9807,3.04895,2.17873,-27.95363,6.57288,4.59605,32.47724,-5.28478,2.00537,5.21238,-0.7749,0.45516,6.16195,-3.64055,0.88281,1.77237,-2.21172,-0.11663,1.97268,0.79957,-0.12693,0.32168,-0.06182,-0.06666,0.25574,0.01591,0.01507
2204,-2.12697,-18.76645,3.22821,1.40927,-0.9586,1.2571,-20.80633,-28.01126,4.15193,-12.25857,14.97264,4.27785,-7.21364,20.42606,-1.22456,-7.45928,3.28464,2.19875,-21.99424,5.46037,4.56295,33.8304,-3.5897,-0.3469,4.81292,-1.0123,0.04449,4.71028,-3.61523,0.24612,1.79378,-1.82849,-0.23253,1.81801,0.68464,-0.01353,0.31421,-0.06908,-0.05311,0.15293,-0.03531,0.05925
2205,-2.37774,-19.05756,3.08522,0.25655,-0.43469,1.35946,-20.69072,-28.64155,3.30648,-11.31009,14.54938,4.65949,-7.35353,20.71206,-1.24307,-8.01176,3.5759,2.21511,-18.25398,4.11438,4.3188,34.19067,-2.25823,-3.12687,4.39593,-1.46529,-0.36299,3.66305,-3.58541,-0.37007,1.52277,-1.40883,-0.22701,1.87055,0.66357,0.01841,0.25642,-0.10661,-0.01281,0.13377,-0.05136,0.06603
2206,-2.69331,-19.17827,2.96183,-0.98064,-0.10781,1.43608,-22.09621,-28.53193,2.92747,-11.04656,12.98358,4.72601,-7.4454,20.86252,-1.28241,-8.56485,3.8539,2.20146,-18.13607,3.19404,3.45439,33.90082,-0.8914,-5.32042,4.19209,-1.9628,-0.61276,3.34336,-3.60371,-0.7531,1.0818,-1.11985,-0.0959,2.09138,0.7314,-0.02278,0.17277,-0.16413,0.04595,0.18709,-0.03249,0.04007
2207,-3.01769,-19.19736,2.88188,-2.16788,-0.17859,1.43943,-24.79097,-28.08556,3.12657,-11.19448,10.02053,4.23895,-7.49107,20.84656,-1.32567,-9.06977,4.07235,2.15554,-20.92663,2.21548,1.88491,32.6559,0.67216,-6.15335,4.23213,-2.29166,-0.64375,3.5793,-3.70345,-0.86582,0.65205,-1.01866,0.09371,2.31354,0.84458,-0.09786,0.09535,-0.21223,0.09973,0.24621,0.0096,-0.0004
2208,-3.39517,-19.37539,2.85323,-3.13801,-0.42741,1.3949,-27.9986,-28.53726,3.62418,-11.43606,6.87086,3.54447,-7.52687,20.71471,-1.36513,-9.51717,4.2279,2.09959,-24.69893,0.89406,0.43717,29.7865,1.85711,-5.33578,4.38413,-2.31323,-0.50005,4.01528,-3.83788,-0.77581,0.36781,-1.05747,0.24614,2.40601,0.93447,-0.17194,0.04796,-0.22573,0.12179,0.2636,0.05372,-0.03974
2209,-3.88106,-19.85345,2.8455,-3.86134,-0.45827,1.35542,-30.68174,-30.53575,4.03355,-11.60766,5.22775,3.14138,-7.58254,20.5468,-1.41159,-9.93272,4.34487,2.0568,-27.27966,-0.14819,-0.00912,25.42067,1.70176,-3.18888,4.51446,-2.03496,-0.26829,4.38192,-3.90037,-0.56428,0.26339,-1.17381,0.30297,2.3448,0.94374,-0.22477,0.04065,-0.2099,0.10151,0.24342,0.07852,-0.06799
2210,-4.44767,-20.47298,2.8149,-4.44868,-0.06806,1.34103,-32.04498,-33.47659,4.17306,-11.59838,5.76124,3.15408,-7.65432,20.40745,-1.47186,-10.34351,4.45454,2.03329,-27.19754,-0.10412,0.5776,21.18425,-0.29047,-0.49752,4.60213,-1.5988,-0.01732,4.5962,-3.83982,-0.32152,0.28845,-1.33367,0.28217,2.19322,0.88357,-0.26503,0.06876,-0.19234,0.05469,0.21755,0.07961,-0.08378
2211,-5.08558,-20.97904,2.75681,-5.08922,0.57886,1.33021,-32.27156,-36.14244,4.1368,-11.58136,7.7141,3.3193,-7.71276,20.31575,-1.53665,-10.75187,4.57406,2.01681,-25.22083,1.18074,1.57585,19.15176,-3.79865,1.88845,4.642,-1.17845,0.18588,4.70981,-3.73154,-0.12655,0.37528,-1.46951,0.2312,2.03676,0.81164,-0.30675,0.11378,-0.18356,0.00824,0.207,0.06772,-0.08999
2212,-5.85109,-21.22591,2.6929,-6.00837,1.10932,1.30312,-32.24408,-37.53725,4.06738,-11.95857,9.50373,3.34159,-7.73331,20.27289,-1.5959,-11.16156,4.71794,1.99224,-23.4601,3.07774,2.32237,20.227,-8.05684,3.38601,4.6374,-0.88963,0.28971,4.82744,-3.74062,-0.01197,0.4775,-1.50272,0.18664,1.95371,0.76698,-0.33702,0.15021,-0.16799,-0.01855,0.21517,0.05238,-0.08676
2213,-6.71307,-21.22509,2.62938,-7.32737,1.25973,1.26188,-32.51606,-37.21125,4.00831,-12.78988,9.78357,3.12871,-7.70911,20.27939,-1.64836,-11.59303,4.89301,1.95044,-22.69232,4.96191,2.45657,23.24774,-12.12785,3.76087,4.63495,-0.77365,0.27969,5.05719,-3.98217,0.05774,0.60071,-1.43913,0.15024,2.01056,0.7405,-0.3179,0.16565,-0.13499,-0.02362,0.24165,0.03332,-0.07103
2214,-7.50232,-21.12957,2.55006,-8.84164,1.0528,1.21494,-33.03037,-35.31049,3.93738,-13.6062,8.28271,2.76689,-7.65218,20.30817,-1.69942,-12.04365,5.0824,1.89115,-22.09284,6.90676,1.9211,25.92341,-14.8026,2.98016,4.71987,-0.79732,0.16222,5.39694,-4.35927,0.17606,0.77113,-1.33544,0.09096,2.17601,0.69021,-0.22009,0.16805,-0.08967,-0.02183,0.27471,0.00848,-0.04253
2215,-8.06807,-21.18518,2.44134,-10.13699,0.73072,1.17408,-33.49787,-32.83403,3.79395,-13.89881,5.64443,2.37716,-7.59803,20.31884,-1.7532,-12.4906,5.26352,1.82705,-20.85647,8.68477,0.79051,26.65508,-14.9226,1.17105,4.94962,-0.87909,-0.01493,5.68017,-4.5877,0.39523,0.96952,-1.24642,0.0011,2.3151,0.6005,-0.06279,0.17145,-0.04902,-0.02577,0.28892,-0.01379,-0.00983
2216,-8.40158,-21.54508,2.31126,-10.99856,0.58237,1.14722,-33.69949,-31.36332,3.56954,-13.48748,2.80118,2.00442,-7.57964,20.30972,-1.8111,-12.9339,5.42681,1.76684,-18.77581,9.04405,-0.74217,25.80952,-12.14675,-1.22687,5.28087,-0.97456,-0.1759,5.67789,-4.43954,0.64265,1.14795,-1.23635,-0.09095,2.31689,0.50154,0.09774,0.18738,-0.04011,-0.03518,0.2714,-0.02079,0.01585
2217,-8.63371,-22.11112,2.19429,-11.48705,0.80458,1.13255,-33.60504,-31.92722,3.40044,-12.50115,0.80811,1.67383,-7.59642,20.29695,-1.86695,-13.37962,5.5709,1.71278,-16.12843,7.24154,-2.06218,24.81296,-7.35877,-3.37024,5.56655,-1.11301,-0.29009,5.32608,-3.97101,0.79336,1.27558,-1.33302,-0.16472,2.19355,0.43184,0.21541,0.21903,-0.07565,-0.04737,0.23815,-0.01228,0.03236
2218,-8.94802,-22.59719,2.11205,-11.83595,1.40526,1.12228,-33.49875,-34.08453,3.38767,-11.47513,0.56493,1.48557,-7.62233,20.27648,-1.91475,-13.81687,5.69732,1.66236,-13.92363,4.66352,-2.40224,24.36854,-2.31508,-4.25933,5.61519,-1.32639,-0.38467,4.81707,-3.45963,0.80125,1.35282,-1.47078,-0.22114,2.02445,0.41137,0.26491,0.25646,-0.13421,-0.05968,0.21156,0.00196,0.04204
2219,-9.48071,-22.77463,2.04967,-12.33401,2.17489,1.11641,-33.88263,-36.49457,3.40152,-11.04522,1.97337,1.52817,-7.62976,20.24529,-1.95443,-14.23616,5.82219,1.6161,-13.23481,3.24134,-1.73274,24.10102,1.02805,-3.32347,5.33499,-1.59248,-0.45981,4.45394,-3.15876,0.72523,1.38873,-1.57788,-0.2462,1.87602,0.44622,0.23624,0.28314,-0.18633,-0.06196,0.20068,0.01559,0.04412
2220,-10.31391,-22.65644,1.99226,-13.18201,2.76867,1.1058,-35.34919,-38.06639,3.28764,-11.58748,3.79032,1.6642,-7.59961,20.20474,-1.99338,-14.63394,5.95969,1.57343,-14.76033,3.42736,-0.95445,23.74122,1.32246,-0.96214,4.76397,-1.82513,-0.48956,4.45187,-3.17466,0.64403,1.39229,-1.63353,-0.23791,1.83189,0.53305,0.15786,0.29033,-0.2193,-0.0508,0.21296,0.02511,0.04266
2221,-11.45765,-22.44746,1.95853,-14.24728,2.90443,1.05822,-38.21646,-38.45338,3.17255,-12.91658,4.74152,1.55337,-7.5216,20.12247,-2.04147,-14.97226,6.08807,1.53683,-18.5892,4.62025,-0.95818,23.66551,-1.28398,1.55243,4.07088,-1.91426,-0.47671,4.76108,-3.47506,0.54665,1.37871,-1.63816,-0.23269,1.95543,0.65754,0.07601,0.28158,-0.23253,-0.03938,0.25407,0.02774,0.04498
2222,-12.7037,-22.34526,1.96616,-15.06984,2.57205,0.94972,-41.84608,-38.00985,3.31375,-14.06483,4.39182,0.99038,-7.39663,19.97304,-2.09696,-15.19159,6.17555,1.51299,-23.13387,6.01728,-1.8901,23.91648,-5.21792,2.94954,3.52199,-1.81109,-0.43631,5.13827,-3.97342,0.35288,1.36527,-1.60855,-0.25169,2.2145,0.79691,0.00761,0.26709,-0.23339,-0.03653,0.30973,0.0248,0.04963
2223,-13.66204,-22.43656,1.98754,-15.29683,2.05718,0.81671,-44.64681,-37.66076,3.66243,-13.77594,3.10536,0.28949,-7.25262,19.81119,-2.14036,-15.30319,6.23603,1.50251,-25.13224,6.53181,-3.0912,23.27909,-8.70303,2.80794,3.39741,-1.57015,-0.36412,5.34401,-4.52147,0.06743,1.35398,-1.57743,-0.26042,2.46185,0.90066,-0.05136,0.25612,-0.23216,-0.03329,0.34711,0.01836,0.04875
2224,-14.01097,-22.70979,1.9579,-15.04082,1.75384,0.74522,-45.10998,-38.26582,3.81517,-11.89144,1.68223,0.11027,-7.14014,19.73307,-2.15086,-15.39754,6.32436,1.49262,-22.4433,5.49861,-3.56105,20.58215,-10.944,1.67151,3.83827,-1.2952,-0.24852,5.34756,-4.91362,-0.14267,1.33119,-1.56393,-0.20823,2.56364,0.89866,-0.08919,0.25279,-0.22859,-0.01851,0.34808,0.00646,0.0379
2225,-13.78226,-23.06713,1.84892,-14.7636,1.85963,0.77651,-43.22456,-39.70815,3.56607,-9.78151,0.797,0.67072,-7.09464,19.76357,-2.13027,-15.54107,6.46004,1.46513,-16.63079,3.61369,-2.93112,16.33912,-12.04293,0.45253,4.70182,-1.06465,-0.09886,5.26822,-4.97819,-0.09165,1.27566,-1.55225,-0.08758,2.45645,0.76071,-0.09727,0.25226,-0.2089,0.00425,0.3101,-0.0109,0.01648
2226,-13.39713,-23.36317,1.71552,-14.84748,2.21046,0.8475,-40.67022,-40.94485,3.24436,-8.98109,0.60129,1.42558,-7.1089,19.82752,-2.10438,-15.70412,6.57832,1.40953,-11.56673,2.58767,-1.83004,13.08616,-12.30564,-0.22532,5.58678,-0.92913,0.02939,5.20693,-4.69534,0.24483,1.18201,-1.51673,0.04344,2.16266,0.53764,-0.08372,0.24399,-0.16402,0.01789,0.23729,-0.02744,-0.01059
2227,-13.359,-23.4664,1.62525,-15.30683,2.49517,0.86471,-39.42293,-41.10022,3.21936,-9.96637,0.87852,1.72475,-7.16009,19.84987,-2.10439,-15.81308,6.61072,1.33177,-10.37461,3.61575,-1.09492,13.44454,-12.0043,-0.28772,6.08907,-0.93689,0.06584,5.1349,-4.20094,0.68207,1.07455,-1.47363,0.10895,1.80109,0.32976,-0.05719,0.22005,-0.11222,0.01234,0.15184,-0.03687,-0.0307
2228,-13.80805,-23.36517,1.56995,-15.85546,2.5461,0.80068,-40.1327,-40.22765,3.35562,-12.19285,1.24356,1.44304,-7.24481,19.83353,-2.13984,-15.83028,6.56365,1.24806,-13.64906,6.12992,-1.11529,17.78505,-11.53887,-0.00843,6.07129,-1.10599,-0.00207,4.95967,-3.69683,0.95872,0.98585,-1.47864,0.08937,1.53154,0.21892,-0.02681,0.18119,-0.08915,-0.00168,0.09034,-0.0368,-0.0353
2229,-14.4118,-23.17872,1.48539,-16.20591,2.42259,0.69076,-41.73728,-39.15741,3.25939,-14.50473,1.43722,0.92702,-7.36952,19.83502,-2.19598,-15.76975,6.49366,1.16537,-18.80621,8.39919,-1.61385,23.67549,-11.29698,0.41726,5.69621,-1.36649,-0.11299,4.66198,-3.35237,0.94956,0.94209,-1.56165,0.02487,1.41808,0.2205,-0.01106,0.14043,-0.11069,-0.00764,0.06877,-0.02925,-0.02804
2230,-14.74131,-23.03478,1.34483,-16.26534,2.30428,0.57415,-42.63072,-38.78619,2.85167,-15.74801,1.68631,0.59248,-7.52331,19.90045,-2.25,-15.64903,6.43305,1.0764,-21.74851,9.43175,-1.7269,27.5514,-11.26816,1.10384,5.22173,-1.58227,-0.16688,4.38554,-3.27683,0.77201,0.94631,-1.70256,-0.02219,1.41298,0.28254,-0.00497,0.11597,-0.16213,0.00194,0.07845,-0.0228,-0.01197
2231,-14.6714,-22.99839,1.19073,-16.03165,2.31995,0.45471,-42.24102,-39.39701,2.44817,-15.15461,2.34539,0.56919,-7.67816,20.03471,-2.28913,-15.44234,6.35634,0.96867,-20.00329,9.54083,-1.00135,26.9611,-10.84736,2.27094,4.80402,-1.63821,-0.09299,4.34777,-3.51248,0.65448,0.96975,-1.8436,-0.00866,1.43416,0.33909,0.01549,0.11635,-0.21183,0.02296,0.10461,-0.02759,0.01568
2232,-14.38605,-23.02787,1.07812,-15.52671,2.43974,0.32307,-41.32912,-40.37803,2.36609,-12.82859,3.29905,0.70621,-7.80156,20.2284,-2.31441,-15.09762,6.21656,0.84079,-14.71805,9.60125,-0.01337,21.64478,-9.50725,3.81851,4.49714,-1.48856,0.08543,4.64418,-4.00159,0.69866,0.98329,-1.90172,0.05174,1.42663,0.36777,0.03092,0.13697,-0.22571,0.04023,0.13045,-0.04156,0.04399
2233,-14.16325,-23.02811,1.01949,-14.86428,2.54677,0.20012,-40.98959,-40.85501,2.59045,-9.91739,4.16788,0.94359,-7.87798,20.48858,-2.33531,-14.60015,6.00205,0.70514,-9.47363,10.37178,0.59532,13.63039,-7.76489,5.28241,4.31638,-1.15363,0.28668,5.14589,-4.54926,0.82548,0.97846,-1.82945,0.10775,1.40768,0.38103,0.00127,0.16468,-0.18765,0.03826,0.14779,-0.05115,0.05008
2234,-14.1914,-22.95257,0.98109,-14.29953,2.55019,0.13112,-41.74543,-40.39116,2.82903,-7.95325,4.54759,1.3393,-7.91809,20.83566,-2.36737,-14.01244,5.75242,0.57836,-7.42043,11.88425,0.59154,6.21026,-7.16431,6.14803,4.24835,-0.72235,0.45511,5.58309,-4.88439,0.93773,0.94029,-1.66855,0.13358,1.453,0.37657,-0.03247,0.18017,-0.11634,0.01884,0.16327,-0.04986,0.03486
2235,-14.45436,-22.85083,0.91818,-14.06623,2.3633,0.11871,-43.23274,-39.17137,2.83302,-7.82837,3.99112,1.68713,-7.93583,21.26682,-2.4253,-13.41483,5.51046,0.46823,-9.19743,13.20463,-0.24007,2.55732,-8.76657,6.09217,4.24739,-0.34819,0.5778,5.72771,-4.82322,1.00773,0.82237,-1.5135,0.15353,1.59072,0.34925,0.012,0.1647,-0.05562,0.00099,0.17888,-0.04161,0.02439
2236,-14.83179,-22.84929,0.81238,-14.16415,1.91327,0.09971,-44.68862,-37.91996,2.60032,-9.37249,2.47853,1.57612,-7.92379,21.72783,-2.52154,-12.83137,5.27198,0.36808,-13.28989,13.36194,-1.80389,3.97096,-11.72196,5.02787,4.30467,-0.21262,0.63008,5.52871,-4.4173,0.98693,0.6231,-1.45788,0.18818,1.77705,0.33533,0.12327,0.12399,-0.04918,-0.00094,0.19122,-0.02851,0.03037
2237,-15.25341,-23.02452,0.67631,-14.37373,1.2293,0.01295,-45.57055,-37.41747,2.23626,-11.57018,0.39413,0.82326,-7.86743,22.16394,-2.65463,-12.2494,5.0094,0.26477,-17.30601,11.93421,-3.50842,9.55052,-13.92048,3.17282,4.45572,-0.41295,0.56236,5.13562,-3.95015,0.79358,0.45084,-1.54115,0.20863,1.98211,0.38048,0.2064,0.09819,-0.11049,0.00597,0.20983,-0.01281,0.04033
2238,-15.73172,-23.28015,0.52514,-14.46859,0.51922,-0.12556,-45.82897,-37.86069,1.76736,-13.13926,-1.86766,-0.3039,-7.77804,22.59043,-2.81046,-11.68548,4.72766,0.15527,-19.17197,9.0174,-4.82605,16.64379,-13.95737,1.12965,4.68596,-0.85095,0.37735,4.73071,-3.68992,0.42899,0.43512,-1.71377,0.17811,2.1719,0.4723,0.19624,0.12401,-0.20635,0.00527,0.2417,-0.00253,0.04007
2239,-16.30852,-23.48222,0.38126,-14.31373,0.0548,-0.25875,-45.90535,-39.01311,1.23172,-13.13515,-3.76655,-1.2681,-7.69162,23.06069,-2.96694,-11.17178,4.44257,0.04008,-18.06022,5.48254,-5.49776,22.20771,-12.21845,-0.35184,4.87471,-1.28219,0.17428,4.41003,-3.67778,0.03738,0.58909,-1.8748,0.11116,2.2785,0.54532,0.11651,0.19522,-0.28311,-0.00631,0.27288,-0.00467,0.02936
2240,-16.91355,-23.60675,0.27244,-13.81568,-0.02874,-0.36039,-46.28617,-40.60851,0.80396,-11.44526,-4.52539,-1.65388,-7.63804,23.57969,-3.10093,-10.70095,4.14142,-0.07971,-14.91955,2.83032,-5.34725,24.27956,-10.20697,-0.84347,4.8904,-1.51432,0.05521,4.21014,-3.75123,-0.17308,0.81024,-1.94137,0.05427,2.2554,0.54559,0.05244,0.27227,-0.30835,-0.01787,0.28329,-0.01872,0.02263
2241,-17.33412,-23.66819,0.20809,-12.93262,0.19644,-0.44072,-46.92907,-42.2461,0.71928,-8.74109,-3.66971,-1.40996,-7.63271,24.09029,-3.19958,-10.21528,3.80123,-0.19308,-11.3933,2.42936,-4.27181,22.39215,-9.08663,-0.46237,4.73762,-1.52885,0.02212,4.1778,-3.77635,-0.08739,0.97813,-1.87378,0.03482,2.11485,0.47899,0.06125,0.31433,-0.28166,-0.01794,0.26473,-0.03709,0.03232
2242,-17.39759,-23.65655,0.16851,-11.79454,0.52834,-0.50885,-47.32112,-43.34086,1.04117,-5.9573,-1.59976,-0.78171,-7.68572,24.5357,-3.26686,-9.66873,3.42569,-0.28364,-8.27543,4.61317,-2.50979,17.31573,-9.03445,0.33315,4.52936,-1.42474,0.01817,4.36209,-3.78239,0.20756,1.00733,-1.68074,0.06111,1.92279,0.40379,0.09963,0.29638,-0.22135,-8e-05,0.22705,-0.04936,0.04734
2243,-17.17572,-23.57237,0.12133,-10.75137,0.76921,-0.5497,-47.21152,-43.46408,1.53019,-3.96735,0.51719,-0.14781,-7.80777,24.91765,-3.31673,-9.07465,3.05821,-0.33948,-5.82734,8.33551,-0.88755,10.61544,-9.61983,1.11752,4.41411,-1.33213,0.00701,4.74706,-3.87118,0.50616,0.88435,-1.44187,0.13278,1.74055,0.38252,0.06529,0.22126,-0.15511,0.03573,0.18725,-0.04635,0.0402
2244,-16.95225,-23.40906,0.05501,-10.09866,0.79453,-0.56004,-47.01042,-42.51051,1.8822,-3.16986,1.58196,0.11137,-7.98892,25.27713,-3.362,-8.46931,2.73945,-0.36493,-4.48097,12.07869,-0.37063,4.42759,-10.49003,1.67594,4.4768,-1.33624,-0.0173,5.19954,-4.02689,0.69114,0.67929,-1.27038,0.22324,1.59164,0.42613,-0.06106,0.12088,-0.10916,0.07729,0.15727,-0.02726,0.0057
2245,-17.03069,-23.18206,-0.00011,-9.82398,0.59213,-0.56006,-47.39219,-40.81005,2.02847,-3.45811,1.39575,-0.17771,-8.1897,25.62794,-3.40687,-7.86114,2.47266,-0.37107,-4.82565,14.9588,-1.08728,0.76493,-11.8064,1.98082,4.69166,-1.41137,-0.01834,5.57999,-4.11452,0.79701,0.47608,-1.26393,0.29239,1.52776,0.50332,-0.17536,0.03228,-0.1025,0.10554,0.1529,0.00065,-0.0278
2246,-17.52164,-22.96701,-0.01258,-9.63727,0.28951,-0.55715,-48.5538,-39.10872,2.00304,-4.26241,0.49303,-0.80337,-8.37112,25.97112,-3.44621,-7.25102,2.2472,-0.36497,-6.78306,16.40551,-2.31175,0.60625,-13.65198,2.11027,4.97969,-1.42955,0.06876,5.7931,-4.01666,0.88932,0.32872,-1.46069,0.31272,1.58979,0.57393,-0.1753,-0.02018,-0.13943,0.10627,0.18199,0.02802,-0.03243
2247,-18.28974,-22.85845,-0.0005,-9.29045,0.06985,-0.52517,-50.03846,-38.17238,1.7049,-4.7724,-0.66092,-1.31776,-8.53403,26.34605,-3.47618,-6.67321,2.0696,-0.3501,-9.1031,15.82604,-3.38835,3.54227,-15.38218,2.15209,5.22614,-1.2431,0.25863,5.7717,-3.78382,0.94512,0.27098,-1.74453,0.27954,1.71226,0.60688,-0.07812,-0.02883,-0.18775,0.07898,0.21815,0.04699,-0.01272
2248,-19.05199,-22.91033,-0.00135,-8.72284,-0.02215,-0.44653,-51.23981,-38.19876,1.09948,-4.36692,-1.96197,-1.4417,-8.70459,26.78735,-3.49472,-6.16771,1.93674,-0.32618,-10.2633,13.37984,-4.16632,8.11559,-15.92095,2.15215,5.27895,-0.82476,0.47426,5.50156,-3.61235,0.85154,0.31924,-1.89965,0.2065,1.78347,0.60443,0.00312,-0.00149,-0.1979,0.03781,0.22537,0.05551,0.00192
2249,-19.53161,-23.07409,-0.01038,-7.98734,-0.10602,-0.35313,-51.83997,-38.72438,0.51516,-3.01055,-3.34726,-1.29313,-8.90338,27.27009,-3.49381,-5.73777,1.81743,-0.29378,-9.63016,10.33796,-4.62252,12.58881,-14.99767,2.1638,5.05648,-0.36002,0.60348,5.11047,-3.68733,0.54499,0.46279,-1.8503,0.11006,1.78636,0.60463,-0.01478,0.0502,-0.16642,-0.00094,0.20516,0.0572,-0.00697
2250,-19.62435,-23.21958,0.0162,-7.18524,-0.24857,-0.27885,-51.87679,-39.22757,0.42107,-1.16095,-4.42938,-1.08982,-9.14473,27.7295,-3.46309,-5.36567,1.68608,-0.24594,-7.5649,8.11246,-4.43295,15.36721,-13.5648,2.28902,4.65802,-0.14838,0.58437,4.86013,-4.05215,0.12993,0.64117,-1.72185,0.02062,1.80501,0.63791,-0.11206,0.11233,-0.13948,-0.02493,0.1918,0.05542,-0.03033
2251,-19.42375,-23.22516,0.08956,-6.43822,-0.36848,-0.22023,-51.55118,-39.41254,0.90073,0.65806,-4.71585,-0.84715,-9.43778,28.12413,-3.40774,-5.05262,1.55526,-0.17553,-4.83203,7.52474,-3.34469,15.55211,-12.74279,2.54936,4.34553,-0.35896,0.45239,4.9172,-4.56592,-0.21103,0.74797,-1.66235,-0.00086,1.89441,0.6974,-0.22029,0.16204,-0.14986,-0.02362,0.20654,0.05129,-0.05073
2252,-19.1038,-23.09328,0.17629,-5.87301,-0.38591,-0.16517,-51.04537,-39.10238,1.56295,2.03967,-4.17419,-0.54667,-9.76851,28.45227,-3.33599,-4.81571,1.45315,-0.09258,-2.33552,8.57246,-1.84154,13.71929,-12.75588,2.75769,4.33251,-0.88562,0.29221,5.21792,-4.99366,-0.37792,0.71972,-1.69833,0.07798,2.0444,0.7537,-0.29042,0.18023,-0.18435,0.00289,0.24204,0.04281,-0.05904
2253,-18.83088,-22.95553,0.23551,-5.52084,-0.29636,-0.11241,-50.55461,-38.19692,1.93931,2.99563,-3.28935,-0.30101,-10.1036,28.73478,-3.25827,-4.65012,1.39,-0.0129,-0.45077,10.77037,-0.96179,11.48234,-13.19627,2.63087,4.58323,-1.43741,0.16591,5.52139,-5.14472,-0.38081,0.58914,-1.74854,0.21453,2.18902,0.76974,-0.302,0.16662,-0.20679,0.03835,0.27459,0.02692,-0.05423
2254,-18.70544,-22.96976,0.2568,-5.28891,-0.09911,-0.05917,-50.26284,-36.82501,1.84227,3.8812,-2.59455,-0.19218,-10.41143,29.00277,-3.18295,-4.53627,1.36194,0.05381,1.10596,13.47765,-1.31244,10.07155,-13.80106,2.03439,4.86742,-1.74072,0.07691,5.63306,-4.97205,-0.26087,0.45112,-1.70308,0.31899,2.26414,0.72621,-0.24626,0.13759,-0.19153,0.061,0.28799,0.00471,-0.03642
2255,-18.72379,-23.1732,0.259,-5.04432,0.20633,0.00515,-50.23237,-35.48655,1.40359,4.96728,-2.25278,-0.09986,-10.68167,29.28743,-3.11292,-4.4581,1.35801,0.1059,2.7404,16.09315,-2.35914,9.4731,-14.72516,1.08493,4.99814,-1.69744,-0.00551,5.53574,-4.59657,-0.06036,0.38856,-1.51559,0.3256,2.24756,0.64257,-0.12951,0.11557,-0.14052,0.0579,0.28223,-0.01646,-0.00594
2256,-18.82599,-23.44087,0.2729,-4.70626,0.52139,0.07231,-50.61877,-34.72232,0.96604,6.1956,-2.11584,0.10461,-10.93092,29.60745,-3.05142,-4.39899,1.35569,0.14519,4.01831,18.13522,-3.05234,8.99392,-15.87418,0.09248,4.99734,-1.40072,-0.0817,5.32777,-4.19829,0.16098,0.41339,-1.25303,0.24802,2.14981,0.56009,0.00732,0.11242,-0.07758,0.03426,0.26257,-0.02842,0.02908
2257,-18.98807,-23.58475,0.32834,-4.28226,0.70919,0.11083,-51.71797,-34.67378,0.87912,7.25897,-1.99555,0.32742,-11.19808,29.98146,-3.00183,-4.34778,1.34104,0.17346,3.77045,19.22223,-2.93849,8.20278,-16.74665,-0.52992,5.00188,-1.02552,-0.09192,5.10249,-3.87047,0.33965,0.45336,-1.05211,0.16964,2.00467,0.50089,0.10555,0.11734,-0.03153,0.01045,0.23485,-0.02837,0.05165
