PaulMeinheit/Bachelor_Muay_Thai/processed_Data/E_01/E_01_Teep/sliced/Raw_Data/E_01/E_01_Teep/JointMoments.txt/sliced0.csv
Unnamed: 0_level_0,R_KNEE_MOMENT,R_KNEE_MOMENT,R_KNEE_MOMENT,L_KNEE_MOMENT,L_KNEE_MOMENT,L_KNEE_MOMENT,R_HIP_MOMENT,R_HIP_MOMENT,R_HIP_MOMENT,L_HIP_MOMENT,L_HIP_MOMENT,L_HIP_MOMENT,R_ANKLE_MOMENT,R_ANKLE_MOMENT,R_ANKLE_MOMENT,L_ANKLE_MOMENT,L_ANKLE_MOMENT,L_ANKLE_MOMENT,WAIST_JOINT_MOMENT,WAIST_JOINT_MOMENT,WAIST_JOINT_MOMENT,NECK_MOMENT,NECK_MOMENT,NECK_MOMENT,L_SHOULDER_MOMENT,L_SHOULDER_MOMENT,L_SHOULDER_MOMENT,R_SHOULDER_MOMENT,R_SHOULDER_MOMENT,R_SHOULDER_MOMENT,L_ELBOW_MOMENT,L_ELBOW_MOMENT,L_ELBOW_MOMENT,R_ELBOW_MOMENT,R_ELBOW_MOMENT,R_ELBOW_MOMENT,L_WRIST_MOMENT,L_WRIST_MOMENT,L_WRIST_MOMENT,R_WRIST_MOMENT,R_WRIST_MOMENT,R_WRIST_MOMENT
ITEM,X,Y,Z,X,Y,Z,X,Y,Z,X,Y,Z,X,Y,Z,X,Y,Z,X,Y,Z,X,Y,Z,X,Y,Z,X,Y,Z,X,Y,Z,X,Y,Z,X,Y,Z,X,Y,Z
571,-18.45831,-79.74445,11.715,-3.04446,4.82415,0.94636,-101.12061,-70.00672,11.33591,49.89138,-7.2723,3.56395,-6.24062,-3.46397,0.19505,-0.67076,0.13297,0.55187,6.04994,2.04476,0.30188,9.67574,-8.18654,0.08419,6.00621,-1.47831,-0.27067,5.34703,-4.4537,-0.54055,0.31314,-1.46654,0.36133,1.7106,0.83188,-0.14622,0.1574,-0.2346,0.10939,0.22304,0.03616,-0.05375
572,-20.48706,-81.12321,12.39639,-1.5982,4.45309,0.71063,-106.38875,-68.81326,11.61061,54.86658,-9.852,3.17123,-6.6035,-3.25291,0.16401,0.1373,-0.1369,0.4237,7.99728,2.75011,-1.19261,2.79226,-7.25479,-0.9887,6.32404,-1.29108,-0.07599,5.09622,-4.41886,-0.43332,0.22098,-1.56705,0.40813,1.46298,0.79829,-0.03738,0.17596,-0.2631,0.10698,0.13193,0.02777,-0.01851
573,-22.23076,-81.85807,13.01374,-0.63616,3.47966,0.48786,-110.97279,-66.74722,11.97368,56.99788,-12.97858,2.1627,-6.98877,-2.957,0.14756,0.65807,-0.34081,0.30886,5.60278,2.61658,-3.11108,-1.13137,-5.17717,-2.76693,6.45212,-0.96076,0.01765,5.16981,-4.45465,-0.58469,0.2288,-1.57113,0.25581,1.44749,1.04961,-0.00658,0.18503,-0.23448,0.04411,0.07965,0.06823,0.00047
574,-23.67192,-82.39747,13.59009,-0.01344,2.58418,0.28665,-114.04111,-65.28531,12.39064,56.89652,-14.68074,1.03909,-7.39832,-2.5879,0.12668,1.01329,-0.48339,0.2294,0.89098,2.54534,-4.19118,-1.11821,-2.75465,-4.77388,6.44228,-0.72207,-0.07999,5.51256,-4.61213,-0.94892,0.28757,-1.46558,0.01352,1.60999,1.43577,-0.08366,0.18519,-0.17619,-0.0404,0.07856,0.12481,-0.00666
575,-24.95477,-82.97836,14.1649,0.53662,2.22625,0.11827,-115.36804,-65.1689,12.84374,56.47109,-13.97883,0.64209,-7.84717,-2.06534,0.07997,1.23955,-0.55664,0.22311,-2.41648,3.12534,-3.48063,2.68139,-1.56361,-5.80662,6.28649,-0.70384,-0.3302,5.92054,-4.82595,-1.29582,0.35045,-1.33116,-0.21468,1.83619,1.73622,-0.17725,0.18044,-0.1356,-0.11,0.1224,0.15992,-0.0193
576,-26.21159,-83.61067,14.78732,1.15985,2.28681,-0.04867,-115.6234,-66.04729,13.4981,57.18383,-11.59033,1.25267,-8.33096,-1.28271,-0.00783,1.34467,-0.58678,0.26587,-2.59827,4.15873,-0.91509,8.59359,-3.04902,-4.63241,5.91696,-0.81349,-0.57546,6.21663,-4.96251,-1.35842,0.41271,-1.25944,-0.39466,1.98935,1.81938,-0.18784,0.17291,-0.13759,-0.1513,0.18525,0.16365,-0.01454
577,-27.33095,-84.36871,15.45052,1.99224,2.5364,-0.23559,-115.67842,-67.43905,14.25581,59.57253,-8.98494,2.58652,-8.82212,-0.15482,-0.13891,1.39056,-0.59568,0.32371,-0.26028,4.70602,2.60313,13.83412,-7.611,-0.99973,5.35317,-0.8656,-0.64835,6.4264,-4.92708,-0.95726,0.46662,-1.27737,-0.51653,1.98012,1.69325,-0.10675,0.15853,-0.16919,-0.1642,0.23899,0.15142,0.00824
578,-27.97173,-85.37015,16.07036,3.05614,2.80467,-0.44065,-115.94282,-68.91711,14.59778,63.15119,-7.62226,4.05579,-9.2957,1.37006,-0.28874,1.44616,-0.57504,0.35987,2.82607,3.76455,5.44399,16.01381,-13.66212,3.73137,4.80791,-0.81255,-0.52521,6.64471,-4.69262,-0.10843,0.44986,-1.33359,-0.53977,1.79208,1.44523,-0.00468,0.12912,-0.19841,-0.14794,0.26302,0.13809,0.03181
579,-27.82351,-86.40961,16.56055,4.24641,2.76389,-0.63625,-116.45537,-69.38448,14.26549,66.7452,-8.37187,5.03366,-9.74022,3.29,-0.41203,1.54885,-0.55029,0.33978,4.85181,1.83572,6.40511,14.408,-17.37607,7.09792,4.5841,-0.78228,-0.36928,6.80903,-4.30361,0.88228,0.28036,-1.32008,-0.41105,1.45605,1.19006,0.02338,0.07876,-0.19423,-0.10164,0.2383,0.1247,0.03625
580,-26.81781,-87.15778,16.92094,5.50348,2.13729,-0.79243,-117.09422,-67.92847,13.6864,69.24901,-10.85818,5.2009,-10.14869,5.51443,-0.47942,1.70592,-0.58731,0.26157,4.85218,0.48801,5.71821,10.12795,-14.79592,7.20116,4.82822,-0.89415,-0.40471,6.74858,-3.86884,1.5521,-0.04465,-1.13235,-0.14513,1.04716,1.03968,-0.0787,0.01378,-0.1393,-0.03927,0.15798,0.10839,0.01195
581,-25.19432,-87.5926,17.23267,6.78855,1.15809,-0.91937,-117.70479,-65.02192,13.44479,70.21296,-13.5958,4.75701,-10.51615,7.87281,-0.50201,1.88883,-0.69146,0.16304,2.94696,0.62832,4.58671,5.16118,-5.39846,4.2514,5.39916,-1.12019,-0.68485,6.44967,-3.51877,1.61725,-0.40909,-0.80237,0.1565,0.70002,1.07206,-0.28491,-0.04392,-0.05065,0.01479,0.0506,0.09913,-0.03476
582,-23.32126,-87.85099,17.56998,7.94714,0.30615,-1.02647,-118.14462,-61.61099,13.72756,70.12259,-15.30366,4.23441,-10.83268,10.19325,-0.50412,2.03644,-0.7947,0.10527,0.38849,2.42567,3.95332,1.42055,6.3481,0.23478,6.00638,-1.32083,-1.01869,6.11812,-3.35541,1.14625,-0.66098,-0.49429,0.39297,0.57212,1.28958,-0.49106,-0.06966,0.03114,0.049,-0.02398,0.1173,-0.08488
583,-21.4285,-88.03821,17.93743,8.81756,-0.14485,-1.10549,-118.22477,-58.16418,14.33319,69.98051,-15.63518,4.10221,-11.09576,12.36575,-0.49985,2.10562,-0.82555,0.12602,-1.04354,5.95615,3.93642,0.16692,13.67446,-2.92315,6.45989,-1.38689,-1.19343,5.91159,-3.40403,0.39183,-0.66383,-0.37336,0.48186,0.76409,1.58844,-0.5648,-0.03754,0.06999,0.05687,-0.01181,0.16721,-0.11442
584,-19.52199,-88.32484,18.27604,9.46912,-0.29499,-1.13714,-117.5018,-55.09884,14.82336,70.48749,-15.30424,4.27507,-11.31335,14.34044,-0.50118,2.12346,-0.76694,0.21905,0.08754,10.16548,3.77857,1.53569,12.12465,-4.58227,6.74475,-1.35159,-1.11887,5.7983,-3.64186,-0.43358,-0.41256,-0.5699,0.38214,1.24305,1.8037,-0.43569,0.05698,0.03029,0.03342,0.09728,0.22095,-0.10623
585,-17.45442,-88.79558,18.49344,10.20397,-0.52471,-1.09633,-115.3957,-52.84732,14.71026,71.42068,-15.63346,4.00856,-11.49433,16.12071,-0.51155,2.17682,-0.66792,0.33641,3.71094,12.57796,2.26699,4.29093,2.69521,-5.15323,6.88851,-1.31438,-0.83895,5.70222,-4.02628,-1.16975,-0.07496,-1.04852,0.16005,1.80381,1.82849,-0.172,0.17578,-0.08896,-0.00854,0.25422,0.24101,-0.06456
586,-15.06961,-89.27427,18.53228,11.22402,-1.09643,-0.99527,-111.79968,-51.44812,13.84475,72.00103,-17.16956,2.79182,-11.64143,17.73916,-0.51111,2.32318,-0.6062,0.4137,7.95963,11.61911,-0.86434,6.4674,-9.34288,-5.11036,6.87535,-1.30751,-0.50043,5.65153,-4.48952,-1.61835,0.17921,-1.55647,-0.05462,2.14572,1.67789,0.0605,0.27014,-0.2239,-0.04574,0.37581,0.21261,-0.01399
587,-12.378,-89.5614,18.44329,12.37892,-1.95545,-0.88006,-107.38332,-50.74475,12.5934,71.8402,-19.36542,0.94227,-11.75435,19.20823,-0.47427,2.52973,-0.62982,0.40973,10.85739,7.87791,-4.46063,6.74701,-18.63642,-4.39747,6.68735,-1.27943,-0.23064,5.75813,-4.95387,-1.57913,0.26547,-1.8393,-0.17334,2.08049,1.43658,0.14487,0.30392,-0.29705,-0.06331,0.40002,0.14623,0.02292
588,-9.5749,-89.59043,18.35426,13.38017,-2.83818,-0.80582,-102.90467,-50.50816,11.54826,71.26211,-21.35573,-0.6882,-11.82527,20.51478,-0.38608,2.723,-0.72638,0.32392,12.26258,3.17653,-6.8399,5.29957,-22.7497,-2.71833,6.38148,-1.15883,-0.03562,6.01787,-5.29072,-1.03306,0.13441,-1.81585,-0.16285,1.66411,1.18853,0.08616,0.25544,-0.27375,-0.05554,0.32523,0.0668,0.03837
589,-6.85016,-89.35548,18.34887,14.02819,-3.30079,-0.85245,-98.35185,-50.31643,11.14501,70.62033,-22.17155,-1.16564,-11.8446,21.64784,-0.25039,2.83989,-0.82546,0.19744,13.63844,-0.22797,-6.56145,2.9839,-22.38738,-0.14275,6.08633,-0.92823,0.17346,6.28603,-5.35682,-0.21917,-0.20591,-1.57732,-0.01585,1.14089,1.00825,-0.04341,0.13299,-0.17748,-0.01689,0.20455,0.00394,0.03294
590,-4.31724,-88.88106,18.43963,14.32043,-2.94373,-1.08717,-93.34623,-49.68861,11.47142,70.05504,-21.15789,-0.10547,-11.82008,22.61753,-0.07827,2.85138,-0.84781,0.0952,16.44945,-0.57358,-3.45004,-0.22356,-19.74009,2.54746,5.91705,-0.67817,0.45202,6.39995,-5.13971,0.47172,-0.66737,-1.30776,0.24275,0.74626,0.95366,-0.17973,-0.02017,-0.0745,0.05153,0.10139,-0.02046,0.01108
591,-2.03779,-88.29881,18.60898,14.39245,-1.81276,-1.45773,-87.8328,-48.68935,12.19298,69.77713,-18.76043,1.87183,-11.77562,23.45264,0.11889,2.77135,-0.76904,0.06505,21.46901,1.69789,0.79775,-5.33415,-16.54162,4.07899,5.86879,-0.54117,0.71686,6.28265,-4.79399,0.67693,-1.10878,-1.14319,0.5242,0.58155,1.06402,-0.28664,-0.14616,-0.02725,0.12443,0.05028,0.00396,-0.01832
592,0.04083,-87.64803,18.79957,14.36956,-0.37931,-1.80223,-82.13861,-47.62255,12.77688,70.09294,-16.24096,3.60973,-11.73828,24.19788,0.33697,2.64363,-0.6268,0.11141,28.58513,4.50132,3.7947,-12.3375,-13.45233,3.47582,5.88466,-0.6123,0.81549,5.91888,-4.49893,0.24618,-1.4048,-1.13974,0.70758,0.61223,1.30554,-0.34717,-0.20328,-0.06178,0.16396,0.04912,0.06593,-0.04437
593,2.10981,-86.75314,18.91008,14.17579,0.8487,-1.96703,-76.75142,-46.25772,12.95583,70.51693,-14.34588,4.43168,-11.74139,24.90033,0.57006,2.49468,-0.48332,0.20163,35.76309,6.97143,4.5968,-19.03584,-10.82524,0.94986,5.92046,-0.88796,0.6895,5.36853,-4.34646,-0.63532,-1.50405,-1.28272,0.73426,0.73887,1.53825,-0.35644,-0.18894,-0.15609,0.15667,0.07403,0.12565,-0.05889
594,4.29587,-85.69785,18.91216,13.57449,1.459,-1.87067,-72.35843,-44.67003,12.76267,69.79151,-13.08704,4.38286,-11.81048,25.59136,0.78502,2.33098,-0.40629,0.27588,39.32839,9.38775,4.19476,-22.43173,-9.37183,-1.98771,5.93856,-1.22957,0.47146,4.81547,-4.32265,-1.54558,-1.43993,-1.49094,0.65367,0.88079,1.64506,-0.31585,-0.13602,-0.25094,0.12784,0.10314,0.14979,-0.05794
595,6.67726,-84.74879,18.818,12.62113,1.23049,-1.56002,-69.07171,-43.11333,12.21541,67.34318,-12.39286,3.8437,-11.92377,26.32469,0.9454,2.21849,-0.43759,0.27095,37.60086,12.10836,4.0605,-21.00055,-9.84552,-3.49522,5.85665,-1.42333,0.42343,4.50904,-4.36207,-2.07136,-1.29829,-1.67894,0.54764,1.01315,1.63894,-0.22107,-0.08722,-0.29423,0.11106,0.12833,0.14263,-0.03965
596,9.33312,-83.81819,18.58597,11.89386,0.35426,-1.21952,-66.00446,-41.03613,11.37765,63.81986,-12.19447,3.16558,-12.02933,27.18307,1.04539,2.24215,-0.54455,0.16862,32.71498,15.35346,4.47866,-15.32745,-12.257,-2.79747,5.60693,-1.31793,0.69877,4.57223,-4.44048,-2.02701,-1.16663,-1.79047,0.42868,1.12576,1.57665,-0.0716,-0.06926,-0.2712,0.10676,0.14575,0.12366,-0.00532
597,12.13894,-82.71174,18.22506,11.79582,-0.6709,-0.99655,-62.25456,-38.29376,10.53305,60.11245,-12.27772,2.46549,-12.10331,28.21444,1.08142,2.38245,-0.64455,0.02106,28.08384,18.19962,4.64259,-7.8281,-15.9557,-0.69367,5.22925,-0.93415,1.1898,4.88909,-4.5829,-1.54879,-1.1145,-1.7894,0.26551,1.20338,1.47327,0.1167,-0.08742,-0.19817,0.08848,0.15073,0.09932,0.03939
598,14.80562,-81.46064,17.81255,11.97687,-1.31215,-0.8828,-57.51656,-36.04013,9.87481,56.69546,-12.23687,1.74131,-12.15759,29.41454,1.02439,2.53411,-0.67558,-0.08103,25.82689,19.01298,4.18175,-2.07021,-20.40894,1.17641,4.90113,-0.48577,1.63368,5.21881,-4.80184,-0.97398,-1.17315,-1.70736,0.07525,1.23916,1.33007,0.30743,-0.12886,-0.11576,0.04577,0.14147,0.0694,0.08302
599,17.20583,-79.99288,17.32418,11.81269,-1.31557,-0.76829,-51.64207,-34.89185,9.26584,53.68287,-11.6561,0.86738,-12.2179,30.77981,0.84759,2.62019,-0.63634,-0.06799,26.75178,17.86057,3.22628,-1.39657,-25.08043,1.49129,4.86338,-0.24958,1.80755,5.30428,-4.96727,-0.56549,-1.30872,-1.64852,-0.07264,1.20379,1.16035,0.42779,-0.16775,-0.07498,-0.00226,0.11552,0.04138,0.10454
600,19.3718,-77.91001,16.64208,11.08006,-0.99525,-0.55806,-44.91452,-33.45633,8.59123,50.64918,-10.4755,-0.71183,-12.31365,32.33173,0.55227,2.61222,-0.57373,0.05539,29.74794,17.24235,1.30113,-6.55089,-28.65199,-0.08538,5.23737,-0.3794,1.6146,5.00367,-4.87827,-0.35836,-1.45524,-1.68266,-0.11515,1.05098,0.97865,0.39558,-0.178,-0.10153,-0.03271,0.07046,0.02558,0.08287
601,21.29799,-75.05,15.75974,10.00586,-0.95379,-0.28882,-38.26175,-30.45411,8.05002,46.79456,-8.99913,-3.31103,-12.4738,34.08849,0.14353,2.49684,-0.54424,0.20605,31.759,18.83142,-1.85401,-14.38026,-29.05452,-2.76354,5.9015,-0.81788,1.08348,4.38842,-4.45216,-0.27799,-1.55749,-1.75427,-0.02174,0.80381,0.81635,0.1946,-0.14846,-0.17179,-0.03532,0.01786,0.02598,0.01721
602,22.94901,-71.93752,14.84871,8.72887,-1.30271,-0.08859,-32.41923,-26.9504,7.8486,41.52259,-7.46914,-5.71181,-12.71511,36.04763,-0.37717,2.29192,-0.56632,0.29806,30.21592,21.23191,-4.32211,-20.1966,-24.80127,-4.97529,6.56153,-1.36358,0.32612,3.79818,-3.91708,-0.35675,-1.57525,-1.72539,0.19704,0.61037,0.76781,-0.08232,-0.0854,-0.23203,-0.01262,-0.01426,0.04233,-0.06432
603,24.3749,-69.24126,14.06229,7.19094,-1.54452,0.00163,-27.2726,-24.80963,7.83363,34.79295,-5.92886,-5.71781,-13.03766,38.20296,-0.99506,2.06587,-0.61395,0.3194,25.04921,22.1531,-3.08263,-21.47549,-16.49058,-5.31283,6.96358,-1.79728,-0.51486,3.64956,-3.70276,-0.74774,-1.47899,-1.49548,0.4658,0.62882,0.97786,-0.29841,-0.00577,-0.23733,0.01881,-0.00642,0.08017,-0.12202
604,25.70565,-67.22028,13.42398,5.46707,-1.22146,0.1037,-22.59659,-24.52702,7.61695,27.11861,-4.43216,-2.51951,-13.42874,40.54399,-1.67304,1.89434,-0.65323,0.33954,17.7064,20.76868,2.14949,-19.07089,-7.65097,-3.49939,6.97434,-1.97985,-1.2135,4.11693,-4.1213,-1.49991,-1.29767,-1.11946,0.67833,0.85053,1.50057,-0.39519,0.0641,-0.18461,0.04136,0.0263,0.14227,-0.13666
605,27.13519,-65.90014,12.89007,3.93329,-0.34049,0.38454,-18.28235,-25.4464,6.9939,19.63682,-3.10237,2.10442,-13.86941,43.02402,-2.37121,1.80647,-0.65924,0.45373,10.66347,17.49614,7.64483,-15.23318,-3.49583,-0.5905,6.50738,-1.86253,-1.42972,4.93804,-5.04869,-2.35261,-1.12659,-0.77979,0.78396,1.10698,2.13762,-0.41442,0.09416,-0.10899,0.05876,0.05511,0.20656,-0.11996
606,28.92075,-65.25788,12.40359,2.88142,0.72662,0.90379,-13.77344,-26.50725,6.15846,13.88537,-2.07983,5.34222,-14.33576,45.56969,-3.04979,1.77075,-0.64817,0.70539,7.53794,13.9289,9.23997,-10.92693,-7.0865,1.66794,5.622,-1.49899,-0.94157,5.6425,-5.9279,-2.88007,-1.04283,-0.64593,0.80318,1.29046,2.58134,-0.40479,0.07532,-0.05832,0.08682,0.08416,0.24532,-0.09503
607,31.26753,-65.09729,11.89138,2.08028,1.57346,1.54543,-8.33114,-26.5248,5.49863,10.89128,-1.48001,5.77285,-14.81602,48.13087,-3.66946,1.70502,-0.6446,1.03224,10.6363,12.68062,6.47314,-6.12518,-16.21599,1.89993,4.66998,-1.06963,0.06512,5.93563,-6.1734,-2.8409,-1.09001,-0.76125,0.78027,1.47572,2.6836,-0.34125,0.02193,-0.06289,0.12411,0.14937,0.25577,-0.07213
608,34.20077,-65.17419,11.30908,1.01974,1.91302,2.06307,-1.68393,-25.07141,5.22745,10.5732,-1.47687,3.91203,-15.32813,50.69747,-4.20961,1.52988,-0.66049,1.30136,19.27413,14.88402,2.1108,-1.93389,-25.41878,-0.0707,4.18701,-0.81761,1.05,5.85759,-5.68725,-2.36486,-1.33095,-1.04563,0.74159,1.78856,2.50346,-0.14851,-0.05137,-0.11522,0.14422,0.26076,0.24613,-0.04493
609,37.5966,-65.3363,10.66542,-0.40057,1.81443,2.29484,5.92767,-22.81358,5.20667,11.82242,-2.10832,1.59499,-15.8997,53.29232,-4.66791,1.23776,-0.68071,1.4173,31.08456,18.91363,-0.84649,-1.08668,-30.80975,-3.13883,4.50954,-0.8781,1.51154,5.56928,-4.86958,-1.88829,-1.75938,-1.36389,0.67508,2.20645,2.19247,0.18637,-0.13152,-0.17789,0.12051,0.36944,0.22101,-0.01057
610,41.32087,-65.36797,9.95563,-1.89518,1.70726,2.3436,13.88347,-20.39636,5.11255,12.76932,-2.99211,0.79628,-16.5331,55.94923,-5.04564,0.89254,-0.66968,1.38133,42.65169,22.86172,-0.93345,-5.31202,-31.96389,-5.73871,5.4533,-1.17886,1.3567,5.16589,-4.21954,-1.89273,-2.23581,-1.59728,0.58778,2.56357,1.91374,0.55027,-0.20678,-0.21099,0.06706,0.4112,0.19255,0.01614
611,45.24538,-65.13554,9.20441,-3.32236,1.88122,2.41007,21.24118,-18.3637,4.7911,11.6669,-3.41013,1.84579,-17.21113,58.67698,-5.3582,0.57848,-0.60997,1.25981,49.91459,25.75444,0.91574,-12.4628,-29.776,-6.93206,6.46182,-1.50298,0.89151,4.6688,-3.97451,-2.5389,-2.56197,-1.67643,0.53982,2.71821,1.74666,0.80573,-0.27197,-0.19519,0.03806,0.37381,0.17135,0.02494
612,49.28963,-64.90753,8.52791,-4.76662,2.28608,2.58582,27.45825,-17.97268,4.36315,7.71438,-2.6214,3.36639,-17.91233,61.44342,-5.63758,0.31257,-0.51509,1.13833,50.54786,26.41122,2.30636,-17.52071,-24.88043,-6.9302,7.07415,-1.67083,0.43463,4.14765,-4.08508,-3.49445,-2.56312,-1.6015,0.54151,2.66891,1.66952,0.91757,-0.30614,-0.14125,0.06143,0.30491,0.15756,0.02863
613,53.46074,-65.04196,7.98584,-6.41336,2.86771,2.93781,32.929,-20.04516,3.95773,0.9349,-0.32076,4.39168,-18.61642,64.18592,-5.92781,0.05178,-0.40987,1.08823,45.51314,24.38409,2.09766,-16.60083,-18.60242,-6.83172,7.21057,-1.63579,0.02684,3.74855,-4.41212,-4.17976,-2.15973,-1.40494,0.50095,2.51362,1.62402,0.94293,-0.27248,-0.078,0.09959,0.26027,0.14815,0.04596
614,57.70687,-65.55372,7.50251,-8.39982,3.723,3.61256,38.30591,-23.5195,3.5532,-8.35426,2.99177,5.78255,-19.30254,66.82154,-6.27975,-0.23298,-0.31871,1.13463,37.38854,21.37859,1.81621,-10.25062,-14.21103,-7.80985,7.07238,-1.48617,-0.41245,3.5996,-4.93385,-4.24875,-1.48523,-1.17649,0.32806,2.37536,1.53598,0.97546,-0.17011,-0.04321,0.09655,0.26146,0.1282,0.08498
615,61.82429,-66.34159,7.02951,-10.66102,4.85298,4.65475,43.82256,-26.54853,3.05831,-19.42166,6.1072,9.1736,-19.9418,69.2773,-6.73191,-0.56394,-0.24887,1.21791,28.50142,19.71585,4.16393,-2.3194,-15.95663,-10.34203,6.88171,-1.33824,-0.77106,3.73709,-5.7608,-3.88438,-0.8206,-1.0643,0.02437,2.36301,1.3634,1.08163,-0.05025,-0.06374,0.04009,0.29372,0.08021,0.13466
616,65.51082,-67.26499,6.59643,-12.86357,5.88814,5.72781,49.32582,-27.74785,2.34493,-30.46582,7.74778,14.58009,-20.49577,71.5323,-7.29132,-0.96707,-0.19165,1.21891,21.20226,20.64819,9.78119,3.93637,-26.03496,-13.82132,6.83119,-1.29211,-0.73505,4.08609,-6.97822,-3.57078,-0.40069,-1.2512,-0.3521,2.50329,1.14737,1.22778,0.03249,-0.14731,-0.03516,0.31729,0.01263,0.16006
617,68.52094,-67.97923,6.21946,-14.64756,6.34501,6.27018,54.3497,-26.36694,1.39907,-39.16039,7.53598,19.73607,-20.93282,73.60696,-7.92554,-1.43105,-0.12626,1.06055,17.21778,24.36879,15.96298,7.89003,-41.79096,-16.68276,7.03632,-1.43426,-0.1137,4.46471,-8.54728,-3.52644,-0.27758,-1.84938,-0.76232,2.6646,0.93187,1.30246,0.06475,-0.28826,-0.0912,0.28039,-0.05532,0.12799
618,70.84867,-68.35394,5.95227,-15.94642,6.11057,6.04294,58.41144,-23.15038,0.5565,-44.52456,6.37443,22.1545,-21.24912,75.50163,-8.58625,-1.88941,-0.04549,0.79661,15.80182,29.56816,19.33691,10.12369,-56.06892,-17.24946,7.52062,-1.82115,0.85166,4.64915,-10.29021,-3.56571,-0.33022,-2.78319,-1.21701,2.63818,0.72237,1.2284,0.07536,-0.46488,-0.12452,0.14978,-0.12081,0.04329
619,72.80075,-68.76701,5.89908,-16.91192,5.46333,5.33497,61.88041,-20.47832,0.22705,-47.27348,5.55935,21.21511,-21.44773,77.1589,-9.2144,-2.23262,0.01523,0.57258,15.3618,33.4368,18.86197,10.45639,-61.54184,-15.06062,8.11325,-2.35846,1.57228,4.51819,-11.84295,-3.52173,-0.37701,-3.70621,-1.70132,2.37261,0.60939,1.01987,0.10182,-0.62263,-0.16085,-0.04039,-0.1665,-0.05404
620,74.76083,-69.38863,5.99226,-17.76027,4.89183,4.86862,66.07241,-19.78871,0.3365,-48.79166,5.70688,18.66074,-21.52097,78.49447,-9.73379,-2.33089,-0.00405,0.52701,15.87084,34.30785,16.4947,8.21774,-56.16162,-11.49167,8.49859,-2.77034,1.55652,4.20025,-12.77116,-3.56703,-0.3445,-4.12865,-2.07047,2.12674,0.80001,0.7741,0.14994,-0.68259,-0.2154,-0.17522,-0.13953,-0.11767
621,76.73267,-69.68213,5.99292,-18.70229,4.81954,5.48842,71.63476,-19.84811,0.43543,-50.1465,6.47981,17.35623,-21.48037,79.44012,-10.09889,-2.12264,-0.15049,0.74585,17.89153,33.56881,15.54152,4.1801,-44.22248,-8.62295,8.45561,-2.81494,0.81639,3.97637,-12.8774,-3.95949,-0.35086,-3.78965,-2.09551,2.27209,1.32782,0.66135,0.18288,-0.59969,-0.26548,-0.13751,-0.02136,-0.1152
622,78.36758,-69.07139,5.79291,-19.93846,5.25308,7.40408,77.87245,-18.85551,0.36833,-51.97489,7.19897,18.73715,-21.36656,79.93954,-10.3168,-1.69028,-0.40309,1.18525,20.58307,33.39146,17.75927,0.847,-32.44582,-7.33079,8.06321,-2.52426,-0.15121,3.98659,-12.40046,-4.62407,-0.57088,-2.92307,-1.68137,2.88387,1.88018,0.83629,0.15861,-0.41358,-0.26967,0.0716,0.11644,-0.04097
623,79.46088,-67.57845,5.47876,-21.57973,5.68268,9.69069,83.84622,-16.75399,0.41413,-54.27477,7.41544,21.33811,-21.22026,79.97007,-10.42897,-1.24494,-0.68211,1.65322,22.46436,33.92686,21.56052,0.3629,-25.38059,-6.99567,7.65579,-2.14765,-0.8011,4.10009,-11.77312,-5.19466,-0.99648,-2.05489,-1.00777,3.64758,2.10269,1.29225,0.08046,-0.21887,-0.21083,0.32733,0.18755,0.07747
624,80.17789,-65.64421,5.14868,-23.55398,5.4447,10.68073,89.14207,-14.89634,0.83687,-55.98736,7.01774,21.78299,-21.06009,79.57585,-10.48699,-0.98091,-0.87679,1.88778,23.30995,33.54754,23.05302,2.71251,-23.99809,-7.00125,7.49793,-1.88817,-0.92862,4.06461,-11.27095,-5.39428,-1.40355,-1.5542,-0.39499,4.16027,1.91661,1.84056,-0.00123,-0.089,-0.1131,0.49538,0.1764,0.18892
625,80.89677,-63.69449,4.80121,-25.30099,4.14913,8.99256,93.80456,-14.59512,1.5516,-54.79639,5.97594,17.15608,-20.87176,78.8557,-10.52609,-0.96308,-0.90068,1.70603,25.34443,30.6131,18.91839,6.17061,-26.51732,-7.66257,7.64698,-1.78385,-0.68393,3.71448,-10.9296,-5.30178,-1.58633,-1.45063,-0.05709,4.22948,1.49675,2.24011,-0.04159,-0.04088,-0.01866,0.52331,0.12636,0.24417
626,81.90005,-61.86596,4.37059,-25.75332,1.8267,4.28242,97.75587,-16.09474,2.12515,-48.67601,4.40044,6.27159,-20.62433,77.94987,-10.55325,-1.08307,-0.74843,1.10968,31.02162,24.90297,7.49331,8.97978,-29.14682,-9.32315,7.9494,-1.76741,-0.36153,3.02804,-10.67761,-5.25022,-1.56449,-1.54681,0.03467,3.89157,1.05537,2.33887,-0.04536,-0.04716,0.04779,0.43441,0.07992,0.22306
627,83.23458,-60.0931,3.82392,-23.713,-1.10647,-2.70654,100.52622,-18.67245,2.10671,-36.89856,2.62669,-10.25533,-20.30211,77.00937,-10.56634,-1.11469,-0.46337,0.23757,41.57797,17.63043,-11.35044,10.89854,-27.26033,-11.07587,8.22525,-1.75757,-0.24059,2.10923,-10.46912,-5.43555,-1.50366,-1.60547,0.05922,3.3056,0.73958,2.11539,-0.04607,-0.06415,0.08517,0.28437,0.05587,0.14132
628,84.98861,-58.2897,3.11175,-18.53528,-4.02547,-10.49585,102.38454,-21.31789,1.39221,-20.22292,0.94468,-29.78508,-19.90934,76.15192,-10.55676,-0.8303,-0.13048,-0.69978,58.17511,10.4564,-35.04735,12.93165,-18.12831,-10.97654,8.34045,-1.71096,-0.48966,1.1211,-10.21187,-5.5975,-1.48442,-1.50213,0.10943,2.65397,0.62706,1.63576,-0.05612,-0.06262,0.09188,0.13314,0.06453,0.03227
629,87.4501,-56.37933,2.1035,-10.67565,-6.26694,-17.15108,104.63297,-22.8735,0.11681,-1.02599,-0.54875,-47.42934,-19.45375,75.43772,-10.50576,-0.15535,0.11501,-1.43151,81.23196,5.3825,-57.61707,15.95659,-4.52388,-8.09861,8.2637,-1.6418,-1.04081,0.23824,-9.70309,-5.16051,-1.46638,-1.29396,0.09506,2.11332,0.7505,0.98965,-0.06219,-0.04235,0.05638,0.03882,0.1206,-0.07677
630,90.92052,-54.29524,0.65843,-1.55582,-7.25534,-20.70862,108.51215,-21.92318,-1.72392,17.36561,-1.75244,-57.23561,-18.92963,74.86688,-10.38068,0.77161,0.159,-1.71729,108.68948,5.16442,-71.53008,18.98787,4.58958,-4.28326,7.99134,-1.61163,-1.52566,-0.42385,-8.70477,-3.69414,-1.42192,-1.17248,-0.13193,1.78145,1.03708,0.27718,-0.05934,-0.03181,-0.02416,0.03991,0.21897,-0.16822
631,95.39441,-52.12584,-1.19816,7.14496,-6.7716,-19.96975,114.3145,-17.82027,-4.21956,32.43103,-2.49388,-55.06128,-18.3077,74.39286,-10.16095,1.72494,-0.05105,-1.45858,136.97266,11.49778,-71.33535,18.62735,-0.45845,-2.93323,7.51888,-1.73683,-1.43253,-0.82562,-7.17851,-1.2497,-1.44434,-1.37315,-0.60099,1.65431,1.33182,-0.37972,-0.07066,-0.0824,-0.12497,0.13638,0.32085,-0.2237
632,100.2432,-50.3286,-3.05427,13.86916,-5.10586,-15.16808,120.84319,-12.39771,-6.90544,43.04373,-2.5512,-41.28008,-17.56045,73.9122,-9.87245,2.51116,-0.46495,-0.78327,161.69539,21.86009,-56.78263,11.59653,-21.3744,-5.53622,6.85694,-2.12833,-0.47211,-1.01932,-5.43448,1.66469,-1.69031,-2.01745,-1.1468,1.65617,1.50113,-0.85645,-0.13084,-0.23387,-0.19437,0.28183,0.37794,-0.22606
633,104.58919,-49.42742,-4.39058,17.33047,-2.96217,-8.04522,126.39375,-8.95117,-8.79406,48.83013,-1.90162,-20.96786,-16.68635,73.29422,-9.58532,2.95454,-0.92526,-0.0015,178.83754,30.53117,-33.35107,-2.54356,-49.09513,-9.95616,6.03941,-2.72543,1.13536,-1.14109,-3.98261,4.37771,-2.19757,-2.93028,-1.47632,1.68441,1.48092,-1.04451,-0.24827,-0.45582,-0.1778,0.39849,0.35943,-0.16886
634,107.87459,-49.5112,-5.0405,16.76328,-1.07658,-0.9342,130.50684,-9.32721,-9.20942,49.89421,-1.07278,-0.49516,-15.72108,72.41087,-9.36736,2.85699,-1.24054,0.59719,187.42918,33.41483,-8.29879,-20.90629,-71.0673,-12.86875,5.13443,-3.21807,2.75438,-1.34718,-3.16236,6.38499,-2.74032,-3.65829,-1.38802,1.63056,1.28125,-0.89741,-0.37532,-0.64085,-0.06527,0.41576,0.27051,-0.06549
635,109.89455,-50.19669,-5.24067,12.42128,0.15841,4.53336,133.9928,-12.70246,-8.35331,47.36621,-0.91972,16.24244,-14.7492,71.12747,-9.26605,2.0964,-1.30218,0.91793,190.27499,30.9591,13.80157,-39.52959,-81.07838,-13.24587,4.26023,-3.29177,3.76608,-1.71695,-2.91472,7.47933,-2.98848,-3.82703,-0.97387,1.44816,1.04249,-0.5582,-0.43847,-0.69468,0.08055,0.31717,0.17172,0.03342
636,110.61746,-50.93466,-5.38114,5.65128,0.70451,7.67996,137.6256,-16.88311,-7.10302,43.42121,-1.9184,27.65219,-13.89452,69.3346,-9.30637,0.78869,-1.12219,1.00868,191.67586,26.33259,30.45072,-55.0652,-80.11532,-12.20536,3.61337,-2.93186,3.91779,-2.16708,-2.88525,7.69361,-2.86473,-3.45107,-0.513,1.23482,0.97147,-0.35375,-0.41346,-0.61966,0.17158,0.16941,0.14662,0.05819
637,110.14282,-51.43824,-5.71655,-1.8351,0.73366,8.39214,141.56203,-20.82707,-6.19607,39.94336,-3.78886,32.20739,-13.27925,67.05124,-9.50993,-0.72864,-0.78207,0.93424,194.84958,21.02744,38.54594,-65.38457,-69.85735,-9.76913,3.43217,-2.35479,3.31979,-2.53631,-2.78599,7.31504,-2.61203,-2.80469,-0.15502,1.15111,1.12135,-0.53029,-0.34622,-0.48382,0.17457,0.07585,0.21552,-0.01624
638,108.76374,-51.86393,-6.22613,-8.58673,0.56128,7.21846,145.6635,-25.01899,-5.69585,37.86764,-5.84203,28.90522,-12.97788,64.52133,-9.89701,-2.02456,-0.37941,0.75227,201.47778,14.37536,35.80043,-70.95425,-50.08842,-3.62688,3.85529,-1.73504,2.27632,-2.79504,-2.5059,6.91074,-2.50255,-2.11963,0.17108,1.18363,1.33713,-1.08063,-0.29601,-0.34118,0.12653,0.07064,0.31444,-0.15357
639,106.8924,-52.57957,-6.68808,-13.40971,0.48203,5.65103,149.40704,-29.78151,-5.2712,37.80774,-7.55057,19.81091,-12.99602,62.12863,-10.45189,-2.76384,-0.02694,0.5919,211.75189,6.59227,24.4478,-75.32011,-23.53494,7.74836,4.75733,-1.1519,1.1915,-3.04656,-2.07497,7.08521,-2.64066,-1.52299,0.57782,1.19642,1.45359,-1.79027,-0.29264,-0.21791,0.08592,0.10474,0.36987,-0.29287
640,104.9169,-53.77311,-6.90454,-15.83794,0.61575,5.54639,151.92621,-34.34647,-4.7942,39.41022,-8.61809,10.09559,-13.29405,60.21602,-11.10474,-2.9226,0.19996,0.63859,223.33365,0.081,11.16981,-82.54108,1.21032,21.90451,5.7057,-0.68833,0.4413,-3.32856,-1.56179,8.1316,-2.96396,-1.10774,1.05925,1.11396,1.40047,-2.34126,-0.33346,-0.13507,0.08788,0.12286,0.34773,-0.37039
641,103.23329,-55.4365,-6.79697,-17.033,0.98652,7.68815,152.5556,-37.9557,-4.41811,39.34534,-8.69603,4.30385,-13.80101,58.99384,-11.74009,-2.81214,0.33546,0.97827,229.97949,-2.87173,2.20474,-92.66236,14.31873,33.21682,6.21988,-0.43183,0.17404,-3.5634,-1.03967,9.84738,-3.29529,-0.91845,1.50365,0.95929,1.19476,-2.47729,-0.38854,-0.10453,0.13326,0.10985,0.25255,-0.33826
642,102.23295,-57.64477,-6.3077,-19.2414,1.65583,10.8842,151.12802,-41.06317,-4.14574,32.56058,-7.47056,2.87587,-14.42912,58.52125,-12.23531,-2.8379,0.49446,1.45493,224.1492,-2.58831,-1.09324,-101.16659,12.02152,36.71165,6.10016,-0.37855,0.26467,-3.64408,-0.5669,11.60381,-3.41863,-0.89108,1.79466,0.78784,0.92523,-2.15908,-0.41417,-0.11041,0.19879,0.07745,0.12125,-0.19604
643,102.08078,-60.49096,-5.39845,-23.64115,2.55264,12.76519,147.80991,-44.54316,-3.7243,17.07284,-5.09974,2.87894,-15.1196,58.74113,-12.53302,-3.14777,0.72889,1.74942,203.08675,-1.19264,-1.56251,-103.10168,-0.35829,31.45114,5.56529,-0.43975,0.46165,-3.48996,-0.21149,12.65387,-3.22267,-0.91453,1.85706,0.6625,0.68815,-1.55263,-0.38221,-0.12335,0.24822,0.04698,0.00042,0.00439
644,102.63879,-63.83257,-4.17459,-28.90922,3.23204,11.76361,142.99458,-48.45424,-3.03859,-3.00202,-2.37843,1.90994,-15.82481,59.51308,-12.67591,-3.52975,0.92592,1.64955,172.38731,-0.44198,-1.87182,-97.57088,-11.55435,21.35564,5.1103,-0.54719,0.54743,-3.05224,-0.02509,12.58971,-2.81243,-0.94802,1.67444,0.65377,0.51246,-0.89602,-0.30697,-0.131,0.25246,0.04558,-0.08762,0.1943
645,103.41785,-67.35449,-2.82186,-32.1356,3.11507,8.43589,137.12059,-52.25803,-2.27656,-19.63177,-0.34503,0.48838,-16.50099,60.62381,-12.7738,-3.63373,0.88113,1.24288,143.00127,-1.23924,-1.83362,-88.75982,-11.8502,12.84859,5.1249,-0.69614,0.42505,-2.43519,-0.02826,11.62281,-2.43068,-1.02217,1.32366,0.77935,0.383,-0.40357,-0.23604,-0.14039,0.21384,0.08242,-0.14672,0.32347
646,103.77699,-70.81519,-1.48175,-31.05767,2.05821,4.66971,130.63339,-55.53991,-1.68461,-26.20846,0.37263,0.31769,-17.13683,61.81676,-12.94612,-3.2364,0.48718,0.79916,124.41212,-3.81221,-0.25913,-83.11905,0.45922,10.73873,5.59274,-0.9117,0.15389,-1.9322,-0.17126,10.40675,-2.26399,-1.17201,0.94953,0.91986,0.29836,-0.21721,-0.2105,-0.16293,0.16441,0.13039,-0.18081,0.36857
647,103.32475,-74.09605,-0.27133,-25.60017,0.52644,1.95453,124.22359,-58.04031,-1.30018,-21.42307,-0.12668,1.4266,-17.76358,62.83159,-13.28118,-2.34069,-0.15837,0.53175,119.88868,-7.42629,2.20357,-85.03733,18.49466,15.34945,6.12305,-1.19703,-0.08221,-1.78054,-0.37945,9.54308,-2.35056,-1.39538,0.69151,0.95652,0.28343,-0.37233,-0.23589,-0.20215,0.13787,0.16892,-0.1825,0.32679
648,102.08028,-77.07147,0.65415,-17.79356,-0.80992,0.60293,118.8547,-59.41752,-0.98734,-9.26029,-1.27956,1.9529,-18.43594,63.44324,-13.81078,-1.16585,-0.80272,0.48051,126.38625,-10.51529,3.19996,-94.08781,32.25912,23.00258,6.2596,-1.48107,-0.1249,-1.97647,-0.63833,9.23881,-2.60424,-1.61746,0.62916,0.88505,0.34761,-0.75967,-0.28508,-0.24432,0.14245,0.20399,-0.14777,0.21885
649,100.31038,-79.52042,1.11963,-10.42642,-1.60787,0.00864,115.29044,-59.34167,-0.70088,4.14998,-2.58875,0.04851,-19.17963,63.52408,-14.51159,-0.06168,-1.19958,0.5292,137.78189,-11.68507,0.86275,-105.98485,35.2502,29.01625,5.90731,-1.65124,0.00801,-2.3925,-1.0359,9.31872,-2.9067,-1.7275,0.75129,0.7309,0.45144,-1.13376,-0.32277,-0.26392,0.15577,0.22761,-0.08834,0.09466
650,98.22643,-81.22192,1.05822,-5.49837,-2.02681,-0.64935,113.27213,-57.82355,-0.596,14.16992,-3.90675,-4.45578,-19.97059,63.08275,-15.32316,0.69571,-1.25943,0.50534,148.24211,-10.58281,-4.74631,-115.41777,27.43312,30.58886,5.38938,-1.64498,0.11968,-2.90111,-1.69673,9.44019,-3.16468,-1.65931,0.97853,0.50631,0.52229,-1.24142,-0.33137,-0.24402,0.15217,0.21163,-0.02508,0.0087
651,95.8922,-82.05869,0.55526,-3.56266,-2.47344,-1.80789,111.68326,-55.28252,-0.92074,18.90981,-5.31211,-10.16592,-20.74362,62.25,-16.16898,1.03263,-1.06666,0.28964,153.82372,-7.88916,-12.07901,-119.02356,13.59257,27.63258,5.13804,-1.5077,-0.00802,-3.36159,-2.66882,9.2817,-3.32635,-1.4432,1.22887,0.27658,0.49415,-0.99995,-0.31935,-0.19013,0.13468,0.14856,0.02242,-0.02123
652,93.34616,-82.03082,-0.23145,-4.0383,-3.26963,-3.38717,109.6169,-52.36705,-1.83148,18.36704,-6.89852,-15.70281,-21.39907,61.20967,-16.97207,1.04604,-0.79026,-0.11665,152.7121,-4.92641,-19.74901,-115.93217,-0.57939,21.64459,5.32189,-1.35387,-0.42762,-3.61855,-3.83251,8.63428,-3.34404,-1.18514,1.41567,0.13702,0.33273,-0.52143,-0.30266,-0.12988,0.12218,0.05789,0.03868,-0.01618
653,90.70788,-81.21696,-1.13195,-5.82634,-4.44527,-4.9666,106.92681,-49.69011,-3.22569,13.6163,-8.61548,-20.64762,-21.82936,60.14198,-17.65181,0.88218,-0.57283,-0.60854,145.26443,-2.98627,-27.349,-107.5394,-11.29215,14.4153,5.77548,-1.28805,-0.99084,-3.61468,-4.97529,7.47196,-3.14993,-1.01241,1.41315,0.14072,0.06772,0.00202,-0.27704,-0.09991,0.11113,-0.03388,0.0204,-0.00337
654,88.13854,-79.76566,-1.97713,-7.71715,-5.67876,-6.03303,103.81686,-47.85035,-4.67916,6.89024,-10.1735,-24.94826,-21.9715,59.18315,-18.14738,0.66152,-0.46441,-1.0486,134.19443,-2.98741,-34.52411,-97.20184,-16.85927,7.76668,6.23051,-1.35452,-1.41648,-3.42004,-5.90722,6.01513,-2.74152,-1.02339,1.14266,0.27751,-0.20185,0.40196,-0.23169,-0.12407,0.08635,-0.10275,-0.01817,0.00496
655,85.72361,-77.87496,-2.59526,-8.50976,-6.5649,-6.39939,100.23295,-47.38682,-5.59451,1.79993,-11.3217,-28.58066,-21.83111,58.38156,-18.42798,0.48341,-0.43139,-1.35892,124.29393,-5.48717,-40.67119,-89.42688,-17.20192,3.56073,6.46627,-1.50207,-1.4095,-3.20097,-6.63508,4.70361,-2.23593,-1.22123,0.67482,0.48824,-0.38183,0.60168,-0.17645,-0.18858,0.05453,-0.13617,-0.06104,0.01286
656,83.46363,-75.75113,-2.85688,-7.42623,-6.96133,-6.30881,95.52554,-48.19524,-5.60598,1.85265,-12.15578,-31.57863,-21.48611,57.70388,-18.48714,0.42495,-0.42362,-1.54903,119.58148,-9.94843,-45.58637,-87.84204,-13.61506,2.95426,6.45318,-1.60055,-0.87668,-3.11381,-7.35166,3.96744,-1.7779,-1.48881,0.1702,0.69681,-0.42984,0.61488,-0.12687,-0.24696,0.02825,-0.13936,-0.09344,0.02307
657,81.39841,-73.50979,-2.77193,-4.62341,-6.72613,-5.8456,89.25273,-49.2849,-4.8426,7.71433,-12.52273,-32.66222,-21.07083,57.09967,-18.33336,0.51234,-0.413,-1.61715,120.29713,-13.93403,-47.79543,-92.93018,-8.10485,5.73591,6.30599,-1.56317,-0.05444,-3.18739,-8.15248,3.96467,-1.47419,-1.68512,-0.23756,0.81763,-0.32915,0.48821,-0.09247,-0.26634,0.00179,-0.13309,-0.09127,0.02619
658,79.60467,-71.10548,-2.50961,-1.23031,-5.47619,-4.74618,82.03493,-49.36614,-3.85496,16.52861,-11.64364,-29.40812,-20.74438,56.54085,-17.98449,0.69346,-0.39107,-1.48867,123.36436,-14.25954,-44.35719,-101.40055,-2.65444,10.48136,6.16831,-1.43194,0.67049,-3.3106,-8.96112,4.51843,-1.42221,-1.74982,-0.4519,0.81134,-0.1195,0.32745,-0.08787,-0.25214,-0.03044,-0.13793,-0.04484,0.02189
659,78.08302,-68.4907,-2.2581,1.4889,-3.08426,-3.01078,75.07143,-47.78114,-3.31749,24.24983,-8.96745,-21.085,-20.64049,56.01091,-17.4668,0.87875,-0.34956,-1.1334,125.12562,-9.45201,-34.48099,-107.98392,0.92023,15.16315,6.15055,-1.33566,1.05338,-3.27236,-9.63848,5.2079,-1.66273,-1.72924,-0.43762,0.78485,0.09075,0.27057,-0.1206,-0.22877,-0.05923,-0.14076,0.02113,0.02589
660,76.71233,-65.84237,-2.04167,2.98941,0.02387,-1.07065,69.11497,-45.18537,-3.54527,28.73875,-4.82997,-9.56815,-20.81076,55.49776,-16.81665,1.03131,-0.2924,-0.63145,123.95737,-0.962,-20.49608,-109.31078,0.86393,17.70382,6.28289,-1.35144,1.12075,-2.89805,-10.10388,5.56045,-2.09893,-1.69906,-0.25288,0.94981,0.19466,0.37312,-0.17433,-0.21156,-0.07342,-0.09606,0.06926,0.04489
661,75.24235,-63.51335,-1.69923,3.52678,3.24093,0.56623,63.99386,-43.13055,-4.18581,30.69228,-0.14054,2.20625,-21.22299,54.99049,-16.09518,1.17402,-0.22184,-0.12966,120.75871,7.99698,-5.61514,-106.59012,-3.91647,16.59646,6.50964,-1.42594,1.06931,-2.23818,-10.24963,5.29928,-2.53943,-1.67778,-0.00453,1.32976,0.16451,0.53891,-0.2229,-0.19792,-0.07018,-0.00062,0.08543,0.0573
662,73.37727,-61.66981,-1.08171,3.52616,6.12374,1.60789,58.89049,-42.35999,-4.55959,31.75134,4.17794,11.77643,-21.79336,54.47391,-15.38151,1.31447,-0.13678,0.24892,116.81368,15.22053,7.53824,-104.3325,-12.72189,11.84912,6.68272,-1.44608,1.09743,-1.56711,-9.96151,4.49485,-2.81392,-1.63756,0.23192,1.67414,0.0447,0.63165,-0.25048,-0.184,-0.04901,0.07991,0.08204,0.03708
663,70.94678,-60.13789,-0.21082,3.25177,8.42618,2.0137,53.14165,-42.26467,-4.21153,32.65023,7.58944,17.90072,-22.42708,53.92997,-14.73834,1.41119,-0.0458,0.46546,112.45586,20.52506,17.29992,-105.33797,-22.87667,5.35171,6.71004,-1.37816,1.27816,-1.13489,-9.33076,3.5076,-2.84674,-1.58417,0.42509,1.75234,-0.13376,0.65618,-0.24815,-0.17642,-0.00999,0.08407,0.06298,-0.00142
664,67.96635,-58.58686,0.73132,2.95752,10.09564,1.89632,46.63213,-41.84289,-3.20594,33.36778,10.01071,20.46456,-23.05736,53.34628,-14.20862,1.43035,0.05147,0.5548,107.73724,24.54825,22.72472,-107.35604,-30.85223,-0.02748,6.60146,-1.28735,1.49512,-0.94062,-8.64191,2.75214,-2.61822,-1.55906,0.50881,1.59604,-0.38103,0.73063,-0.20365,-0.18227,0.02867,0.02112,0.01055,-0.01296
665,64.57932,-56.79131,1.53319,3.25268,11.16726,1.3864,39.74178,-40.69024,-2.03964,34.44748,11.39526,19.97976,-23.6536,52.7183,-13.80993,1.4425,0.15599,0.59417,103.78617,27.28087,23.34765,-105.124,-34.24354,-2.27327,6.40062,-1.27897,1.53743,-0.79888,-8.16464,2.41213,-2.16729,-1.61235,0.37758,1.42107,-0.66662,0.88494,-0.1136,-0.20455,0.03124,-0.04506,-0.07935,0.02034
666,60.92292,-54.83033,2.13181,4.88948,11.47802,0.55473,32.80859,-39.31675,-1.17579,37.26775,11.26114,17.12784,-24.21033,52.04551,-13.52972,1.61177,0.23061,0.63699,102.27178,27.68534,19.40614,-95.55081,-33.08303,-1.6038,6.13079,-1.46823,1.33249,-0.54151,-7.88861,2.36815,-1.68877,-1.80694,0.07707,1.38426,-0.91487,1.04578,-0.01096,-0.25554,-0.00125,-0.06165,-0.17999,0.07572
667,57.09621,-52.91137,2.58701,8.14793,10.93685,-0.48375,25.86214,-38.05417,-0.73876,42.80239,9.43864,13.16671,-24.73264,51.33712,-13.33901,2.07069,0.22203,0.70557,103.74542,26.16558,12.69225,-80.90813,-29.59258,-0.14027,5.83364,-1.87652,1.0133,-0.11842,-7.65769,2.3552,-1.44525,-2.12578,-0.12218,1.54837,-1.07233,1.16051,0.05333,-0.33742,-0.01299,-0.01096,-0.25623,0.12254
668,53.16954,-51.06639,2.92883,12.4402,9.93098,-1.53694,18.92873,-36.37418,-0.66743,50.2882,6.88702,9.98486,-25.22151,50.61226,-13.21169,2.77206,0.12464,0.81477,106.89372,25.55232,6.24502,-67.50994,-26.65426,-0.15285,5.59274,-2.3055,0.77102,0.43483,-7.39108,2.14386,-1.51183,-2.38548,0.00229,1.94766,-1.11618,1.20874,0.0574,-0.41224,0.03568,0.10396,-0.28304,0.13801
669,49.04971,-49.39286,3.24776,16.62734,8.78915,-2.44318,11.8598,-34.49146,-0.72729,57.38094,4.60423,8.51456,-25.67425,49.86076,-13.14207,3.49718,-0.03467,0.9507,108.70955,26.76733,2.04284,-61.05579,-26.17919,-2.41458,5.45678,-2.46116,0.77725,0.98238,-7.16317,1.65515,-1.78365,-2.39518,0.42434,2.51995,-1.01937,1.15511,-0.00024,-0.43191,0.13661,0.25089,-0.24838,0.1114
670,44.38486,-48.1445,3.74899,19.799,7.43229,-3.10842,3.8067,-33.78245,-0.45766,62.30853,2.64558,8.10596,-26.09563,49.02673,-13.14864,4.01189,-0.23306,1.07511,106.45142,27.1056,-0.05931,-62.80651,-28.15696,-5.94203,5.48357,-2.22723,1.07171,1.34918,-7.08286,1.00865,-2.0984,-2.15212,0.92399,3.06983,-0.7665,0.98098,-0.10432,-0.38161,0.25407,0.37132,-0.16002,0.05538
671,38.85958,-47.30915,4.50991,21.58223,5.88395,-3.51464,-6.07747,-34.78152,0.42455,65.12946,0.83575,7.82978,-26.4913,48.03304,-13.24101,4.1943,-0.43952,1.15159,99.86958,24.5284,-1.05916,-69.2917,-30.82212,-8.99042,5.81261,-1.79379,1.39804,1.47306,-7.21587,0.44992,-2.29244,-1.83422,1.22573,3.41473,-0.40753,0.73031,-0.20532,-0.29053,0.33228,0.43009,-0.05282,0.00233
672,32.54361,-46.5563,5.37798,21.95458,4.42796,-3.70893,-17.31601,-36.5523,1.69971,66.97423,-0.83559,7.34671,-26.84407,46.79536,-13.37553,4.07122,-0.63739,1.15517,91.34146,19.73096,-1.59584,-75.30881,-31.66057,-10.24315,6.5534,-1.52043,1.36727,1.42552,-7.5628,0.1671,-2.34695,-1.63957,1.21856,3.49359,-0.07041,0.48597,-0.25932,-0.21034,0.33176,0.4321,0.02336,-0.0208
673,25.94993,-45.5142,6.07232,21.08138,3.38909,-3.76628,-27.9148,-37.56976,2.78297,68.40512,-2.15159,6.90253,-27.09872,45.24298,-13.47227,3.77436,-0.83704,1.07307,83.51009,15.11063,-1.67569,-77.29176,-29.07219,-9.42919,7.57179,-1.6068,0.8229,1.28727,-8.05925,0.17145,-2.36552,-1.60272,1.03066,3.32391,0.09947,0.31031,-0.26258,-0.1745,0.26276,0.39104,0.03293,-0.01302
674,19.73193,-43.99135,6.37588,19.36245,2.96579,-3.7772,-35.51499,-36.63036,3.17511,69.15372,-2.71096,6.96515,-27.17566,43.35361,-13.45765,3.43331,-1.01622,0.9093,78.00281,13.21781,-0.94565,-74.26463,-23.81291,-7.30948,8.43726,-1.92723,-0.02342,1.15418,-8.60213,0.2913,-2.38813,-1.59484,0.84859,3.05791,0.04298,0.21353,-0.22868,-0.17691,0.16477,0.33658,-0.01966,0.00122
675,14.2474,-42.15939,6.34998,17.4045,2.99147,-3.79562,-39.18378,-33.74143,2.96182,69.08387,-2.61419,7.54907,-26.98362,41.13937,-13.28609,3.00124,-1.05197,0.69341,75.36766,14.61511,0.56702,-67.38858,-18.58823,-4.94289,8.68618,-2.16427,-0.78233,1.14854,-9.08603,0.32803,-2.33703,-1.45197,0.76613,2.92721,-0.15789,0.1635,-0.17144,-0.18181,0.0783,0.30907,-0.09508,-0.0018
676,9.51316,-40.12916,6.1725,15.78361,3.06612,-3.8317,-39.79644,-29.31591,2.61229,68.34241,-2.36582,8.17712,-26.43828,38.63165,-12.93516,2.08595,-0.65113,0.46657,74.77573,18.38512,2.10274,-58.87465,-16.05901,-2.84257,8.10584,-2.09494,-1.18637,1.33776,-9.4105,0.2713,-2.13529,-1.12203,0.76377,3.01395,-0.37048,0.15195,-0.10866,-0.16048,0.02568,0.31685,-0.16072,-0.01196
677,5.51136,-37.56178,5.86347,14.59877,2.91861,-3.85451,-38.54507,-23.40307,2.32174,66.51931,-2.12831,8.56012,-25.4787,35.89278,-12.38153,-0.09847,0.65086,0.25726,74.55248,23.64799,2.91753,-50.75102,-17.15881,-0.88306,6.96798,-1.76342,-1.24287,1.67743,-9.52189,0.28023,-1.80792,-0.72268,0.74753,3.18926,-0.53019,0.21383,-0.05863,-0.11799,0.0003,0.33329,-0.21344,0.00274
678,2.17681,-34.24026,5.43995,13.35872,2.3272,-3.71945,-36.53488,-17.0994,2.08369,62.31512,-2.08305,8.60306,-24.09361,32.99154,-11.61613,-4.47134,3.30896,0.09051,71.8966,27.7969,2.8121,-43.65979,-20.85861,1.22586,5.82835,-1.38515,-1.13093,2.01872,-9.41698,0.43828,-1.44336,-0.43281,0.63214,3.26591,-0.64099,0.35554,-0.02856,-0.07932,-0.01823,0.32686,-0.25581,0.05049
679,-0.54435,-30.24224,4.97512,11.44003,1.16302,-3.24443,-34.70023,-12.05409,1.96268,54.19281,-2.2465,8.26075,-22.33057,29.9992,-10.64545,-11.64442,7.56385,0.01975,63.16288,27.83746,1.93282,-36.39697,-25.40374,3.58807,5.1202,-1.14834,-0.9558,2.15076,-9.16357,0.58895,-1.13529,-0.3805,0.41453,3.15279,-0.6945,0.49427,-0.01325,-0.06547,-0.03898,0.27914,-0.27458,0.1022
680,-2.48475,-25.73026,4.47657,8.74702,-0.32998,-2.44201,-33.1565,-8.77907,1.90864,42.03791,-1.73675,7.78248,-20.27711,27.0118,-9.48493,-21.58508,13.30267,0.12333,46.99725,24.00537,0.48123,-27.33863,-29.40513,6.00524,4.90644,-1.05996,-0.60187,1.93442,-8.9303,0.42044,-0.97663,-0.58836,0.1774,2.9431,-0.63206,0.48901,-0.01219,-0.08228,-0.05287,0.20615,-0.2521,0.11754
681,-3.36148,-21.25066,3.99705,5.93032,-1.77512,-1.58544,-31.24273,-7.4237,1.86042,28.14917,0.50526,7.52542,-18.02749,24.0941,-8.16857,-33.48591,19.89089,0.42975,26.25107,18.19683,-1.18702,-16.65849,-31.83057,7.92562,4.9705,-0.95259,0.13763,1.38972,-8.86936,-0.24851,-1.03237,-0.96585,0.02385,2.79419,-0.39592,0.25308,-0.03765,-0.1166,-0.04459,0.14321,-0.18416,0.07876
682,-2.97026,-17.44051,3.61663,3.58573,-2.85709,-1.0207,-28.02303,-7.74652,1.89382,15.17994,5.26827,7.60724,-15.65812,21.24871,-6.7437,-46.15767,26.41069,0.85641,5.33499,12.87643,-2.48647,-7.24784,-31.65008,8.6721,5.1271,-0.63597,1.28417,0.70611,-8.9576,-1.21382,-1.24994,-1.33509,0.00584,2.72875,-0.01715,-0.1462,-0.09139,-0.13573,-0.00801,0.10668,-0.08904,0.00706
683,-1.35522,-14.45155,3.29322,2.26178,-3.67564,-0.89383,-23.01233,-8.47903,1.94885,4.95889,12.34496,7.9472,-13.23921,18.4831,-5.28238,-58.43471,32.10174,1.31352,-11.969,10.27652,-3.20663,-2.4041,-28.32202,7.85155,5.34886,-0.11092,2.52264,0.18843,-9.03889,-2.0007,-1.44455,-1.54324,0.09208,2.68155,0.34452,-0.50832,-0.14248,-0.11313,0.04582,0.09911,-0.01143,-0.05271
684,1.03113,-12.1217,2.95498,2.41017,-4.65791,-1.09195,-16.97635,-8.57896,1.78519,-2.05178,20.19057,8.38936,-10.84685,15.84161,-3.87824,-69.40813,36.58759,1.7669,-24.42254,10.30328,-3.63651,-2.19072,-22.15167,5.6663,5.67231,0.35949,3.30989,0.06837,-8.98155,-2.23705,-1.42044,-1.5526,0.2025,2.61142,0.50354,-0.64972,-0.14891,-0.05625,0.09743,0.1225,0.0024,-0.06617
685,3.4509,-10.25766,2.60874,3.80419,-5.83737,-1.38936,-11.57443,-8.02057,1.29404,-7.4972,27.42561,8.81476,-8.57167,13.37721,-2.61865,-78.51276,39.8942,2.23664,-34.66535,11.36942,-3.79451,-2.60731,-14.14157,2.79034,5.97762,0.43546,3.16851,0.32443,-8.78066,-1.93999,-1.10611,-1.40471,0.26025,2.52187,0.43436,-0.55807,-0.09628,0.00108,0.12867,0.16644,-0.04613,-0.035
686,5.30029,-8.6591,2.29628,5.9318,-6.85911,-1.59603,-7.9519,-7.07713,0.60828,-13.43116,33.67559,9.24184,-6.49676,11.13409,-1.55278,-85.49341,42.31196,2.79374,-46.02071,12.44163,-3.37725,1.30499,-5.89032,-0.05567,6.02363,-0.04166,1.97991,0.73534,-8.57223,-1.44058,-0.59117,-1.16768,0.19723,2.4251,0.29948,-0.38921,-0.00598,0.02667,0.11907,0.20294,-0.10281,0.0081
687,6.319,-7.19194,2.05015,8.7258,-7.38664,-1.68175,-6.02884,-5.92407,-0.00228,-19.79013,39.26523,9.82888,-4.68976,9.13428,-0.69484,-90.2946,44.15295,3.49789,-58.47508,13.42731,-2.22779,11.56882,0.40561,-2.40024,5.63453,-0.92522,0.09607,1.10732,-8.55535,-1.06079,-0.04014,-0.9163,-0.03027,2.34493,0.2512,-0.301,0.08811,0.00915,0.05302,0.21286,-0.1234,0.0319
688,6.51784,-5.85892,1.90528,12.52253,-7.3592,-1.73657,-5.00695,-4.68933,-0.21372,-24.60459,44.49947,10.65229,-3.20699,7.36686,-0.0351,-92.97478,45.59143,4.35054,-69.01862,14.59271,-0.41281,26.07471,2.79459,-4.00901,4.90548,-1.85731,-1.81818,1.3911,-8.82599,-0.91044,0.41522,-0.71364,-0.37621,2.32782,0.29671,-0.32397,0.16018,-0.03612,-0.05286,0.20701,-0.11211,0.0308
689,6.09149,-4.72316,1.86787,17.45292,-7.01336,-1.82446,-4.20919,-3.48304,0.1532,-26.25322,49.0305,11.49723,-2.07134,5.82173,0.44147,-93.69236,46.64853,5.29492,-75.08447,15.89041,1.77976,40.38277,0.65355,-4.66496,4.17521,-2.4997,-3.11009,1.57788,-9.28361,-0.95525,0.70942,-0.62056,-0.70008,2.38795,0.37814,-0.39442,0.20017,-0.08924,-0.1488,0.20111,-0.09051,0.01982
690,5.36521,-3.86228,1.9022,23.09602,-6.55668,-1.92349,-3.51137,-2.65666,0.92334,-24.9216,52.26295,12.03362,-1.2452,4.51584,0.75717,-92.71867,47.28979,6.25466,-76.74877,16.86692,3.96164,50.36284,-5.02533,-4.07545,3.75543,-2.71404,-3.41636,1.60818,-9.69377,-1.12787,0.80653,-0.71635,-0.8661,2.45036,0.44166,-0.4424,0.20857,-0.1533,-0.18933,0.18077,-0.07469,0.01772
691,4.67329,-3.31938,1.94136,28.82642,-5.93088,-1.98693,-3.08193,-2.71154,1.62545,-21.74888,54.0666,12.17773,-0.65141,3.48387,0.94092,-90.38705,47.49767,7.1661,-75.38809,17.04353,5.85531,53.81619,-12.39488,-2.19624,3.70885,-2.56288,-2.7955,1.46587,-9.91554,-1.39588,0.68224,-1.01767,-0.82945,2.47912,0.43024,-0.44303,0.18638,-0.23084,-0.16528,0.13123,-0.08271,0.02993
692,4.17714,-2.99564,1.90475,34.09212,-4.90198,-1.98909,-2.96322,-3.68445,1.84813,-17.95597,54.9553,12.10273,-0.23871,2.7475,1.01675,-87.10164,47.3022,7.98494,-72.2876,16.41914,7.35265,51.31142,-19.56312,0.36765,3.87035,-2.19953,-1.65426,1.24052,-9.89921,-1.8069,0.39806,-1.42237,-0.66256,2.58708,0.35202,-0.43932,0.14243,-0.30181,-0.10499,0.08089,-0.11346,0.03939
693,3.84364,-2.68519,1.75764,38.52188,-3.30515,-1.92602,-3.00928,-4.94888,1.58913,-14.50004,55.73171,11.94662,0.00695,2.30276,1.01,-83.3929,46.81232,8.69875,-68.36585,15.72058,8.40116,45.99961,-25.06652,2.63408,4.10739,-1.7979,-0.50546,1.0429,-9.56288,-2.35434,0.14023,-1.81809,-0.52479,2.8521,0.295,-0.4824,0.10829,-0.34487,-0.05472,0.06657,-0.13386,0.02637
694,3.5159,-2.26391,1.55309,41.93515,-1.22522,-1.78204,-3.15112,-5.8241,1.19154,-11.93603,56.72889,11.6135,0.09603,2.12516,0.94173,-79.87017,46.21616,9.32789,-64.32433,15.6189,8.81499,41.98119,-27.66918,3.77544,4.41962,-1.48804,0.24824,0.93774,-8.84001,-2.7988,0.10561,-2.1202,-0.55221,3.12701,0.28305,-0.52977,0.11597,-0.34745,-0.04779,0.08313,-0.12375,-0.00257
695,3.06286,-1.82962,1.39366,44.25972,1.04773,-1.51037,-3.29875,-6.25829,0.97641,-10.55848,57.46618,10.89789,0.05101,2.15776,0.83012,-77.07782,45.71889,9.90049,-60.79727,15.56367,8.26877,41.81631,-26.4757,3.25574,4.81092,-1.34633,0.39847,0.98387,-7.83241,-2.83461,0.33529,-2.24531,-0.75557,3.22254,0.23928,-0.48523,0.16398,-0.30376,-0.08567,0.1135,-0.10269,-0.02431
696,2.48739,-1.58672,1.33832,45.47177,3.21579,-1.06361,-3.16499,-6.68396,0.98493,-10.90042,57.40268,9.77648,-0.0992,2.3225,0.69052,-75.34976,45.45192,10.42696,-59.13118,14.26681,6.68528,45.18868,-21.99601,0.75785,5.17308,-1.39754,-0.0434,1.23161,-6.83508,-2.42274,0.69667,-2.13321,-1.02787,3.1685,0.10948,-0.31698,0.22454,-0.22339,-0.14761,0.17235,-0.09785,-0.02758
697,1.89805,-1.61182,1.3456,45.62797,5.14513,-0.44573,-2.30728,-7.31314,1.01394,-13.44681,56.96048,8.63579,-0.32382,2.56158,0.52544,-74.76328,45.46292,10.89903,-60.61449,11.80152,4.70586,50.03857,-16.75077,-3.57329,5.33003,-1.60215,-0.84167,1.62011,-6.10769,-1.83891,1.00453,-1.81652,-1.23008,3.15232,-0.07167,-0.08624,0.27125,-0.13743,-0.20638,0.28402,-0.11213,-0.02061
698,1.39678,-1.74285,1.3158,44.96767,6.80898,0.25714,-0.52969,-7.69844,0.86855,-17.55555,57.26771,8.0424,-0.5944,2.85511,0.33362,-75.1898,45.73291,11.29825,-64.54498,10.42391,3.34185,54.42603,-13.93536,-8.81858,5.20193,-1.85854,-1.62922,1.99635,-5.71419,-1.40088,1.14071,-1.42327,-1.27267,3.25234,-0.21132,0.09885,0.29148,-0.07885,-0.23828,0.42973,-0.12254,-0.02132
699,1.00272,-1.69638,1.18294,43.82756,8.11949,0.91516,1.67006,-7.18117,0.61543,-21.47588,58.94428,8.18067,-0.89132,3.19587,0.12259,-76.4143,46.21158,11.59578,-68.74928,12.26304,2.98314,56.82588,-14.78538,-13.34834,4.86099,-2.07612,-2.12106,2.25257,-5.52758,-1.16205,1.07835,-1.09155,-1.145,3.29507,-0.24959,0.17447,0.2786,-0.0549,-0.23028,0.53195,-0.1104,-0.03465
700,0.65172,-1.33913,0.98748,42.36425,8.91153,1.44559,3.25648,-5.75138,0.52616,-23.8326,61.43923,8.70037,-1.19685,3.55841,-0.0807,-78.23286,46.85078,11.75771,-71.91558,16.68727,3.16736,55.74318,-17.78414,-15.49202,4.43355,-2.22687,-2.25438,2.44915,-5.41772,-0.89795,0.85745,-0.87858,-0.89074,3.04536,-0.22502,0.17872,0.22763,-0.04914,-0.18143,0.51394,-0.08945,-0.04072
701,0.29602,-0.84576,0.83431,40.52561,9.08486,1.85295,3.44844,-4.24599,0.69862,-24.36669,63.51424,9.22695,-1.47483,3.89337,-0.24295,-80.42987,47.58038,11.76599,-73.78654,20.76067,3.29066,51.05482,-20.6933,-14.48379,4.03832,-2.32196,-2.11118,2.74599,-5.34191,-0.39003,0.56306,-0.78076,-0.572,2.49874,-0.24226,0.21009,0.14765,-0.04664,-0.10064,0.37158,-0.09532,-0.013
702,-0.11579,-0.51159,0.80309,38.31516,8.76383,2.16691,2.09932,-3.54079,0.92482,-23.58567,64.32053,9.71537,-1.68286,4.14661,-0.35049,-82.76064,48.30664,11.63564,-74.64808,22.00771,3.22069,45.21759,-22.77321,-10.87257,3.77703,-2.33206,-1.75226,3.22251,-5.33624,0.35434,0.30174,-0.79172,-0.25639,1.89813,-0.38793,0.34401,0.0679,-0.05023,-0.00615,0.17398,-0.15274,0.05516
703,-0.60858,-0.46114,0.89841,35.97021,8.31075,2.37189,-0.423,-3.7398,0.99851,-22.12615,64.18523,10.32001,-1.79951,4.27744,-0.40703,-85.00187,48.95457,11.41949,-75.25712,20.53057,3.28376,41.95172,-24.44571,-6.21052,3.70625,-2.18872,-1.17285,3.80225,-5.42585,1.09898,0.13381,-0.92375,-0.00587,1.54146,-0.6457,0.56424,0.01596,-0.07188,0.07822,0.01574,-0.24378,0.13469
704,-1.0387,-0.60601,1.04178,33.80486,8.08293,2.42099,-3.12063,-4.20914,0.94978,-20.63203,64.33923,11.15674,-1.82789,4.27177,-0.42477,-86.99908,49.48592,11.17479,-76.16702,18.75699,4.04317,43.21823,-25.70921,-2.40629,3.82978,-1.86435,-0.44016,4.32957,-5.54548,1.53082,0.05971,-1.14762,0.12497,1.6005,-0.88717,0.75972,0.00236,-0.10868,0.12546,-0.03111,-0.31368,0.17497
705,-1.19784,-0.8194,1.14419,31.94194,8.16944,2.31968,-4.95508,-4.32489,0.91674,-19.5744,65.63301,12.22283,-1.78643,4.14115,-0.41426,-88.66647,49.89269,10.93884,-77.15795,18.94835,5.73027,48.06939,-25.62266,-0.9828,4.09651,-1.47113,0.19545,4.57437,-5.50743,1.36357,0.07566,-1.38191,0.08921,2.04177,-0.93362,0.77934,0.02842,-0.14353,0.1123,0.04732,-0.3109,0.13972
706,-1.02936,-1.04127,1.17286,30.28046,8.38633,2.15078,-5.63447,-4.09726,0.94855,-19.18105,67.61864,13.32941,-1.69374,3.91957,-0.38266,-89.94043,50.17492,10.72883,-77.87134,20.9006,7.82872,54.4798,-23.49001,-2.35314,4.40503,-1.22864,0.42671,4.2399,-5.14085,0.36146,0.19899,-1.54928,-0.12024,2.70506,-0.63489,0.51733,0.08918,-0.1621,0.03796,0.20691,-0.21824,0.03102
707,-0.64817,-1.24522,1.13631,28.68227,8.44169,2.01739,-5.4474,-4.1514,1.01642,-19.47268,68.98434,14.15918,-1.56385,3.65185,-0.34264,-90.76143,50.31693,10.54881,-78.20856,22.21265,9.63013,60.91593,-19.7629,-5.38306,4.59888,-1.28112,0.17383,3.1405,-4.43335,-1.48883,0.42248,-1.62986,-0.42576,3.3887,0.03151,0.00452,0.1633,-0.16021,-0.06141,0.37749,-0.05685,-0.11228
708,-0.21545,-1.38611,1.05095,27.1124,8.14381,1.97119,-4.61518,-5.11732,1.15144,-20.22039,68.83545,14.49213,-1.41045,3.37773,-0.31071,-91.10678,50.29082,10.3971,-77.94096,20.82033,11.05922,66.74647,-16.33241,-7.8218,4.56443,-1.59301,-0.25836,1.57089,-3.6116,-3.65162,0.66752,-1.73148,-0.67597,3.90148,0.8514,-0.53739,0.21302,-0.15815,-0.12329,0.50114,0.1156,-0.22909
709,0.17912,-1.38808,0.92121,25.6166,7.51137,1.99483,-3.28622,-6.78029,1.37859,-21.10569,67.37407,14.33704,-1.24796,3.12461,-0.29398,-91.01002,50.06602,10.27151,-77.0334,17.22898,12.26928,71.53542,-15.55591,-7.74499,4.37166,-2.00464,-0.41129,0.3001,-3.00762,-5.04751,0.8136,-2.02108,-0.73927,4.05216,1.40044,-0.77539,0.20986,-0.18964,-0.10521,0.54142,0.21979,-0.25871
710,0.49403,-1.17075,0.73833,24.25091,6.78457,2.026,-1.92307,-8.05652,1.52237,-21.88595,65.71833,13.98214,-1.0916,2.91988,-0.29028,-90.55387,49.63041,10.16572,-76.14796,14.23332,13.00852,74.36406,-18.57084,-5.03528,4.25113,-2.33274,-0.09079,0.05458,-2.81028,-4.73525,0.7733,-2.50492,-0.59957,3.72228,1.32849,-0.50869,0.15249,-0.25896,-0.02291,0.48578,0.20454,-0.18027
711,0.70503,-0.70335,0.48746,23.11003,6.29823,2.00623,-1.16799,-7.9719,1.25305,-22.61283,65.16795,13.84242,-0.94997,2.79098,-0.29899,-89.83147,49.00924,10.07852,-76.41718,14.47623,12.88724,74.24873,-23.99048,-1.47955,4.4025,-2.45831,0.52005,0.9664,-2.94469,-2.77073,0.56529,-2.99549,-0.35844,3.04631,0.68218,0.1412,0.06433,-0.33799,0.07008,0.36854,0.09015,-0.03551
712,0.80077,-0.05381,0.18359,22.3444,6.21741,1.91449,-1.38258,-6.50313,0.44218,-23.45747,66.20673,14.08558,-0.82114,2.74191,-0.31996,-88.92811,48.27148,10.01611,-78.33515,18.12241,11.79115,71.36373,-28.55962,0.60921,4.77235,-2.36432,1.07829,2.47532,-3.20318,-0.27179,0.33209,-3.28008,-0.15238,2.37245,-0.12042,0.81384,-0.01512,-0.39598,0.13066,0.2567,-0.05108,0.1003
713,0.81907,0.60757,-0.11352,22.07599,6.38144,1.77303,-2.34466,-4.5263,-0.60771,-24.33707,68.12041,14.44373,-0.69802,2.74832,-0.35248,-87.93958,47.5199,9.98848,-80.8384,22.94433,9.94188,67.33949,-29.24387,-0.18341,5.13721,-2.14554,1.27327,3.70232,-3.37239,1.36262,0.24575,-3.23546,-0.07836,1.97815,-0.59442,1.12979,-0.04539,-0.41267,0.14121,0.19312,-0.13658,0.15598
714,0.85544,1.11623,-0.34591,22.28487,6.487,1.62794,-3.31973,-3.06867,-1.39142,-24.84905,69.72517,14.52395,-0.57121,2.77369,-0.39545,-86.97386,46.86155,10.00401,-81.85378,26.36149,7.89621,64.75282,-25.5931,-3.85665,5.29725,-1.96556,0.91069,4.06352,-3.37394,1.35289,0.39261,-2.85021,-0.1847,1.93701,-0.49088,0.92146,-0.00253,-0.38139,0.09395,0.17653,-0.11962,0.10226
715,0.95558,1.393,-0.48244,22.8661,6.44325,1.50196,-3.76863,-2.607,-1.56259,-24.51489,70.46826,14.218,-0.44429,2.78999,-0.45115,-86.12086,46.37272,10.06531,-80.17602,27.40057,6.41088,65.19984,-20.0401,-8.99602,5.19752,-1.92794,0.00836,3.58688,-3.26726,0.0031,0.75959,-2.21429,-0.47758,2.17693,0.033,0.39956,0.11119,-0.30425,-0.01173,0.19493,-0.03538,-0.00958
716,1.02361,1.49133,-0.51262,23.60201,6.44341,1.39742,-4.04466,-2.69368,-1.12821,-23.33413,70.69414,13.77025,-0.34111,2.79349,-0.5159,-85.43919,46.07907,10.16578,-76.86362,27.42157,5.90489,68.22232,-15.96525,-13.39516,4.91088,-1.99967,-1.11007,2.77264,-3.18996,-1.67236,1.25306,-1.52389,-0.87343,2.57285,0.58276,-0.01536,0.26012,-0.19357,-0.14508,0.24621,0.03004,-0.08295
717,0.94956,1.58558,-0.47138,24.1871,6.70173,1.34278,-4.7449,-2.45954,-0.45771,-21.89916,70.81215,13.53493,-0.28584,2.81517,-0.57162,-84.92548,45.94834,10.2943,-73.93878,28.32071,6.20112,71.44384,-15.15808,-15.2172,4.55611,-2.07546,-1.94913,2.13365,-3.23158,-2.76885,1.74446,-1.0473,-1.21417,2.95813,0.8562,-0.06105,0.39272,-0.08416,-0.24728,0.31402,0.0248,-0.06487
718,0.72559,1.79756,-0.42108,24.38409,7.28799,1.37518,-5.90377,-1.70429,0.0072,-20.85915,70.82874,13.69193,-0.28841,2.88141,-0.60169,-84.52792,45.91797,10.43722,-72.68221,30.03829,6.87622,72.77219,-16.73971,-14.16746,4.30744,-2.05868,-2.17957,1.87075,-3.36787,-3.031,2.11384,-0.93997,-1.37251,3.18216,0.82393,0.19455,0.4722,-0.00941,-0.27882,0.36295,-0.02786,0.01412
719,0.43619,2.07268,-0.39764,24.14698,8.08679,1.49478,-6.95152,-1.12219,0.10198,-20.3766,70.40606,14.07521,-0.34709,2.97639,-0.6038,-84.18912,45.92397,10.57555,-72.85258,30.4248,7.58394,71.75481,-18.35096,-11.41015,4.23779,-1.8638,-1.79653,1.95728,-3.4925,-2.75225,2.24921,-1.10718,-1.30769,3.24479,0.66309,0.49814,0.48168,0.02884,-0.2443,0.38356,-0.06619,0.08062
720,0.20251,2.20382,-0.38811,23.62829,8.85017,1.67177,-7.04334,-1.62927,-0.069,-20.16323,69.06053,14.30189,-0.44705,3.06129,-0.58416,-83.85721,45.91125,10.69816,-72.73231,27.24714,8.09616,69.83957,-18.37889,-8.32952,4.24206,-1.45296,-0.99159,2.28214,-3.5116,-2.32509,2.08593,-1.36442,-1.06223,3.25009,0.54082,0.6612,0.42083,0.04012,-0.17441,0.39743,-0.05779,0.08883
721,0.02808,1.97517,-0.33831,22.96521,9.3794,1.87648,-6.01422,-3.55948,-0.30441,-20.32183,66.77424,14.08156,-0.57503,3.09946,-0.55778,-83.49318,45.84362,10.80691,-71.66829,20.44036,8.31644,69.08462,-17.18411,-5.57313,4.11702,-0.8968,-0.01609,2.63644,-3.40688,-1.9859,1.71559,-1.65719,-0.76126,3.22116,0.49793,0.64824,0.32294,0.0117,-0.10573,0.40903,-0.01771,0.04578
722,-0.25516,1.39659,-0.19158,22.1778,9.63401,2.08062,-4.92205,-5.87141,-0.40663,-21.26365,64.39458,13.48555,-0.72966,3.08127,-0.54076,-83.08309,45.7104,10.90661,-71.31468,13.31208,8.14683,70.65977,-16.89386,-3.30272,3.83615,-0.39485,0.88593,2.76025,-3.24715,-1.86427,1.36575,-2.05519,-0.53192,3.09726,0.5022,0.51561,0.24489,-0.08099,-0.05786,0.39498,0.02202,-0.01399
723,-0.80232,0.69678,0.06452,21.22983,9.71129,2.25655,-5.08247,-6.62336,-0.28192,-23.00437,63.16536,12.95194,-0.91464,3.03388,-0.53875,-82.63644,45.52007,10.99702,-73.52674,10.75616,7.5136,73.52631,-19.69851,-1.82824,3.57833,-0.17012,1.53866,2.57483,-3.1463,-2.01761,1.15757,-2.5432,-0.37247,2.895,0.53195,0.34166,0.20595,-0.2276,-0.01701,0.34878,0.04099,-0.06057
724,-1.57085,0.03831,0.38874,20.13241,9.73191,2.38483,-6.81427,-4.89121,0.01292,-24.96242,63.77075,12.98247,-1.12922,3.00511,-0.55801,-82.16507,45.27872,11.06811,-78.03182,15.15337,6.71515,75.00401,-25.80008,-1.65216,3.52912,-0.31814,1.83629,2.30327,-3.2017,-2.37197,0.98715,-2.92147,-0.19408,2.72703,0.60143,0.18537,0.16955,-0.36909,0.03689,0.29323,0.03888,-0.08152
725,-2.3629,-0.6316,0.72339,18.90311,9.73183,2.47576,-9.27356,-1.87322,0.32825,-26.49159,65.608,13.69109,-1.36884,3.04346,-0.60544,-81.67593,44.9809,11.10926,-82.41811,23.95409,6.2766,73.71478,-32.68113,-2.91342,3.75066,-0.78834,1.71314,2.2958,-3.43442,-2.71349,0.74737,-2.99051,0.01278,2.68107,0.72355,0.07782,0.11097,-0.44854,0.09395,0.2548,0.02768,-0.07868
726,-2.9898,-1.43001,1.02254,17.54142,9.66379,2.55514,-11.3225,0.21298,0.53253,-27.39902,67.0913,14.61506,-1.63184,3.18302,-0.68047,-81.1765,44.61105,11.11649,-84.39838,31.52605,6.28883,70.91842,-36.7276,-4.91841,4.17196,-1.44439,1.19241,2.70234,-3.73991,-2.84707,0.50066,-2.72389,0.16723,2.72314,0.89232,-0.00096,0.05411,-0.44765,0.12671,0.23555,0.02844,-0.07021
727,-3.39677,-2.35243,1.26284,16.05481,9.4526,2.63636,-12.49282,0.02665,0.62212,-28.1109,67.00384,15.11645,-1.92239,3.43309,-0.77959,-80.67692,44.14579,11.09039,-84.25143,33.49038,6.45066,69.14268,-35.93228,-6.4609,4.67523,-2.10574,0.43167,3.37233,-3.96275,-2.74929,0.35907,-2.23391,0.20621,2.75098,1.09701,-0.10235,0.02855,-0.3742,0.11936,0.22178,0.06008,-0.0777
728,-3.60373,-3.26793,1.43872,14.46679,9.0443,2.7158,-12.82561,-2.14575,0.6597,-29.17675,65.26971,14.96454,-2.23492,3.7875,-0.88856,-80.16464,43.56411,11.02477,-83.52179,29.50189,6.63396,70.08453,-31.00691,-6.74649,5.18533,-2.63433,-0.34003,3.97524,-3.99553,-2.49117,0.36438,-1.72886,0.11737,2.73321,1.27288,-0.1796,0.03962,-0.26298,0.07162,0.21915,0.10664,-0.08861
729,-3.55868,-4.08324,1.54585,12.85525,8.4914,2.77967,-12.16988,-5.08642,0.72027,-30.57264,62.81592,14.4627,-2.53868,4.22095,-0.99325,-79.59771,42.86739,10.92264,-82.327,22.70996,7.08828,73.46262,-24.22769,-6.04976,5.66906,-2.98646,-0.90311,4.22875,-3.84591,-2.13727,0.49156,-1.43838,-0.04756,2.72098,1.30618,-0.10354,0.07412,-0.17443,0.00601,0.24772,0.12302,-0.06608
730,-3.2241,-4.79789,1.59976,11.33689,7.85779,2.80926,-10.7077,-7.41141,0.95143,-31.78379,60.75412,14.0033,-2.79754,4.668,-1.09119,-78.93938,42.0775,10.79966,-80.31522,17.27995,7.9101,77.44366,-17.7629,-5.47752,6.01924,-3.14621,-1.12171,4.07386,-3.62712,-1.81659,0.70571,-1.4535,-0.18837,2.74629,1.17435,0.12922,0.11523,-0.15233,-0.03448,0.29917,0.093,-0.00893
731,-2.73938,-5.42018,1.62366,10.02118,7.09618,2.80886,-9.38685,-8.23316,1.34126,-32.35893,59.31049,13.7436,-2.99307,5.05735,-1.19055,-78.16313,41.21809,10.67117,-78.16248,15.3486,8.64278,80.15089,-12.97189,-5.91752,6.09159,-3.07164,-1.0075,3.70563,-3.47011,-1.66736,0.96768,-1.67134,-0.24655,2.76588,0.99697,0.3548,0.14947,-0.18882,-0.02661,0.33417,0.05012,0.0411
732,-2.34302,-6.009,1.62907,8.93763,6.22714,2.8225,-9.06962,-7.90427,1.53394,-32.30738,57.83784,13.69163,-3.13083,5.36825,-1.29855,-77.23379,40.31494,10.55404,-76.70352,15.72298,8.72662,80.57568,-10.1907,-7.29278,5.802,-2.74333,-0.74498,3.37854,-3.41185,-1.68416,1.21208,-1.882,-0.28011,2.70337,0.90978,0.43304,0.16331,-0.23275,0.00118,0.32235,0.0348,0.05391
733,-2.1797,-6.70521,1.64755,7.99074,5.48979,2.88491,-10.03026,-7.57761,1.29344,-32.15265,55.91902,13.71471,-3.23018,5.61385,-1.41029,-76.12803,39.38543,10.46679,-76.68278,16.02281,8.04485,79.02181,-8.77279,-8.84107,5.27491,-2.28899,-0.60373,3.19542,-3.37976,-1.75215,1.40077,-1.93092,-0.4022,2.53758,0.94662,0.36678,0.15522,-0.2373,-0.00184,0.27334,0.05397,0.03858
734,-2.19935,-7.59105,1.72976,7.04242,5.11772,2.98316,-12.01317,-7.98649,0.89548,-32.43827,53.89674,13.59555,-3.3123,5.81643,-1.5093,-74.84627,38.41489,10.41408,-78.53416,15.34428,7.02672,76.96317,-7.87013,-9.94275,4.84644,-1.98771,-0.74555,3.08955,-3.2945,-1.86345,1.56575,-1.83323,-0.64097,2.34154,1.06822,0.20482,0.15047,-0.20052,-0.0551,0.22202,0.09381,0.00631
735,-2.19969,-8.59773,1.87805,6.05514,5.11422,3.08851,-14.29913,-9.19038,0.69237,-33.23864,52.20129,13.30704,-3.39527,6.0263,-1.5781,-73.38423,37.37949,10.37605,-81.46925,13.9568,6.26558,75.66817,-7.33639,-10.38956,4.87638,-2.06269,-1.12716,2.97479,-3.1416,-2.10218,1.75522,-1.71092,-0.91298,2.20287,1.22426,-0.0452,0.18778,-0.15461,-0.14062,0.19244,0.14434,-0.05347
736,-1.99745,-9.66996,2.05706,5.11796,5.33252,3.19162,-16.06965,-11.15473,0.73593,-34.22552,50.79352,13.02952,-3.49626,6.30746,-1.6133,-71.72523,36.28374,10.32834,-83.86352,11.70586,6.04583,75.68172,-7.95593,-10.08283,5.41479,-2.46245,-1.52342,2.90094,-2.99164,-2.38944,1.95944,-1.67376,-1.09051,2.18104,1.34275,-0.30498,0.28323,-0.13317,-0.22237,0.19425,0.18442,-0.12748
737,-1.58302,-10.83429,2.25511,4.30361,5.57085,3.28119,-17.14553,-13.5871,1.00862,-35.13281,49.37177,12.79032,-3.63549,6.68196,-1.63276,-69.8676,35.1448,10.24952,-85.02645,8.63079,6.1422,77.25809,-10.75207,-8.83699,6.0241,-2.85047,-1.62091,2.99471,-2.93026,-2.45452,2.12378,-1.7772,-1.06662,2.29365,1.33962,-0.39193,0.40794,-0.15489,-0.25458,0.23311,0.18024,-0.16056
738,-1.02464,-12.03591,2.45639,3.54833,5.62602,3.33716,-17.74232,-15.57534,1.51622,-35.7792,47.66198,12.40516,-3.82199,7.13113,-1.65699,-67.83904,33.96099,10.12364,-84.859,5.99605,6.03258,80.50701,-15.65435,-6.82205,6.07422,-2.84695,-1.22177,3.29481,-3.00914,-2.15569,2.2058,-2.00728,-0.82101,2.47816,1.20767,-0.21693,0.50124,-0.21174,-0.20438,0.29375,0.12313,-0.1161
739,-0.41221,-13.15574,2.62416,2.73265,5.45468,3.34556,-18.10529,-16.31515,2.089,-35.84747,45.65108,11.81192,-4.05285,7.64181,-1.69618,-65.67686,32.72362,9.94505,-82.98584,5.38441,5.34042,84.15303,-20.84462,-4.84644,5.26932,-2.31928,-0.42094,3.65414,-3.21699,-1.65867,2.17142,-2.2493,-0.44028,2.5884,1.03219,0.10084,0.50593,-0.26425,-0.08216,0.32977,0.04394,-0.01866
740,0.05153,-14.14594,2.74721,1.77771,5.1695,3.30159,-18.63505,-15.92402,2.40011,-35.23035,43.57824,11.20756,-4.32393,8.21978,-1.7527,-63.41615,31.44016,9.70122,-79.82052,6.92516,4.17951,85.09539,-23.34484,-3.92403,3.98553,-1.53257,0.41589,3.91082,-3.48897,-1.27047,2.0114,-2.3562,-0.06731,2.56697,0.91866,0.3614,0.41557,-0.27162,0.05786,0.31454,-0.01522,0.07195
741,0.11089,-15.03379,2.84975,0.61903,4.8855,3.22815,-19.62518,-15.24684,2.18017,-34.3156,41.51405,10.87334,-4.63462,8.88988,-1.82516,-61.08441,30.13734,9.3778,-76.6331,8.92943,3.06093,80.43236,-21.07372,-4.39244,3.0226,-0.9922,0.88337,4.06231,-3.75205,-1.17201,1.77341,-2.27039,0.17931,2.53844,0.90908,0.46276,0.28496,-0.23,0.15468,0.27764,-0.03418,0.11066
742,-0.30933,-15.91286,2.97282,-0.82827,4.64909,3.16349,-20.7904,-15.0537,1.51871,-33.59248,39.33023,10.9136,-4.98002,9.66461,-1.91307,-58.71137,28.84487,8.98008,-73.91187,9.72451,2.54629,70.36808,-14.79707,-5.60658,2.95904,-1.04772,0.79293,4.19524,-3.96293,-1.32472,1.54299,-2.04992,0.24794,2.64417,0.97728,0.43968,0.18615,-0.16901,0.17523,0.26146,-0.01859,0.09429
743,-1.01606,-16.86558,3.16598,-2.58871,4.42578,3.12196,-21.64928,-15.36004,1.00691,-33.17268,37.04797,11.08156,-5.34126,10.51423,-2.01097,-56.34901,27.57948,8.54813,-71.12551,9.53152,2.87455,59.08867,-7.63617,-6.64928,3.74479,-1.59313,0.26551,4.31344,-4.11587,-1.56902,1.37569,-1.78237,0.14883,2.83414,1.06972,0.36752,0.15219,-0.11374,0.12036,0.2675,0.01665,0.04913
744,-1.71711,-17.88797,3.45149,-4.45651,4.13976,3.08196,-22.13814,-15.73912,1.24824,-32.69275,34.81903,10.98042,-5.69748,11.38209,-2.1063,-54.04861,26.34494,8.13839,-67.68098,9.5647,3.7427,51.81351,-2.4888,-7.15968,4.84177,-2.17411,-0.36478,4.41929,-4.2766,-1.75756,1.27507,-1.53642,-0.05031,2.94545,1.13977,0.27278,0.17112,-0.07404,0.01988,0.27316,0.05482,0.0004
745,-2.15557,-18.99203,3.78287,-5.98068,3.77581,3.00841,-22.32704,-16.32541,2.1751,-31.63299,32.73772,10.49871,-6.03713,12.21708,-2.18377,-51.82335,25.14103,7.78281,-63.22142,9.77451,4.55619,51.40987,-0.02407,-7.44829,5.71129,-2.38818,-0.76976,4.61988,-4.56015,-1.85193,1.23747,-1.37544,-0.24518,2.90042,1.18051,0.12002,0.21367,-0.05656,-0.07718,0.27118,0.0802,-0.04359
746,-2.20491,-20.26452,4.0846,-6.83651,3.46061,2.89868,-22.26226,-17.74053,3.1814,-30.07942,31.07557,9.87414,-6.35365,12.97935,-2.23181,-49.66063,23.96956,7.49021,-58.3563,9.32435,4.95876,56.68713,0.57372,-7.87755,6.1056,-2.1701,-0.83784,5.02172,-5.00275,-1.90019,1.25593,-1.32499,-0.35762,2.75383,1.23201,-0.11897,0.25369,-0.06767,-0.12938,0.27049,0.08756,-0.08185
747,-1.95158,-21.66263,4.31371,-7.08935,3.34631,2.76301,-22.3372,-19.78156,3.8496,-28.77252,30.38668,9.34573,-6.64397,13.64846,-2.25209,-47.5553,22.82836,7.24457,-54.9313,8.9842,4.96922,63.53427,-0.55867,-8.28999,6.10186,-1.77342,-0.71699,5.58141,-5.44113,-1.89168,1.27198,-1.32035,-0.37723,2.63301,1.32382,-0.36353,0.27099,-0.10221,-0.12866,0.28137,0.08055,-0.10063
748,-1.6255,-22.91684,4.46232,-7.06446,3.46003,2.60923,-23.20594,-21.0385,4.2014,-28.20832,30.91764,8.98669,-6.9015,14.2259,-2.2565,-45.51389,21.7166,7.01469,-54.30615,11.25681,4.73404,68.13447,-4.63358,-8.06552,5.91871,-1.52854,-0.67794,6.07843,-5.57029,-1.71553,1.18991,-1.20537,-0.35173,2.63278,1.41742,-0.45259,0.25983,-0.13884,-0.10029,0.30657,0.06545,-0.08122
749,-1.46843,-23.76184,4.53988,-7.13473,3.69112,2.47133,-25.21828,-20.24495,4.35279,-28.29947,32.0447,8.8038,-7.11482,14.72986,-2.25376,-43.54501,20.64453,6.77755,-56.0641,17.63938,4.30978,69.22683,-12.61259,-6.62438,5.70727,-1.60344,-0.87921,6.25793,-5.17593,-1.30004,0.98017,-0.87827,-0.33402,2.72987,1.43947,-0.30901,0.23408,-0.15615,-0.07414,0.33455,0.05224,-0.02976
750,-1.6522,-24.20659,4.56566,-7.54883,3.87574,2.40333,-28.24608,-17.89698,4.2788,-28.66561,32.52423,8.76432,-7.27131,15.18235,-2.25851,-41.65113,19.63291,6.52827,-58.77785,26.08901,3.65603,67.72021,-23.06013,-3.83154,5.49151,-1.90709,-1.19718,5.99785,-4.32272,-0.68471,0.75721,-0.47351,-0.32728,2.76457,1.33537,-0.00732,0.218,-0.15301,-0.05724,0.33522,0.04708,0.02664
751,-2.15564,-24.51257,4.56319,-8.39671,3.88938,2.42529,-31.44448,-16.36169,3.98622,-29.12886,31.31858,8.67694,-7.36504,15.61166,-2.28939,-39.83884,18.70338,6.26302,-61.0566,31.41347,3.0132,65.15721,-31.68077,-0.1588,5.25277,-2.15907,-1.28942,5.39908,-3.31902,0.03114,0.7345,-0.34683,-0.28727,2.57737,1.10061,0.31936,0.23272,-0.14724,-0.03807,0.28352,0.04285,0.07099
752,-2.75735,-24.93,4.54036,-9.51354,3.64296,2.49787,-33.56514,-17.96178,3.63443,-29.53038,27.91671,8.19595,-7.40461,16.04335,-2.35621,-38.10269,17.85405,5.97816,-61.72882,28.58417,2.77264,62.40772,-33.45256,3.41748,5.03436,-2.09239,-0.86112,4.80648,-2.54679,0.72727,1.04384,-0.80717,-0.16304,2.18503,0.80456,0.55025,0.28439,-0.15983,-0.00661,0.19518,0.03,0.09806
753,-3.22016,-25.4866,4.47034,-10.53568,3.1237,2.56107,-33.73354,-22.82194,3.33965,-29.39078,22.5101,7.18948,-7.41594,16.49903,-2.45977,-36.42611,17.05634,5.68046,-59.45778,16.98947,3.04678,59.55275,-25.95274,5.65364,4.95695,-1.69842,0.05147,4.61005,-2.24544,1.24527,1.59503,-1.81514,0.05454,1.80933,0.58006,0.59952,0.36012,-0.19971,0.03494,0.13143,0.01544,0.09948
754,-3.46435,-26.04158,4.33035,-11.19839,2.52632,2.57497,-32.04303,-28.70255,3.10267,-28.24606,16.5171,6.02079,-7.43555,16.99425,-2.59018,-34.79501,16.27781,5.38085,-53.54248,1.94131,3.70454,56.26234,-11.70319,5.56856,5.07449,-1.25343,1.021,4.96034,-2.40858,1.40996,2.12955,-2.92183,0.28689,1.70495,0.56542,0.44129,0.43082,-0.24971,0.06886,0.14977,0.0222,0.06791
755,-3.62803,-26.41731,4.1597,-11.49852,2.16815,2.5239,-29.90146,-32.66183,3.0031,-26.23723,12.14874,5.17968,-7.49701,17.53585,-2.72567,-33.19913,15.49438,5.09176,-45.8417,-8.64816,4.40872,52.36905,2.90764,3.11645,5.23519,-1.03649,1.49451,5.58868,-2.82951,1.12188,2.40041,-3.52969,0.37624,1.90933,0.7878,0.12502,0.45392,-0.25919,0.06335,0.23563,0.06109,0.00837
756,-3.90358,-26.50344,4.02219,-11.61459,2.19557,2.40958,-29.14267,-33.03659,3.14658,-23.84114,10.62595,4.80176,-7.61492,18.12342,-2.84497,-31.63465,14.70222,4.81886,-39.45689,-9.93292,4.49427,48.5774,11.55798,-0.60144,5.20408,-1.08904,1.22166,5.99894,-3.29176,0.43094,2.3342,-3.33622,0.21657,2.23557,1.11299,-0.23298,0.39824,-0.1843,0.00204,0.31437,0.11053,-0.06076
757,-4.35224,-26.40584,3.95076,-11.75524,2.44786,2.26616,-30.51244,-30.63969,3.41945,-21.52082,11.17737,4.74971,-7.78714,18.76091,-2.93341,-30.12753,13.92734,4.55942,-36.0006,-3.48804,3.53012,45.79398,11.64895,-3.95958,4.93941,-1.2652,0.44492,5.93346,-3.74101,-0.48345,2.07122,-2.57353,-0.12248,2.51782,1.37879,-0.5026,0.28414,-0.04876,-0.08576,0.33835,0.14232,-0.11651
758,-4.88929,-26.42514,3.93708,-12.03841,2.67786,2.14994,-33.23103,-28.01652,3.55777,-19.68157,12.15616,4.94372,-8.01237,19.45517,-2.99151,-28.73346,13.22183,4.30998,-35.03328,4.79751,2.01906,44.64169,5.00652,-5.92379,4.64935,-1.43942,-0.39368,5.55564,-4.23124,-1.34399,1.81022,-1.72808,-0.46679,2.71769,1.5165,-0.59758,0.17375,0.06895,-0.15037,0.32013,0.15095,-0.14094
759,-5.36249,-26.80732,3.9511,-12.47839,2.78563,2.08514,-35.86099,-27.21368,3.47019,-18.48499,12.55146,5.33671,-8.28705,20.19512,-3.03714,-27.50296,12.62674,4.06428,-34.86139,10.11845,0.92331,44.50935,-4.09046,-6.54707,4.58901,-1.6405,-1.02628,5.2217,-4.72182,-1.82136,1.60334,-1.11555,-0.67094,2.82368,1.52935,-0.50982,0.11276,0.10161,-0.16208,0.2886,0.14677,-0.12949
760,-5.63588,-27.53427,3.96281,-13.05616,2.77518,2.04554,-37.36729,-28.39691,3.33758,-18.00912,12.19898,5.68706,-8.59046,20.94046,-3.08689,-26.44788,12.13593,3.81619,-34.19744,11.42867,0.68001,44.42278,-11.8632,-6.49066,4.85,-1.96827,-1.41779,5.20032,-5.03018,-1.72308,1.38807,-0.78752,-0.68482,2.82557,1.46441,-0.32023,0.10895,0.03579,-0.1236,0.26326,0.1439,-0.09671
761,-5.67404,-28.34072,3.95154,-13.7108,2.6417,1.9842,-37.60443,-30.35726,3.40648,-18.29048,11.2565,5.63043,-8.87981,21.64652,-3.14539,-25.53246,11.70969,3.56678,-32.99428,10.26437,1.02137,44.12389,-16.58739,-6.24227,5.32941,-2.374,-1.61704,5.53603,-4.98808,-1.12149,1.15125,-0.66744,-0.56901,2.76673,1.3824,-0.12712,0.15136,-0.08011,-0.07116,0.26052,0.14775,-0.0591
762,-5.53406,-28.90555,3.90021,-14.28258,2.35129,1.87066,-37.13523,-31.66364,3.76064,-19.12724,9.75958,4.90488,-9.109,22.29325,-3.2098,-24.68867,11.30901,3.33113,-32.00377,8.47038,1.25692,44.25617,-18.41403,-5.68385,5.76499,-2.58698,-1.59673,6.04101,-4.63526,-0.32974,0.98481,-0.71056,-0.42731,2.728,1.31278,0.01958,0.22069,-0.1746,-0.04747,0.28788,0.14836,-0.02285
763,-5.31762,-29.05799,3.79269,-14.54417,1.86135,1.69863,-36.79228,-31.57053,4.22667,-19.86537,7.55072,3.5622,-9.26495,22.88836,-3.27403,-23.87771,10.91875,3.12351,-31.65504,6.89225,0.71469,45.17601,-18.17168,-4.23163,5.92699,-2.3277,-1.21466,6.43003,-4.2103,0.23687,0.96514,-0.96351,-0.2699,2.7365,1.27133,0.06947,0.28321,-0.21234,-0.05198,0.32779,0.13789,-9e-05
764,-5.12788,-28.88368,3.62333,-14.39681,1.20772,1.50455,-36.98143,-30.58117,4.45338,-20.01839,4.8043,2.103,-9.36845,23.46222,-3.33128,-23.12797,10.55109,2.95309,-31.70389,5.35209,-0.40339,46.07804,-16.60405,-1.46727,5.76861,-1.59944,-0.43556,6.5218,-3.96023,0.35819,1.08359,-1.43462,-0.04353,2.74629,1.25578,0.00955,0.31068,-0.2057,-0.04685,0.35283,0.11496,0.00472
765,-5.05432,-28.67079,3.42087,-13.95746,0.60381,1.33894,-37.53569,-30.04523,4.19384,-19.70614,2.46557,1.20053,-9.43857,24.03747,-3.37286,-22.49345,10.23174,2.81538,-31.78897,3.54268,-1.09255,45.27692,-14.19554,2.25327,5.43408,-0.73164,0.488,6.3432,-3.95417,0.1875,1.28938,-1.98338,0.2339,2.70794,1.22616,-0.06765,0.30867,-0.1884,-0.00785,0.35471,0.07672,0.01465
766,-5.14626,-28.73051,3.25079,-13.47302,0.34248,1.22372,-38.00747,-31.02781,3.55514,-19.20506,1.77329,1.19042,-9.45615,24.59064,-3.3889,-21.98714,9.97326,2.69805,-31.37509,1.8354,-0.5726,41.44724,-11.29199,5.74374,5.12895,-0.12693,1.16666,6.00965,-4.05215,0.024,1.51789,-2.39743,0.45995,2.57565,1.14146,-0.08329,0.30211,-0.18506,0.05301,0.33728,0.02952,0.04232
767,-5.3756,-29.19939,3.16977,-13.10775,0.57205,1.14751,-37.93892,-33.58462,2.91649,-18.40434,3.33507,1.90633,-9.38375,25.06172,-3.37529,-21.56285,9.76641,2.60016,-29.57901,1.15164,1.22785,35.06655,-8.21352,7.52233,4.9313,0.05095,1.327,5.63728,-4.08899,0.0019,1.66519,-2.47992,0.51609,2.32956,1.01595,-0.08233,0.29125,-0.18092,0.0949,0.29845,-0.00492,0.06052
768,-5.63958,-29.88816,3.16634,-12.8929,1.16758,1.08898,-37.27714,-36.5592,2.57231,-17.02256,6.52431,2.88711,-9.21774,25.40108,-3.33583,-21.15408,9.58974,2.52514,-26.01028,2.43023,3.59624,28.48709,-5.22764,6.6918,4.79668,-0.10224,0.94817,5.29909,-4.00586,0.06348,1.65285,-2.18576,0.34231,2.03418,0.90201,-0.12638,0.25797,-0.14342,0.07568,0.2439,-0.01,0.0439
769,-5.8345,-30.38646,3.15764,-12.81132,1.77636,1.04375,-36.64737,-38.20821,2.46842,-15.0951,9.63046,3.66751,-9.01031,25.61313,-3.28522,-20.72354,9.41776,2.4714,-21.61536,5.8316,5.14631,24.98113,-2.67742,3.57749,4.68996,-0.43311,0.24559,5.04759,-3.84973,0.07938,1.51147,-1.70465,-0.00989,1.85815,0.85579,-0.19465,0.20179,-0.07621,-0.00925,0.20613,0.01299,0.00263
770,-5.90815,-30.40832,3.06093,-12.87029,2.05184,1.01813,-36.86049,-37.60038,2.33099,-13.20343,10.98684,3.9852,-8.83715,25.74601,-3.2424,-20.27048,9.22684,2.42391,-18.2767,10.26475,4.72134,26.03958,-0.94826,-0.40696,4.63607,-0.8551,-0.48206,4.89734,-3.70302,-0.07406,1.34556,-1.29851,-0.39387,1.92684,0.90812,-0.26355,0.1461,-0.0185,-0.11742,0.21144,0.05516,-0.04778
771,-5.82595,-30.02461,2.85814,-13.05909,1.88084,1.01152,-38.07381,-35.45543,2.00099,-12.05332,9.98243,3.79167,-8.74942,25.85235,-3.21947,-19.79196,9.00556,2.36402,-17.17583,13.70471,2.31092,30.20461,-0.41335,-3.44918,4.72446,-1.32188,-0.99037,4.86633,-3.65601,-0.36084,1.27722,-1.13077,-0.64186,2.15935,1.02211,-0.35068,0.12211,-0.0074,-0.184,0.23792,0.10241,-0.10447
772,-5.53327,-29.56709,2.59639,-13.32935,1.39181,1.01267,-39.47996,-33.53641,1.59714,-11.96414,7.0969,3.14149,-8.75316,25.9739,-3.21786,-19.26374,8.75209,2.28219,-17.70136,14.19333,-0.99989,33.74366,-1.1539,-4.24474,4.99319,-1.7429,-1.12617,5.04347,-3.78355,-0.47244,1.34673,-1.21851,-0.63116,2.31819,1.08898,-0.42407,0.14078,-0.04986,-0.1624,0.23802,0.12951,-0.14849
773,-5.05369,-29.34495,2.35075,-13.61131,0.81947,1.00445,-40.1885,-33.16071,1.41514,-12.65886,3.42145,2.15779,-8.81338,26.13282,-3.23899,-18.65688,8.4698,2.17877,-18.40108,11.25633,-3.88923,33.45559,-2.79467,-2.78467,5.34654,-1.9611,-0.85885,5.57786,-4.114,-0.08854,1.4634,-1.45689,-0.35153,2.25831,1.04568,-0.41115,0.17643,-0.11192,-0.06084,0.20191,0.12112,-0.14739
774,-4.58514,-29.42343,2.18668,-13.8205,0.34373,0.97536,-40.30863,-34.2181,1.65102,-13.46749,0.0331,1.0839,-8.87943,26.33864,-3.27978,-17.96525,8.16281,2.0583,-18.65021,6.43786,-5.64825,29.44498,-4.76758,-0.41509,5.61333,-1.84573,-0.31294,6.38118,-4.55791,0.71541,1.50747,-1.69521,0.06693,2.03167,0.92868,-0.29636,0.19933,-0.14481,0.05893,0.16037,0.08588,-0.09313
775,-4.40969,-29.64735,2.12167,-13.89741,0.07166,0.93859,-40.59261,-35.74289,2.16483,-13.88852,-2.37276,0.30319,-8.92184,26.61095,-3.33036,-17.21653,7.83914,1.92422,-18.68388,1.98328,-6.1625,24.85946,-6.85113,1.09337,5.70908,-1.43499,0.28013,6.99419,-4.93592,1.42015,1.46643,-1.84955,0.43156,1.82297,0.81708,-0.13455,0.21138,-0.13203,0.13146,0.14606,0.04443,-0.01386
776,-4.68509,-29.80626,2.11677,-13.84398,0.084,0.92688,-41.42064,-36.88308,2.61015,-13.74536,-3.38934,0.14937,-8.94244,26.95975,-3.38339,-16.44923,7.50026,1.78652,-18.50787,-0.33412,-5.54563,23.20141,-9.10922,0.7489,5.64439,-0.95285,0.67686,6.93523,-5.08582,1.47966,1.3851,-1.89282,0.60561,1.8016,0.7813,-0.00343,0.227,-0.09777,0.1334,0.16818,0.01701,0.04974
777,-5.34236,-29.76205,2.11938,-13.71193,0.37615,0.93733,-42.60736,-37.1204,2.81094,-13.17453,-2.79573,0.55475,-8.94697,27.34118,-3.43567,-15.67701,7.12446,1.65259,-18.20315,0.67485,-4.1024,25.24587,-11.33419,-1.0349,5.4667,-0.6916,0.69218,6.20161,-4.94625,0.82902,1.29728,-1.8098,0.54247,1.99892,0.85448,0.0465,0.24776,-0.07753,0.08146,0.21537,0.01534,0.07526
778,-6.1521,-29.51657,2.0905,-13.53225,0.84148,0.93345,-43.77429,-36.34637,2.82889,-12.34265,-0.82702,1.10641,-8.93315,27.67868,-3.49108,-14.88713,6.69408,1.52574,-18.02769,4.99573,-2.38578,29.04976,-12.70941,-2.93348,5.3065,-0.84496,0.30438,5.27474,-4.58092,-0.08311,1.24702,-1.64797,0.29488,2.29296,1.01106,0.0115,0.27236,-0.09732,0.01259,0.26939,0.03732,0.06799
779,-6.85879,-29.19422,2.00488,-13.28458,1.35672,0.89742,-44.48703,-35.03576,2.72757,-11.28016,1.67056,1.47923,-8.90453,27.94665,-3.55671,-14.08143,6.23534,1.40546,-17.55036,10.85412,-0.91967,31.84084,-12.33643,-3.72584,5.29977,-1.33676,-0.27383,4.64631,-4.15003,-0.73603,1.28636,-1.5333,0.00164,2.52697,1.17379,-0.06543,0.30288,-0.16245,-0.03327,0.31686,0.06942,0.04769
780,-7.27381,-28.99287,1.85961,-13.00341,1.76858,0.83913,-44.46296,-34.05565,2.5368,-10.34309,3.64574,1.56443,-8.87088,28.16851,-3.63555,-13.28244,5.79303,1.28516,-16.46113,15.64492,0.06522,32.05559,-10.14101,-3.00121,5.44468,-1.78998,-0.69708,4.42023,-3.8236,-0.94465,1.40309,-1.5675,-0.19345,2.62014,1.25866,-0.1258,0.3324,-0.24509,-0.04096,0.34822,0.09609,0.02863
781,-7.39165,-29.10866,1.68558,-12.74137,1.89354,0.76472,-44.0663,-34.19737,2.35246,-9.98146,4.44337,1.3577,-8.83769,28.3594,-3.73225,-12.50484,5.37933,1.15888,-15.50713,17.52565,0.53444,29.76577,-7.17814,-1.1278,5.55554,-1.76323,-0.69651,4.39219,-3.69663,-0.85805,1.49509,-1.72841,-0.21738,2.58851,1.22727,-0.13719,0.3371,-0.29242,-0.02574,0.3532,0.10996,0.0098
782,-7.39833,-29.5992,1.5283,-12.51403,1.65712,0.68322,-44.09573,-35.75104,2.23156,-10.01974,3.99277,0.9975,-8.81099,28.52408,-3.84515,-11.76015,4.98329,1.02873,-15.26256,16.18878,0.48543,26.38936,-4.87748,1.08565,5.52659,-1.16901,-0.26075,4.40898,-3.74111,-0.63805,1.46617,-1.90947,-0.07122,2.48519,1.09582,-0.09891,0.30268,-0.27163,-0.00475,0.32589,0.11111,-0.01286
783,-7.48238,-30.32225,1.40142,-12.28313,1.1488,0.61253,-44.94297,-38.29229,2.07168,-9.76844,2.53167,0.69405,-8.80042,28.67167,-3.96225,-11.06546,4.60217,0.90216,-15.2025,12.48781,-0.11893,23.31965,-4.15809,2.72185,5.50976,-0.45147,0.28008,4.593,-3.86441,-0.23983,1.33047,-1.99065,0.15168,2.34619,0.91551,-0.02666,0.25005,-0.19941,0.01216,0.27357,0.10011,-0.03116
784,-7.68516,-31.03631,1.2821,-11.96806,0.52088,0.55808,-46.30972,-40.83518,1.7084,-8.75544,0.24648,0.481,-8.81114,28.81454,-4.06491,-10.42384,4.24729,0.78368,-14.45844,7.65054,-1.42797,20.85052,-5.33693,3.19915,5.69052,-0.23273,0.44394,5.19567,-4.02464,0.46321,1.18288,-1.87628,0.2847,2.17535,0.74906,0.04595,0.21613,-0.12245,0.01412,0.21339,0.07499,-0.02908
785,-7.94656,-31.56314,1.14861,-11.57868,-0.05481,0.51749,-47.54338,-42.38539,1.09686,-7.20089,-2.55073,0.2336,-8.84506,28.97068,-4.13809,-9.83475,3.93888,0.67454,-12.73622,3.00301,-3.39495,18.31179,-8.31897,2.79624,5.94573,-0.72902,0.04817,6.23398,-4.2345,1.42358,1.11448,-1.58569,0.22713,1.97287,0.63023,0.08563,0.2161,-0.08262,0.0029,0.16171,0.03364,-0.00014
786,-8.22291,-31.87527,1.01684,-11.25497,-0.36265,0.50143,-48.21392,-42.55179,0.42805,-5.74451,-4.76132,0.01573,-8.89612,29.13441,-4.17685,-9.29595,3.67664,0.58032,-10.38249,0.37713,-5.20086,15.39715,-12.45513,2.55862,5.88529,-1.52584,-0.55051,7.27566,-4.46891,2.3123,1.17388,-1.32081,0.05081,1.75797,0.54512,0.08572,0.23583,-0.09768,0.0017,0.12474,-0.01807,0.04148
787,-8.49963,-32.02369,0.92139,-11.07526,-0.22836,0.51467,-48.31041,-41.64459,0.00986,-4.77388,-4.83711,0.1505,-8.94083,29.25333,-4.18756,-8.79275,3.43368,0.50313,-7.94747,1.59812,-5.49567,13.22578,-16.49051,3.34737,5.26562,-1.95613,-0.78768,7.68977,-4.63019,2.70209,1.34907,-1.32339,-0.08596,1.58043,0.46656,0.06899,0.25288,-0.15276,0.02662,0.10043,-0.06253,0.07005
788,-8.7207,-32.06735,0.88036,-10.9357,0.27663,0.5341,-48.03662,-40.30882,0.02502,-4.02083,-2.42733,0.77875,-8.94746,29.26196,-4.17364,-8.3055,3.18685,0.43875,-5.61778,6.65431,-3.80383,13.4432,-19.06613,4.94292,4.38081,-1.70361,-0.42705,7.17155,-4.6191,2.42019,1.55581,-1.6469,-0.08229,1.50338,0.37823,0.07797,0.25867,-0.20877,0.06391,0.09039,-0.08576,0.07304
789,-8.86563,-32.09492,0.9027,-10.5816,0.7796,0.50619,-47.91575,-39.14668,0.46294,-2.68771,0.79117,1.5025,-8.89629,29.12989,-4.13196,-7.81707,2.92519,0.37977,-3.30093,12.96215,-1.36809,16.37146,-19.55242,6.23641,3.88167,-1.0224,0.27919,6.03893,-4.43748,1.69186,1.66682,-2.10833,0.05668,1.57034,0.29489,0.13411,0.26406,-0.2335,0.08439,0.10411,-0.08674,0.05868
790,-9.04319,-32.24752,0.99782,-9.89844,0.8841,0.39783,-48.7145,-38.55617,1.1626,-0.56771,2.46664,1.72119,-8.79464,28.87397,-4.06495,-7.32514,2.65064,0.31628,-1.66515,17.15106,-0.01375,20.11133,-18.06876,6.20233,4.19689,-0.42024,0.86276,4.9371,-4.1624,0.92133,1.59287,-2.45071,0.24362,1.7372,0.27328,0.18678,0.28479,-0.22471,0.06669,0.13783,-0.06557,0.0358
791,-9.40271,-32.66081,1.1565,-9.09114,0.52096,0.24813,-50.75496,-38.71739,1.87995,1.32603,1.50177,1.21187,-8.67699,28.54045,-3.9889,-6.85442,2.39007,0.2453,-1.96961,17.43087,-0.43707,21.49556,-15.09417,4.63835,5.1574,-0.17944,1.03023,4.32339,-3.87989,0.38803,1.30608,-2.49783,0.3904,1.89338,0.36419,0.15334,0.30656,-0.19422,0.01538,0.16986,-0.02099,0.00351
792,-9.92023,-33.35096,1.34325,-8.51494,-0.04173,0.13185,-53.26625,-39.57855,2.41859,1.72978,-1.3747,0.22776,-8.58515,28.17134,-3.91239,-6.43832,2.17507,0.17076,-4.27969,14.35811,-1.83334,18.95223,-11.45072,2.19895,6.17843,-0.23735,0.8147,4.24867,-3.6656,0.16165,0.87829,-2.24188,0.46333,1.95684,0.5418,0.02197,0.29373,-0.15176,-0.03858,0.18348,0.03536,-0.03405
793,-10.37318,-34.21437,1.49678,-8.26799,-0.44479,0.0897,-54.92524,-40.84382,2.66449,0.55417,-4.2623,-0.7088,-8.54184,27.76416,-3.83596,-6.07944,2.00687,0.10642,-7.05535,10.30436,-2.87157,13.77791,-8.49219,-0.05536,6.73292,-0.41835,0.42915,4.54165,-3.62592,0.18524,0.48494,-1.83377,0.466,1.93592,0.72115,-0.13192,0.23614,-0.11157,-0.06071,0.18237,0.07966,-0.06032
794,-10.55456,-35.10187,1.56232,-8.13197,-0.44887,0.11687,-54.99947,-42.1894,2.54171,-0.97288,-5.42029,-1.07196,-8.54799,27.29503,-3.75716,-5.76826,1.87293,0.07073,-8.42872,7.70307,-2.83484,8.81423,-7.63474,-1.2794,6.6655,-0.62834,0.05894,5.02112,-3.87133,0.34898,0.28201,-1.46381,0.41132,1.89599,0.83205,-0.2265,0.1618,-0.09156,-0.04156,0.17891,0.09221,-0.05998
795,-10.47508,-35.86565,1.5418,-7.89156,-0.08508,0.18375,-53.74393,-43.62174,2.08474,-1.44351,-4.65121,-0.74024,-8.58899,26.7822,-3.67264,-5.5282,1.77498,0.07166,-7.25596,6.72521,-1.99952,6.00448,-8.94527,-1.27736,6.19376,-0.83666,-0.21855,5.55589,-4.38799,0.52941,0.29886,-1.2433,0.312,1.90576,0.86667,-0.24327,0.10903,-0.09894,-0.00347,0.18544,0.0734,-0.03533
796,-10.35016,-36.45621,1.5046,-7.55102,0.36609,0.24688,-52.23477,-45.42329,1.55551,-0.46329,-3.29531,-0.19882,-8.64043,26.27105,-3.58557,-5.39386,1.72373,0.10058,-4.34133,5.15678,-1.27868,5.60699,-10.18484,-0.44244,5.71853,-1.01327,-0.38789,6.03113,-4.98589,0.65167,0.46323,-1.19956,0.19225,1.97015,0.85916,-0.22029,0.09739,-0.12296,0.02269,0.202,0.04188,-0.0046
797,-10.37967,-36.99665,1.53572,-7.16945,0.59005,0.25901,-51.67848,-47.71779,1.32824,1.40295,-2.79694,-0.0982,-8.67567,25.76478,-3.50277,-5.35006,1.71005,0.14015,-1.89121,1.07677,-1.32818,7.11914,-8.00114,0.60584,5.53855,-1.12217,-0.47001,6.31229,-5.40451,0.72994,0.67401,-1.284,0.07185,1.99521,0.83026,-0.19852,0.11813,-0.13681,0.01601,0.21238,0.01774,0.01503
798,-10.53126,-37.64337,1.65988,-6.78925,0.49981,0.21659,-52.26322,-50.02235,1.57689,3.38561,-3.42034,-0.54919,-8.68224,25.22885,-3.42109,-5.35971,1.72264,0.18244,-0.95698,-4.66412,-1.87745,10.06062,-1.35512,1.39372,5.65526,-1.16023,-0.53756,6.32971,-5.49414,0.81574,0.88079,-1.39926,-0.07234,1.90804,0.77276,-0.18578,0.15144,-0.11646,-0.03159,0.20633,0.00695,0.01924
799,-10.59728,-38.43933,1.81451,-6.4589,0.25532,0.15957,-53.24847,-50.95338,2.14411,4.83243,-4.16906,-1.05742,-8.66829,24.61076,-3.33665,-5.3975,1.75944,0.22933,-1.26549,-8.0294,-2.3091,13.62936,6.2062,1.77985,5.80191,-1.14456,-0.63198,6.14309,-5.28233,0.91865,1.06126,-1.45639,-0.24591,1.74535,0.6837,-0.17808,0.17892,-0.06516,-0.10142,0.19507,0.00375,0.01161
800,-10.38077,-39.33716,1.89518,-6.22305,0.09714,0.13357,-53.87932,-48.92202,2.6755,5.27809,-3.68198,-1.03264,-8.64851,23.85486,-3.25514,-5.4335,1.81308,0.28676,-2.50652,-4.1896,-2.4409,16.47728,8.30354,1.90838,5.68228,-1.07335,-0.66546,5.92876,-4.94756,1.01304,1.17166,-1.45174,-0.36474,1.6191,0.58931,-0.16814,0.19032,-0.02386,-0.14396,0.19642,0.00101,0.00072
801,-9.80715,-40.27821,1.83955,-6.17549,0.2151,0.17817,-53.68517,-44.07537,2.83634,4.67741,-1.56141,-0.2778,-8.62905,22.96381,-3.17892,-5.46804,1.89619,0.36042,-3.81047,7.47499,-2.35621,17.5,1.07978,1.94025,5.27425,-0.94536,-0.51033,5.83613,-4.67522,1.07737,1.15764,-1.46588,-0.32099,1.62104,0.52528,-0.13403,0.18933,-0.04266,-0.11924,0.21642,-0.00387,-0.00107
802,-8.96203,-41.21146,1.68328,-6.36657,0.60373,0.30017,-52.64104,-39.00349,2.5547,3.55977,1.12872,0.84688,-8.5894,22.00425,-3.10035,-5.52649,2.02873,0.44788,-3.79657,21.15152,-2.09271,16.76271,-12.83486,1.85186,4.87049,-0.8213,-0.17476,5.89616,-4.55035,1.07601,0.99572,-1.54955,-0.09272,1.77054,0.5195,-0.07807,0.18432,-0.12523,-0.03537,0.24744,-0.00653,0.0071
803,-8.15403,-42.10722,1.55528,-6.64071,1.00983,0.44886,-51.6777,-36.73531,2.10192,2.61408,2.78538,1.67344,-8.4879,21.03299,-3.01007,-5.59663,2.18713,0.53929,-2.66964,29.06034,-1.8281,15.24487,-26.08213,1.58909,4.81719,-0.81023,0.19526,6.02575,-4.52668,0.97722,0.74147,-1.67559,0.24542,1.99244,0.5736,-0.04779,0.17986,-0.22181,0.06767,0.26907,-0.00115,0.00939
804,-7.73198,-42.88351,1.56795,-6.68186,1.12387,0.5553,-51.92237,-38.06866,1.80091,2.39044,2.40694,1.7398,-8.3052,20.06063,-2.90342,-5.63931,2.32569,0.63056,-1.86716,27.77359,-1.97775,13.66532,-32.48678,1.26335,5.20836,-0.97284,0.45448,6.13747,-4.50107,0.81841,0.49744,-1.79453,0.5823,2.16973,0.66249,-0.08408,0.17704,-0.27934,0.15162,0.2653,0.01433,-0.00778
805,-7.74623,-43.41045,1.71758,-6.2726,0.83,0.57818,-53.37951,-41.33488,1.75631,3.09173,0.13512,1.07849,-8.05792,19.07358,-2.78041,-5.64073,2.4252,0.71598,-2.14121,19.73691,-2.76142,12.05846,-31.05089,1.08827,5.77599,-1.23665,0.54507,6.21271,-4.38853,0.72266,0.33008,-1.8677,0.81084,2.22551,0.7451,-0.16502,0.17231,-0.28087,0.19191,0.23952,0.03763,-0.03939
806,-7.93714,-43.65929,1.927,-5.46826,0.29601,0.52379,-55.04967,-44.33006,1.94562,4.37389,-2.8059,0.1029,-7.77644,18.05811,-2.64074,-5.61786,2.49407,0.78866,-3.24253,10.20829,-3.79928,10.38122,-24.86977,1.22581,6.12407,-1.45676,0.5142,6.28033,-4.22109,0.77974,0.23575,-1.89281,0.88545,2.17203,0.78177,-0.22436,0.16042,-0.24939,0.18719,0.21136,0.05967,-0.06611
807,-7.99356,-43.74634,2.12277,-4.58019,-0.11189,0.45108,-55.82838,-46.03029,2.31197,5.58827,-4.85669,-0.64502,-7.4998,17.04387,-2.48857,-5.6133,2.56482,0.85096,-4.25212,3.36706,-4.25614,9.28029,-17.62038,1.72688,5.97447,-1.50681,0.44961,6.32508,-4.1486,0.93194,0.18344,-1.85906,0.82861,2.07087,0.75284,-0.21233,0.13506,-0.21249,0.15789,0.19723,0.06599,-0.06879
808,-7.74415,-43.84547,2.25769,-3.96653,-0.06582,0.43941,-55.12558,-46.79496,2.7059,6.28683,-5.07677,-0.7413,-7.27588,16.12153,-2.33689,-5.68385,2.67609,0.91354,-4.08167,0.44146,-3.51133,9.70801,-11.47341,2.50327,5.28158,-1.31519,0.38807,6.28553,-4.30839,0.99902,0.19144,-1.72556,0.65784,2.00439,0.68304,-0.12825,0.0992,-0.1697,0.11652,0.20374,0.04957,-0.04085
809,-7.20002,-44.09741,2.32405,-3.81181,0.45873,0.52865,-53.30898,-47.31773,2.97509,6.31618,-3.58335,-0.14284,-7.13725,15.38449,-2.19513,-5.84243,2.82688,0.98797,-2.78536,0.59158,-1.82502,11.97149,-7.49619,3.42596,4.30483,-0.90457,0.34251,6.11359,-4.66183,0.85205,0.32888,-1.5368,0.38436,2.0268,0.62001,-0.00788,0.07455,-0.11687,0.06263,0.2298,0.01847,0.00777
810,-6.48302,-44.50522,2.338,-4.09542,1.1901,0.69379,-51.37791,-47.71847,3.08093,5.61886,-1.37321,0.76382,-7.09385,14.88733,-2.06981,-6.0459,2.97782,1.07221,-1.66123,2.41835,-0.18103,15.13947,-6.41881,4.32797,3.51925,-0.42887,0.34723,5.85475,-5.01505,0.54583,0.60368,-1.44037,0.08386,2.13172,0.59315,0.10431,0.08582,-0.0775,0.00639,0.26923,-0.01075,0.05655
811,-5.70171,-44.92365,2.29042,-4.67308,1.80929,0.88131,-49.99955,-47.60695,2.99414,4.22765,0.36104,1.54395,-7.15207,14.65696,-1.97824,-6.25124,3.10081,1.1487,-1.7576,4.75647,0.64404,17.24944,-8.1332,4.92918,3.40569,-0.13821,0.3794,5.644,-5.1873,0.28789,0.9095,-1.53744,-0.13114,2.24819,0.59036,0.17994,0.13594,-0.08107,-0.03477,0.30767,-0.02728,0.08793
812,-4.90653,-45.14714,2.15665,-5.35109,2.13537,1.03609,-49.28901,-46.44046,2.67345,2.25224,1.0282,2.01366,-7.30343,14.68289,-1.93471,-6.43609,3.19487,1.1911,-3.43039,7.33672,0.57216,16.5135,-11.03636,4.93359,4.0647,-0.20891,0.31371,5.6127,-5.13116,0.2673,1.10352,-1.73518,-0.21478,2.28594,0.5827,0.20553,0.19839,-0.12227,-0.05576,0.32345,-0.03105,0.09467
813,-4.13026,-45.0056,1.95035,-5.91713,2.16251,1.11128,-49.13422,-44.06099,2.25187,0.11758,0.82804,2.09768,-7.5125,14.90206,-1.93491,-6.58002,3.26778,1.1922,-6.25896,10.2741,-0.10571,12.9324,-13.11305,4.35531,5.05299,-0.59576,0.05428,5.76246,-4.93086,0.5084,1.11673,-1.8243,-0.20414,2.17101,0.55442,0.17401,0.2316,-0.16235,-0.05875,0.29575,-0.02651,0.07829
814,-3.44826,-44.554,1.74334,-6.17786,1.97287,1.071,-49.3269,-41.40799,2.00566,-1.46198,0.40357,1.73787,-7.7342,15.21981,-1.96188,-6.65455,3.31811,1.16577,-9.0374,12.98415,-0.87986,8.81187,-13.60052,3.57719,5.67014,-1.06363,-0.35864,5.92637,-4.69219,0.87205,1.02831,-1.68057,-0.19072,1.88176,0.5088,0.09712,0.22051,-0.16956,-0.05049,0.2168,-0.01638,0.04729
815,-2.90271,-44.0711,1.595,-6.01697,1.58357,0.90518,-49.54154,-39.93096,1.99469,-1.91946,0.17046,1.04094,-7.93504,15.55254,-1.99642,-6.65758,3.33329,1.12606,-10.57713,14.37811,-1.31282,7.32829,-13.20484,2.96875,5.47224,-1.33492,-0.75975,5.89258,-4.48804,1.15291,1.00319,-1.37137,-0.26193,1.48892,0.46018,0.0154,0.19186,-0.1464,-0.04402,0.10593,-0.00202,0.01619
816,-2.42153,-43.75108,1.49177,-5.5637,1.00371,0.66399,-49.34293,-40.26041,1.95454,-1.20249,-0.12456,0.25854,-8.10281,15.87436,-2.02137,-6.65385,3.32635,1.08046,-10.18171,13.56412,-1.55556,9.80295,-12.56849,2.49206,4.5628,-1.24237,-0.92709,5.56375,-4.33052,1.18272,1.09874,-1.08981,-0.40303,1.1564,0.42814,-0.02765,0.17182,-0.11924,-0.0433,0.01236,0.01377,-0.00192
817,-1.93101,-43.53588,1.3938,-5.18225,0.36498,0.44014,-48.41933,-41.79435,1.68411,0.18917,-0.95841,-0.39911,-8.23712,16.20494,-2.02917,-6.72769,3.33616,1.03051,-7.651,10.63957,-2.03569,14.4782,-11.44271,1.74398,3.55324,-0.85333,-0.7283,5.0764,-4.22816,0.90632,1.19141,-1.01453,-0.48753,1.07598,0.43299,-0.02452,0.15933,-0.11283,-0.03815,-0.00919,0.02565,-0.00511
818,-1.43481,-43.23499,1.29338,-5.1263,-0.12579,0.30436,-46.77555,-43.25835,1.2942,1.63418,-2.27014,-0.77807,-8.33089,16.55804,-2.01861,-6.90771,3.38672,0.98017,-3.33357,7.20954,-2.7211,18.00071,-9.55792,0.53871,3.14569,-0.45729,-0.24536,4.68681,-4.16919,0.41581,1.1231,-1.20051,-0.39434,1.32278,0.47983,-0.01218,0.14479,-0.13434,-0.01807,0.05968,0.02883,-0.0046
819,-1.04592,-42.71723,1.21778,-5.33019,-0.26071,0.27277,-45.02941,-43.6064,1.01679,2.75079,-3.26759,-0.70419,-8.38018,16.92985,-1.9934,-7.16629,3.47647,0.93723,1.27182,5.48216,-3.13456,18.42077,-7.83961,-0.69476,3.6225,-0.38452,0.25456,4.62321,-4.1305,-0.06629,0.87262,-1.55655,-0.12379,1.79189,0.54904,-0.03259,0.13052,-0.17198,0.01498,0.18648,0.02185,-0.01337
820,-0.90008,-42.03133,1.20989,-5.54222,0.02713,0.30835,-44.04107,-42.62276,1.01436,3.40987,-3.08053,-0.14803,-8.39343,17.29353,-1.95514,-7.45262,3.58622,0.91106,4.18102,6.69026,-2.83961,16.48933,-7.95303,-1.23381,4.61538,-0.76712,0.49899,4.9264,-4.08361,-0.28853,0.56041,-1.89672,0.20149,2.24519,0.59372,-0.08212,0.12311,-0.20313,0.04875,0.30799,0.00511,-0.03062
821,-0.98694,-41.35215,1.28312,-5.62017,0.51393,0.34437,-44.10936,-40.81174,1.32264,3.36109,-1.67331,0.57041,-8.38741,17.6028,-1.90746,-7.71884,3.6863,0.90457,4.11107,10.31428,-1.85491,14.6303,-10.69973,-0.77506,5.46163,-1.43582,0.41511,5.46137,-4.07557,-0.1289,0.32919,-2.07131,0.44647,2.47084,0.56874,-0.10645,0.12049,-0.2133,0.07591,0.36889,-0.02176,-0.03889
822,-1.1541,-40.83014,1.40834,-5.65861,0.8262,0.34097,-44.8096,-38.9818,1.78113,2.35952,-0.07314,1.01078,-8.38749,17.85026,-1.84918,-7.96534,3.77751,0.91361,1.23737,14.14843,-0.77482,14.60468,-14.9143,0.23467,5.73606,-2.02265,0.15404,6.00609,-4.21895,0.27708,0.24546,-2.04377,0.54577,2.40871,0.49079,-0.06993,0.11832,-0.20491,0.09462,0.34846,-0.05352,-0.02271
823,-1.2665,-40.50038,1.5408,-5.84794,0.78989,0.3278,-45.57632,-37.6568,2.1137,0.57075,0.51721,1.0089,-8.42531,18.08791,-1.77451,-8.24553,3.90965,0.94425,-3.16333,15.85673,-0.3892,16.13461,-18.0867,1.01279,5.51961,-2.20181,-0.06357,6.35886,-4.58545,0.60172,0.2751,-1.8743,0.51336,2.1533,0.44788,-0.00739,0.11573,-0.18576,0.09976,0.26272,-0.07582,0.01361
824,-1.27041,-40.2571,1.65484,-6.21616,0.52828,0.34878,-46.16302,-36.69817,2.22399,-1.38817,-0.11217,0.70821,-8.51603,18.35419,-1.67867,-8.58416,4.1185,1.00908,-7.69448,15.18999,-0.95702,17.59673,-18.07175,1.15306,5.18747,-1.8987,-0.09582,6.38355,-5.03761,0.60922,0.33342,-1.66937,0.42045,1.84901,0.50573,0.0228,0.11113,-0.16291,0.09135,0.15151,-0.07528,0.05076
825,-1.17235,-39.96978,1.75209,-6.59829,0.27601,0.39981,-46.56156,-35.78086,2.2887,-2.94286,-0.98544,0.36815,-8.64835,18.62313,-1.56964,-8.94296,4.37699,1.10918,-11.52941,13.98142,-1.86729,17.90519,-14.87907,0.85441,5.05931,-1.29948,0.06377,6.11069,-5.30357,0.35814,0.37594,-1.53415,0.33714,1.61957,0.63541,0.00833,0.10631,-0.1458,0.07847,0.06477,-0.05202,0.07194
826,-0.99181,-39.61913,1.84275,-6.87485,0.23757,0.46636,-46.58395,-35.00136,2.46646,-3.95332,-1.01432,0.22966,-8.81211,18.87144,-1.45839,-9.29534,4.64529,1.23647,-14.03362,13.84688,-2.27429,17.3741,-10.64134,0.59111,5.19839,-0.68585,0.30198,5.70871,-5.18437,0.10953,0.44259,-1.52579,0.26355,1.52913,0.73661,-0.01237,0.11425,-0.14138,0.06215,0.04127,-0.01885,0.07147
827,-0.71244,-39.27549,1.91269,-7.09074,0.53528,0.56579,-45.81407,-34.69464,2.64862,-4.57344,0.06491,0.47509,-9.02315,19.14009,-1.34966,-9.68349,4.93068,1.38152,-14.59676,14.79574,-1.85793,16.98812,-8.15721,0.68704,5.42816,-0.25446,0.46695,5.39367,-4.7572,0.05755,0.57824,-1.60785,0.14906,1.56994,0.74347,-0.01129,0.14359,-0.14254,0.03073,0.0844,0.01502,0.04961
828,-0.32927,-38.9814,1.94216,-7.30888,1.1444,0.71263,-44.27773,-34.98462,2.64662,-4.90776,1.85292,1.14917,-9.29764,19.48369,-1.24508,-10.15742,5.26008,1.5349,-13.42784,16.03196,-0.80548,17.37985,-9.06734,1.11954,5.54808,-0.0745,0.46644,5.27516,-4.27804,0.19092,0.75633,-1.69219,-0.02465,1.68938,0.6689,0.00998,0.18467,-0.13659,-0.02072,0.1626,0.04709,0.01252
829,0.08632,-38.64916,1.93798,-7.48085,1.84932,0.86943,-42.72437,-35.55794,2.49453,-4.77415,3.64333,1.97547,-9.62861,19.91322,-1.15041,-10.70463,5.6267,1.6863,-11.57266,16.91926,0.34737,18.221,-12.93081,1.52781,5.54449,-0.15699,0.30054,5.27563,-3.95354,0.34681,0.9024,-1.72556,-0.20325,1.82575,0.56363,0.03945,0.22117,-0.12412,-0.07641,0.23134,0.06988,-0.02531
830,0.43646,-38.12164,1.92167,-7.50861,2.33427,0.96532,-41.94798,-35.82069,2.3905,-3.90743,4.62686,2.44632,-9.98516,20.39922,-1.07327,-11.26618,5.99466,1.82636,-9.97154,17.14157,0.85565,18.76874,-17.79082,1.45013,5.53555,-0.46767,0.02825,5.20652,-3.80768,0.33361,0.97374,-1.69932,-0.31095,1.93547,0.48634,0.05639,0.24533,-0.11424,-0.11089,0.25772,0.07428,-0.05019
831,0.66008,-37.35705,1.91278,-7.35121,2.40701,0.96179,-42.18285,-35.48809,2.43448,-2.37804,4.33001,2.25786,-10.32868,20.90343,-1.01163,-11.78782,6.33445,1.94906,-9.02053,16.43705,0.23323,18.66685,-21.56165,0.71868,5.60597,-0.88864,-0.24544,4.97402,-3.75482,0.07063,0.98047,-1.64002,-0.30903,2.00472,0.48835,0.03797,0.25715,-0.11368,-0.10796,0.2383,0.06086,-0.05688
832,0.73324,-36.4998,1.92114,-7.07929,2.13806,0.89654,-43.14719,-34.87082,2.54738,-0.7823,2.88974,1.54472,-10.63753,21.41592,-0.96156,-12.2409,6.63769,2.05894,-8.8624,14.56607,-1.37997,18.46766,-23.0427,-0.38043,5.70361,-1.22708,-0.38972,4.67741,-3.74115,-0.33653,0.94883,-1.59702,-0.21731,2.01811,0.58028,-0.0214,0.2546,-0.12243,-0.07173,0.18823,0.03987,-0.04851
833,0.67807,-35.807,1.94676,-6.85034,1.77432,0.85124,-44.35707,-34.53484,2.59067,0.03641,1.04178,0.77941,-10.91247,21.95906,-0.92464,-12.61092,6.90388,2.16385,-9.54488,12.08495,-3.11832,19.01858,-22.25358,-1.34341,5.73383,-1.30711,-0.33036,4.54805,-3.7968,-0.66234,0.88851,-1.59011,-0.09725,1.98328,0.71732,-0.09422,0.23338,-0.1295,-0.02581,0.13888,0.02217,-0.03091
834,0.59034,-35.44563,1.97664,-6.79962,1.56166,0.88085,-45.2551,-34.66846,2.50787,-0.35938,-0.06248,0.52032,-11.1645,22.55146,-0.90152,-12.88231,7.12103,2.26177,-10.69453,10.81821,-3.71266,20.24553,-20.41921,-1.72085,5.69467,-1.0982,-0.09747,4.80301,-3.98798,-0.69964,0.792,-1.6054,0.00076,1.95389,0.82127,-0.13172,0.19708,-0.12481,0.00526,0.12886,0.01297,-0.01047
835,0.56693,-35.33665,1.99182,-6.90801,1.61572,0.97684,-45.45591,-34.82851,2.37485,-1.42269,0.3913,1.0271,-11.40641,23.18056,-0.88865,-13.0361,7.26133,2.34226,-11.38984,12.4267,-2.5611,20.84335,-19.20956,-1.24051,5.67489,-0.77146,0.20578,5.42916,-4.30385,-0.38391,0.63666,-1.6433,0.08024,1.93269,0.82994,-0.11393,0.15733,-0.11543,0.01499,0.16349,0.01294,0.00404
836,0.59427,-35.23132,1.99416,-7.0799,1.86557,1.08731,-44.99173,-34.4474,2.34265,-2.03126,2.0103,1.99037,-11.64983,23.82428,-0.87829,-13.09296,7.30895,2.3946,-10.74822,16.24233,-0.46493,19.67556,-19.37581,0.05977,5.70694,-0.57078,0.45193,6.12033,-4.60989,0.15128,0.42428,-1.71051,0.1611,1.87576,0.73298,-0.05025,0.12639,-0.11663,0.01073,0.21113,0.0172,0.00988
837,0.56725,-34.98208,2.01671,-7.22941,2.1044,1.15069,-44.31148,-33.51541,2.55486,-1.51241,3.51092,2.74746,-11.89306,24.46403,-0.86544,-13.11663,7.27149,2.41192,-8.91111,19.59762,1.1319,17.07745,-20.09374,1.78231,5.70094,-0.61901,0.56288,6.453,-4.72875,0.61762,0.2258,-1.80203,0.23835,1.76759,0.58149,0.03312,0.11352,-0.13807,0.00608,0.23566,0.01803,0.01229
838,0.38235,-34.67805,2.08778,-7.33934,2.1391,1.13156,-43.94296,-32.5899,3.00031,-0.33321,3.90293,2.83818,-12.12923,25.08035,-0.85578,-13.16357,7.17047,2.38989,-7.41314,20.36818,1.50214,14.4695,-19.64636,3.26448,5.61174,-0.86577,0.537,6.18367,-4.54917,0.74961,0.15676,-1.90274,0.28949,1.64444,0.46268,0.09527,0.12683,-0.17896,0.01489,0.22233,0.01442,0.01398
839,0.01914,-34.4857,2.18585,-7.46895,1.94264,1.05727,-43.92588,-32.35948,3.34563,0.50033,3.00911,2.36728,-12.36607,25.69394,-0.85577,-13.27052,7.05272,2.33421,-7.44596,18.22747,0.92421,13.04034,-16.72075,3.81694,5.49782,-1.15064,0.39278,5.4512,-4.11714,0.48792,0.26753,-1.94381,0.2879,1.60285,0.44208,0.1188,0.16365,-0.21968,0.03596,0.19672,0.01242,0.01573
840,-0.49472,-34.40336,2.25272,-7.69842,1.63521,0.99103,-43.99494,-33.01798,3.15823,0.50225,1.21181,1.80209,-12.62401,26.37459,-0.86987,-13.44934,6.96838,2.25606,-8.72123,14.21145,-0.13577,13.43399,-11.48867,3.13669,5.43729,-1.31478,0.15904,4.67699,-3.63135,-0.00541,0.48853,-1.85131,0.21748,1.74944,0.52003,0.13002,0.20693,-0.2307,0.04869,0.20571,0.01528,0.02105
