PaulMeinheit/Bachelor_Muay_Thai/processed_Data/E1/teep/sliced/JointPositions/sliced0.csv
Unnamed: 0_level_0,Neck_Joint_Position,Neck_Joint_Position,Neck_Joint_Position,L_ANKLE_POSITION,L_ANKLE_POSITION,L_ANKLE_POSITION,R_ANKLE_POSITION,R_ANKLE_POSITION,R_ANKLE_POSITION,L_KNEE_POSITION,L_KNEE_POSITION,L_KNEE_POSITION,R_KNEE_POSITION,R_KNEE_POSITION,R_KNEE_POSITION,L_HIP_POSITION,L_HIP_POSITION,L_HIP_POSITION,R_HIP_POSITION,R_HIP_POSITION,R_HIP_POSITION,L_SHOULDER_POSITION,L_SHOULDER_POSITION,L_SHOULDER_POSITION,R_SHOULDER_POSITION,R_SHOULDER_POSITION,R_SHOULDER_POSITION,L_ELBOW_POSITION,L_ELBOW_POSITION,L_ELBOW_POSITION,R_ELBOW_POSITION,R_ELBOW_POSITION,R_ELBOW_POSITION,L_WRIST_POSITION,L_WRIST_POSITION,L_WRIST_POSITION,R_WRIST_POSITION,R_WRIST_POSITION,R_WRIST_POSITION
ITEM,X,Y,Z,X,Y,Z,X,Y,Z,X,Y,Z,X,Y,Z,X,Y,Z,X,Y,Z,X,Y,Z,X,Y,Z,X,Y,Z,X,Y,Z,X,Y,Z,X,Y,Z
382,0.16247,0.17748,1.53905,0.09576,0.49798,0.08646,0.0819,0.01713,0.07913,0.11116,0.42938,0.50802,0.17198,0.08698,0.48835,0.09145,0.25853,0.9175,0.22772,0.12728,0.92266,-0.00065,0.25237,1.47593,0.27332,0.04321,1.4411,-0.01699,0.38975,1.21115,0.30898,-0.01602,1.15454,0.12726,0.41704,1.42844,0.38559,0.07104,0.91437
383,0.16215,0.17787,1.53895,0.0958,0.49794,0.08634,0.08204,0.01698,0.0792,0.11135,0.43079,0.50813,0.17219,0.08771,0.48825,0.09141,0.25904,0.91723,0.22872,0.12889,0.92237,-0.00128,0.25214,1.47565,0.27355,0.04396,1.44092,-0.01866,0.38911,1.21072,0.31035,-0.01537,1.15453,0.12487,0.41813,1.42826,0.38652,0.07508,0.91548
384,0.16189,0.17844,1.53884,0.09563,0.49795,0.08638,0.08227,0.01681,0.07939,0.11131,0.43236,0.50841,0.17247,0.08833,0.48828,0.09141,0.25965,0.91711,0.22965,0.13048,0.92223,-0.00165,0.25197,1.47542,0.27367,0.04466,1.44082,-0.02071,0.38837,1.21032,0.31183,-0.01445,1.15456,0.12192,0.41999,1.42808,0.38788,0.07926,0.91672
385,0.1619,0.17923,1.53866,0.09526,0.49805,0.08663,0.08242,0.01687,0.07962,0.11128,0.43414,0.50891,0.17278,0.08904,0.48837,0.09135,0.26021,0.91708,0.2303,0.13181,0.92221,-0.00178,0.25187,1.47518,0.27406,0.04531,1.44087,-0.02287,0.38788,1.21003,0.31334,-0.01338,1.15468,0.11875,0.42241,1.42802,0.38957,0.08327,0.91808
386,0.1622,0.18004,1.53835,0.09494,0.49831,0.08699,0.08241,0.01715,0.07981,0.11141,0.436,0.50949,0.17305,0.09,0.48838,0.09125,0.2607,0.91707,0.23072,0.13285,0.92219,-0.00201,0.25147,1.47482,0.27487,0.04603,1.44105,-0.02471,0.38784,1.20999,0.31486,-0.01242,1.15491,0.11574,0.42496,1.4283,0.39139,0.08701,0.91956
387,0.16243,0.18058,1.53798,0.09502,0.49867,0.08728,0.08225,0.01742,0.07987,0.11162,0.43778,0.50998,0.1732,0.09112,0.48822,0.09119,0.26126,0.91701,0.231,0.13378,0.92203,-0.0026,0.25044,1.47434,0.27602,0.04692,1.44132,-0.02611,0.38807,1.21023,0.31639,-0.01163,1.15525,0.11306,0.42739,1.42898,0.39319,0.09068,0.92123
388,0.16229,0.18081,1.53763,0.09555,0.49894,0.08737,0.08201,0.01752,0.07982,0.11174,0.43947,0.51029,0.17324,0.09206,0.48795,0.09112,0.26201,0.91691,0.23127,0.1349,0.92171,-0.0035,0.24894,1.47388,0.27722,0.04806,1.44159,-0.02739,0.38821,1.21067,0.31795,-0.01077,1.15563,0.11054,0.42963,1.42981,0.39502,0.09463,0.92308
389,0.1618,0.18096,1.5373,0.0962,0.49897,0.0873,0.08182,0.01745,0.07969,0.11167,0.44112,0.51047,0.17325,0.09248,0.48769,0.091,0.26288,0.91674,0.23156,0.13622,0.92133,-0.00449,0.24762,1.47359,0.27813,0.04937,1.44174,-0.02881,0.38806,1.21104,0.31965,-0.00966,1.15593,0.10792,0.43168,1.43051,0.3971,0.09904,0.92503
390,0.1612,0.18121,1.53698,0.09667,0.49885,0.08718,0.08172,0.01735,0.07956,0.11148,0.44276,0.51061,0.17326,0.09245,0.48752,0.09079,0.26372,0.91653,0.23183,0.13759,0.92098,-0.00534,0.24698,1.47342,0.2786,0.05067,1.44171,-0.03026,0.38779,1.21112,0.32158,-0.00832,1.15611,0.10495,0.43357,1.43109,0.3995,0.1039,0.92706
391,0.16066,0.18153,1.53671,0.09694,0.49879,0.08715,0.08171,0.01731,0.07948,0.11139,0.44429,0.5108,0.17323,0.09233,0.48746,0.09043,0.26446,0.91635,0.23206,0.13898,0.92072,-0.006,0.24701,1.47315,0.27887,0.05187,1.44151,-0.03152,0.38781,1.21091,0.32375,-0.00687,1.15616,0.10156,0.43533,1.4318,0.40215,0.10929,0.92924
392,0.16022,0.18187,1.53651,0.09715,0.49885,0.08725,0.08178,0.01734,0.07947,0.1116,0.4457,0.51107,0.17314,0.09243,0.48747,0.08999,0.26509,0.91624,0.23234,0.14043,0.92053,-0.00654,0.24721,1.47262,0.27931,0.05302,1.44129,-0.03251,0.38836,1.21061,0.32609,-0.0052,1.15613,0.09784,0.43696,1.4329,0.40487,0.11526,0.93159
393,0.15983,0.18226,1.53634,0.09727,0.4989,0.0874,0.0819,0.01741,0.07949,0.11212,0.44706,0.51137,0.17294,0.0927,0.48753,0.08966,0.26567,0.91615,0.23276,0.14188,0.92038,-0.00707,0.24703,1.47192,0.28013,0.05422,1.44119,-0.03334,0.38928,1.21054,0.32861,-0.00305,1.15612,0.09407,0.43847,1.4344,0.40752,0.12169,0.93399
394,0.15943,0.18268,1.53619,0.09714,0.49883,0.08749,0.08203,0.01751,0.07947,0.11274,0.4485,0.51161,0.17261,0.09297,0.48758,0.08951,0.26632,0.91599,0.23326,0.14326,0.92019,-0.0076,0.24631,1.47126,0.28124,0.05562,1.44131,-0.03416,0.39021,1.21081,0.33133,-0.00022,1.15624,0.09055,0.4399,1.43607,0.41018,0.12844,0.93633
395,0.15896,0.1831,1.53601,0.09669,0.49871,0.08744,0.08204,0.01756,0.07935,0.11326,0.45007,0.51172,0.17216,0.09326,0.48751,0.08947,0.26713,0.91572,0.2336,0.14453,0.91989,-0.00812,0.24534,1.47073,0.28242,0.05739,1.44167,-0.03522,0.39087,1.21124,0.33425,0.0034,1.15655,0.08747,0.44129,1.43745,0.41305,0.13543,0.93863
396,0.15838,0.18359,1.53577,0.09613,0.49872,0.08725,0.08189,0.01748,0.07916,0.11362,0.45166,0.51168,0.17166,0.09359,0.48732,0.08935,0.26806,0.91536,0.23368,0.14569,0.91952,-0.00873,0.24445,1.47018,0.28335,0.0596,1.44216,-0.03669,0.39124,1.2115,0.33732,0.00762,1.15706,0.08475,0.44259,1.43817,0.41617,0.14256,0.94096
397,0.15777,0.18427,1.53546,0.09582,0.49895,0.08706,0.08166,0.01737,0.07898,0.11395,0.45313,0.51159,0.17114,0.09385,0.48713,0.08913,0.26902,0.91501,0.23366,0.1469,0.91914,-0.00953,0.24369,1.46941,0.2838,0.06206,1.44262,-0.03856,0.39152,1.21143,0.34034,0.01185,1.15771,0.08216,0.44371,1.4383,0.41933,0.14971,0.94349
398,0.15727,0.18502,1.53515,0.09593,0.49933,0.08696,0.08142,0.01744,0.07885,0.11444,0.45455,0.51159,0.17062,0.09398,0.48706,0.08891,0.26999,0.91476,0.23378,0.14826,0.91882,-0.01043,0.243,1.46848,0.28378,0.06446,1.44285,-0.04061,0.39195,1.21128,0.34309,0.01545,1.15829,0.07945,0.44472,1.43836,0.42233,0.15685,0.9465
399,0.15699,0.18564,1.53492,0.09628,0.49961,0.08695,0.08118,0.01772,0.07879,0.11508,0.45612,0.5117,0.17011,0.09411,0.48709,0.08881,0.27098,0.91455,0.23404,0.14968,0.91857,-0.01115,0.24234,1.46765,0.28368,0.06654,1.44272,-0.04256,0.39263,1.21138,0.34543,0.01805,1.15859,0.07649,0.44584,1.43889,0.42505,0.16411,0.95013
400,0.15689,0.18613,1.53473,0.09654,0.49958,0.0869,0.08094,0.01795,0.07882,0.11561,0.45789,0.51182,0.16967,0.09434,0.48716,0.08882,0.27201,0.91429,0.23428,0.15099,0.9184,-0.01155,0.24175,1.46709,0.28389,0.06825,1.44228,-0.0443,0.39346,1.21183,0.34743,0.0199,1.15852,0.07339,0.44716,1.43993,0.42738,0.17165,0.95428
401,0.15672,0.18677,1.53454,0.09656,0.49937,0.08677,0.08077,0.01787,0.07891,0.11583,0.45978,0.51188,0.1693,0.09463,0.48722,0.08882,0.27301,0.91393,0.23443,0.15218,0.91827,-0.01176,0.24131,1.46673,0.28453,0.06985,1.44178,-0.04589,0.39432,1.21243,0.3494,0.02177,1.15828,0.07051,0.44851,1.44108,0.42936,0.17956,0.95868
402,0.1563,0.1877,1.53436,0.09641,0.49935,0.08665,0.08074,0.01754,0.079,0.11585,0.4617,0.51193,0.16893,0.09494,0.48727,0.08863,0.27389,0.91348,0.23449,0.15337,0.91813,-0.01212,0.2412,1.4665,0.28532,0.07149,1.44149,-0.04734,0.39514,1.21292,0.35155,0.02436,1.15814,0.0682,0.44966,1.44192,0.43128,0.18779,0.96304
403,0.15576,0.18883,1.53428,0.09625,0.4997,0.08663,0.08076,0.01724,0.07907,0.11591,0.46372,0.51204,0.16853,0.09528,0.48731,0.08826,0.27471,0.91299,0.23446,0.15461,0.91799,-0.01282,0.24153,1.46649,0.28583,0.07308,1.44153,-0.04855,0.39592,1.21324,0.35383,0.02768,1.15832,0.06653,0.45058,1.44245,0.4333,0.19604,0.96735
404,0.15543,0.18996,1.53431,0.09615,0.50027,0.08668,0.08073,0.0172,0.07915,0.11611,0.46586,0.51221,0.16817,0.09574,0.48736,0.0879,0.27568,0.91257,0.23436,0.15591,0.91789,-0.01369,0.24214,1.46663,0.28592,0.07454,1.4419,-0.04954,0.39676,1.21354,0.35607,0.03128,1.15888,0.0652,0.45149,1.4429,0.43536,0.20399,0.97175
405,0.15537,0.19098,1.53436,0.09617,0.50061,0.08677,0.08062,0.01744,0.07926,0.11646,0.46806,0.51243,0.16798,0.09642,0.48741,0.08765,0.27687,0.91227,0.23423,0.15726,0.91783,-0.01429,0.24287,1.46674,0.28591,0.07608,1.44247,-0.05051,0.3979,1.21395,0.35822,0.0348,1.15969,0.06375,0.45264,1.44354,0.4375,0.2116,0.97642
406,0.15534,0.19188,1.53431,0.0964,0.50053,0.08682,0.0805,0.01782,0.07938,0.11689,0.47017,0.51263,0.16798,0.09735,0.48739,0.08742,0.27815,0.91203,0.23405,0.15862,0.91778,-0.01445,0.24373,1.46667,0.28618,0.07798,1.44307,-0.05161,0.39958,1.21452,0.36039,0.0383,1.16056,0.06194,0.45411,1.44452,0.43979,0.21914,0.98133
407,0.15506,0.1928,1.53412,0.09691,0.50025,0.08683,0.08048,0.01821,0.07944,0.11735,0.47209,0.51279,0.16805,0.09841,0.4873,0.08706,0.27942,0.91181,0.23377,0.15999,0.9177,-0.01453,0.24462,1.46652,0.28665,0.0802,1.44365,-0.05278,0.40171,1.21531,0.36274,0.04215,1.16141,0.06002,0.45579,1.44578,0.44192,0.22702,0.98625
408,0.15453,0.19391,1.53382,0.09754,0.50009,0.08683,0.08055,0.01854,0.07938,0.11777,0.47378,0.51292,0.168,0.09942,0.48714,0.08658,0.28077,0.9117,0.23348,0.16158,0.91749,-0.01489,0.24541,1.46644,0.28705,0.08243,1.44433,-0.0538,0.40398,1.21627,0.36536,0.04665,1.16241,0.05843,0.4576,1.44712,0.44335,0.23551,0.991
409,0.15403,0.19523,1.5335,0.09806,0.50026,0.08691,0.08065,0.0188,0.07925,0.11811,0.4753,0.51309,0.16769,0.1004,0.48694,0.08615,0.28229,0.91181,0.23352,0.16365,0.91708,-0.0154,0.2462,1.46643,0.28725,0.08439,1.44512,-0.0545,0.4061,1.21713,0.36818,0.05169,1.16356,0.05736,0.45945,1.44822,0.44397,0.24459,0.9957
410,0.15381,0.19659,1.5333,0.09844,0.50069,0.08711,0.08069,0.01894,0.07913,0.11834,0.47683,0.51336,0.16716,0.1016,0.48673,0.086,0.28394,0.91211,0.23414,0.16622,0.91649,-0.01577,0.24726,1.46637,0.28743,0.08615,1.44578,-0.05496,0.40793,1.21759,0.37089,0.05665,1.16461,0.05646,0.46113,1.44893,0.44435,0.25389,1.00081
411,0.15386,0.19786,1.53329,0.09874,0.50114,0.08732,0.08065,0.01893,0.07912,0.11843,0.47856,0.51365,0.16655,0.10312,0.48653,0.08609,0.28557,0.91235,0.23513,0.16896,0.91585,-0.016,0.24856,1.46624,0.28777,0.08794,1.44613,-0.05547,0.40944,1.21763,0.37315,0.06102,1.16528,0.05518,0.46236,1.44941,0.44522,0.26285,1.00652
412,0.15389,0.19915,1.53339,0.0989,0.50138,0.08741,0.08056,0.0188,0.07923,0.11846,0.48049,0.51383,0.16604,0.10481,0.48634,0.08612,0.28718,0.91238,0.23588,0.17148,0.91533,-0.01628,0.24978,1.46603,0.28824,0.08987,1.44631,-0.05633,0.41072,1.21755,0.37478,0.06492,1.16563,0.05321,0.46313,1.44997,0.44687,0.27112,1.01262
413,0.15371,0.20064,1.53344,0.09885,0.5014,0.08737,0.08056,0.01868,0.07934,0.11868,0.48246,0.51387,0.16575,0.10647,0.48614,0.08586,0.28886,0.91224,0.23606,0.17375,0.91496,-0.01661,0.25069,1.46571,0.28866,0.09183,1.44656,-0.0575,0.41223,1.21776,0.37594,0.06867,1.16596,0.05079,0.46393,1.45092,0.44881,0.27879,1.01875
414,0.15343,0.20231,1.53333,0.09869,0.50138,0.08729,0.08066,0.01875,0.0794,0.11921,0.48435,0.51384,0.16575,0.1081,0.48588,0.0854,0.29064,0.91207,0.2359,0.17591,0.91464,-0.01694,0.25146,1.46529,0.28887,0.09375,1.44685,-0.05859,0.41442,1.2184,0.37698,0.07239,1.16636,0.0485,0.46536,1.45229,0.45019,0.28629,1.02488
415,0.1532,0.20394,1.53312,0.09859,0.50144,0.08724,0.0808,0.01906,0.07943,0.11987,0.4862,0.51383,0.16605,0.1098,0.48558,0.08496,0.2925,0.91196,0.2357,0.17808,0.91434,-0.01731,0.25239,1.4648,0.28872,0.09559,1.44695,-0.05926,0.41735,1.2193,0.37805,0.07603,1.16671,0.04677,0.46755,1.45382,0.45062,0.29397,1.03119
416,0.153,0.20539,1.53291,0.09863,0.50154,0.08722,0.08092,0.01949,0.07955,0.12036,0.48813,0.51384,0.16659,0.11159,0.4853,0.08453,0.29449,0.91193,0.23546,0.18031,0.91412,-0.01786,0.25352,1.46434,0.28826,0.09744,1.44686,-0.05956,0.42056,1.22019,0.37904,0.07973,1.16697,0.04557,0.47003,1.45528,0.45047,0.30187,1.0378
417,0.15267,0.20673,1.53278,0.09872,0.50154,0.08717,0.08106,0.01983,0.0798,0.12054,0.49016,0.51385,0.16724,0.11349,0.48507,0.084,0.29664,0.91193,0.23505,0.18262,0.914,-0.01857,0.25452,1.46399,0.28782,0.09951,1.44681,-0.05994,0.42349,1.22112,0.37994,0.08383,1.16724,0.0447,0.47229,1.45657,0.45032,0.30998,1.04464
418,0.15218,0.20821,1.5327,0.09869,0.5015,0.08706,0.08123,0.02002,0.08011,0.12044,0.4922,0.51379,0.16785,0.11565,0.48483,0.08333,0.29896,0.91195,0.23441,0.18497,0.91392,-0.01925,0.2552,1.46381,0.2877,0.10206,1.44689,-0.06079,0.42597,1.22223,0.3809,0.08854,1.16756,0.04397,0.47423,1.45773,0.45026,0.31841,1.05146
419,0.15161,0.20993,1.53265,0.0985,0.50159,0.08689,0.0814,0.02021,0.08044,0.1202,0.49421,0.51366,0.16841,0.11808,0.48455,0.08258,0.30145,0.91201,0.23362,0.18741,0.91384,-0.01972,0.25571,1.46376,0.28788,0.10508,1.44692,-0.06213,0.42819,1.22356,0.38208,0.09375,1.16783,0.04329,0.47604,1.45885,0.45003,0.32709,1.05799
420,0.15108,0.21185,1.53267,0.09832,0.50178,0.08668,0.08149,0.0206,0.08084,0.11992,0.49615,0.51348,0.16909,0.12069,0.48427,0.08182,0.30405,0.9121,0.23286,0.19002,0.91379,-0.02002,0.25634,1.46376,0.2881,0.10821,1.44678,-0.06364,0.43045,1.22495,0.38352,0.0992,1.16802,0.04261,0.47786,1.45996,0.44956,0.33583,1.06421
421,0.15072,0.21385,1.53277,0.09825,0.50178,0.08638,0.08151,0.02113,0.08135,0.11974,0.49795,0.51321,0.17011,0.12336,0.48403,0.08108,0.30664,0.91216,0.23226,0.19278,0.91376,-0.02033,0.25733,1.46363,0.2883,0.11104,1.44659,-0.06495,0.43307,1.22621,0.3851,0.10476,1.16823,0.04185,0.47968,1.46113,0.44895,0.34447,1.07027
422,0.15062,0.21594,1.53282,0.09813,0.50149,0.08601,0.08164,0.02152,0.08191,0.11969,0.49959,0.51285,0.17143,0.12609,0.48373,0.08036,0.30911,0.91212,0.23177,0.19556,0.91371,-0.02076,0.2589,1.46334,0.28849,0.11343,1.44658,-0.06586,0.43625,1.2272,0.38651,0.11041,1.1686,0.04101,0.48149,1.46236,0.44826,0.35291,1.07632
423,0.15067,0.21818,1.53263,0.09782,0.50112,0.08559,0.08196,0.02165,0.08246,0.11964,0.50119,0.51241,0.17277,0.12894,0.48332,0.07963,0.31151,0.91201,0.2312,0.19817,0.91361,-0.02125,0.26111,1.46294,0.28866,0.11562,1.44678,-0.06656,0.44003,1.22803,0.38753,0.11614,1.16908,0.04013,0.48336,1.46362,0.44772,0.36107,1.08237
424,0.15061,0.22054,1.53219,0.09742,0.50095,0.08513,0.08237,0.02172,0.08302,0.11937,0.50282,0.51194,0.17392,0.13196,0.48291,0.07893,0.31403,0.91192,0.23047,0.20065,0.91354,-0.02174,0.26369,1.4626,0.28871,0.11805,1.44696,-0.06749,0.44419,1.22899,0.38832,0.1219,1.16955,0.03927,0.48528,1.46496,0.44751,0.36894,1.08832
425,0.15008,0.22285,1.53171,0.09714,0.50093,0.08464,0.08272,0.02199,0.0837,0.1188,0.50435,0.51147,0.17493,0.13508,0.48265,0.07827,0.31674,0.91198,0.22974,0.20327,0.91358,-0.02224,0.26612,1.46245,0.28859,0.121,1.44692,-0.06882,0.4484,1.23039,0.38923,0.12766,1.16993,0.03842,0.48721,1.46652,0.44733,0.37664,1.09403
426,0.14886,0.22507,1.53137,0.09707,0.50081,0.08413,0.08296,0.02246,0.08456,0.1181,0.50576,0.51097,0.17599,0.1382,0.48255,0.07764,0.31958,0.91216,0.22925,0.2063,0.91369,-0.02271,0.26812,1.46247,0.28834,0.12438,1.44665,-0.07037,0.45238,1.23221,0.39032,0.13341,1.17022,0.03757,0.4892,1.46834,0.4466,0.38429,1.09933
427,0.14719,0.22731,1.53125,0.09714,0.5004,0.08357,0.08314,0.02295,0.08551,0.11747,0.50728,0.51041,0.17718,0.14122,0.48253,0.07704,0.32249,0.91225,0.22907,0.20976,0.91376,-0.02318,0.26978,1.46253,0.28811,0.12793,1.44628,-0.07185,0.45618,1.23421,0.39139,0.13919,1.17042,0.03671,0.49142,1.4703,0.44508,0.39189,1.10416
428,0.14561,0.22968,1.53124,0.0973,0.49983,0.08299,0.08336,0.02334,0.08647,0.11694,0.5091,0.50982,0.17851,0.14411,0.48246,0.07644,0.32544,0.91217,0.22909,0.21355,0.91371,-0.02371,0.27141,1.46256,0.28796,0.13144,1.44587,-0.07325,0.45998,1.23621,0.39221,0.14491,1.17047,0.03584,0.49395,1.47224,0.44316,0.3993,1.10865
429,0.14448,0.23216,1.53121,0.09754,0.4994,0.08248,0.08373,0.02357,0.08745,0.11643,0.51119,0.50929,0.17998,0.14699,0.48236,0.07584,0.32851,0.91207,0.22913,0.21752,0.91359,-0.02438,0.27325,1.46261,0.28769,0.13485,1.4454,-0.07491,0.46386,1.2382,0.39276,0.15041,1.17043,0.03484,0.4967,1.47409,0.44151,0.40626,1.11301
430,0.14376,0.23473,1.53114,0.09783,0.49931,0.08214,0.08439,0.02366,0.08865,0.1159,0.51334,0.50891,0.18163,0.15017,0.48234,0.07524,0.33182,0.91221,0.22909,0.22158,0.91362,-0.02518,0.27542,1.46279,0.28714,0.1382,1.44494,-0.07704,0.46789,1.24027,0.39324,0.15574,1.17048,0.03348,0.4994,1.47598,0.44048,0.41279,1.11732
431,0.14314,0.23737,1.53116,0.09808,0.49948,0.08199,0.08538,0.0237,0.09027,0.1154,0.51539,0.50873,0.18349,0.1539,0.48253,0.07465,0.3354,0.9127,0.22892,0.22576,0.91396,-0.02615,0.27792,1.46308,0.2864,0.14161,1.44464,-0.07942,0.47219,1.24246,0.3938,0.16124,1.17082,0.03165,0.5018,1.47816,0.43981,0.41927,1.12147
432,0.1423,0.23999,1.53136,0.09814,0.49961,0.082,0.0866,0.02372,0.09232,0.11487,0.51734,0.50868,0.18562,0.15806,0.48296,0.07396,0.33905,0.9134,0.2287,0.23008,0.9146,-0.02727,0.28064,1.46335,0.28574,0.14522,1.44457,-0.08144,0.47694,1.24476,0.39429,0.16729,1.17139,0.02968,0.50384,1.48076,0.43904,0.42614,1.12529
433,0.14111,0.24255,1.53174,0.09791,0.49957,0.08205,0.08789,0.02377,0.09457,0.11415,0.51921,0.50867,0.18806,0.16231,0.48344,0.07312,0.34253,0.91408,0.22853,0.23451,0.9153,-0.02845,0.28343,1.4635,0.28533,0.14907,1.44469,-0.08279,0.4822,1.24721,0.39444,0.17388,1.17197,0.02802,0.5057,1.48371,0.43785,0.43345,1.12875
434,0.13973,0.24517,1.5322,0.09748,0.49948,0.08205,0.08925,0.02392,0.09678,0.1132,0.52106,0.5086,0.19079,0.1665,0.48383,0.07226,0.34587,0.91465,0.22848,0.23903,0.91589,-0.02965,0.28612,1.46363,0.28511,0.15307,1.44489,-0.08375,0.48778,1.24996,0.39421,0.18064,1.17243,0.02674,0.50773,1.48694,0.43625,0.44088,1.13195
435,0.13846,0.248,1.53264,0.09702,0.49956,0.08192,0.09079,0.02421,0.09894,0.11216,0.52292,0.5084,0.19371,0.17071,0.48416,0.07158,0.34929,0.91516,0.22859,0.24362,0.91639,-0.03093,0.28866,1.46388,0.28479,0.15704,1.44509,-0.08489,0.49335,1.25309,0.39377,0.18719,1.17287,0.02554,0.51012,1.49034,0.43443,0.44804,1.13496
436,0.13741,0.25108,1.53303,0.09676,0.49978,0.08172,0.09262,0.02459,0.1012,0.11116,0.52486,0.50812,0.19674,0.17512,0.48454,0.07106,0.3529,0.91564,0.22881,0.24832,0.91694,-0.03238,0.29117,1.46426,0.28416,0.16093,1.44534,-0.08653,0.49884,1.25645,0.3933,0.19348,1.17345,0.02415,0.5128,1.49377,0.43263,0.45484,1.13776
437,0.13632,0.2543,1.5334,0.09681,0.49986,0.08151,0.09468,0.025,0.10369,0.11025,0.52683,0.50783,0.19995,0.17989,0.48498,0.0705,0.35661,0.91612,0.22897,0.25313,0.91758,-0.03393,0.29382,1.46475,0.28321,0.16492,1.44569,-0.08863,0.50423,1.25986,0.39288,0.19977,1.1743,0.02259,0.51548,1.49707,0.431,0.46154,1.14033
438,0.13503,0.25762,1.53391,0.09704,0.49964,0.08137,0.09687,0.02553,0.10639,0.10935,0.52867,0.50759,0.20339,0.18514,0.48538,0.06977,0.36035,0.91668,0.22897,0.25801,0.91826,-0.03535,0.29655,1.46555,0.28219,0.16928,1.44617,-0.09113,0.50928,1.26336,0.3926,0.20639,1.17538,0.02106,0.51802,1.50022,0.42932,0.46853,1.14277
439,0.13357,0.26093,1.53463,0.09721,0.49922,0.08126,0.09913,0.02638,0.10924,0.10846,0.53026,0.50737,0.20703,0.19087,0.48573,0.06887,0.36413,0.91735,0.22878,0.2629,0.91897,-0.03652,0.29911,1.46685,0.2814,0.17412,1.44675,-0.09401,0.51368,1.2671,0.39246,0.21337,1.17653,0.01973,0.52053,1.50328,0.42718,0.47593,1.1451
440,0.13204,0.26422,1.53547,0.09715,0.49888,0.08112,0.10147,0.02767,0.11219,0.10755,0.53156,0.50713,0.21072,0.19706,0.48612,0.06781,0.36796,0.91811,0.22846,0.26791,0.91973,-0.03755,0.30138,1.46842,0.28095,0.17928,1.44734,-0.09721,0.51764,1.27114,0.39219,0.2204,1.17747,0.01863,0.5232,1.50633,0.42455,0.48339,1.14715
441,0.13048,0.26762,1.5362,0.09687,0.4988,0.08089,0.10392,0.0294,0.11529,0.10656,0.53261,0.50683,0.21445,0.20377,0.48654,0.0666,0.37188,0.91892,0.22806,0.27314,0.92054,-0.03867,0.30365,1.46979,0.2807,0.18449,1.44784,-0.10047,0.52192,1.2754,0.3915,0.22721,1.17804,0.01764,0.52615,1.50949,0.42189,0.49055,1.14871
442,0.12893,0.27126,1.53678,0.09637,0.49895,0.08066,0.10659,0.03154,0.11863,0.10548,0.53354,0.50655,0.21851,0.21129,0.48688,0.06533,0.37594,0.91983,0.22756,0.27846,0.92135,-0.03998,0.30633,1.47067,0.28038,0.18954,1.44828,-0.10324,0.52715,1.27967,0.39035,0.2338,1.17839,0.01655,0.52939,1.51293,0.41957,0.49735,1.14983
443,0.12742,0.275,1.53733,0.09571,0.49918,0.08062,0.10964,0.03404,0.1223,0.10438,0.53457,0.50645,0.22324,0.21988,0.48701,0.0641,0.38013,0.92091,0.2269,0.2836,0.92207,-0.04156,0.30947,1.47128,0.27971,0.19439,1.44882,-0.10528,0.53314,1.28377,0.38895,0.24025,1.1789,0.01525,0.53286,1.51666,0.41756,0.50392,1.15076
444,0.12598,0.27869,1.53799,0.0951,0.49942,0.08084,0.11321,0.03708,0.12629,0.10342,0.53587,0.50659,0.22864,0.22954,0.48696,0.06285,0.38432,0.92209,0.22608,0.28853,0.9227,-0.04338,0.31267,1.47211,0.27865,0.19913,1.44955,-0.1071,0.53892,1.28773,0.3875,0.24655,1.17974,0.01366,0.53641,1.52049,0.41563,0.51027,1.15168
445,0.1246,0.28251,1.53871,0.09478,0.49969,0.08115,0.11726,0.04091,0.13045,0.1027,0.53731,0.5068,0.23445,0.24009,0.48689,0.06141,0.38837,0.92317,0.22517,0.29349,0.92326,-0.04527,0.3154,1.47344,0.27741,0.20393,1.45037,-0.10954,0.54366,1.29174,0.38602,0.25252,1.18068,0.01188,0.53981,1.52414,0.41371,0.51628,1.15253
446,0.12323,0.28664,1.5394,0.09481,0.50003,0.08135,0.12178,0.04571,0.13466,0.10208,0.53862,0.50693,0.24046,0.25148,0.48683,0.05972,0.39216,0.92407,0.2242,0.29852,0.92373,-0.047,0.31757,1.47505,0.27625,0.20897,1.45116,-0.11261,0.54748,1.29594,0.3845,0.2581,1.18141,0.01019,0.54281,1.52758,0.4119,0.52188,1.1531
447,0.1218,0.29093,1.54011,0.09505,0.5004,0.08142,0.12674,0.05147,0.13888,0.10139,0.53959,0.50695,0.24656,0.2638,0.48674,0.05794,0.39566,0.92486,0.22319,0.3034,0.92405,-0.0486,0.31952,1.47653,0.27522,0.2143,1.45188,-0.11558,0.55125,1.30028,0.38296,0.26345,1.18193,0.00882,0.54531,1.53105,0.41037,0.52719,1.15329
448,0.12029,0.29506,1.5409,0.09532,0.50079,0.08137,0.13192,0.05802,0.14315,0.10048,0.54019,0.50691,0.25279,0.277,0.48649,0.05615,0.39885,0.92561,0.22225,0.30813,0.92405,-0.05026,0.32168,1.47775,0.27425,0.21971,1.45264,-0.11792,0.55561,1.30471,0.38144,0.26878,1.18246,0.00766,0.54739,1.53477,0.4091,0.53243,1.1532
449,0.11868,0.29893,1.54169,0.09543,0.50108,0.08119,0.13707,0.06523,0.14758,0.09927,0.54041,0.50674,0.25935,0.29093,0.48604,0.05432,0.40171,0.92626,0.22151,0.31305,0.92357,-0.05201,0.32425,1.4788,0.27326,0.22498,1.45354,-0.11988,0.56055,1.3091,0.37986,0.27417,1.18315,0.00629,0.5493,1.5387,0.40788,0.53768,1.15307
450,0.11699,0.30268,1.54232,0.09529,0.50115,0.0808,0.14227,0.07311,0.15242,0.0976,0.54018,0.5064,0.26655,0.30571,0.48545,0.05233,0.40423,0.92678,0.22098,0.31842,0.92261,-0.05376,0.32707,1.47974,0.27223,0.23007,1.45454,-0.12191,0.56558,1.31326,0.37814,0.27943,1.18391,0.00451,0.55129,1.54256,0.40648,0.54281,1.15297
451,0.11531,0.3064,1.54268,0.09505,0.50094,0.08032,0.1478,0.0819,0.15791,0.09554,0.53966,0.50594,0.27433,0.32157,0.48502,0.05023,0.40639,0.92718,0.22053,0.324,0.92143,-0.05545,0.32972,1.48052,0.27122,0.23504,1.45548,-0.12408,0.57016,1.31705,0.37629,0.28438,1.18452,0.00265,0.5535,1.54602,0.40481,0.54765,1.15273
452,0.11368,0.31007,1.5428,0.0949,0.50063,0.0799,0.15369,0.09176,0.1639,0.09358,0.53947,0.50551,0.2819,0.33832,0.48518,0.04826,0.40832,0.92741,0.22009,0.32928,0.92044,-0.05706,0.33202,1.48114,0.27029,0.23987,1.45616,-0.1262,0.57426,1.32056,0.37438,0.28893,1.18477,0.00112,0.55603,1.54908,0.40284,0.55209,1.15208
453,0.11209,0.31372,1.54281,0.0948,0.50048,0.0796,0.15966,0.10253,0.16991,0.0922,0.5402,0.50513,0.28826,0.35526,0.4862,0.0466,0.41019,0.92736,0.21968,0.33395,0.92002,-0.05861,0.33434,1.48156,0.2693,0.24457,1.45648,-0.12826,0.57844,1.32404,0.37249,0.2931,1.18464,-0.00013,0.55883,1.552,0.40058,0.55617,1.15094
454,0.11046,0.31744,1.54284,0.0946,0.50052,0.07938,0.16538,0.11392,0.17566,0.09131,0.54168,0.50476,0.2931,0.3719,0.48805,0.04527,0.41216,0.92709,0.21933,0.33814,0.92022,-0.06013,0.33718,1.48174,0.26821,0.2492,1.45652,-0.13042,0.58335,1.32776,0.37067,0.29697,1.18429,-0.00146,0.56158,1.55505,0.39806,0.55998,1.14953
455,0.10871,0.32132,1.54289,0.09433,0.50059,0.07924,0.17073,0.12585,0.18137,0.09033,0.54325,0.50447,0.29687,0.38848,0.49051,0.04404,0.41422,0.92691,0.219,0.3423,0.92081,-0.06166,0.34053,1.48173,0.26717,0.25384,1.45649,-0.13272,0.58894,1.33177,0.36893,0.30063,1.18382,-0.00298,0.56393,1.55828,0.39552,0.56361,1.14818
456,0.10681,0.32545,1.54282,0.09409,0.50056,0.07928,0.17574,0.13851,0.18736,0.08895,0.54435,0.50438,0.30018,0.40546,0.49347,0.04266,0.41612,0.92707,0.21867,0.34675,0.92156,-0.06319,0.34384,1.48167,0.26632,0.25836,1.4565,-0.13504,0.5945,1.33589,0.36721,0.3041,1.18333,-0.0045,0.56595,1.56152,0.39319,0.56704,1.14704
457,0.10487,0.32983,1.5426,0.09389,0.50053,0.07951,0.18039,0.1521,0.19377,0.0874,0.54486,0.50454,0.30326,0.42307,0.49698,0.0411,0.41767,0.92754,0.21829,0.35135,0.92241,-0.06472,0.34661,1.48175,0.26554,0.2625,1.45652,-0.13732,0.5993,1.33989,0.36547,0.30736,1.18285,-0.0058,0.56797,1.56459,0.39125,0.57025,1.14598
458,0.10309,0.33421,1.54242,0.0937,0.50071,0.07977,0.18464,0.16658,0.20058,0.0861,0.54501,0.50479,0.30595,0.44126,0.50105,0.03959,0.41893,0.9281,0.21795,0.35579,0.92332,-0.06623,0.3488,1.48193,0.2646,0.26609,1.45653,-0.13958,0.60319,1.34354,0.36375,0.31043,1.18249,-0.0069,0.57016,1.5673,0.38968,0.57316,1.14468
459,0.10164,0.33826,1.54249,0.09358,0.50108,0.08002,0.18868,0.18181,0.20761,0.08532,0.54526,0.50503,0.30818,0.45994,0.50562,0.03837,0.42014,0.92858,0.21774,0.35988,0.92415,-0.06764,0.35092,1.48207,0.26341,0.26923,1.45656,-0.14162,0.60672,1.34665,0.36219,0.31324,1.18234,-0.00785,0.57233,1.56956,0.38829,0.57572,1.14291
460,0.10048,0.34186,1.5428,0.09354,0.50133,0.08035,0.19298,0.19778,0.21457,0.08506,0.54603,0.50531,0.31006,0.47901,0.51064,0.0374,0.42136,0.92891,0.21762,0.36369,0.92478,-0.06897,0.35343,1.4821,0.26206,0.27214,1.45674,-0.14319,0.61052,1.34927,0.36089,0.31565,1.18245,-0.00862,0.57426,1.57141,0.38687,0.57779,1.14075
461,0.09945,0.34516,1.54317,0.09335,0.50115,0.0808,0.19775,0.21448,0.22124,0.08501,0.5473,0.50561,0.31151,0.49827,0.51615,0.03646,0.42244,0.92905,0.21746,0.36726,0.92523,-0.07046,0.35622,1.48204,0.26063,0.27491,1.45718,-0.14436,0.61465,1.35166,0.35962,0.31756,1.18282,-0.00918,0.57598,1.57301,0.38544,0.57928,1.13852
462,0.09833,0.34828,1.54344,0.09281,0.50059,0.08115,0.20268,0.2319,0.22741,0.08481,0.54866,0.50575,0.31227,0.51739,0.52225,0.03544,0.42331,0.92895,0.2172,0.37061,0.9257,-0.07223,0.3588,1.48195,0.25918,0.27754,1.45788,-0.1455,0.61863,1.35402,0.35801,0.31898,1.18328,-0.00963,0.57767,1.57453,0.38421,0.58024,1.13651
463,0.09696,0.35118,1.54361,0.09208,0.50007,0.08121,0.20736,0.25002,0.23304,0.0843,0.54973,0.50563,0.31225,0.5361,0.52903,0.03447,0.42414,0.92871,0.2169,0.37378,0.92641,-0.0741,0.36092,1.482,0.25781,0.28006,1.45865,-0.14678,0.622,1.35629,0.35596,0.32009,1.18359,-0.01013,0.57943,1.57602,0.38346,0.58084,1.13474
464,0.09546,0.35365,1.54372,0.09157,0.49996,0.08107,0.21168,0.2689,0.23843,0.08361,0.55041,0.50539,0.31172,0.55447,0.53658,0.03371,0.42514,0.92856,0.21673,0.37691,0.92747,-0.07572,0.36275,1.48235,0.25666,0.28253,1.45933,-0.14812,0.62474,1.3584,0.35383,0.32104,1.1837,-0.01066,0.58123,1.57744,0.3833,0.58123,1.13311
465,0.09412,0.35557,1.54388,0.09138,0.50026,0.08092,0.21582,0.2886,0.24404,0.083,0.55081,0.50522,0.31105,0.57293,0.54493,0.03325,0.42632,0.92864,0.21681,0.38017,0.92876,-0.07691,0.36451,1.48294,0.25572,0.28496,1.45988,-0.14937,0.62719,1.36048,0.35208,0.32188,1.18375,-0.01107,0.583,1.57885,0.38352,0.58154,1.13159
466,0.09311,0.35719,1.54417,0.09132,0.50062,0.08081,0.21997,0.30908,0.25012,0.0827,0.55097,0.50514,0.31036,0.59174,0.55406,0.03307,0.42748,0.92886,0.2172,0.38374,0.9301,-0.07778,0.3663,1.48354,0.25483,0.28733,1.46039,-0.15038,0.62968,1.36269,0.35076,0.32265,1.18391,-0.01117,0.58468,1.58031,0.38364,0.58181,1.1302
467,0.09226,0.35907,1.54449,0.09125,0.50075,0.08064,0.22414,0.33018,0.2564,0.08289,0.55091,0.50499,0.30951,0.61062,0.56383,0.03305,0.42854,0.92901,0.2178,0.38755,0.9315,-0.07853,0.36811,1.48399,0.2538,0.28948,1.46097,-0.15105,0.63235,1.36498,0.3496,0.32333,1.18425,-0.01098,0.58629,1.58183,0.38326,0.58203,1.12883
468,0.09123,0.36153,1.54472,0.09123,0.5007,0.08039,0.22817,0.35174,0.26248,0.08357,0.55077,0.50476,0.3083,0.62903,0.57416,0.03301,0.42958,0.92903,0.21833,0.39131,0.93298,-0.07932,0.36981,1.48436,0.25263,0.29127,1.46164,-0.15139,0.63499,1.36716,0.34833,0.32385,1.18474,-0.01069,0.58801,1.5834,0.38238,0.58204,1.1272
469,0.08986,0.36423,1.54491,0.09146,0.50067,0.08022,0.23181,0.37354,0.26845,0.08445,0.55077,0.5046,0.30664,0.64672,0.58503,0.03283,0.43066,0.92905,0.21858,0.39476,0.93448,-0.08012,0.37121,1.48477,0.2514,0.29272,1.46237,-0.15148,0.63725,1.3691,0.34687,0.32421,1.18527,-0.01044,0.58991,1.58504,0.38141,0.58174,1.12517
470,0.08836,0.36654,1.54517,0.09194,0.50075,0.08024,0.23498,0.39536,0.27478,0.08512,0.55098,0.50461,0.30464,0.66382,0.59653,0.03256,0.43179,0.92921,0.21864,0.39786,0.93598,-0.0807,0.37227,1.48523,0.25019,0.29404,1.46309,-0.15133,0.63902,1.37077,0.34534,0.32448,1.18575,-0.0103,0.59176,1.58674,0.3808,0.58121,1.12282
471,0.08706,0.36814,1.54553,0.09248,0.50084,0.08036,0.23785,0.41723,0.2817,0.08533,0.55123,0.50471,0.30252,0.68048,0.60877,0.03234,0.43292,0.9295,0.21868,0.40076,0.93753,-0.08088,0.37329,1.48554,0.24907,0.29544,1.46378,-0.1508,0.64069,1.37216,0.34396,0.32468,1.18623,-0.01019,0.59332,1.58838,0.38067,0.58052,1.12041
472,0.08613,0.3692,1.54594,0.09293,0.50081,0.08045,0.24055,0.4395,0.28898,0.08511,0.55137,0.50476,0.30053,0.69671,0.62169,0.0322,0.43402,0.92983,0.21878,0.40361,0.93913,-0.08083,0.37459,1.48554,0.24805,0.29696,1.46447,-0.14996,0.64267,1.37328,0.34294,0.3247,1.18677,-0.01005,0.59467,1.58982,0.38088,0.57962,1.11816
473,0.08548,0.37011,1.54632,0.09327,0.5007,0.08046,0.24293,0.46249,0.29635,0.08475,0.55141,0.50474,0.29876,0.71244,0.63526,0.03214,0.43509,0.93012,0.21892,0.40639,0.94073,-0.081,0.37611,1.48538,0.24719,0.29842,1.46519,-0.14918,0.64492,1.37429,0.34234,0.3244,1.1874,-0.00983,0.59601,1.59099,0.38137,0.57841,1.11609
474,0.08495,0.37116,1.54666,0.09357,0.5006,0.08039,0.24475,0.4863,0.30386,0.08459,0.55145,0.50464,0.2972,0.72747,0.6496,0.03222,0.43616,0.93034,0.21912,0.40884,0.94239,-0.08165,0.3775,1.48536,0.24653,0.29954,1.46584,-0.14887,0.64702,1.37541,0.34209,0.32386,1.18805,-0.00951,0.59744,1.59194,0.38212,0.57697,1.11413
475,0.08447,0.37236,1.547,0.09392,0.50057,0.08025,0.24617,0.51085,0.31168,0.08471,0.55155,0.50448,0.29587,0.74162,0.66484,0.03248,0.43723,0.93046,0.21938,0.41073,0.94416,-0.08256,0.37854,1.4857,0.24609,0.30026,1.46637,-0.14911,0.6486,1.37668,0.34204,0.32324,1.18859,-0.00914,0.59881,1.59277,0.38314,0.57546,1.11225
476,0.084,0.37356,1.54738,0.09439,0.50054,0.0801,0.24747,0.53603,0.31981,0.08484,0.5517,0.5043,0.29468,0.75497,0.68076,0.03284,0.4383,0.93055,0.21968,0.4123,0.94592,-0.08336,0.37934,1.48628,0.2458,0.30082,1.46676,-0.14961,0.64971,1.37784,0.34216,0.32269,1.18904,-0.00883,0.59996,1.59342,0.38436,0.57401,1.11038
477,0.0834,0.3746,1.54777,0.09497,0.50033,0.08003,0.24866,0.56171,0.32824,0.08473,0.55182,0.50418,0.29336,0.768,0.69688,0.03316,0.43948,0.93077,0.21998,0.41421,0.9475,-0.08391,0.38017,1.48688,0.24552,0.30154,1.46713,-0.14992,0.65069,1.37867,0.34247,0.32225,1.18953,-0.00867,0.60087,1.59391,0.38565,0.57263,1.10843
478,0.08256,0.37554,1.54819,0.09552,0.49992,0.08006,0.24959,0.58784,0.33713,0.08444,0.5518,0.50414,0.29152,0.78115,0.71306,0.03346,0.44083,0.93115,0.22037,0.41687,0.94885,-0.08434,0.38109,1.48733,0.24513,0.30257,1.4676,-0.14981,0.6518,1.37928,0.34295,0.32199,1.1902,-0.00857,0.60176,1.59448,0.38686,0.57134,1.10638
479,0.08154,0.37658,1.54862,0.09586,0.4995,0.07999,0.25035,0.61445,0.34665,0.0842,0.55161,0.50403,0.28895,0.79437,0.72951,0.03387,0.44222,0.93152,0.22092,0.42009,0.95006,-0.0848,0.38201,1.48757,0.24457,0.30379,1.46825,-0.14934,0.65314,1.38001,0.34341,0.32194,1.19113,-0.00834,0.60284,1.59531,0.38794,0.57014,1.10428
480,0.08051,0.37782,1.54903,0.09588,0.49933,0.07964,0.25123,0.64134,0.35683,0.08406,0.55142,0.50367,0.28586,0.80717,0.74638,0.03434,0.44353,0.93162,0.22151,0.42346,0.95127,-0.0854,0.38297,1.48764,0.24396,0.3049,1.46906,-0.14877,0.6547,1.38088,0.34374,0.32202,1.19221,-0.00795,0.60401,1.59621,0.38911,0.56895,1.10222
481,0.07971,0.37915,1.54935,0.09571,0.49937,0.07904,0.25235,0.66802,0.36756,0.08388,0.55145,0.50307,0.28271,0.81902,0.76345,0.03474,0.44481,0.9314,0.22195,0.42674,0.95261,-0.08625,0.38407,1.48771,0.24344,0.30584,1.46981,-0.14837,0.65638,1.38169,0.34403,0.32213,1.19321,-0.00755,0.60507,1.59687,0.39082,0.56769,1.10026
482,0.07921,0.38037,1.54953,0.09556,0.49939,0.07841,0.25339,0.69422,0.37872,0.08359,0.55189,0.50239,0.27986,0.82973,0.78045,0.03508,0.44619,0.93102,0.22221,0.42992,0.95418,-0.08729,0.38519,1.4879,0.24311,0.30692,1.4703,-0.14817,0.65796,1.38239,0.34454,0.32226,1.19395,-0.00719,0.60599,1.5973,0.39314,0.56648,1.09842
483,0.07879,0.38135,1.54967,0.0955,0.4993,0.07794,0.25393,0.72033,0.39032,0.08332,0.55267,0.50181,0.27731,0.83953,0.79737,0.03552,0.44771,0.9307,0.22253,0.43302,0.95582,-0.08817,0.38604,1.48821,0.24298,0.30831,1.47049,-0.14811,0.65922,1.38321,0.34542,0.3225,1.19445,-0.00674,0.60695,1.59779,0.39559,0.5655,1.09664
484,0.07821,0.38197,1.54983,0.09537,0.49921,0.07767,0.2538,0.74696,0.40252,0.0832,0.55351,0.50142,0.2748,0.84873,0.81441,0.03618,0.44938,0.9306,0.22309,0.43609,0.95726,-0.08855,0.38654,1.48847,0.24284,0.30964,1.47054,-0.14809,0.66009,1.38422,0.34658,0.32285,1.19494,-0.00607,0.60814,1.59846,0.39767,0.56472,1.09485
485,0.07748,0.38227,1.55004,0.09511,0.49923,0.07755,0.25315,0.77425,0.41565,0.08333,0.55419,0.50122,0.27212,0.85756,0.83176,0.03694,0.45132,0.93078,0.22378,0.43926,0.95841,-0.08846,0.38689,1.48848,0.2424,0.3104,1.47066,-0.14792,0.66083,1.38517,0.34773,0.3231,1.19564,-0.0053,0.60948,1.59915,0.39942,0.56379,1.09302
486,0.07698,0.3825,1.55026,0.09485,0.4993,0.07755,0.25208,0.80178,0.42977,0.08389,0.55478,0.50118,0.26937,0.86592,0.84933,0.03754,0.45373,0.93117,0.22436,0.44258,0.95939,-0.08824,0.38739,1.48811,0.24164,0.31063,1.47092,-0.14741,0.66172,1.38571,0.34864,0.32317,1.19654,-0.00462,0.61074,1.59966,0.40131,0.56244,1.09115
487,0.07695,0.38301,1.55043,0.09476,0.49933,0.07763,0.25061,0.82903,0.44458,0.08505,0.55559,0.50118,0.26669,0.87348,0.86674,0.03789,0.45655,0.93155,0.22465,0.4459,0.96038,-0.08813,0.38811,1.48747,0.24099,0.31092,1.47128,-0.14674,0.66283,1.38577,0.3494,0.3233,1.19744,-0.00413,0.61173,1.59982,0.40373,0.56091,1.08918
488,0.0771,0.38401,1.55049,0.09481,0.49942,0.0777,0.24878,0.85571,0.45972,0.08676,0.55679,0.50114,0.26405,0.87998,0.88354,0.03806,0.45948,0.93174,0.2247,0.449,0.96138,-0.08817,0.38902,1.48689,0.24088,0.31167,1.47156,-0.14646,0.66397,1.38565,0.35027,0.32385,1.19811,-0.00391,0.61245,1.59964,0.4066,0.5597,1.08704
489,0.07691,0.38536,1.55038,0.09495,0.49965,0.07769,0.24683,0.88182,0.47516,0.08867,0.55832,0.50098,0.26122,0.8855,0.8997,0.03818,0.46222,0.93164,0.22464,0.4518,0.96234,-0.0884,0.39006,1.48669,0.2412,0.31266,1.47162,-0.14688,0.66503,1.38561,0.35149,0.32495,1.19854,-0.00396,0.61302,1.59923,0.40947,0.55912,1.08482
490,0.07613,0.38674,1.55005,0.09525,0.49992,0.07748,0.24497,0.90739,0.49121,0.09034,0.56009,0.50058,0.25799,0.89035,0.91546,0.03836,0.46471,0.93122,0.22462,0.4545,0.96319,-0.089,0.39107,1.48688,0.24152,0.31348,1.47143,-0.14774,0.66596,1.38573,0.35306,0.32636,1.19888,-0.00402,0.61362,1.59873,0.41208,0.55913,1.08283
491,0.07495,0.38791,1.5495,0.0957,0.50006,0.07704,0.24308,0.93229,0.50803,0.09145,0.5621,0.49987,0.25453,0.89486,0.93101,0.03868,0.46705,0.93049,0.22471,0.45739,0.96395,-0.09004,0.39187,1.48711,0.24161,0.31409,1.47107,-0.14854,0.66682,1.38597,0.35478,0.32774,1.19922,-0.00376,0.61443,1.59825,0.41461,0.55939,1.08136
492,0.07383,0.38881,1.54876,0.09611,0.49997,0.07654,0.24092,0.95634,0.52556,0.09203,0.56425,0.49904,0.25144,0.89921,0.94636,0.03907,0.46941,0.92968,0.22487,0.46067,0.96466,-0.09104,0.39248,1.48702,0.24158,0.31479,1.47063,-0.14906,0.66769,1.38632,0.3564,0.3289,1.1995,-0.00315,0.61546,1.59785,0.41726,0.55962,1.08036
493,0.0732,0.38952,1.54793,0.09636,0.49974,0.07628,0.23858,0.97961,0.54364,0.09233,0.56643,0.49841,0.24909,0.90335,0.9614,0.03934,0.47193,0.92912,0.22495,0.46431,0.96537,-0.09142,0.39306,1.48647,0.24156,0.31573,1.4701,-0.14938,0.66862,1.38671,0.35789,0.32993,1.19962,-0.00237,0.61658,1.59752,0.42004,0.55978,1.07947
494,0.07305,0.39015,1.54712,0.09645,0.49958,0.07631,0.23634,1.00235,0.56211,0.09261,0.56864,0.49806,0.24707,0.90717,0.97596,0.03939,0.47474,0.92887,0.22484,0.46812,0.96612,-0.09112,0.39367,1.48556,0.24148,0.3166,1.46943,-0.14954,0.66957,1.38702,0.35939,0.33112,1.19965,-0.00162,0.61766,1.59723,0.42288,0.55997,1.07829
495,0.07307,0.39066,1.54644,0.09643,0.49958,0.07634,0.23409,1.02474,0.58088,0.09293,0.57097,0.49771,0.24448,0.91055,0.9899,0.03935,0.47784,0.92865,0.2246,0.47188,0.96698,-0.09069,0.39419,1.48456,0.24131,0.31705,1.46864,-0.14945,0.67044,1.38718,0.36101,0.33261,1.19972,-0.00096,0.61859,1.597,0.42587,0.5602,1.07673
496,0.07297,0.39093,1.54584,0.0964,0.49964,0.07616,0.23148,1.04656,0.59994,0.09321,0.57341,0.49712,0.24094,0.91341,1.00322,0.03946,0.48106,0.9282,0.22442,0.47542,0.96795,-0.09054,0.39453,1.48372,0.2412,0.31722,1.46786,-0.14917,0.67112,1.38724,0.36275,0.33419,1.19985,-0.00037,0.61932,1.59687,0.42917,0.56029,1.07495
497,0.07266,0.39111,1.54515,0.09648,0.49961,0.07583,0.22849,1.06739,0.61943,0.09344,0.57587,0.49635,0.23694,0.91585,1.01619,0.03988,0.48419,0.9276,0.22448,0.47885,0.96901,-0.09065,0.39468,1.48302,0.24136,0.31766,1.46714,-0.14887,0.67158,1.38721,0.3645,0.33544,1.1999,0.00021,0.61976,1.59662,0.43281,0.56002,1.0733
498,0.07217,0.3916,1.54427,0.09665,0.49947,0.07559,0.22552,1.08698,0.63948,0.09364,0.57826,0.49564,0.23336,0.91809,1.02918,0.04054,0.48719,0.92708,0.22477,0.48243,0.97019,-0.0909,0.39483,1.48226,0.24179,0.31869,1.46634,-0.14867,0.67199,1.3869,0.36625,0.33631,1.19972,0.00079,0.61991,1.59598,0.43658,0.55962,1.07198
499,0.07158,0.39257,1.5432,0.09677,0.49936,0.07551,0.22286,1.10539,0.65989,0.09384,0.58057,0.4951,0.2307,0.92024,1.04213,0.04124,0.4902,0.92675,0.22509,0.48626,0.97154,-0.09137,0.39523,1.48124,0.24224,0.32005,1.46529,-0.14853,0.67264,1.38625,0.36816,0.33736,1.19933,0.00125,0.61983,1.59492,0.44011,0.55983,1.07102
500,0.07096,0.39365,1.54202,0.09668,0.49938,0.07556,0.22032,1.1228,0.68021,0.09394,0.58288,0.4947,0.22871,0.92228,1.05461,0.04185,0.49341,0.9266,0.2253,0.4902,0.97306,-0.09213,0.39599,1.48,0.24249,0.32115,1.46395,-0.14851,0.67371,1.38545,0.37026,0.3392,1.19891,0.00143,0.61982,1.59373,0.44303,0.56118,1.07022
501,0.07028,0.39444,1.54083,0.09638,0.49955,0.07565,0.21752,1.13916,0.70019,0.09381,0.58536,0.49432,0.22662,0.92415,1.06644,0.04239,0.4968,0.92648,0.22543,0.49414,0.97457,-0.09296,0.39703,1.47875,0.2425,0.32156,1.46252,-0.14871,0.67508,1.3848,0.37228,0.34177,1.19862,0.00124,0.62021,1.59281,0.4454,0.5633,1.06935
502,0.06953,0.39495,1.53967,0.09603,0.49979,0.07573,0.21439,1.15415,0.71982,0.09339,0.58809,0.49388,0.22375,0.92582,1.07791,0.04297,0.50016,0.92629,0.22566,0.49814,0.97573,-0.09351,0.39809,1.47764,0.24226,0.32149,1.46123,-0.14909,0.67641,1.38437,0.37394,0.34455,1.19851,0.00083,0.62108,1.59228,0.44777,0.56531,1.06834
503,0.06884,0.39544,1.53853,0.0958,0.50004,0.07577,0.21133,1.1676,0.73912,0.09275,0.59101,0.49335,0.22,0.92725,1.08928,0.04372,0.50335,0.92598,0.22612,0.50229,0.97647,-0.0937,0.39885,1.47654,0.24172,0.32161,1.46008,-0.14953,0.67737,1.38406,0.37526,0.34727,1.19854,0.00059,0.62219,1.59186,0.45059,0.56691,1.06734
504,0.06834,0.39581,1.53741,0.09571,0.50026,0.07578,0.20874,1.17993,0.75807,0.09205,0.59403,0.49274,0.21588,0.92846,1.10035,0.0447,0.50639,0.92555,0.22684,0.50654,0.97699,-0.09375,0.39912,1.47528,0.24095,0.32248,1.45906,-0.14988,0.67791,1.38379,0.37633,0.35004,1.19866,0.00091,0.62325,1.59125,0.45364,0.56836,1.06641
505,0.06801,0.39573,1.53634,0.09565,0.50048,0.07579,0.2064,1.19185,0.77665,0.09132,0.59704,0.4921,0.2121,0.92949,1.11069,0.04584,0.50935,0.92511,0.22769,0.51069,0.97756,-0.09394,0.39903,1.47399,0.2402,0.32412,1.45822,-0.14988,0.6782,1.38353,0.37714,0.35285,1.19876,0.00181,0.62417,1.59051,0.45638,0.56983,1.06544
506,0.06777,0.39516,1.53524,0.09549,0.50068,0.07587,0.20364,1.20365,0.79497,0.09047,0.59985,0.49156,0.20919,0.93041,1.12017,0.04697,0.51242,0.92483,0.22849,0.51463,0.97836,-0.09436,0.3989,1.47282,0.23977,0.32604,1.45755,-0.14939,0.67852,1.3832,0.37778,0.35546,1.19875,0.00291,0.62498,1.58985,0.45878,0.57111,1.06434
507,0.06752,0.39458,1.53402,0.09515,0.50084,0.07607,0.2002,1.21497,0.81299,0.08942,0.60232,0.49119,0.20716,0.93126,1.12907,0.04796,0.51571,0.92482,0.22918,0.51839,0.97936,-0.09495,0.39902,1.47174,0.23971,0.32772,1.45686,-0.14872,0.67908,1.38273,0.37854,0.35771,1.19856,0.00378,0.62572,1.58928,0.46132,0.57209,1.06321
508,0.06718,0.39454,1.53262,0.09468,0.50091,0.07635,0.19655,1.22525,0.83049,0.08822,0.60458,0.49092,0.20554,0.93206,1.13775,0.04885,0.51911,0.92497,0.22977,0.52216,0.98044,-0.09547,0.39936,1.47055,0.23984,0.32892,1.45597,-0.14838,0.67976,1.38212,0.3796,0.35965,1.19826,0.00424,0.62637,1.58857,0.46433,0.57284,1.06223
509,0.06673,0.39514,1.5311,0.09418,0.50084,0.07661,0.19363,1.23426,0.84717,0.08686,0.60679,0.49058,0.20371,0.93286,1.14634,0.04975,0.52236,0.92503,0.23035,0.52606,0.98152,-0.09572,0.39967,1.46912,0.23988,0.32962,1.45487,-0.14862,0.68029,1.38137,0.38078,0.3614,1.1979,0.00445,0.62689,1.58749,0.46772,0.57346,1.0615
510,0.06623,0.39595,1.52951,0.09365,0.50064,0.07674,0.19229,1.24235,0.86309,0.0853,0.60898,0.49008,0.20124,0.93367,1.15479,0.0507,0.52539,0.9249,0.2309,0.53016,0.98259,-0.09582,0.39979,1.46745,0.23959,0.32995,1.45358,-0.14914,0.68058,1.3805,0.38174,0.36305,1.19747,0.00465,0.62723,1.58609,0.47117,0.57407,1.06107
511,0.0658,0.39638,1.52785,0.09298,0.50031,0.07679,0.19273,1.24999,0.87849,0.08366,0.6111,0.48946,0.19824,0.93458,1.16298,0.05165,0.52849,0.92467,0.23137,0.53443,0.98372,-0.09618,0.39987,1.46565,0.2389,0.33008,1.45207,-0.14942,0.68095,1.37959,0.38247,0.36465,1.19695,0.00501,0.62747,1.58467,0.47435,0.57483,1.06089
512,0.0655,0.39607,1.52623,0.09208,0.49987,0.07689,0.19402,1.25736,0.89343,0.08222,0.61321,0.48885,0.19522,0.9356,1.17077,0.05252,0.5319,0.92447,0.23173,0.53874,0.98495,-0.09701,0.40019,1.46388,0.23799,0.33016,1.45036,-0.14923,0.68177,1.37883,0.3833,0.3661,1.19642,0.00558,0.62768,1.58346,0.47697,0.57575,1.06076
513,0.06515,0.39516,1.52471,0.09094,0.49943,0.07708,0.19431,1.26423,0.90771,0.0811,0.61545,0.4883,0.19261,0.93658,1.17806,0.05333,0.53545,0.92428,0.23202,0.54289,0.98619,-0.09802,0.40079,1.46227,0.23723,0.33026,1.44867,-0.1488,0.68296,1.37832,0.38438,0.36723,1.19594,0.00627,0.62773,1.58244,0.4789,0.5766,1.06044
514,0.06451,0.39432,1.52325,0.08985,0.49915,0.07728,0.19216,1.27031,0.92118,0.08017,0.61776,0.48776,0.19047,0.93731,1.18492,0.05406,0.53887,0.92405,0.2323,0.54677,0.98724,-0.09871,0.40151,1.46074,0.23696,0.3304,1.44729,-0.14842,0.68419,1.37787,0.38544,0.36794,1.19542,0.00688,0.62749,1.58142,0.48041,0.57706,1.05986
515,0.06356,0.3941,1.5217,0.08919,0.49915,0.07745,0.1879,1.27567,0.93392,0.07923,0.62003,0.48726,0.18855,0.93779,1.19139,0.05469,0.54207,0.9238,0.23256,0.55046,0.98795,-0.09886,0.40216,1.45905,0.23721,0.33071,1.44638,-0.1482,0.6852,1.37716,0.38615,0.36837,1.1948,0.00722,0.62705,1.58021,0.48202,0.57706,1.05918
516,0.0627,0.39448,1.51998,0.08903,0.49942,0.07763,0.18326,1.28067,0.9461,0.07818,0.62231,0.48682,0.18665,0.93821,1.19743,0.05519,0.54516,0.92359,0.23278,0.55411,0.98841,-0.09874,0.40263,1.4572,0.23764,0.33139,1.44579,-0.14803,0.68591,1.37613,0.38655,0.36886,1.19415,0.00738,0.62666,1.57887,0.48418,0.5768,1.05866
517,0.06229,0.3951,1.51817,0.08904,0.49976,0.07784,0.1798,1.28565,0.95769,0.07708,0.62471,0.48638,0.18479,0.93879,1.20286,0.05557,0.54828,0.92336,0.23293,0.55773,0.98877,-0.09885,0.40284,1.45537,0.23789,0.33257,1.44516,-0.14776,0.68639,1.37504,0.38702,0.36958,1.1936,0.00763,0.62647,1.5776,0.48694,0.5766,1.05836
518,0.0621,0.39576,1.51633,0.08884,0.49994,0.07802,0.17789,1.29079,0.96858,0.07599,0.62731,0.48579,0.18295,0.93961,1.20752,0.05595,0.55146,0.92293,0.23302,0.56129,0.98906,-0.09949,0.40281,1.45358,0.2379,0.33409,1.44426,-0.14746,0.68674,1.37401,0.38782,0.37036,1.19305,0.00799,0.62645,1.57641,0.48995,0.57652,1.05816
519,0.06166,0.39642,1.5145,0.08837,0.49989,0.07809,0.17693,1.29613,0.97873,0.07494,0.63,0.48497,0.18105,0.94072,1.21135,0.05643,0.55457,0.92226,0.23317,0.56483,0.9892,-0.10042,0.40278,1.45156,0.23782,0.33566,1.44307,-0.14734,0.6871,1.37277,0.38885,0.37092,1.19239,0.00814,0.6265,1.57505,0.49272,0.57647,1.05788
520,0.06087,0.39702,1.51273,0.08779,0.49974,0.07807,0.17611,1.30172,0.98818,0.07389,0.63264,0.48403,0.17917,0.94217,1.21437,0.05704,0.55749,0.92143,0.23342,0.56839,0.9892,-0.10113,0.4029,1.44922,0.23774,0.33713,1.44181,-0.14738,0.68752,1.37113,0.38981,0.37115,1.19159,0.0079,0.62649,1.57344,0.495,0.57632,1.05753
521,0.06003,0.39739,1.51108,0.08729,0.49967,0.07803,0.17496,1.30766,0.99707,0.07284,0.63516,0.48311,0.17756,0.94397,1.21655,0.05767,0.56026,0.92062,0.23373,0.57186,0.98911,-0.10139,0.40307,1.44681,0.23758,0.33841,1.44064,-0.1473,0.68791,1.36934,0.39041,0.37121,1.19072,0.00748,0.62626,1.57184,0.49688,0.57604,1.05716
522,0.05935,0.3975,1.5096,0.08694,0.49981,0.078,0.17327,1.31393,1.00545,0.07188,0.63753,0.48231,0.17638,0.94609,1.21791,0.05823,0.56294,0.91992,0.23401,0.57509,0.98902,-0.10148,0.40308,1.44459,0.2373,0.33936,1.43952,-0.14695,0.68818,1.36778,0.39071,0.37129,1.18984,0.00722,0.6259,1.57056,0.49872,0.57559,1.05671
523,0.05879,0.39753,1.50817,0.08669,0.50008,0.07796,0.17114,1.32027,1.01322,0.07097,0.63969,0.48159,0.17556,0.94845,1.21861,0.05874,0.56539,0.9193,0.23428,0.57812,0.98891,-0.10171,0.40294,1.44248,0.23701,0.33999,1.43831,-0.14651,0.68836,1.36652,0.39107,0.37141,1.18896,0.00726,0.62564,1.56946,0.50091,0.57492,1.05611
524,0.05818,0.39778,1.50664,0.08649,0.50029,0.07791,0.16885,1.32654,1.02021,0.07007,0.64166,0.4809,0.17478,0.95103,1.21873,0.05918,0.56753,0.91867,0.2345,0.58108,0.98868,-0.10206,0.40274,1.44029,0.23686,0.34065,1.43699,-0.14625,0.68853,1.36534,0.39171,0.37142,1.18806,0.0075,0.62559,1.56823,0.50338,0.57402,1.05533
525,0.05745,0.39842,1.50494,0.08647,0.50024,0.07792,0.16674,1.3329,1.02636,0.06923,0.64354,0.48019,0.17386,0.95394,1.21818,0.05952,0.56946,0.918,0.23464,0.58405,0.9883,-0.10219,0.40259,1.43797,0.23692,0.34171,1.43568,-0.14628,0.68868,1.36414,0.39257,0.37121,1.1871,0.00779,0.62563,1.56675,0.50581,0.57295,1.0544
526,0.05678,0.3992,1.50319,0.08678,0.49997,0.07798,0.16519,1.3396,1.03174,0.06861,0.64539,0.47945,0.17281,0.95733,1.21684,0.05978,0.57137,0.91728,0.23471,0.5871,0.98781,-0.10194,0.40246,1.43568,0.2372,0.34328,1.43443,-0.14655,0.68875,1.36294,0.39353,0.37091,1.18605,0.00805,0.62571,1.56515,0.50798,0.57192,1.05327
527,0.05646,0.39972,1.50156,0.08729,0.4997,0.07801,0.16445,1.34663,1.0365,0.06836,0.64716,0.4787,0.17167,0.96113,1.2148,0.06004,0.57336,0.91658,0.23477,0.59014,0.98734,-0.10145,0.40236,1.43364,0.23776,0.3451,1.43326,-0.14697,0.68873,1.36179,0.39452,0.37084,1.18495,0.00825,0.62586,1.56358,0.50987,0.57108,1.0518
528,0.05648,0.39984,1.50015,0.08759,0.49966,0.07795,0.16446,1.35364,1.04065,0.06844,0.64876,0.47803,0.17054,0.96508,1.21219,0.06031,0.57538,0.91598,0.23486,0.5929,0.98702,-0.10103,0.40233,1.43201,0.23842,0.34666,1.43218,-0.14746,0.68868,1.36062,0.39542,0.3711,1.1839,0.00831,0.62607,1.56207,0.51154,0.57037,1.04996
529,0.05657,0.39978,1.49891,0.08748,0.49995,0.07789,0.16468,1.3604,1.04398,0.0686,0.65028,0.47752,0.16964,0.96901,1.20904,0.06055,0.57731,0.91554,0.23495,0.59521,0.98686,-0.10091,0.4024,1.4307,0.23889,0.34764,1.43117,-0.14787,0.68868,1.35939,0.39607,0.37152,1.18294,0.00813,0.62622,1.56071,0.51307,0.56949,1.04786
530,0.05657,0.39985,1.49781,0.08723,0.50037,0.07795,0.1646,1.36701,1.04625,0.06868,0.6518,0.47717,0.16913,0.97315,1.2053,0.06076,0.57906,0.91524,0.23501,0.59726,0.98684,-0.1011,0.40247,1.42954,0.23918,0.34828,1.43019,-0.14804,0.68875,1.35821,0.39645,0.37182,1.18199,0.00766,0.62618,1.55973,0.51464,0.56819,1.04559
531,0.05658,0.40006,1.49684,0.08723,0.50063,0.07805,0.16425,1.37371,1.04724,0.06868,0.65322,0.47684,0.16898,0.97776,1.20103,0.06098,0.58051,0.91491,0.23503,0.59948,0.98679,-0.1014,0.40243,1.42837,0.23962,0.34918,1.42927,-0.14804,0.68881,1.35723,0.39676,0.3718,1.18089,0.00695,0.62602,1.55922,0.51624,0.56641,1.04311
532,0.0566,0.40027,1.49597,0.0875,0.50062,0.078,0.16407,1.38038,1.04695,0.06876,0.65429,0.47636,0.16896,0.98275,1.19635,0.0612,0.58163,0.91445,0.23501,0.60201,0.98652,-0.10157,0.40225,1.4272,0.24043,0.35068,1.42848,-0.1482,0.68871,1.35639,0.3971,0.37143,1.17964,0.00611,0.6259,1.5589,0.51756,0.56432,1.04031
533,0.05653,0.40031,1.49524,0.08779,0.5005,0.07774,0.16431,1.38665,1.04565,0.06902,0.65496,0.4758,0.16873,0.98766,1.1914,0.06126,0.58248,0.91391,0.23489,0.60458,0.98591,-0.10146,0.40191,1.42616,0.24147,0.35264,1.42787,-0.14869,0.6883,1.3555,0.39743,0.37086,1.1784,0.00534,0.62583,1.55831,0.51842,0.56211,1.03727
534,0.05642,0.40013,1.49471,0.08803,0.5006,0.0774,0.16494,1.39231,1.04371,0.06947,0.65539,0.47533,0.16812,0.99213,1.18617,0.06105,0.58318,0.91348,0.23467,0.6068,0.98505,-0.1011,0.40142,1.4254,0.2424,0.35455,1.42738,-0.14942,0.68756,1.35447,0.39771,0.37033,1.17734,0.00485,0.62567,1.55729,0.519,0.55988,1.03419
535,0.05645,0.39987,1.4944,0.08837,0.50102,0.07709,0.16562,1.39753,1.04148,0.07007,0.6558,0.47504,0.16726,0.99619,1.18069,0.06066,0.58386,0.91321,0.23435,0.60858,0.9842,-0.10064,0.40075,1.42484,0.24288,0.35588,1.42681,-0.15011,0.68659,1.35345,0.39784,0.37003,1.17645,0.00465,0.62537,1.5561,0.51959,0.55765,1.03117
536,0.05684,0.39958,1.49424,0.08885,0.50151,0.07683,0.16603,1.40264,1.03934,0.07076,0.65623,0.47482,0.16651,1.00013,1.17511,0.06026,0.58468,0.91303,0.23405,0.61014,0.98352,-0.10015,0.39999,1.42424,0.24282,0.35632,1.42609,-0.1506,0.68557,1.35254,0.39766,0.36988,1.17563,0.00454,0.62507,1.55512,0.52014,0.5553,1.02815
537,0.05753,0.39918,1.49415,0.08932,0.50182,0.07659,0.16605,1.40773,1.03766,0.0714,0.6566,0.47456,0.16618,1.00397,1.16967,0.06008,0.58568,0.91284,0.23394,0.61165,0.98299,-0.09956,0.39929,1.42351,0.24258,0.356,1.42547,-0.15098,0.68469,1.35177,0.39708,0.36966,1.1748,0.00419,0.62492,1.55453,0.5204,0.55267,1.02502
538,0.05831,0.39864,1.49415,0.08976,0.5019,0.07634,0.16578,1.41249,1.03665,0.07191,0.65678,0.47427,0.16632,1.00741,1.16455,0.06018,0.58658,0.91267,0.23413,0.61296,0.98244,-0.09886,0.39878,1.42284,0.24266,0.35546,1.42523,-0.15161,0.68396,1.35115,0.39629,0.36921,1.17402,0.00345,0.62492,1.55422,0.52033,0.54965,1.02176
539,0.05906,0.39805,1.49433,0.09034,0.50181,0.07613,0.16556,1.41642,1.03622,0.0724,0.65658,0.4741,0.16674,1.01004,1.15993,0.06036,0.58693,0.91257,0.23448,0.61379,0.98173,-0.09816,0.39841,1.42258,0.24316,0.35519,1.42533,-0.15277,0.6832,1.35073,0.39557,0.36863,1.17337,0.00243,0.62501,1.55393,0.52024,0.54634,1.01842
540,0.05984,0.39758,1.4947,0.09102,0.50158,0.07594,0.16571,1.41925,1.03599,0.07305,0.65599,0.47405,0.16726,1.01175,1.15595,0.06041,0.58651,0.91253,0.23475,0.61408,0.98086,-0.09757,0.39807,1.42286,0.24382,0.3553,1.42547,-0.15436,0.6823,1.35053,0.39497,0.36808,1.17272,0.00146,0.6251,1.55354,0.52036,0.54294,1.01513
541,0.06063,0.39729,1.49522,0.09162,0.5013,0.07567,0.16627,1.42112,1.03561,0.07393,0.65523,0.47398,0.16787,1.01275,1.15259,0.06036,0.58552,0.9124,0.23485,0.61391,0.97999,-0.09707,0.39766,1.4234,0.24446,0.35552,1.42545,-0.15599,0.68135,1.35063,0.39439,0.36763,1.17194,0.00082,0.62509,1.55314,0.52063,0.53968,1.01196
542,0.06139,0.39721,1.4958,0.09201,0.50114,0.07529,0.16694,1.4223,1.035,0.07492,0.6545,0.47384,0.16872,1.0133,1.14973,0.06037,0.58432,0.91215,0.23489,0.61333,0.97942,-0.09665,0.39716,1.42394,0.24505,0.35558,1.42536,-0.15729,0.68047,1.35108,0.39388,0.3673,1.17119,0.00056,0.62493,1.55298,0.52076,0.53668,1.00889
543,0.0621,0.39733,1.49635,0.09222,0.50118,0.07487,0.16747,1.42291,1.03439,0.0759,0.6537,0.47378,0.16984,1.01343,1.14741,0.06048,0.58313,0.912,0.23496,0.61239,0.97925,-0.09635,0.39661,1.42452,0.24564,0.35532,1.42541,-0.1581,0.6797,1.35176,0.39366,0.36701,1.17076,0.00056,0.62478,1.5532,0.52054,0.53387,1.00587
544,0.06282,0.39749,1.49691,0.09235,0.50123,0.07459,0.16817,1.42282,1.03396,0.07692,0.65262,0.47396,0.17119,1.01303,1.14583,0.06052,0.58199,0.91213,0.23503,0.61106,0.97939,-0.09622,0.39603,1.42535,0.24634,0.3548,1.42568,-0.15851,0.67897,1.35248,0.3937,0.36658,1.17065,0.00066,0.62481,1.55372,0.5199,0.53106,1.00287
545,0.06356,0.39753,1.49761,0.09251,0.50112,0.07446,0.16971,1.42185,1.03369,0.07806,0.65127,0.47434,0.17259,1.01194,1.1451,0.06037,0.58079,0.91249,0.23501,0.60935,0.97963,-0.09612,0.39542,1.42646,0.24716,0.35427,1.42608,-0.15883,0.67816,1.35317,0.39369,0.36583,1.17056,0.00074,0.62492,1.55434,0.51893,0.52811,0.99995
546,0.06428,0.39745,1.49853,0.09275,0.50096,0.07443,0.17233,1.4201,1.03326,0.07931,0.64982,0.47483,0.17389,1.01028,1.14506,0.05995,0.57939,0.91292,0.23478,0.60737,0.9798,-0.0957,0.39474,1.42774,0.24802,0.35403,1.42653,-0.15938,0.67711,1.35386,0.39337,0.36481,1.1703,0.00071,0.62484,1.55487,0.51777,0.52505,0.99716
547,0.06497,0.39743,1.49963,0.09306,0.50094,0.07443,0.17558,1.41792,1.03227,0.08072,0.64831,0.47542,0.17506,1.00846,1.14537,0.05927,0.5777,0.91338,0.23427,0.60537,0.97994,-0.09475,0.394,1.42906,0.24883,0.35409,1.42706,-0.16031,0.67578,1.35455,0.39281,0.36377,1.17002,0.00052,0.62439,1.55519,0.51655,0.52195,0.99453
548,0.06569,0.39762,1.5008,0.09343,0.501,0.0745,0.17895,1.4155,1.03049,0.08233,0.64663,0.47615,0.17615,1.00667,1.14583,0.05851,0.57575,0.91394,0.23362,0.60341,0.98022,-0.09342,0.39326,1.43039,0.24957,0.3542,1.42776,-0.16138,0.67427,1.35515,0.39217,0.36291,1.16992,0.00026,0.62376,1.55537,0.5154,0.51884,0.99207
549,0.06662,0.39801,1.50198,0.09388,0.50104,0.07464,0.18255,1.41241,1.02797,0.08409,0.64473,0.47703,0.17725,1.00455,1.14658,0.05794,0.57357,0.91464,0.23316,0.60119,0.98064,-0.09203,0.39253,1.43178,0.25021,0.35412,1.42864,-0.1621,0.6728,1.35571,0.39155,0.36217,1.17008,0.0001,0.62326,1.55571,0.51431,0.51573,0.98986
550,0.06776,0.39854,1.50321,0.09445,0.50106,0.07478,0.18663,1.40817,1.02477,0.08585,0.64272,0.47791,0.17842,1.00167,1.14783,0.05771,0.57127,0.91536,0.23307,0.59844,0.98118,-0.09079,0.3918,1.43332,0.25073,0.3537,1.42957,-0.16234,0.67147,1.35645,0.39101,0.36147,1.17043,0.00024,0.62301,1.55642,0.51327,0.51267,0.98788
551,0.0689,0.3991,1.50455,0.09512,0.50113,0.07477,0.1909,1.40277,1.02045,0.08747,0.64068,0.47866,0.17969,0.99823,1.14959,0.05775,0.56903,0.91596,0.23323,0.59531,0.98184,-0.08975,0.39107,1.43515,0.25114,0.35291,1.43038,-0.16243,0.67025,1.35751,0.39055,0.36074,1.17077,0.00075,0.62302,1.55728,0.51227,0.50964,0.986
552,0.06991,0.39939,1.506,0.09583,0.50128,0.07455,0.19482,1.39637,1.01411,0.08895,0.6386,0.47921,0.18111,0.99473,1.15175,0.05791,0.5669,0.91642,0.23341,0.59223,0.9826,-0.08893,0.39036,1.43715,0.25164,0.35193,1.43102,-0.16279,0.669,1.35871,0.39008,0.3599,1.1709,0.00142,0.62322,1.55798,0.51121,0.50665,0.98402
553,0.07095,0.39917,1.50752,0.09658,0.50147,0.07424,0.19825,1.38882,1.00487,0.09034,0.63649,0.47969,0.18274,0.99142,1.15414,0.05804,0.56478,0.9168,0.2335,0.58941,0.98336,-0.08821,0.38964,1.43906,0.25257,0.35103,1.43164,-0.16344,0.66766,1.35974,0.38953,0.35883,1.17073,0.0018,0.62332,1.55848,0.50979,0.5038,0.98191
554,0.07224,0.39863,1.50903,0.0972,0.50164,0.07404,0.20155,1.37975,0.99254,0.09162,0.63445,0.48023,0.18456,0.98825,1.15651,0.05804,0.56255,0.91721,0.23346,0.58673,0.98403,-0.08739,0.389,1.44074,0.25398,0.35037,1.43241,-0.16414,0.66631,1.36041,0.38893,0.35756,1.17044,0.00156,0.62293,1.55897,0.50802,0.50123,0.97989
555,0.07374,0.39823,1.51053,0.09759,0.5017,0.07409,0.20501,1.36913,0.97785,0.09276,0.63259,0.48091,0.18641,0.98512,1.15851,0.05794,0.5602,0.91772,0.23339,0.584,0.98458,-0.0865,0.38851,1.44238,0.25557,0.34992,1.43333,-0.16466,0.66506,1.36081,0.38843,0.35632,1.17028,0.00083,0.62209,1.55963,0.50627,0.49894,0.97817
556,0.07525,0.39816,1.51209,0.09786,0.50153,0.07444,0.20851,1.35728,0.96178,0.09375,0.63082,0.48177,0.18814,0.98207,1.1599,0.05776,0.5577,0.91837,0.23336,0.58119,0.98496,-0.08568,0.38806,1.44424,0.25698,0.34954,1.43428,-0.16485,0.66389,1.3612,0.38802,0.35535,1.17029,0.00021,0.62131,1.56047,0.5048,0.49685,0.97672
557,0.07661,0.39824,1.51382,0.09822,0.5011,0.07493,0.21187,1.34446,0.94492,0.09464,0.62888,0.48275,0.18978,0.97918,1.16063,0.05757,0.55521,0.91916,0.23344,0.57836,0.98516,-0.08499,0.38741,1.4464,0.25818,0.34899,1.43514,-0.16489,0.66255,1.36177,0.38755,0.35464,1.17033,0.00017,0.62104,1.56126,0.5034,0.49498,0.97535
558,0.07777,0.39817,1.51583,0.09874,0.50064,0.07527,0.21537,1.33063,0.92728,0.09546,0.6266,0.48365,0.19151,0.97648,1.16064,0.05742,0.55299,0.91999,0.23366,0.57547,0.98522,-0.08423,0.38653,1.44875,0.2593,0.34801,1.43596,-0.16519,0.66082,1.36238,0.3869,0.35394,1.1703,0.00045,0.62123,1.56178,0.50172,0.49337,0.97407
559,0.07879,0.39778,1.51811,0.09926,0.50047,0.07524,0.21943,1.31545,0.90859,0.09623,0.6241,0.48434,0.19345,0.97391,1.15984,0.05735,0.55119,0.92072,0.23403,0.57241,0.98519,-0.0832,0.38564,1.45111,0.26037,0.34671,1.43689,-0.16607,0.65872,1.36276,0.38614,0.35308,1.17037,0.00041,0.62166,1.56195,0.49975,0.49207,0.97313
560,0.0798,0.39709,1.52048,0.09959,0.50067,0.07503,0.22402,1.29855,0.88871,0.09695,0.62161,0.48494,0.19578,0.97139,1.15819,0.05723,0.54963,0.92139,0.23442,0.56907,0.98499,-0.08187,0.38482,1.45331,0.26138,0.34567,1.43799,-0.16748,0.65634,1.3628,0.38553,0.35216,1.17071,-0.00025,0.62202,1.56185,0.49783,0.49102,0.97263
561,0.0809,0.39634,1.52268,0.09965,0.50102,0.07494,0.22865,1.27996,0.86792,0.0976,0.61921,0.48566,0.19872,0.96897,1.15574,0.05689,0.5479,0.92213,0.23467,0.56551,0.98463,-0.08049,0.38397,1.4553,0.26241,0.34529,1.43915,-0.16909,0.65379,1.36258,0.38519,0.35141,1.17123,-0.00118,0.62212,1.56149,0.49638,0.49007,0.97238
562,0.0821,0.39571,1.52463,0.09962,0.5012,0.07503,0.23286,1.26012,0.8468,0.09809,0.61684,0.48647,0.20227,0.96675,1.15249,0.05642,0.54575,0.92289,0.23475,0.56179,0.98424,-0.07936,0.38306,1.45719,0.26347,0.34531,1.44025,-0.17061,0.6512,1.3622,0.3849,0.3509,1.1717,-0.00201,0.62196,1.56091,0.49538,0.48903,0.97209
563,0.08329,0.3951,1.52645,0.09973,0.50108,0.07506,0.23674,1.2395,0.82586,0.09844,0.6145,0.48712,0.2061,0.96468,1.14833,0.05605,0.54322,0.92344,0.2348,0.55787,0.9839,-0.07854,0.38222,1.45911,0.26444,0.34522,1.44122,-0.17204,0.64871,1.36172,0.38433,0.35047,1.17198,-0.00285,0.62182,1.56026,0.49432,0.48788,0.9716
564,0.08445,0.39445,1.52829,0.10008,0.50083,0.07489,0.24072,1.21822,0.80526,0.09872,0.61214,0.48753,0.20984,0.96263,1.14315,0.05583,0.54046,0.92373,0.23491,0.55366,0.98354,-0.07773,0.38156,1.46102,0.26532,0.34477,1.44205,-0.17363,0.64625,1.36106,0.38344,0.3499,1.17202,-0.00418,0.62177,1.5597,0.49262,0.48682,0.97086
565,0.08584,0.39382,1.53018,0.10063,0.50061,0.07465,0.24493,1.19605,0.78482,0.09897,0.60966,0.48789,0.21338,0.96051,1.13692,0.05557,0.53755,0.92397,0.23501,0.54916,0.98305,-0.07657,0.38102,1.46289,0.26645,0.34414,1.44281,-0.17549,0.64349,1.36009,0.38254,0.34915,1.1719,-0.00629,0.62167,1.55924,0.49029,0.486,0.96993
566,0.08786,0.39326,1.53207,0.10107,0.50031,0.07462,0.2492,1.17273,0.76427,0.09916,0.60706,0.48846,0.21684,0.95841,1.12961,0.0551,0.53457,0.92441,0.23501,0.54448,0.98234,-0.07496,0.38041,1.46477,0.2681,0.34363,1.44367,-0.17754,0.64023,1.35884,0.38197,0.3484,1.17181,-0.0089,0.62143,1.55877,0.48781,0.48547,0.96899
567,0.09038,0.39266,1.53401,0.10102,0.49972,0.07494,0.25328,1.14809,0.74335,0.09929,0.60443,0.4893,0.22037,0.95647,1.12104,0.05441,0.53156,0.9251,0.23492,0.53975,0.98141,-0.07316,0.37963,1.46674,0.27008,0.34347,1.4447,-0.17971,0.63648,1.35753,0.38176,0.3479,1.17193,-0.01142,0.62133,1.55807,0.48573,0.48521,0.9683
568,0.09274,0.39183,1.53602,0.10044,0.49889,0.07546,0.25689,1.12208,0.72196,0.09952,0.60188,0.49025,0.22412,0.95479,1.11105,0.05361,0.52848,0.92586,0.23477,0.53511,0.98025,-0.07158,0.37872,1.46878,0.27186,0.34369,1.44573,-0.18215,0.63244,1.3563,0.38173,0.34776,1.17222,-0.01356,0.62164,1.55687,0.4843,0.48524,0.96799
569,0.09458,0.39066,1.53794,0.09979,0.49809,0.07591,0.25985,1.0948,0.70033,0.1001,0.59932,0.49113,0.22822,0.95343,1.09966,0.05276,0.52519,0.92647,0.23453,0.53067,0.9789,-0.07037,0.37785,1.47085,0.2731,0.34401,1.44648,-0.1851,0.62822,1.35511,0.38167,0.34792,1.17246,-0.01568,0.62229,1.55517,0.48338,0.48567,0.96798
570,0.09626,0.38922,1.53955,0.09945,0.49752,0.07613,0.26225,1.06632,0.67895,0.10104,0.59657,0.49188,0.23275,0.95227,1.08708,0.05187,0.52166,0.92688,0.23418,0.52642,0.9775,-0.06941,0.37714,1.47298,0.27386,0.34404,1.44685,-0.1886,0.62382,1.35386,0.38145,0.34805,1.17244,-0.01831,0.62306,1.55328,0.48263,0.48649,0.96817
571,0.0983,0.38782,1.54076,0.09939,0.4972,0.07619,0.26438,1.03677,0.65818,0.10199,0.59364,0.49254,0.23761,0.95105,1.07337,0.05088,0.51807,0.9272,0.23366,0.52223,0.97615,-0.06859,0.37651,1.47507,0.27443,0.34357,1.44693,-0.19242,0.61924,1.35261,0.381,0.3479,1.17213,-0.02162,0.62388,1.55154,0.48171,0.48755,0.96845
572,0.10081,0.38675,1.54173,0.09948,0.49706,0.07619,0.2663,1.00635,0.63794,0.10245,0.59089,0.49314,0.24255,0.94959,1.05826,0.04968,0.51456,0.92747,0.2329,0.51797,0.97479,-0.06781,0.37578,1.47693,0.27511,0.34269,1.44688,-0.19622,0.61458,1.35149,0.38041,0.34754,1.1716,-0.0252,0.62478,1.55003,0.48063,0.48862,0.96866
573,0.10352,0.38605,1.54268,0.09965,0.49702,0.07621,0.26786,0.97531,0.61805,0.10209,0.58869,0.49364,0.24744,0.94789,1.04146,0.04835,0.51133,0.92766,0.23198,0.51373,0.97342,-0.0669,0.37495,1.47848,0.27604,0.34161,1.44684,-0.19977,0.60995,1.35054,0.37978,0.3473,1.17098,-0.02862,0.62575,1.54859,0.47964,0.48961,0.96872
574,0.10615,0.38545,1.5437,0.09979,0.49711,0.07625,0.26916,0.9438,0.59858,0.10105,0.58701,0.49407,0.25229,0.94602,1.02303,0.04703,0.50859,0.92788,0.23103,0.50976,0.97219,-0.0658,0.37419,1.47979,0.27714,0.34055,1.44689,-0.20322,0.60533,1.34964,0.37901,0.34737,1.17036,-0.03188,0.6266,1.54701,0.47879,0.4906,0.96872
575,0.10856,0.38463,1.5447,0.09992,0.49729,0.07634,0.27052,0.91185,0.5799,0.0999,0.58541,0.49455,0.25701,0.94385,1.00327,0.04581,0.50636,0.92823,0.23015,0.50613,0.97115,-0.06471,0.37366,1.48099,0.27822,0.33978,1.44706,-0.20692,0.60061,1.34863,0.37792,0.34763,1.16976,-0.03532,0.62707,1.54515,0.4778,0.49171,0.96878
576,0.11078,0.38339,1.54568,0.10015,0.49742,0.07649,0.27204,0.87958,0.56224,0.09921,0.58363,0.49509,0.26149,0.94105,0.98243,0.04468,0.50435,0.92867,0.22933,0.50268,0.97019,-0.06389,0.37336,1.48222,0.27929,0.3396,1.44721,-0.21096,0.59577,1.34749,0.37659,0.34786,1.16908,-0.03903,0.62698,1.54301,0.47642,0.4931,0.9689
577,0.11292,0.38182,1.5467,0.1005,0.49751,0.07669,0.27351,0.84719,0.54557,0.09894,0.58179,0.49567,0.26595,0.93724,0.96065,0.04356,0.5021,0.92908,0.22852,0.49919,0.9691,-0.06331,0.37321,1.48359,0.28043,0.33985,1.44721,-0.21512,0.59083,1.34633,0.37535,0.34791,1.16825,-0.04285,0.62656,1.54078,0.47475,0.49481,0.96908
578,0.11498,0.38024,1.54776,0.10084,0.49774,0.07693,0.27458,0.81501,0.52971,0.09867,0.58004,0.49631,0.27083,0.9321,0.93804,0.04237,0.49954,0.92944,0.22767,0.49552,0.96781,-0.06266,0.37316,1.48513,0.28154,0.33986,1.44701,-0.21928,0.58568,1.34531,0.37446,0.3478,1.16737,-0.04675,0.62633,1.53855,0.47315,0.49673,0.96936
579,0.11686,0.37884,1.54874,0.10094,0.49815,0.07719,0.27482,0.78332,0.51442,0.09822,0.57822,0.497,0.27642,0.92547,0.91472,0.0412,0.49695,0.92989,0.22682,0.49163,0.96643,-0.06181,0.37307,1.48663,0.28233,0.33905,1.44663,-0.22349,0.58014,1.3444,0.37396,0.3478,1.16659,-0.05082,0.62654,1.53623,0.47186,0.49876,0.96972
580,0.11864,0.37765,1.54958,0.10077,0.49856,0.07737,0.27404,0.75207,0.49946,0.09769,0.57624,0.49762,0.2826,0.91735,0.89069,0.04025,0.49461,0.93039,0.22615,0.48768,0.96525,-0.06085,0.37281,1.48776,0.28283,0.33742,1.44604,-0.22765,0.57433,1.3435,0.37373,0.34826,1.16584,-0.05511,0.6269,1.53384,0.47086,0.50108,0.97003
581,0.12053,0.37668,1.55028,0.10045,0.49889,0.07741,0.27255,0.72096,0.48479,0.09699,0.57442,0.49805,0.28883,0.90775,0.86597,0.03967,0.49251,0.93079,0.22573,0.48384,0.96433,-0.05975,0.37255,1.4885,0.28346,0.33553,1.44528,-0.23153,0.56868,1.34265,0.37358,0.34918,1.16495,-0.0593,0.62701,1.5316,0.46997,0.50383,0.97022
582,0.12256,0.37594,1.55085,0.1002,0.49933,0.0774,0.27107,0.68983,0.47054,0.09587,0.57318,0.49833,0.29459,0.89662,0.84086,0.03929,0.49061,0.93104,0.22545,0.48007,0.96355,-0.05827,0.3727,1.48916,0.28453,0.33404,1.44451,-0.23494,0.56349,1.34208,0.37324,0.35018,1.16387,-0.06308,0.62691,1.52972,0.46897,0.5069,0.97046
583,0.12458,0.37539,1.55122,0.10015,0.50002,0.07752,0.27017,0.65882,0.45682,0.09451,0.57251,0.49868,0.29968,0.8839,0.81587,0.03887,0.48901,0.93133,0.22505,0.47626,0.96288,-0.05634,0.37331,1.49002,0.28587,0.33319,1.44393,-0.23793,0.55858,1.34188,0.37254,0.35101,1.16274,-0.06647,0.62687,1.52817,0.46772,0.51,0.97093
584,0.12654,0.37488,1.55136,0.10018,0.50073,0.07789,0.26979,0.62821,0.44359,0.09334,0.57208,0.49922,0.30416,0.86969,0.79138,0.03823,0.48784,0.93179,0.22438,0.47249,0.96233,-0.05432,0.3739,1.49096,0.28712,0.33265,1.44353,-0.24068,0.55358,1.34186,0.37149,0.35169,1.16173,-0.0698,0.62697,1.52673,0.46619,0.51291,0.97154
585,0.12848,0.37422,1.5513,0.10012,0.50114,0.07843,0.26942,0.5982,0.43075,0.09262,0.57176,0.49988,0.30807,0.85431,0.76745,0.03744,0.48697,0.93233,0.22356,0.46894,0.96162,-0.05258,0.37391,1.49175,0.28812,0.33188,1.44311,-0.24332,0.54826,1.34186,0.37034,0.3524,1.16078,-0.0732,0.62707,1.5252,0.4645,0.51567,0.97208
586,0.13044,0.37327,1.55119,0.09985,0.50131,0.07895,0.26871,0.56893,0.41814,0.09227,0.57169,0.50043,0.3114,0.83809,0.74399,0.03676,0.48615,0.9327,0.22287,0.46563,0.9603,-0.05109,0.37334,1.49233,0.28907,0.33082,1.44247,-0.24594,0.54257,1.34185,0.36936,0.35323,1.15972,-0.07665,0.62676,1.52356,0.46298,0.51849,0.9725
587,0.1323,0.37211,1.55116,0.09941,0.50157,0.07927,0.26757,0.54054,0.4055,0.09202,0.5721,0.50073,0.31427,0.82102,0.72111,0.03648,0.48535,0.93275,0.22258,0.46236,0.95842,-0.04969,0.37263,1.4928,0.29023,0.32996,1.4416,-0.24861,0.53652,1.34174,0.3687,0.35406,1.15848,-0.08022,0.62566,1.52193,0.46184,0.52155,0.97301
588,0.13381,0.37097,1.55121,0.09891,0.50191,0.07944,0.266,0.51316,0.3927,0.09168,0.57294,0.50082,0.31692,0.80279,0.69925,0.0368,0.48463,0.93261,0.22276,0.45898,0.9567,-0.04849,0.37215,1.49316,0.29172,0.32968,1.44074,-0.25134,0.53041,1.34133,0.36823,0.35468,1.15717,-0.08408,0.62366,1.52048,0.46085,0.52477,0.97381
589,0.1349,0.37007,1.5512,0.09845,0.50186,0.0796,0.26398,0.48678,0.37991,0.09118,0.57389,0.50081,0.31936,0.78327,0.67904,0.03767,0.48408,0.93246,0.22328,0.45542,0.95588,-0.04765,0.37198,1.49338,0.29341,0.32973,1.44014,-0.25394,0.5248,1.34062,0.36767,0.35502,1.156,-0.08797,0.62116,1.51932,0.45951,0.52785,0.97481
590,0.13585,0.36944,1.55108,0.09817,0.50116,0.07979,0.26148,0.46136,0.36731,0.0907,0.57459,0.50075,0.32123,0.76285,0.66054,0.03879,0.48359,0.93235,0.22391,0.45192,0.95585,-0.04711,0.37192,1.49342,0.29499,0.32957,1.43975,-0.25605,0.52034,1.33993,0.36688,0.35517,1.15503,-0.09123,0.61897,1.51846,0.45764,0.5306,0.97581
591,0.13708,0.36883,1.55092,0.09809,0.50041,0.0799,0.25871,0.43663,0.35476,0.0904,0.57476,0.5007,0.32235,0.74212,0.64299,0.03966,0.48299,0.93227,0.22436,0.44894,0.95571,-0.04657,0.37164,1.49338,0.29606,0.32899,1.43932,-0.25746,0.51698,1.33959,0.36597,0.3552,1.15415,-0.09349,0.61779,1.51769,0.45533,0.53313,0.97671
592,0.13865,0.36792,1.55083,0.09805,0.50039,0.07997,0.2561,0.41205,0.34199,0.09033,0.57441,0.50082,0.323,0.72123,0.62551,0.03985,0.48223,0.93234,0.22443,0.44686,0.95469,-0.04587,0.37097,1.49343,0.29645,0.3281,1.43868,-0.25835,0.51385,1.33954,0.36502,0.35515,1.15327,-0.09517,0.61754,1.5167,0.45284,0.53567,0.97768
593,0.14032,0.36664,1.55092,0.09784,0.50117,0.0802,0.25383,0.38741,0.32903,0.09044,0.57375,0.50131,0.32351,0.69982,0.60831,0.03939,0.48142,0.93273,0.2241,0.44542,0.95291,-0.04505,0.36997,1.49366,0.29642,0.32707,1.43789,-0.25915,0.51006,1.33945,0.36411,0.3551,1.15237,-0.09703,0.61731,1.51546,0.45048,0.5384,0.97896
594,0.14173,0.36517,1.55119,0.09756,0.50218,0.0807,0.25151,0.36325,0.31597,0.09066,0.57299,0.50212,0.32384,0.67762,0.59236,0.03866,0.48055,0.93341,0.22349,0.4438,0.95099,-0.04419,0.3689,1.49405,0.29651,0.326,1.43713,-0.26003,0.50553,1.33914,0.36334,0.35517,1.15152,-0.09928,0.61611,1.51435,0.44851,0.5413,0.98055
595,0.14276,0.36376,1.55155,0.09757,0.50295,0.08125,0.24867,0.34025,0.30279,0.09099,0.57216,0.50294,0.32386,0.65472,0.57829,0.03806,0.47948,0.93406,0.22284,0.44143,0.94931,-0.04312,0.36806,1.49447,0.29707,0.32507,1.43654,-0.26079,0.50078,1.33873,0.36284,0.35537,1.1508,-0.10138,0.61381,1.51359,0.44697,0.54421,0.98229
596,0.14373,0.36257,1.55175,0.09797,0.50329,0.0815,0.24527,0.31846,0.28938,0.0915,0.57111,0.50342,0.32354,0.63128,0.5659,0.03784,0.47815,0.93439,0.22237,0.43827,0.94783,-0.04157,0.36743,1.49481,0.29809,0.32439,1.43623,-0.26109,0.49617,1.33834,0.3625,0.35563,1.15028,-0.10268,0.6111,1.51287,0.44569,0.54694,0.98411
597,0.14514,0.36168,1.55163,0.09846,0.5032,0.08133,0.24168,0.2974,0.27586,0.09229,0.56971,0.50346,0.32299,0.60731,0.55477,0.03811,0.4767,0.93435,0.22222,0.43454,0.94637,-0.03956,0.36666,1.49496,0.29942,0.32388,1.43619,-0.26075,0.49179,1.3379,0.36212,0.35578,1.14993,-0.10304,0.60875,1.51172,0.44446,0.54942,0.98606
598,0.14713,0.36095,1.55134,0.09865,0.50279,0.08094,0.23832,0.277,0.26247,0.09337,0.56804,0.50328,0.32226,0.58305,0.54485,0.03882,0.47523,0.93417,0.22236,0.43032,0.94491,-0.03761,0.36553,1.49501,0.30086,0.3232,1.43622,-0.25994,0.4877,1.33725,0.36161,0.35574,1.14961,-0.10286,0.60692,1.5101,0.44315,0.55172,0.98814
599,0.14928,0.36007,1.55114,0.09845,0.5022,0.08073,0.23536,0.25783,0.24945,0.09459,0.5665,0.50323,0.32123,0.55907,0.53639,0.03978,0.47375,0.9341,0.22259,0.42569,0.94361,-0.03618,0.3643,1.49522,0.30227,0.32198,1.43612,-0.25902,0.48399,1.33628,0.36105,0.35561,1.14923,-0.1026,0.60525,1.50831,0.44164,0.55402,0.99026
600,0.15109,0.35884,1.55113,0.09814,0.50165,0.08095,0.23257,0.24058,0.23681,0.09576,0.56536,0.50355,0.31956,0.53592,0.52948,0.04073,0.47231,0.93433,0.22268,0.42089,0.94268,-0.03524,0.36354,1.49581,0.3035,0.32017,1.4359,-0.25819,0.48057,1.33505,0.36045,0.35555,1.14885,-0.10244,0.60332,1.50662,0.43987,0.55638,0.99236
601,0.15243,0.35738,1.55123,0.09804,0.50152,0.08142,0.22962,0.22538,0.2245,0.09674,0.56438,0.50415,0.3171,0.51374,0.52391,0.04153,0.47094,0.93482,0.22254,0.41611,0.9421,-0.03424,0.36353,1.49674,0.30441,0.31799,1.43577,-0.25736,0.47713,1.33377,0.3598,0.3554,1.14867,-0.10218,0.60098,1.50507,0.43791,0.55857,0.99456
602,0.15355,0.35584,1.55147,0.09829,0.50175,0.08172,0.22655,0.21175,0.21252,0.09756,0.56302,0.50469,0.31407,0.49228,0.51926,0.04223,0.46965,0.93536,0.2222,0.41139,0.9416,-0.03275,0.36401,1.4978,0.30501,0.31565,1.43586,-0.25634,0.47349,1.33267,0.35915,0.35478,1.14875,-0.10156,0.59839,1.50358,0.43593,0.5603,0.99711
603,0.15486,0.35425,1.55194,0.09878,0.50183,0.08166,0.22355,0.19904,0.20094,0.09848,0.56119,0.5049,0.31064,0.47126,0.51521,0.04303,0.46836,0.93567,0.22191,0.40675,0.94103,-0.03083,0.36439,1.49874,0.30566,0.31312,1.4361,-0.25502,0.46973,1.33175,0.35866,0.35343,1.14894,-0.1005,0.59585,1.50199,0.43404,0.56156,1.00017
604,0.15658,0.35252,1.55258,0.09936,0.50143,0.08137,0.22076,0.18698,0.18981,0.09975,0.55921,0.50483,0.30659,0.45049,0.51175,0.04417,0.46687,0.93569,0.22198,0.40222,0.94055,-0.02896,0.36419,1.49957,0.30678,0.31046,1.43642,-0.25339,0.46598,1.3307,0.35845,0.35139,1.14911,-0.0992,0.59347,1.50022,0.43229,0.56249,1.0038
605,0.15859,0.35059,1.55323,0.10002,0.50092,0.08109,0.218,0.17583,0.17932,0.10142,0.55732,0.50474,0.30171,0.43008,0.50917,0.0457,0.46497,0.93558,0.22248,0.39754,0.94047,-0.02748,0.36336,1.50049,0.30843,0.30786,1.43682,-0.25145,0.46217,1.32926,0.35852,0.34888,1.14924,-0.09791,0.59118,1.49822,0.43068,0.56322,1.00788
606,0.16051,0.3485,1.55388,0.1007,0.50086,0.08099,0.21494,0.16601,0.16981,0.10324,0.55548,0.50486,0.29621,0.41049,0.50756,0.04739,0.46262,0.93557,0.22305,0.39235,0.94077,-0.02625,0.3623,1.50162,0.31023,0.30533,1.4372,-0.24923,0.45824,1.32749,0.35878,0.34615,1.14933,-0.09667,0.58896,1.49602,0.42911,0.56377,1.01211
607,0.16215,0.34633,1.5546,0.10121,0.50141,0.08109,0.21138,0.15749,0.16164,0.10489,0.55348,0.50527,0.29071,0.39225,0.50667,0.04886,0.45991,0.93581,0.22322,0.38648,0.94114,-0.02487,0.36161,1.50286,0.31186,0.30249,1.43744,-0.2468,0.45426,1.32563,0.35909,0.34341,1.14936,-0.09526,0.58678,1.49367,0.42749,0.56413,1.0162
608,0.16369,0.34423,1.55539,0.10145,0.50209,0.08136,0.20747,0.14994,0.15487,0.10621,0.55107,0.5059,0.28572,0.37551,0.50622,0.04995,0.45693,0.93628,0.22283,0.38009,0.9414,-0.0231,0.36155,1.50412,0.31321,0.29903,1.43753,-0.24411,0.45027,1.32376,0.35938,0.34064,1.14938,-0.0935,0.58453,1.49126,0.4257,0.5643,1.02013
609,0.16542,0.34226,1.5561,0.10148,0.50232,0.0817,0.20362,0.14303,0.14932,0.10725,0.54809,0.50658,0.28131,0.36009,0.50611,0.05087,0.4537,0.93689,0.22224,0.37351,0.94164,-0.02099,0.36193,1.50542,0.31432,0.29509,1.43766,-0.24099,0.44633,1.32178,0.35966,0.33766,1.14952,-0.09136,0.58222,1.48885,0.42372,0.56419,1.02416
610,0.16741,0.34027,1.5567,0.10146,0.50195,0.08205,0.20007,0.13674,0.14462,0.1082,0.54467,0.50724,0.27724,0.34582,0.50626,0.05192,0.45019,0.93754,0.22189,0.36706,0.94197,-0.01879,0.3623,1.50667,0.31529,0.29104,1.43805,-0.23736,0.44269,1.31957,0.35985,0.33427,1.14989,-0.08885,0.58015,1.48635,0.42161,0.56365,1.02865
611,0.16955,0.33807,1.55728,0.10151,0.50124,0.08248,0.19667,0.13127,0.14035,0.10926,0.5411,0.50793,0.27323,0.33256,0.50651,0.05318,0.44642,0.93822,0.22196,0.36088,0.94231,-0.01667,0.3623,1.50778,0.3164,0.28709,1.43869,-0.23331,0.43957,1.31714,0.35982,0.33026,1.15034,-0.08598,0.57863,1.48364,0.41949,0.56261,1.03378
612,0.17167,0.33572,1.55783,0.10156,0.50047,0.08304,0.19321,0.12668,0.13622,0.11046,0.53766,0.50871,0.26907,0.32014,0.50672,0.05458,0.44247,0.93891,0.22234,0.35491,0.94256,-0.01468,0.36177,1.50877,0.31782,0.28307,1.43934,-0.2289,0.43696,1.3146,0.3596,0.32559,1.15065,-0.08261,0.57758,1.48071,0.41731,0.56105,1.03949
613,0.17366,0.33339,1.55824,0.10157,0.49984,0.0837,0.18966,0.1227,0.13226,0.11174,0.53465,0.50954,0.26465,0.3084,0.50688,0.056,0.43843,0.93953,0.22279,0.34903,0.94272,-0.01274,0.36088,1.50977,0.31937,0.27875,1.43976,-0.22421,0.43458,1.31204,0.35936,0.32046,1.1507,-0.07852,0.5765,1.47756,0.41502,0.5591,1.0454
614,0.17548,0.33112,1.5585,0.10159,0.49947,0.08437,0.18608,0.11898,0.12867,0.11307,0.53218,0.51034,0.26004,0.29727,0.50708,0.05736,0.4344,0.93998,0.2232,0.34323,0.94284,-0.01081,0.3601,1.51087,0.32069,0.27418,1.43999,-0.21936,0.43207,1.30945,0.35928,0.31516,1.15063,-0.07393,0.57508,1.47426,0.41286,0.55674,1.05114
615,0.17713,0.32881,1.55873,0.10162,0.49928,0.08495,0.1825,0.11557,0.12548,0.11443,0.53002,0.51104,0.25551,0.28689,0.50728,0.05869,0.43051,0.94027,0.22357,0.33761,0.9429,-0.00883,0.35966,1.51196,0.32165,0.26964,1.44035,-0.21443,0.42922,1.3067,0.35936,0.30966,1.15075,-0.06956,0.57349,1.47091,0.41107,0.5538,1.05667
616,0.17874,0.32646,1.55897,0.10164,0.49904,0.08532,0.17906,0.11283,0.12245,0.11579,0.52769,0.51151,0.25137,0.2774,0.50734,0.06001,0.4267,0.94039,0.22393,0.33212,0.94278,-0.00674,0.35936,1.51283,0.32258,0.26526,1.44107,-0.20931,0.42612,1.30365,0.35944,0.30379,1.15116,-0.06582,0.57212,1.46754,0.40951,0.55018,1.06219
617,0.1805,0.32402,1.5592,0.10161,0.49861,0.08543,0.17611,0.11094,0.11937,0.11699,0.52478,0.51174,0.24777,0.26876,0.5072,0.06139,0.42278,0.94041,0.22435,0.32654,0.94248,-0.00449,0.35883,1.51321,0.32398,0.26082,1.44202,-0.20384,0.42316,1.30021,0.3594,0.29758,1.1517,-0.06229,0.57115,1.464,0.40785,0.54605,1.06777
618,0.18242,0.32142,1.5594,0.10166,0.49812,0.08546,0.1739,0.10973,0.11633,0.11784,0.52122,0.51192,0.2447,0.2607,0.50703,0.063,0.41866,0.94055,0.22494,0.32072,0.94219,-0.0021,0.35802,1.5131,0.32594,0.25599,1.44291,-0.19809,0.42069,1.29652,0.35923,0.29124,1.15215,-0.05832,0.57048,1.46019,0.40606,0.54168,1.07328
619,0.18429,0.31866,1.55952,0.10198,0.49775,0.08557,0.17219,0.10899,0.11351,0.11826,0.51726,0.5122,0.242,0.25303,0.50699,0.06465,0.41453,0.94095,0.22536,0.31458,0.94207,0.00032,0.35718,1.51277,0.32768,0.25063,1.44349,-0.19233,0.41868,1.29288,0.35916,0.28488,1.1524,-0.05371,0.57009,1.45605,0.40435,0.53716,1.07863
620,0.18592,0.316,1.55939,0.10256,0.49749,0.08571,0.17048,0.10853,0.11093,0.11832,0.51317,0.51251,0.23933,0.2459,0.50696,0.06551,0.41058,0.9414,0.22451,0.30792,0.94204,0.00258,0.35658,1.51262,0.32787,0.24479,1.44365,-0.18675,0.41668,1.28949,0.35946,0.2785,1.15252,-0.04881,0.56989,1.45156,0.40282,0.53251,1.08374
621,0.18717,0.31353,1.55893,0.10313,0.49713,0.08581,0.16861,0.10808,0.1085,0.11827,0.50907,0.51276,0.23646,0.23957,0.50669,0.06482,0.40675,0.94163,0.22149,0.30057,0.9419,0.0045,0.35619,1.51268,0.326,0.23872,1.44348,-0.18141,0.41421,1.28615,0.36006,0.2721,1.15258,-0.04415,0.56956,1.44674,0.40137,0.52771,1.08863
622,0.18804,0.31102,1.55826,0.10343,0.49651,0.08589,0.16685,0.10728,0.10617,0.11837,0.5051,0.51292,0.23354,0.23416,0.50605,0.06295,0.40285,0.94156,0.21701,0.29291,0.94151,0.00613,0.35567,1.51257,0.32315,0.23274,1.44323,-0.1763,0.41118,1.2826,0.36052,0.26556,1.15268,-0.04007,0.56886,1.4418,0.40008,0.52258,1.09346
623,0.18868,0.30818,1.55761,0.1035,0.49574,0.08593,0.16552,0.10606,0.10389,0.11871,0.50156,0.513,0.23097,0.22953,0.50504,0.0613,0.39876,0.94125,0.21312,0.28576,0.94079,0.00781,0.3547,1.5119,0.32109,0.22707,1.44315,-0.1713,0.4081,1.27885,0.36062,0.25868,1.15275,-0.03634,0.56791,1.437,0.3992,0.51692,1.0984
624,0.18934,0.3051,1.55707,0.1035,0.49505,0.08593,0.16462,0.10458,0.10163,0.11921,0.49859,0.51301,0.22901,0.22531,0.50378,0.06087,0.3945,0.94081,0.21124,0.27958,0.93978,0.00986,0.35326,1.51066,0.32054,0.22162,1.44325,-0.16629,0.40555,1.27511,0.36063,0.25151,1.15274,-0.03231,0.56709,1.43234,0.39891,0.51078,1.10327
625,0.19014,0.30203,1.55662,0.10353,0.49459,0.08588,0.16394,0.10307,0.09944,0.11975,0.49598,0.51295,0.22749,0.22108,0.50254,0.06158,0.39018,0.94036,0.21107,0.27412,0.93874,0.01218,0.35155,1.50912,0.32086,0.21621,1.44336,-0.16124,0.40377,1.27155,0.36091,0.24426,1.15267,-0.02741,0.5666,1.42756,0.39908,0.50436,1.10772
626,0.19104,0.29902,1.55627,0.1036,0.49437,0.08585,0.1634,0.10165,0.09744,0.12032,0.49345,0.5129,0.2261,0.21669,0.50152,0.0628,0.38601,0.93999,0.21151,0.26895,0.93788,0.01453,0.34993,1.50758,0.32111,0.2108,1.44346,-0.15624,0.40257,1.26818,0.36149,0.23694,1.15264,-0.02161,0.56636,1.42248,0.39932,0.49773,1.11159
627,0.19202,0.29592,1.55598,0.10371,0.49432,0.08591,0.16304,0.10036,0.09564,0.12094,0.49097,0.51293,0.2248,0.21232,0.50074,0.06409,0.38209,0.93974,0.2119,0.2639,0.93723,0.01679,0.34873,1.50626,0.32093,0.20545,1.44368,-0.1512,0.40152,1.26493,0.36211,0.22928,1.15277,-0.01518,0.5661,1.41717,0.39927,0.49068,1.11504
628,0.1933,0.2927,1.55555,0.10391,0.49425,0.08596,0.16286,0.0991,0.09407,0.12149,0.4886,0.51294,0.22365,0.20816,0.5001,0.06539,0.37821,0.93947,0.2123,0.25892,0.93673,0.01898,0.34804,1.50535,0.32053,0.20008,1.44406,-0.1458,0.40022,1.26168,0.36271,0.22112,1.15308,-0.00846,0.56556,1.41189,0.39884,0.48306,1.11828
629,0.19503,0.28951,1.55486,0.10408,0.49403,0.08581,0.16261,0.09785,0.09265,0.12183,0.48629,0.51275,0.22259,0.20416,0.49953,0.06674,0.37408,0.93893,0.21295,0.25393,0.93632,0.02103,0.34764,1.50483,0.32016,0.19457,1.44446,-0.13986,0.39846,1.2583,0.36327,0.21272,1.15342,-0.00166,0.56465,1.40677,0.39817,0.47517,1.12132
630,0.19699,0.28642,1.55405,0.10406,0.49371,0.08543,0.16192,0.09665,0.0913,0.12199,0.48396,0.51233,0.22143,0.20017,0.49896,0.06802,0.36972,0.93811,0.21368,0.2489,0.93591,0.02284,0.34721,1.50433,0.31992,0.18882,1.44473,-0.13379,0.39625,1.25472,0.36365,0.20459,1.15364,0.00498,0.56321,1.40179,0.39752,0.46748,1.12409
631,0.19873,0.28328,1.55348,0.10391,0.4934,0.08501,0.1607,0.09559,0.08995,0.12217,0.48162,0.51184,0.22007,0.19619,0.49837,0.06904,0.36542,0.93719,0.21408,0.24383,0.93546,0.0244,0.34641,1.50342,0.31982,0.18285,1.44489,-0.12832,0.39381,1.25107,0.36375,0.19689,1.15374,0.01121,0.56127,1.39687,0.39729,0.46008,1.12665
632,0.20001,0.28004,1.55325,0.10388,0.49317,0.08467,0.15924,0.09487,0.08869,0.12244,0.47933,0.51143,0.2186,0.19234,0.49787,0.06982,0.3614,0.93637,0.21402,0.23882,0.9351,0.02582,0.34499,1.502,0.31976,0.17681,1.44505,-0.12378,0.39153,1.24764,0.36375,0.18921,1.15383,0.01704,0.55921,1.39193,0.39785,0.45257,1.12917
633,0.20088,0.27681,1.55322,0.10404,0.49298,0.08442,0.15799,0.09453,0.08758,0.12273,0.47709,0.5111,0.21705,0.18878,0.49756,0.07059,0.35769,0.93569,0.21383,0.23398,0.93494,0.02723,0.34301,1.50046,0.31968,0.1711,1.4452,-0.11984,0.38961,1.24464,0.36398,0.18111,1.15395,0.02283,0.55743,1.38693,0.39923,0.44455,1.13173
634,0.20156,0.2736,1.55315,0.10418,0.49277,0.08417,0.15717,0.09437,0.08659,0.1229,0.47489,0.51077,0.21538,0.18554,0.49739,0.07152,0.35408,0.93506,0.21386,0.22934,0.93492,0.02866,0.34091,1.49919,0.31967,0.16621,1.44533,-0.11603,0.3879,1.24209,0.36454,0.17268,1.15406,0.02891,0.5558,1.38197,0.40083,0.43615,1.13413
635,0.20217,0.27036,1.55291,0.10415,0.49254,0.08393,0.15668,0.09397,0.08573,0.12287,0.47263,0.51044,0.21361,0.18251,0.49727,0.07252,0.35029,0.93442,0.21422,0.22483,0.93496,0.03007,0.33898,1.49824,0.31985,0.16227,1.44549,-0.11231,0.38609,1.23987,0.36514,0.16429,1.15422,0.03508,0.55389,1.37729,0.40182,0.42784,1.13609
636,0.20265,0.26717,1.55255,0.10412,0.49231,0.08378,0.15635,0.09321,0.08503,0.12268,0.47029,0.51019,0.21186,0.17951,0.49724,0.0734,0.34615,0.93377,0.21484,0.22039,0.93505,0.03141,0.33706,1.49738,0.32015,0.1587,1.44576,-0.10887,0.38409,1.23785,0.36545,0.15619,1.15449,0.04088,0.55157,1.37309,0.40197,0.41983,1.13746
637,0.20296,0.26409,1.55224,0.10432,0.49212,0.08377,0.15614,0.09238,0.08446,0.12247,0.46796,0.51009,0.21025,0.17636,0.49734,0.07416,0.34187,0.93319,0.21555,0.21607,0.93523,0.03277,0.33503,1.49645,0.32029,0.15469,1.44608,-0.10587,0.38201,1.23603,0.36533,0.14835,1.15483,0.0462,0.549,1.36927,0.40175,0.41204,1.13831
638,0.20332,0.26106,1.55212,0.10476,0.492,0.08385,0.15606,0.09179,0.08395,0.12235,0.46576,0.51007,0.20885,0.17302,0.49754,0.0749,0.33781,0.93271,0.21617,0.21189,0.93548,0.03431,0.33313,1.49553,0.32013,0.15004,1.44633,-0.10326,0.38006,1.23454,0.36495,0.14071,1.15513,0.05142,0.54643,1.36554,0.4016,0.40438,1.13874
639,0.20395,0.25801,1.55214,0.10527,0.49194,0.08392,0.15604,0.09138,0.08344,0.12234,0.46369,0.51003,0.20773,0.1697,0.49774,0.07567,0.33411,0.93226,0.21663,0.20785,0.93571,0.03603,0.33161,1.4948,0.31985,0.14528,1.44651,-0.10094,0.37843,1.23347,0.36462,0.13316,1.15541,0.05684,0.54404,1.3617,0.40151,0.39678,1.13881
640,0.20476,0.2551,1.5521,0.10564,0.49187,0.08394,0.15605,0.09092,0.08295,0.12239,0.46161,0.50993,0.20683,0.16656,0.49786,0.0765,0.33062,0.93181,0.21711,0.20399,0.93586,0.03768,0.33022,1.49437,0.31966,0.14107,1.44676,-0.09877,0.3771,1.23278,0.36444,0.12557,1.15582,0.06227,0.54202,1.35779,0.40149,0.38912,1.13851
641,0.20534,0.2526,1.55194,0.10579,0.49177,0.08399,0.15612,0.09037,0.08253,0.12248,0.45937,0.50982,0.20603,0.16359,0.49798,0.07743,0.32724,0.93144,0.2178,0.20036,0.936,0.039,0.32847,1.49428,0.31948,0.13761,1.44711,-0.09666,0.37578,1.23235,0.36438,0.11794,1.15644,0.06741,0.54033,1.35388,0.40177,0.38136,1.13793
642,0.20544,0.25045,1.55174,0.10575,0.49168,0.0841,0.15632,0.08982,0.08219,0.12261,0.45688,0.50974,0.20527,0.16063,0.49817,0.07851,0.32395,0.93121,0.21869,0.19688,0.93619,0.03985,0.3263,1.49443,0.31913,0.13458,1.44742,-0.09456,0.37425,1.23198,0.36425,0.11039,1.15712,0.07224,0.53855,1.35007,0.40254,0.37359,1.13735
643,0.20514,0.24829,1.55164,0.10554,0.49155,0.08425,0.15656,0.08934,0.08191,0.1227,0.45416,0.50964,0.20456,0.15748,0.49845,0.0797,0.32069,0.93106,0.21966,0.19339,0.93644,0.0402,0.32403,1.49469,0.31863,0.13147,1.44758,-0.09256,0.37241,1.23148,0.3638,0.10299,1.15768,0.07679,0.53628,1.34651,0.40376,0.36587,1.13699
644,0.20465,0.24581,1.55169,0.10525,0.49127,0.08437,0.15653,0.08891,0.08167,0.12261,0.45131,0.50953,0.2039,0.15404,0.49876,0.08084,0.31736,0.93091,0.22058,0.18984,0.93671,0.04023,0.32187,1.49488,0.31813,0.12809,1.44762,-0.09082,0.37041,1.23085,0.36292,0.09566,1.15807,0.08086,0.53367,1.34327,0.40515,0.35814,1.13676
645,0.20416,0.243,1.5519,0.10505,0.49076,0.08447,0.15611,0.08851,0.08152,0.12235,0.44846,0.5094,0.20323,0.15057,0.49911,0.08179,0.31401,0.93075,0.22139,0.18637,0.93699,0.04023,0.3199,1.49501,0.31768,0.12469,1.44769,-0.08946,0.36853,1.23032,0.36182,0.08837,1.15851,0.08432,0.53125,1.34025,0.40633,0.3504,1.13639
646,0.20382,0.24009,1.55218,0.10503,0.49017,0.08452,0.15559,0.08818,0.08145,0.12208,0.44574,0.50925,0.20259,0.14749,0.49945,0.08261,0.31088,0.93057,0.22208,0.1831,0.93729,0.04049,0.31817,1.49516,0.31715,0.12153,1.44793,-0.08842,0.36689,1.2301,0.36089,0.08121,1.15922,0.08744,0.52915,1.3374,0.4072,0.34282,1.13577
647,0.20377,0.23731,1.55233,0.10511,0.48972,0.08454,0.15539,0.08793,0.08135,0.12184,0.44328,0.50907,0.202,0.14489,0.49972,0.08347,0.30802,0.93035,0.22268,0.17999,0.93755,0.04108,0.3167,1.49536,0.31646,0.11865,1.44836,-0.08759,0.36533,1.23017,0.36033,0.07433,1.16025,0.09053,0.52693,1.33468,0.40791,0.33554,1.13503
648,0.20403,0.23479,1.5522,0.10522,0.48946,0.08459,0.1556,0.08767,0.08109,0.12156,0.44108,0.50892,0.20141,0.14237,0.49985,0.08434,0.30523,0.93012,0.22325,0.1769,0.93767,0.04178,0.31529,1.49551,0.31563,0.11583,1.44886,-0.08694,0.36373,1.2303,0.35998,0.06772,1.16143,0.09355,0.52447,1.33205,0.40862,0.32855,1.13439
649,0.20444,0.23264,1.55182,0.1054,0.48932,0.0847,0.15595,0.08727,0.08064,0.12128,0.43899,0.50882,0.20061,0.13955,0.49983,0.08511,0.30238,0.92987,0.22379,0.17382,0.9376,0.04218,0.31381,1.4956,0.31482,0.11286,1.44927,-0.08647,0.36223,1.23037,0.35946,0.06123,1.16251,0.09629,0.52212,1.32936,0.40952,0.32163,1.1339
650,0.20474,0.23079,1.55138,0.10562,0.48927,0.08476,0.15611,0.08672,0.0801,0.12109,0.43687,0.50864,0.19948,0.13652,0.49973,0.08577,0.29963,0.92955,0.22422,0.17082,0.93742,0.04208,0.31233,1.49572,0.3141,0.10981,1.44948,-0.08622,0.36097,1.23035,0.35848,0.05464,1.16333,0.09879,0.5201,1.32633,0.41086,0.31443,1.13345
651,0.20472,0.2291,1.55103,0.10578,0.48925,0.08462,0.15597,0.08616,0.07968,0.12108,0.43478,0.50825,0.19815,0.13361,0.4997,0.08647,0.29719,0.92911,0.2245,0.16796,0.93729,0.04168,0.31097,1.49581,0.31338,0.10683,1.44944,-0.08625,0.35978,1.23029,0.35696,0.04784,1.16393,0.10124,0.51808,1.32277,0.41255,0.30684,1.13293
652,0.20445,0.22752,1.55075,0.10585,0.48907,0.08431,0.15567,0.08565,0.07946,0.12122,0.43284,0.5077,0.197,0.13098,0.4998,0.08728,0.29508,0.92856,0.22468,0.16521,0.93731,0.04137,0.30973,1.49569,0.31264,0.10395,1.44925,-0.08662,0.3584,1.23018,0.35514,0.04105,1.16441,0.10369,0.51549,1.3189,0.41401,0.29918,1.13229
653,0.2042,0.22609,1.55043,0.10591,0.48865,0.08396,0.15544,0.08515,0.07941,0.12146,0.4311,0.50717,0.19629,0.12849,0.5,0.08813,0.29307,0.92799,0.22479,0.16247,0.93748,0.04122,0.30846,1.49529,0.312,0.10104,1.44898,-0.08726,0.35684,1.22996,0.35349,0.03455,1.16481,0.10598,0.51217,1.31538,0.4147,0.29199,1.1315
654,0.2041,0.2247,1.55009,0.10597,0.4881,0.08367,0.15545,0.0846,0.07941,0.1217,0.42951,0.50672,0.19599,0.12601,0.50024,0.08902,0.29105,0.92746,0.22489,0.15969,0.93771,0.04106,0.30701,1.49477,0.31144,0.09803,1.4486,-0.08799,0.3553,1.2297,0.35229,0.02854,1.16506,0.10801,0.50856,1.31253,0.41462,0.28556,1.13061
655,0.20402,0.22314,1.54983,0.10589,0.4877,0.08343,0.15558,0.08402,0.07939,0.12187,0.42802,0.50633,0.19579,0.12345,0.50044,0.08996,0.28906,0.92695,0.22496,0.15686,0.93791,0.04088,0.30548,1.49436,0.31081,0.09505,1.44807,-0.08858,0.35397,1.22953,0.35135,0.02309,1.1651,0.10986,0.50533,1.31002,0.41429,0.27984,1.12974
656,0.20395,0.22139,1.54963,0.10572,0.48759,0.08328,0.15562,0.08351,0.07928,0.12201,0.42661,0.50597,0.19545,0.12078,0.50056,0.09077,0.28714,0.92648,0.22491,0.15411,0.93802,0.04092,0.30428,1.49412,0.31,0.09225,1.44744,-0.08891,0.35288,1.22949,0.35019,0.01821,1.16496,0.11176,0.50273,1.30723,0.4144,0.27456,1.12896
657,0.20416,0.21956,1.54938,0.10572,0.4876,0.08325,0.15549,0.08307,0.07908,0.12219,0.42518,0.50573,0.19495,0.11803,0.50059,0.09122,0.28528,0.92611,0.22461,0.15155,0.93803,0.0414,0.30352,1.4939,0.30901,0.08964,1.44685,-0.08908,0.35179,1.22952,0.34856,0.01378,1.16476,0.11379,0.50034,1.30396,0.41539,0.26937,1.12819
658,0.20471,0.21773,1.54904,0.10597,0.48745,0.08335,0.1553,0.08263,0.07888,0.12231,0.42362,0.50562,0.19446,0.11537,0.50059,0.09127,0.28341,0.9259,0.22413,0.14917,0.93801,0.04218,0.30288,1.49353,0.30789,0.08719,1.44641,-0.08931,0.35028,1.2295,0.34658,0.00961,1.16467,0.11557,0.49769,1.30063,0.41717,0.26409,1.12739
659,0.20533,0.21598,1.54862,0.10624,0.48703,0.08353,0.15523,0.08209,0.07881,0.12227,0.42199,0.50563,0.19415,0.1129,0.50069,0.09113,0.28147,0.92579,0.22365,0.1469,0.9381,0.0429,0.30203,1.49299,0.30664,0.08487,1.44617,-0.08971,0.34816,1.2293,0.3445,0.00554,1.16481,0.11666,0.4948,1.29767,0.41929,0.25869,1.12672
660,0.20567,0.21455,1.54813,0.10629,0.48652,0.08373,0.15525,0.08149,0.07889,0.12207,0.42052,0.50569,0.194,0.1106,0.50091,0.09093,0.27952,0.9257,0.22312,0.14466,0.93835,0.04332,0.3011,1.49241,0.30517,0.08262,1.44608,-0.09018,0.34563,1.22889,0.34251,0.00156,1.16514,0.11707,0.49203,1.29506,0.42122,0.25341,1.12631
661,0.20566,0.21359,1.54755,0.10611,0.48616,0.08394,0.15527,0.08097,0.079,0.12178,0.41942,0.50579,0.19382,0.10843,0.50115,0.09072,0.2777,0.92556,0.22237,0.14236,0.93863,0.04344,0.30032,1.49182,0.30354,0.08027,1.44599,-0.09054,0.34298,1.22824,0.34066,-0.0022,1.16543,0.11717,0.48962,1.2924,0.4226,0.24854,1.12615
662,0.20544,0.21289,1.54708,0.10582,0.48596,0.08412,0.15526,0.08061,0.079,0.12159,0.41862,0.50587,0.1935,0.10653,0.50128,0.09076,0.27608,0.92538,0.22188,0.14025,0.93879,0.04342,0.29968,1.49123,0.30231,0.0778,1.44584,-0.09072,0.3405,1.22744,0.33884,-0.00567,1.1655,0.11723,0.48772,1.28944,0.42326,0.24423,1.12606
663,0.20516,0.21191,1.54697,0.10552,0.4858,0.08415,0.15524,0.08039,0.07885,0.12162,0.41799,0.50581,0.19319,0.105,0.50123,0.09167,0.2747,0.92512,0.22292,0.13901,0.93862,0.04343,0.29903,1.49074,0.30245,0.0756,1.44573,-0.09069,0.33834,1.2267,0.33691,-0.0089,1.16543,0.11729,0.48653,1.28629,0.42324,0.24035,1.126
664,0.20494,0.21043,1.54726,0.10536,0.48567,0.08394,0.15524,0.08022,0.07861,0.12194,0.41756,0.50553,0.1931,0.10376,0.50106,0.09378,0.27358,0.92474,0.22627,0.13909,0.93811,0.04352,0.29831,1.49052,0.30442,0.07411,1.44572,-0.09037,0.3364,1.22619,0.33493,-0.01195,1.16544,0.11739,0.48585,1.2833,0.42277,0.23678,1.12614
665,0.2048,0.20872,1.54771,0.10544,0.48556,0.08361,0.1553,0.07995,0.07846,0.12243,0.41727,0.50516,0.19322,0.10263,0.50095,0.09652,0.27262,0.92428,0.23083,0.13993,0.93747,0.04361,0.29758,1.49055,0.30718,0.07325,1.44578,-0.0899,0.33443,1.22585,0.33309,-0.01473,1.16564,0.11759,0.48508,1.28078,0.4223,0.23357,1.12664
666,0.20468,0.20722,1.54805,0.10565,0.48549,0.08349,0.1554,0.07955,0.07848,0.12296,0.41687,0.50497,0.19336,0.10157,0.50101,0.09879,0.27168,0.92401,0.23446,0.14036,0.93708,0.0436,0.29686,1.49064,0.309,0.07249,1.44587,-0.08954,0.33246,1.22559,0.33149,-0.0171,1.16594,0.1178,0.48395,1.27873,0.42228,0.23069,1.12736
667,0.20454,0.20612,1.54821,0.10578,0.48551,0.08373,0.15552,0.07912,0.07859,0.12348,0.41615,0.50508,0.19339,0.10054,0.50115,0.10002,0.27079,0.92409,0.23609,0.13987,0.93702,0.04341,0.29617,1.49069,0.30924,0.07147,1.446,-0.08945,0.33064,1.22535,0.33,-0.01904,1.16623,0.11782,0.48277,1.27697,0.4229,0.22804,1.12808
668,0.20429,0.20537,1.54829,0.10573,0.48565,0.08422,0.15555,0.07885,0.07863,0.12393,0.41512,0.50535,0.19331,0.09944,0.50124,0.10027,0.27004,0.92445,0.23594,0.13868,0.93713,0.04307,0.29552,1.49067,0.3085,0.07021,1.44625,-0.0896,0.32896,1.2251,0.32846,-0.02057,1.16651,0.11751,0.48179,1.27525,0.42381,0.22563,1.12878
669,0.20384,0.20486,1.54833,0.10551,0.48583,0.08473,0.15536,0.07886,0.07857,0.12411,0.414,0.50563,0.19314,0.09834,0.50123,0.09967,0.26931,0.92482,0.23432,0.13689,0.93732,0.04273,0.29481,1.49057,0.30738,0.06889,1.44662,-0.08988,0.32721,1.22484,0.32681,-0.02173,1.16679,0.11689,0.48095,1.27358,0.42442,0.22366,1.12954
670,0.2032,0.20439,1.54842,0.10522,0.48586,0.08508,0.15501,0.07902,0.07849,0.12384,0.41305,0.50581,0.19294,0.09752,0.50119,0.09845,0.26849,0.92499,0.23135,0.13434,0.93768,0.04246,0.29392,1.49034,0.30582,0.06765,1.44699,-0.09016,0.32551,1.22452,0.32516,-0.0226,1.16703,0.11622,0.48009,1.27224,0.42456,0.22218,1.13048
671,0.20248,0.20379,1.5486,0.10501,0.48562,0.08521,0.15474,0.0791,0.07856,0.12332,0.41238,0.50588,0.1929,0.09713,0.50125,0.0971,0.26766,0.92495,0.22766,0.13129,0.93826,0.04227,0.29295,1.49008,0.30321,0.0664,1.44724,-0.09026,0.32423,1.22418,0.32362,-0.02334,1.1672,0.11581,0.47932,1.27153,0.42441,0.22101,1.13161
672,0.20176,0.2031,1.54881,0.10494,0.48523,0.08525,0.15471,0.07898,0.07879,0.12282,0.41193,0.50593,0.19307,0.09699,0.50146,0.09601,0.26689,0.92485,0.22419,0.12836,0.93896,0.04214,0.29216,1.48987,0.29899,0.06492,1.44739,-0.09015,0.32345,1.22385,0.32211,-0.02412,1.16734,0.11574,0.47879,1.27125,0.42414,0.21986,1.13278
673,0.20107,0.20252,1.54893,0.10501,0.48489,0.08536,0.15483,0.07873,0.07906,0.12239,0.41151,0.50604,0.1933,0.09681,0.50173,0.09523,0.26618,0.92484,0.2216,0.12605,0.93956,0.04203,0.29175,1.48973,0.29385,0.06319,1.44757,-0.08994,0.32278,1.22352,0.32043,-0.02495,1.16754,0.11577,0.47837,1.27087,0.42381,0.21859,1.13388
674,0.20041,0.20221,1.5489,0.10522,0.48469,0.08552,0.15501,0.07845,0.07927,0.12207,0.41102,0.50617,0.19353,0.09648,0.50193,0.09482,0.2656,0.92493,0.22005,0.12449,0.93996,0.04183,0.29172,1.48961,0.2898,0.06165,1.44782,-0.08975,0.32175,1.2231,0.31856,-0.02569,1.16775,0.11562,0.47786,1.27018,0.42348,0.21731,1.13503
675,0.1999,0.202,1.54881,0.10557,0.48457,0.08558,0.15517,0.07822,0.07939,0.12205,0.41054,0.50619,0.19378,0.09615,0.50205,0.09491,0.26523,0.92499,0.21942,0.12349,0.94017,0.0415,0.29181,1.48943,0.28842,0.06076,1.44807,-0.08963,0.32049,1.22255,0.31669,-0.02623,1.16784,0.11516,0.4774,1.26948,0.42309,0.21631,1.13645
676,0.19954,0.20162,1.54878,0.10596,0.48448,0.08552,0.15531,0.07806,0.07946,0.12239,0.41014,0.50607,0.19404,0.09597,0.5021,0.09538,0.26495,0.92493,0.21939,0.1228,0.94027,0.04119,0.29167,1.48907,0.28911,0.06034,1.44826,-0.08953,0.31974,1.22192,0.31503,-0.02649,1.16775,0.11465,0.47737,1.26911,0.42258,0.21579,1.13837
677,0.19913,0.20108,1.54884,0.10619,0.4844,0.08546,0.15537,0.07801,0.07945,0.12284,0.40976,0.50594,0.19415,0.09593,0.50209,0.09583,0.2646,0.92481,0.21959,0.12224,0.94029,0.04098,0.29128,1.48847,0.28957,0.05964,1.44845,-0.08936,0.32016,1.22122,0.31358,-0.02656,1.16758,0.11455,0.47793,1.26911,0.42193,0.21567,1.14074
678,0.19839,0.20072,1.54893,0.1061,0.48433,0.08548,0.15534,0.07807,0.07936,0.12305,0.40942,0.50591,0.19404,0.09592,0.50201,0.096,0.26416,0.92474,0.21974,0.12179,0.94022,0.04074,0.2911,1.48781,0.28825,0.05831,1.44873,-0.08899,0.32143,1.22043,0.31221,-0.02652,1.16744,0.11497,0.47885,1.26925,0.42116,0.21572,1.14326
679,0.19744,0.20079,1.54897,0.10574,0.48429,0.08555,0.15525,0.07815,0.07926,0.12302,0.40926,0.50594,0.19388,0.0959,0.50192,0.09597,0.26379,0.9247,0.21968,0.12138,0.94015,0.04026,0.29156,1.4873,0.28569,0.05681,1.4491,-0.08832,0.32264,1.21945,0.31074,-0.02636,1.16741,0.11557,0.47981,1.26938,0.42026,0.21584,1.14556
680,0.19663,0.2012,1.54893,0.1053,0.48428,0.08556,0.15517,0.07812,0.07924,0.12301,0.40934,0.50595,0.19393,0.09587,0.50189,0.09596,0.26356,0.9246,0.21942,0.12095,0.94016,0.0395,0.29253,1.48697,0.28346,0.05589,1.44951,-0.08741,0.32361,1.21832,0.3091,-0.02599,1.16749,0.11621,0.48066,1.26971,0.41922,0.21608,1.14741
681,0.19615,0.20157,1.54888,0.10499,0.48428,0.08549,0.15518,0.078,0.07934,0.12317,0.40945,0.50588,0.19427,0.09584,0.50195,0.09599,0.26344,0.92444,0.21909,0.12055,0.94028,0.0386,0.29341,1.48665,0.28228,0.05584,1.44989,-0.08651,0.32505,1.21722,0.30738,-0.02544,1.16766,0.11704,0.48154,1.27054,0.41807,0.21647,1.14881
682,0.19585,0.20163,1.54895,0.10491,0.48425,0.08541,0.15528,0.07793,0.07946,0.12336,0.40938,0.50578,0.19482,0.09578,0.50204,0.09591,0.26338,0.92433,0.21875,0.1203,0.94042,0.03788,0.29385,1.48628,0.28175,0.05632,1.45023,-0.08573,0.32731,1.21637,0.30581,-0.02482,1.16787,0.11812,0.48261,1.27199,0.41698,0.21694,1.14989
683,0.19553,0.20149,1.54916,0.10496,0.48419,0.0854,0.15539,0.07792,0.07955,0.12343,0.40921,0.50575,0.19546,0.09571,0.50207,0.0956,0.2633,0.9243,0.21839,0.12019,0.94051,0.0376,0.29401,1.48599,0.28122,0.05677,1.45049,-0.08486,0.32957,1.21582,0.30451,-0.02421,1.16802,0.11905,0.48388,1.27391,0.41614,0.2174,1.15078
684,0.19518,0.20152,1.54932,0.10495,0.48414,0.08545,0.15543,0.07784,0.07957,0.12339,0.40915,0.5058,0.1961,0.09566,0.50204,0.09521,0.26314,0.92429,0.21803,0.12006,0.94053,0.03761,0.29416,1.48589,0.28053,0.05688,1.45066,-0.08379,0.33077,1.21539,0.30341,-0.02356,1.16799,0.11929,0.48521,1.27602,0.41549,0.2179,1.15163
685,0.19486,0.20189,1.54926,0.10473,0.48416,0.08554,0.15532,0.0776,0.07955,0.1234,0.40936,0.50591,0.19658,0.09566,0.50195,0.095,0.26298,0.92427,0.21776,0.11985,0.9405,0.03753,0.29444,1.48585,0.27984,0.05681,1.45079,-0.08281,0.33102,1.21488,0.30232,-0.02277,1.16785,0.11873,0.48647,1.27799,0.41479,0.21858,1.15255
686,0.19446,0.20245,1.54905,0.10438,0.4843,0.08564,0.15512,0.07741,0.07953,0.12356,0.40978,0.50604,0.19674,0.09571,0.50188,0.09509,0.26293,0.92422,0.21763,0.11961,0.94046,0.0371,0.29493,1.48564,0.27925,0.05696,1.451,-0.08227,0.3316,1.21425,0.30125,-0.02181,1.1678,0.11815,0.48757,1.2796,0.41381,0.21956,1.1536
687,0.19379,0.20301,1.54892,0.10404,0.48454,0.08571,0.15495,0.07752,0.07949,0.12386,0.41034,0.50613,0.1966,0.0958,0.50184,0.09538,0.26308,0.92417,0.21759,0.11947,0.94042,0.03647,0.29565,1.4852,0.27862,0.05749,1.45137,-0.08202,0.33371,1.21361,0.30029,-0.02071,1.16799,0.11864,0.48844,1.28114,0.41252,0.22086,1.15467
688,0.19287,0.20363,1.54895,0.10387,0.48485,0.08568,0.15487,0.07794,0.07941,0.12415,0.41093,0.50613,0.19643,0.09603,0.50178,0.09571,0.26344,0.9241,0.2176,0.11957,0.94036,0.0359,0.29642,1.48471,0.2778,0.05829,1.45184,-0.0815,0.33727,1.21306,0.29955,-0.01953,1.16836,0.12039,0.48914,1.28333,0.41113,0.22238,1.15563
689,0.19188,0.20446,1.54899,0.10391,0.48518,0.08556,0.15487,0.07836,0.07929,0.1244,0.41158,0.50607,0.1965,0.0965,0.50165,0.09595,0.26397,0.92398,0.21767,0.11995,0.94023,0.03554,0.29688,1.48442,0.27684,0.0592,1.4523,-0.08028,0.34106,1.21261,0.29907,-0.01827,1.16875,0.12245,0.49001,1.28663,0.4099,0.224,1.15637
690,0.19093,0.20547,1.54894,0.10416,0.48544,0.0854,0.15493,0.0785,0.07921,0.12471,0.4124,0.50599,0.19681,0.09715,0.50152,0.09606,0.26449,0.92379,0.21787,0.12056,0.94011,0.03529,0.29692,1.48436,0.27586,0.06023,1.45267,-0.07857,0.34417,1.21224,0.29884,-0.01695,1.1691,0.12382,0.49133,1.29065,0.40904,0.22561,1.15684
691,0.18994,0.2064,1.54887,0.10457,0.48548,0.08519,0.15504,0.07835,0.07925,0.12516,0.41341,0.50595,0.19711,0.09781,0.50151,0.09603,0.26486,0.92348,0.21818,0.12125,0.9401,0.03497,0.29687,1.48431,0.27491,0.06136,1.45295,-0.07689,0.34699,1.21187,0.29879,-0.01566,1.16941,0.12468,0.49292,1.29458,0.40862,0.22707,1.15714
692,0.18882,0.20706,1.54898,0.10509,0.48522,0.08494,0.15513,0.07803,0.0794,0.12562,0.41452,0.50594,0.19728,0.09833,0.50161,0.0959,0.26513,0.92313,0.21854,0.12198,0.94018,0.03448,0.29729,1.48399,0.27403,0.06248,1.45319,-0.0755,0.35064,1.2114,0.29882,-0.01442,1.1697,0.12596,0.49439,1.29811,0.4084,0.22842,1.15735
693,0.18773,0.20753,1.54931,0.10557,0.48478,0.08471,0.15511,0.07764,0.07955,0.12591,0.41552,0.50596,0.19748,0.09879,0.5017,0.09576,0.26553,0.92291,0.21884,0.12279,0.94024,0.03383,0.29834,1.48332,0.27341,0.06355,1.45352,-0.07409,0.35583,1.21075,0.29892,-0.01311,1.17003,0.12809,0.49576,1.30189,0.40787,0.23001,1.15747
694,0.18686,0.20806,1.5497,0.10585,0.48442,0.0846,0.15494,0.07729,0.07959,0.12605,0.41632,0.50604,0.1979,0.09936,0.50163,0.09567,0.26615,0.92291,0.21906,0.12367,0.94017,0.03299,0.29972,1.48248,0.27316,0.06467,1.45401,-0.07222,0.36209,1.20993,0.29918,-0.01156,1.17045,0.13038,0.49744,1.30686,0.40672,0.23216,1.15756
695,0.18618,0.20886,1.55002,0.10583,0.48432,0.08464,0.15466,0.07715,0.07949,0.12622,0.41695,0.50618,0.19845,0.10015,0.5014,0.09563,0.26692,0.92309,0.21922,0.12457,0.93995,0.03199,0.30102,1.48185,0.27311,0.06595,1.45454,-0.06987,0.368,1.20911,0.29969,-0.00973,1.17089,0.13167,0.49955,1.31324,0.40519,0.23487,1.15769
696,0.18546,0.20995,1.55026,0.10564,0.48448,0.08474,0.1544,0.07733,0.07932,0.12649,0.41748,0.50633,0.19893,0.10107,0.50111,0.09563,0.26774,0.92332,0.21931,0.12542,0.93968,0.03099,0.30208,1.48166,0.27301,0.06735,1.45489,-0.06736,0.37251,1.20851,0.30033,-0.00767,1.17113,0.13165,0.50164,1.32024,0.40377,0.2378,1.15791
