PaulMeinheit/Bachelor_Muay_Thai/processed_Data/E1/teep/sliced/JointPositions/sliced2.csv
Unnamed: 0_level_0,Neck_Joint_Position,Neck_Joint_Position,Neck_Joint_Position,L_ANKLE_POSITION,L_ANKLE_POSITION,L_ANKLE_POSITION,R_ANKLE_POSITION,R_ANKLE_POSITION,R_ANKLE_POSITION,L_KNEE_POSITION,L_KNEE_POSITION,L_KNEE_POSITION,R_KNEE_POSITION,R_KNEE_POSITION,R_KNEE_POSITION,L_HIP_POSITION,L_HIP_POSITION,L_HIP_POSITION,R_HIP_POSITION,R_HIP_POSITION,R_HIP_POSITION,L_SHOULDER_POSITION,L_SHOULDER_POSITION,L_SHOULDER_POSITION,R_SHOULDER_POSITION,R_SHOULDER_POSITION,R_SHOULDER_POSITION,L_ELBOW_POSITION,L_ELBOW_POSITION,L_ELBOW_POSITION,R_ELBOW_POSITION,R_ELBOW_POSITION,R_ELBOW_POSITION,L_WRIST_POSITION,L_WRIST_POSITION,L_WRIST_POSITION,R_WRIST_POSITION,R_WRIST_POSITION,R_WRIST_POSITION
ITEM,X,Y,Z,X,Y,Z,X,Y,Z,X,Y,Z,X,Y,Z,X,Y,Z,X,Y,Z,X,Y,Z,X,Y,Z,X,Y,Z,X,Y,Z,X,Y,Z,X,Y,Z
1384,0.15901,0.1286,1.53128,0.08096,0.45892,0.10337,0.04961,-0.06101,0.07995,0.10008,0.39198,0.52505,0.13698,0.0096,0.48962,0.06139,0.19858,0.92298,0.1899,0.05963,0.92327,-0.0003,0.20458,1.47801,0.26803,-0.00977,1.47623,-0.04935,0.32727,1.21007,0.3931,0.1177,1.24171,0.07576,0.42128,1.42049,0.31274,0.25929,1.45295
1385,0.15863,0.12626,1.53159,0.08158,0.45943,0.10484,0.04976,-0.06118,0.08008,0.10087,0.39336,0.52664,0.13695,0.00935,0.48981,0.06122,0.1978,0.92342,0.18976,0.05888,0.92353,-0.00028,0.20314,1.47866,0.2679,-0.01192,1.47551,-0.04906,0.32793,1.21165,0.39366,0.11815,1.24279,0.07598,0.41985,1.42303,0.31256,0.25802,1.4549
1386,0.15819,0.12429,1.53184,0.0823,0.4601,0.10627,0.04986,-0.06137,0.08009,0.10149,0.39503,0.52823,0.13709,0.00914,0.48981,0.06094,0.19709,0.92375,0.18942,0.05813,0.92365,-0.00028,0.20212,1.47935,0.26717,-0.0141,1.47486,-0.04866,0.32885,1.21318,0.39433,0.11847,1.24432,0.07632,0.4183,1.42565,0.31225,0.25712,1.45685
1387,0.15798,0.12256,1.53197,0.08304,0.46085,0.10764,0.04989,-0.06161,0.08003,0.10221,0.397,0.5298,0.13746,0.00888,0.48968,0.06053,0.19648,0.92389,0.18895,0.05744,0.92367,-0.00041,0.20104,1.47989,0.26617,-0.01622,1.47466,-0.04819,0.32969,1.21453,0.39489,0.11849,1.24624,0.07643,0.41631,1.42838,0.31179,0.25641,1.45885
1388,0.15815,0.1209,1.53204,0.08381,0.46155,0.10911,0.04989,-0.06177,0.07999,0.10327,0.39914,0.53147,0.13799,0.00862,0.48954,0.06013,0.19597,0.92404,0.18856,0.05695,0.92366,-0.00057,0.19961,1.48029,0.2657,-0.01808,1.47468,-0.04741,0.33072,1.21598,0.39535,0.11881,1.24808,0.07652,0.41441,1.43139,0.31119,0.25567,1.46096
1389,0.1585,0.11927,1.53213,0.08461,0.4621,0.11076,0.04986,-0.06185,0.08003,0.1045,0.4014,0.53334,0.1385,0.00852,0.48947,0.05984,0.19565,0.9244,0.18839,0.05674,0.92369,-0.00066,0.19792,1.4808,0.26617,-0.01956,1.47443,-0.04621,0.33219,1.21785,0.39581,0.11998,1.24945,0.07694,0.41335,1.43467,0.31057,0.25478,1.46321
1390,0.15878,0.11784,1.53214,0.08544,0.46262,0.11251,0.04982,-0.06199,0.08017,0.10547,0.40384,0.53536,0.1389,0.00867,0.48946,0.05965,0.19543,0.92487,0.18841,0.05671,0.92374,-0.00082,0.1962,1.48154,0.26715,-0.02083,1.47396,-0.04491,0.33377,1.22006,0.39624,0.12153,1.25043,0.07768,0.41304,1.4379,0.31007,0.25386,1.46536
1391,0.15901,0.11685,1.53192,0.08624,0.46334,0.11426,0.04985,-0.06226,0.08031,0.10597,0.40654,0.53739,0.13914,0.00898,0.48946,0.0595,0.19519,0.92524,0.1885,0.05671,0.92379,-0.00112,0.19457,1.48242,0.26786,-0.02212,1.47369,-0.04393,0.3349,1.22219,0.39649,0.12256,1.25139,0.0784,0.41279,1.44067,0.30972,0.25318,1.46713
1392,0.15927,0.11629,1.5315,0.08705,0.46443,0.11601,0.04994,-0.06252,0.08039,0.10622,0.40953,0.53942,0.13924,0.00932,0.48943,0.05935,0.19499,0.92546,0.18853,0.05668,0.9238,-0.00141,0.19313,1.48328,0.26802,-0.0234,1.47379,-0.04333,0.33544,1.22397,0.39664,0.12297,1.2526,0.0789,0.41211,1.44294,0.30946,0.25291,1.46858
1393,0.15953,0.11578,1.53108,0.0879,0.46588,0.11786,0.04999,-0.06254,0.08038,0.1066,0.41276,0.54152,0.13915,0.00959,0.48939,0.05916,0.19493,0.92565,0.18837,0.05665,0.92381,-0.00143,0.19192,1.48405,0.26789,-0.02447,1.47396,-0.04283,0.33569,1.22548,0.39699,0.1234,1.25406,0.07917,0.41113,1.445,0.30927,0.25295,1.47005
1394,0.15969,0.11503,1.53083,0.08878,0.46748,0.11989,0.0499,-0.06226,0.08034,0.10726,0.41621,0.54378,0.13888,0.00974,0.48942,0.05886,0.19505,0.92588,0.18799,0.05668,0.92387,-0.00109,0.1909,1.48479,0.26786,-0.02535,1.47378,-0.04221,0.33605,1.22694,0.39777,0.12442,1.25564,0.07937,0.41023,1.44712,0.30917,0.25311,1.47179
1395,0.15979,0.11413,1.53076,0.08948,0.46907,0.1221,0.0497,-0.06179,0.08032,0.10816,0.41981,0.54623,0.13858,0.00973,0.48951,0.05841,0.19532,0.9262,0.18743,0.05687,0.92396,-0.00062,0.18998,1.48551,0.26818,-0.02602,1.47305,-0.04146,0.33679,1.22856,0.39894,0.12624,1.25715,0.07982,0.40972,1.44933,0.30918,0.25339,1.47373
1396,0.16001,0.11352,1.5308,0.08981,0.47067,0.1244,0.04948,-0.06139,0.08029,0.10909,0.42346,0.54873,0.13838,0.0097,0.48955,0.0579,0.19576,0.9266,0.18691,0.0573,0.92399,-0.00026,0.18911,1.4862,0.26894,-0.02626,1.47192,-0.04076,0.33797,1.23038,0.40026,0.12876,1.25834,0.0806,0.4096,1.45153,0.30937,0.25375,1.47571
1397,0.16043,0.11349,1.53087,0.08984,0.47245,0.12664,0.0494,-0.06125,0.08022,0.10989,0.42709,0.55113,0.13823,0.00982,0.4895,0.0575,0.19636,0.927,0.18663,0.05802,0.92388,-0.00016,0.18828,1.48674,0.26987,-0.02589,1.4708,-0.04026,0.33944,1.23221,0.40143,0.13154,1.25914,0.08135,0.40965,1.45367,0.30975,0.25406,1.47757
1398,0.1609,0.11391,1.53091,0.08985,0.47458,0.12885,0.04951,-0.06141,0.08016,0.11054,0.43067,0.55347,0.13804,0.01009,0.48943,0.0572,0.19695,0.92734,0.18667,0.05895,0.92371,-0.00034,0.18745,1.48699,0.27057,-0.02512,1.4701,-0.03987,0.34095,1.23376,0.40224,0.13388,1.25969,0.08155,0.40964,1.4558,0.31024,0.25418,1.47922
1399,0.16129,0.11441,1.53093,0.09006,0.47705,0.13111,0.04972,-0.06174,0.0802,0.11123,0.43432,0.55582,0.13776,0.0104,0.48946,0.05693,0.19743,0.92756,0.18696,0.05995,0.92361,-0.00074,0.18675,1.4869,0.27092,-0.02436,1.46992,-0.03933,0.34244,1.23488,0.40271,0.13555,1.26028,0.08113,0.40959,1.45791,0.31071,0.25433,1.48064
1400,0.16169,0.11468,1.53094,0.09046,0.47961,0.13333,0.04988,-0.06205,0.08033,0.11207,0.43817,0.55815,0.13748,0.01069,0.48958,0.05683,0.19795,0.92761,0.18737,0.06096,0.92356,-0.00108,0.18637,1.4867,0.27117,-0.02384,1.47001,-0.03862,0.34404,1.23575,0.40303,0.13697,1.26109,0.08053,0.40966,1.45993,0.31105,0.25486,1.48194
1401,0.16222,0.11466,1.531,0.091,0.48191,0.13535,0.04984,-0.06223,0.08042,0.11287,0.44225,0.56033,0.13721,0.0109,0.48965,0.05699,0.19879,0.92756,0.18775,0.06202,0.92345,-0.00118,0.18638,1.48663,0.27151,-0.02351,1.47004,-0.038,0.34587,1.23672,0.40342,0.13866,1.2622,0.08023,0.40982,1.46189,0.3112,0.25594,1.48327
1402,0.16264,0.11463,1.53109,0.09162,0.48393,0.13712,0.04959,-0.06215,0.08037,0.11328,0.44639,0.5623,0.1369,0.01102,0.4896,0.05723,0.20006,0.92758,0.18794,0.06325,0.92322,-0.00118,0.18667,1.4868,0.27174,-0.02318,1.46987,-0.0377,0.3479,1.23797,0.40403,0.14068,1.26361,0.08032,0.40982,1.46381,0.31104,0.25732,1.48469
1403,0.16255,0.11489,1.53113,0.09223,0.48598,0.13876,0.04927,-0.06173,0.08024,0.11325,0.45034,0.56414,0.13652,0.01108,0.48955,0.05729,0.20158,0.92778,0.18789,0.06468,0.92296,-0.00134,0.18721,1.48713,0.27159,-0.02263,1.46952,-0.03767,0.35003,1.2393,0.40486,0.14291,1.26524,0.08067,0.40961,1.4656,0.31048,0.25864,1.48622
1404,0.16201,0.11548,1.53101,0.09269,0.48836,0.14039,0.04896,-0.06102,0.08014,0.11306,0.45404,0.56591,0.13604,0.0112,0.48959,0.05712,0.20319,0.92812,0.18767,0.06626,0.92279,-0.00177,0.18806,1.48751,0.27103,-0.02168,1.4691,-0.03755,0.35215,1.24044,0.4057,0.14532,1.26694,0.0811,0.40953,1.46715,0.30953,0.25983,1.48778
1405,0.16146,0.11627,1.53071,0.09298,0.49111,0.14201,0.04871,-0.06026,0.0801,0.11292,0.45763,0.56761,0.13553,0.0115,0.48969,0.05685,0.20484,0.92846,0.18739,0.06792,0.92268,-0.00236,0.18918,1.48791,0.27036,-0.02037,1.46862,-0.0371,0.3542,1.24132,0.40635,0.14796,1.26846,0.0814,0.40992,1.46851,0.30845,0.26105,1.48927
1406,0.16116,0.11729,1.53036,0.0932,0.49401,0.14356,0.0486,-0.05975,0.08008,0.11275,0.4613,0.56924,0.13507,0.01207,0.48974,0.05661,0.20653,0.92868,0.18719,0.06966,0.92254,-0.00285,0.19029,1.48826,0.26999,-0.01895,1.46804,-0.03639,0.3562,1.2421,0.40679,0.1508,1.26964,0.08149,0.41072,1.46991,0.30755,0.26243,1.49059
1407,0.16093,0.11867,1.53008,0.09353,0.49688,0.14496,0.04863,-0.05961,0.08011,0.11236,0.46511,0.57075,0.13471,0.01292,0.48972,0.05642,0.20822,0.9287,0.1872,0.07156,0.92234,-0.00299,0.19114,1.48843,0.26998,-0.01764,1.4674,-0.03579,0.3582,1.24295,0.40708,0.15366,1.27053,0.08137,0.41147,1.47142,0.30698,0.2639,1.49179
1408,0.16077,0.12035,1.52978,0.09401,0.49972,0.14617,0.0487,-0.05975,0.0802,0.11189,0.46898,0.57207,0.13435,0.01388,0.4897,0.05626,0.20997,0.92854,0.1874,0.07365,0.9221,-0.00271,0.19181,1.48835,0.27007,-0.01639,1.46683,-0.0356,0.36022,1.24381,0.40727,0.15639,1.27134,0.08117,0.41187,1.47286,0.30654,0.26542,1.49292
1409,0.16093,0.12206,1.52934,0.09451,0.5027,0.14719,0.04869,-0.05987,0.08031,0.11168,0.47279,0.57318,0.13384,0.01477,0.48974,0.05623,0.21187,0.92829,0.18767,0.07584,0.92185,-0.0023,0.19262,1.48814,0.27004,-0.01499,1.46648,-0.03576,0.36228,1.24454,0.40741,0.15908,1.27226,0.08107,0.41215,1.47395,0.30596,0.26717,1.49397
1410,0.16145,0.1235,1.52884,0.09482,0.50601,0.14802,0.04855,-0.05972,0.08038,0.11177,0.47645,0.57405,0.13315,0.01551,0.48981,0.05643,0.21397,0.92801,0.18801,0.07807,0.92159,-0.00216,0.19371,1.48796,0.27001,-0.01325,1.46638,-0.03592,0.36435,1.24508,0.40746,0.16193,1.27322,0.08113,0.41277,1.47469,0.30519,0.26928,1.49491
1411,0.16191,0.12465,1.52851,0.09483,0.50964,0.14861,0.04835,-0.05935,0.08036,0.11184,0.47996,0.57463,0.13239,0.01618,0.48985,0.05684,0.21624,0.92773,0.18849,0.08042,0.92122,-0.00257,0.19489,1.48779,0.27013,-0.01119,1.46637,-0.0358,0.36647,1.24551,0.40742,0.16504,1.27404,0.08121,0.41391,1.47534,0.3043,0.27166,1.49569
1412,0.16179,0.12557,1.52843,0.09458,0.51342,0.14896,0.0482,-0.0591,0.08024,0.11155,0.48338,0.57495,0.13165,0.01686,0.48977,0.05727,0.21868,0.92742,0.18901,0.08296,0.9207,-0.00346,0.19594,1.48753,0.2702,-0.00907,1.46629,-0.03543,0.36864,1.24587,0.40728,0.16818,1.27475,0.08111,0.41541,1.47608,0.30327,0.27421,1.49628
1413,0.16093,0.1263,1.52851,0.09415,0.5172,0.14906,0.04816,-0.05919,0.08009,0.11096,0.4868,0.57503,0.13091,0.01756,0.48961,0.05752,0.22125,0.927,0.18927,0.08554,0.92011,-0.00456,0.1969,1.48712,0.26996,-0.00714,1.46602,-0.03502,0.37088,1.24618,0.40712,0.17114,1.27551,0.08073,0.41714,1.47689,0.30209,0.27685,1.4967
1414,0.15968,0.12697,1.52858,0.09361,0.52108,0.14899,0.04819,-0.05941,0.07996,0.1104,0.49024,0.57493,0.13007,0.01829,0.48949,0.05765,0.2239,0.92641,0.18919,0.08799,0.9196,-0.0055,0.19814,1.4866,0.26947,-0.00536,1.46549,-0.03469,0.37326,1.24633,0.40703,0.17403,1.27632,0.0801,0.41908,1.47761,0.3009,0.27956,1.49706
1415,0.15872,0.1279,1.52846,0.09304,0.52522,0.1488,0.04823,-0.05942,0.07989,0.11008,0.49367,0.57468,0.12911,0.01909,0.48945,0.05783,0.22663,0.9257,0.18909,0.09043,0.91918,-0.00605,0.20001,1.48605,0.26913,-0.00348,1.46469,-0.03443,0.37594,1.24628,0.40696,0.17723,1.27698,0.07941,0.42121,1.47813,0.2999,0.28226,1.49751
1416,0.15851,0.12934,1.52809,0.09254,0.52959,0.14853,0.04823,-0.0592,0.07984,0.10992,0.49708,0.57432,0.1282,0.02001,0.48945,0.05813,0.22947,0.92497,0.1893,0.09318,0.91871,-0.00636,0.2024,1.48549,0.26919,-0.00125,1.4637,-0.03414,0.37895,1.24611,0.40679,0.18104,1.27734,0.07906,0.42333,1.47845,0.29904,0.28492,1.49808
1417,0.15874,0.13119,1.52752,0.09223,0.53399,0.14812,0.04817,-0.059,0.07981,0.10976,0.50053,0.57384,0.12761,0.02108,0.48935,0.05842,0.2325,0.92423,0.18976,0.09637,0.9181,-0.00676,0.2047,1.48484,0.26944,0.00147,1.46269,-0.03369,0.38216,1.24603,0.4065,0.18529,1.27743,0.07937,0.4252,1.47869,0.29815,0.28754,1.49865
1418,0.15876,0.13318,1.5269,0.09215,0.53818,0.14759,0.0481,-0.05901,0.07978,0.10957,0.5041,0.57326,0.12749,0.02233,0.48909,0.05864,0.23579,0.9235,0.1902,0.09986,0.91735,-0.00738,0.20648,1.48399,0.2696,0.00469,1.46182,-0.03305,0.38534,1.24609,0.4063,0.18957,1.27736,0.0801,0.42682,1.47899,0.29728,0.2902,1.49899
1419,0.1582,0.13524,1.5263,0.09217,0.54199,0.14697,0.04805,-0.0592,0.07973,0.10941,0.50783,0.57264,0.12767,0.02382,0.48866,0.05889,0.23935,0.9228,0.19051,0.10349,0.91651,-0.00803,0.20808,1.48307,0.26974,0.00826,1.46108,-0.03233,0.38843,1.24615,0.40636,0.19373,1.27715,0.08051,0.42852,1.47944,0.29656,0.29303,1.499
1420,0.15724,0.13755,1.52568,0.09211,0.5454,0.14628,0.04793,-0.05937,0.07965,0.10922,0.51176,0.57199,0.12789,0.02549,0.48813,0.05922,0.24307,0.92208,0.19076,0.10715,0.9156,-0.00853,0.21012,1.48236,0.27011,0.01199,1.46022,-0.03165,0.39152,1.24613,0.40659,0.19804,1.27677,0.0802,0.43069,1.48005,0.29602,0.29624,1.49872
1421,0.15632,0.14038,1.52488,0.09192,0.54845,0.1455,0.04774,-0.05934,0.07956,0.10894,0.51577,0.57129,0.128,0.02727,0.48761,0.05952,0.24675,0.92121,0.19102,0.11079,0.9147,-0.00899,0.21294,1.48208,0.2707,0.01572,1.45898,-0.03097,0.39483,1.24611,0.40673,0.20268,1.27612,0.07957,0.43357,1.48073,0.29547,0.29992,1.49815
1422,0.15576,0.14381,1.52381,0.09165,0.55115,0.14463,0.04755,-0.05908,0.07951,0.10861,0.51971,0.57052,0.12801,0.02906,0.4872,0.05967,0.25021,0.92013,0.19136,0.11441,0.91388,-0.00961,0.21635,1.48207,0.27106,0.01934,1.45748,-0.03015,0.39848,1.24616,0.40656,0.20734,1.2753,0.07919,0.43694,1.48139,0.29472,0.30392,1.49733
1423,0.1555,0.1477,1.5225,0.09124,0.55351,0.1437,0.0474,-0.05869,0.07953,0.10833,0.52353,0.56969,0.12797,0.03084,0.48689,0.05967,0.25348,0.91892,0.19171,0.11801,0.91314,-0.01033,0.2198,1.48186,0.27087,0.0229,1.456,-0.02925,0.40241,1.24619,0.40611,0.21178,1.27455,0.07905,0.44024,1.48199,0.29375,0.30804,1.49645
1424,0.15516,0.15187,1.52103,0.0906,0.55558,0.14268,0.04728,-0.05836,0.07954,0.10828,0.52733,0.56877,0.1279,0.03264,0.48656,0.0596,0.25685,0.91766,0.19202,0.12173,0.91237,-0.01093,0.22267,1.48113,0.2704,0.02676,1.45458,-0.02843,0.40635,1.24617,0.40553,0.21654,1.27397,0.07888,0.44317,1.48259,0.29261,0.31215,1.49587
1425,0.15457,0.15616,1.51945,0.08974,0.55739,0.14151,0.04721,-0.05817,0.07944,0.10852,0.53125,0.56768,0.12782,0.0346,0.48607,0.0596,0.26056,0.91637,0.19235,0.12575,0.91138,-0.0113,0.22481,1.48001,0.27026,0.03129,1.45294,-0.02779,0.41018,1.24632,0.40492,0.22243,1.27342,0.07859,0.44594,1.48332,0.29129,0.31621,1.49574
1426,0.15395,0.16033,1.51787,0.08888,0.55888,0.14023,0.04724,-0.05802,0.07926,0.10897,0.53536,0.56649,0.12781,0.03692,0.48539,0.05968,0.26455,0.91504,0.19286,0.13016,0.91016,-0.01154,0.22665,1.47884,0.2707,0.03641,1.45104,-0.02718,0.4141,1.24675,0.40425,0.22943,1.27272,0.07837,0.44886,1.48427,0.28975,0.32019,1.49585
1427,0.15355,0.16422,1.51638,0.08818,0.55989,0.139,0.04735,-0.05775,0.07909,0.10945,0.53966,0.56538,0.12802,0.03971,0.4846,0.05974,0.2686,0.91367,0.19356,0.13484,0.90888,-0.01187,0.22877,1.47766,0.27142,0.04169,1.44931,-0.02629,0.41847,1.24732,0.40333,0.23659,1.27182,0.07842,0.45195,1.4854,0.28804,0.324,1.49587
1428,0.15332,0.16795,1.51506,0.08751,0.56045,0.13791,0.04748,-0.05734,0.07903,0.1099,0.54415,0.56439,0.1286,0.04282,0.48379,0.05968,0.27263,0.91225,0.19427,0.13964,0.90767,-0.01229,0.23133,1.47632,0.27211,0.04684,1.44806,-0.02508,0.42343,1.24789,0.40199,0.24324,1.27071,0.07871,0.45506,1.48662,0.28629,0.32777,1.49565
1429,0.15309,0.17181,1.51383,0.08674,0.56072,0.13686,0.0476,-0.05696,0.07908,0.11039,0.54883,0.56342,0.1295,0.04603,0.48298,0.05948,0.27674,0.91074,0.19483,0.14451,0.90653,-0.01261,0.23414,1.47481,0.27264,0.05201,1.44703,-0.02393,0.42891,1.24858,0.40013,0.24974,1.26943,0.07903,0.45809,1.48798,0.28456,0.33187,1.49533
1430,0.15282,0.17606,1.5125,0.08589,0.56074,0.13583,0.04772,-0.05673,0.07919,0.11098,0.55371,0.56242,0.13055,0.04919,0.48214,0.05919,0.28103,0.90914,0.19517,0.14942,0.90538,-0.01277,0.23706,1.47337,0.27295,0.05735,1.44573,-0.0232,0.43482,1.24969,0.39776,0.25681,1.26815,0.07921,0.46103,1.48967,0.28276,0.33672,1.49513
1431,0.15241,0.18088,1.51095,0.0851,0.56038,0.1349,0.04784,-0.05667,0.07934,0.11167,0.55887,0.56146,0.13162,0.05235,0.48127,0.05891,0.28556,0.90753,0.19523,0.1543,0.90425,-0.01292,0.24018,1.47213,0.27302,0.06284,1.44396,-0.02286,0.44117,1.25134,0.39497,0.26473,1.26716,0.0793,0.4639,1.49177,0.28067,0.34227,1.49531
1432,0.15158,0.18623,1.50925,0.08448,0.55954,0.13408,0.0479,-0.05659,0.07953,0.11231,0.56435,0.56054,0.13275,0.05554,0.48038,0.05853,0.29035,0.90591,0.19487,0.1591,0.90319,-0.01333,0.24362,1.471,0.27304,0.06845,1.4418,-0.02272,0.44799,1.2533,0.39193,0.2736,1.26667,0.07926,0.46675,1.49416,0.27808,0.34794,1.49611
1433,0.15024,0.19181,1.50763,0.08414,0.5583,0.13322,0.04785,-0.05633,0.07972,0.11271,0.57001,0.55949,0.13398,0.05875,0.47945,0.05796,0.29535,0.90419,0.19419,0.16399,0.90213,-0.01409,0.24738,1.46969,0.27337,0.07435,1.43949,-0.02259,0.45527,1.25532,0.38885,0.28338,1.26669,0.07884,0.46955,1.49671,0.27502,0.35334,1.49751
1434,0.14884,0.19723,1.50619,0.08414,0.55672,0.13216,0.04771,-0.05582,0.07989,0.11284,0.5757,0.55816,0.1353,0.06212,0.47847,0.05734,0.30052,0.90232,0.19374,0.16931,0.9009,-0.01502,0.25141,1.46811,0.27407,0.08067,1.43727,-0.0225,0.46299,1.25734,0.38591,0.29375,1.26704,0.07782,0.47221,1.49945,0.27188,0.35876,1.49921
1435,0.14794,0.20225,1.50485,0.08438,0.55492,0.13095,0.04766,-0.05519,0.08007,0.11288,0.5814,0.55656,0.13666,0.06587,0.4774,0.05696,0.30586,0.90037,0.194,0.17533,0.8994,-0.01595,0.25573,1.46655,0.27487,0.0874,1.43528,-0.02263,0.47106,1.25959,0.38315,0.3042,1.26746,0.07633,0.47478,1.5024,0.26908,0.36478,1.5008
1436,0.1475,0.20686,1.50349,0.08469,0.55311,0.12973,0.04778,-0.0546,0.08034,0.11301,0.58714,0.55481,0.13807,0.07006,0.47626,0.05679,0.31152,0.8985,0.19473,0.18193,0.89772,-0.01691,0.26027,1.46534,0.27544,0.09442,1.43343,-0.02324,0.47928,1.26226,0.38053,0.31448,1.26783,0.07472,0.47744,1.5055,0.26659,0.37143,1.50215
1437,0.14699,0.21153,1.5021,0.08499,0.55153,0.12859,0.04805,-0.05423,0.08078,0.1132,0.59296,0.55302,0.13953,0.07456,0.47511,0.0566,0.31754,0.89682,0.19533,0.1888,0.89605,-0.01784,0.26471,1.46459,0.27567,0.10155,1.43158,-0.02434,0.48726,1.2654,0.37792,0.32457,1.26817,0.07327,0.48039,1.50869,0.26414,0.37826,1.50334
1438,0.14614,0.21678,1.50069,0.0853,0.55018,0.12753,0.04844,-0.05411,0.08149,0.11334,0.59881,0.55121,0.14093,0.07927,0.47406,0.0563,0.32388,0.89532,0.19557,0.19571,0.89454,-0.01858,0.26882,1.46408,0.27567,0.10862,1.42971,-0.02574,0.49486,1.26888,0.37522,0.33446,1.26854,0.07207,0.48376,1.51193,0.26163,0.38497,1.50449
1439,0.14534,0.22258,1.49927,0.08565,0.54886,0.12647,0.04906,-0.05413,0.08251,0.11338,0.60464,0.54929,0.14231,0.08409,0.47322,0.05602,0.33048,0.89396,0.19563,0.20269,0.89327,-0.01912,0.27288,1.46351,0.27559,0.1155,1.42789,-0.02717,0.50246,1.27252,0.37246,0.34408,1.26895,0.07099,0.48739,1.51522,0.25908,0.39153,1.50565
1440,0.14507,0.22847,1.49784,0.08603,0.5474,0.12536,0.04998,-0.05413,0.08382,0.11333,0.61043,0.54719,0.14377,0.08897,0.47263,0.05589,0.33739,0.89273,0.19582,0.20995,0.89217,-0.01971,0.27749,1.46267,0.27548,0.12227,1.42619,-0.02854,0.51079,1.27629,0.36976,0.35346,1.26948,0.06994,0.49087,1.51851,0.25656,0.39781,1.50686
1441,0.14519,0.23449,1.49643,0.08639,0.54604,0.12417,0.05117,-0.05405,0.08536,0.11316,0.61619,0.5449,0.14527,0.0939,0.47228,0.05589,0.34466,0.89166,0.19622,0.21766,0.89114,-0.02058,0.28298,1.46163,0.2752,0.1292,1.42475,-0.02999,0.52022,1.28032,0.3672,0.36273,1.27018,0.06891,0.49404,1.52177,0.25416,0.40353,1.50828
1442,0.14523,0.24109,1.49507,0.08669,0.54519,0.12283,0.0525,-0.05388,0.08712,0.11284,0.62184,0.54247,0.14673,0.09898,0.4721,0.05579,0.35228,0.8908,0.19666,0.22588,0.89014,-0.0217,0.28903,1.46069,0.27473,0.13658,1.42373,-0.03174,0.53025,1.28474,0.36479,0.37211,1.27106,0.06792,0.49721,1.52503,0.25207,0.40877,1.50998
1443,0.14492,0.24841,1.49384,0.08692,0.54493,0.12124,0.05388,-0.05358,0.08908,0.11239,0.62717,0.53986,0.14831,0.10446,0.47191,0.05537,0.36016,0.89016,0.1969,0.23451,0.88914,-0.02282,0.29495,1.46012,0.27428,0.14452,1.42314,-0.03385,0.53993,1.2895,0.36253,0.38173,1.27202,0.06702,0.50078,1.52837,0.25034,0.41407,1.5118
1444,0.14422,0.25589,1.49281,0.08702,0.54492,0.1193,0.05529,-0.05306,0.09132,0.11178,0.63207,0.53697,0.1503,0.11071,0.47159,0.05468,0.36819,0.88961,0.19692,0.24334,0.88823,-0.02373,0.30042,1.46003,0.27423,0.15288,1.42278,-0.03612,0.54881,1.29451,0.36032,0.39167,1.27291,0.06633,0.50473,1.53184,0.24873,0.41988,1.51349
1445,0.14303,0.26296,1.49207,0.08683,0.54483,0.11695,0.05679,-0.05223,0.09406,0.11087,0.63662,0.53366,0.15287,0.11808,0.47117,0.05404,0.3764,0.88907,0.19695,0.25233,0.88757,-0.02452,0.30586,1.46043,0.27459,0.16143,1.42235,-0.03831,0.55741,1.29987,0.35792,0.40196,1.2737,0.06587,0.50874,1.53555,0.24678,0.42627,1.51493
1446,0.14132,0.26967,1.49165,0.08602,0.54455,0.11422,0.05861,-0.05089,0.09755,0.10967,0.64079,0.52996,0.15618,0.12681,0.47085,0.05366,0.38498,0.88868,0.1972,0.26162,0.88738,-0.02542,0.31178,1.46121,0.27478,0.17009,1.42172,-0.0406,0.56654,1.30593,0.35518,0.41252,1.27455,0.06533,0.51255,1.53965,0.2442,0.43302,1.51621
1447,0.13933,0.2764,1.49158,0.08431,0.54395,0.11126,0.06095,-0.04875,0.10185,0.10853,0.64426,0.526,0.16061,0.13695,0.47067,0.05357,0.394,0.88878,0.19765,0.27128,0.88773,-0.02656,0.31827,1.46211,0.27426,0.17882,1.42114,-0.04332,0.5765,1.31285,0.35246,0.42301,1.27571,0.06423,0.51619,1.54427,0.24126,0.43992,1.51753
1448,0.13745,0.28333,1.49186,0.08166,0.54278,0.10824,0.06388,-0.04559,0.10687,0.10777,0.64672,0.52197,0.1666,0.14852,0.47049,0.05367,0.40329,0.88948,0.19823,0.28112,0.88854,-0.02803,0.32509,1.46289,0.27301,0.18751,1.4212,-0.04645,0.587,1.32038,0.35038,0.43285,1.27727,0.06247,0.51989,1.54929,0.23854,0.44684,1.51899
1449,0.13581,0.29032,1.49252,0.07826,0.54099,0.10533,0.06739,-0.04129,0.11254,0.10733,0.64821,0.51802,0.1743,0.16163,0.4701,0.05375,0.41254,0.89064,0.19884,0.29101,0.88964,-0.02989,0.33207,1.46354,0.27131,0.19602,1.4223,-0.04936,0.59761,1.32803,0.34917,0.4416,1.27904,0.06046,0.5239,1.55447,0.23652,0.45362,1.52049
1450,0.13434,0.29716,1.49358,0.07448,0.53888,0.10264,0.07149,-0.03558,0.1189,0.10672,0.64905,0.51433,0.18341,0.17662,0.46947,0.05358,0.4216,0.89207,0.19948,0.30104,0.89091,-0.03202,0.33912,1.46434,0.2694,0.20428,1.42438,-0.05145,0.60796,1.33552,0.34852,0.44919,1.28066,0.05859,0.5283,1.55982,0.2353,0.45996,1.52189
1451,0.13287,0.30395,1.49504,0.07103,0.53682,0.10016,0.07621,-0.02804,0.12597,0.10526,0.64954,0.51099,0.19323,0.19404,0.46866,0.05307,0.43039,0.89375,0.20024,0.31141,0.89237,-0.03409,0.34626,1.46572,0.26746,0.21226,1.42707,-0.05272,0.61794,1.34289,0.34799,0.45582,1.28186,0.05691,0.53303,1.56546,0.23464,0.46584,1.52307
1452,0.13118,0.311,1.4969,0.06869,0.53503,0.09768,0.08141,-0.01833,0.13377,0.10264,0.6497,0.50799,0.2031,0.2142,0.46779,0.0523,0.43893,0.89567,0.20116,0.32206,0.89407,-0.03578,0.35376,1.46788,0.26567,0.21997,1.43004,-0.0539,0.62779,1.35031,0.34735,0.46173,1.28248,0.05529,0.53815,1.57123,0.23422,0.47175,1.5238
1453,0.12906,0.31839,1.49922,0.0678,0.53365,0.09512,0.08676,-0.00642,0.14248,0.09917,0.64947,0.50531,0.2129,0.23694,0.467,0.05124,0.44721,0.8978,0.20199,0.33278,0.89601,-0.03707,0.36194,1.47064,0.26413,0.2276,1.43322,-0.05584,0.63794,1.35786,0.34674,0.46705,1.28245,0.05378,0.54391,1.57673,0.23393,0.4782,1.52386
1454,0.12648,0.32593,1.50193,0.0681,0.53276,0.09274,0.09179,0.00738,0.15254,0.09568,0.64904,0.50307,0.22296,0.2619,0.46634,0.0498,0.45508,0.89998,0.20254,0.34333,0.89797,-0.03817,0.37067,1.47362,0.2629,0.2355,1.43665,-0.05873,0.64837,1.36543,0.34665,0.47188,1.28171,0.05258,0.55048,1.58175,0.23407,0.48514,1.52313
1455,0.12356,0.33338,1.50479,0.06909,0.53234,0.09096,0.09612,0.02285,0.16442,0.09283,0.64877,0.50149,0.23352,0.28883,0.4658,0.04814,0.46234,0.90212,0.20298,0.35352,0.89966,-0.03931,0.37942,1.47658,0.26185,0.24396,1.44031,-0.06178,0.65868,1.37287,0.34756,0.47613,1.28017,0.05192,0.55769,1.5865,0.23507,0.49223,1.52145
1456,0.12043,0.34081,1.50755,0.07042,0.53224,0.08995,0.09973,0.04012,0.17828,0.09058,0.64888,0.50062,0.24452,0.31765,0.46545,0.04676,0.46884,0.90425,0.20385,0.36332,0.9009,-0.0406,0.38798,1.47938,0.2604,0.2529,1.44398,-0.06381,0.66877,1.38006,0.34968,0.4793,1.27765,0.05185,0.56513,1.59136,0.23717,0.49942,1.51862
1457,0.11715,0.34845,1.51014,0.07183,0.53221,0.08952,0.10301,0.05955,0.19399,0.08852,0.64917,0.50026,0.25573,0.34822,0.46565,0.04599,0.47462,0.90643,0.20545,0.37278,0.9018,-0.04225,0.3967,1.48204,0.25803,0.26198,1.44752,-0.0642,0.67909,1.38703,0.35264,0.48074,1.27406,0.05224,0.57244,1.5964,0.24023,0.50709,1.51448
1458,0.11399,0.35637,1.51274,0.07307,0.53214,0.08934,0.10654,0.08137,0.21133,0.08633,0.64919,0.50017,0.26695,0.38029,0.467,0.04555,0.47967,0.90865,0.20751,0.38191,0.90268,-0.04452,0.4058,1.4848,0.25495,0.27084,1.45099,-0.06352,0.68967,1.39368,0.35565,0.48011,1.26945,0.05294,0.57952,1.60121,0.24397,0.5157,1.50902
1459,0.11144,0.36439,1.51557,0.07391,0.53205,0.08925,0.11069,0.10569,0.23012,0.08396,0.64866,0.50029,0.27776,0.41383,0.4701,0.04492,0.48385,0.91086,0.2095,0.39066,0.90388,-0.04735,0.41481,1.48801,0.25187,0.27934,1.45453,-0.06316,0.69978,1.39976,0.35801,0.47758,1.26393,0.05384,0.58671,1.60541,0.24835,0.52545,1.50229
1460,0.10966,0.37243,1.51866,0.0743,0.53212,0.08937,0.11543,0.13261,0.24996,0.08143,0.64777,0.50075,0.28731,0.44895,0.47543,0.04384,0.48705,0.91307,0.2112,0.39898,0.90563,-0.05011,0.42315,1.49183,0.24915,0.28749,1.45806,-0.06396,0.7087,1.40514,0.35956,0.47333,1.25763,0.0549,0.59446,1.60906,0.25363,0.53612,1.49421
1461,0.10823,0.38058,1.52179,0.07429,0.53239,0.08986,0.12053,0.16196,0.27028,0.07874,0.64692,0.50159,0.29473,0.48561,0.48325,0.04249,0.4894,0.91526,0.21262,0.40679,0.90799,-0.05207,0.43105,1.49598,0.2464,0.29531,1.4612,-0.06545,0.71685,1.41003,0.36055,0.46745,1.25089,0.05623,0.60312,1.61257,0.26003,0.54745,1.48461
1462,0.10662,0.38873,1.52468,0.07395,0.53268,0.09059,0.12598,0.19312,0.29082,0.07606,0.6463,0.50259,0.29994,0.52336,0.49362,0.0413,0.49131,0.91735,0.21392,0.414,0.91074,-0.05319,0.43937,1.4999,0.24334,0.30283,1.46357,-0.06619,0.72543,1.41479,0.36146,0.46042,1.24424,0.05817,0.61263,1.61622,0.26784,0.55959,1.47344
1463,0.10467,0.39657,1.52719,0.07342,0.53288,0.09135,0.13188,0.22539,0.3117,0.07361,0.64586,0.50353,0.30369,0.56145,0.50662,0.04057,0.49321,0.91929,0.21525,0.42056,0.91366,-0.05405,0.44856,1.50312,0.2405,0.3103,1.46529,-0.06516,0.73517,1.41961,0.3628,0.45311,1.23826,0.06106,0.62249,1.61995,0.27761,0.57279,1.46087
1464,0.1025,0.40425,1.52944,0.07304,0.53311,0.09204,0.13821,0.25833,0.33297,0.07146,0.6455,0.50438,0.30668,0.59917,0.52243,0.04034,0.49526,0.92117,0.21666,0.42662,0.91674,-0.05512,0.4584,1.50565,0.23868,0.31803,1.46688,-0.0625,0.74575,1.4243,0.36468,0.4461,1.23317,0.06464,0.6321,1.62351,0.28955,0.58692,1.44685
1465,0.10029,0.41234,1.53159,0.07317,0.53361,0.09268,0.14489,0.29185,0.35425,0.06964,0.64511,0.50525,0.30903,0.63627,0.54102,0.04031,0.49736,0.92306,0.2181,0.43254,0.91994,-0.05622,0.4685,1.50782,0.23817,0.32608,1.46878,-0.05912,0.75652,1.42855,0.36668,0.4392,1.22881,0.06811,0.64113,1.6267,0.30325,0.60135,1.43084
1466,0.09827,0.42111,1.53374,0.07391,0.53439,0.09323,0.15181,0.32602,0.37497,0.0683,0.64451,0.50614,0.31034,0.67291,0.56202,0.04016,0.49931,0.92492,0.21951,0.43885,0.92301,-0.0569,0.47867,1.50993,0.23869,0.33441,1.47118,-0.0558,0.76711,1.4322,0.36831,0.432,1.22507,0.07094,0.64973,1.62948,0.31824,0.61526,1.41226
1467,0.09671,0.43021,1.53588,0.07503,0.53525,0.09361,0.15874,0.36109,0.39467,0.06758,0.64365,0.50695,0.31021,0.70929,0.5851,0.03978,0.50093,0.92661,0.22091,0.44604,0.92581,-0.0571,0.48875,1.51208,0.23974,0.34303,1.47408,-0.05272,0.77743,1.43531,0.36951,0.42461,1.22229,0.07333,0.65826,1.63196,0.33437,0.62803,1.39115
1468,0.09581,0.43911,1.53791,0.0763,0.53606,0.09395,0.1653,0.39724,0.41314,0.06741,0.64278,0.5077,0.30858,0.74497,0.61063,0.03933,0.50207,0.92802,0.22236,0.4539,0.92876,-0.05713,0.49865,1.51408,0.2408,0.35163,1.47733,-0.04959,0.78742,1.43793,0.37068,0.41759,1.22106,0.0759,0.66696,1.63416,0.35181,0.63944,1.36789
1469,0.09559,0.44771,1.53965,0.07762,0.5368,0.09456,0.17137,0.43431,0.43061,0.06761,0.6425,0.50855,0.30601,0.77881,0.63952,0.03912,0.50271,0.92914,0.22381,0.46149,0.93262,-0.05717,0.50825,1.51561,0.24173,0.35967,1.4807,-0.04602,0.79705,1.43998,0.37253,0.41171,1.22171,0.07916,0.6758,1.63593,0.37082,0.64943,1.34261
1470,0.09591,0.45627,1.54093,0.07907,0.53745,0.09567,0.17731,0.47193,0.44758,0.06812,0.64345,0.50955,0.30331,0.80976,0.67219,0.03923,0.50317,0.92996,0.22504,0.46794,0.9375,-0.05725,0.51741,1.51644,0.24274,0.36703,1.48385,-0.04192,0.80617,1.44141,0.37585,0.40779,1.22402,0.08317,0.68444,1.63711,0.39133,0.65782,1.31553
1471,0.09651,0.46508,1.54161,0.08084,0.53803,0.09728,0.18361,0.50992,0.46432,0.06896,0.64592,0.51066,0.30052,0.83765,0.70798,0.03946,0.5039,0.93043,0.22585,0.47341,0.94273,-0.05729,0.52602,1.5166,0.24387,0.37424,1.48653,-0.03769,0.81472,1.44236,0.38101,0.40641,1.22759,0.0876,0.69252,1.63764,0.41288,0.66437,1.28735
1472,0.09725,0.47409,1.5417,0.08308,0.53877,0.09925,0.19049,0.54851,0.48056,0.06998,0.64974,0.51177,0.29675,0.86304,0.74558,0.03965,0.50511,0.93059,0.22632,0.4789,0.94765,-0.0571,0.5342,1.51633,0.24489,0.382,1.48868,-0.03372,0.82285,1.44296,0.38767,0.40757,1.23206,0.09194,0.69995,1.63756,0.43511,0.66866,1.25867
1473,0.09805,0.48296,1.54128,0.08572,0.53982,0.10136,0.19773,0.58811,0.49607,0.07094,0.65443,0.51283,0.29103,0.88628,0.78389,0.03977,0.50671,0.93051,0.22655,0.48521,0.95224,-0.05657,0.54212,1.5158,0.24567,0.39055,1.49023,-0.03014,0.8307,1.44321,0.39527,0.41085,1.23705,0.09586,0.70702,1.6371,0.45819,0.66992,1.22976
1474,0.09867,0.49126,1.5403,0.08869,0.54114,0.10354,0.2049,0.62884,0.51115,0.07178,0.65958,0.51384,0.28332,0.90704,0.82244,0.03972,0.50857,0.93028,0.2264,0.49226,0.95686,-0.05569,0.54966,1.51503,0.24666,0.39966,1.49085,-0.02694,0.83819,1.44312,0.40368,0.41596,1.24191,0.09923,0.71415,1.63667,0.48225,0.66756,1.20122
1475,0.09886,0.49882,1.53861,0.09194,0.54264,0.1059,0.21177,0.67069,0.52656,0.07265,0.66531,0.51485,0.27429,0.92471,0.86125,0.03947,0.5107,0.92988,0.2257,0.49938,0.9617,-0.05449,0.55659,1.51388,0.24862,0.40914,1.49025,-0.02415,0.84519,1.44289,0.41303,0.42281,1.24597,0.10199,0.72138,1.63661,0.50654,0.662,1.17402
1476,0.09868,0.50592,1.53606,0.0953,0.5443,0.10856,0.21836,0.71404,0.54315,0.07375,0.672,0.51585,0.26469,0.93901,0.90049,0.03929,0.5133,0.92922,0.22469,0.50613,0.96661,-0.05298,0.56302,1.51219,0.25209,0.41903,1.48859,-0.02161,0.85187,1.44272,0.42312,0.43117,1.24881,0.10412,0.72828,1.63684,0.52977,0.65411,1.14853
1477,0.09852,0.51299,1.53267,0.09866,0.54595,0.11145,0.22488,0.75952,0.56155,0.0751,0.6797,0.51668,0.25494,0.95019,0.93995,0.03966,0.51663,0.92827,0.22397,0.51267,0.97112,-0.05127,0.56938,1.50987,0.25703,0.4294,1.48616,-0.01888,0.85864,1.44262,0.43341,0.44048,1.25024,0.10581,0.73437,1.63698,0.55126,0.64407,1.12456
1478,0.09874,0.51994,1.5287,0.10218,0.54734,0.11438,0.23132,0.80729,0.58205,0.07653,0.68792,0.51716,0.24513,0.95868,0.97871,0.04075,0.52098,0.92717,0.2239,0.51948,0.97486,-0.04973,0.5759,1.50709,0.26302,0.44003,1.483,-0.01574,0.8656,1.44256,0.44358,0.44989,1.2502,0.1074,0.7395,1.63673,0.57139,0.63143,1.10242
1479,0.09941,0.52623,1.52454,0.10619,0.5484,0.11707,0.23729,0.857,0.60469,0.07775,0.69602,0.51715,0.23521,0.96475,1.01559,0.04229,0.52653,0.92613,0.22438,0.52679,0.97777,-0.04872,0.58216,1.50434,0.26947,0.45049,1.47889,-0.0126,0.87219,1.4425,0.45353,0.45858,1.24879,0.10909,0.74384,1.6361,0.59059,0.61597,1.08273
1480,0.10033,0.53165,1.52057,0.11074,0.54925,0.11929,0.24232,0.90837,0.62985,0.07841,0.70363,0.5165,0.22535,0.96857,1.05001,0.04404,0.53329,0.92522,0.22518,0.53445,0.98006,-0.04841,0.58742,1.50219,0.27556,0.46047,1.47384,-0.01025,0.87762,1.44238,0.46296,0.46599,1.24637,0.11078,0.74759,1.63527,0.6083,0.59784,1.06575
1481,0.10125,0.53668,1.51709,0.11544,0.54995,0.12086,0.24615,0.96111,0.65835,0.07826,0.71078,0.51508,0.21581,0.97034,1.08196,0.04601,0.54111,0.92426,0.22623,0.54225,0.98204,-0.0487,0.59132,1.50094,0.28039,0.46975,1.46821,-0.0091,0.88153,1.44214,0.47112,0.47199,1.24347,0.11236,0.75086,1.63434,0.62362,0.57744,1.05175
1482,0.1021,0.54175,1.5143,0.11978,0.55052,0.12181,0.24888,1.01431,0.69068,0.07734,0.71752,0.51292,0.20671,0.97052,1.1111,0.04834,0.5498,0.92314,0.22759,0.55013,0.98388,-0.04929,0.59409,1.5005,0.28355,0.47807,1.46252,-0.00894,0.88424,1.44188,0.47733,0.47644,1.2404,0.11377,0.7536,1.6333,0.63638,0.55553,1.04146
1483,0.10299,0.54671,1.51223,0.12355,0.55095,0.12234,0.25097,1.06668,0.72633,0.07596,0.72381,0.5103,0.19797,0.97019,1.13661,0.05102,0.55914,0.92202,0.22937,0.55849,0.98536,-0.04989,0.59609,1.50038,0.28535,0.48524,1.45713,-0.00935,0.8862,1.4417,0.48139,0.47883,1.23709,0.1148,0.75564,1.63223,0.64661,0.53326,1.03492
1484,0.1039,0.55119,1.51067,0.12688,0.5512,0.12271,0.25273,1.11752,0.76418,0.07427,0.72968,0.50747,0.18946,0.97071,1.15774,0.05395,0.56902,0.92102,0.23164,0.56804,0.98619,-0.05032,0.59725,1.50016,0.28632,0.49129,1.45219,-0.01023,0.88743,1.44157,0.48351,0.47831,1.23347,0.11513,0.75684,1.63129,0.65381,0.51129,1.03088
1485,0.10474,0.55499,1.50928,0.12992,0.55136,0.12315,0.25348,1.16724,0.80342,0.07227,0.73531,0.50459,0.18126,0.97321,1.17435,0.05692,0.57931,0.92014,0.23424,0.57927,0.9863,-0.05051,0.5973,1.49972,0.28675,0.49648,1.44783,-0.01163,0.88772,1.4415,0.48384,0.4744,1.22974,0.11479,0.75711,1.6305,0.65739,0.48938,1.02779
1486,0.10569,0.55808,1.50792,0.13265,0.55155,0.12374,0.25159,1.21659,0.84385,0.07007,0.74075,0.50182,0.17401,0.97836,1.18689,0.05955,0.58983,0.91939,0.23666,0.59221,0.98608,-0.05048,0.59622,1.49907,0.28679,0.50121,1.44416,-0.01357,0.88705,1.44163,0.48245,0.46759,1.22626,0.11431,0.75663,1.62978,0.65727,0.46701,1.02485
1487,0.10716,0.56031,1.50669,0.135,0.55197,0.12449,0.24625,1.26599,0.8854,0.06792,0.74595,0.49936,0.16857,0.98674,1.19594,0.0615,0.60031,0.91888,0.23827,0.60659,0.9862,-0.0504,0.59424,1.49821,0.28679,0.50559,1.44124,-0.01606,0.88566,1.44215,0.47976,0.45894,1.22334,0.11422,0.75597,1.62916,0.654,0.44403,1.02197
1488,0.10908,0.5614,1.50581,0.13689,0.55284,0.12539,0.23866,1.31543,0.92807,0.06605,0.75096,0.49739,0.16522,0.99879,1.20156,0.0627,0.61066,0.91877,0.23878,0.62193,0.98726,-0.05032,0.59154,1.4972,0.28735,0.50915,1.43901,-0.01924,0.88369,1.44311,0.47664,0.44913,1.22117,0.11456,0.75565,1.62876,0.64881,0.42096,1.01944
1489,0.11099,0.56107,1.50536,0.13828,0.55422,0.12648,0.23091,1.36426,0.9718,0.06448,0.75593,0.49596,0.16331,1.01454,1.20326,0.06339,0.62116,0.91915,0.23838,0.63776,0.98934,-0.05006,0.58829,1.49616,0.28881,0.51098,1.43746,-0.02311,0.88128,1.44441,0.47362,0.43804,1.2197,0.1151,0.7557,1.62851,0.64284,0.39878,1.01733
1490,0.11272,0.55899,1.50527,0.13935,0.55612,0.12781,0.22402,1.41074,1.01543,0.06307,0.76094,0.49508,0.16205,1.03357,1.20076,0.06367,0.63211,0.92012,0.23734,0.65389,0.99212,-0.04947,0.5847,1.49502,0.29101,0.51036,1.43661,-0.02744,0.87857,1.44602,0.47028,0.42524,1.21864,0.1157,0.75576,1.62822,0.63617,0.37824,1.01517
1491,0.11464,0.55515,1.50545,0.14052,0.55855,0.12941,0.21803,1.45248,1.05567,0.06177,0.76579,0.4948,0.16138,1.05518,1.19494,0.06338,0.6436,0.92179,0.23569,0.67049,0.99532,-0.04881,0.58079,1.49382,0.29359,0.50753,1.43638,-0.03192,0.8755,1.44794,0.46587,0.41079,1.21762,0.11641,0.75536,1.62774,0.6282,0.35916,1.01241
1492,0.11702,0.55004,1.5058,0.14209,0.56148,0.13117,0.21365,1.48789,1.08794,0.0606,0.7702,0.49511,0.16176,1.07821,1.18757,0.06231,0.65554,0.92418,0.2333,0.68762,0.9987,-0.04846,0.57626,1.49285,0.2964,0.50352,1.43644,-0.03646,0.87167,1.44998,0.46018,0.39552,1.21642,0.11733,0.75413,1.62689,0.61837,0.3407,1.00881
1493,0.1195,0.54444,1.50605,0.14393,0.5648,0.13297,0.21235,1.51692,1.10905,0.05958,0.7742,0.49587,0.16286,1.10106,1.18021,0.06052,0.66772,0.92705,0.23038,0.70487,1.00181,-0.0485,0.57075,1.49226,0.29929,0.499,1.43645,-0.04114,0.86665,1.45183,0.45361,0.38041,1.21505,0.1184,0.75197,1.6255,0.60673,0.3223,1.00455
1494,0.12134,0.53872,1.50588,0.14568,0.56849,0.13476,0.21436,1.54059,1.11922,0.05872,0.77816,0.49689,0.1637,1.12231,1.17332,0.05839,0.6797,0.92997,0.2274,0.72142,1.00425,-0.04868,0.56422,1.49167,0.30167,0.49358,1.43635,-0.04579,0.86049,1.45341,0.44665,0.36585,1.21374,0.11957,0.74888,1.62361,0.59388,0.30395,1.00014
1495,0.12217,0.53266,1.50515,0.14701,0.57263,0.13656,0.21813,1.56037,1.12131,0.05801,0.78238,0.49814,0.16395,1.14148,1.1666,0.05637,0.69099,0.93277,0.22473,0.73658,1.00625,-0.04864,0.55721,1.49056,0.30298,0.48657,1.43622,-0.04966,0.85383,1.45504,0.43946,0.35142,1.21261,0.12089,0.74465,1.62164,0.58053,0.28603,0.99592
1496,0.12261,0.52586,1.504,0.14773,0.57724,0.13841,0.2221,1.57773,1.11871,0.05751,0.78678,0.49981,0.16441,1.15889,1.1598,0.05463,0.70119,0.93561,0.22229,0.75007,1.00856,-0.04799,0.55031,1.48884,0.30357,0.47819,1.4359,-0.05221,0.84733,1.4571,0.43183,0.33654,1.21145,0.12247,0.73907,1.61998,0.56719,0.26907,0.99178
1497,0.12382,0.51837,1.50261,0.14788,0.58219,0.14032,0.22593,1.59372,1.11409,0.05738,0.79106,0.50204,0.16606,1.17495,1.15282,0.05299,0.71006,0.9387,0.21976,0.76201,1.01158,-0.04658,0.54358,1.48677,0.30444,0.46953,1.43517,-0.05391,0.841,1.4597,0.42351,0.32138,1.20985,0.12443,0.73248,1.61838,0.55424,0.25347,0.98753
1498,0.12626,0.5108,1.50109,0.1478,0.58728,0.14225,0.23012,1.60855,1.10925,0.05769,0.795,0.50473,0.16924,1.1897,1.14538,0.05117,0.71745,0.94199,0.21692,0.77249,1.01493,-0.04478,0.53679,1.48451,0.30609,0.46154,1.43407,-0.05575,0.83452,1.46257,0.41458,0.30708,1.20765,0.12678,0.72566,1.61619,0.54176,0.23929,0.98324
1499,0.12922,0.50384,1.49944,0.14789,0.59234,0.14412,0.23546,1.62164,1.10534,0.05845,0.79852,0.50764,0.17381,1.20254,1.13712,0.04915,0.72307,0.94521,0.21395,0.7812,1.0179,-0.04317,0.53002,1.4821,0.30802,0.45448,1.43277,-0.05816,0.82791,1.46522,0.40536,0.29486,1.20487,0.12911,0.7192,1.61314,0.52964,0.2263,0.97907
1500,0.1316,0.4978,1.49774,0.14837,0.59727,0.1458,0.24236,1.63197,1.10308,0.05941,0.8016,0.51048,0.17991,1.21254,1.12812,0.04722,0.72661,0.94807,0.21135,0.78747,1.02003,-0.04189,0.52373,1.47994,0.30947,0.44811,1.4312,-0.06085,0.8216,1.46726,0.39597,0.28499,1.20142,0.13095,0.71326,1.60953,0.51774,0.21431,0.9749
1501,0.13295,0.49247,1.49626,0.14918,0.60189,0.14715,0.25023,1.63897,1.10257,0.06019,0.80397,0.51307,0.18804,1.21908,1.11906,0.04568,0.72817,0.95045,0.20962,0.79093,1.02119,-0.04055,0.51821,1.47873,0.31019,0.44215,1.42902,-0.06333,0.81591,1.4687,0.38621,0.27701,1.19698,0.13229,0.7078,1.60585,0.50589,0.20364,0.97021
1502,0.13362,0.48737,1.49527,0.15014,0.60597,0.14808,0.25784,1.64298,1.10298,0.06049,0.80521,0.5154,0.19848,1.22242,1.11074,0.04448,0.72823,0.95251,0.20885,0.79201,1.02133,-0.03881,0.51323,1.47871,0.31033,0.43647,1.42611,-0.06521,0.81067,1.4699,0.37602,0.27061,1.19144,0.13358,0.70276,1.60258,0.49403,0.19487,0.96457
1503,0.13408,0.48206,1.49478,0.15106,0.60919,0.14859,0.26458,1.64464,1.10329,0.06036,0.80504,0.51747,0.2107,1.22328,1.10358,0.04334,0.72733,0.95442,0.20867,0.79147,1.02054,-0.03706,0.5083,1.4793,0.31006,0.43101,1.42267,-0.06632,0.8055,1.47105,0.366,0.26593,1.18495,0.13507,0.698,1.60009,0.48224,0.18846,0.95775
1504,0.13454,0.47648,1.49457,0.15188,0.61119,0.14876,0.2711,1.64425,1.10305,0.06002,0.80351,0.51921,0.22361,1.22215,1.09753,0.04204,0.72588,0.95613,0.2087,0.78973,1.01913,-0.03601,0.50326,1.47975,0.30943,0.42577,1.419,-0.06677,0.80031,1.47195,0.35708,0.26318,1.17778,0.13649,0.69338,1.5985,0.47075,0.18448,0.9497
1505,0.13495,0.47106,1.4944,0.15244,0.6116,0.14866,0.27876,1.64176,1.10209,0.05978,0.80093,0.52045,0.23623,1.2192,1.0925,0.04066,0.72432,0.9575,0.20897,0.7868,1.01741,-0.03581,0.49837,1.47979,0.30841,0.4208,1.41526,-0.06684,0.7954,1.47229,0.34989,0.26233,1.17018,0.13743,0.68891,1.59757,0.4599,0.18269,0.94065
1506,0.1352,0.46616,1.49431,0.15236,0.61028,0.14837,0.28856,1.63735,1.09985,0.05988,0.79759,0.52122,0.24783,1.21466,1.08853,0.03942,0.723,0.95856,0.2097,0.7827,1.01567,-0.03609,0.4941,1.47962,0.30685,0.41621,1.41152,-0.06674,0.79117,1.47217,0.34443,0.2632,1.16238,0.13786,0.68471,1.59693,0.44988,0.1828,0.93098
1507,0.13523,0.46158,1.49456,0.15119,0.60741,0.14785,0.30071,1.63157,1.09513,0.06049,0.7936,0.5217,0.25756,1.20909,1.08555,0.03844,0.72181,0.95944,0.21077,0.77772,1.0142,-0.0366,0.49065,1.47973,0.3047,0.41189,1.40786,-0.06646,0.78779,1.47202,0.34017,0.26548,1.15448,0.13801,0.6807,1.59647,0.44053,0.18488,0.9209
1508,0.13507,0.45704,1.49527,0.14878,0.60347,0.14693,0.31494,1.62488,1.08661,0.06171,0.78889,0.52202,0.26472,1.20308,1.0832,0.03774,0.72007,0.96014,0.21175,0.7722,1.01326,-0.03747,0.48776,1.48042,0.30228,0.40753,1.40441,-0.0659,0.78503,1.47219,0.33644,0.26878,1.14658,0.1381,0.67669,1.59633,0.43181,0.18926,0.91055
1509,0.13473,0.45268,1.4963,0.14533,0.59893,0.14532,0.33083,1.61716,1.0736,0.06354,0.78338,0.52208,0.26952,1.19688,1.08115,0.03729,0.71733,0.96049,0.21246,0.76626,1.01283,-0.03891,0.48502,1.48155,0.29993,0.40288,1.40126,-0.06509,0.78249,1.47275,0.33283,0.27265,1.13887,0.13823,0.67268,1.59673,0.42405,0.19617,0.9002
1510,0.13428,0.44899,1.49737,0.14128,0.594,0.14299,0.34784,1.60774,1.05629,0.06585,0.7772,0.52167,0.27314,1.1902,1.07935,0.03715,0.71372,0.96031,0.21315,0.75975,1.0125,-0.04068,0.48236,1.4827,0.29766,0.3981,1.39837,-0.0641,0.78004,1.47355,0.32928,0.2769,1.13153,0.13841,0.66889,1.59767,0.41745,0.20551,0.89016
1511,0.1339,0.44615,1.49833,0.13715,0.58876,0.14016,0.36528,1.5958,1.0352,0.0684,0.77066,0.52074,0.27682,1.18252,1.07795,0.03733,0.70961,0.95956,0.21416,0.75235,1.01175,-0.04217,0.48006,1.48365,0.29529,0.39367,1.39553,-0.06295,0.77793,1.4745,0.32594,0.28173,1.12456,0.1386,0.66545,1.59897,0.41174,0.21682,0.88052
1512,0.13387,0.44372,1.49922,0.13323,0.58328,0.13711,0.38241,1.58063,1.01081,0.07089,0.76392,0.51939,0.2811,1.17345,1.07707,0.03774,0.70508,0.95836,0.21559,0.7438,1.01024,-0.04285,0.47849,1.48439,0.2928,0.38992,1.39254,-0.06155,0.77652,1.47562,0.32295,0.28737,1.11783,0.13867,0.66222,1.60057,0.40646,0.22952,0.87123
1513,0.13426,0.44108,1.50009,0.12964,0.57765,0.13394,0.39907,1.56189,0.98357,0.07316,0.75696,0.51776,0.2859,1.16313,1.0765,0.03833,0.7002,0.95687,0.21736,0.73422,1.00799,-0.04266,0.47773,1.485,0.29034,0.38662,1.38955,-0.05995,0.77586,1.47695,0.32028,0.29373,1.11139,0.13852,0.65909,1.6024,0.40161,0.24338,0.86243
1514,0.13491,0.43797,1.50095,0.12657,0.57187,0.13069,0.41574,1.5397,0.95394,0.07536,0.74973,0.51592,0.29095,1.15234,1.0757,0.03906,0.6952,0.9552,0.21923,0.72424,1.00537,-0.04194,0.4774,1.4856,0.28805,0.38333,1.38677,-0.05844,0.77559,1.47836,0.3178,0.3003,1.1055,0.13817,0.65606,1.60413,0.39761,0.25849,0.85447
1515,0.13559,0.43451,1.50167,0.1242,0.56606,0.12739,0.43273,1.51453,0.92254,0.07774,0.7423,0.51396,0.29623,1.14188,1.07402,0.03985,0.69021,0.95339,0.2209,0.71454,1.00289,-0.0412,0.47689,1.48649,0.28603,0.38003,1.38425,-0.05732,0.77511,1.47968,0.31531,0.3066,1.10027,0.13784,0.65328,1.6055,0.3947,0.27474,0.84766
1516,0.13617,0.43109,1.50212,0.12267,0.56067,0.124,0.44986,1.48687,0.88987,0.0804,0.73492,0.51195,0.30179,1.13222,1.07084,0.04058,0.68521,0.95149,0.22219,0.70548,1.00076,-0.04076,0.47594,1.48785,0.2844,0.377,1.38185,-0.05655,0.77418,1.48085,0.31263,0.31252,1.0956,0.13776,0.65093,1.60662,0.39261,0.2918,0.84202
1517,0.13651,0.42804,1.50234,0.12206,0.55599,0.12053,0.4668,1.45685,0.85615,0.08335,0.72768,0.51,0.30753,1.12341,1.06568,0.04116,0.6802,0.94956,0.22311,0.69707,0.99887,-0.04064,0.4747,1.48945,0.28308,0.37446,1.37956,-0.05583,0.77296,1.48195,0.30982,0.31845,1.09139,0.13794,0.64898,1.60783,0.39109,0.30945,0.83753
1518,0.13645,0.42551,1.50241,0.12239,0.5519,0.11704,0.48287,1.42418,0.82159,0.08654,0.72048,0.50814,0.31322,1.11512,1.05856,0.0416,0.67518,0.94766,0.22379,0.68901,0.99702,-0.04069,0.47332,1.49078,0.28177,0.37241,1.37757,-0.05493,0.77162,1.48307,0.30705,0.32488,1.08775,0.13822,0.64707,1.60933,0.39008,0.32782,0.83432
1519,0.13591,0.42327,1.50236,0.12352,0.5482,0.11352,0.49719,1.38861,0.78681,0.08976,0.71324,0.50631,0.31868,1.10682,1.04984,0.042,0.66993,0.94573,0.22439,0.68083,0.99509,-0.04069,0.47169,1.4916,0.28006,0.37062,1.37599,-0.05386,0.77005,1.48414,0.30444,0.33195,1.08478,0.13852,0.64497,1.61108,0.38955,0.34694,0.83246
1520,0.13505,0.42088,1.50222,0.12509,0.54485,0.10999,0.50939,1.35055,0.75291,0.09277,0.70628,0.50439,0.32386,1.09814,1.03983,0.0424,0.66413,0.94364,0.22495,0.67226,0.99296,-0.04053,0.46971,1.49218,0.27788,0.36861,1.37464,-0.05272,0.76812,1.48501,0.30211,0.33933,1.08232,0.13894,0.64283,1.61281,0.38949,0.36644,0.8318
1521,0.13423,0.41815,1.5021,0.12663,0.54188,0.10658,0.51985,1.31074,0.7207,0.09543,0.70001,0.5024,0.32894,1.08896,1.02863,0.04262,0.65773,0.94135,0.22534,0.66333,0.99037,-0.0403,0.4676,1.49281,0.27562,0.3659,1.37336,-0.05153,0.76604,1.4856,0.30014,0.34642,1.08025,0.13964,0.64087,1.61424,0.38999,0.38564,0.83222
1522,0.13376,0.4155,1.50207,0.12782,0.53916,0.10342,0.52897,1.26943,0.68994,0.09773,0.69449,0.50044,0.33428,1.07923,1.01608,0.04249,0.65113,0.93899,0.22547,0.65416,0.98726,-0.04027,0.46577,1.49345,0.27378,0.3624,1.37215,-0.05007,0.76426,1.486,0.29858,0.35286,1.07858,0.14063,0.63901,1.61527,0.39105,0.40407,0.83371
1523,0.13363,0.41346,1.50208,0.12858,0.53649,0.1005,0.53648,1.22648,0.65975,0.09962,0.6894,0.49854,0.34034,1.06881,1.00198,0.04218,0.64491,0.93669,0.2255,0.64474,0.98376,-0.04061,0.46445,1.49393,0.27236,0.35852,1.37114,-0.04811,0.76301,1.48642,0.2974,0.3587,1.07743,0.14184,0.63693,1.61599,0.39237,0.42187,0.83635
1524,0.13359,0.412,1.50212,0.12885,0.53387,0.0977,0.54154,1.18198,0.62942,0.10098,0.68448,0.49669,0.34737,1.05744,0.98613,0.04195,0.63923,0.93455,0.22561,0.63496,0.98006,-0.04124,0.46357,1.49428,0.27086,0.35482,1.37044,-0.04567,0.7622,1.48706,0.29647,0.3643,1.07693,0.1432,0.63436,1.61649,0.39352,0.43946,0.84015
1525,0.13337,0.41069,1.50224,0.12849,0.53162,0.09512,0.54363,1.13633,0.59892,0.10187,0.67978,0.49512,0.35484,1.04517,0.96838,0.04165,0.63368,0.93273,0.22566,0.62493,0.97614,-0.04182,0.46292,1.49459,0.26894,0.3517,1.37011,-0.04309,0.76159,1.48788,0.29565,0.37006,1.07712,0.14454,0.63142,1.6168,0.39437,0.45698,0.84511
1526,0.13285,0.4092,1.50246,0.12733,0.53005,0.093,0.54307,1.08962,0.56879,0.10247,0.67547,0.49412,0.36153,1.03271,0.9486,0.04087,0.6278,0.93137,0.22532,0.61527,0.97191,-0.04211,0.4623,1.49479,0.26676,0.34915,1.37014,-0.04075,0.76097,1.48857,0.29476,0.37603,1.07793,0.14564,0.62857,1.61699,0.39526,0.47425,0.85125
1527,0.13205,0.40756,1.50271,0.12523,0.52919,0.0914,0.54081,1.0416,0.53993,0.10276,0.67163,0.49372,0.36672,1.02073,0.92685,0.03949,0.62168,0.93048,0.22454,0.6066,0.96727,-0.04206,0.46155,1.49481,0.26458,0.34674,1.37035,-0.03882,0.76021,1.48877,0.29377,0.38187,1.07913,0.14638,0.62619,1.61724,0.39658,0.49103,0.85857
1528,0.13113,0.40584,1.50293,0.12229,0.52883,0.09011,0.53763,0.99234,0.51309,0.10256,0.66815,0.49367,0.37119,1.00883,0.90357,0.03794,0.61583,0.92995,0.22361,0.59882,0.96246,-0.04181,0.46064,1.49475,0.26239,0.34396,1.3706,-0.03697,0.75928,1.48845,0.29298,0.38722,1.08062,0.14708,0.62436,1.61764,0.39839,0.50696,0.86689
1529,0.1304,0.40413,1.50305,0.11898,0.52861,0.08881,0.53333,0.94239,0.48824,0.10188,0.66457,0.49363,0.37645,0.99574,0.87938,0.03679,0.61045,0.92962,0.22293,0.59127,0.95805,-0.0416,0.45964,1.49485,0.26016,0.34077,1.37098,-0.03468,0.75822,1.4879,0.2928,0.39198,1.08253,0.14835,0.62296,1.61817,0.40059,0.52174,0.87595
1530,0.13011,0.40242,1.50306,0.11592,0.52812,0.08724,0.52714,0.89261,0.46485,0.10098,0.66045,0.49335,0.38316,0.98043,0.85473,0.03645,0.60527,0.92929,0.22275,0.58336,0.95452,-0.04153,0.45865,1.49515,0.2582,0.33755,1.37178,-0.0319,0.75713,1.48735,0.2933,0.39601,1.085,0.15024,0.62176,1.61874,0.40307,0.53524,0.88575
1531,0.13026,0.40068,1.50308,0.11327,0.52717,0.08528,0.51879,0.84363,0.44267,0.10023,0.65579,0.49264,0.39066,0.96273,0.82977,0.03691,0.59999,0.92868,0.22308,0.57493,0.95179,-0.04135,0.45776,1.49542,0.25688,0.33461,1.37317,-0.02906,0.75612,1.48682,0.29413,0.39898,1.08793,0.15207,0.62047,1.61931,0.40574,0.54753,0.8966
1532,0.1306,0.3989,1.50321,0.11091,0.526,0.08302,0.50871,0.79556,0.42196,0.09982,0.65085,0.49161,0.39778,0.94311,0.80455,0.03777,0.59474,0.92779,0.22362,0.56621,0.94935,-0.04073,0.4571,1.49542,0.25618,0.33194,1.37508,-0.02633,0.75535,1.48619,0.295,0.40101,1.09115,0.15338,0.61891,1.61981,0.40854,0.55887,0.9086
1533,0.13098,0.39721,1.5034,0.10899,0.52484,0.0808,0.4971,0.74831,0.40305,0.09969,0.64587,0.49058,0.40367,0.92222,0.77918,0.03852,0.59002,0.92692,0.22392,0.55758,0.94678,-0.03976,0.45671,1.49522,0.25584,0.32934,1.37714,-0.02339,0.75483,1.4853,0.29585,0.40284,1.09449,0.15443,0.61715,1.62017,0.41149,0.56947,0.92131
1534,0.13147,0.39566,1.50357,0.10793,0.52379,0.07905,0.48382,0.70221,0.38606,0.09962,0.64121,0.4899,0.40795,0.90051,0.75399,0.03898,0.58619,0.92642,0.22378,0.54939,0.94413,-0.03895,0.4565,1.49508,0.25569,0.3267,1.37897,-0.01998,0.75443,1.48404,0.29668,0.40476,1.09769,0.1557,0.61538,1.6203,0.41457,0.57923,0.934
1535,0.13212,0.39397,1.50374,0.10785,0.52298,0.07809,0.46899,0.65791,0.37078,0.09947,0.6374,0.48978,0.41063,0.878,0.72939,0.03929,0.58294,0.92644,0.22335,0.54165,0.94188,-0.0386,0.45634,1.49526,0.25569,0.32404,1.38043,-0.01624,0.75397,1.48251,0.29727,0.40594,1.10033,0.15739,0.6137,1.62014,0.41736,0.58767,0.94643
1536,0.1328,0.39175,1.50417,0.10833,0.52266,0.07793,0.4532,0.61561,0.35663,0.09943,0.63483,0.49024,0.41219,0.85416,0.70572,0.03966,0.57958,0.92685,0.22287,0.53405,0.94034,-0.03833,0.45608,1.49579,0.25573,0.32125,1.38158,-0.01252,0.75334,1.48095,0.29746,0.40565,1.10224,0.15936,0.61195,1.61963,0.41951,0.59463,0.959
1537,0.13333,0.38893,1.50509,0.10877,0.52283,0.07829,0.43691,0.57495,0.34293,0.0998,0.63317,0.49109,0.41333,0.82836,0.68304,0.04013,0.57573,0.92743,0.22244,0.52628,0.93928,-0.03756,0.45564,1.49652,0.25582,0.31824,1.38251,-0.00901,0.75253,1.47943,0.29754,0.40418,1.10365,0.16138,0.61002,1.61879,0.42133,0.60044,0.97215
1538,0.13374,0.38609,1.50641,0.10886,0.52322,0.07875,0.42021,0.53558,0.32942,0.10065,0.6317,0.49206,0.41411,0.80073,0.66124,0.04066,0.57158,0.928,0.222,0.51836,0.93822,-0.03615,0.45502,1.49745,0.25623,0.31528,1.38348,-0.00573,0.75155,1.4777,0.29806,0.40231,1.10496,0.16324,0.60811,1.61783,0.42353,0.60531,0.98589
1539,0.13435,0.38385,1.50783,0.10863,0.52354,0.07907,0.40311,0.49761,0.31631,0.10174,0.63003,0.49291,0.41363,0.77213,0.64032,0.04127,0.56753,0.92845,0.22153,0.51048,0.93696,-0.03439,0.45427,1.49868,0.25721,0.31274,1.38486,-0.00257,0.75041,1.47559,0.29937,0.40038,1.10659,0.16494,0.60661,1.61709,0.42641,0.60929,1.00006
1540,0.1355,0.3823,1.50913,0.1082,0.52365,0.0793,0.38571,0.46132,0.30389,0.10272,0.62838,0.49362,0.41095,0.74337,0.62053,0.04205,0.56361,0.9288,0.22105,0.5025,0.9356,-0.03252,0.45346,1.50022,0.25855,0.31051,1.38683,0.00057,0.74914,1.47328,0.3014,0.39838,1.10874,0.16664,0.6056,1.61674,0.42967,0.61242,1.0146
1541,0.13723,0.38112,1.51034,0.10769,0.52359,0.07967,0.36828,0.42678,0.29222,0.10348,0.62704,0.49433,0.40623,0.71456,0.60237,0.04303,0.55943,0.9291,0.22054,0.49398,0.93437,-0.03052,0.45261,1.50201,0.25979,0.30797,1.38924,0.00363,0.74779,1.47114,0.30381,0.39611,1.11141,0.16845,0.60475,1.61653,0.4331,0.61454,1.02954
1542,0.13929,0.37995,1.51156,0.10718,0.52342,0.08023,0.35117,0.3939,0.2812,0.10437,0.62596,0.49512,0.40065,0.6853,0.58631,0.04412,0.55463,0.92932,0.21991,0.48462,0.93331,-0.02829,0.45175,1.50391,0.26065,0.30455,1.39185,0.00642,0.74643,1.46924,0.30629,0.39304,1.1144,0.17042,0.6038,1.61596,0.43668,0.61503,1.04478
1543,0.14146,0.37853,1.51288,0.10666,0.52318,0.08082,0.33464,0.36273,0.2707,0.10581,0.62487,0.49593,0.39519,0.65551,0.57247,0.04513,0.54932,0.92936,0.21897,0.47453,0.9324,-0.02574,0.45098,1.50569,0.26121,0.30012,1.39461,0.00886,0.74522,1.46733,0.30869,0.38849,1.11744,0.17253,0.60286,1.61467,0.44,0.61345,1.06012
1544,0.14365,0.37669,1.51438,0.10617,0.52292,0.08128,0.31886,0.33361,0.26058,0.10791,0.62352,0.49665,0.38993,0.62565,0.56076,0.04598,0.544,0.92919,0.21755,0.46413,0.93164,-0.02272,0.45044,1.50716,0.26165,0.2951,1.39747,0.01121,0.74426,1.46518,0.31111,0.38242,1.1203,0.17481,0.60221,1.6129,0.44224,0.61025,1.07523
1545,0.14599,0.37447,1.51607,0.10575,0.52259,0.08159,0.30387,0.30682,0.25059,0.11041,0.62164,0.49732,0.38441,0.59629,0.55088,0.04675,0.53918,0.92906,0.21566,0.45382,0.93111,-0.0192,0.45015,1.50846,0.26215,0.2901,1.40018,0.01395,0.74351,1.46275,0.31366,0.37562,1.12282,0.17731,0.60191,1.61117,0.44297,0.60651,1.08969
1546,0.14866,0.37207,1.5179,0.10534,0.52218,0.08188,0.28947,0.28229,0.24047,0.11297,0.61892,0.4981,0.37815,0.56772,0.54232,0.04774,0.53495,0.92932,0.21365,0.44388,0.93085,-0.01553,0.45,1.51003,0.26288,0.28554,1.40247,0.01736,0.74269,1.46009,0.31639,0.36892,1.12484,0.18007,0.60172,1.60982,0.44268,0.60284,1.10323
1547,0.15184,0.36971,1.51977,0.10485,0.52177,0.08225,0.27535,0.25982,0.23003,0.1154,0.61536,0.49913,0.37094,0.54002,0.53466,0.04913,0.53094,0.9301,0.21191,0.43438,0.93077,-0.0121,0.44989,1.51214,0.26392,0.28143,1.40432,0.02148,0.74158,1.45708,0.31937,0.36239,1.12635,0.18294,0.6013,1.60879,0.44231,0.59884,1.11585
1548,0.15547,0.3676,1.52155,0.10451,0.5215,0.08265,0.26151,0.23913,0.21924,0.11773,0.61138,0.50027,0.36307,0.51299,0.52769,0.0508,0.52671,0.93109,0.21053,0.42517,0.93065,-0.00892,0.44985,1.5146,0.26517,0.27749,1.40604,0.02622,0.74019,1.4536,0.3226,0.35535,1.12759,0.18588,0.6006,1.60784,0.4427,0.59348,1.12764
1549,0.15912,0.36614,1.52313,0.10473,0.52136,0.08291,0.24825,0.22001,0.20817,0.12023,0.60745,0.50124,0.35497,0.48639,0.52138,0.05252,0.5221,0.93181,0.20932,0.41612,0.93029,-0.00556,0.45005,1.51699,0.26643,0.27338,1.40796,0.03134,0.73876,1.44966,0.32586,0.34719,1.12883,0.18901,0.59994,1.60662,0.44433,0.58593,1.13871
1550,0.16235,0.36561,1.52442,0.10568,0.52117,0.08293,0.23592,0.20251,0.19686,0.12317,0.60359,0.50193,0.34672,0.46035,0.51575,0.05413,0.51715,0.93206,0.20811,0.40712,0.92964,-0.00152,0.45054,1.51904,0.26765,0.26888,1.41015,0.0365,0.73754,1.44534,0.32892,0.33779,1.13017,0.19241,0.59967,1.60487,0.44737,0.57601,1.14904
1551,0.16525,0.36557,1.52552,0.10702,0.52081,0.08286,0.22474,0.1868,0.18545,0.12645,0.59959,0.50247,0.33803,0.43535,0.51078,0.05573,0.51185,0.93207,0.20692,0.39804,0.92884,0.00341,0.45122,1.52072,0.26878,0.26405,1.41242,0.04139,0.7365,1.44059,0.33174,0.32735,1.13149,0.19588,0.5999,1.60258,0.4515,0.56411,1.15855
1552,0.1683,0.36505,1.52665,0.10816,0.52024,0.08287,0.21458,0.17289,0.17433,0.12959,0.59539,0.50304,0.3286,0.41181,0.50654,0.0575,0.50621,0.93212,0.20573,0.38859,0.92811,0.00897,0.45185,1.52208,0.26965,0.25901,1.41461,0.04603,0.73533,1.43541,0.33437,0.31614,1.13276,0.19933,0.60042,1.59992,0.45608,0.55094,1.1672
1553,0.17181,0.36348,1.52784,0.1088,0.51966,0.08298,0.20506,0.16057,0.16405,0.1323,0.59129,0.50367,0.31853,0.3898,0.50321,0.05953,0.50036,0.93226,0.20437,0.37862,0.92771,0.01457,0.45228,1.52324,0.27007,0.25373,1.41665,0.05075,0.73377,1.42995,0.33687,0.30447,1.13406,0.20312,0.60095,1.597,0.46044,0.53722,1.17517
1554,0.17571,0.36094,1.52898,0.10917,0.51929,0.08323,0.19589,0.14959,0.15501,0.13473,0.58755,0.50435,0.30828,0.36909,0.5009,0.06171,0.49449,0.93244,0.20269,0.36829,0.92776,0.01983,0.45256,1.52428,0.27007,0.24813,1.4185,0.05577,0.73178,1.42433,0.33933,0.29254,1.13544,0.20762,0.6013,1.59368,0.46407,0.52348,1.18271
1555,0.17964,0.35786,1.52999,0.10975,0.51915,0.08366,0.18707,0.13956,0.14718,0.13723,0.58401,0.5052,0.29815,0.34936,0.49946,0.06392,0.48873,0.93275,0.20072,0.35802,0.92816,0.02487,0.45279,1.52528,0.27004,0.24244,1.4201,0.06098,0.72938,1.41832,0.34187,0.2804,1.13674,0.21264,0.60143,1.58977,0.46675,0.50996,1.18997
1556,0.18331,0.35481,1.53091,0.11071,0.51897,0.08425,0.17871,0.13008,0.1402,0.13984,0.5802,0.50622,0.28803,0.33044,0.49846,0.06627,0.48308,0.93331,0.19881,0.34804,0.92868,0.03025,0.45295,1.52624,0.27049,0.23701,1.42139,0.06607,0.72648,1.41158,0.34446,0.26805,1.13774,0.21757,0.60139,1.58526,0.4686,0.49661,1.19675
1557,0.18671,0.35219,1.53166,0.11185,0.51856,0.08478,0.17094,0.12103,0.13378,0.14234,0.57575,0.50722,0.27779,0.31246,0.49763,0.06891,0.47735,0.93405,0.1972,0.33828,0.92913,0.03636,0.45295,1.52694,0.27152,0.23172,1.4223,0.07099,0.72308,1.40415,0.3468,0.25552,1.13829,0.2221,0.60116,1.58041,0.47007,0.48309,1.20269
1558,0.19017,0.34991,1.53208,0.1129,0.51802,0.08511,0.16397,0.11263,0.1279,0.14457,0.57083,0.50803,0.26769,0.29577,0.49689,0.07159,0.47136,0.93469,0.1958,0.32865,0.92945,0.04296,0.45277,1.52713,0.27269,0.22603,1.42283,0.07601,0.71942,1.39654,0.34856,0.24268,1.13847,0.22643,0.60077,1.57559,0.47177,0.46889,1.20759
1559,0.19397,0.34752,1.53219,0.11372,0.51746,0.08532,0.15802,0.10526,0.12261,0.14666,0.56587,0.50868,0.25823,0.28066,0.4963,0.07381,0.465,0.93502,0.19442,0.31923,0.92965,0.0494,0.4525,1.52674,0.2734,0.21955,1.42323,0.08142,0.71581,1.38931,0.34968,0.22929,1.13866,0.23102,0.60025,1.57105,0.47397,0.45375,1.21146
1560,0.19811,0.34461,1.53217,0.11428,0.51677,0.08564,0.15312,0.09928,0.11774,0.14868,0.56115,0.50932,0.24976,0.26717,0.4958,0.07521,0.45821,0.93506,0.19294,0.31012,0.92971,0.0552,0.45214,1.52592,0.27361,0.21246,1.42381,0.08718,0.71225,1.38252,0.35041,0.21524,1.13923,0.23602,0.59964,1.56671,0.4766,0.43785,1.21443
1561,0.20233,0.34116,1.53214,0.11468,0.51588,0.08613,0.14919,0.09481,0.11311,0.15045,0.55654,0.51007,0.24235,0.25514,0.4953,0.07578,0.45094,0.93495,0.19132,0.30113,0.92962,0.06036,0.45154,1.52482,0.27363,0.20521,1.42464,0.09299,0.70838,1.37577,0.35113,0.20065,1.14027,0.24105,0.59872,1.56237,0.47941,0.42162,1.21676
1562,0.20634,0.33736,1.53209,0.11503,0.51496,0.08661,0.14615,0.09162,0.10872,0.15171,0.55184,0.51082,0.23604,0.24436,0.49478,0.07584,0.4433,0.93475,0.18957,0.29211,0.92942,0.06521,0.45061,1.52354,0.27376,0.19823,1.4255,0.09863,0.70388,1.36866,0.35184,0.18579,1.14152,0.24563,0.59712,1.55777,0.48202,0.4054,1.21872
1563,0.20997,0.33338,1.53208,0.11543,0.51422,0.08683,0.14392,0.0893,0.10471,0.15243,0.54703,0.51134,0.23084,0.2346,0.49431,0.07582,0.43567,0.9344,0.18783,0.2832,0.92921,0.06991,0.44946,1.52221,0.27417,0.19177,1.42622,0.10416,0.69872,1.36114,0.35214,0.17085,1.14272,0.24973,0.59469,1.55286,0.48429,0.38911,1.22038
1564,0.21324,0.32933,1.53219,0.11587,0.51371,0.0867,0.14231,0.08751,0.1012,0.15277,0.54233,0.51153,0.22655,0.22563,0.49398,0.07595,0.42837,0.93386,0.18639,0.27474,0.9291,0.0743,0.44824,1.5209,0.27493,0.18585,1.42697,0.10976,0.69313,1.35351,0.35158,0.15589,1.14391,0.25372,0.5916,1.54776,0.48647,0.37248,1.22153
1565,0.21629,0.32527,1.53233,0.1162,0.51336,0.08641,0.14114,0.08606,0.09814,0.15291,0.53791,0.51151,0.22282,0.21736,0.49379,0.07629,0.42157,0.93323,0.18533,0.26693,0.9291,0.07818,0.44692,1.51962,0.2759,0.18017,1.42795,0.11544,0.68718,1.34602,0.35012,0.14098,1.14538,0.25794,0.58808,1.54259,0.48862,0.35564,1.22198
1566,0.21914,0.32112,1.53232,0.11632,0.51313,0.08616,0.14026,0.08497,0.0954,0.15293,0.53374,0.51148,0.2195,0.2098,0.49363,0.07678,0.4153,0.9327,0.1845,0.25971,0.92911,0.08163,0.44527,1.51836,0.27666,0.17422,1.42916,0.1209,0.68065,1.33864,0.34805,0.12644,1.14718,0.26228,0.58413,1.53728,0.49034,0.3393,1.22185
1567,0.22173,0.31679,1.53215,0.11627,0.51302,0.08606,0.13944,0.08426,0.09291,0.15284,0.52974,0.51155,0.21663,0.20293,0.49342,0.07732,0.40937,0.93233,0.18372,0.25287,0.92905,0.08499,0.44303,1.51701,0.27693,0.16764,1.43044,0.12583,0.6734,1.33124,0.34577,0.11265,1.14914,0.26639,0.57985,1.53188,0.49134,0.32409,1.22149
1568,0.22411,0.31223,1.53197,0.11627,0.51298,0.08609,0.13851,0.08383,0.09071,0.1526,0.52584,0.51173,0.21427,0.19666,0.49318,0.07789,0.40355,0.93211,0.18304,0.24621,0.92898,0.08848,0.44018,1.51549,0.27682,0.16053,1.43176,0.13032,0.66564,1.32401,0.34346,0.09975,1.15112,0.27013,0.5754,1.52668,0.49187,0.30997,1.22123
1569,0.22649,0.3076,1.53192,0.11646,0.5129,0.08626,0.13747,0.08344,0.08894,0.15219,0.52199,0.51205,0.21236,0.19091,0.49304,0.07855,0.39775,0.93205,0.1825,0.23961,0.92903,0.09208,0.43687,1.51386,0.27661,0.15333,1.43313,0.13459,0.65781,1.31734,0.34105,0.08762,1.15309,0.27368,0.57082,1.52191,0.49217,0.29657,1.22119
1570,0.22892,0.30308,1.53202,0.11678,0.51272,0.08659,0.13644,0.083,0.08764,0.15156,0.51821,0.51252,0.21076,0.18566,0.49309,0.0793,0.39196,0.93215,0.18201,0.23302,0.9293,0.09556,0.43332,1.51226,0.27641,0.14659,1.43453,0.13853,0.65025,1.31141,0.33844,0.07612,1.1551,0.27718,0.56613,1.51748,0.49209,0.28381,1.22134
1571,0.23119,0.29878,1.53221,0.11704,0.51255,0.08702,0.13551,0.08258,0.0867,0.15064,0.51466,0.51307,0.20941,0.18091,0.49329,0.08006,0.38615,0.93231,0.18156,0.22642,0.92977,0.09862,0.42973,1.5108,0.2763,0.1407,1.43595,0.14184,0.6429,1.30601,0.33576,0.06524,1.15727,0.28046,0.56157,1.51323,0.4915,0.27194,1.22169
1572,0.23302,0.29469,1.53246,0.1172,0.51241,0.08742,0.13478,0.08223,0.08592,0.1494,0.51145,0.51359,0.20831,0.17658,0.49353,0.08084,0.38032,0.93235,0.18128,0.21992,0.93027,0.10093,0.42617,1.50953,0.27645,0.13566,1.43746,0.1445,0.63552,1.30091,0.33331,0.05514,1.15966,0.28334,0.55725,1.50915,0.49067,0.26116,1.22233
1573,0.23436,0.29073,1.53274,0.11735,0.51222,0.08776,0.13428,0.08186,0.0852,0.14805,0.50858,0.51402,0.20751,0.17254,0.4937,0.08171,0.37449,0.9322,0.18141,0.21362,0.93072,0.10242,0.42245,1.50844,0.27703,0.1309,1.43907,0.1467,0.62786,1.29609,0.33129,0.04595,1.16206,0.28581,0.55295,1.50537,0.48996,0.25138,1.22332
1574,0.23541,0.28675,1.53304,0.1176,0.51189,0.08814,0.13397,0.08128,0.0846,0.1469,0.50594,0.51448,0.20699,0.16859,0.49386,0.08266,0.36863,0.93194,0.18206,0.20757,0.93114,0.10352,0.41828,1.50748,0.27806,0.1258,1.44066,0.14853,0.61982,1.2916,0.32958,0.03757,1.16416,0.28784,0.54838,1.50197,0.48943,0.24233,1.22461
1575,0.23644,0.28265,1.53334,0.11795,0.51156,0.08873,0.13376,0.08042,0.08417,0.14605,0.50336,0.51511,0.20663,0.16456,0.49413,0.08365,0.36266,0.93172,0.18319,0.20168,0.93165,0.1048,0.4135,1.50659,0.27926,0.12028,1.44213,0.14995,0.61141,1.28742,0.32803,0.02978,1.16585,0.28929,0.54352,1.49894,0.4887,0.23393,1.2262
1576,0.23746,0.27842,1.53359,0.1184,0.51147,0.08959,0.13355,0.07945,0.08389,0.14532,0.50065,0.51599,0.2063,0.16035,0.49452,0.08467,0.35669,0.93174,0.18466,0.19599,0.93226,0.10642,0.40839,1.50573,0.28042,0.11479,1.44338,0.15097,0.6029,1.28341,0.3267,0.02251,1.16727,0.29008,0.53856,1.49619,0.48741,0.22647,1.22811
1577,0.23834,0.27419,1.53374,0.11902,0.5117,0.09062,0.13332,0.0786,0.08365,0.14445,0.49779,0.51702,0.20598,0.15606,0.49496,0.08577,0.351,0.93207,0.1863,0.19064,0.93287,0.10808,0.40348,1.50498,0.28149,0.10984,1.44442,0.15167,0.59463,1.27957,0.32572,0.01585,1.16856,0.29031,0.53369,1.49365,0.48546,0.2203,1.2303
1578,0.23906,0.27003,1.53381,0.11984,0.51207,0.0917,0.13316,0.0779,0.08346,0.14331,0.49504,0.5181,0.20568,0.15201,0.49541,0.08704,0.34573,0.93258,0.18799,0.18564,0.93348,0.10937,0.39898,1.5045,0.28251,0.10556,1.44534,0.15211,0.58672,1.27608,0.32505,0.00996,1.16976,0.29026,0.52898,1.49136,0.48302,0.21545,1.23261
1579,0.23975,0.26582,1.534,0.12071,0.5123,0.09278,0.13305,0.07725,0.0834,0.14201,0.4926,0.51918,0.20535,0.14845,0.4959,0.08854,0.34081,0.93313,0.18967,0.18083,0.93415,0.11011,0.39456,1.50429,0.28334,0.1017,1.44622,0.1524,0.57894,1.27307,0.32447,0.0049,1.17084,0.29017,0.52434,1.48941,0.48033,0.21161,1.23494
1580,0.24045,0.26142,1.53452,0.12155,0.51225,0.09381,0.13289,0.07657,0.08351,0.14077,0.49037,0.5202,0.20496,0.1453,0.49647,0.09017,0.33612,0.9336,0.19132,0.17615,0.93489,0.1104,0.38983,1.50417,0.2838,0.09784,1.44711,0.15263,0.57107,1.27046,0.32383,0.00062,1.17172,0.29009,0.51973,1.4878,0.47769,0.20836,1.23727
1581,0.24108,0.25686,1.53536,0.12244,0.51208,0.09468,0.13261,0.07588,0.08371,0.13975,0.4881,0.52104,0.2046,0.14216,0.49708,0.09177,0.33158,0.9339,0.193,0.17168,0.93566,0.11049,0.3849,1.50398,0.28399,0.09369,1.44801,0.15278,0.56323,1.26807,0.32314,-0.00302,1.17232,0.28989,0.51528,1.48639,0.47534,0.2054,1.23961
1582,0.24171,0.25225,1.53621,0.12344,0.51205,0.09541,0.13226,0.0752,0.08392,0.1389,0.48574,0.5217,0.20421,0.13878,0.49772,0.09319,0.32716,0.93403,0.19481,0.16751,0.9364,0.11055,0.38015,1.5038,0.28427,0.0892,1.44896,0.15269,0.55578,1.26584,0.32254,-0.00611,1.17265,0.28944,0.51113,1.48509,0.47314,0.2028,1.24197
1583,0.24256,0.2476,1.53682,0.1244,0.51227,0.09613,0.13198,0.07459,0.08409,0.13812,0.48347,0.52232,0.20366,0.1353,0.49837,0.09442,0.3229,0.9341,0.1967,0.16368,0.93712,0.11066,0.37575,1.50377,0.28486,0.08455,1.44995,0.15228,0.54884,1.26387,0.32227,-0.00873,1.17284,0.28866,0.50722,1.48394,0.47073,0.20096,1.2444
1584,0.24359,0.24292,1.53722,0.12511,0.51262,0.09701,0.13181,0.07399,0.0842,0.13735,0.48136,0.52308,0.20283,0.13204,0.49897,0.0956,0.31892,0.93432,0.19849,0.1601,0.93777,0.11081,0.37164,1.50401,0.28562,0.08008,1.4509,0.1516,0.54232,1.26224,0.32261,-0.01088,1.17295,0.28752,0.50331,1.48308,0.46797,0.20013,1.24697
1585,0.24446,0.23832,1.53768,0.12553,0.51296,0.09806,0.13169,0.07329,0.08419,0.13667,0.47936,0.52398,0.20177,0.12918,0.49942,0.09683,0.31524,0.93475,0.20011,0.15668,0.93828,0.11093,0.3678,1.5045,0.28629,0.07601,1.45168,0.15063,0.53616,1.26093,0.32358,-0.01256,1.17301,0.28605,0.49926,1.48244,0.46515,0.20007,1.24965
1586,0.24481,0.23397,1.53831,0.12567,0.51325,0.09916,0.13158,0.07249,0.0841,0.13627,0.47731,0.52489,0.20052,0.12663,0.49975,0.09818,0.31182,0.93528,0.20164,0.15337,0.93865,0.11093,0.36412,1.50511,0.28678,0.07227,1.4523,0.14933,0.53042,1.25993,0.32482,-0.01379,1.17294,0.28435,0.49522,1.48195,0.46278,0.2002,1.25235
1587,0.24463,0.22998,1.53897,0.12556,0.51342,0.10018,0.13151,0.07174,0.08399,0.13626,0.47519,0.52571,0.19918,0.12424,0.50006,0.09965,0.3086,0.93579,0.2032,0.1502,0.93899,0.11078,0.36026,1.50565,0.28711,0.06868,1.45281,0.14779,0.52501,1.2592,0.32595,-0.01455,1.17271,0.28247,0.49149,1.48169,0.46102,0.20016,1.25508
1588,0.24415,0.22625,1.53951,0.12524,0.51339,0.10106,0.13153,0.07125,0.08392,0.13656,0.47308,0.52639,0.19792,0.1219,0.50042,0.10115,0.30552,0.93617,0.20477,0.14718,0.93937,0.11054,0.35593,1.50604,0.28742,0.06525,1.45322,0.14616,0.51966,1.25871,0.32713,-0.01482,1.17232,0.28044,0.4883,1.48176,0.45954,0.20019,1.25814
1589,0.24363,0.22262,1.53999,0.12486,0.51316,0.10179,0.13163,0.07106,0.08389,0.13696,0.4711,0.52693,0.19682,0.11958,0.50084,0.10261,0.30252,0.93639,0.20635,0.14426,0.93976,0.1104,0.35126,1.50641,0.28792,0.0621,1.45346,0.14442,0.5143,1.2584,0.32879,-0.01464,1.1718,0.27832,0.48563,1.48204,0.45793,0.20067,1.26179
1590,0.24316,0.21905,1.54049,0.12457,0.51279,0.10245,0.13177,0.07101,0.08387,0.13727,0.46923,0.52742,0.19585,0.11717,0.50126,0.10399,0.29948,0.93648,0.20795,0.14137,0.94015,0.11048,0.34667,1.50684,0.28872,0.05913,1.45359,0.14255,0.50912,1.2582,0.33102,-0.01412,1.17121,0.27627,0.48322,1.48228,0.4561,0.20159,1.26584
1591,0.24281,0.21548,1.54101,0.12444,0.5124,0.10312,0.13188,0.07097,0.08382,0.13743,0.46735,0.52793,0.19493,0.11459,0.50164,0.10523,0.29636,0.93656,0.20958,0.13851,0.94047,0.11069,0.34227,1.50724,0.28961,0.05614,1.4537,0.14058,0.50434,1.25807,0.33347,-0.0134,1.17063,0.27441,0.4807,1.48234,0.45415,0.20274,1.26989
1592,0.24267,0.21186,1.54146,0.12439,0.51206,0.10383,0.13187,0.07083,0.08371,0.13747,0.46537,0.52846,0.19402,0.11195,0.50192,0.10634,0.29325,0.93669,0.21125,0.13577,0.94065,0.11076,0.33783,1.50743,0.2904,0.05312,1.4538,0.13846,0.49999,1.25807,0.33593,-0.01248,1.17004,0.27272,0.47791,1.48224,0.45217,0.20399,1.27377
1593,0.24274,0.20828,1.54184,0.12439,0.51177,0.10446,0.13171,0.07045,0.0835,0.13755,0.46337,0.52889,0.19314,0.10939,0.50202,0.10737,0.29028,0.93679,0.21294,0.13324,0.94065,0.11051,0.33315,1.50739,0.29108,0.0503,1.45377,0.1361,0.496,1.25825,0.33854,-0.01125,1.16943,0.27095,0.47499,1.48217,0.45016,0.20547,1.2776
1594,0.24278,0.20487,1.54225,0.12437,0.51148,0.10491,0.13149,0.06986,0.08319,0.13777,0.46154,0.52915,0.19238,0.10688,0.50196,0.10836,0.28748,0.9367,0.21469,0.13095,0.94046,0.10996,0.32832,1.50724,0.29172,0.04788,1.45356,0.13366,0.49219,1.25859,0.34155,-0.00972,1.16879,0.2689,0.47212,1.48235,0.44817,0.20724,1.28145
1595,0.24255,0.20167,1.54275,0.12431,0.51125,0.1052,0.13134,0.06924,0.08283,0.13818,0.45991,0.52926,0.19179,0.10432,0.50183,0.10925,0.28484,0.93641,0.21652,0.12895,0.94017,0.10926,0.32357,1.50713,0.29236,0.04577,1.45319,0.13133,0.48828,1.25888,0.34501,-0.00801,1.16818,0.26654,0.46937,1.48277,0.44635,0.20912,1.28529
1596,0.24206,0.19859,1.54325,0.12425,0.51111,0.10552,0.13135,0.06866,0.08254,0.13871,0.4583,0.52938,0.19137,0.10179,0.50176,0.11,0.28228,0.93613,0.21841,0.12719,0.93992,0.10852,0.31918,1.50705,0.29312,0.04375,1.45278,0.12885,0.48434,1.25895,0.34875,-0.00621,1.16765,0.2639,0.4668,1.48304,0.44478,0.21093,1.28914
1597,0.24152,0.1957,1.54357,0.1243,0.51103,0.10597,0.13147,0.06813,0.08239,0.13936,0.45652,0.52959,0.19106,0.0995,0.50181,0.1107,0.27976,0.93602,0.22028,0.12549,0.93979,0.10767,0.31541,1.50684,0.29416,0.04159,1.45252,0.12583,0.48083,1.25875,0.35251,-0.00418,1.16723,0.26102,0.46449,1.48285,0.44331,0.21275,1.29304
1598,0.24112,0.19312,1.54356,0.12451,0.51091,0.10643,0.1316,0.06764,0.08231,0.14009,0.45457,0.5298,0.19077,0.09748,0.5019,0.11157,0.27723,0.93599,0.22208,0.12363,0.93973,0.10654,0.31221,1.50638,0.2956,0.03924,1.45258,0.12244,0.47797,1.25834,0.35608,-0.00171,1.16699,0.25798,0.46236,1.48228,0.44172,0.21481,1.29706
1599,0.24085,0.1908,1.54332,0.1248,0.51073,0.10669,0.13171,0.06718,0.08216,0.14073,0.45249,0.52979,0.19051,0.09564,0.5019,0.1127,0.27474,0.93584,0.22379,0.12155,0.9396,0.10509,0.30919,1.50579,0.29741,0.03681,1.45298,0.11925,0.47536,1.25793,0.35932,0.00127,1.16697,0.25498,0.46017,1.48179,0.44004,0.21719,1.30111
1600,0.24059,0.18848,1.5431,0.1251,0.51051,0.10671,0.13182,0.0667,0.08196,0.14114,0.4504,0.52954,0.19039,0.09394,0.50182,0.11392,0.27231,0.9355,0.22539,0.11941,0.9394,0.10344,0.30581,1.50535,0.29941,0.0345,1.45355,0.11662,0.4725,1.25778,0.36219,0.00454,1.1671,0.25217,0.45761,1.48177,0.43859,0.21961,1.30507
1601,0.24032,0.18606,1.54304,0.12542,0.51034,0.10668,0.13191,0.06628,0.08182,0.14142,0.44844,0.52926,0.19057,0.09254,0.50172,0.11495,0.26994,0.93508,0.22689,0.11738,0.93924,0.10178,0.3019,1.50516,0.30141,0.03251,1.45407,0.11435,0.46922,1.25799,0.36483,0.00783,1.16726,0.24957,0.45464,1.4822,0.43749,0.22179,1.30894
1602,0.24007,0.18358,1.54305,0.12582,0.51025,0.10679,0.13193,0.06609,0.08177,0.14173,0.44667,0.52912,0.19107,0.0915,0.50166,0.11568,0.26765,0.93475,0.2283,0.1156,0.93914,0.10029,0.2976,1.50504,0.30328,0.03091,1.45445,0.11212,0.46567,1.25835,0.36755,0.01122,1.16744,0.24702,0.45165,1.48278,0.4364,0.2239,1.3129
1603,0.23986,0.18107,1.54302,0.12622,0.51021,0.10709,0.13186,0.06616,0.08178,0.14201,0.44502,0.52918,0.19178,0.09065,0.50161,0.11622,0.26553,0.9346,0.22967,0.1141,0.93907,0.09904,0.29307,1.50473,0.30494,0.02956,1.45474,0.10979,0.46206,1.25862,0.37063,0.01518,1.16774,0.24439,0.44911,1.48329,0.43491,0.22651,1.31721
1604,0.23972,0.1786,1.54291,0.12651,0.51012,0.10742,0.13178,0.06632,0.08175,0.1421,0.44341,0.52928,0.19249,0.08976,0.50153,0.11674,0.26367,0.93463,0.23098,0.11284,0.93895,0.09798,0.28852,1.50422,0.3063,0.0283,1.45497,0.10749,0.45857,1.25878,0.37411,0.01991,1.16822,0.24168,0.44716,1.48378,0.43306,0.22986,1.32176
1605,0.23957,0.17628,1.54274,0.12664,0.50996,0.10765,0.13176,0.06636,0.08163,0.14211,0.44178,0.52928,0.19312,0.08882,0.50137,0.11734,0.26214,0.93471,0.23223,0.11179,0.93874,0.09703,0.2842,1.50374,0.30737,0.02707,1.45508,0.10539,0.45527,1.25897,0.37765,0.0248,1.16881,0.23915,0.44547,1.48431,0.43121,0.23341,1.32611
1606,0.23935,0.17411,1.54254,0.12671,0.50975,0.10776,0.13184,0.06628,0.08144,0.14236,0.44009,0.52914,0.19376,0.08804,0.50113,0.11797,0.26077,0.93473,0.23344,0.11085,0.93846,0.09621,0.28022,1.50353,0.30839,0.02572,1.45503,0.10348,0.45205,1.25925,0.38084,0.02904,1.16931,0.23709,0.4437,1.48474,0.42961,0.23632,1.32991
1607,0.23912,0.17192,1.5424,0.12687,0.50957,0.10784,0.13201,0.06624,0.08123,0.14301,0.43843,0.52896,0.19443,0.08759,0.50087,0.11857,0.25926,0.93461,0.23475,0.10989,0.93817,0.09544,0.27657,1.50361,0.3097,0.02409,1.45489,0.10161,0.44878,1.25958,0.38365,0.03251,1.16966,0.23553,0.44181,1.48492,0.42822,0.23836,1.33328
1608,0.23899,0.16964,1.5424,0.12721,0.50936,0.10797,0.13225,0.06631,0.0811,0.14382,0.43692,0.52884,0.19514,0.08742,0.50068,0.11914,0.25744,0.93435,0.23629,0.10884,0.93795,0.09457,0.27311,1.50377,0.31141,0.02222,1.45481,0.09971,0.44559,1.2599,0.38641,0.0357,1.17006,0.23411,0.44001,1.48501,0.42682,0.24003,1.33663
1609,0.239,0.1674,1.54249,0.12773,0.50903,0.10812,0.13254,0.06643,0.08112,0.14443,0.43555,0.52881,0.19594,0.08744,0.50064,0.11965,0.2554,0.93401,0.23807,0.10781,0.93786,0.09353,0.26973,1.50374,0.31333,0.02056,1.45496,0.09791,0.44269,1.2602,0.38939,0.03914,1.17077,0.2324,0.4384,1.48528,0.42528,0.24191,1.34026
1610,0.23909,0.1653,1.54262,0.12834,0.50852,0.10823,0.13279,0.06649,0.08133,0.14468,0.43419,0.52878,0.19692,0.08757,0.50072,0.12004,0.25332,0.93367,0.23989,0.1069,0.93791,0.09249,0.26644,1.50351,0.3152,0.01953,1.45539,0.09627,0.43996,1.26036,0.39261,0.04295,1.17192,0.23021,0.4368,1.48578,0.42365,0.24407,1.34431
1611,0.23919,0.16335,1.54277,0.12889,0.50783,0.10828,0.1329,0.06643,0.0816,0.14463,0.43273,0.52872,0.198,0.08769,0.50084,0.12031,0.25145,0.93345,0.24151,0.10616,0.93801,0.09174,0.26343,1.50324,0.31696,0.01911,1.456,0.09464,0.43716,1.26023,0.39591,0.04701,1.17336,0.22771,0.43492,1.48617,0.42211,0.24621,1.34876
1612,0.23924,0.16152,1.54286,0.12922,0.50706,0.10829,0.13289,0.06637,0.08178,0.14439,0.43111,0.5286,0.19902,0.08773,0.50085,0.12064,0.24994,0.9334,0.24288,0.10552,0.93802,0.09144,0.2609,1.50305,0.3188,0.01884,1.45663,0.09305,0.43436,1.25983,0.39904,0.05117,1.17484,0.22529,0.43273,1.48628,0.42085,0.24805,1.35343
1613,0.23937,0.15982,1.54276,0.1293,0.50634,0.10824,0.13282,0.06642,0.08185,0.144,0.42941,0.52839,0.19995,0.0878,0.50076,0.12113,0.24872,0.93346,0.24411,0.10492,0.93792,0.09135,0.25887,1.50281,0.32078,0.01835,1.45721,0.0918,0.432,1.25934,0.40172,0.05524,1.17617,0.22316,0.43058,1.4863,0.4199,0.24943,1.35808
1614,0.23966,0.15817,1.54254,0.12921,0.5057,0.10816,0.13276,0.06658,0.08189,0.14354,0.42771,0.52812,0.20088,0.08801,0.50064,0.12169,0.24754,0.93348,0.24535,0.10432,0.93781,0.09106,0.25713,1.50241,0.32269,0.01763,1.4578,0.09096,0.4302,1.25891,0.40384,0.05904,1.17745,0.22125,0.42883,1.48648,0.41912,0.25055,1.36244
1615,0.23998,0.15655,1.54247,0.12908,0.50514,0.10805,0.13275,0.06674,0.082,0.14313,0.426,0.52781,0.20181,0.08825,0.50059,0.12218,0.24627,0.93341,0.24661,0.10372,0.93775,0.09036,0.25538,1.50204,0.32431,0.01686,1.45846,0.09024,0.42853,1.2586,0.40576,0.0625,1.17886,0.21938,0.42749,1.48682,0.41823,0.25183,1.36629
1616,0.24013,0.15496,1.54272,0.129,0.50467,0.10794,0.13282,0.06681,0.08209,0.14291,0.4242,0.52745,0.20268,0.08836,0.50055,0.12259,0.24498,0.93331,0.24792,0.10323,0.93769,0.08942,0.25342,1.50195,0.32571,0.01623,1.45915,0.08929,0.42644,1.25841,0.40786,0.06577,1.18042,0.21748,0.42633,1.48717,0.41716,0.2535,1.36963
1617,0.24008,0.15348,1.54314,0.12907,0.50432,0.1078,0.13295,0.06675,0.0821,0.14285,0.42229,0.52701,0.2035,0.08832,0.50044,0.12295,0.24379,0.9332,0.24925,0.1029,0.93753,0.08853,0.25117,1.50216,0.32712,0.01575,1.4598,0.08799,0.42383,1.25837,0.41008,0.06904,1.182,0.21557,0.42517,1.48747,0.41616,0.25531,1.37279
1618,0.23998,0.15222,1.54342,0.1293,0.50413,0.10764,0.13308,0.0666,0.082,0.14277,0.42042,0.52653,0.20436,0.08832,0.50021,0.12332,0.24277,0.93312,0.25054,0.1027,0.93726,0.08777,0.24876,1.5025,0.32849,0.01525,1.46032,0.08639,0.42104,1.25844,0.41205,0.07248,1.18348,0.21363,0.42392,1.48771,0.41542,0.25686,1.37615
1619,0.23987,0.15124,1.5434,0.12954,0.5041,0.1075,0.13322,0.06643,0.08188,0.14246,0.41878,0.52608,0.20526,0.08854,0.49993,0.12379,0.24196,0.93307,0.2517,0.10252,0.93697,0.08694,0.2464,1.50278,0.3295,0.01455,1.46065,0.08468,0.41841,1.25853,0.41362,0.07604,1.1849,0.21166,0.42256,1.48793,0.41471,0.25821,1.37969
1620,0.23974,0.1505,1.54323,0.1296,0.50415,0.10738,0.13339,0.06637,0.08181,0.14193,0.41741,0.52569,0.20617,0.089,0.49971,0.12439,0.24131,0.93304,0.25274,0.10227,0.93676,0.0859,0.2443,1.50292,0.32996,0.01374,1.46085,0.08317,0.41612,1.25855,0.4151,0.07956,1.18642,0.20972,0.42113,1.48817,0.41356,0.25963,1.38315
1621,0.23966,0.14984,1.54316,0.12947,0.50411,0.10727,0.13352,0.06653,0.08182,0.14131,0.41615,0.52534,0.20705,0.08955,0.49957,0.12501,0.24069,0.93302,0.25371,0.10196,0.93664,0.08481,0.24246,1.50297,0.33013,0.0131,1.46116,0.08201,0.41411,1.25848,0.41675,0.08279,1.18815,0.20791,0.41976,1.48844,0.41179,0.26107,1.38645
1622,0.23973,0.14909,1.54321,0.12924,0.50396,0.10717,0.13359,0.06688,0.08184,0.14078,0.41487,0.52501,0.20781,0.09009,0.49946,0.12552,0.24,0.93298,0.25467,0.10169,0.93652,0.08402,0.24069,1.503,0.33049,0.01274,1.4617,0.08107,0.41221,1.25842,0.41853,0.08567,1.19,0.20629,0.4186,1.48874,0.40974,0.26227,1.38966
1623,0.23985,0.14829,1.54326,0.12898,0.50383,0.10708,0.13362,0.06724,0.08179,0.14039,0.41362,0.52468,0.2084,0.09059,0.4993,0.12589,0.23925,0.93289,0.25569,0.10154,0.93634,0.08363,0.23886,1.50317,0.33129,0.01254,1.46235,0.08,0.41027,1.25852,0.42029,0.08847,1.19179,0.20489,0.4178,1.48898,0.40781,0.26329,1.39282
1624,0.23977,0.14756,1.54322,0.12872,0.50387,0.10695,0.13366,0.06743,0.08169,0.14021,0.41255,0.52431,0.20886,0.091,0.49911,0.12615,0.23851,0.93268,0.25672,0.10154,0.93609,0.08347,0.23712,1.5035,0.33257,0.01232,1.46291,0.07867,0.40835,1.25875,0.42203,0.09153,1.19344,0.20365,0.41731,1.4891,0.4061,0.26445,1.39586
1625,0.23934,0.14703,1.54313,0.12845,0.50415,0.10684,0.13376,0.06738,0.08162,0.14022,0.41173,0.52394,0.20939,0.09136,0.49894,0.1264,0.23782,0.93238,0.25769,0.10155,0.93588,0.08336,0.23574,1.50381,0.33421,0.01205,1.4633,0.07741,0.4067,1.2589,0.42374,0.09476,1.1949,0.20259,0.41693,1.48909,0.40453,0.26582,1.39862
1626,0.23876,0.14669,1.54297,0.12815,0.50461,0.1068,0.1339,0.06724,0.08163,0.1402,0.4111,0.52365,0.21007,0.09172,0.49882,0.12673,0.23708,0.93205,0.25863,0.10139,0.93575,0.08331,0.23465,1.50388,0.33595,0.01177,1.46359,0.07651,0.40548,1.25889,0.42527,0.09773,1.19615,0.20176,0.41654,1.48901,0.40319,0.26701,1.40106
1627,0.23848,0.14639,1.54274,0.12776,0.50516,0.10683,0.13406,0.06723,0.0817,0.1399,0.41048,0.52342,0.21079,0.09207,0.49877,0.12715,0.23622,0.93174,0.25959,0.10106,0.93568,0.08325,0.23345,1.50367,0.33749,0.01149,1.46384,0.07586,0.40447,1.25883,0.42648,0.10028,1.19721,0.20115,0.41613,1.4889,0.40212,0.26766,1.40341
1628,0.23861,0.146,1.54251,0.12718,0.50563,0.10686,0.1342,0.06737,0.08178,0.13939,0.40979,0.52318,0.21135,0.09238,0.49876,0.12755,0.23535,0.93145,0.26054,0.10075,0.93564,0.08298,0.23198,1.50333,0.33868,0.01115,1.46403,0.07514,0.40343,1.25881,0.42744,0.1026,1.19823,0.20058,0.41578,1.48876,0.40111,0.26781,1.40594
1629,0.23884,0.14547,1.54239,0.12651,0.50592,0.10681,0.13426,0.06753,0.08182,0.13894,0.40906,0.52289,0.21169,0.09265,0.49874,0.12783,0.23463,0.93119,0.26141,0.10062,0.93557,0.08245,0.23046,1.50289,0.33958,0.01079,1.46422,0.07428,0.40246,1.25876,0.42831,0.10489,1.19934,0.19979,0.41552,1.48863,0.39992,0.26789,1.40852
1630,0.23886,0.14481,1.54245,0.12602,0.50611,0.10671,0.13423,0.06759,0.08178,0.13871,0.40839,0.52258,0.21186,0.0929,0.49865,0.128,0.23408,0.93094,0.26219,0.10069,0.93541,0.08185,0.22923,1.50225,0.34037,0.01065,1.46451,0.07351,0.40182,1.25855,0.42915,0.10722,1.20053,0.19863,0.41531,1.48861,0.39853,0.26832,1.41086
1631,0.23871,0.14403,1.54262,0.1258,0.50643,0.10662,0.13418,0.06753,0.08166,0.13862,0.40781,0.52227,0.21196,0.09309,0.49849,0.12815,0.23354,0.93065,0.26296,0.10078,0.93517,0.08124,0.22842,1.50151,0.34115,0.01095,1.4649,0.07313,0.40146,1.25813,0.42992,0.10955,1.20167,0.19717,0.41504,1.48877,0.39716,0.26918,1.41281
1632,0.23861,0.1433,1.54279,0.12571,0.50687,0.10657,0.13422,0.0674,0.08156,0.13846,0.40727,0.52199,0.21212,0.09316,0.49836,0.12832,0.23285,0.93032,0.26375,0.10072,0.93497,0.08049,0.22782,1.50098,0.34196,0.01156,1.4653,0.07318,0.40097,1.25765,0.43058,0.11189,1.20267,0.19573,0.41462,1.48907,0.39596,0.27025,1.41446
1633,0.23862,0.1428,1.54282,0.12555,0.50719,0.10655,0.13433,0.06729,0.08157,0.13812,0.40673,0.52177,0.21239,0.0931,0.49833,0.12849,0.23211,0.93002,0.26445,0.10053,0.9349,0.07965,0.22718,1.50088,0.34289,0.01217,1.46557,0.07333,0.40011,1.25736,0.43117,0.11423,1.20349,0.19462,0.41402,1.48944,0.39504,0.2712,1.41606
1634,0.23868,0.14258,1.54272,0.1253,0.50722,0.10652,0.13445,0.06733,0.08162,0.13766,0.40623,0.52161,0.21271,0.09298,0.49836,0.12867,0.2316,0.92987,0.26498,0.10039,0.9349,0.07896,0.22644,1.50114,0.34404,0.0126,1.46575,0.0731,0.39908,1.25741,0.43176,0.11651,1.20421,0.19388,0.4133,1.48973,0.39438,0.27178,1.41781
1635,0.23865,0.14246,1.54262,0.12511,0.50698,0.10644,0.13457,0.06753,0.08161,0.13726,0.40579,0.52149,0.21304,0.09285,0.49833,0.12896,0.23142,0.92987,0.26543,0.10037,0.93485,0.07857,0.22577,1.50152,0.34536,0.0129,1.466,0.07222,0.39821,1.25765,0.43236,0.11858,1.20493,0.1933,0.41262,1.48981,0.39384,0.27201,1.41965
1636,0.23847,0.14221,1.54263,0.12507,0.50667,0.10628,0.13472,0.0677,0.08149,0.13693,0.40533,0.5213,0.21341,0.09276,0.49818,0.12936,0.2314,0.92989,0.26593,0.10045,0.93469,0.07828,0.22529,1.5018,0.34661,0.01308,1.46642,0.07093,0.39748,1.25779,0.43294,0.12033,1.20577,0.19256,0.41203,1.48965,0.39318,0.27219,1.42138
1637,0.23829,0.14175,1.54278,0.12507,0.50653,0.10606,0.13485,0.06776,0.08132,0.13651,0.40474,0.52099,0.21384,0.09272,0.49796,0.12973,0.23136,0.92983,0.26653,0.10066,0.93444,0.07786,0.22481,1.50186,0.34748,0.0131,1.46695,0.0698,0.39661,1.25759,0.43347,0.12183,1.2068,0.19157,0.41151,1.48936,0.39213,0.27264,1.42285
1638,0.23827,0.1413,1.54291,0.1249,0.50663,0.10582,0.13483,0.06783,0.08115,0.13596,0.40404,0.52057,0.2142,0.09271,0.49772,0.1299,0.23129,0.92968,0.26716,0.10106,0.93416,0.07737,0.22415,1.50173,0.34793,0.01299,1.4675,0.06914,0.39557,1.2572,0.43395,0.1233,1.20804,0.19053,0.41094,1.48914,0.39064,0.2735,1.42413
1639,0.2385,0.1411,1.54293,0.12451,0.50676,0.1056,0.13458,0.06801,0.08106,0.13544,0.40338,0.52015,0.21431,0.09277,0.49757,0.12992,0.2313,0.92955,0.26766,0.10157,0.93395,0.07713,0.22335,1.50148,0.3482,0.01284,1.46801,0.06876,0.39477,1.25696,0.43438,0.12493,1.20936,0.18972,0.41033,1.4891,0.38906,0.27468,1.42535
1640,0.23888,0.14116,1.54285,0.12395,0.50676,0.10545,0.13421,0.06824,0.08108,0.13514,0.40297,0.51989,0.21418,0.09291,0.49755,0.12993,0.23147,0.92954,0.26792,0.10201,0.93388,0.07732,0.22264,1.50122,0.34851,0.01276,1.46838,0.06831,0.39456,1.25707,0.43481,0.12668,1.21057,0.18932,0.40978,1.48921,0.38784,0.27586,1.42661
1641,0.23919,0.1413,1.54273,0.12334,0.50671,0.10541,0.13393,0.06846,0.08113,0.13506,0.40287,0.51983,0.21393,0.09316,0.49759,0.13,0.23178,0.92965,0.26795,0.10226,0.93388,0.07766,0.22226,1.501,0.3488,0.01278,1.46855,0.06768,0.39486,1.25738,0.43531,0.12834,1.21154,0.18919,0.40949,1.4893,0.38717,0.27669,1.42788
1642,0.23917,0.14143,1.54267,0.12281,0.50677,0.10547,0.13386,0.06866,0.0811,0.13503,0.40291,0.51986,0.21369,0.09347,0.49759,0.1301,0.23205,0.92978,0.2679,0.10237,0.93386,0.07772,0.22217,1.50079,0.34896,0.01303,1.4686,0.06706,0.39528,1.25755,0.43584,0.12973,1.21224,0.18898,0.40956,1.48927,0.38681,0.27706,1.42908
1643,0.23879,0.14165,1.54267,0.12246,0.50701,0.1055,0.134,0.06884,0.08101,0.13489,0.40286,0.51981,0.21361,0.09376,0.49753,0.13014,0.23207,0.92976,0.268,0.10246,0.93379,0.07732,0.2221,1.50051,0.34917,0.0137,1.46878,0.06659,0.39542,1.25743,0.43635,0.13093,1.21276,0.18844,0.40994,1.48918,0.38634,0.27723,1.43008
1644,0.23826,0.14195,1.54272,0.12223,0.50726,0.1054,0.13425,0.06895,0.08095,0.13462,0.40266,0.5196,0.21377,0.09396,0.49748,0.13013,0.23184,0.92955,0.26834,0.10261,0.93372,0.07664,0.22177,1.50021,0.3497,0.01486,1.4692,0.06627,0.39519,1.25717,0.43694,0.13216,1.21322,0.18763,0.4105,1.48912,0.3855,0.27753,1.43083
1645,0.23787,0.14218,1.54281,0.12203,0.50733,0.10522,0.13447,0.06896,0.08094,0.13433,0.40238,0.51933,0.2141,0.09414,0.49744,0.13016,0.23165,0.92931,0.26877,0.10285,0.93367,0.07599,0.22125,1.50003,0.35056,0.01615,1.4697,0.06603,0.39476,1.25705,0.43775,0.13357,1.21376,0.18693,0.41105,1.48917,0.38439,0.27811,1.43145
1646,0.23776,0.14229,1.54292,0.12183,0.50715,0.10504,0.13456,0.06887,0.08091,0.13405,0.40213,0.51914,0.21446,0.09437,0.49735,0.13028,0.23176,0.92928,0.26912,0.1032,0.93357,0.07556,0.22079,1.50006,0.35145,0.01703,1.47015,0.06586,0.39447,1.25719,0.43868,0.1351,1.21452,0.18666,0.41142,1.48932,0.38322,0.27891,1.43218
1647,0.23794,0.14245,1.5429,0.12161,0.50681,0.10488,0.1345,0.06883,0.08081,0.13376,0.40191,0.51902,0.21472,0.09473,0.49715,0.13049,0.23219,0.92943,0.26933,0.10363,0.93338,0.07538,0.22062,1.50014,0.35203,0.01729,1.4706,0.0658,0.39458,1.25747,0.43937,0.1366,1.21559,0.1868,0.41152,1.48949,0.38217,0.27991,1.43312
1648,0.23826,0.14277,1.54271,0.12142,0.50647,0.10474,0.13431,0.06893,0.0807,0.13341,0.40173,0.51892,0.2149,0.09521,0.49695,0.13063,0.23268,0.92961,0.26944,0.10407,0.93318,0.07529,0.22077,1.50016,0.3522,0.01719,1.47112,0.06578,0.395,1.25767,0.43958,0.13795,1.21681,0.18695,0.41147,1.48965,0.38128,0.28107,1.43418
1649,0.23855,0.14312,1.54249,0.12129,0.50625,0.10464,0.13412,0.06909,0.08073,0.13304,0.40158,0.51885,0.21507,0.09572,0.49688,0.13063,0.23298,0.92972,0.26948,0.10441,0.93314,0.07516,0.22107,1.50014,0.352,0.01721,1.47158,0.06563,0.3954,1.25773,0.43939,0.13923,1.21787,0.18671,0.41147,1.48977,0.38059,0.2822,1.4352
1650,0.23863,0.14324,1.54247,0.12121,0.50616,0.10461,0.13407,0.06913,0.08094,0.13268,0.40146,0.51881,0.21524,0.09618,0.49703,0.13058,0.23307,0.92978,0.26948,0.10456,0.93331,0.07487,0.2213,1.50014,0.35151,0.0176,1.4718,0.06522,0.39555,1.25767,0.43919,0.14047,1.2186,0.18607,0.4116,1.48984,0.38009,0.283,1.43613
1651,0.23846,0.14313,1.54272,0.12112,0.50621,0.1046,0.13417,0.06898,0.08121,0.13239,0.40136,0.51877,0.21538,0.09652,0.49726,0.13061,0.23311,0.9298,0.2695,0.10459,0.93356,0.07445,0.22141,1.5001,0.35091,0.0183,1.47187,0.06464,0.39552,1.25754,0.4393,0.1416,1.21913,0.18532,0.41188,1.48978,0.37962,0.28338,1.43699
1652,0.23812,0.14308,1.54306,0.12098,0.50648,0.10459,0.13432,0.06873,0.0814,0.13227,0.40139,0.5187,0.21556,0.09677,0.49741,0.13076,0.23325,0.92977,0.26961,0.10469,0.93372,0.07401,0.22151,1.50004,0.35052,0.01915,1.47201,0.06414,0.39548,1.25738,0.43969,0.1426,1.21962,0.18476,0.41232,1.48962,0.379,0.28353,1.43776
1653,0.23778,0.14341,1.54325,0.12075,0.50689,0.10459,0.1344,0.06853,0.08149,0.13232,0.4016,0.51864,0.21587,0.097,0.49743,0.13092,0.2335,0.92972,0.26983,0.10501,0.93375,0.07367,0.22172,1.50004,0.35057,0.01997,1.47232,0.06391,0.39556,1.25729,0.44003,0.1436,1.22012,0.18448,0.41284,1.48952,0.37824,0.28371,1.43848
1654,0.23759,0.14414,1.54319,0.12041,0.50724,0.10459,0.13437,0.06841,0.08156,0.13239,0.40195,0.51863,0.21628,0.09732,0.49738,0.131,0.23378,0.92969,0.27011,0.10551,0.93372,0.07341,0.22202,1.50012,0.35087,0.02057,1.47272,0.0639,0.3958,1.25731,0.44005,0.14466,1.22064,0.18436,0.4133,1.48958,0.37754,0.2841,1.43922
1655,0.23758,0.14492,1.54306,0.12003,0.50741,0.10455,0.13433,0.06836,0.08164,0.13235,0.40231,0.51862,0.21667,0.09782,0.49733,0.13101,0.23409,0.92966,0.27029,0.106,0.9337,0.07315,0.22227,1.50013,0.35105,0.02087,1.47312,0.06391,0.39613,1.25737,0.43976,0.14563,1.2212,0.1842,0.41361,1.48973,0.377,0.28475,1.43992
1656,0.2377,0.14538,1.54305,0.11959,0.50748,0.10443,0.13437,0.06836,0.08172,0.1322,0.40256,0.51855,0.21703,0.0985,0.4973,0.13102,0.23447,0.92964,0.27031,0.10639,0.93371,0.07284,0.22239,1.5,0.35104,0.02095,1.47341,0.06378,0.3965,1.25741,0.43942,0.1464,1.22173,0.1839,0.41385,1.48986,0.37664,0.28548,1.44047
1657,0.23785,0.14548,1.54315,0.11902,0.50754,0.1043,0.13449,0.06837,0.08181,0.13205,0.40272,0.51842,0.21743,0.09924,0.49729,0.13103,0.23486,0.92961,0.27027,0.10674,0.93376,0.07252,0.22251,1.49979,0.35108,0.02093,1.47354,0.06351,0.3969,1.25739,0.43928,0.14711,1.22215,0.18345,0.41415,1.48995,0.37634,0.2861,1.4409
1658,0.23791,0.14542,1.5433,0.11836,0.50759,0.10418,0.13469,0.06836,0.08193,0.13199,0.40291,0.51833,0.21794,0.09986,0.4973,0.13105,0.23518,0.92957,0.27031,0.10708,0.93383,0.07227,0.22277,1.49955,0.35141,0.02087,1.4735,0.06322,0.39734,1.2573,0.4394,0.148,1.22252,0.18288,0.4146,1.48999,0.37583,0.28657,1.44135
1659,0.23776,0.14546,1.54345,0.11776,0.50756,0.10411,0.13493,0.06831,0.08204,0.13198,0.40324,0.51832,0.2185,0.10027,0.49731,0.13113,0.23544,0.92953,0.27047,0.10743,0.93389,0.07213,0.22317,1.49927,0.35188,0.02083,1.47336,0.06298,0.39784,1.25708,0.43975,0.14929,1.22302,0.18221,0.41518,1.48999,0.3749,0.28701,1.44202
1660,0.23737,0.14571,1.54361,0.11729,0.50755,0.10406,0.13512,0.06821,0.0821,0.13192,0.40364,0.51836,0.21901,0.10064,0.49726,0.13126,0.23576,0.92954,0.27065,0.10781,0.93388,0.07214,0.22361,1.49889,0.35215,0.021,1.47318,0.06284,0.39845,1.25683,0.44021,0.15109,1.22375,0.18157,0.41578,1.49,0.37361,0.28758,1.44299
1661,0.23685,0.14619,1.54373,0.11689,0.50771,0.10405,0.13523,0.06808,0.08208,0.13176,0.40401,0.51839,0.21935,0.10121,0.49714,0.1314,0.23617,0.92959,0.27081,0.10823,0.93378,0.07228,0.22393,1.49854,0.35197,0.02155,1.47307,0.0628,0.39916,1.25678,0.44068,0.15318,1.22468,0.18114,0.41633,1.49016,0.3723,0.28834,1.44419
1662,0.23639,0.14685,1.54373,0.11647,0.50806,0.10404,0.13531,0.068,0.08208,0.13154,0.40432,0.51837,0.21953,0.10198,0.49705,0.13153,0.23661,0.92962,0.271,0.10874,0.9337,0.07235,0.22402,1.49844,0.35145,0.02237,1.47319,0.06273,0.39978,1.25706,0.44112,0.155,1.22568,0.18092,0.41678,1.49053,0.37148,0.28912,1.44544
1663,0.23623,0.14757,1.54357,0.11604,0.50842,0.104,0.13549,0.06802,0.08217,0.13131,0.40463,0.51831,0.21971,0.1027,0.49709,0.13161,0.23704,0.92961,0.27125,0.10934,0.93373,0.07216,0.22397,1.49861,0.35094,0.02319,1.47357,0.06247,0.40017,1.25756,0.44161,0.15613,1.22659,0.18068,0.41719,1.49102,0.37132,0.28967,1.44649
1664,0.2364,0.14822,1.54336,0.11567,0.50868,0.10392,0.13581,0.06808,0.08235,0.13107,0.40502,0.51825,0.22009,0.10327,0.49721,0.13169,0.23751,0.92959,0.27151,0.11002,0.93386,0.07168,0.22402,1.49883,0.3507,0.02387,1.4741,0.06209,0.40051,1.25798,0.44221,0.15666,1.22735,0.1802,0.41762,1.49148,0.3714,0.29003,1.44719
1665,0.23659,0.14863,1.54332,0.1154,0.50891,0.10383,0.13618,0.06814,0.08255,0.13083,0.40555,0.51824,0.22065,0.10386,0.49733,0.13184,0.23808,0.92959,0.27176,0.1107,0.93402,0.0711,0.22437,1.49881,0.35069,0.02445,1.47462,0.06182,0.4011,1.25813,0.44288,0.15709,1.22804,0.1796,0.41811,1.4918,0.3711,0.29046,1.44756
1666,0.23638,0.14874,1.54359,0.11519,0.50915,0.10375,0.13642,0.06819,0.08278,0.1306,0.4062,0.51826,0.22128,0.10461,0.49741,0.13206,0.23871,0.9296,0.27199,0.11135,0.93415,0.07062,0.22499,1.49861,0.35067,0.02498,1.47496,0.06173,0.40195,1.25808,0.44346,0.15781,1.22871,0.1791,0.41866,1.49198,0.37018,0.291,1.44784
1667,0.23558,0.14871,1.54406,0.115,0.50937,0.1037,0.13649,0.06816,0.08302,0.13038,0.40687,0.51833,0.22193,0.10542,0.49746,0.13223,0.23927,0.92962,0.27221,0.11197,0.93425,0.07026,0.22566,1.4985,0.35053,0.02541,1.47492,0.06161,0.40275,1.25806,0.44383,0.15895,1.22925,0.17877,0.41926,1.49208,0.369,0.2914,1.44832
1668,0.23458,0.14881,1.54449,0.11475,0.50953,0.10371,0.13645,0.06801,0.08324,0.13013,0.40754,0.51846,0.22258,0.10614,0.49746,0.13226,0.2397,0.92965,0.27244,0.11262,0.9343,0.07002,0.22615,1.49866,0.35041,0.02571,1.47463,0.06123,0.40324,1.25823,0.44398,0.16034,1.22966,0.17849,0.41997,1.49219,0.36804,0.29143,1.44916
1669,0.23401,0.1493,1.54462,0.11437,0.50968,0.1038,0.13646,0.06779,0.08342,0.1298,0.40828,0.5187,0.22321,0.10671,0.49743,0.13214,0.24003,0.92972,0.27268,0.11334,0.93431,0.06991,0.22646,1.49897,0.35052,0.02587,1.47449,0.06058,0.40349,1.25852,0.444,0.16169,1.23014,0.17808,0.42082,1.4923,0.36742,0.29113,1.45039
1670,0.23407,0.15014,1.54442,0.11385,0.50984,0.10399,0.13655,0.06759,0.08361,0.12947,0.40907,0.51903,0.22378,0.10718,0.49746,0.13191,0.24029,0.92984,0.27285,0.11405,0.93438,0.06987,0.22675,1.49923,0.35078,0.02607,1.47483,0.05988,0.40373,1.25876,0.44391,0.16285,1.23088,0.17753,0.42166,1.49243,0.36694,0.29074,1.4519
1671,0.23436,0.15108,1.54411,0.11332,0.51004,0.10424,0.13669,0.06749,0.08389,0.12924,0.40981,0.5194,0.2243,0.10763,0.49761,0.13168,0.2406,0.93003,0.2729,0.11468,0.93458,0.06977,0.22715,1.49941,0.35084,0.02651,1.47557,0.05934,0.40406,1.2589,0.44371,0.16383,1.23182,0.17691,0.42231,1.49259,0.36638,0.2905,1.45342
1672,0.23438,0.1519,1.54393,0.11292,0.51028,0.1045,0.13681,0.06753,0.08429,0.12906,0.41046,0.51975,0.22482,0.10809,0.49788,0.13155,0.24102,0.93028,0.27293,0.11527,0.9349,0.06944,0.22762,1.49966,0.35057,0.02714,1.47635,0.05898,0.40439,1.25905,0.44353,0.16467,1.23277,0.1764,0.4228,1.4928,0.36571,0.2906,1.45462
1673,0.23406,0.15262,1.54397,0.11272,0.51052,0.10471,0.13691,0.06767,0.08471,0.12887,0.41108,0.52005,0.22534,0.10857,0.49818,0.13148,0.24148,0.93052,0.27303,0.11592,0.93525,0.06882,0.2281,1.50002,0.35019,0.0278,1.47694,0.05876,0.4047,1.25928,0.44351,0.16545,1.23355,0.17615,0.42326,1.49304,0.36497,0.29103,1.45534
1674,0.2337,0.1533,1.54411,0.11268,0.51066,0.10492,0.1371,0.06778,0.08508,0.12872,0.41169,0.52037,0.22576,0.10909,0.49845,0.13137,0.24191,0.93077,0.27314,0.11662,0.93555,0.06801,0.22852,1.50031,0.34991,0.02852,1.47732,0.05875,0.40508,1.25951,0.44359,0.16624,1.23411,0.17611,0.42364,1.49328,0.36429,0.29143,1.45585
1675,0.2335,0.15386,1.54426,0.11268,0.51075,0.10515,0.13745,0.06766,0.08538,0.12866,0.41228,0.52073,0.22604,0.10967,0.49871,0.13118,0.24229,0.93104,0.27322,0.1173,0.93582,0.06729,0.22891,1.50035,0.34965,0.02934,1.47769,0.05893,0.40558,1.25959,0.44364,0.16695,1.23453,0.17603,0.42387,1.49351,0.3638,0.29137,1.45651
1676,0.23339,0.15426,1.54447,0.11266,0.51096,0.1054,0.13792,0.06723,0.08571,0.12867,0.41288,0.52107,0.22632,0.11033,0.49896,0.13097,0.24266,0.93128,0.27328,0.11797,0.9361,0.06689,0.22941,1.50017,0.34924,0.03019,1.47817,0.05909,0.40623,1.2595,0.44362,0.16736,1.23492,0.17575,0.42405,1.49367,0.36353,0.29088,1.45731
1677,0.23318,0.15469,1.54474,0.11265,0.51138,0.10561,0.13835,0.06659,0.08608,0.1286,0.41345,0.52132,0.22686,0.11103,0.49916,0.13078,0.2431,0.93148,0.27331,0.11866,0.93636,0.06683,0.23014,1.49999,0.34861,0.03089,1.47871,0.05899,0.40701,1.25936,0.4436,0.16751,1.23539,0.17531,0.42436,1.49374,0.36325,0.29057,1.45795
1678,0.23282,0.15534,1.54499,0.11269,0.51182,0.10583,0.1387,0.06587,0.08647,0.1284,0.4139,0.52155,0.22771,0.11171,0.49929,0.13052,0.24357,0.93171,0.27329,0.11941,0.93658,0.06692,0.23094,1.5,0.34789,0.03136,1.47925,0.0586,0.40776,1.25935,0.44356,0.16781,1.2361,0.17482,0.42483,1.49381,0.36263,0.29093,1.45841
1679,0.23241,0.15613,1.54513,0.11272,0.51208,0.10616,0.13907,0.06507,0.08689,0.1281,0.41423,0.52191,0.22864,0.11232,0.49944,0.13014,0.24393,0.93209,0.27323,0.12014,0.93682,0.06685,0.23153,1.50023,0.34727,0.03167,1.47978,0.05803,0.40823,1.25951,0.44338,0.16856,1.23706,0.17433,0.42533,1.49392,0.36167,0.29176,1.45904
1680,0.23204,0.15675,1.54525,0.11257,0.51219,0.10665,0.13957,0.0642,0.08736,0.12778,0.41457,0.52246,0.22941,0.11289,0.49968,0.12972,0.24418,0.9326,0.27314,0.12077,0.93715,0.0665,0.23177,1.50059,0.34682,0.03202,1.48027,0.05736,0.40824,1.25971,0.44306,0.16966,1.23802,0.17377,0.4258,1.49403,0.3607,0.29227,1.46008
1681,0.23176,0.15704,1.54549,0.11222,0.51239,0.10719,0.14015,0.06347,0.08778,0.12748,0.41512,0.52308,0.22996,0.11346,0.49995,0.12941,0.24446,0.93311,0.27304,0.12128,0.93749,0.06602,0.23178,1.50103,0.3465,0.03263,1.48063,0.05668,0.40783,1.25985,0.4427,0.17074,1.23863,0.17313,0.42625,1.49408,0.35991,0.2919,1.46133
1682,0.2315,0.15713,1.54587,0.11184,0.51276,0.10762,0.14066,0.06304,0.08804,0.12724,0.41589,0.5236,0.23041,0.11403,0.5001,0.12926,0.24485,0.93347,0.27296,0.12175,0.93769,0.06564,0.23184,1.50151,0.34623,0.03338,1.48082,0.05616,0.40733,1.25994,0.44235,0.17168,1.2389,0.1725,0.42666,1.49415,0.35918,0.29086,1.46253
1683,0.23105,0.15733,1.54629,0.1116,0.51321,0.10789,0.14102,0.06284,0.08811,0.12712,0.41675,0.52396,0.23084,0.11454,0.50006,0.12921,0.24528,0.93365,0.27297,0.12224,0.93769,0.06538,0.23215,1.50191,0.34592,0.03388,1.48094,0.056,0.40723,1.26003,0.44195,0.17259,1.23922,0.17201,0.42696,1.49438,0.35848,0.29,1.46367
1684,0.23038,0.15771,1.54666,0.11157,0.5136,0.10805,0.14122,0.06272,0.08803,0.12711,0.41745,0.52419,0.23126,0.11494,0.49988,0.12922,0.24569,0.93375,0.27306,0.12273,0.93754,0.06511,0.23266,1.50212,0.34553,0.03387,1.48107,0.0561,0.40769,1.26019,0.44144,0.17354,1.23986,0.17171,0.42715,1.49475,0.35788,0.2899,1.46482
1685,0.22972,0.15809,1.54697,0.11161,0.5139,0.10818,0.14127,0.06263,0.08791,0.12708,0.41789,0.52435,0.23153,0.11524,0.49965,0.12926,0.24604,0.93388,0.27312,0.12309,0.93733,0.06482,0.23331,1.50228,0.34504,0.03354,1.48124,0.05613,0.40841,1.26039,0.44084,0.17433,1.24064,0.17154,0.42737,1.4951,0.3574,0.29037,1.46581
1686,0.22936,0.15841,1.54721,0.11149,0.51413,0.10834,0.1412,0.06255,0.08784,0.12696,0.4182,0.52453,0.23162,0.11554,0.49951,0.12929,0.24631,0.93405,0.27306,0.12326,0.9372,0.06465,0.2341,1.50259,0.34452,0.03326,1.48149,0.05591,0.40905,1.26059,0.44028,0.17474,1.24127,0.1714,0.42775,1.49528,0.35686,0.29075,1.46647
1687,0.22924,0.1588,1.5473,0.1111,0.51433,0.10858,0.14111,0.06242,0.08791,0.12674,0.4186,0.52481,0.23158,0.11595,0.4995,0.12917,0.24651,0.93424,0.27283,0.12332,0.93722,0.06461,0.23501,1.50304,0.34406,0.03329,1.48191,0.05558,0.40955,1.26075,0.43994,0.17477,1.24173,0.17124,0.4283,1.49535,0.35605,0.29076,1.46677
1688,0.22913,0.15928,1.54724,0.11057,0.5145,0.10887,0.14111,0.06227,0.08807,0.1265,0.41912,0.52517,0.23153,0.11649,0.49958,0.12885,0.24667,0.93445,0.27246,0.12343,0.93734,0.06446,0.23586,1.50349,0.34377,0.03365,1.4825,0.05534,0.40985,1.26081,0.43991,0.17457,1.2421,0.17103,0.42892,1.49537,0.35494,0.29054,1.46674
1689,0.22887,0.15968,1.5471,0.11009,0.5147,0.10914,0.14115,0.06228,0.0882,0.12635,0.41971,0.52551,0.23149,0.11709,0.49964,0.12842,0.24687,0.93463,0.27211,0.12371,0.93743,0.06391,0.23644,1.50384,0.34359,0.03419,1.48317,0.05514,0.40985,1.26074,0.4401,0.17428,1.24243,0.17075,0.42953,1.49529,0.35381,0.29036,1.46651
1690,0.22849,0.15985,1.54705,0.10979,0.5149,0.10933,0.14113,0.06255,0.08815,0.1264,0.42035,0.52579,0.23144,0.11764,0.49956,0.12806,0.24707,0.93473,0.27191,0.1241,0.93736,0.06296,0.23668,1.50404,0.34338,0.03473,1.48375,0.05491,0.4096,1.26056,0.44023,0.17407,1.24271,0.17043,0.43011,1.49508,0.35295,0.2903,1.46633
1691,0.228,0.15985,1.54715,0.10971,0.51502,0.10944,0.14097,0.06297,0.08789,0.12659,0.42106,0.52602,0.23134,0.11804,0.49928,0.12783,0.24719,0.9347,0.27186,0.12442,0.93709,0.06195,0.23668,1.50398,0.34305,0.03514,1.48408,0.05476,0.40937,1.26032,0.44011,0.1741,1.24291,0.17012,0.43064,1.49485,0.35237,0.2903,1.46637
1692,0.22738,0.15984,1.54732,0.10972,0.51505,0.10947,0.14067,0.06328,0.08755,0.12674,0.42174,0.5262,0.23122,0.11833,0.49892,0.12771,0.24718,0.93458,0.27186,0.12455,0.93671,0.06113,0.2366,1.5037,0.34253,0.03547,1.48406,0.05479,0.40935,1.26005,0.43979,0.17449,1.243,0.1698,0.43111,1.49471,0.35185,0.29024,1.46661
1693,0.22674,0.15997,1.54733,0.10965,0.51509,0.10941,0.14035,0.06345,0.08732,0.12673,0.42234,0.52626,0.23114,0.11865,0.49861,0.12769,0.24714,0.93437,0.27186,0.12454,0.9364,0.06052,0.23654,1.50331,0.34184,0.03584,1.48371,0.05482,0.40949,1.25979,0.43941,0.17516,1.24296,0.16935,0.43158,1.49465,0.35131,0.29008,1.46693
1694,0.2263,0.16029,1.54702,0.10939,0.51527,0.10922,0.14011,0.06363,0.08717,0.12659,0.42292,0.52615,0.2311,0.11899,0.4984,0.12773,0.24717,0.93403,0.27187,0.12452,0.93619,0.06013,0.23649,1.50289,0.34107,0.03632,1.48331,0.05463,0.40961,1.25948,0.43899,0.17592,1.24286,0.1687,0.43216,1.49452,0.35073,0.29001,1.46719
1695,0.2261,0.16069,1.54648,0.10906,0.51553,0.10889,0.13997,0.0639,0.08695,0.12647,0.42354,0.52589,0.231,0.11917,0.49817,0.12774,0.24735,0.93358,0.27177,0.12458,0.93597,0.05996,0.2365,1.50242,0.34039,0.03677,1.48318,0.05429,0.40969,1.25907,0.43853,0.17647,1.24287,0.16787,0.43278,1.4943,0.35004,0.29038,1.4672
1696,0.22583,0.16099,1.54595,0.10893,0.51571,0.1085,0.13982,0.06411,0.08657,0.12642,0.42419,0.52561,0.23072,0.11901,0.49788,0.12759,0.24765,0.93314,0.27145,0.12469,0.93567,0.05987,0.23659,1.50188,0.33986,0.03693,1.4833,0.05399,0.40982,1.25857,0.43817,0.17666,1.24308,0.16702,0.43332,1.49402,0.34929,0.2913,1.46689
1697,0.2252,0.16113,1.54556,0.10912,0.51564,0.10816,0.13962,0.06414,0.08615,0.12636,0.42486,0.52544,0.23028,0.1186,0.49757,0.12725,0.24798,0.93283,0.27095,0.12484,0.93536,0.05965,0.23674,1.50136,0.33943,0.03678,1.4833,0.05371,0.41002,1.25809,0.43809,0.17658,1.24326,0.16636,0.43371,1.4937,0.34861,0.29219,1.46632
1698,0.22416,0.16125,1.54522,0.10941,0.51537,0.10793,0.13944,0.06405,0.08578,0.12626,0.42549,0.52541,0.22982,0.11818,0.4973,0.12685,0.24833,0.93268,0.27041,0.12501,0.93509,0.05928,0.23696,1.50095,0.33906,0.03655,1.48286,0.05339,0.41024,1.25766,0.43823,0.17641,1.24308,0.166,0.43405,1.49329,0.34803,0.2923,1.46571
1699,0.22296,0.16145,1.5448,0.10959,0.51502,0.10776,0.13931,0.06401,0.08543,0.12614,0.42599,0.52545,0.22943,0.11788,0.49705,0.1265,0.24868,0.93265,0.26991,0.12519,0.93484,0.05888,0.23728,1.50061,0.33879,0.03652,1.48215,0.05309,0.41045,1.25725,0.43835,0.17627,1.24246,0.16578,0.43436,1.49282,0.34748,0.29156,1.46513
