PaulMeinheit/Bachelor_Muay_Thai/processed_Data/E1/teep/sliced/JointPositions/sliced5.csv
Unnamed: 0_level_0,Neck_Joint_Position,Neck_Joint_Position,Neck_Joint_Position,L_ANKLE_POSITION,L_ANKLE_POSITION,L_ANKLE_POSITION,R_ANKLE_POSITION,R_ANKLE_POSITION,R_ANKLE_POSITION,L_KNEE_POSITION,L_KNEE_POSITION,L_KNEE_POSITION,R_KNEE_POSITION,R_KNEE_POSITION,R_KNEE_POSITION,L_HIP_POSITION,L_HIP_POSITION,L_HIP_POSITION,R_HIP_POSITION,R_HIP_POSITION,R_HIP_POSITION,L_SHOULDER_POSITION,L_SHOULDER_POSITION,L_SHOULDER_POSITION,R_SHOULDER_POSITION,R_SHOULDER_POSITION,R_SHOULDER_POSITION,L_ELBOW_POSITION,L_ELBOW_POSITION,L_ELBOW_POSITION,R_ELBOW_POSITION,R_ELBOW_POSITION,R_ELBOW_POSITION,L_WRIST_POSITION,L_WRIST_POSITION,L_WRIST_POSITION,R_WRIST_POSITION,R_WRIST_POSITION,R_WRIST_POSITION
ITEM,X,Y,Z,X,Y,Z,X,Y,Z,X,Y,Z,X,Y,Z,X,Y,Z,X,Y,Z,X,Y,Z,X,Y,Z,X,Y,Z,X,Y,Z,X,Y,Z,X,Y,Z
2649,0.14311,0.08889,1.53575,0.09534,0.48186,0.11139,0.05509,-0.00751,0.07976,0.09363,0.40477,0.53176,0.14938,0.05278,0.48954,0.06365,0.19897,0.92419,0.20011,0.06784,0.92607,-0.01362,0.17433,1.48143,0.25154,-0.04404,1.46698,-0.05082,0.33507,1.23237,0.37923,0.09393,1.23992,0.05854,0.41013,1.45858,0.29042,0.21373,1.46104
2650,0.1436,0.08883,1.53578,0.09509,0.48233,0.11227,0.05516,-0.00776,0.07957,0.09354,0.40653,0.53288,0.14911,0.05227,0.48948,0.06325,0.19921,0.92448,0.19965,0.068,0.926,-0.01391,0.17452,1.48182,0.25185,-0.04389,1.46716,-0.05106,0.33569,1.23304,0.37959,0.09399,1.24007,0.05893,0.41067,1.45898,0.29071,0.21407,1.46101
2651,0.14444,0.08905,1.5357,0.09503,0.48267,0.1131,0.05526,-0.00823,0.07938,0.09365,0.40875,0.53404,0.14883,0.05174,0.48938,0.063,0.19953,0.92461,0.1993,0.06821,0.92588,-0.01404,0.17518,1.48233,0.25241,-0.04372,1.46725,-0.05114,0.33658,1.23369,0.3804,0.09402,1.24022,0.05949,0.41132,1.45939,0.29113,0.21428,1.4609
2652,0.14531,0.08932,1.53552,0.09512,0.48305,0.11399,0.05533,-0.0087,0.07929,0.09386,0.4113,0.5353,0.14857,0.05123,0.48937,0.06283,0.1998,0.92461,0.19906,0.06842,0.92584,-0.01384,0.17595,1.48258,0.253,-0.04344,1.46719,-0.05104,0.33759,1.23412,0.38143,0.09427,1.2404,0.05971,0.412,1.45986,0.2916,0.21452,1.46086
2653,0.14575,0.08948,1.53542,0.09526,0.48367,0.11505,0.05524,-0.00895,0.07928,0.09399,0.41407,0.53673,0.14834,0.05084,0.48941,0.06255,0.19996,0.92458,0.19889,0.06869,0.92585,-0.01333,0.17643,1.48255,0.2535,-0.04291,1.4671,-0.05093,0.3386,1.23449,0.38225,0.09502,1.24062,0.05969,0.41272,1.46039,0.29189,0.21492,1.46105
2654,0.14577,0.08959,1.5355,0.09531,0.48458,0.11629,0.05491,-0.00898,0.07924,0.09402,0.41697,0.53829,0.14811,0.05059,0.48938,0.06202,0.20012,0.92456,0.19862,0.06913,0.9258,-0.01281,0.17659,1.48249,0.25395,-0.04214,1.46706,-0.05102,0.3396,1.23507,0.38282,0.09623,1.24092,0.05981,0.41349,1.46095,0.29189,0.21549,1.46147
2655,0.14587,0.08988,1.5357,0.09521,0.48569,0.11758,0.05437,-0.00897,0.07915,0.09409,0.41992,0.53988,0.14783,0.05039,0.48926,0.06134,0.20052,0.92464,0.19814,0.06974,0.92567,-0.01259,0.17679,1.4827,0.25446,-0.04144,1.46704,-0.05136,0.34061,1.23591,0.38353,0.09751,1.24137,0.06017,0.41425,1.46153,0.2918,0.21617,1.46191
2656,0.14637,0.09042,1.53587,0.09504,0.48685,0.11889,0.05381,-0.00902,0.07912,0.09425,0.42283,0.54146,0.14747,0.05009,0.48923,0.06074,0.20126,0.92491,0.19751,0.07044,0.92562,-0.01268,0.17732,1.48321,0.255,-0.04095,1.46702,-0.05174,0.34162,1.23678,0.38462,0.09852,1.24198,0.06057,0.41495,1.46211,0.29195,0.21699,1.46223
2657,0.14699,0.0911,1.53592,0.09491,0.48791,0.12024,0.05339,-0.00915,0.07924,0.09444,0.42572,0.54307,0.14704,0.04958,0.48939,0.06025,0.20212,0.92529,0.19689,0.07116,0.92575,-0.01286,0.17813,1.48375,0.25553,-0.04056,1.46703,-0.05189,0.34265,1.23747,0.3858,0.0994,1.24268,0.06083,0.41558,1.46272,0.29243,0.21807,1.46252
2658,0.14728,0.09176,1.53589,0.09477,0.48881,0.12159,0.05318,-0.00939,0.07935,0.09459,0.42867,0.54472,0.14652,0.04894,0.48964,0.05972,0.2028,0.92554,0.19638,0.07186,0.92593,-0.01281,0.17902,1.48409,0.25599,-0.04004,1.46706,-0.05176,0.34375,1.23793,0.38669,0.10057,1.24336,0.06094,0.41618,1.46336,0.29296,0.21949,1.46292
2659,0.14728,0.09243,1.53583,0.09451,0.48973,0.12294,0.05312,-0.00978,0.07933,0.09476,0.43183,0.54639,0.14591,0.04832,0.48978,0.05909,0.20336,0.92557,0.19592,0.0726,0.92597,-0.01242,0.17984,1.48419,0.25633,-0.03924,1.46701,-0.05151,0.34497,1.23832,0.38728,0.10228,1.24404,0.06097,0.4169,1.46402,0.29313,0.22116,1.46343
2660,0.1473,0.09324,1.53577,0.09418,0.49084,0.12435,0.05311,-0.01022,0.07922,0.09507,0.43528,0.54811,0.14529,0.04787,0.4898,0.05851,0.20407,0.92555,0.19546,0.07344,0.9259,-0.01189,0.18051,1.48416,0.25653,-0.03809,1.46687,-0.05137,0.3463,1.2388,0.38784,0.10448,1.24478,0.06098,0.41782,1.46469,0.29284,0.22292,1.46404
2661,0.14739,0.0943,1.53572,0.09394,0.49216,0.1259,0.05311,-0.01054,0.0792,0.09551,0.43898,0.54996,0.14475,0.04765,0.48989,0.0581,0.20501,0.92561,0.19509,0.07441,0.9259,-0.01154,0.18106,1.48415,0.25673,-0.03661,1.46673,-0.05143,0.3477,1.23944,0.38858,0.10703,1.24566,0.06107,0.41897,1.46534,0.29239,0.22469,1.46482
2662,0.14738,0.09549,1.5357,0.09394,0.49354,0.12755,0.05316,-0.0107,0.07931,0.09594,0.44278,0.5519,0.14425,0.04762,0.4901,0.05784,0.20607,0.92576,0.19484,0.07548,0.92601,-0.0115,0.18158,1.4843,0.25711,-0.03495,1.46657,-0.05161,0.34919,1.24027,0.38947,0.10998,1.24664,0.06136,0.42031,1.46598,0.29216,0.22645,1.46595
2663,0.14726,0.09655,1.53574,0.0941,0.49493,0.12915,0.05328,-0.01079,0.07942,0.09622,0.44645,0.55377,0.14369,0.04772,0.49033,0.05768,0.20718,0.92594,0.19467,0.07659,0.92613,-0.01161,0.18217,1.48462,0.25778,-0.03329,1.4662,-0.05186,0.35078,1.24132,0.39037,0.1134,1.24758,0.06184,0.42179,1.46669,0.29222,0.22816,1.46742
2664,0.14725,0.09735,1.53582,0.0943,0.49633,0.13059,0.0533,-0.01085,0.07943,0.0963,0.44993,0.55544,0.14304,0.04784,0.49047,0.05754,0.20833,0.92609,0.19451,0.07772,0.92614,-0.01165,0.18283,1.48494,0.25861,-0.03183,1.46563,-0.05215,0.35253,1.24243,0.39121,0.11697,1.24846,0.06233,0.42336,1.46747,0.29235,0.22978,1.46898
2665,0.14751,0.09805,1.53594,0.09452,0.49779,0.13191,0.0531,-0.01085,0.07935,0.0962,0.45333,0.55697,0.14234,0.04798,0.49048,0.05738,0.20951,0.92616,0.19437,0.07892,0.92601,-0.01162,0.18367,1.48508,0.25923,-0.03073,1.46523,-0.05238,0.35445,1.24338,0.39202,0.12,1.24949,0.06263,0.42503,1.46822,0.29232,0.23126,1.47043
2666,0.14797,0.09891,1.53608,0.09478,0.49922,0.13317,0.05277,-0.01078,0.07923,0.0961,0.45675,0.55844,0.14158,0.04816,0.49044,0.05709,0.21074,0.92615,0.19419,0.08027,0.92582,-0.01167,0.18478,1.48512,0.25939,-0.02981,1.46534,-0.05254,0.35648,1.24408,0.39281,0.12215,1.25086,0.06268,0.42683,1.4689,0.29211,0.23264,1.47173
2667,0.14847,0.10007,1.53622,0.09498,0.50054,0.13439,0.05249,-0.0107,0.07909,0.09609,0.46014,0.55986,0.14073,0.04832,0.4904,0.05659,0.21206,0.92613,0.19386,0.08176,0.92562,-0.01185,0.18623,1.48527,0.25922,-0.02868,1.46595,-0.05271,0.35855,1.24468,0.3935,0.12391,1.25246,0.06261,0.42858,1.46955,0.29181,0.23411,1.47301
2668,0.14886,0.10144,1.53631,0.09503,0.50178,0.13561,0.05231,-0.0107,0.07894,0.09616,0.46346,0.56128,0.13983,0.04841,0.4904,0.05595,0.21356,0.92623,0.19333,0.08337,0.92545,-0.01196,0.18813,1.48563,0.25912,-0.02709,1.46674,-0.05296,0.3608,1.24531,0.39408,0.12601,1.25405,0.0626,0.43011,1.47027,0.29155,0.2359,1.47437
2669,0.14899,0.10286,1.53635,0.09496,0.5031,0.13689,0.05222,-0.01086,0.07887,0.09614,0.46686,0.56274,0.1389,0.04847,0.49047,0.05545,0.21535,0.92652,0.19276,0.0851,0.92534,-0.01172,0.19044,1.48604,0.2594,-0.02512,1.46732,-0.05318,0.36332,1.24596,0.3947,0.1289,1.2555,0.06263,0.43138,1.47118,0.29127,0.23804,1.47578
2670,0.1489,0.10433,1.53635,0.09497,0.50462,0.13821,0.05223,-0.01127,0.07894,0.09594,0.47046,0.56423,0.13791,0.04857,0.49068,0.05523,0.2174,0.92693,0.19235,0.08695,0.92533,-0.01116,0.19273,1.48629,0.26012,-0.02299,1.46738,-0.05327,0.36596,1.24657,0.39544,0.13267,1.25678,0.0625,0.43254,1.47225,0.29084,0.24047,1.47716
2671,0.14894,0.10599,1.53639,0.09517,0.50642,0.13942,0.05236,-0.01175,0.07915,0.09567,0.47416,0.56559,0.13691,0.04869,0.49104,0.05521,0.21961,0.92728,0.19216,0.08899,0.92541,-0.01066,0.19452,1.48631,0.26121,-0.0209,1.46697,-0.05323,0.36844,1.24717,0.39612,0.13712,1.25787,0.06218,0.43393,1.47335,0.29017,0.24314,1.47848
2672,0.14942,0.10786,1.53651,0.09542,0.5086,0.14042,0.05248,-0.01198,0.07936,0.09551,0.47776,0.56669,0.13598,0.04876,0.49142,0.05522,0.22194,0.92751,0.1921,0.09125,0.92547,-0.01058,0.19575,1.48617,0.26251,-0.01889,1.46639,-0.05314,0.37077,1.24784,0.39654,0.14183,1.25878,0.06187,0.43593,1.47432,0.28944,0.24594,1.47974
2673,0.15013,0.10978,1.5366,0.0955,0.51109,0.14118,0.05248,-0.01183,0.07939,0.09557,0.48123,0.56752,0.13511,0.04884,0.49162,0.05521,0.22438,0.92759,0.19207,0.09368,0.92533,-0.01095,0.19687,1.48603,0.26386,-0.01669,1.46589,-0.05308,0.37317,1.24857,0.39675,0.14653,1.25951,0.06177,0.43857,1.47506,0.28893,0.24868,1.48103
2674,0.15055,0.11168,1.53651,0.09531,0.51357,0.14177,0.0524,-0.01151,0.07919,0.09578,0.48467,0.56817,0.13428,0.04905,0.49159,0.05511,0.22685,0.92751,0.19201,0.09618,0.92495,-0.0115,0.19839,1.48597,0.26494,-0.01398,1.46551,-0.05322,0.37572,1.24919,0.39692,0.15125,1.26014,0.06175,0.44144,1.47553,0.28875,0.25132,1.48244
2675,0.15029,0.11374,1.53616,0.09497,0.51568,0.14228,0.05235,-0.01131,0.07891,0.09604,0.48816,0.56878,0.13354,0.04942,0.49143,0.05487,0.22928,0.9273,0.19185,0.0987,0.92447,-0.01193,0.20052,1.48597,0.26546,-0.0108,1.46525,-0.05369,0.37829,1.24954,0.39715,0.1559,1.2609,0.06142,0.44407,1.47579,0.28874,0.25413,1.4839
2676,0.14955,0.11622,1.53567,0.09465,0.51748,0.14279,0.05232,-0.01126,0.07875,0.09628,0.49173,0.56939,0.13296,0.04987,0.49132,0.05451,0.23178,0.92708,0.19154,0.10127,0.92408,-0.01207,0.203,1.48596,0.26536,-0.0075,1.46511,-0.05436,0.3808,1.24964,0.39754,0.16022,1.26191,0.06052,0.44637,1.47606,0.28859,0.25732,1.48514
2677,0.14881,0.11913,1.53519,0.09442,0.5194,0.14324,0.05229,-0.01125,0.07877,0.09651,0.49541,0.56994,0.1325,0.05028,0.49136,0.05418,0.23455,0.92689,0.19113,0.10395,0.92384,-0.01198,0.20544,1.48595,0.26502,-0.00437,1.46493,-0.05497,0.38338,1.24986,0.39809,0.16424,1.26305,0.05937,0.44866,1.47664,0.28815,0.26071,1.48607
2678,0.14838,0.1221,1.53479,0.0942,0.52173,0.14353,0.05223,-0.0112,0.0789,0.0967,0.49921,0.57031,0.13192,0.05067,0.49154,0.05399,0.23757,0.92665,0.19073,0.10674,0.92368,-0.01187,0.20769,1.48599,0.26488,-0.00134,1.46456,-0.05539,0.3863,1.25051,0.39864,0.16838,1.26407,0.05843,0.45127,1.47764,0.28758,0.26401,1.4869
2679,0.1482,0.12477,1.53448,0.09388,0.52431,0.14368,0.05217,-0.01109,0.07895,0.09691,0.503,0.57052,0.13105,0.05124,0.49168,0.05381,0.24069,0.92631,0.19035,0.10965,0.92345,-0.01194,0.20991,1.48609,0.26509,0.00192,1.46406,-0.05561,0.38961,1.25147,0.39906,0.173,1.26487,0.0579,0.45424,1.47885,0.28715,0.26732,1.48784
2680,0.14837,0.12713,1.53425,0.09341,0.52684,0.14378,0.0521,-0.01088,0.07882,0.09715,0.50669,0.57067,0.12989,0.0521,0.49165,0.05342,0.24379,0.92596,0.18989,0.11269,0.92303,-0.01223,0.21225,1.48604,0.26548,0.00567,1.46357,-0.05564,0.39316,1.2523,0.3994,0.17814,1.26555,0.05759,0.45743,1.47993,0.28693,0.27097,1.48886
2681,0.14909,0.12951,1.53397,0.09285,0.5291,0.14387,0.05205,-0.01065,0.07855,0.09739,0.51025,0.57081,0.12866,0.05312,0.49148,0.05285,0.24684,0.92561,0.18941,0.11583,0.92245,-0.01261,0.2147,1.48571,0.26581,0.00983,1.46309,-0.05554,0.39677,1.25279,0.39978,0.18361,1.26624,0.05717,0.46066,1.48079,0.28674,0.27518,1.48978
2682,0.15005,0.13223,1.53356,0.09233,0.53113,0.14385,0.052,-0.01054,0.07833,0.09761,0.5138,0.57085,0.1276,0.05406,0.49132,0.05241,0.24988,0.9252,0.1891,0.11901,0.92185,-0.01303,0.21714,1.4852,0.26596,0.01405,1.46244,-0.05541,0.40034,1.25305,0.40008,0.18919,1.26692,0.05649,0.46388,1.48154,0.28638,0.27991,1.49047
2683,0.15055,0.13521,1.53301,0.09192,0.53311,0.14368,0.05194,-0.01067,0.07827,0.09783,0.51743,0.57073,0.12685,0.05491,0.49123,0.05229,0.25298,0.92464,0.18909,0.12222,0.92129,-0.01352,0.21957,1.48464,0.26597,0.01804,1.46149,-0.05534,0.40386,1.25326,0.40016,0.19476,1.26744,0.05567,0.46711,1.48226,0.28586,0.28495,1.49089
2684,0.15023,0.13811,1.53229,0.09167,0.5352,0.14336,0.05185,-0.01102,0.07833,0.09808,0.52119,0.57047,0.12636,0.05575,0.49118,0.0524,0.25616,0.92392,0.18933,0.12553,0.92074,-0.01399,0.22212,1.48411,0.26595,0.02184,1.46028,-0.0554,0.40748,1.25352,0.40004,0.20031,1.26776,0.05487,0.47033,1.48299,0.28526,0.29006,1.49114
2685,0.14936,0.14086,1.53142,0.09161,0.53734,0.14294,0.05175,-0.01143,0.07839,0.09841,0.52506,0.57009,0.12596,0.05664,0.49107,0.05254,0.25947,0.92309,0.18963,0.12901,0.9201,-0.01423,0.22501,1.48356,0.26593,0.02575,1.45893,-0.05578,0.41144,1.25386,0.39992,0.20591,1.26793,0.05406,0.47354,1.48374,0.28474,0.29512,1.49133
2686,0.14839,0.14375,1.53048,0.09158,0.53926,0.14246,0.05157,-0.01163,0.07833,0.09889,0.52903,0.56966,0.12556,0.05772,0.49084,0.0526,0.26295,0.92225,0.18986,0.13268,0.91933,-0.01412,0.22834,1.4829,0.26601,0.03002,1.45759,-0.05651,0.41585,1.25423,0.39996,0.21172,1.26803,0.05307,0.47682,1.48453,0.28442,0.30008,1.49158
2687,0.14767,0.14717,1.52955,0.09126,0.54072,0.14205,0.05134,-0.01154,0.07814,0.09961,0.53319,0.56929,0.12516,0.05915,0.49046,0.05257,0.26662,0.9214,0.19003,0.13656,0.91842,-0.01371,0.23194,1.48201,0.26632,0.03469,1.45633,-0.05734,0.42053,1.25446,0.40021,0.21787,1.26815,0.05182,0.48023,1.4853,0.28425,0.30497,1.49198
2688,0.14739,0.15124,1.52849,0.09052,0.54174,0.14178,0.05113,-0.01131,0.07789,0.10045,0.53767,0.56903,0.12485,0.06089,0.48996,0.05252,0.27042,0.92051,0.19032,0.14071,0.91739,-0.01322,0.23549,1.48094,0.26671,0.03961,1.45522,-0.05791,0.42511,1.25446,0.40056,0.22417,1.26836,0.05044,0.48365,1.48597,0.28401,0.30983,1.49244
2689,0.14753,0.15568,1.5272,0.08958,0.54252,0.14161,0.05102,-0.01111,0.07766,0.10122,0.54247,0.56883,0.12474,0.06277,0.48944,0.05251,0.27429,0.91949,0.19081,0.14512,0.91629,-0.01304,0.2388,1.47995,0.267,0.04457,1.45422,-0.05804,0.42937,1.25434,0.40092,0.23038,1.26866,0.04926,0.48702,1.48656,0.28348,0.31487,1.49271
2690,0.14778,0.16006,1.52573,0.08875,0.54326,0.14139,0.05101,-0.01094,0.07749,0.10184,0.54744,0.56855,0.1249,0.06476,0.48891,0.0525,0.27824,0.91833,0.19133,0.14964,0.91521,-0.01354,0.24185,1.47931,0.2673,0.04949,1.45309,-0.05781,0.43336,1.25434,0.40127,0.23669,1.26897,0.04855,0.49048,1.48713,0.28265,0.32037,1.4927
2691,0.14781,0.1643,1.52427,0.08809,0.54394,0.14111,0.051,-0.01063,0.07742,0.10252,0.55249,0.56816,0.12535,0.06707,0.48837,0.05244,0.2823,0.91709,0.19172,0.15417,0.91424,-0.01469,0.24473,1.47903,0.26782,0.05451,1.45146,-0.05752,0.43718,1.25459,0.40168,0.24358,1.26918,0.04816,0.49424,1.4877,0.28175,0.32644,1.49253
2692,0.14756,0.16866,1.5229,0.08748,0.54437,0.14087,0.05093,-0.0101,0.07745,0.10347,0.55761,0.56775,0.12597,0.06991,0.48784,0.05235,0.28646,0.91577,0.19208,0.15883,0.91337,-0.01606,0.2475,1.47891,0.26843,0.05993,1.4493,-0.05744,0.44098,1.25508,0.40227,0.25122,1.26933,0.04774,0.49827,1.48837,0.28105,0.33311,1.49234
2693,0.14721,0.17322,1.52157,0.08691,0.5444,0.14073,0.0508,-0.00951,0.07756,0.1046,0.56288,0.56735,0.12667,0.07321,0.48725,0.05223,0.29072,0.91439,0.19261,0.1638,0.91246,-0.01708,0.25026,1.47867,0.26886,0.06597,1.44705,-0.05763,0.44499,1.25577,0.40311,0.25923,1.2695,0.0471,0.50229,1.48925,0.28061,0.34024,1.49213
2694,0.14709,0.17783,1.52029,0.08655,0.54401,0.14063,0.05064,-0.00906,0.07766,0.10555,0.56829,0.5669,0.12747,0.0768,0.48653,0.05208,0.29507,0.91294,0.19331,0.16908,0.91139,-0.01746,0.25313,1.47806,0.26906,0.07256,1.44516,-0.05803,0.44942,1.25654,0.40413,0.26718,1.26975,0.04631,0.50613,1.49034,0.28024,0.34758,1.49183
2695,0.1473,0.1825,1.51906,0.0865,0.54337,0.14046,0.05048,-0.00875,0.07769,0.10615,0.57381,0.56631,0.12845,0.08065,0.48558,0.05182,0.29951,0.91136,0.19389,0.17447,0.91017,-0.01739,0.25621,1.47701,0.26916,0.07928,1.44361,-0.05852,0.45444,1.25732,0.40522,0.27485,1.27002,0.04552,0.51004,1.49152,0.27984,0.35473,1.49145
2696,0.14743,0.18747,1.51786,0.08655,0.54273,0.14015,0.05035,-0.00839,0.07767,0.10659,0.57934,0.56549,0.12962,0.08487,0.48444,0.05141,0.30405,0.90962,0.1942,0.17983,0.90891,-0.01738,0.25964,1.47575,0.26924,0.08569,1.44205,-0.05906,0.46018,1.25828,0.40643,0.28209,1.27031,0.04494,0.51444,1.49281,0.27951,0.36151,1.49102
2697,0.14685,0.19273,1.51664,0.08646,0.54222,0.13967,0.05033,-0.00787,0.07765,0.10716,0.5848,0.56442,0.13099,0.08944,0.48321,0.05097,0.30877,0.90779,0.19434,0.18521,0.90767,-0.01777,0.26355,1.47451,0.26932,0.09168,1.4403,-0.0597,0.46675,1.25956,0.40797,0.289,1.27079,0.04471,0.51936,1.49429,0.27937,0.36825,1.49059
2698,0.14539,0.19791,1.5154,0.08629,0.54173,0.13914,0.05049,-0.00724,0.07769,0.10796,0.59023,0.56321,0.13265,0.09421,0.48193,0.05066,0.31374,0.90603,0.19447,0.1907,0.90646,-0.01853,0.268,1.47325,0.2693,0.09766,1.4384,-0.06056,0.47408,1.26109,0.40987,0.29607,1.27177,0.04455,0.52425,1.49604,0.27927,0.37564,1.49028
2699,0.1436,0.20272,1.51419,0.0864,0.54106,0.13876,0.05078,-0.00655,0.07785,0.10886,0.59582,0.56203,0.13461,0.09923,0.48063,0.05058,0.31901,0.90443,0.19467,0.19629,0.90528,-0.01952,0.27303,1.47182,0.26898,0.10413,1.4364,-0.06174,0.48205,1.2626,0.41187,0.30388,1.27338,0.044,0.5285,1.49803,0.27896,0.38416,1.49022
2700,0.1421,0.2073,1.51304,0.08696,0.54019,0.13857,0.05111,-0.00574,0.07814,0.10966,0.60168,0.5609,0.13669,0.10462,0.47932,0.05072,0.32458,0.90294,0.19491,0.20199,0.90416,-0.02059,0.27857,1.47031,0.26827,0.11117,1.4344,-0.06309,0.49043,1.26402,0.41362,0.31238,1.2754,0.04291,0.53196,1.50025,0.27829,0.39357,1.49039
2701,0.14111,0.21223,1.51194,0.0878,0.53929,0.13835,0.05144,-0.00478,0.07855,0.11026,0.60769,0.55962,0.1387,0.11038,0.47801,0.05091,0.33042,0.90146,0.19517,0.20792,0.90305,-0.0216,0.28433,1.46903,0.26731,0.11846,1.43261,-0.06451,0.49885,1.26559,0.41499,0.32101,1.27751,0.04141,0.53503,1.50274,0.27741,0.40325,1.49068
2702,0.14052,0.2181,1.51085,0.08871,0.53864,0.13782,0.05177,-0.00385,0.07903,0.11068,0.61356,0.55801,0.14055,0.11628,0.4767,0.05092,0.33647,0.89992,0.19538,0.2142,0.90186,-0.02232,0.28995,1.46819,0.26639,0.12577,1.43122,-0.06611,0.50696,1.2676,0.41613,0.32942,1.27957,0.03979,0.53818,1.50546,0.27674,0.41277,1.49112
2703,0.14018,0.22496,1.50971,0.08954,0.5383,0.13682,0.05219,-0.00317,0.07968,0.11103,0.61901,0.55596,0.14229,0.12233,0.47539,0.05067,0.34274,0.89844,0.1955,0.22091,0.9006,-0.02268,0.29532,1.46771,0.26586,0.13316,1.4302,-0.06808,0.51483,1.27022,0.41733,0.33777,1.2816,0.03834,0.54176,1.50837,0.27651,0.42201,1.49185
2704,0.13994,0.23225,1.50853,0.0902,0.53801,0.13547,0.05277,-0.0028,0.08073,0.11146,0.62402,0.55357,0.14409,0.12875,0.47418,0.05026,0.34945,0.89725,0.19556,0.22818,0.89941,-0.02292,0.3005,1.46747,0.2659,0.14068,1.42937,-0.07036,0.52278,1.27359,0.41874,0.34632,1.28362,0.03734,0.54587,1.51156,0.27665,0.4311,1.49279
2705,0.13954,0.23937,1.50744,0.09068,0.53751,0.13408,0.05353,-0.00257,0.08237,0.11203,0.62881,0.55105,0.14621,0.13562,0.47323,0.04977,0.35669,0.89649,0.1956,0.23606,0.89846,-0.02345,0.30543,1.46749,0.26622,0.14831,1.42864,-0.07282,0.53087,1.27779,0.42035,0.35495,1.28568,0.03682,0.55029,1.51521,0.27698,0.44018,1.4938
2706,0.13876,0.24613,1.50658,0.09096,0.53684,0.13289,0.0545,-0.00216,0.0846,0.11263,0.63352,0.54864,0.14879,0.14277,0.47261,0.04922,0.36428,0.89612,0.19564,0.24436,0.89786,-0.02445,0.3101,1.46781,0.26645,0.15605,1.42805,-0.07546,0.53897,1.2827,0.42223,0.36339,1.28792,0.03652,0.5546,1.5193,0.27745,0.44937,1.49475
2707,0.13777,0.25266,1.50605,0.09098,0.53616,0.13191,0.05574,-0.00135,0.08718,0.11312,0.63807,0.54637,0.15191,0.15025,0.47217,0.04861,0.37192,0.89602,0.19562,0.25272,0.89755,-0.02581,0.31486,1.46834,0.26653,0.16405,1.42767,-0.07834,0.54704,1.28785,0.4245,0.37167,1.29044,0.03614,0.55851,1.52349,0.27804,0.45876,1.49561
2708,0.13694,0.25907,1.50591,0.09069,0.53556,0.13089,0.0573,-0.00016,0.09006,0.11339,0.6423,0.54411,0.15557,0.15837,0.47171,0.04802,0.37956,0.89617,0.19548,0.26092,0.89744,-0.02724,0.32011,1.46897,0.26675,0.17233,1.4275,-0.08129,0.55528,1.29285,0.42702,0.38009,1.29318,0.03551,0.56219,1.52753,0.27869,0.46843,1.49647
2709,0.13646,0.26546,1.50617,0.09007,0.53502,0.12955,0.05927,0.00123,0.09343,0.11346,0.64603,0.5416,0.15976,0.16746,0.47121,0.04754,0.38739,0.89659,0.19532,0.26914,0.89753,-0.02856,0.32585,1.46963,0.26726,0.18067,1.42755,-0.08397,0.5639,1.29785,0.4293,0.38877,1.2959,0.03457,0.56604,1.53175,0.27931,0.47827,1.49745
2710,0.13611,0.27199,1.50668,0.08909,0.53449,0.12775,0.06181,0.0028,0.09757,0.11343,0.6491,0.53876,0.16448,0.17769,0.47083,0.04715,0.39563,0.89738,0.19528,0.27781,0.89789,-0.02975,0.33184,1.47037,0.26771,0.189,1.42791,-0.08609,0.57307,1.3034,0.43102,0.39742,1.29835,0.03338,0.57024,1.53681,0.27986,0.4878,1.49863
2711,0.13553,0.27872,1.50736,0.08772,0.53368,0.1256,0.0651,0.00495,0.10261,0.11342,0.65135,0.53566,0.16987,0.18946,0.47062,0.04684,0.40432,0.89871,0.19556,0.28725,0.89855,-0.03101,0.33795,1.47147,0.26754,0.19751,1.42878,-0.08762,0.58273,1.30983,0.43241,0.40554,1.30058,0.03199,0.57467,1.54306,0.28045,0.49649,1.5
2712,0.13455,0.28566,1.50829,0.08594,0.53232,0.12331,0.06926,0.00837,0.10857,0.11342,0.65265,0.53249,0.17631,0.20348,0.47041,0.04656,0.41329,0.90058,0.1962,0.2974,0.89952,-0.03255,0.34422,1.47334,0.26662,0.20621,1.43036,-0.08882,0.59243,1.3169,0.43391,0.41277,1.30291,0.03038,0.57921,1.5501,0.28133,0.50433,1.50158
2713,0.13333,0.29281,1.50968,0.08379,0.53049,0.12103,0.07433,0.01358,0.11563,0.11323,0.65306,0.5294,0.18416,0.22034,0.47009,0.04619,0.42219,0.90284,0.197,0.30785,0.90082,-0.03441,0.35058,1.47618,0.26538,0.21481,1.43268,-0.09025,0.60156,1.32406,0.43551,0.41921,1.3055,0.02851,0.58367,1.55717,0.2826,0.51191,1.50338
2714,0.13209,0.30013,1.51161,0.08145,0.52867,0.11877,0.08021,0.02078,0.12409,0.11254,0.65276,0.52656,0.19347,0.24012,0.46979,0.04555,0.43079,0.90537,0.19764,0.31817,0.90251,-0.03641,0.35695,1.4798,0.26436,0.22306,1.43547,-0.09229,0.60991,1.33102,0.43676,0.42544,1.30812,0.02648,0.58776,1.56376,0.28395,0.51974,1.50532
2715,0.13076,0.30747,1.51397,0.07929,0.52719,0.1165,0.08657,0.03011,0.13413,0.11121,0.6518,0.52406,0.20403,0.2625,0.46976,0.04453,0.43905,0.90818,0.19797,0.3283,0.90449,-0.03819,0.36331,1.48378,0.2637,0.2312,1.43825,-0.09488,0.6178,1.33794,0.43733,0.43217,1.31036,0.02446,0.59144,1.56994,0.28497,0.52781,1.50726
2716,0.12901,0.31488,1.51661,0.07766,0.52593,0.11413,0.09306,0.04177,0.14563,0.10934,0.65008,0.52186,0.21532,0.28719,0.47008,0.04309,0.447,0.91125,0.19807,0.33846,0.90646,-0.03964,0.36973,1.4876,0.26319,0.23969,1.44074,-0.09763,0.62576,1.34502,0.43737,0.43963,1.31198,0.02248,0.59506,1.57609,0.28559,0.53574,1.5091
2717,0.12673,0.3227,1.51937,0.07677,0.5246,0.1117,0.09936,0.05592,0.15829,0.10713,0.64773,0.51983,0.22653,0.31408,0.47075,0.04133,0.45454,0.9143,0.19819,0.34882,0.90818,-0.04096,0.37635,1.49101,0.26249,0.24867,1.4431,-0.10009,0.63411,1.35203,0.4372,0.44721,1.31292,0.02043,0.59917,1.58229,0.28619,0.54313,1.51072
2718,0.12426,0.33123,1.52213,0.07666,0.52305,0.10932,0.10509,0.07251,0.17206,0.10465,0.64521,0.51792,0.23691,0.34298,0.47193,0.03945,0.46153,0.917,0.19864,0.35942,0.90967,-0.04246,0.38348,1.49413,0.26143,0.25775,1.44573,-0.10199,0.64293,1.35853,0.43706,0.45394,1.31323,0.01829,0.60396,1.58826,0.2873,0.54974,1.51205
2719,0.12198,0.34017,1.52483,0.07725,0.52138,0.10715,0.10983,0.09133,0.18723,0.10177,0.64285,0.51617,0.24621,0.37352,0.47397,0.03775,0.46795,0.91936,0.19958,0.37015,0.9112,-0.0441,0.39126,1.49734,0.26019,0.26654,1.44888,-0.1033,0.65216,1.3644,0.43699,0.45931,1.31296,0.01622,0.60915,1.59381,0.28918,0.55563,1.51297
2720,0.12001,0.34896,1.52755,0.07833,0.51979,0.10526,0.11341,0.11223,0.20406,0.09839,0.64063,0.51471,0.25454,0.40528,0.47729,0.03644,0.47383,0.92165,0.20106,0.38083,0.91306,-0.04568,0.39944,1.50087,0.25901,0.27485,1.45256,-0.10408,0.66158,1.37003,0.43698,0.46329,1.31216,0.01453,0.61445,1.59911,0.29176,0.56126,1.51327
2721,0.11812,0.35738,1.5304,0.0795,0.5185,0.10373,0.11616,0.13526,0.22236,0.09471,0.63832,0.51369,0.26203,0.43799,0.48222,0.03549,0.47907,0.92403,0.20295,0.3913,0.91545,-0.04707,0.40762,1.50475,0.25781,0.28265,1.45673,-0.10441,0.67094,1.37584,0.43693,0.46589,1.31102,0.01357,0.61989,1.6044,0.29468,0.56726,1.51256
2722,0.1161,0.3656,1.53346,0.08037,0.51756,0.10265,0.11894,0.16064,0.24149,0.09115,0.63592,0.51318,0.26878,0.47161,0.48907,0.03478,0.4835,0.92651,0.20514,0.40144,0.91846,-0.04838,0.41554,1.50881,0.25631,0.29006,1.46134,-0.10439,0.68007,1.3818,0.43662,0.46728,1.30976,0.01351,0.62571,1.60964,0.29751,0.57398,1.51074
2723,0.1139,0.37377,1.5367,0.0808,0.51687,0.10208,0.12258,0.18846,0.26082,0.08784,0.63369,0.51313,0.27489,0.50624,0.49803,0.03431,0.48709,0.92894,0.20753,0.41114,0.92202,-0.04972,0.42325,1.51287,0.2546,0.29737,1.46625,-0.1042,0.68896,1.38768,0.43583,0.46801,1.30836,0.01427,0.63212,1.61461,0.30021,0.58125,1.50815
2724,0.11164,0.38196,1.54006,0.0809,0.51629,0.10192,0.12732,0.21855,0.28012,0.08464,0.6318,0.51339,0.28036,0.54185,0.50928,0.03411,0.48997,0.93122,0.20996,0.42017,0.92592,-0.05105,0.43081,1.51672,0.25305,0.30489,1.47115,-0.104,0.69769,1.39336,0.43465,0.46867,1.30656,0.01575,0.63919,1.61919,0.3031,0.58872,1.50509
2725,0.10957,0.39014,1.54345,0.08089,0.51582,0.10209,0.13255,0.25045,0.29952,0.08153,0.63013,0.5139,0.28497,0.57799,0.52298,0.0341,0.49227,0.93342,0.21222,0.42836,0.93001,-0.05226,0.43827,1.52022,0.25178,0.31271,1.47569,-0.10375,0.70631,1.39878,0.43344,0.46929,1.3043,0.01773,0.64682,1.62343,0.30644,0.5962,1.50152
2726,0.10791,0.39819,1.54685,0.08095,0.51557,0.10249,0.13738,0.28362,0.31913,0.07869,0.62847,0.51469,0.28825,0.61408,0.53932,0.03409,0.49412,0.93566,0.21414,0.43578,0.93438,-0.05343,0.44577,1.52347,0.25055,0.32054,1.47972,-0.10325,0.71492,1.40378,0.43237,0.4696,1.30191,0.01983,0.65477,1.62739,0.31027,0.60376,1.49742
2727,0.10659,0.40597,1.55028,0.08105,0.51565,0.10298,0.14154,0.31783,0.33871,0.0763,0.62671,0.51565,0.28984,0.64976,0.55844,0.03406,0.49577,0.93793,0.21572,0.44266,0.93919,-0.05468,0.45358,1.52663,0.24916,0.32788,1.48335,-0.10233,0.72368,1.4082,0.43115,0.46957,1.29978,0.02183,0.66271,1.63099,0.31455,0.61176,1.49296
2728,0.10527,0.41357,1.5537,0.08104,0.51605,0.10337,0.14548,0.3531,0.35783,0.07442,0.62492,0.5166,0.28992,0.68492,0.58028,0.03426,0.49753,0.94017,0.21723,0.44932,0.94438,-0.05586,0.46184,1.52978,0.24781,0.33441,1.48684,-0.10091,0.73273,1.41215,0.42954,0.46952,1.29813,0.02397,0.67046,1.63417,0.31923,0.62055,1.48827
2729,0.10375,0.42133,1.55698,0.08093,0.51666,0.10373,0.14968,0.38924,0.37623,0.07301,0.62324,0.51754,0.28897,0.71942,0.60433,0.035,0.49956,0.9424,0.21908,0.45614,0.94951,-0.05658,0.47041,1.53282,0.24683,0.34041,1.49032,-0.09901,0.74198,1.41579,0.42783,0.46984,1.29698,0.02661,0.67801,1.6369,0.32415,0.63013,1.48323
2730,0.10234,0.42951,1.56004,0.08087,0.51752,0.10437,0.15414,0.42576,0.39406,0.07186,0.62202,0.51868,0.28741,0.75304,0.62981,0.03614,0.50178,0.94473,0.22126,0.46355,0.95412,-0.05671,0.47903,1.53552,0.24632,0.34662,1.49381,-0.0966,0.75122,1.41905,0.42655,0.47069,1.29629,0.02981,0.68544,1.63918,0.32921,0.64025,1.47769
2731,0.10142,0.43797,1.56287,0.08102,0.51867,0.10543,0.15864,0.46229,0.4116,0.07077,0.62152,0.52013,0.28543,0.78548,0.65639,0.03713,0.50403,0.94712,0.22329,0.47168,0.9581,-0.05645,0.48753,1.53769,0.24606,0.35362,1.4973,-0.09361,0.76032,1.42171,0.42595,0.47205,1.29603,0.03328,0.69281,1.64104,0.3347,0.6507,1.47178
2732,0.10093,0.44641,1.56545,0.08146,0.51989,0.10674,0.16308,0.49893,0.42891,0.06975,0.62169,0.52166,0.28311,0.81623,0.68458,0.03771,0.50603,0.94927,0.22475,0.47998,0.96187,-0.05597,0.49585,1.53943,0.24588,0.36136,1.50076,-0.09019,0.76919,1.42384,0.42586,0.47387,1.29621,0.0368,0.70016,1.64263,0.34101,0.66144,1.46577
2733,0.10042,0.45458,1.56764,0.08218,0.52072,0.10793,0.16748,0.53611,0.44581,0.0689,0.6222,0.52288,0.2803,0.8446,0.71517,0.03819,0.50747,0.95084,0.22579,0.4876,0.96603,-0.05528,0.50383,1.54094,0.24578,0.36928,1.50405,-0.08678,0.77769,1.42581,0.42608,0.47624,1.29681,0.04042,0.70754,1.64413,0.34814,0.67251,1.45971
2734,0.09947,0.46232,1.56925,0.08306,0.52104,0.10882,0.17183,0.57407,0.46206,0.06831,0.62294,0.52361,0.27653,0.87008,0.74817,0.03892,0.50842,0.95172,0.22668,0.49425,0.97092,-0.0546,0.51136,1.54228,0.24579,0.37694,1.50691,-0.08373,0.78579,1.42788,0.42663,0.47922,1.29779,0.04419,0.71487,1.64553,0.3557,0.68397,1.45328
2735,0.09798,0.46967,1.57013,0.08401,0.52115,0.10951,0.176,0.61277,0.47762,0.06802,0.62406,0.52401,0.2715,0.89264,0.78258,0.03996,0.50934,0.95215,0.22745,0.50042,0.97642,-0.05423,0.51851,1.54326,0.24578,0.38441,1.50921,-0.08118,0.7936,1.42993,0.42773,0.48267,1.29914,0.04787,0.72194,1.64668,0.36352,0.69575,1.44613
2736,0.09625,0.47686,1.57032,0.08505,0.5214,0.1103,0.18,0.65237,0.4929,0.06812,0.62584,0.52439,0.26545,0.9128,0.81744,0.0412,0.51082,0.95252,0.22811,0.50675,0.98201,-0.05426,0.52549,1.54362,0.24577,0.39208,1.51123,-0.07908,0.80132,1.43161,0.42953,0.48629,1.30087,0.05103,0.72877,1.64742,0.37197,0.70753,1.43824
2737,0.09468,0.48403,1.57002,0.08611,0.5221,0.11143,0.18412,0.69339,0.50902,0.06849,0.62872,0.52493,0.25872,0.9313,0.85295,0.04266,0.51312,0.95297,0.22883,0.51358,0.98702,-0.0547,0.53266,1.54328,0.24595,0.40026,1.51335,-0.0772,0.80926,1.43268,0.43202,0.48988,1.30302,0.05349,0.73559,1.64776,0.38142,0.71902,1.42978
2738,0.09343,0.49111,1.56949,0.08697,0.52326,0.11285,0.18853,0.7361,0.52729,0.06884,0.63304,0.5255,0.25147,0.94825,0.88989,0.04429,0.51623,0.95329,0.22969,0.52087,0.99104,-0.05553,0.5403,1.54241,0.24634,0.40892,1.51561,-0.07497,0.81766,1.43315,0.43503,0.49354,1.30555,0.0555,0.74256,1.64786,0.39188,0.73028,1.42055
2739,0.09224,0.49812,1.56876,0.08773,0.52446,0.1143,0.1929,0.7801,0.54809,0.06908,0.63859,0.52574,0.24369,0.96288,0.92818,0.04597,0.52026,0.95319,0.23059,0.52832,0.99408,-0.05665,0.54845,1.54114,0.24668,0.41775,1.51769,-0.072,0.82656,1.43314,0.43836,0.49735,1.30837,0.05757,0.74957,1.64773,0.40333,0.74142,1.41002
2740,0.0908,0.50529,1.56758,0.08888,0.52524,0.11545,0.19668,0.82486,0.57058,0.06942,0.64478,0.52532,0.2356,0.97422,0.96634,0.04767,0.5254,0.95255,0.23148,0.53556,0.99653,-0.0577,0.55683,1.53936,0.24678,0.42639,1.51924,-0.06857,0.83576,1.43292,0.44198,0.50122,1.31141,0.05999,0.75629,1.64722,0.41613,0.75213,1.39803
2741,0.08905,0.51283,1.56566,0.09074,0.52565,0.11621,0.19956,0.87037,0.59376,0.07003,0.65113,0.52423,0.22753,0.98207,1.00265,0.04965,0.53163,0.9515,0.23254,0.54239,0.99899,-0.05836,0.56501,1.53692,0.24675,0.43481,1.52023,-0.06544,0.8449,1.43272,0.446,0.50496,1.31463,0.06263,0.76235,1.64614,0.43033,0.76171,1.38509
2742,0.08706,0.52058,1.56297,0.09282,0.52611,0.11686,0.20162,0.91702,0.6177,0.07059,0.65761,0.5229,0.21955,0.98696,1.03631,0.05231,0.5385,0.95038,0.23409,0.54882,1.00206,-0.05863,0.5725,1.53384,0.247,0.4434,1.52088,-0.06326,0.85351,1.43254,0.45059,0.50857,1.31791,0.06501,0.7676,1.64451,0.44473,0.76975,1.37164
2743,0.08485,0.52791,1.55978,0.0945,0.52701,0.11788,0.20321,0.96483,0.64333,0.07053,0.66438,0.52188,0.21154,0.98971,1.06732,0.0558,0.54553,0.94956,0.23628,0.55503,1.00576,-0.0591,0.57901,1.53035,0.24791,0.45268,1.52144,-0.06222,0.86115,1.43221,0.45574,0.51227,1.32107,0.06656,0.7722,1.6426,0.45769,0.77648,1.3574
2744,0.08238,0.53417,1.55646,0.09588,0.52822,0.11941,0.20463,1.01304,0.6714,0.06963,0.67136,0.52126,0.20349,0.99118,1.09563,0.0597,0.55266,0.94912,0.23892,0.56147,1.00932,-0.06058,0.58461,1.52676,0.24943,0.46265,1.52191,-0.06192,0.86777,1.43155,0.46114,0.51612,1.32389,0.06701,0.77636,1.6408,0.46935,0.78209,1.34189
2745,0.07978,0.53926,1.55333,0.09754,0.52942,0.12108,0.20587,1.06067,0.70175,0.06814,0.67833,0.52061,0.19578,0.9923,1.12088,0.06343,0.56019,0.94871,0.24165,0.56879,1.01184,-0.06331,0.58954,1.52321,0.25089,0.47257,1.52197,-0.06171,0.87356,1.43059,0.46623,0.51983,1.3263,0.06649,0.7801,1.63939,0.48176,0.78608,1.32506
2746,0.07735,0.54355,1.5506,0.09962,0.53049,0.12239,0.2067,1.10719,0.73368,0.06643,0.68522,0.5194,0.18903,0.9939,1.14271,0.06676,0.56836,0.94788,0.24418,0.57733,1.01318,-0.06647,0.59379,1.51978,0.25154,0.48149,1.52124,-0.06141,0.87853,1.42955,0.47051,0.52291,1.32829,0.06545,0.78334,1.63838,0.49675,0.7875,1.30741
2747,0.07529,0.54754,1.54826,0.10193,0.53138,0.1232,0.20711,1.15293,0.76674,0.06482,0.69199,0.51752,0.18382,0.99659,1.16104,0.06989,0.57711,0.94651,0.24645,0.58696,1.01395,-0.06897,0.59689,1.51669,0.25127,0.489,1.5197,-0.06163,0.88227,1.42868,0.47376,0.52511,1.32973,0.06419,0.78607,1.63768,0.51432,0.78561,1.28941
2748,0.07358,0.55146,1.54607,0.10443,0.5321,0.12381,0.20729,1.19868,0.8011,0.06358,0.69853,0.51534,0.18018,1.00075,1.17599,0.07294,0.58604,0.94489,0.24847,0.5974,1.01475,-0.07043,0.59848,1.5143,0.25058,0.49537,1.5177,-0.06301,0.8844,1.42807,0.47595,0.52647,1.33026,0.06266,0.78825,1.63718,0.53299,0.78013,1.27081
2749,0.07203,0.55523,1.54383,0.10736,0.53269,0.12455,0.2075,1.2449,0.83723,0.06292,0.70459,0.51331,0.17742,1.00672,1.18767,0.07578,0.59471,0.94344,0.25018,0.60865,1.01563,-0.07144,0.5987,1.51268,0.25013,0.50119,1.51557,-0.06545,0.88503,1.42767,0.47719,0.52723,1.32939,0.06078,0.78966,1.6368,0.55127,0.77121,1.2512
2750,0.07046,0.55848,1.54172,0.11068,0.5331,0.12542,0.20767,1.29142,0.87532,0.06282,0.70987,0.51158,0.1748,1.01488,1.19609,0.07817,0.60312,0.94242,0.25148,0.62096,1.01636,-0.07275,0.59797,1.5113,0.25038,0.50693,1.5134,-0.06831,0.88467,1.42745,0.47761,0.52746,1.32676,0.05881,0.79006,1.63638,0.56851,0.7592,1.23102
2751,0.06877,0.56084,1.54006,0.11402,0.53334,0.12619,0.20715,1.33761,0.91468,0.06306,0.71412,0.51009,0.1724,1.02596,1.20124,0.07991,0.6119,0.94198,0.25212,0.63469,1.01711,-0.07469,0.5965,1.50947,0.25138,0.51241,1.51128,-0.07136,0.88373,1.4274,0.4773,0.52669,1.32246,0.05704,0.78943,1.6357,0.58452,0.74405,1.21115
2752,0.06702,0.56213,1.53887,0.1169,0.53355,0.12662,0.20504,1.38251,0.95343,0.06353,0.7173,0.50878,0.17092,1.0407,1.20335,0.08084,0.62182,0.94219,0.25176,0.65005,1.0184,-0.07715,0.59424,1.50697,0.25267,0.51683,1.5093,-0.07506,0.88221,1.42749,0.47609,0.52401,1.31715,0.05544,0.78812,1.63457,0.59851,0.72511,1.19183
2753,0.0654,0.5623,1.53781,0.11905,0.53388,0.12672,0.20105,1.42454,0.98874,0.06416,0.71958,0.50772,0.17092,1.05895,1.20296,0.08104,0.63316,0.94303,0.2504,0.66685,1.02051,-0.07984,0.59112,1.50411,0.25358,0.51935,1.50748,-0.07984,0.87994,1.42775,0.47378,0.51871,1.3115,0.05377,0.78636,1.63308,0.60943,0.70185,1.17297
2754,0.06424,0.56134,1.53664,0.12046,0.53425,0.12676,0.19645,1.46174,1.01739,0.06494,0.72128,0.50701,0.17213,1.07931,1.20071,0.08078,0.64564,0.94437,0.2485,0.68439,1.02306,-0.08249,0.58708,1.50123,0.25411,0.52003,1.50563,-0.08552,0.87676,1.42828,0.47049,0.51085,1.30566,0.05184,0.78394,1.63146,0.61702,0.67493,1.15487
2755,0.06381,0.5592,1.53541,0.12136,0.53456,0.12702,0.19366,1.49275,1.03683,0.06587,0.72277,0.50669,0.17368,1.09989,1.19719,0.08028,0.65885,0.94597,0.24663,0.70175,1.02538,-0.08482,0.58206,1.49843,0.25485,0.5197,1.50355,-0.09159,0.87255,1.42899,0.46663,0.50115,1.29935,0.04956,0.78054,1.62993,0.62177,0.64615,1.13799
2756,0.06414,0.55585,1.5343,0.12194,0.53494,0.12765,0.19426,1.51761,1.04685,0.06692,0.72443,0.50677,0.17482,1.11928,1.19316,0.07961,0.67227,0.94765,0.24511,0.71821,1.02717,-0.08653,0.57627,1.49568,0.25622,0.51897,1.50123,-0.09779,0.86741,1.42965,0.46241,0.49027,1.29253,0.04694,0.77633,1.62846,0.62387,0.61729,1.12244
2757,0.06506,0.55144,1.53327,0.12202,0.53579,0.12857,0.19733,1.53741,1.05026,0.06784,0.72635,0.50727,0.17522,1.13667,1.18943,0.07897,0.68517,0.94935,0.24395,0.7332,1.02869,-0.08737,0.5702,1.49307,0.25803,0.51775,1.49867,-0.10402,0.86179,1.43029,0.4578,0.47844,1.2855,0.04437,0.77182,1.62688,0.62334,0.58928,1.10818
2758,0.06626,0.54648,1.53207,0.12137,0.53733,0.12951,0.20054,1.55368,1.05086,0.06836,0.7283,0.50817,0.17487,1.15188,1.1863,0.07844,0.69682,0.95107,0.24303,0.74647,1.03023,-0.08747,0.56425,1.49057,0.26007,0.51553,1.49595,-0.1101,0.85616,1.43122,0.45272,0.4655,1.27853,0.04246,0.76732,1.62511,0.62063,0.56208,1.0952
2759,0.06744,0.54168,1.53052,0.12011,0.53938,0.13022,0.20279,1.56777,1.05097,0.06852,0.72992,0.50928,0.17407,1.16517,1.18342,0.07783,0.70693,0.95272,0.24214,0.75821,1.03142,-0.08707,0.55864,1.48793,0.26233,0.51209,1.49313,-0.11561,0.85083,1.43265,0.44717,0.45143,1.27167,0.04152,0.76289,1.62328,0.61633,0.5352,1.08326
2760,0.06853,0.53751,1.5287,0.11866,0.54151,0.13064,0.20506,1.58036,1.05097,0.06866,0.73112,0.51038,0.17329,1.17694,1.18018,0.07673,0.71547,0.95417,0.24108,0.76872,1.03146,-0.08628,0.55356,1.48493,0.26472,0.50774,1.49027,-0.12001,0.84606,1.43443,0.44115,0.43651,1.26511,0.04147,0.75862,1.62163,0.61063,0.50844,1.07215
2761,0.06971,0.53397,1.52689,0.11738,0.5435,0.13107,0.20906,1.59154,1.05052,0.06903,0.73221,0.51148,0.17296,1.18732,1.17603,0.07507,0.72222,0.95546,0.23978,0.77788,1.03026,-0.0851,0.54923,1.48189,0.26683,0.50293,1.48742,-0.12322,0.842,1.43628,0.4346,0.42112,1.25927,0.04201,0.75465,1.62022,0.60345,0.4821,1.06202
2762,0.07113,0.53078,1.52538,0.1163,0.54556,0.1319,0.21543,1.60123,1.04958,0.06952,0.7336,0.51284,0.17338,1.19622,1.17063,0.07326,0.72681,0.9569,0.23832,0.78507,1.02889,-0.08377,0.54549,1.47949,0.26826,0.49764,1.4848,-0.12578,0.83834,1.43798,0.42746,0.4056,1.25441,0.04279,0.75102,1.61888,0.59485,0.4567,1.05317
2763,0.07262,0.52768,1.52433,0.1153,0.54796,0.13313,0.22336,1.60968,1.04869,0.0697,0.73521,0.5146,0.1748,1.20368,1.16379,0.07171,0.72912,0.95869,0.23678,0.78989,1.02855,-0.08262,0.54177,1.47808,0.26905,0.49154,1.48265,-0.12814,0.83447,1.43936,0.41951,0.39033,1.25026,0.04357,0.74758,1.61749,0.58505,0.43268,1.04547
2764,0.0738,0.52458,1.52366,0.11437,0.55058,0.13428,0.23146,1.6175,1.04851,0.06924,0.7363,0.51655,0.17749,1.20991,1.15532,0.07034,0.72959,0.96063,0.23508,0.7926,1.02927,-0.08178,0.53764,1.47736,0.26938,0.48457,1.48102,-0.13011,0.83011,1.44033,0.41057,0.37581,1.24622,0.0444,0.744,1.61609,0.57424,0.4102,1.03848
2765,0.07451,0.5215,1.52333,0.11372,0.5529,0.1349,0.23887,1.6251,1.04916,0.06816,0.73598,0.51839,0.18195,1.21524,1.1452,0.06873,0.72891,0.96247,0.23306,0.7939,1.03024,-0.08122,0.5333,1.47684,0.26937,0.47721,1.47983,-0.13127,0.82559,1.4407,0.40077,0.36267,1.24212,0.04532,0.7401,1.61469,0.56266,0.38932,1.03185
2766,0.07496,0.5182,1.52345,0.11344,0.55439,0.13506,0.24543,1.63228,1.05012,0.06667,0.73379,0.52014,0.18874,1.21969,1.13385,0.06667,0.72741,0.96423,0.23068,0.79424,1.03095,-0.08088,0.52922,1.47641,0.2691,0.47022,1.47906,-0.1315,0.82142,1.44031,0.39072,0.35157,1.23818,0.04616,0.73595,1.61322,0.55042,0.37023,1.02539
2767,0.0754,0.51426,1.52419,0.11335,0.55483,0.13505,0.25144,1.63815,1.05057,0.065,0.72986,0.52194,0.19774,1.22286,1.12199,0.06438,0.725,0.96605,0.22819,0.79364,1.03145,-0.08065,0.52551,1.47649,0.26888,0.46398,1.47875,-0.131,0.81762,1.43931,0.3812,0.34275,1.23466,0.04678,0.73174,1.61189,0.53762,0.35335,1.0189
2768,0.0759,0.50941,1.52551,0.11331,0.55433,0.135,0.2574,1.64175,1.04986,0.0634,0.72467,0.52378,0.20807,1.22418,1.11026,0.06225,0.72155,0.9679,0.22593,0.79189,1.03178,-0.0804,0.52166,1.47736,0.2689,0.45823,1.47897,-0.12993,0.81364,1.43808,0.37274,0.33595,1.23167,0.0474,0.72754,1.61102,0.52451,0.33888,1.01238
2769,0.07633,0.50382,1.52716,0.11345,0.55317,0.1348,0.26378,1.64248,1.04753,0.06202,0.71874,0.52544,0.21884,1.22323,1.09911,0.06048,0.7171,0.96956,0.22422,0.78871,1.0319,-0.08019,0.51706,1.4787,0.269,0.45251,1.47963,-0.1284,0.8089,1.43683,0.3654,0.33067,1.22912,0.04838,0.7233,1.61058,0.51158,0.32678,1.00608
2770,0.07657,0.49795,1.529,0.11376,0.5516,0.13442,0.27096,1.64022,1.04281,0.06082,0.71242,0.52684,0.22945,1.21996,1.08872,0.05908,0.71188,0.97096,0.22312,0.78396,1.03193,-0.08002,0.51158,1.47987,0.26882,0.44672,1.48056,-0.12662,0.8033,1.43544,0.35905,0.32665,1.22692,0.04977,0.71903,1.61022,0.49938,0.31709,1.00032
2771,0.07655,0.49233,1.53101,0.11379,0.5497,0.1339,0.27937,1.63533,1.03446,0.05978,0.70588,0.52804,0.23938,1.21477,1.07889,0.05787,0.70617,0.97217,0.22247,0.77787,1.03206,-0.07976,0.50572,1.48073,0.26824,0.4411,1.48163,-0.12481,0.79728,1.43369,0.35363,0.32394,1.22497,0.05113,0.71481,1.60978,0.48847,0.31002,0.99529
2772,0.07631,0.48733,1.53319,0.11316,0.54746,0.13323,0.28929,1.62832,1.02142,0.05912,0.69922,0.52909,0.24801,1.20827,1.06934,0.05666,0.70028,0.97322,0.22209,0.77089,1.0321,-0.07939,0.50013,1.48172,0.2674,0.43604,1.48279,-0.12317,0.79136,1.4316,0.34907,0.3227,1.22322,0.05195,0.71076,1.60937,0.47921,0.30569,0.99104
2773,0.07607,0.48308,1.53547,0.11198,0.54505,0.13237,0.30093,1.61938,1.00347,0.05916,0.6927,0.52995,0.255,1.20088,1.05998,0.05528,0.69443,0.97406,0.22189,0.76332,1.03165,-0.07918,0.49508,1.48329,0.26659,0.43167,1.4839,-0.12179,0.78582,1.4294,0.34527,0.32285,1.22149,0.05199,0.70692,1.60924,0.4716,0.30415,0.98735
2774,0.07589,0.47928,1.53783,0.11066,0.54274,0.13126,0.3145,1.60829,0.98096,0.05999,0.68661,0.5305,0.2606,1.19277,1.05084,0.05372,0.68866,0.97459,0.22183,0.75523,1.03051,-0.07943,0.49047,1.48549,0.26599,0.42784,1.4848,-0.1206,0.78057,1.42728,0.3422,0.32397,1.21966,0.05139,0.70324,1.60949,0.46546,0.30534,0.98388
2775,0.07546,0.47543,1.54029,0.10952,0.54065,0.12992,0.32961,1.59469,0.95402,0.06146,0.68104,0.53072,0.26555,1.18406,1.04195,0.05209,0.68292,0.97475,0.22188,0.74671,1.0288,-0.08016,0.48616,1.48808,0.26546,0.42429,1.48531,-0.11946,0.77559,1.42537,0.33992,0.3256,1.21771,0.0505,0.69952,1.61001,0.46069,0.30893,0.98051
2776,0.07452,0.47127,1.54276,0.10857,0.53867,0.12839,0.34489,1.57816,0.92238,0.0634,0.67585,0.53063,0.27069,1.17489,1.03335,0.05067,0.67703,0.97458,0.22213,0.73791,1.02672,-0.08113,0.48217,1.49088,0.26469,0.42112,1.48532,-0.11838,0.7709,1.42386,0.33846,0.32749,1.21572,0.04964,0.6956,1.61058,0.45736,0.31445,0.97734
2777,0.07323,0.46692,1.54511,0.10784,0.53665,0.12683,0.359,1.55826,0.88641,0.06567,0.67092,0.53038,0.2765,1.16528,1.02501,0.04967,0.67073,0.97422,0.22267,0.72886,1.02436,-0.08205,0.47853,1.49384,0.26363,0.41852,1.4848,-0.11768,0.76655,1.42297,0.33777,0.32976,1.21365,0.04887,0.69166,1.61117,0.45541,0.32171,0.97443
2778,0.07206,0.46258,1.54731,0.10755,0.53451,0.12538,0.37199,1.53456,0.84752,0.06812,0.66616,0.53007,0.28275,1.15521,1.01658,0.04903,0.66385,0.97378,0.22341,0.71955,1.02184,-0.08278,0.47519,1.49691,0.2626,0.41628,1.48394,-0.11767,0.76248,1.42278,0.33781,0.33273,1.21144,0.04797,0.68807,1.61196,0.45481,0.33088,0.97178
2779,0.07139,0.45823,1.5494,0.10788,0.53223,0.12406,0.38466,1.50683,0.80742,0.07068,0.6615,0.52972,0.28879,1.1447,1.00771,0.04866,0.65655,0.97328,0.22428,0.70989,1.01948,-0.08342,0.472,1.49987,0.26186,0.41382,1.48303,-0.1184,0.75859,1.42311,0.33863,0.33658,1.20911,0.0467,0.68501,1.61309,0.45549,0.3422,0.96944
2780,0.07124,0.45381,1.5514,0.10876,0.5299,0.12275,0.39693,1.47512,0.7673,0.07324,0.65698,0.52925,0.29439,1.13364,0.99823,0.04864,0.64917,0.97263,0.22539,0.69979,1.01755,-0.08422,0.46882,1.5024,0.26139,0.4111,1.48226,-0.11963,0.75479,1.42357,0.34023,0.34125,1.20695,0.04497,0.68238,1.61443,0.4572,0.35553,0.96769
2781,0.07125,0.44951,1.55325,0.10989,0.52767,0.12137,0.40759,1.43962,0.72759,0.07566,0.65284,0.52858,0.29991,1.12187,0.98814,0.04894,0.64202,0.97177,0.22683,0.68916,1.016,-0.08537,0.46564,1.50427,0.26095,0.40853,1.48169,-0.12092,0.75113,1.42377,0.34247,0.34649,1.20529,0.04302,0.67989,1.61564,0.45961,0.37032,0.96687
2782,0.07109,0.44574,1.55483,0.11086,0.52568,0.11989,0.4157,1.40058,0.68812,0.0778,0.64916,0.52771,0.30564,1.10938,0.97716,0.04935,0.6352,0.97071,0.22843,0.6781,1.01441,-0.08675,0.46253,1.50553,0.26032,0.4063,1.4813,-0.12188,0.74766,1.4236,0.34525,0.35205,1.20428,0.04119,0.67731,1.61653,0.46248,0.38602,0.96714
2783,0.07087,0.44268,1.55608,0.11135,0.524,0.11832,0.42163,1.35835,0.64879,0.07962,0.64568,0.52678,0.31159,1.09642,0.9646,0.0496,0.62869,0.96958,0.22992,0.66701,1.01248,-0.088,0.45944,1.50645,0.25944,0.4042,1.48094,-0.12257,0.74426,1.4232,0.34851,0.35793,1.20377,0.03958,0.67454,1.61714,0.46554,0.4026,0.96831
2784,0.07098,0.43993,1.55704,0.11138,0.52258,0.1167,0.42657,1.31356,0.60985,0.08125,0.64205,0.52594,0.31762,1.08334,0.94982,0.04971,0.62251,0.96852,0.23117,0.65645,1.01025,-0.08895,0.4563,1.50742,0.25854,0.40201,1.48037,-0.12346,0.74073,1.42283,0.35184,0.36443,1.20328,0.03797,0.67166,1.61759,0.46848,0.42032,0.97004
2785,0.07141,0.43705,1.55778,0.11121,0.52121,0.11515,0.43121,1.26673,0.57199,0.08274,0.6382,0.52523,0.32365,1.07032,0.93297,0.04979,0.61673,0.96762,0.23224,0.64681,1.00801,-0.08958,0.45308,1.50878,0.25792,0.39979,1.47944,-0.12495,0.73696,1.4227,0.35461,0.37179,1.20239,0.03629,0.66887,1.61797,0.4713,0.43929,0.97226
2786,0.07181,0.43396,1.55839,0.11098,0.51981,0.11371,0.43523,1.21781,0.53611,0.08385,0.6343,0.52458,0.32964,1.05711,0.91489,0.04985,0.61131,0.96681,0.23314,0.63786,1.00586,-0.08987,0.44983,1.51061,0.25766,0.39755,1.47819,-0.12683,0.73302,1.42297,0.35676,0.37982,1.20114,0.03483,0.66634,1.61838,0.47432,0.4593,0.97532
2787,0.0719,0.43084,1.5589,0.11053,0.51854,0.11226,0.4379,1.16649,0.50276,0.08434,0.63057,0.52387,0.33567,1.04289,0.89611,0.04973,0.60604,0.96597,0.23379,0.62889,1.00369,-0.08981,0.44664,1.51256,0.25754,0.39497,1.47671,-0.12853,0.7292,1.42364,0.35886,0.38789,1.19999,0.03392,0.66417,1.61894,0.47756,0.47997,0.97962
2788,0.07181,0.42793,1.55928,0.10958,0.5175,0.11073,0.43863,1.11305,0.47192,0.08431,0.62713,0.52304,0.34187,1.02692,0.87648,0.04923,0.60086,0.965,0.23404,0.61933,1.00138,-0.08949,0.44376,1.51406,0.25729,0.39183,1.4751,-0.12971,0.72589,1.42445,0.36115,0.3953,1.19925,0.03353,0.66244,1.61962,0.48046,0.50081,0.98533
2789,0.07186,0.42533,1.55942,0.10803,0.51652,0.10923,0.437,1.05864,0.44334,0.08415,0.62399,0.52219,0.34799,1.00921,0.85576,0.04826,0.59583,0.96397,0.2338,0.6094,0.9988,-0.08898,0.44129,1.51478,0.2568,0.38826,1.47351,-0.13053,0.72319,1.42506,0.36331,0.40184,1.19899,0.03332,0.66115,1.62017,0.48244,0.52127,0.9924
2790,0.07227,0.4229,1.55928,0.10589,0.51541,0.10789,0.43287,1.00442,0.41685,0.084,0.62108,0.52143,0.35321,0.99064,0.83388,0.04697,0.59085,0.96298,0.23314,0.59988,0.99588,-0.08841,0.43899,1.51488,0.25618,0.38464,1.47215,-0.13151,0.7207,1.42528,0.36506,0.40789,1.19921,0.03294,0.6601,1.62035,0.48347,0.54085,1.00063
2791,0.07291,0.42026,1.55896,0.10341,0.51426,0.10671,0.4269,0.95069,0.39244,0.08362,0.61833,0.52076,0.35682,0.97201,0.81087,0.04571,0.58567,0.96206,0.23241,0.59141,0.99259,-0.08796,0.43652,1.51488,0.25561,0.38131,1.47112,-0.13295,0.71793,1.42528,0.36652,0.41391,1.19995,0.03237,0.65892,1.62009,0.48395,0.55926,1.00965
2792,0.07342,0.41716,1.55866,0.101,0.51329,0.10554,0.42035,0.89712,0.37028,0.08277,0.61564,0.52009,0.35925,0.95313,0.78691,0.04482,0.5803,0.96118,0.232,0.58393,0.98902,-0.08762,0.43384,1.5151,0.25516,0.37855,1.47028,-0.1346,0.71485,1.42525,0.36798,0.41996,1.20112,0.03185,0.65739,1.61956,0.48393,0.57669,1.01912
2793,0.07374,0.41384,1.55837,0.09896,0.51267,0.10426,0.41386,0.84354,0.35051,0.08163,0.61298,0.51935,0.36169,0.93287,0.76252,0.04446,0.57515,0.9603,0.23204,0.57672,0.98546,-0.08722,0.43115,1.51553,0.25477,0.37641,1.46946,-0.13586,0.71172,1.42517,0.3695,0.42579,1.20245,0.03163,0.65565,1.619,0.48288,0.5938,1.02911
2794,0.07423,0.41096,1.55787,0.09731,0.51247,0.10298,0.40694,0.79019,0.33301,0.08044,0.61056,0.51861,0.36482,0.91019,0.73832,0.04446,0.5706,0.95948,0.23234,0.5692,0.98232,-0.08666,0.4286,1.51595,0.25435,0.37462,1.46866,-0.13632,0.70877,1.4249,0.37087,0.43129,1.20389,0.0318,0.65387,1.61852,0.48049,0.611,1.04012
2795,0.07533,0.40888,1.55698,0.09585,0.51252,0.10201,0.3989,0.73736,0.31755,0.07924,0.6089,0.51805,0.36793,0.88504,0.71464,0.04445,0.56656,0.95879,0.23248,0.56141,0.97973,-0.08601,0.42623,1.5161,0.25387,0.3727,1.46811,-0.13604,0.7061,1.42436,0.37185,0.43671,1.20567,0.03235,0.65219,1.61802,0.47735,0.62789,1.05253
2796,0.077,0.40715,1.55592,0.09439,0.51258,0.10145,0.38986,0.68523,0.30411,0.07804,0.60836,0.51764,0.36988,0.85817,0.69159,0.04415,0.56272,0.95812,0.23222,0.55372,0.97745,-0.08528,0.42397,1.5159,0.25346,0.3704,1.46795,-0.13547,0.70361,1.42356,0.37246,0.44227,1.20801,0.0332,0.65072,1.61725,0.47432,0.64378,1.06605
2797,0.07885,0.40488,1.55494,0.09278,0.51256,0.10103,0.38017,0.63416,0.29264,0.07715,0.60864,0.51718,0.37035,0.8301,0.66941,0.04356,0.55897,0.95725,0.23154,0.54622,0.9752,-0.08424,0.42174,1.51548,0.25336,0.36776,1.46804,-0.13505,0.70107,1.42254,0.37299,0.44786,1.21081,0.03426,0.6496,1.61606,0.47155,0.65838,1.08005
2798,0.08061,0.40185,1.55407,0.0911,0.51258,0.10042,0.36953,0.58485,0.28265,0.07695,0.60899,0.51655,0.36985,0.80082,0.64844,0.04276,0.55529,0.9561,0.23055,0.53868,0.97284,-0.08268,0.41961,1.51502,0.25362,0.36484,1.46806,-0.13481,0.69841,1.42122,0.37368,0.45311,1.21373,0.03533,0.64875,1.61448,0.46848,0.6719,1.09423
2799,0.08222,0.39869,1.55319,0.08963,0.51272,0.0996,0.35725,0.5379,0.2737,0.07758,0.60888,0.51585,0.36873,0.77052,0.62895,0.04184,0.55153,0.95481,0.22934,0.53089,0.97027,-0.08066,0.41789,1.51446,0.25414,0.36169,1.46776,-0.13444,0.69602,1.41958,0.37447,0.4578,1.21641,0.03622,0.64794,1.61279,0.46442,0.68464,1.10878
2800,0.08375,0.39606,1.55233,0.08873,0.51279,0.09869,0.34345,0.49345,0.26599,0.07885,0.60823,0.51517,0.36686,0.74,0.61112,0.0409,0.54739,0.95347,0.22804,0.52275,0.96733,-0.0786,0.41666,1.51371,0.25482,0.35857,1.46717,-0.13361,0.69415,1.4177,0.37505,0.46187,1.21864,0.03696,0.64688,1.61119,0.4591,0.69666,1.1241
2801,0.08542,0.39409,1.55161,0.08844,0.51242,0.09785,0.32914,0.45119,0.25994,0.08047,0.6072,0.51452,0.36404,0.70999,0.59498,0.04013,0.5427,0.95209,0.22685,0.51416,0.96401,-0.07689,0.41554,1.51282,0.25567,0.35567,1.46657,-0.13235,0.69256,1.41568,0.37529,0.46521,1.22042,0.03767,0.64555,1.60971,0.45271,0.70758,1.14046
2802,0.08755,0.39251,1.55099,0.08837,0.51138,0.09712,0.31525,0.41067,0.2553,0.08228,0.60593,0.51387,0.36033,0.68035,0.58041,0.03976,0.53763,0.95066,0.22593,0.50508,0.96064,-0.07555,0.41415,1.51197,0.25673,0.35286,1.46616,-0.13088,0.69078,1.41367,0.37544,0.46759,1.22195,0.0385,0.64414,1.60835,0.44566,0.71674,1.15772
2803,0.09023,0.39107,1.55036,0.08813,0.50995,0.09637,0.30158,0.37177,0.25129,0.08423,0.60456,0.51314,0.35582,0.65046,0.56727,0.03996,0.53263,0.94916,0.22537,0.49559,0.95759,-0.07414,0.41251,1.51131,0.25803,0.34992,1.46598,-0.12932,0.6887,1.41171,0.37589,0.46891,1.22341,0.03961,0.64292,1.60699,0.43836,0.72371,1.17537
2804,0.0931,0.38961,1.54972,0.08772,0.50879,0.09546,0.2873,0.33496,0.24731,0.08639,0.60322,0.51228,0.35061,0.62027,0.5556,0.04072,0.52812,0.94763,0.22505,0.48584,0.955,-0.07217,0.41096,1.5109,0.25964,0.34691,1.46587,-0.12771,0.68648,1.40964,0.37704,0.46946,1.22485,0.041,0.64199,1.6054,0.43091,0.72869,1.19275
2805,0.09572,0.38804,1.54916,0.08741,0.50828,0.0945,0.27196,0.30089,0.24317,0.08896,0.60203,0.51147,0.3448,0.59032,0.54545,0.04169,0.52428,0.94618,0.22458,0.47599,0.95267,-0.06954,0.40984,1.51076,0.26158,0.34407,1.46567,-0.12616,0.68428,1.40721,0.37912,0.46956,1.22624,0.04246,0.64117,1.60336,0.42332,0.73204,1.20951
2806,0.09805,0.38631,1.5488,0.0873,0.50833,0.09381,0.25596,0.26976,0.2388,0.09189,0.60098,0.511,0.3385,0.56119,0.53664,0.04241,0.52081,0.94503,0.22353,0.46615,0.95029,-0.06671,0.40913,1.51083,0.26367,0.34135,1.46542,-0.12461,0.68217,1.40433,0.38195,0.46927,1.22764,0.04376,0.64019,1.60093,0.41598,0.73379,1.22572
2807,0.10032,0.38457,1.54868,0.08723,0.50866,0.09356,0.23997,0.24122,0.234,0.09495,0.6,0.511,0.33179,0.53281,0.52895,0.04265,0.51727,0.94421,0.22174,0.45615,0.94772,-0.06416,0.40867,1.51101,0.26558,0.3383,1.46524,-0.12262,0.68023,1.40107,0.38499,0.46852,1.22928,0.04505,0.63907,1.59845,0.40927,0.73382,1.24173
2808,0.10267,0.38314,1.5488,0.08712,0.50906,0.0936,0.22456,0.21481,0.22837,0.09807,0.59912,0.51124,0.32475,0.50469,0.52227,0.04263,0.51344,0.94349,0.21935,0.44571,0.94508,-0.06192,0.40844,1.51124,0.267,0.33452,1.46509,-0.11982,0.67857,1.39756,0.38775,0.46742,1.23132,0.04658,0.63812,1.59615,0.40276,0.73238,1.25782
2809,0.10517,0.38212,1.54905,0.08702,0.50933,0.09374,0.21006,0.19043,0.22157,0.10145,0.59832,0.51151,0.31735,0.47666,0.51656,0.04282,0.50934,0.94267,0.21679,0.43481,0.94258,-0.0597,0.40847,1.51158,0.2679,0.33008,1.46488,-0.11656,0.67708,1.39383,0.39,0.46613,1.23364,0.04835,0.63757,1.59386,0.3957,0.72969,1.27411
2810,0.10794,0.38126,1.54929,0.08696,0.50945,0.09401,0.19668,0.16839,0.21369,0.10511,0.59747,0.51184,0.30942,0.44926,0.51177,0.04352,0.50482,0.94181,0.21453,0.42372,0.94037,-0.05729,0.40871,1.51205,0.26849,0.32551,1.46468,-0.11356,0.67544,1.38985,0.39185,0.46449,1.23586,0.05006,0.63734,1.5912,0.38825,0.72554,1.29035
2811,0.11091,0.3801,1.54948,0.08689,0.5096,0.09455,0.18443,0.14908,0.20499,0.10871,0.59639,0.51246,0.30085,0.42323,0.50787,0.04471,0.49953,0.94115,0.21281,0.41261,0.93855,-0.0547,0.40901,1.51255,0.26914,0.32113,1.4647,-0.11125,0.67344,1.38556,0.39367,0.46208,1.23772,0.05151,0.63718,1.58794,0.38151,0.71962,1.30595
2812,0.1138,0.37851,1.54968,0.08679,0.50998,0.09541,0.17324,0.13256,0.19572,0.11203,0.59511,0.51347,0.29161,0.39886,0.50479,0.04614,0.49332,0.94073,0.21152,0.40135,0.93715,-0.05199,0.40935,1.51306,0.27012,0.31672,1.46492,-0.10937,0.67109,1.38098,0.39585,0.45883,1.23933,0.05285,0.63693,1.58416,0.37639,0.71217,1.32036
2813,0.11643,0.3767,1.54993,0.08664,0.51067,0.0965,0.16284,0.11855,0.18608,0.11519,0.59379,0.51475,0.28181,0.37597,0.50236,0.04755,0.48642,0.94037,0.21026,0.38984,0.936,-0.04924,0.40982,1.51371,0.2715,0.31194,1.46516,-0.10736,0.66854,1.37611,0.39852,0.45502,1.24091,0.05439,0.63661,1.58003,0.37268,0.70384,1.33339
2814,0.119,0.37475,1.55014,0.08638,0.51165,0.09768,0.15281,0.10666,0.1764,0.11838,0.59247,0.51613,0.27169,0.35435,0.50038,0.0487,0.47932,0.93991,0.20867,0.3783,0.9349,-0.04648,0.41038,1.51442,0.27314,0.3068,1.46526,-0.10475,0.66589,1.37101,0.40142,0.45096,1.24243,0.05646,0.6363,1.5757,0.3696,0.69507,1.34505
2815,0.12182,0.37253,1.55016,0.0859,0.51273,0.09888,0.14284,0.09647,0.16717,0.12151,0.591,0.51753,0.26148,0.33403,0.49874,0.04943,0.47253,0.93945,0.2065,0.36708,0.93376,-0.04371,0.41095,1.51497,0.27481,0.30146,1.46521,-0.1013,0.66325,1.36572,0.4042,0.44667,1.2437,0.05909,0.63606,1.5714,0.36683,0.68591,1.35548
2816,0.12499,0.36998,1.54992,0.08521,0.5137,0.10006,0.13296,0.0876,0.15882,0.12443,0.58913,0.5189,0.2512,0.3151,0.49751,0.0498,0.46625,0.93912,0.20372,0.3563,0.93271,-0.04082,0.41157,1.51527,0.27628,0.29581,1.46509,-0.0971,0.66068,1.36028,0.40667,0.44187,1.24474,0.06187,0.63591,1.56735,0.36437,0.6762,1.36488
2817,0.12833,0.36724,1.54949,0.08434,0.51447,0.10114,0.12316,0.07977,0.15137,0.12727,0.58675,0.52017,0.24066,0.29744,0.49672,0.05011,0.46033,0.93888,0.20058,0.34574,0.93194,-0.03752,0.41251,1.51544,0.27748,0.28945,1.46501,-0.09268,0.65819,1.35468,0.40877,0.43637,1.24576,0.06426,0.6358,1.56357,0.36216,0.66583,1.37345
2818,0.13162,0.36431,1.54905,0.08336,0.5151,0.10206,0.11336,0.07298,0.14451,0.13017,0.584,0.52125,0.22982,0.28074,0.49625,0.05071,0.45449,0.93858,0.19741,0.33511,0.93139,-0.03346,0.41379,1.51541,0.27846,0.28217,1.46495,-0.08851,0.65567,1.34895,0.41047,0.43024,1.2469,0.06622,0.6356,1.55971,0.36004,0.6549,1.3815
2819,0.13479,0.36098,1.5487,0.08242,0.51567,0.10282,0.10378,0.06742,0.13788,0.13304,0.58107,0.52213,0.21908,0.265,0.49582,0.05167,0.44848,0.93812,0.1943,0.32428,0.93082,-0.0286,0.41515,1.51491,0.27914,0.27403,1.46471,-0.08471,0.65302,1.34311,0.41183,0.42375,1.24822,0.06829,0.63512,1.55533,0.35788,0.64359,1.38925
2820,0.13788,0.35714,1.54835,0.08177,0.5162,0.10352,0.09506,0.06321,0.13138,0.13567,0.57802,0.52296,0.20905,0.25052,0.49521,0.05264,0.44217,0.93757,0.19108,0.31333,0.93005,-0.02337,0.41637,1.51385,0.27935,0.26526,1.46412,-0.08094,0.65032,1.33721,0.41298,0.41709,1.24968,0.071,0.63435,1.55034,0.35559,0.63211,1.39667
2821,0.14096,0.35296,1.54774,0.08151,0.51675,0.10426,0.08781,0.06017,0.12514,0.1381,0.57493,0.52387,0.20026,0.23761,0.49436,0.05322,0.43558,0.93695,0.18766,0.30259,0.92907,-0.01831,0.4174,1.51238,0.27925,0.25626,1.46332,-0.07698,0.64765,1.3313,0.41398,0.41021,1.25109,0.07434,0.63334,1.54499,0.35325,0.62047,1.40351
2822,0.14428,0.34868,1.54671,0.08158,0.5173,0.10508,0.08216,0.05792,0.11931,0.1405,0.5719,0.52485,0.19282,0.22632,0.49327,0.05328,0.42876,0.93614,0.18421,0.29233,0.92792,-0.01355,0.41813,1.51074,0.27928,0.24758,1.4627,-0.07301,0.6448,1.32546,0.41498,0.40284,1.25205,0.07794,0.63198,1.53951,0.35136,0.6085,1.40949
2823,0.14802,0.34451,1.54536,0.08184,0.5177,0.10588,0.07783,0.05605,0.11401,0.14288,0.56895,0.52576,0.18669,0.2164,0.49201,0.05297,0.42177,0.93504,0.18095,0.28258,0.92668,-0.00906,0.41841,1.50919,0.27972,0.23941,1.46244,-0.06941,0.64135,1.3197,0.41614,0.3947,1.25228,0.08141,0.63017,1.53392,0.35053,0.596,1.41446
2824,0.15205,0.34058,1.54399,0.08219,0.51787,0.10648,0.07452,0.0543,0.10932,0.145,0.56589,0.52649,0.18184,0.20749,0.49072,0.05249,0.41473,0.93373,0.17797,0.27328,0.92547,-0.00493,0.41818,1.50783,0.28033,0.23145,1.46239,-0.06618,0.63707,1.31397,0.41752,0.38576,1.252,0.08469,0.6282,1.52827,0.35072,0.58308,1.41853
2825,0.15588,0.33695,1.54277,0.08254,0.5179,0.10681,0.07208,0.05258,0.10533,0.14656,0.5626,0.527,0.17819,0.19936,0.48957,0.05188,0.40781,0.93237,0.17524,0.26449,0.92444,-0.00128,0.41729,1.50656,0.28077,0.22349,1.46237,-0.06275,0.63216,1.30832,0.41903,0.3763,1.25159,0.08798,0.62667,1.52284,0.35117,0.56999,1.42191
2826,0.15909,0.33338,1.54165,0.08279,0.51792,0.10688,0.0704,0.05081,0.10205,0.1474,0.55911,0.52733,0.17557,0.19194,0.48867,0.0511,0.40117,0.93111,0.17268,0.25631,0.92365,0.0021,0.41556,1.50513,0.28097,0.21569,1.46243,-0.05858,0.62697,1.30297,0.42055,0.36656,1.25113,0.09165,0.62577,1.5179,0.3512,0.55683,1.42468
2827,0.16184,0.32943,1.54062,0.08285,0.51794,0.10684,0.06929,0.04902,0.09939,0.14752,0.5555,0.52763,0.17366,0.18523,0.48798,0.05016,0.39475,0.93004,0.17029,0.24865,0.92309,0.00571,0.41317,1.50342,0.28096,0.20817,1.46258,-0.05375,0.62181,1.29804,0.42202,0.35644,1.25043,0.09589,0.62503,1.51337,0.35097,0.54346,1.4268
2828,0.16469,0.32485,1.53974,0.08273,0.51785,0.10686,0.06847,0.04729,0.09719,0.14705,0.55183,0.52801,0.17221,0.17917,0.48744,0.04915,0.38837,0.9292,0.16806,0.24127,0.92274,0.00984,0.41067,1.50148,0.28067,0.20072,1.46264,-0.04881,0.61678,1.29334,0.42333,0.34579,1.24933,0.10051,0.62385,1.50879,0.35116,0.52987,1.42832
2829,0.16798,0.31991,1.53901,0.08257,0.51748,0.10702,0.06784,0.04569,0.09539,0.14621,0.54808,0.52853,0.17114,0.1737,0.48704,0.04822,0.382,0.92862,0.16592,0.23391,0.92259,0.01436,0.40847,1.49938,0.28007,0.19301,1.46252,-0.04414,0.61177,1.28845,0.42428,0.33469,1.24799,0.10512,0.62201,1.50381,0.35199,0.51638,1.42935
2830,0.1715,0.31517,1.53824,0.08259,0.5169,0.10726,0.06744,0.04416,0.09393,0.14523,0.54413,0.52915,0.17046,0.16869,0.48678,0.04745,0.37572,0.92832,0.16379,0.22654,0.92263,0.01886,0.40647,1.49722,0.27934,0.18498,1.46242,-0.03962,0.6066,1.28328,0.42481,0.32347,1.24666,0.10946,0.61958,1.49862,0.3529,0.5034,1.42992
2831,0.17483,0.31092,1.5373,0.0829,0.51634,0.10744,0.06728,0.04266,0.09273,0.14411,0.53982,0.52977,0.17016,0.164,0.48661,0.04685,0.36968,0.92832,0.16164,0.2193,0.92276,0.02287,0.40426,1.49527,0.27874,0.1769,1.46268,-0.03507,0.60114,1.27819,0.42492,0.31236,1.24548,0.11342,0.61671,1.49376,0.3534,0.4912,1.42996
2832,0.17787,0.307,1.53629,0.08342,0.51594,0.10745,0.06721,0.04123,0.09173,0.14268,0.5352,0.53027,0.17019,0.15954,0.48651,0.04638,0.36394,0.92858,0.15956,0.21235,0.92292,0.02618,0.40152,1.49381,0.27834,0.16917,1.46339,-0.03058,0.5953,1.27364,0.42464,0.30149,1.24433,0.11703,0.61369,1.48961,0.35367,0.47977,1.42957
2833,0.18069,0.30298,1.53543,0.08392,0.5157,0.10737,0.06705,0.04012,0.09093,0.1408,0.5305,0.53069,0.17044,0.1555,0.48647,0.04592,0.35847,0.92901,0.1577,0.20585,0.92311,0.02892,0.39825,1.49288,0.27797,0.16203,1.46428,-0.0263,0.58909,1.26977,0.424,0.29101,1.24308,0.12039,0.61081,1.48605,0.35423,0.4689,1.42914
2834,0.18311,0.29855,1.53488,0.08428,0.51549,0.10737,0.06676,0.03956,0.09038,0.13862,0.52588,0.53115,0.17083,0.15213,0.48655,0.04537,0.35313,0.92955,0.15616,0.19981,0.92343,0.0314,0.39471,1.49223,0.27735,0.15536,1.46501,-0.02225,0.5827,1.26633,0.42321,0.28094,1.24175,0.12373,0.60806,1.48269,0.35525,0.45822,1.42905
2835,0.1849,0.29364,1.53475,0.08457,0.51522,0.10748,0.06645,0.03967,0.09005,0.13639,0.52132,0.53167,0.17131,0.14937,0.48681,0.04469,0.34782,0.93009,0.15491,0.19408,0.92395,0.03394,0.39122,1.4916,0.27643,0.14891,1.46542,-0.01844,0.57641,1.26311,0.42251,0.27108,1.24041,0.12721,0.6051,1.47927,0.35645,0.44733,1.42936
2836,0.18618,0.28849,1.53496,0.08501,0.51478,0.10755,0.06625,0.04023,0.08984,0.13424,0.51678,0.53209,0.17174,0.14697,0.48725,0.04412,0.34257,0.93056,0.15383,0.18846,0.92464,0.03663,0.38787,1.491,0.27554,0.14251,1.46561,-0.01494,0.57028,1.2601,0.42199,0.26129,1.23903,0.1308,0.60167,1.47584,0.35751,0.43612,1.42985
2837,0.18733,0.28342,1.53527,0.08565,0.51416,0.10742,0.06614,0.04087,0.08967,0.13207,0.51234,0.53227,0.17191,0.14473,0.48776,0.0439,0.33749,0.9309,0.15292,0.18287,0.92541,0.03914,0.38439,1.49063,0.27491,0.13614,1.46576,-0.01173,0.56407,1.25745,0.42152,0.25164,1.2376,0.13438,0.59782,1.47257,0.35829,0.42482,1.43032
2838,0.18863,0.27856,1.53541,0.08641,0.51345,0.10712,0.06599,0.04135,0.0894,0.12979,0.50808,0.53226,0.17173,0.14255,0.48818,0.04403,0.33266,0.93117,0.1522,0.17744,0.92608,0.04089,0.38051,1.4906,0.27433,0.12979,1.46597,-0.00874,0.55751,1.25511,0.42096,0.24218,1.23627,0.13777,0.59375,1.46956,0.35876,0.41384,1.43069
2839,0.19002,0.27373,1.53543,0.08713,0.51281,0.1068,0.0657,0.04164,0.08896,0.12745,0.50397,0.53219,0.17128,0.14034,0.48841,0.04428,0.32806,0.93143,0.15166,0.17228,0.92653,0.04178,0.37626,1.49074,0.27339,0.12352,1.46625,-0.00594,0.55058,1.25287,0.42021,0.23294,1.23525,0.14069,0.58957,1.46675,0.35896,0.40347,1.43095
2840,0.19125,0.26881,1.53551,0.08777,0.51224,0.10653,0.06532,0.04171,0.08837,0.12528,0.49982,0.53208,0.17072,0.1381,0.48844,0.04448,0.3236,0.93167,0.15119,0.16736,0.92675,0.04241,0.37209,1.49084,0.27205,0.11744,1.46653,-0.00343,0.54359,1.25056,0.41928,0.22404,1.23447,0.14289,0.58521,1.46416,0.35903,0.39378,1.43116
2841,0.1921,0.26399,1.5357,0.08838,0.51158,0.10623,0.06493,0.04157,0.08774,0.12342,0.49551,0.53187,0.17019,0.13583,0.48835,0.04464,0.31925,0.93185,0.15075,0.16261,0.92682,0.04341,0.36839,1.49085,0.27067,0.11166,1.46675,-0.0013,0.53695,1.24828,0.4183,0.21566,1.23377,0.14436,0.58066,1.46192,0.35913,0.38469,1.43141
2842,0.19258,0.2594,1.53592,0.08896,0.51073,0.10583,0.06449,0.04129,0.08716,0.1218,0.49115,0.5315,0.16972,0.13354,0.48824,0.0448,0.3151,0.93192,0.15032,0.15806,0.92685,0.04482,0.36512,1.49085,0.26936,0.10612,1.46697,0.00051,0.53084,1.24627,0.41731,0.20777,1.23315,0.14536,0.57608,1.46013,0.35922,0.37598,1.4318
2843,0.19295,0.25483,1.53612,0.08945,0.50984,0.10537,0.064,0.04101,0.08665,0.12024,0.48688,0.53102,0.1692,0.13131,0.48818,0.0449,0.31117,0.9319,0.14995,0.15381,0.9269,0.04614,0.36176,1.49093,0.26792,0.10068,1.46724,0.00208,0.52506,1.24468,0.41619,0.20016,1.23268,0.14625,0.57161,1.45872,0.35914,0.36747,1.43239
2844,0.19345,0.25002,1.53636,0.0898,0.50907,0.10496,0.0636,0.04074,0.08618,0.11873,0.48275,0.53055,0.16851,0.12927,0.48818,0.04487,0.30743,0.93188,0.14974,0.14994,0.92702,0.04696,0.35784,1.491,0.26623,0.09538,1.46757,0.00345,0.51932,1.24346,0.41492,0.19284,1.23244,0.14723,0.56719,1.45747,0.35881,0.35925,1.43316
2845,0.1941,0.24502,1.53676,0.09006,0.50841,0.10469,0.06343,0.04037,0.08575,0.11742,0.47869,0.53016,0.16762,0.12748,0.48825,0.04475,0.30386,0.93191,0.14972,0.14644,0.9272,0.04728,0.35331,1.49095,0.26452,0.09037,1.46792,0.00458,0.51352,1.24245,0.41367,0.18615,1.23239,0.14826,0.56274,1.45622,0.35821,0.35168,1.43402
2846,0.19465,0.24001,1.53728,0.09034,0.50776,0.10449,0.06344,0.03975,0.08541,0.11632,0.47471,0.52981,0.16673,0.12577,0.48838,0.04469,0.30041,0.93198,0.14983,0.1431,0.92743,0.04738,0.34852,1.49079,0.26304,0.08563,1.46827,0.00547,0.50774,1.24151,0.4125,0.18033,1.2325,0.14925,0.55833,1.4549,0.35734,0.34498,1.43493
2847,0.19487,0.23512,1.53776,0.09073,0.50709,0.10431,0.06354,0.03889,0.08516,0.11521,0.4709,0.52945,0.16603,0.12386,0.48855,0.04487,0.29703,0.93204,0.14998,0.13969,0.92769,0.04751,0.34397,1.49064,0.26188,0.08097,1.46861,0.00622,0.50214,1.24059,0.41129,0.17521,1.23263,0.15024,0.55401,1.4535,0.35625,0.33888,1.43588
2848,0.19468,0.23045,1.53803,0.09115,0.50641,0.10412,0.06364,0.03804,0.08496,0.11384,0.46732,0.52911,0.16551,0.12157,0.48881,0.04531,0.29368,0.93211,0.15011,0.13614,0.92802,0.04777,0.33994,1.49056,0.26091,0.07625,1.46891,0.00693,0.49682,1.23963,0.40992,0.17039,1.23263,0.15132,0.54973,1.45203,0.35505,0.33291,1.43685
2849,0.19415,0.22609,1.53806,0.09147,0.50568,0.10398,0.06364,0.03751,0.08474,0.11217,0.46402,0.52883,0.16499,0.11904,0.48913,0.04583,0.2904,0.9322,0.15022,0.13257,0.92839,0.04814,0.33641,1.49049,0.25998,0.07151,1.46913,0.00769,0.49183,1.23859,0.40841,0.16569,1.2325,0.15247,0.5454,1.45056,0.35384,0.32693,1.43781
2850,0.19353,0.22201,1.538,0.09157,0.50492,0.10394,0.06345,0.03736,0.08444,0.11035,0.46092,0.52863,0.16434,0.11669,0.48938,0.04622,0.28726,0.93235,0.1503,0.12923,0.9287,0.04851,0.33319,1.49038,0.259,0.06682,1.46925,0.00848,0.48722,1.23755,0.40691,0.16122,1.23239,0.15351,0.54114,1.44926,0.35261,0.32117,1.43878
2851,0.19303,0.21818,1.53801,0.09143,0.50435,0.10399,0.06308,0.03738,0.08408,0.10869,0.45787,0.52848,0.16356,0.11481,0.48949,0.0464,0.28434,0.93254,0.15045,0.12628,0.92887,0.0487,0.33007,1.49027,0.25801,0.06217,1.46924,0.00916,0.48305,1.23674,0.40551,0.15708,1.23232,0.15435,0.53722,1.44828,0.35137,0.3158,1.43971
2852,0.19263,0.21458,1.53808,0.09115,0.50417,0.10409,0.06272,0.03736,0.0837,0.10737,0.45477,0.5283,0.16268,0.11323,0.48954,0.04654,0.28165,0.93275,0.15075,0.1237,0.92897,0.0487,0.3268,1.49021,0.25709,0.05752,1.46903,0.00957,0.47928,1.23631,0.4042,0.15319,1.23218,0.15506,0.53366,1.4476,0.35016,0.31076,1.44046
2853,0.19209,0.21102,1.53817,0.09094,0.50432,0.10418,0.06258,0.03723,0.08336,0.10626,0.45167,0.52803,0.16185,0.11153,0.48965,0.04682,0.27909,0.93292,0.15123,0.12127,0.92913,0.04861,0.32322,1.4902,0.25625,0.05292,1.46868,0.0096,0.47552,1.23618,0.40291,0.14949,1.23191,0.15565,0.53013,1.44701,0.34891,0.30604,1.44098
2854,0.19142,0.20725,1.53825,0.09086,0.50457,0.10422,0.06271,0.03696,0.08307,0.10511,0.44878,0.5277,0.1613,0.10952,0.48984,0.04729,0.27651,0.93296,0.15184,0.11879,0.92936,0.04858,0.31936,1.49025,0.2553,0.04864,1.46827,0.00917,0.47132,1.23609,0.40158,0.14614,1.23165,0.15594,0.52633,1.44632,0.34754,0.30162,1.4415
2855,0.19093,0.20315,1.53822,0.09081,0.50472,0.10423,0.06296,0.03652,0.08284,0.10394,0.44625,0.52739,0.16103,0.1074,0.49003,0.04786,0.27391,0.93286,0.15243,0.11619,0.92958,0.04863,0.31559,1.49044,0.25407,0.04485,1.46783,0.00843,0.46658,1.23582,0.40031,0.14325,1.23155,0.15569,0.52223,1.44554,0.346,0.29732,1.44237
2856,0.19075,0.19887,1.53803,0.09072,0.50468,0.10422,0.06311,0.03597,0.08264,0.10289,0.44399,0.52709,0.16078,0.10546,0.49018,0.04846,0.27134,0.93266,0.15288,0.11352,0.92975,0.04867,0.3123,1.49071,0.25264,0.04138,1.46733,0.00775,0.46169,1.23526,0.39922,0.14072,1.23166,0.15494,0.51806,1.44483,0.34439,0.29299,1.44365
2857,0.19053,0.19459,1.53781,0.09065,0.50449,0.10415,0.06312,0.03542,0.0825,0.102,0.44181,0.52676,0.16033,0.10381,0.49033,0.04905,0.26886,0.93239,0.1532,0.11085,0.92994,0.04856,0.30951,1.49085,0.25131,0.03789,1.46693,0.0074,0.45718,1.23444,0.39826,0.13817,1.23189,0.15399,0.51411,1.44429,0.34292,0.28867,1.445
2858,0.18985,0.19039,1.53773,0.09059,0.50422,0.10401,0.06308,0.03494,0.0824,0.10111,0.43966,0.52636,0.15975,0.1023,0.49053,0.04951,0.26639,0.93203,0.1535,0.10826,0.93016,0.04814,0.30682,1.49084,0.25023,0.03434,1.4668,0.00717,0.45322,1.23368,0.39718,0.13523,1.23203,0.15309,0.51048,1.4439,0.3416,0.28452,1.44594
2859,0.18865,0.18624,1.53791,0.09045,0.50392,0.10386,0.06306,0.03456,0.08227,0.10015,0.43758,0.52595,0.15923,0.10074,0.4907,0.0497,0.26389,0.93158,0.15387,0.10587,0.93036,0.04725,0.30377,1.49089,0.24927,0.03097,1.4669,0.00661,0.44951,1.2333,0.39579,0.13203,1.23193,0.15226,0.50698,1.44365,0.34009,0.28058,1.44631
2860,0.1872,0.18219,1.53831,0.09019,0.50361,0.10373,0.063,0.03426,0.08205,0.09921,0.43554,0.52556,0.15876,0.09911,0.4908,0.0497,0.26147,0.93115,0.15434,0.10377,0.93047,0.04579,0.3002,1.49115,0.24828,0.02787,1.46699,0.00557,0.44569,1.23334,0.39415,0.12901,1.23165,0.15143,0.50336,1.44349,0.33805,0.27679,1.44646
2861,0.18583,0.17837,1.53879,0.08997,0.50325,0.10365,0.06293,0.03398,0.08181,0.09847,0.43341,0.5252,0.15814,0.09752,0.49089,0.04984,0.25927,0.93086,0.15496,0.10188,0.93058,0.04401,0.2963,1.49153,0.24715,0.02483,1.46694,0.0043,0.44173,1.23361,0.39247,0.12646,1.23147,0.15057,0.49961,1.44341,0.3356,0.27314,1.44683
2862,0.1848,0.17486,1.53913,0.08994,0.50281,0.10361,0.0629,0.03367,0.08165,0.09794,0.43124,0.52488,0.15729,0.09603,0.4911,0.05029,0.2572,0.93071,0.15566,0.09998,0.9308,0.04245,0.29242,1.49192,0.24587,0.02164,1.46673,0.00305,0.43777,1.23391,0.39092,0.12431,1.23154,0.14976,0.49592,1.44333,0.3333,0.26974,1.44756
2863,0.18425,0.1716,1.5392,0.09009,0.50233,0.10363,0.06289,0.03333,0.0816,0.09752,0.42917,0.52464,0.15638,0.09463,0.49142,0.05089,0.25507,0.93056,0.15632,0.09789,0.93113,0.04151,0.28873,1.49218,0.24461,0.01829,1.46638,0.00188,0.43397,1.23415,0.38951,0.12237,1.23172,0.14905,0.49248,1.44315,0.33149,0.26668,1.44837
2864,0.18396,0.1685,1.53901,0.09022,0.5019,0.10369,0.06277,0.03306,0.08159,0.09718,0.42726,0.52445,0.1556,0.09319,0.49173,0.05143,0.25283,0.93032,0.15688,0.09567,0.93144,0.04102,0.28523,1.49214,0.24373,0.01477,1.46601,0.00072,0.43055,1.23425,0.388,0.1205,1.23171,0.14833,0.48942,1.44285,0.3301,0.26394,1.44897
2865,0.18355,0.16556,1.53867,0.09022,0.50163,0.10374,0.06257,0.033,0.08155,0.09692,0.42537,0.52421,0.15501,0.09168,0.49199,0.05188,0.25061,0.93002,0.15744,0.09353,0.9317,0.04047,0.2819,1.49168,0.2433,0.01113,1.46582,-0.00044,0.42767,1.23414,0.3861,0.11853,1.23137,0.14734,0.48679,1.44254,0.32886,0.26125,1.44928
2866,0.18279,0.16272,1.53836,0.09017,0.50154,0.10379,0.06236,0.0332,0.08143,0.09674,0.42345,0.52393,0.15449,0.09014,0.49219,0.05239,0.24858,0.92977,0.15805,0.09157,0.93189,0.03959,0.27879,1.49093,0.24294,0.00754,1.4658,-0.0016,0.4251,1.23375,0.38382,0.1163,1.23081,0.14588,0.48445,1.44229,0.32767,0.25837,1.44943
2867,0.18172,0.15968,1.53833,0.09022,0.50157,0.10392,0.06224,0.03348,0.08123,0.09659,0.42159,0.5237,0.15388,0.08864,0.49234,0.05303,0.24678,0.92965,0.15871,0.08978,0.93203,0.03846,0.27589,1.49016,0.24218,0.00434,1.46577,-0.00271,0.42249,1.23314,0.38154,0.11378,1.2302,0.14404,0.4822,1.4421,0.32656,0.25517,1.44956
2868,0.18061,0.15626,1.53866,0.09047,0.50159,0.10415,0.06219,0.03359,0.08099,0.09646,0.41988,0.52361,0.15307,0.08721,0.49247,0.05367,0.24515,0.92968,0.15932,0.08813,0.93214,0.03728,0.27309,1.4896,0.24105,0.00179,1.46569,-0.00371,0.41964,1.23253,0.3796,0.11115,1.2296,0.14205,0.47996,1.442,0.32532,0.25174,1.44964
2869,0.17964,0.15279,1.53919,0.09085,0.50146,0.10446,0.06209,0.03346,0.0808,0.09644,0.41836,0.52365,0.1521,0.08585,0.49263,0.05413,0.24359,0.92975,0.15984,0.08662,0.93228,0.03606,0.27032,1.48943,0.24004,-0.00015,1.46573,-0.00466,0.4165,1.23209,0.37796,0.10862,1.22901,0.14007,0.4778,1.442,0.32361,0.24825,1.44964
2870,0.17883,0.14976,1.53958,0.09122,0.50111,0.10475,0.06186,0.03322,0.0807,0.0965,0.41701,0.52375,0.15115,0.08454,0.49282,0.05439,0.24205,0.92979,0.16027,0.0852,0.93245,0.03455,0.26759,1.48964,0.23954,-0.0019,1.46602,-0.00568,0.41318,1.23189,0.37627,0.10634,1.22837,0.13824,0.47569,1.442,0.3216,0.24487,1.44961
2871,0.17794,0.1474,1.53972,0.09153,0.50066,0.10504,0.06161,0.033,0.08064,0.09663,0.41574,0.52387,0.15033,0.08329,0.49301,0.05457,0.24059,0.92983,0.16062,0.08385,0.93261,0.03257,0.26492,1.49,0.2394,-0.00383,1.4664,-0.00683,0.40999,1.23183,0.37425,0.10431,1.22762,0.13672,0.47356,1.44187,0.31987,0.24168,1.44967
2872,0.17671,0.1455,1.53979,0.0919,0.50021,0.10532,0.06147,0.03282,0.08053,0.09681,0.41443,0.52397,0.14957,0.08205,0.49316,0.05477,0.23919,0.9299,0.16097,0.08256,0.93273,0.03033,0.26237,1.49023,0.2391,-0.00597,1.46656,-0.00812,0.40722,1.2318,0.37203,0.10235,1.22679,0.13547,0.47148,1.44161,0.31885,0.23871,1.44974
2873,0.17513,0.14367,1.53997,0.09246,0.4998,0.10557,0.06149,0.03271,0.08039,0.09701,0.41302,0.52403,0.14883,0.08069,0.49333,0.05503,0.23779,0.92997,0.16138,0.08125,0.93288,0.02838,0.26002,1.49024,0.2383,-0.00811,1.46643,-0.00954,0.40481,1.2317,0.36998,0.10027,1.226,0.13408,0.46967,1.4413,0.31838,0.23604,1.44968
2874,0.17351,0.14155,1.54027,0.09312,0.49945,0.10579,0.06157,0.03265,0.0803,0.09714,0.41157,0.52402,0.14816,0.07919,0.49357,0.05537,0.23632,0.92997,0.16187,0.07988,0.93307,0.02706,0.25786,1.49015,0.23712,-0.01014,1.46614,-0.01106,0.40242,1.23151,0.36826,0.09818,1.22538,0.13227,0.46814,1.44103,0.31803,0.2338,1.44947
2875,0.17211,0.13896,1.5406,0.09375,0.49922,0.10595,0.06158,0.03265,0.08026,0.09715,0.41013,0.52394,0.14755,0.0778,0.49381,0.05575,0.23482,0.9299,0.16243,0.07852,0.93328,0.0262,0.25586,1.49011,0.23598,-0.01203,1.46586,-0.01253,0.39982,1.23122,0.36678,0.0963,1.22492,0.13022,0.46661,1.44081,0.31732,0.232,1.44913
2876,0.17098,0.13619,1.54088,0.09436,0.49908,0.10606,0.06146,0.03266,0.08024,0.0971,0.40873,0.52377,0.14691,0.07679,0.494,0.05608,0.23341,0.92977,0.16306,0.07733,0.93343,0.02539,0.25396,1.49013,0.23519,-0.01379,1.46574,-0.01388,0.39714,1.23089,0.36536,0.09466,1.22451,0.12837,0.46481,1.44054,0.316,0.23047,1.44868
2877,0.17014,0.13367,1.54116,0.09509,0.49896,0.10609,0.0613,0.0327,0.08021,0.09709,0.40735,0.52354,0.14617,0.07613,0.49417,0.05638,0.23214,0.92962,0.16374,0.07632,0.93354,0.02443,0.25204,1.49009,0.23481,-0.01546,1.46591,-0.01514,0.39471,1.23062,0.36386,0.09303,1.22411,0.127,0.4628,1.44019,0.31424,0.22887,1.4482
2878,0.16962,0.13153,1.54143,0.09591,0.4988,0.10609,0.06122,0.03275,0.08021,0.09707,0.40604,0.52328,0.14538,0.07552,0.49438,0.05672,0.23096,0.92945,0.16444,0.07539,0.93369,0.02333,0.24996,1.48982,0.23466,-0.01706,1.46632,-0.0163,0.3927,1.2304,0.36237,0.09129,1.22374,0.12594,0.46093,1.43987,0.31239,0.22701,1.44783
2879,0.16922,0.12953,1.54162,0.09662,0.49855,0.10611,0.06122,0.03279,0.08027,0.0969,0.40486,0.5231,0.14466,0.07466,0.49468,0.05696,0.22967,0.92926,0.16515,0.07444,0.93392,0.02209,0.24766,1.48938,0.23453,-0.01864,1.4667,-0.01723,0.39082,1.23014,0.36109,0.0895,1.22342,0.12473,0.45944,1.43967,0.31073,0.22497,1.44757
2880,0.16852,0.1275,1.54173,0.09708,0.49828,0.1062,0.06123,0.03272,0.08039,0.0966,0.40373,0.52299,0.14405,0.07345,0.49504,0.05694,0.22817,0.92902,0.16588,0.07348,0.93421,0.02067,0.24525,1.48901,0.23433,-0.02016,1.46691,-0.018,0.38869,1.22983,0.36018,0.08777,1.22318,0.12317,0.4583,1.43957,0.30932,0.22297,1.44737
2881,0.16732,0.1254,1.54186,0.09735,0.49815,0.1063,0.06123,0.03249,0.08048,0.09632,0.40259,0.52286,0.14343,0.07203,0.49536,0.05675,0.22662,0.92872,0.16664,0.07264,0.93447,0.01914,0.24287,1.4889,0.23408,-0.02157,1.46703,-0.0189,0.38631,1.22962,0.3595,0.08618,1.223,0.12146,0.45738,1.43941,0.30808,0.22101,1.44729
2882,0.16578,0.12323,1.54207,0.09753,0.49828,0.1064,0.06122,0.03222,0.08045,0.09618,0.40159,0.5227,0.14273,0.07063,0.49558,0.05662,0.22527,0.92841,0.16736,0.07191,0.93461,0.01771,0.2406,1.48893,0.23392,-0.02284,1.46719,-0.02015,0.38403,1.22962,0.35884,0.08483,1.22287,0.11988,0.45651,1.43915,0.3069,0.21897,1.44746
2883,0.16429,0.12101,1.5423,0.09761,0.49858,0.10647,0.06119,0.03207,0.08032,0.09612,0.40098,0.52256,0.14206,0.06947,0.49567,0.05672,0.22414,0.92806,0.16793,0.07114,0.93462,0.01655,0.23851,1.48886,0.23395,-0.02405,1.46739,-0.02169,0.38215,1.22972,0.35813,0.08377,1.22275,0.11837,0.45559,1.43889,0.30584,0.21686,1.44788
2884,0.16319,0.119,1.54242,0.09759,0.49884,0.1065,0.06116,0.03204,0.08018,0.09612,0.40066,0.52245,0.14163,0.06858,0.49567,0.05703,0.22315,0.92769,0.1683,0.07021,0.93458,0.01568,0.23673,1.48858,0.2341,-0.02529,1.46753,-0.02327,0.38067,1.22971,0.35739,0.08287,1.2226,0.11676,0.45453,1.43877,0.30505,0.21491,1.44833
2885,0.16253,0.11764,1.54232,0.09756,0.49892,0.10648,0.06112,0.032,0.08009,0.09616,0.40033,0.52234,0.14143,0.0679,0.49567,0.05736,0.22222,0.92734,0.16855,0.06922,0.93455,0.01501,0.23531,1.48819,0.23419,-0.02674,1.46751,-0.02465,0.37937,1.2295,0.35665,0.08198,1.22241,0.1151,0.45327,1.43872,0.30445,0.21337,1.44856
2886,0.16206,0.11712,1.54195,0.09747,0.49885,0.10644,0.06099,0.0319,0.08002,0.09613,0.39974,0.52217,0.14126,0.0673,0.49566,0.05762,0.22137,0.92708,0.16877,0.06836,0.93452,0.0145,0.2342,1.48781,0.2341,-0.02842,1.46731,-0.02567,0.37809,1.22911,0.35597,0.0811,1.22226,0.11366,0.45188,1.43865,0.30377,0.21231,1.44852
2887,0.16161,0.11699,1.54145,0.09715,0.49878,0.10641,0.06077,0.03179,0.07994,0.09593,0.39894,0.52197,0.14096,0.06666,0.49563,0.05787,0.22061,0.92694,0.16904,0.06762,0.93445,0.01417,0.2332,1.48747,0.2339,-0.03009,1.46699,-0.02625,0.37673,1.2286,0.35545,0.08028,1.22217,0.11253,0.45061,1.43847,0.30295,0.21151,1.44834
2888,0.16123,0.11657,1.54097,0.0967,0.49891,0.10646,0.0606,0.03175,0.07982,0.09557,0.39813,0.52179,0.14064,0.06589,0.4956,0.05815,0.21985,0.92684,0.16941,0.06692,0.93438,0.01392,0.23212,1.48718,0.23364,-0.03136,1.46665,-0.02656,0.37518,1.22806,0.3551,0.07954,1.22203,0.11148,0.44967,1.4382,0.30218,0.21063,1.44818
2889,0.16099,0.1156,1.54063,0.09636,0.49927,0.10661,0.06058,0.03172,0.07972,0.09523,0.39748,0.52169,0.14047,0.06502,0.4956,0.05835,0.219,0.92671,0.16984,0.06625,0.93434,0.01347,0.23081,1.48697,0.23335,-0.03204,1.46635,-0.02696,0.37337,1.22757,0.35483,0.07893,1.22177,0.11021,0.44897,1.43789,0.30153,0.20958,1.44808
2890,0.16065,0.11428,1.54045,0.09619,0.49968,0.10681,0.06063,0.03158,0.07968,0.09497,0.39697,0.52167,0.14046,0.06428,0.49562,0.05839,0.2181,0.92654,0.17028,0.06565,0.93433,0.01264,0.22921,1.48686,0.23311,-0.03239,1.46611,-0.02779,0.37145,1.22728,0.35455,0.07847,1.22147,0.10872,0.44824,1.43759,0.3009,0.20848,1.44807
2891,0.1599,0.11295,1.54042,0.09603,0.49994,0.10699,0.0607,0.03134,0.07974,0.09474,0.39646,0.52165,0.14054,0.06394,0.49569,0.0583,0.21724,0.92639,0.17063,0.06513,0.93438,0.01158,0.22732,1.48679,0.233,-0.03293,1.46592,-0.02896,0.3697,1.22731,0.35433,0.07817,1.22132,0.10736,0.4474,1.43741,0.30016,0.2075,1.44818
2892,0.15877,0.11185,1.54049,0.09585,0.50002,0.10708,0.0608,0.03117,0.07986,0.09446,0.39592,0.52159,0.14069,0.06398,0.49578,0.05819,0.2165,0.92625,0.17084,0.06463,0.93446,0.01063,0.22536,1.48669,0.23296,-0.03392,1.46573,-0.03008,0.36828,1.22754,0.35431,0.07784,1.22143,0.10629,0.44651,1.43741,0.29937,0.20667,1.4484
2893,0.15762,0.11106,1.54055,0.09569,0.49998,0.10708,0.06095,0.03127,0.07994,0.09417,0.39542,0.52148,0.1409,0.06402,0.49586,0.05816,0.21585,0.92609,0.17096,0.0641,0.93455,0.00998,0.22367,1.48647,0.2328,-0.03513,1.46556,-0.0309,0.36715,1.22765,0.3545,0.07736,1.22178,0.10525,0.44572,1.43755,0.29863,0.20587,1.44871
2894,0.1568,0.11048,1.54056,0.09556,0.49994,0.10706,0.06113,0.03157,0.07992,0.09392,0.39499,0.52135,0.14109,0.06378,0.49588,0.0582,0.21523,0.92591,0.17106,0.06354,0.93458,0.00959,0.22245,1.4861,0.23243,-0.03619,1.46546,-0.03154,0.36619,1.22746,0.35471,0.07684,1.22222,0.10395,0.44504,1.43768,0.29797,0.20514,1.44905
2895,0.1564,0.10992,1.54052,0.09538,0.49993,0.10708,0.06131,0.03169,0.07982,0.09369,0.3945,0.52126,0.14118,0.06337,0.49583,0.0583,0.21456,0.92576,0.17122,0.06293,0.93453,0.00921,0.2215,1.48569,0.23199,-0.03698,1.46537,-0.03223,0.3652,1.22707,0.35474,0.0765,1.22258,0.10244,0.44434,1.43771,0.29732,0.20462,1.44934
2896,0.15629,0.10927,1.54048,0.09515,0.49992,0.10717,0.06146,0.03148,0.07972,0.09341,0.3939,0.52119,0.14125,0.06307,0.49576,0.05843,0.21385,0.92568,0.17143,0.06227,0.93444,0.00864,0.22057,1.48537,0.23169,-0.03759,1.46533,-0.03298,0.364,1.22664,0.35451,0.07644,1.22283,0.10093,0.44352,1.43761,0.29662,0.20434,1.44959
2897,0.15623,0.10853,1.5404,0.09485,0.49992,0.10728,0.06156,0.03119,0.07968,0.09312,0.39317,0.52112,0.14142,0.06297,0.49569,0.05858,0.21318,0.92567,0.17167,0.06166,0.93437,0.00787,0.21959,1.48525,0.23159,-0.03804,1.4655,-0.03359,0.36252,1.22622,0.35417,0.07662,1.22318,0.09956,0.44256,1.43748,0.29583,0.20419,1.45001
2898,0.15599,0.10775,1.54029,0.09448,0.50006,0.10742,0.06157,0.03116,0.07966,0.09283,0.39242,0.52103,0.14166,0.0629,0.49563,0.05868,0.21267,0.92572,0.17188,0.06124,0.93431,0.00716,0.21864,1.48522,0.23163,-0.03833,1.46588,-0.03399,0.3611,1.22588,0.35399,0.07708,1.22381,0.09839,0.44155,1.43747,0.295,0.20411,1.45078
2899,0.1555,0.10694,1.54017,0.09409,0.50041,0.1076,0.06151,0.03138,0.07959,0.09245,0.39181,0.52095,0.14179,0.06277,0.49555,0.05866,0.2123,0.92578,0.17204,0.061,0.93422,0.00671,0.21787,1.48508,0.23173,-0.03863,1.46622,-0.0343,0.36025,1.22567,0.3541,0.07784,1.22466,0.09742,0.44058,1.43771,0.29417,0.20415,1.45178
2900,0.15487,0.1062,1.54007,0.09384,0.50086,0.10782,0.06145,0.03158,0.07947,0.09193,0.39142,0.52094,0.14173,0.06256,0.49545,0.05857,0.212,0.92585,0.17219,0.06086,0.93412,0.00649,0.21735,1.48475,0.23185,-0.03923,1.46625,-0.03464,0.36005,1.22554,0.35442,0.07869,1.22549,0.09658,0.43974,1.43814,0.29342,0.20421,1.45277
2901,0.15434,0.10572,1.54002,0.09378,0.50119,0.10806,0.06147,0.03159,0.07935,0.09145,0.39118,0.52104,0.14151,0.06232,0.49541,0.05848,0.21173,0.92596,0.17235,0.06077,0.93404,0.00636,0.21692,1.48445,0.2319,-0.04019,1.46601,-0.03493,0.36,1.22547,0.35475,0.07927,1.22615,0.09578,0.4391,1.4386,0.29295,0.20396,1.45366
2902,0.15411,0.1055,1.54006,0.09391,0.50126,0.10823,0.06152,0.03151,0.07933,0.0912,0.39095,0.52113,0.14126,0.06214,0.49544,0.05851,0.21153,0.92609,0.17253,0.06067,0.93405,0.00623,0.21638,1.48439,0.23181,-0.04114,1.46577,-0.03507,0.35957,1.22548,0.355,0.07943,1.22665,0.09493,0.4387,1.43902,0.29273,0.20326,1.45451
2903,0.15411,0.10533,1.54019,0.09417,0.5012,0.10828,0.06152,0.03152,0.0794,0.09115,0.39063,0.5211,0.14104,0.06202,0.49557,0.05872,0.2114,0.92616,0.17268,0.0605,0.93415,0.00597,0.2157,1.48457,0.23165,-0.04166,1.46579,-0.03514,0.35875,1.22554,0.35524,0.07938,1.22711,0.09405,0.4384,1.43938,0.29248,0.20235,1.4553
2904,0.15411,0.10496,1.54034,0.09442,0.50125,0.10827,0.06145,0.03167,0.07954,0.09114,0.39018,0.52096,0.14091,0.06197,0.49574,0.05901,0.2113,0.92621,0.17283,0.06029,0.9343,0.00548,0.21498,1.48477,0.23154,-0.04171,1.46605,-0.03534,0.35789,1.22563,0.35549,0.07942,1.2276,0.09317,0.43803,1.43971,0.29184,0.20167,1.45593
2905,0.15389,0.1044,1.54041,0.09455,0.50151,0.10836,0.06133,0.03182,0.07971,0.09104,0.38968,0.52084,0.14087,0.06203,0.49589,0.05924,0.21117,0.92627,0.17299,0.06012,0.93444,0.00477,0.21422,1.48491,0.23165,-0.04156,1.4664,-0.03573,0.35721,1.22575,0.35566,0.07977,1.22809,0.09233,0.43755,1.44002,0.29079,0.20138,1.45642
2906,0.15345,0.10388,1.54042,0.09455,0.50188,0.10855,0.06121,0.03182,0.07985,0.09089,0.3893,0.52082,0.14091,0.06213,0.496,0.05929,0.21092,0.92633,0.1732,0.06,0.93453,0.00406,0.21343,1.48503,0.23202,-0.04144,1.46666,-0.03617,0.35659,1.22593,0.35575,0.08041,1.22847,0.0916,0.437,1.44035,0.28969,0.20127,1.45686
2907,0.15289,0.10367,1.5404,0.09443,0.50219,0.10875,0.06114,0.03166,0.07994,0.0908,0.38911,0.52089,0.14093,0.06213,0.49606,0.05922,0.21052,0.9263,0.17353,0.0599,0.93456,0.00363,0.2128,1.48519,0.23261,-0.0414,1.46674,-0.0365,0.35602,1.22611,0.35592,0.08114,1.22868,0.09104,0.43637,1.44068,0.28896,0.20105,1.4573
2908,0.15233,0.10388,1.54034,0.09426,0.50231,0.10889,0.06115,0.03148,0.07997,0.09086,0.38902,0.52097,0.14088,0.06195,0.4961,0.05919,0.21005,0.92622,0.17403,0.05984,0.93456,0.00357,0.21248,1.4853,0.23324,-0.04147,1.46656,-0.03672,0.35567,1.22622,0.35635,0.08176,1.22875,0.09068,0.43578,1.44096,0.28879,0.20068,1.45772
2909,0.15183,0.10442,1.54023,0.09412,0.50222,0.10896,0.06124,0.03145,0.07999,0.09098,0.38888,0.52103,0.14077,0.06175,0.49617,0.05933,0.20966,0.92616,0.17466,0.05983,0.93458,0.0036,0.21232,1.48527,0.23374,-0.0416,1.46616,-0.03689,0.35563,1.22629,0.35701,0.08227,1.22877,0.09049,0.43543,1.44116,0.28914,0.20037,1.45807
2910,0.1514,0.10489,1.54014,0.09403,0.50195,0.10894,0.06141,0.0316,0.08007,0.09103,0.3887,0.52104,0.14073,0.06171,0.4963,0.05962,0.20947,0.92618,0.17524,0.05987,0.93466,0.00336,0.21204,1.48515,0.2341,-0.0417,1.46574,-0.03699,0.35572,1.22636,0.35765,0.0828,1.22883,0.09041,0.43542,1.44125,0.28969,0.20035,1.45838
2911,0.15109,0.10488,1.54014,0.09385,0.50169,0.10891,0.06157,0.03177,0.08021,0.09093,0.38855,0.52104,0.14084,0.06185,0.49645,0.05997,0.20946,0.92628,0.17564,0.05989,0.93479,0.00278,0.21164,1.48502,0.23438,-0.04178,1.4655,-0.03696,0.35575,1.22637,0.35805,0.08343,1.22902,0.0903,0.43564,1.44129,0.28998,0.20066,1.45871
2912,0.15097,0.10442,1.54017,0.09357,0.50165,0.10894,0.0616,0.03178,0.08035,0.09073,0.38851,0.52107,0.1411,0.06204,0.49654,0.06026,0.20955,0.9264,0.17584,0.05991,0.93488,0.00212,0.21131,1.48492,0.23454,-0.04192,1.46553,-0.03678,0.35577,1.22634,0.35823,0.08407,1.22947,0.09002,0.43593,1.44142,0.28973,0.20114,1.45912
2913,0.15108,0.10395,1.5401,0.09335,0.50188,0.10901,0.06147,0.03164,0.08042,0.09051,0.38862,0.52111,0.14149,0.06213,0.49649,0.06046,0.20963,0.92646,0.17594,0.05991,0.93486,0.00165,0.21117,1.48487,0.23455,-0.04205,1.46579,-0.03662,0.35596,1.22638,0.35834,0.08455,1.23012,0.08963,0.43621,1.44175,0.28915,0.20154,1.45959
2914,0.15124,0.10378,1.53991,0.09333,0.50224,0.10908,0.06126,0.03147,0.08042,0.09037,0.38886,0.52114,0.14193,0.06208,0.49636,0.06059,0.20962,0.9264,0.17603,0.05986,0.93475,0.0014,0.21126,1.48497,0.23458,-0.04203,1.4662,-0.03672,0.35618,1.22653,0.35851,0.08484,1.23075,0.08927,0.43628,1.44211,0.28862,0.20172,1.46006
2915,0.15122,0.10379,1.53972,0.09342,0.50252,0.10906,0.06106,0.0314,0.08038,0.09035,0.38911,0.52111,0.14226,0.06193,0.49622,0.06072,0.20949,0.92622,0.17621,0.05978,0.93462,0.0012,0.21152,1.48519,0.23489,-0.04181,1.46669,-0.03715,0.35612,1.22661,0.35878,0.08504,1.2312,0.08896,0.43592,1.44223,0.28827,0.20174,1.46042
2916,0.15105,0.10376,1.53962,0.0934,0.50263,0.10898,0.06092,0.0314,0.0803,0.09036,0.38924,0.52104,0.14232,0.06181,0.49611,0.06082,0.20926,0.926,0.17658,0.05976,0.93449,0.00096,0.21176,1.48533,0.23546,-0.04152,1.46715,-0.03778,0.35569,1.22643,0.35905,0.08525,1.23147,0.08853,0.43524,1.44203,0.28794,0.2018,1.46057
2917,0.15103,0.10369,1.53957,0.09316,0.50263,0.10889,0.06085,0.03148,0.0802,0.09029,0.38925,0.52095,0.1422,0.06179,0.49603,0.06094,0.20907,0.92583,0.17712,0.0599,0.93436,0.00083,0.2117,1.48515,0.23596,-0.04125,1.4675,-0.03828,0.35519,1.22606,0.35925,0.08547,1.23163,0.08793,0.43463,1.44176,0.28763,0.20206,1.46056
2918,0.15137,0.10362,1.53954,0.0927,0.50269,0.10883,0.06083,0.03165,0.08013,0.09007,0.38929,0.52088,0.1421,0.06188,0.49598,0.06113,0.20905,0.92577,0.17768,0.06017,0.93425,0.00102,0.21123,1.48465,0.23613,-0.04097,1.4676,-0.03838,0.35496,1.22574,0.35935,0.08577,1.2317,0.08742,0.43439,1.44168,0.28753,0.20241,1.46053
2919,0.15181,0.10359,1.53955,0.0921,0.50285,0.1088,0.06078,0.03188,0.08013,0.08986,0.38951,0.52088,0.14227,0.06213,0.49594,0.0614,0.20922,0.92577,0.17814,0.06048,0.93419,0.00148,0.21054,1.48413,0.23607,-0.04069,1.46739,-0.03818,0.35503,1.22567,0.35941,0.08621,1.23165,0.08721,0.4345,1.44184,0.28772,0.20255,1.46068
2920,0.152,0.10356,1.53968,0.09153,0.5031,0.10884,0.06068,0.03214,0.08019,0.0898,0.38986,0.52095,0.14274,0.06251,0.49587,0.06166,0.20945,0.92581,0.17855,0.06082,0.93413,0.00194,0.21003,1.48381,0.236,-0.04041,1.46703,-0.038,0.35522,1.2258,0.35951,0.08682,1.23155,0.08715,0.43477,1.44207,0.28805,0.20237,1.46106
2921,0.15197,0.10333,1.53994,0.09117,0.50335,0.10889,0.06057,0.0324,0.08024,0.08981,0.3901,0.52099,0.14337,0.06289,0.49577,0.06187,0.20963,0.92585,0.17896,0.06117,0.93405,0.002,0.20997,1.48374,0.23602,-0.04015,1.46682,-0.03811,0.35537,1.22587,0.35968,0.08742,1.2316,0.08689,0.43508,1.44217,0.2882,0.20219,1.46149
2922,0.15198,0.10284,1.54023,0.09104,0.50355,0.10888,0.06052,0.0326,0.08026,0.08979,0.39007,0.52093,0.14392,0.06317,0.49566,0.06206,0.20972,0.92585,0.17942,0.06145,0.93395,0.0015,0.21023,1.48386,0.23606,-0.03996,1.46688,-0.03853,0.35534,1.22582,0.35998,0.08779,1.2319,0.08638,0.43532,1.44207,0.28793,0.2023,1.46174
2923,0.15212,0.10236,1.54034,0.09101,0.5037,0.10881,0.06054,0.03264,0.08024,0.08971,0.38992,0.52077,0.14432,0.06339,0.49555,0.06224,0.20973,0.92577,0.17994,0.06173,0.93382,0.00085,0.21044,1.48406,0.23603,-0.03984,1.46705,-0.03902,0.35514,1.22576,0.36048,0.08784,1.23231,0.08588,0.43544,1.44191,0.28736,0.20268,1.46165
2924,0.15225,0.10228,1.54022,0.09097,0.50384,0.10866,0.06062,0.03253,0.08018,0.0897,0.38997,0.5206,0.14463,0.06367,0.49542,0.06243,0.20974,0.9256,0.18055,0.06208,0.93367,0.00066,0.21051,1.48419,0.236,-0.03976,1.46705,-0.0393,0.3549,1.22573,0.36109,0.08786,1.23262,0.0856,0.43537,1.44181,0.28692,0.20309,1.46142
2925,0.15232,0.10268,1.54,0.09089,0.50395,0.10845,0.06068,0.03238,0.08013,0.08986,0.3903,0.52045,0.14492,0.06402,0.49528,0.06269,0.20988,0.92537,0.18118,0.06252,0.93351,0.00115,0.21058,1.4841,0.23608,-0.03962,1.46684,-0.0393,0.35472,1.22558,0.36158,0.08819,1.23274,0.08548,0.43521,1.44171,0.28691,0.20336,1.46141
2926,0.15235,0.10331,1.53983,0.09078,0.50403,0.10821,0.06072,0.03231,0.08011,0.09013,0.39069,0.52029,0.14517,0.0644,0.49518,0.06311,0.21022,0.9252,0.1817,0.06293,0.93338,0.00183,0.21064,1.48385,0.23634,-0.0394,1.46661,-0.03931,0.35456,1.22531,0.36184,0.08892,1.23279,0.08526,0.43523,1.4415,0.28721,0.20353,1.46175
2927,0.15231,0.10385,1.53972,0.0907,0.5042,0.10803,0.06078,0.03228,0.08013,0.09032,0.39084,0.52011,0.14541,0.0648,0.49514,0.06365,0.2107,0.92519,0.18205,0.06326,0.93333,0.00208,0.21066,1.48368,0.23669,-0.03918,1.46648,-0.03955,0.35441,1.22513,0.36202,0.08983,1.23294,0.08484,0.43561,1.44122,0.28747,0.20375,1.46228
2928,0.15216,0.10418,1.53962,0.09067,0.50456,0.10797,0.06087,0.03226,0.08019,0.0904,0.39067,0.5199,0.14567,0.06526,0.49512,0.06412,0.21119,0.9253,0.18232,0.06358,0.93331,0.00189,0.2107,1.48377,0.23702,-0.03903,1.46645,-0.0399,0.35433,1.22517,0.36225,0.09069,1.23325,0.08445,0.43625,1.44102,0.28751,0.20412,1.46277
2929,0.15195,0.10431,1.5395,0.09067,0.50503,0.108,0.06094,0.03226,0.08018,0.09052,0.39052,0.51976,0.14599,0.06573,0.49503,0.06437,0.21162,0.92542,0.1826,0.06403,0.93322,0.00169,0.21085,1.48402,0.23743,-0.03894,1.46645,-0.04019,0.35436,1.22537,0.36249,0.09149,1.23355,0.08425,0.43682,1.44097,0.28738,0.20446,1.46317
2930,0.1518,0.10431,1.5394,0.09066,0.50536,0.10796,0.06089,0.03235,0.0801,0.09073,0.39074,0.51969,0.14636,0.06609,0.49484,0.06444,0.21197,0.92541,0.18295,0.0646,0.93303,0.00173,0.21092,1.48427,0.23811,-0.03879,1.46643,-0.04044,0.35441,1.22566,0.36266,0.09229,1.23363,0.08421,0.43713,1.44103,0.28721,0.20452,1.4635
2931,0.1518,0.10433,1.5393,0.09066,0.5054,0.10773,0.06076,0.03251,0.08002,0.09085,0.39133,0.51961,0.14676,0.06637,0.49463,0.06456,0.21228,0.9252,0.18342,0.06519,0.93282,0.00178,0.2107,1.48443,0.23906,-0.0385,1.46634,-0.04073,0.35434,1.22597,0.3629,0.09314,1.23347,0.0842,0.43725,1.44111,0.28702,0.20429,1.46372
2932,0.15185,0.10454,1.53917,0.09069,0.50524,0.10734,0.06062,0.03271,0.08002,0.09078,0.39196,0.51944,0.14714,0.06665,0.49453,0.0649,0.2126,0.92492,0.18409,0.06578,0.93269,0.00171,0.21031,1.48444,0.23993,-0.03812,1.46613,-0.04107,0.35421,1.22615,0.3634,0.09391,1.23329,0.08403,0.43727,1.44113,0.28678,0.20405,1.46379
2933,0.15181,0.10496,1.53908,0.09061,0.50507,0.10699,0.06057,0.03296,0.08012,0.09064,0.39239,0.51925,0.14738,0.06687,0.49456,0.06542,0.21294,0.92473,0.18493,0.06638,0.93268,0.0017,0.21009,1.48424,0.24039,-0.03778,1.46593,-0.04137,0.35411,1.22607,0.36413,0.09449,1.23336,0.0836,0.43729,1.44108,0.28648,0.20408,1.46378
2934,0.15177,0.1052,1.53916,0.09036,0.505,0.10689,0.0606,0.03319,0.08024,0.09059,0.39266,0.51924,0.14744,0.06699,0.49469,0.06593,0.21324,0.92477,0.18574,0.06695,0.93274,0.00182,0.21004,1.48388,0.24054,-0.03752,1.4659,-0.04146,0.35406,1.22576,0.36485,0.09492,1.23374,0.083,0.43742,1.44099,0.28615,0.20456,1.46377
2935,0.15197,0.10482,1.53945,0.09005,0.50501,0.107,0.06066,0.03327,0.08034,0.09073,0.39292,0.51942,0.14741,0.0671,0.4948,0.06627,0.21351,0.92497,0.18633,0.0674,0.9328,0.00195,0.20986,1.4835,0.2408,-0.03719,1.46611,-0.04135,0.35402,1.22545,0.36546,0.09539,1.23421,0.08248,0.43765,1.44094,0.28586,0.20537,1.46377
2936,0.15243,0.10404,1.53974,0.08994,0.505,0.10717,0.06068,0.03324,0.08034,0.09106,0.39325,0.51968,0.14743,0.06737,0.49478,0.06644,0.21376,0.92518,0.18667,0.06778,0.93275,0.00197,0.20948,1.48326,0.24159,-0.03656,1.46648,-0.0413,0.3539,1.22535,0.36606,0.096,1.23447,0.0822,0.43782,1.44092,0.28581,0.20617,1.46372
2937,0.15291,0.10361,1.53984,0.09013,0.50493,0.10729,0.06068,0.03325,0.0802,0.09155,0.39362,0.51992,0.14749,0.06776,0.49459,0.06651,0.21401,0.92534,0.18693,0.06817,0.93254,0.00195,0.20919,1.48322,0.24286,-0.0356,1.46688,-0.0415,0.35372,1.2254,0.36686,0.09663,1.23443,0.08207,0.43778,1.44088,0.28616,0.20658,1.46362
2938,0.1532,0.10401,1.53974,0.09044,0.50482,0.10735,0.06071,0.03332,0.07998,0.09208,0.39404,0.52012,0.14755,0.06812,0.49434,0.06656,0.21426,0.92544,0.18722,0.0686,0.93227,0.00195,0.20918,1.48325,0.24411,-0.03453,1.46712,-0.04174,0.35364,1.22544,0.3679,0.09715,1.23425,0.08196,0.43763,1.44086,0.28684,0.20645,1.46362
2939,0.15337,0.10493,1.53957,0.09061,0.50474,0.10736,0.06084,0.03334,0.07986,0.0925,0.39455,0.52029,0.14757,0.06839,0.49422,0.06668,0.21455,0.92549,0.18752,0.06903,0.93213,0.002,0.20929,1.48324,0.24483,-0.03371,1.4671,-0.04173,0.35376,1.22543,0.36896,0.09763,1.23422,0.08191,0.43769,1.44092,0.28737,0.20597,1.46386
2940,0.15359,0.10575,1.53944,0.09057,0.50472,0.10732,0.06105,0.03326,0.07993,0.09274,0.39509,0.5204,0.14759,0.06863,0.49431,0.06691,0.21489,0.92551,0.1878,0.06942,0.93218,0.00205,0.20931,1.4832,0.24509,-0.03338,1.46689,-0.04147,0.35404,1.22551,0.36977,0.09827,1.23448,0.08199,0.43815,1.44102,0.2873,0.20558,1.46429
2941,0.15388,0.10623,1.53938,0.0904,0.50476,0.10723,0.06123,0.03309,0.08015,0.09283,0.39557,0.52042,0.14769,0.06901,0.49449,0.06722,0.21517,0.92546,0.18816,0.06975,0.93235,0.00213,0.20928,1.48316,0.24538,-0.03343,1.46663,-0.04115,0.3544,1.22564,0.37024,0.0992,1.23486,0.08204,0.43886,1.44117,0.2867,0.20562,1.4647
2942,0.15409,0.10649,1.53935,0.09028,0.50491,0.10712,0.06133,0.03285,0.08035,0.09293,0.3959,0.52036,0.14786,0.06964,0.49461,0.06762,0.21532,0.92534,0.18868,0.07001,0.93243,0.00232,0.20947,1.48309,0.24606,-0.03341,1.46646,-0.04085,0.35483,1.2257,0.3706,0.10031,1.23516,0.08191,0.43952,1.44139,0.28595,0.20601,1.46492
2943,0.15418,0.10665,1.53939,0.09027,0.50522,0.10704,0.06141,0.0326,0.08041,0.09316,0.39609,0.52025,0.14799,0.07042,0.49456,0.06811,0.21551,0.92523,0.18929,0.07029,0.93234,0.0027,0.2099,1.483,0.24697,-0.03299,1.46648,-0.04062,0.35533,1.22567,0.37108,0.10135,1.23531,0.08169,0.44,1.44162,0.28542,0.20646,1.46498
2944,0.15429,0.10668,1.5395,0.0903,0.5056,0.10698,0.06151,0.03239,0.0803,0.0935,0.39622,0.52012,0.14799,0.07113,0.4944,0.06862,0.21585,0.92521,0.18983,0.07065,0.93212,0.00318,0.21032,1.48295,0.24778,-0.03235,1.46672,-0.04063,0.35574,1.22569,0.37168,0.10208,1.23548,0.08155,0.44039,1.44172,0.28515,0.20692,1.46495
2945,0.15456,0.10656,1.53967,0.09023,0.50577,0.10692,0.06157,0.03234,0.08015,0.0938,0.39637,0.52005,0.14796,0.07156,0.49422,0.06902,0.21629,0.92528,0.19018,0.07104,0.93191,0.00354,0.21046,1.483,0.2483,-0.03189,1.46709,-0.04093,0.35592,1.22588,0.37226,0.10243,1.23583,0.08147,0.44073,1.44172,0.28498,0.20749,1.4649
2946,0.15496,0.10646,1.53977,0.0901,0.50557,0.10687,0.06154,0.03254,0.08003,0.09392,0.39659,0.52011,0.14807,0.07169,0.49407,0.06927,0.21665,0.9254,0.19042,0.07138,0.93175,0.00374,0.21037,1.48316,0.24854,-0.03171,1.46745,-0.04129,0.35591,1.22619,0.37275,0.10252,1.23625,0.08142,0.44098,1.44176,0.28502,0.20806,1.46494
2947,0.15547,0.10662,1.5397,0.09004,0.50514,0.1068,0.0615,0.03296,0.07995,0.09394,0.39687,0.52023,0.14834,0.07171,0.49396,0.06946,0.2169,0.92552,0.19078,0.07176,0.93163,0.00383,0.21028,1.48333,0.2487,-0.03154,1.46759,-0.0414,0.35594,1.22645,0.37313,0.10259,1.23647,0.08141,0.44109,1.44194,0.28559,0.20829,1.46515
2948,0.15603,0.10711,1.53946,0.09018,0.5048,0.10673,0.06157,0.0334,0.07995,0.094,0.39721,0.52033,0.14861,0.07183,0.49395,0.06974,0.21713,0.92559,0.19145,0.07231,0.93158,0.0038,0.21032,1.48339,0.24898,-0.0312,1.46742,-0.04118,0.35612,1.22655,0.37341,0.10294,1.2363,0.08148,0.44115,1.44217,0.28661,0.20804,1.46553
2949,0.15656,0.10771,1.53919,0.09046,0.50475,0.10667,0.06173,0.03363,0.0801,0.0941,0.39763,0.52039,0.14875,0.07213,0.4941,0.07018,0.21738,0.9256,0.19235,0.07295,0.93166,0.00365,0.21033,1.48341,0.24952,-0.03073,1.46704,-0.04086,0.3563,1.22658,0.37371,0.10369,1.23595,0.08155,0.44132,1.44234,0.28756,0.20766,1.46595
2950,0.15695,0.10812,1.53908,0.09069,0.50496,0.10665,0.06188,0.03362,0.08035,0.09412,0.39808,0.52044,0.14882,0.07255,0.49433,0.07075,0.21761,0.92558,0.19328,0.0735,0.93179,0.00353,0.21009,1.48348,0.25036,-0.0303,1.46682,-0.04071,0.3563,1.22675,0.37418,0.10466,1.23585,0.08148,0.44163,1.44251,0.28804,0.20772,1.46626
2951,0.15725,0.10819,1.53918,0.09079,0.50531,0.10669,0.06197,0.03351,0.0805,0.09404,0.39845,0.52049,0.14898,0.0729,0.49442,0.07127,0.21782,0.92559,0.19407,0.07394,0.93182,0.00361,0.20967,1.48357,0.25143,-0.02998,1.46699,-0.0406,0.3563,1.22707,0.37495,0.10558,1.23621,0.08133,0.44193,1.44286,0.2881,0.20847,1.46643
2952,0.15754,0.10802,1.53942,0.09078,0.50566,0.10679,0.06205,0.03341,0.08044,0.09401,0.39864,0.52055,0.14929,0.07309,0.49429,0.07168,0.21804,0.92569,0.19467,0.07431,0.93166,0.00382,0.20947,1.48353,0.25254,-0.0297,1.4674,-0.04014,0.3567,1.22733,0.37596,0.10639,1.23688,0.08136,0.44212,1.44344,0.28807,0.20958,1.46657
2953,0.15774,0.10794,1.53967,0.09068,0.50586,0.1069,0.06215,0.03333,0.08024,0.09406,0.39863,0.5206,0.14959,0.07327,0.49401,0.07197,0.21828,0.92586,0.19516,0.07469,0.93136,0.00392,0.20966,1.48331,0.25342,-0.02945,1.46762,-0.03923,0.35757,1.22736,0.37702,0.10714,1.23749,0.08179,0.44225,1.44403,0.28827,0.21047,1.46679
2954,0.15776,0.1083,1.53982,0.09049,0.50589,0.10695,0.06221,0.03322,0.08005,0.09411,0.3986,0.52063,0.14972,0.07355,0.49377,0.07224,0.21849,0.92601,0.19561,0.07506,0.93109,0.00391,0.20999,1.48307,0.25394,-0.02931,1.46743,-0.03835,0.35842,1.22728,0.37795,0.10774,1.23779,0.08251,0.44238,1.44432,0.28878,0.21084,1.46703
2955,0.15772,0.10904,1.53985,0.09024,0.5058,0.10689,0.0622,0.03314,0.08002,0.09411,0.39865,0.52061,0.14969,0.07387,0.49371,0.07258,0.21866,0.92607,0.19613,0.07538,0.93097,0.00412,0.21017,1.48297,0.25425,-0.02932,1.46701,-0.03797,0.35877,1.22725,0.37868,0.10813,1.23784,0.08305,0.44255,1.44428,0.28935,0.21093,1.46715
2956,0.1578,0.10966,1.53979,0.09003,0.50564,0.10676,0.06218,0.03315,0.08018,0.0941,0.39882,0.52056,0.14966,0.07404,0.49386,0.07298,0.21879,0.92602,0.19673,0.07567,0.93105,0.00464,0.21016,1.48297,0.25465,-0.02927,1.46674,-0.03802,0.35868,1.2273,0.37929,0.10847,1.23786,0.08314,0.44279,1.44412,0.28965,0.21115,1.4671
2957,0.15799,0.10974,1.53973,0.08992,0.50537,0.1066,0.06221,0.0332,0.08045,0.09409,0.39909,0.52054,0.14979,0.07402,0.49411,0.07329,0.21884,0.92592,0.19728,0.07593,0.93126,0.00522,0.21001,1.48296,0.25525,-0.029,1.4667,-0.03808,0.35846,1.22735,0.37992,0.10901,1.23799,0.08289,0.44311,1.44407,0.28964,0.21167,1.46699
2958,0.15832,0.10942,1.53973,0.08984,0.50503,0.10647,0.06222,0.03323,0.08071,0.09412,0.3994,0.52057,0.15009,0.0739,0.49432,0.0734,0.21887,0.92583,0.19758,0.07614,0.93147,0.00549,0.20976,1.48296,0.25583,-0.02858,1.4666,-0.03799,0.35832,1.22744,0.38062,0.10974,1.23816,0.08267,0.44345,1.44415,0.28952,0.21223,1.46692
2959,0.15889,0.10921,1.53976,0.08976,0.50482,0.10639,0.06216,0.03336,0.08081,0.09425,0.39963,0.5206,0.15035,0.07385,0.49438,0.07345,0.21899,0.9258,0.19765,0.07629,0.93154,0.00544,0.20945,1.48312,0.25617,-0.02815,1.46629,-0.03794,0.35824,1.22773,0.3813,0.11043,1.23818,0.08274,0.44369,1.44428,0.28956,0.21249,1.46687
2960,0.15959,0.10933,1.53979,0.08971,0.50484,0.10637,0.06206,0.03366,0.08073,0.09442,0.39966,0.52058,0.15037,0.07396,0.49428,0.07362,0.21922,0.92587,0.19769,0.0764,0.93144,0.0054,0.2092,1.48348,0.25633,-0.02761,1.46598,-0.03814,0.35819,1.22823,0.38188,0.11089,1.23806,0.08304,0.44378,1.44445,0.28991,0.21253,1.46684
2961,0.16012,0.1096,1.53985,0.08968,0.50503,0.10641,0.06197,0.03397,0.08055,0.09456,0.39951,0.52054,0.15023,0.07418,0.49412,0.07394,0.21945,0.926,0.19785,0.07647,0.93125,0.00579,0.20911,1.48391,0.25651,-0.02692,1.466,-0.03856,0.35807,1.22879,0.38234,0.1112,1.23801,0.08327,0.44376,1.44461,0.29056,0.21281,1.46688
2962,0.1603,0.10982,1.53996,0.08965,0.50519,0.10646,0.06195,0.03404,0.08044,0.09459,0.3994,0.52052,0.15016,0.07446,0.494,0.07428,0.21957,0.9261,0.1981,0.07651,0.9311,0.00668,0.20921,1.48431,0.25689,-0.0263,1.46639,-0.03893,0.35786,1.22922,0.38274,0.11145,1.23818,0.08335,0.44367,1.44474,0.29136,0.21363,1.46696
2963,0.16033,0.10997,1.54003,0.08958,0.50528,0.10645,0.062,0.03387,0.08042,0.09461,0.39954,0.52052,0.15022,0.07475,0.49394,0.07457,0.21964,0.92609,0.19831,0.07651,0.93102,0.00758,0.20937,1.48456,0.25752,-0.02604,1.46685,-0.03902,0.35763,1.22942,0.38318,0.11167,1.23851,0.0834,0.44358,1.44481,0.29202,0.21478,1.46696
