PaulMeinheit/Bachelor_Muay_Thai/processed_Data/E1/teep/sliced/JointPositions/sliced6.csv
Unnamed: 0_level_0,Neck_Joint_Position,Neck_Joint_Position,Neck_Joint_Position,L_ANKLE_POSITION,L_ANKLE_POSITION,L_ANKLE_POSITION,R_ANKLE_POSITION,R_ANKLE_POSITION,R_ANKLE_POSITION,L_KNEE_POSITION,L_KNEE_POSITION,L_KNEE_POSITION,R_KNEE_POSITION,R_KNEE_POSITION,R_KNEE_POSITION,L_HIP_POSITION,L_HIP_POSITION,L_HIP_POSITION,R_HIP_POSITION,R_HIP_POSITION,R_HIP_POSITION,L_SHOULDER_POSITION,L_SHOULDER_POSITION,L_SHOULDER_POSITION,R_SHOULDER_POSITION,R_SHOULDER_POSITION,R_SHOULDER_POSITION,L_ELBOW_POSITION,L_ELBOW_POSITION,L_ELBOW_POSITION,R_ELBOW_POSITION,R_ELBOW_POSITION,R_ELBOW_POSITION,L_WRIST_POSITION,L_WRIST_POSITION,L_WRIST_POSITION,R_WRIST_POSITION,R_WRIST_POSITION,R_WRIST_POSITION
ITEM,X,Y,Z,X,Y,Z,X,Y,Z,X,Y,Z,X,Y,Z,X,Y,Z,X,Y,Z,X,Y,Z,X,Y,Z,X,Y,Z,X,Y,Z,X,Y,Z,X,Y,Z
3062,0.16879,0.10021,1.53711,0.09336,0.50773,0.11712,0.06224,0.0308,0.08123,0.0978,0.42987,0.53733,0.15577,0.07151,0.49359,0.07631,0.22079,0.92858,0.20504,0.08206,0.93041,0.01287,0.1969,1.48544,0.26613,-0.03337,1.46511,-0.0371,0.35562,1.23734,0.39498,0.10991,1.24204,0.07847,0.4415,1.4565,0.30501,0.22032,1.46754
3063,0.16874,0.10101,1.53711,0.09371,0.50845,0.11814,0.0623,0.03078,0.08136,0.09799,0.43198,0.5386,0.1554,0.07166,0.4938,0.07596,0.22129,0.92896,0.20445,0.08234,0.93065,0.01293,0.19692,1.48568,0.26614,-0.03349,1.46552,-0.03737,0.35622,1.23801,0.39518,0.11011,1.24277,0.07874,0.44205,1.45691,0.30491,0.22132,1.46774
3064,0.16847,0.10176,1.53723,0.09404,0.50934,0.1189,0.06222,0.03099,0.08139,0.09815,0.43448,0.53966,0.15482,0.07171,0.49396,0.0753,0.222,0.92899,0.20318,0.08248,0.93089,0.01293,0.19667,1.48572,0.265,-0.03335,1.46566,-0.03768,0.35675,1.23862,0.39561,0.11019,1.24378,0.07887,0.44261,1.45727,0.30497,0.22204,1.46829
3065,0.16798,0.10226,1.53744,0.09421,0.51012,0.11955,0.06207,0.03121,0.08137,0.09822,0.43738,0.54068,0.15421,0.07152,0.49409,0.07453,0.22281,0.92882,0.20185,0.08279,0.93107,0.0128,0.19649,1.48558,0.26365,-0.03298,1.46557,-0.03787,0.35728,1.23895,0.39611,0.11047,1.24473,0.07852,0.4432,1.45767,0.30517,0.22251,1.46903
3066,0.16761,0.10262,1.53756,0.09425,0.51064,0.12034,0.06189,0.0312,0.08133,0.09821,0.44037,0.54189,0.1537,0.07115,0.49416,0.07389,0.22361,0.92877,0.20101,0.08341,0.93116,0.01255,0.19659,1.48542,0.26319,-0.03236,1.46537,-0.03793,0.35808,1.23921,0.39657,0.11142,1.24531,0.07788,0.44396,1.45825,0.30537,0.22294,1.46976
3067,0.16772,0.10309,1.5374,0.09425,0.51106,0.12142,0.06169,0.03096,0.08131,0.09828,0.44313,0.54335,0.15328,0.07077,0.4942,0.07353,0.22433,0.92905,0.20084,0.0843,0.93113,0.0123,0.19704,1.48545,0.26407,-0.03153,1.46518,-0.03795,0.35939,1.23976,0.39694,0.11317,1.24541,0.07753,0.44499,1.45909,0.30543,0.2235,1.47032
3068,0.16822,0.10387,1.53696,0.09432,0.51163,0.12275,0.06155,0.03065,0.08131,0.0986,0.44569,0.545,0.15272,0.07059,0.49428,0.07342,0.22496,0.92957,0.20133,0.08546,0.93105,0.0123,0.19773,1.48564,0.26593,-0.03064,1.46511,-0.03796,0.36112,1.24064,0.39707,0.11531,1.24513,0.07768,0.44615,1.4601,0.3054,0.22423,1.47065
3069,0.16876,0.10485,1.53657,0.09444,0.51248,0.1242,0.06154,0.03037,0.08132,0.09906,0.44838,0.54672,0.1519,0.07074,0.49443,0.0734,0.22554,0.93005,0.20219,0.08686,0.93097,0.01262,0.1985,1.48581,0.26785,-0.02983,1.46518,-0.03793,0.36286,1.24151,0.39693,0.1173,1.24476,0.07793,0.44716,1.46113,0.3054,0.22509,1.47089
3070,0.16912,0.10566,1.53656,0.0946,0.51356,0.12565,0.06168,0.0301,0.08134,0.09942,0.4515,0.54847,0.15102,0.07113,0.49461,0.07333,0.22624,0.93035,0.20296,0.08833,0.93091,0.01301,0.19919,1.48585,0.26913,-0.02906,1.46536,-0.03793,0.36428,1.24214,0.39672,0.11895,1.24467,0.07785,0.44793,1.46205,0.30543,0.22602,1.47123
3071,0.16944,0.10606,1.53695,0.09494,0.51468,0.12705,0.0619,0.0298,0.08139,0.09954,0.45505,0.55023,0.15037,0.07148,0.49478,0.07321,0.2272,0.93056,0.20332,0.08975,0.93092,0.01312,0.1998,1.48586,0.26975,-0.02821,1.46575,-0.03808,0.36552,1.24263,0.39679,0.12026,1.24505,0.07743,0.44861,1.46289,0.30538,0.22711,1.47167
3072,0.16988,0.10628,1.53741,0.0955,0.51572,0.12843,0.06207,0.02948,0.08145,0.09948,0.45874,0.55198,0.14995,0.07157,0.49492,0.07301,0.22834,0.93075,0.20325,0.09101,0.93096,0.0128,0.20051,1.48598,0.27009,-0.0272,1.46637,-0.03841,0.36689,1.2432,0.39724,0.12139,1.24581,0.07697,0.44949,1.46372,0.30518,0.22844,1.47208
3073,0.17033,0.10691,1.53763,0.09615,0.51669,0.12973,0.06209,0.02927,0.08145,0.0994,0.46232,0.55363,0.14955,0.07145,0.495,0.07274,0.22948,0.93089,0.20291,0.09208,0.93098,0.01222,0.20152,1.48636,0.27033,-0.02605,1.46697,-0.03882,0.3685,1.24395,0.39786,0.12265,1.2467,0.07677,0.45074,1.4645,0.30482,0.22995,1.47245
3074,0.17058,0.10829,1.53754,0.09671,0.51769,0.13091,0.06193,0.02927,0.08138,0.09935,0.46575,0.55512,0.14901,0.07126,0.49503,0.07242,0.23062,0.93094,0.20247,0.09312,0.93094,0.01183,0.2029,1.48693,0.27041,-0.02485,1.46716,-0.0391,0.37028,1.24478,0.39852,0.12427,1.24751,0.0768,0.45235,1.46523,0.30439,0.23124,1.47296
3075,0.17057,0.11022,1.53725,0.09699,0.51885,0.132,0.06162,0.02942,0.08131,0.09926,0.46913,0.55647,0.14834,0.07113,0.49506,0.07206,0.23193,0.93097,0.20197,0.09428,0.93089,0.01194,0.20457,1.48749,0.27031,-0.02367,1.46687,-0.03911,0.37218,1.24553,0.39932,0.12615,1.24823,0.07681,0.4541,1.46602,0.30406,0.23204,1.47372
3076,0.17047,0.11216,1.53695,0.09691,0.52027,0.13309,0.06125,0.0296,0.08128,0.09909,0.47257,0.5578,0.14763,0.07113,0.49511,0.07165,0.23343,0.93105,0.20137,0.09561,0.93085,0.01229,0.2063,1.48786,0.27006,-0.02261,1.46639,-0.03892,0.37419,1.24612,0.4002,0.12797,1.24894,0.07661,0.45576,1.46695,0.304,0.23256,1.47464
3077,0.17039,0.11375,1.5368,0.09662,0.52196,0.13428,0.06091,0.02972,0.08124,0.09893,0.47609,0.55919,0.14693,0.07134,0.49515,0.07116,0.23503,0.93117,0.20071,0.09705,0.93081,0.01243,0.20791,1.48806,0.26975,-0.02165,1.46604,-0.03874,0.37629,1.24666,0.40081,0.1297,1.24968,0.07629,0.45725,1.46798,0.30408,0.23342,1.47555
3078,0.17026,0.11505,1.53683,0.09633,0.52378,0.1355,0.06067,0.02979,0.08117,0.09878,0.47961,0.56059,0.1462,0.07172,0.49515,0.07071,0.23667,0.93132,0.20014,0.09857,0.93072,0.01223,0.20936,1.4882,0.26952,-0.02064,1.46592,-0.03877,0.37852,1.24731,0.40084,0.1316,1.25034,0.07607,0.4587,1.469,0.30401,0.23497,1.47632
3079,0.17001,0.1163,1.53695,0.09616,0.52553,0.13665,0.06053,0.02977,0.08109,0.09854,0.48306,0.56191,0.14541,0.0722,0.49515,0.07041,0.23838,0.9315,0.19971,0.10017,0.93061,0.01191,0.21069,1.48839,0.26965,-0.01943,1.46587,-0.03905,0.38082,1.24817,0.40045,0.13391,1.25076,0.07597,0.46038,1.47,0.30365,0.23699,1.4769
3080,0.16964,0.11757,1.53709,0.0961,0.52715,0.13767,0.06049,0.02966,0.08101,0.09822,0.48643,0.56311,0.14455,0.0727,0.49518,0.07022,0.24017,0.93165,0.19934,0.10179,0.9305,0.01154,0.21201,1.48873,0.27034,-0.01798,1.46578,-0.03945,0.38314,1.24922,0.39994,0.13668,1.25089,0.07584,0.46245,1.47099,0.30322,0.23904,1.47738
3081,0.16933,0.11885,1.53723,0.09607,0.52872,0.13866,0.06052,0.02964,0.08091,0.09796,0.48984,0.56427,0.14366,0.07312,0.49521,0.06996,0.24201,0.93177,0.19889,0.10346,0.9304,0.01107,0.21355,1.48924,0.27139,-0.01619,1.4657,-0.03986,0.3856,1.25038,0.39948,0.13977,1.25085,0.0757,0.46485,1.47204,0.30295,0.24095,1.47795
3082,0.16913,0.12031,1.53734,0.09596,0.53032,0.13965,0.06051,0.02988,0.08082,0.09785,0.49333,0.56543,0.14286,0.07348,0.49526,0.06948,0.244,0.93187,0.1981,0.10517,0.93035,0.01054,0.21546,1.48982,0.27212,-0.01397,1.46566,-0.04018,0.38835,1.25152,0.39905,0.14294,1.25081,0.07571,0.4673,1.47311,0.30288,0.2427,1.47869
3083,0.16896,0.12215,1.53732,0.0957,0.53185,0.14058,0.06039,0.03028,0.08076,0.09781,0.49687,0.56652,0.14221,0.07382,0.49532,0.06874,0.24624,0.93203,0.19678,0.10687,0.93039,0.01,0.21767,1.49026,0.27188,-0.01139,1.46556,-0.04034,0.39138,1.25249,0.39862,0.14592,1.25089,0.07584,0.46962,1.47417,0.30294,0.24425,1.4796
3084,0.16876,0.12435,1.53712,0.09534,0.53317,0.14139,0.06022,0.03059,0.08074,0.09772,0.50033,0.56751,0.14164,0.07425,0.49537,0.06788,0.24869,0.93226,0.19521,0.10866,0.93045,0.00957,0.22008,1.49051,0.2708,-0.0088,1.46525,-0.04029,0.39461,1.25324,0.3982,0.14874,1.25113,0.07589,0.47195,1.47525,0.30293,0.24578,1.48056
3085,0.16869,0.12665,1.53681,0.09499,0.5342,0.14219,0.06012,0.03072,0.08071,0.09758,0.50372,0.56848,0.14096,0.0749,0.49539,0.06726,0.25114,0.93254,0.19429,0.11086,0.93038,0.00956,0.22272,1.4907,0.26993,-0.00641,1.46477,-0.04,0.39807,1.25397,0.39785,0.15183,1.25148,0.07592,0.47443,1.47645,0.30257,0.24782,1.48135
3086,0.16878,0.12884,1.53649,0.09476,0.53504,0.14308,0.06004,0.03074,0.08062,0.09753,0.50716,0.56955,0.14007,0.07574,0.49537,0.06699,0.25345,0.9328,0.19451,0.11362,0.93006,0.00998,0.22552,1.49091,0.27001,-0.00409,1.46433,-0.0395,0.4018,1.25486,0.39767,0.15543,1.25185,0.07616,0.47705,1.47785,0.30177,0.25066,1.48178
3087,0.16877,0.13101,1.53616,0.09459,0.53582,0.14399,0.0599,0.0307,0.08049,0.09757,0.51072,0.57063,0.13904,0.07659,0.49532,0.06676,0.25568,0.93292,0.19512,0.11663,0.92961,0.0103,0.22826,1.49105,0.27048,-0.00145,1.46413,-0.03882,0.4057,1.25579,0.39762,0.15923,1.25221,0.07648,0.47972,1.47938,0.30082,0.25384,1.48201
3088,0.16846,0.13344,1.5358,0.09428,0.53658,0.14468,0.05972,0.03061,0.08038,0.0976,0.51436,0.57147,0.13799,0.07734,0.49528,0.06621,0.25805,0.93282,0.19495,0.11935,0.92927,0.00998,0.2308,1.49099,0.27031,0.00176,1.46412,-0.03814,0.40952,1.25649,0.39761,0.16281,1.25258,0.0764,0.48253,1.4808,0.30002,0.25671,1.48234
3089,0.16788,0.13621,1.53547,0.0937,0.5373,0.14502,0.05962,0.03043,0.08031,0.09758,0.51798,0.57195,0.13699,0.07809,0.49527,0.06536,0.26068,0.93253,0.19368,0.1216,0.92914,0.00913,0.23314,1.49073,0.2692,0.00526,1.46407,-0.03772,0.41308,1.2569,0.39752,0.16615,1.25302,0.07568,0.48557,1.48195,0.2994,0.25916,1.48292
3090,0.16711,0.13906,1.53525,0.09304,0.53794,0.14512,0.05967,0.0301,0.08028,0.09755,0.52153,0.57217,0.13608,0.07905,0.49527,0.06457,0.26349,0.93214,0.19205,0.12362,0.92913,0.00836,0.23536,1.49039,0.26783,0.00857,1.4638,-0.03781,0.41634,1.25724,0.39739,0.16945,1.2535,0.07469,0.48882,1.48275,0.29894,0.26162,1.4836
3091,0.16633,0.14158,1.53521,0.09263,0.53845,0.14518,0.05986,0.02966,0.08029,0.09747,0.52497,0.57232,0.13531,0.08034,0.49525,0.06419,0.26626,0.93178,0.19115,0.12592,0.92902,0.00809,0.23763,1.49017,0.26731,0.01151,1.46339,-0.03831,0.41943,1.2577,0.3974,0.17298,1.25387,0.07409,0.49213,1.48319,0.29862,0.26446,1.48409
3092,0.16576,0.14373,1.53528,0.09255,0.53883,0.14527,0.06011,0.02939,0.08032,0.09732,0.52829,0.5725,0.13471,0.08183,0.49521,0.06421,0.26892,0.93151,0.1914,0.12879,0.92873,0.00821,0.24023,1.49018,0.26808,0.0144,1.46303,-0.03889,0.42256,1.25828,0.39758,0.17684,1.2539,0.07419,0.49535,1.4834,0.29833,0.26768,1.48418
3093,0.16552,0.14591,1.53532,0.09256,0.53912,0.14537,0.0603,0.0295,0.08034,0.09723,0.53158,0.57266,0.13425,0.08326,0.49518,0.0644,0.27167,0.9313,0.1922,0.1321,0.92832,0.00839,0.24342,1.49034,0.26943,0.01756,1.46274,-0.03927,0.42602,1.25875,0.39771,0.18094,1.25359,0.07466,0.49845,1.48355,0.2979,0.27102,1.48392
3094,0.16551,0.14858,1.5352,0.09251,0.53935,0.14533,0.06039,0.02989,0.08031,0.09733,0.53501,0.57266,0.13375,0.08448,0.49515,0.06448,0.27471,0.93101,0.19265,0.13547,0.92791,0.00845,0.24714,1.49035,0.27038,0.02102,1.46237,-0.03944,0.42996,1.25898,0.3976,0.18507,1.2531,0.07504,0.50158,1.48377,0.29736,0.27437,1.48356
3095,0.16545,0.15187,1.53494,0.0925,0.53946,0.14509,0.06031,0.03026,0.08025,0.09757,0.53864,0.57245,0.13306,0.08557,0.4951,0.06435,0.27801,0.93052,0.19242,0.13869,0.92754,0.00839,0.25106,1.49012,0.27055,0.02467,1.46186,-0.03937,0.43427,1.25903,0.39711,0.1892,1.25257,0.0752,0.50489,1.48409,0.29683,0.27774,1.48329
3096,0.16513,0.15549,1.53461,0.09267,0.53943,0.14472,0.06006,0.03043,0.08015,0.09777,0.54236,0.57207,0.1322,0.08667,0.49498,0.064,0.28134,0.92981,0.19185,0.14181,0.92713,0.00813,0.25484,1.4898,0.27015,0.02855,1.46127,-0.03905,0.43856,1.259,0.39626,0.19348,1.25203,0.0752,0.5083,1.4845,0.29632,0.28122,1.48321
3097,0.16448,0.15913,1.53423,0.09299,0.5394,0.14429,0.05966,0.03048,0.08004,0.09792,0.54594,0.5716,0.13125,0.08784,0.49481,0.06355,0.28456,0.92902,0.19142,0.14504,0.92663,0.00763,0.25844,1.4896,0.26968,0.0327,1.46075,-0.03865,0.44261,1.25898,0.39528,0.19812,1.25157,0.07496,0.51168,1.485,0.29565,0.28493,1.48323
3098,0.16362,0.16276,1.53372,0.09335,0.53958,0.14383,0.05926,0.03051,0.08001,0.09819,0.54935,0.57108,0.13033,0.08913,0.49469,0.06313,0.2878,0.92831,0.19133,0.14858,0.92609,0.00707,0.26213,1.48956,0.26969,0.03699,1.46036,-0.03849,0.44654,1.25899,0.39453,0.20312,1.2513,0.07433,0.51508,1.48556,0.29474,0.28904,1.48323
3099,0.16288,0.16651,1.53308,0.09378,0.54009,0.14346,0.05898,0.03055,0.0801,0.09871,0.55289,0.57062,0.12952,0.09055,0.49468,0.0628,0.29125,0.92771,0.19143,0.15242,0.9256,0.00664,0.26609,1.48953,0.2703,0.04117,1.45997,-0.0387,0.45066,1.25905,0.39413,0.20838,1.25117,0.07346,0.51876,1.48609,0.29371,0.29353,1.48311
3100,0.16251,0.17035,1.53234,0.09429,0.54084,0.14328,0.05884,0.03054,0.08027,0.09942,0.55687,0.57034,0.12881,0.09211,0.49472,0.06251,0.29498,0.92713,0.19141,0.15641,0.92518,0.00623,0.27004,1.48928,0.27109,0.04522,1.45926,-0.03901,0.45509,1.25915,0.39393,0.2138,1.25098,0.07274,0.52278,1.48652,0.29274,0.29817,1.48287
3101,0.1625,0.17416,1.53155,0.09475,0.54171,0.14334,0.05878,0.03048,0.0804,0.10023,0.56133,0.57024,0.1281,0.09385,0.49468,0.06211,0.29888,0.92649,0.19116,0.16044,0.92473,0.00551,0.2736,1.48868,0.27154,0.04944,1.4581,-0.03914,0.45966,1.25926,0.39363,0.21946,1.25054,0.07237,0.52699,1.48685,0.29191,0.30286,1.48255
3102,0.16261,0.17802,1.53075,0.09495,0.54265,0.14356,0.05876,0.03049,0.08037,0.1012,0.56607,0.57026,0.12733,0.09576,0.49448,0.06153,0.30282,0.92576,0.19078,0.16456,0.92413,0.00431,0.27681,1.48785,0.2715,0.0542,1.45665,-0.03912,0.46411,1.2592,0.39317,0.22548,1.24989,0.07205,0.5312,1.48703,0.29114,0.30779,1.48214
3103,0.16266,0.18199,1.52997,0.09481,0.54365,0.14384,0.05876,0.03067,0.0802,0.10235,0.57087,0.5703,0.12655,0.09772,0.49416,0.06087,0.30673,0.92493,0.19043,0.16877,0.92338,0.00289,0.28004,1.48695,0.27115,0.05944,1.45512,-0.03918,0.4683,1.25883,0.3927,0.23183,1.24921,0.07137,0.53535,1.48697,0.2903,0.31313,1.48166
3104,0.1627,0.18595,1.52927,0.09451,0.54458,0.14406,0.05865,0.03103,0.08002,0.10356,0.57566,0.57022,0.12594,0.09951,0.49383,0.06026,0.31063,0.92397,0.19016,0.17299,0.92258,0.0017,0.28356,1.48604,0.27091,0.06482,1.45365,-0.03948,0.47237,1.25822,0.39228,0.23839,1.24861,0.07026,0.5395,1.48672,0.28929,0.31873,1.48114
3105,0.16287,0.18978,1.5287,0.09424,0.54524,0.14407,0.05833,0.03143,0.0799,0.10457,0.5805,0.56988,0.12548,0.10118,0.49351,0.05973,0.31461,0.92279,0.1899,0.17722,0.92179,0.00095,0.28733,1.48505,0.27118,0.07016,1.45236,-0.04003,0.47672,1.25767,0.39172,0.24511,1.24801,0.06901,0.54384,1.48652,0.28808,0.32444,1.4806
3106,0.1632,0.19359,1.52815,0.09397,0.54562,0.14387,0.05786,0.03177,0.07978,0.10526,0.58552,0.56923,0.12513,0.10306,0.49311,0.05929,0.31881,0.92138,0.18959,0.18154,0.92094,0.00041,0.2913,1.48396,0.27194,0.07562,1.4513,-0.04073,0.48163,1.2574,0.39092,0.25197,1.24725,0.06779,0.54852,1.48656,0.28667,0.33023,1.47992
3107,0.16349,0.19781,1.52735,0.09355,0.54601,0.14358,0.05739,0.03206,0.0796,0.10573,0.59083,0.56844,0.12492,0.10542,0.49252,0.05891,0.32327,0.91983,0.18926,0.18604,0.91998,-0.00021,0.29546,1.48287,0.27267,0.0813,1.45025,-0.04151,0.48696,1.25733,0.39005,0.25888,1.24633,0.06651,0.55348,1.48683,0.28514,0.33605,1.47908
3108,0.16347,0.20285,1.52599,0.09299,0.5468,0.14337,0.05708,0.03235,0.0794,0.10619,0.5964,0.56766,0.12499,0.10819,0.49181,0.0586,0.32791,0.91823,0.18897,0.19071,0.91895,-0.00093,0.29983,1.48197,0.2729,0.08706,1.44888,-0.0423,0.49236,1.25732,0.38936,0.26575,1.24542,0.06496,0.55845,1.4873,0.28365,0.3418,1.47817
3109,0.16299,0.20866,1.52411,0.09239,0.54801,0.14326,0.05694,0.0327,0.07925,0.10693,0.60208,0.56696,0.12539,0.11112,0.49109,0.05842,0.33267,0.9167,0.18888,0.19556,0.91793,-0.00164,0.30443,1.48139,0.27257,0.0927,1.44719,-0.04306,0.49765,1.25735,0.38894,0.27251,1.24466,0.06313,0.56319,1.48799,0.2823,0.34752,1.47732
3110,0.16223,0.21461,1.52213,0.09182,0.54923,0.14322,0.05692,0.03317,0.07918,0.108,0.60775,0.56627,0.12613,0.11418,0.4904,0.05843,0.33758,0.91528,0.18912,0.20068,0.9169,-0.00228,0.30913,1.48098,0.27204,0.09832,1.44527,-0.04383,0.50303,1.25754,0.38881,0.27937,1.24408,0.06125,0.56778,1.48891,0.28116,0.35345,1.47658
3111,0.16148,0.22003,1.52051,0.09139,0.5501,0.14321,0.05695,0.03381,0.07918,0.10912,0.61336,0.56551,0.12719,0.11749,0.48968,0.05854,0.3426,0.91392,0.18974,0.20621,0.9158,-0.00292,0.31367,1.48035,0.27177,0.10428,1.44314,-0.04476,0.50875,1.258,0.389,0.28689,1.24363,0.05959,0.57247,1.48998,0.28018,0.35988,1.47593
3112,0.16086,0.22471,1.51934,0.09124,0.55064,0.14319,0.05706,0.03452,0.07916,0.10999,0.61899,0.56466,0.12862,0.12106,0.48884,0.05855,0.34769,0.91251,0.19056,0.21208,0.91456,-0.00363,0.31769,1.47929,0.27195,0.11088,1.4408,-0.04603,0.51483,1.25888,0.38948,0.29544,1.24326,0.0583,0.57733,1.4912,0.27936,0.36677,1.47547
3113,0.16024,0.22895,1.51848,0.0913,0.55116,0.14323,0.05731,0.03512,0.07906,0.11054,0.62481,0.56378,0.13032,0.12483,0.48781,0.05834,0.35292,0.91106,0.1912,0.21814,0.91318,-0.00453,0.3211,1.47801,0.2723,0.11812,1.43833,-0.04769,0.52101,1.26025,0.39009,0.30481,1.24297,0.05728,0.58224,1.49262,0.27878,0.37374,1.47532
3114,0.15942,0.23328,1.51774,0.09131,0.55181,0.14342,0.0577,0.03546,0.07896,0.111,0.63086,0.56297,0.13204,0.12883,0.48665,0.05791,0.3584,0.90967,0.19141,0.22425,0.91177,-0.00593,0.32412,1.47691,0.27256,0.12575,1.43588,-0.04956,0.52698,1.26199,0.3907,0.31449,1.24272,0.05617,0.58715,1.4943,0.2785,0.38049,1.47549
3115,0.15826,0.23804,1.51704,0.0911,0.55253,0.14371,0.05814,0.03545,0.07898,0.11154,0.63702,0.56217,0.13356,0.13314,0.48546,0.05732,0.36414,0.90837,0.19124,0.23041,0.91039,-0.00808,0.32701,1.47612,0.27281,0.13356,1.43353,-0.05143,0.53269,1.26385,0.39122,0.32424,1.24244,0.05466,0.59213,1.49617,0.2786,0.38702,1.47591
3116,0.15675,0.24329,1.5163,0.09074,0.5532,0.1439,0.05848,0.0352,0.07915,0.11211,0.64302,0.56119,0.13491,0.13779,0.48422,0.05663,0.37011,0.90716,0.19095,0.23678,0.90898,-0.01079,0.32992,1.47541,0.27322,0.14145,1.43144,-0.05346,0.53841,1.26575,0.39171,0.33394,1.24223,0.05269,0.5973,1.49819,0.279,0.39344,1.47651
3117,0.15491,0.24898,1.51545,0.09029,0.55368,0.14376,0.05866,0.03512,0.07943,0.11254,0.64862,0.55987,0.13624,0.14282,0.48295,0.0559,0.37631,0.90613,0.19077,0.24353,0.9075,-0.01347,0.33291,1.47447,0.27345,0.14935,1.42986,-0.05609,0.54453,1.26796,0.39246,0.34316,1.24233,0.05045,0.60272,1.5004,0.27959,0.39985,1.47722
3118,0.15274,0.25505,1.51454,0.08974,0.55386,0.14327,0.05874,0.03565,0.07984,0.11276,0.65368,0.55819,0.13774,0.14831,0.48173,0.05516,0.38278,0.90539,0.19076,0.25074,0.90606,-0.01581,0.33592,1.4732,0.27306,0.15736,1.42901,-0.0596,0.55127,1.27083,0.39387,0.35145,1.24293,0.04809,0.60842,1.503,0.28045,0.40626,1.47801
3119,0.15032,0.2614,1.51377,0.08921,0.55363,0.14255,0.05895,0.03675,0.08053,0.11284,0.65822,0.55627,0.13952,0.15433,0.4807,0.05433,0.38944,0.90496,0.19088,0.25837,0.90483,-0.01807,0.3387,1.47168,0.27204,0.16582,1.42889,-0.06375,0.55848,1.27457,0.39613,0.35897,1.24399,0.0456,0.6145,1.50623,0.28178,0.41273,1.47887
3120,0.14777,0.26775,1.5133,0.0889,0.55292,0.1417,0.05943,0.03805,0.08163,0.11278,0.6624,0.55413,0.14157,0.16095,0.47987,0.0534,0.39623,0.90468,0.19109,0.26638,0.90389,-0.02061,0.34096,1.46998,0.27082,0.17506,1.42933,-0.06813,0.56591,1.27923,0.39907,0.36628,1.24527,0.04304,0.62093,1.51027,0.2836,0.41938,1.47974
3121,0.1452,0.2739,1.51312,0.08874,0.55175,0.14065,0.06024,0.03914,0.08324,0.11261,0.6663,0.5517,0.14398,0.16832,0.47915,0.05243,0.40327,0.90447,0.19137,0.27475,0.90316,-0.02343,0.34284,1.46825,0.26977,0.18493,1.43003,-0.07251,0.5735,1.28486,0.40227,0.37372,1.24647,0.0406,0.62755,1.51518,0.28568,0.42616,1.48054
3122,0.14263,0.27984,1.51311,0.08846,0.5503,0.13936,0.06141,0.03999,0.08544,0.11242,0.6699,0.54897,0.14699,0.17666,0.47844,0.05145,0.41076,0.90448,0.19158,0.28356,0.90263,-0.02624,0.34489,1.46678,0.26903,0.19497,1.43079,-0.07707,0.5814,1.2915,0.40528,0.38132,1.24748,0.03843,0.63415,1.52094,0.28776,0.43268,1.48132
3123,0.14007,0.28572,1.51314,0.08788,0.54871,0.1379,0.06303,0.04101,0.08831,0.11232,0.67302,0.54607,0.1509,0.18618,0.47773,0.05034,0.41888,0.90499,0.19158,0.29292,0.90236,-0.02871,0.34759,1.46588,0.2686,0.20486,1.43155,-0.08198,0.58974,1.29923,0.40784,0.38911,1.24837,0.03658,0.64065,1.52752,0.28977,0.43847,1.48236
3124,0.13749,0.29157,1.51327,0.08722,0.5471,0.13632,0.06509,0.04272,0.09195,0.11244,0.67549,0.54319,0.15581,0.19712,0.47715,0.04897,0.42752,0.90614,0.19137,0.3029,0.90247,-0.03087,0.35095,1.46562,0.26839,0.21463,1.43243,-0.08714,0.59845,1.30806,0.41001,0.39715,1.24933,0.03511,0.64714,1.53488,0.29186,0.44346,1.48391
3125,0.13475,0.29722,1.5137,0.08667,0.54557,0.13465,0.06751,0.04544,0.09643,0.11281,0.67725,0.54041,0.16163,0.20974,0.47669,0.04736,0.43644,0.9078,0.19111,0.3134,0.903,-0.03309,0.35469,1.46586,0.26813,0.22446,1.43351,-0.09216,0.60741,1.3179,0.41223,0.40515,1.25054,0.03415,0.65361,1.54301,0.29421,0.44801,1.48584
3126,0.1317,0.3026,1.5146,0.08616,0.54417,0.13294,0.07036,0.04928,0.10189,0.11323,0.67836,0.53781,0.16829,0.22438,0.47633,0.04557,0.4454,0.90984,0.19093,0.32434,0.90394,-0.03568,0.35859,1.46645,0.26745,0.23429,1.43492,-0.09686,0.61638,1.32844,0.41499,0.41243,1.25219,0.0337,0.65984,1.55167,0.29667,0.45263,1.4878
3127,0.12832,0.30796,1.51601,0.08553,0.54283,0.1312,0.07401,0.05434,0.10853,0.11315,0.67879,0.53544,0.17605,0.24138,0.47603,0.04363,0.45427,0.91228,0.19096,0.33567,0.90526,-0.03854,0.36266,1.46737,0.26637,0.24375,1.43679,-0.10154,0.62504,1.33919,0.41836,0.41848,1.25442,0.0334,0.66565,1.56033,0.29887,0.45759,1.48962
3128,0.12481,0.31379,1.51785,0.08486,0.54144,0.12929,0.07888,0.06094,0.11658,0.11202,0.6784,0.53323,0.1854,0.26094,0.47589,0.04171,0.46287,0.91514,0.19134,0.34725,0.90702,-0.04144,0.36692,1.46867,0.26531,0.25249,1.43912,-0.10644,0.63315,1.34974,0.42199,0.42341,1.2571,0.033,0.67126,1.56853,0.3007,0.46274,1.49134
3129,0.12142,0.32046,1.52003,0.08437,0.54,0.12708,0.08499,0.0697,0.12614,0.1098,0.67711,0.53107,0.1965,0.28306,0.47613,0.03996,0.47104,0.91826,0.19216,0.3589,0.90924,-0.04443,0.3713,1.47058,0.26454,0.26064,1.44181,-0.11121,0.64073,1.36017,0.42541,0.42761,1.25978,0.03276,0.67708,1.57631,0.30244,0.46774,1.49301
3130,0.11822,0.32788,1.52249,0.0842,0.53859,0.12459,0.09186,0.08094,0.13717,0.10699,0.67505,0.52897,0.20856,0.30766,0.47692,0.03844,0.47875,0.92143,0.19344,0.37056,0.91186,-0.04763,0.37565,1.47339,0.26378,0.26874,1.44482,-0.11529,0.648,1.37093,0.42839,0.43129,1.26213,0.03335,0.68327,1.58406,0.30426,0.47252,1.49456
3131,0.11516,0.33561,1.52529,0.08428,0.53717,0.12219,0.09879,0.09446,0.1497,0.1041,0.67256,0.52707,0.22051,0.33459,0.47829,0.03713,0.48596,0.9245,0.19515,0.38226,0.91469,-0.05088,0.38012,1.47717,0.26267,0.27724,1.44813,-0.11849,0.6552,1.38226,0.43099,0.43445,1.26415,0.03507,0.68969,1.59202,0.30611,0.47731,1.49588
3132,0.11218,0.34326,1.52841,0.08438,0.53562,0.12022,0.10511,0.10996,0.16401,0.10108,0.67,0.52558,0.2322,0.36365,0.48015,0.03594,0.49245,0.92743,0.19715,0.3938,0.91743,-0.05389,0.38516,1.48175,0.26121,0.28615,1.45176,-0.12126,0.66264,1.39392,0.43319,0.43704,1.26589,0.03755,0.69607,1.5999,0.30798,0.48246,1.49695
3133,0.10924,0.35092,1.53171,0.08428,0.53403,0.11867,0.11045,0.12741,0.18074,0.09738,0.66747,0.52448,0.24407,0.3948,0.48256,0.03469,0.49796,0.93017,0.19914,0.40484,0.91986,-0.05662,0.39113,1.4868,0.2596,0.29526,1.45575,-0.12417,0.67052,1.40541,0.43485,0.43909,1.26736,0.04019,0.70228,1.60725,0.30991,0.48839,1.49777
3134,0.1063,0.35874,1.53496,0.08399,0.53268,0.11728,0.11496,0.14712,0.20019,0.09273,0.66488,0.52361,0.2557,0.42808,0.48602,0.0334,0.50244,0.93269,0.201,0.41514,0.92214,-0.05927,0.39789,1.49206,0.25795,0.30429,1.46015,-0.12724,0.6788,1.41646,0.4359,0.44063,1.26874,0.0427,0.70837,1.61397,0.31178,0.49549,1.49834
3135,0.10339,0.36653,1.53809,0.08371,0.53164,0.11593,0.11925,0.1694,0.22166,0.08752,0.66215,0.52288,0.26584,0.46313,0.49126,0.03232,0.50599,0.93498,0.2029,0.42463,0.92475,-0.06189,0.40497,1.49738,0.25623,0.31292,1.46479,-0.12982,0.68727,1.42708,0.43643,0.44179,1.27034,0.04529,0.71463,1.62035,0.31334,0.5037,1.4987
3136,0.10064,0.37393,1.54133,0.08355,0.53064,0.11479,0.12393,0.1941,0.24398,0.08224,0.65913,0.52241,0.27373,0.49923,0.49875,0.03158,0.50873,0.93721,0.20494,0.43334,0.92803,-0.06446,0.41216,1.50264,0.2544,0.32082,1.46937,-0.13118,0.69591,1.43723,0.43647,0.44281,1.27224,0.04843,0.72127,1.62661,0.31451,0.51241,1.49899
3137,0.09813,0.38097,1.54489,0.08337,0.52942,0.11416,0.12912,0.22089,0.26656,0.07699,0.65567,0.52242,0.27955,0.53594,0.50856,0.03102,0.51082,0.93974,0.20698,0.44157,0.93186,-0.06702,0.41961,1.50777,0.25246,0.32813,1.47377,-0.13102,0.70498,1.44684,0.43595,0.44394,1.27425,0.05249,0.72812,1.63272,0.31554,0.52104,1.49938
3138,0.09585,0.38819,1.54877,0.08291,0.52815,0.11411,0.13461,0.24961,0.28945,0.07165,0.65192,0.52303,0.28379,0.5733,0.52059,0.03044,0.51261,0.94273,0.20885,0.44978,0.9359,-0.06968,0.4275,1.51276,0.25051,0.33553,1.47821,-0.12963,0.71457,1.45578,0.43498,0.44541,1.27625,0.05737,0.73475,1.63851,0.31671,0.52954,1.50001
3139,0.09367,0.39606,1.55277,0.08202,0.52724,0.11445,0.14043,0.28018,0.31286,0.06634,0.64823,0.52405,0.28679,0.61142,0.53492,0.02988,0.51442,0.94598,0.21055,0.45834,0.94002,-0.07253,0.43575,1.51773,0.2487,0.34357,1.48302,-0.12753,0.72442,1.46396,0.43379,0.44741,1.27845,0.06256,0.74093,1.64384,0.31804,0.5382,1.50091
3140,0.09154,0.40462,1.5567,0.08095,0.52687,0.11476,0.14671,0.31245,0.33671,0.06153,0.64463,0.52514,0.2888,0.6501,0.55178,0.0295,0.51627,0.94911,0.21226,0.46731,0.94432,-0.0755,0.44419,1.52287,0.24718,0.35197,1.48831,-0.12516,0.73424,1.47139,0.43256,0.45,1.28115,0.06763,0.747,1.64869,0.31912,0.54734,1.50202
3141,0.08962,0.41351,1.56048,0.08022,0.52695,0.1148,0.15345,0.34612,0.36065,0.0577,0.64094,0.52608,0.28988,0.68882,0.57136,0.02946,0.5179,0.9519,0.21408,0.47635,0.9488,-0.07828,0.45276,1.52815,0.24594,0.36002,1.49402,-0.12261,0.74394,1.47818,0.43133,0.45314,1.28461,0.07254,0.75346,1.65308,0.31941,0.55721,1.50318
3142,0.08812,0.42238,1.56407,0.07986,0.52731,0.11489,0.16042,0.38083,0.38435,0.05488,0.63731,0.52712,0.28962,0.72704,0.59385,0.02976,0.51896,0.95445,0.21596,0.48499,0.95349,-0.08049,0.46148,1.53316,0.2448,0.36745,1.49999,-0.11985,0.75359,1.48449,0.43023,0.45693,1.28904,0.07745,0.7603,1.6571,0.31882,0.56798,1.50441
3143,0.087,0.43105,1.56747,0.07948,0.52781,0.11556,0.16721,0.41609,0.40772,0.05268,0.63406,0.52866,0.28749,0.7641,0.61954,0.03037,0.51937,0.95714,0.21777,0.49291,0.95858,-0.08199,0.47046,1.53763,0.2436,0.37454,1.50589,-0.11676,0.76339,1.4904,0.42964,0.46174,1.29451,0.08252,0.76698,1.66081,0.31804,0.5797,1.50608
3144,0.08596,0.43958,1.57062,0.07895,0.52852,0.11689,0.17351,0.45139,0.43067,0.05086,0.63144,0.53075,0.28365,0.79909,0.64844,0.03123,0.51943,0.96008,0.21944,0.49989,0.9642,-0.08296,0.47986,1.54167,0.24233,0.38162,1.51125,-0.11325,0.7735,1.49584,0.43011,0.46789,1.30104,0.08787,0.773,1.66411,0.31797,0.5924,1.50854
3145,0.08475,0.44829,1.57339,0.07848,0.52951,0.11846,0.17932,0.4865,0.45288,0.04945,0.62965,0.53293,0.27903,0.8313,0.68009,0.03228,0.51952,0.96285,0.22092,0.50596,0.97014,-0.08361,0.48967,1.54554,0.24102,0.3886,1.51578,-0.10922,0.7839,1.50058,0.43199,0.47543,1.3087,0.09334,0.77828,1.66701,0.31887,0.60621,1.51175
3146,0.0835,0.45734,1.57559,0.07832,0.5307,0.11979,0.18503,0.52184,0.47394,0.04855,0.62896,0.53466,0.27427,0.86068,0.71409,0.03337,0.51992,0.96493,0.22211,0.51152,0.97623,-0.0839,0.49966,1.54907,0.23978,0.39536,1.51959,-0.10463,0.79431,1.5044,0.43526,0.48415,1.3176,0.09863,0.78301,1.66969,0.32036,0.62115,1.51549
3147,0.08244,0.46654,1.57711,0.07852,0.53183,0.12086,0.19118,0.55818,0.49387,0.048,0.62944,0.53582,0.26902,0.88766,0.75045,0.0343,0.52061,0.9662,0.22281,0.51715,0.9827,-0.08375,0.50945,1.55179,0.23882,0.40236,1.52308,-0.09955,0.80446,1.50741,0.43962,0.49396,1.32767,0.10358,0.78741,1.67238,0.32235,0.63703,1.51979
3148,0.08162,0.47558,1.57794,0.079,0.53276,0.12194,0.19779,0.59605,0.51317,0.04757,0.63095,0.53671,0.26262,0.91239,0.78917,0.03496,0.52152,0.96696,0.22284,0.52312,0.98977,-0.08333,0.51883,1.55344,0.2384,0.41045,1.52653,-0.0942,0.81419,1.50995,0.44482,0.50498,1.33851,0.10827,0.79154,1.67505,0.32532,0.65374,1.52485
3149,0.08092,0.48433,1.57813,0.08,0.53359,0.12327,0.20437,0.63558,0.53223,0.04731,0.63339,0.53755,0.25505,0.93455,0.82972,0.03548,0.52263,0.96749,0.2223,0.52925,0.99708,-0.08297,0.52758,1.55418,0.23877,0.42005,1.52988,-0.089,0.82331,1.51228,0.45085,0.51721,1.34967,0.11275,0.79527,1.67742,0.32963,0.67113,1.53063
3150,0.08029,0.49283,1.57774,0.08179,0.53464,0.12486,0.21044,0.67663,0.551,0.04739,0.63695,0.53839,0.24674,0.95361,0.87103,0.03615,0.52395,0.96776,0.2216,0.5352,1.0039,-0.08284,0.5355,1.55421,0.23992,0.43083,1.5329,-0.08437,0.83159,1.51451,0.45767,0.53029,1.3609,0.11689,0.7984,1.67931,0.33516,0.68895,1.53682
3151,0.07973,0.50117,1.57674,0.08419,0.53626,0.12662,0.21583,0.71918,0.56948,0.04768,0.64187,0.53914,0.23792,0.96929,0.91214,0.03719,0.5257,0.96768,0.2211,0.54086,1.00973,-0.08266,0.54261,1.5536,0.24144,0.44213,1.53539,-0.08046,0.83905,1.51667,0.46492,0.54366,1.37217,0.12051,0.80088,1.68074,0.34143,0.70699,1.54307
3152,0.07911,0.50945,1.57506,0.08651,0.53841,0.12851,0.22056,0.76331,0.5884,0.04782,0.64812,0.53976,0.22844,0.98158,0.95274,0.03867,0.52825,0.96731,0.22107,0.54628,1.01449,-0.08205,0.54926,1.55238,0.24278,0.45337,1.53729,-0.0773,0.84606,1.51869,0.47204,0.55695,1.38365,0.12345,0.80288,1.68178,0.34785,0.7253,1.54907
3153,0.0782,0.51766,1.57263,0.0883,0.54074,0.13041,0.22466,0.80902,0.60889,0.04764,0.65525,0.54016,0.21833,0.99057,0.99288,0.04076,0.53178,0.96672,0.22174,0.55161,1.01845,-0.08108,0.55583,1.55068,0.24384,0.46419,1.53872,-0.07503,0.85297,1.52037,0.47877,0.56993,1.39546,0.1254,0.80462,1.6824,0.35402,0.74401,1.55442
3154,0.07703,0.52566,1.56945,0.0896,0.54294,0.13209,0.228,0.85646,0.6317,0.04721,0.66266,0.54017,0.20816,0.99638,1.03229,0.04361,0.53614,0.96588,0.22319,0.55704,1.02186,-0.08035,0.5623,1.54867,0.24489,0.47433,1.53974,-0.07368,0.85974,1.52163,0.48521,0.58223,1.40748,0.12615,0.80622,1.68277,0.36029,0.7629,1.55874
3155,0.07591,0.53318,1.56566,0.09076,0.54478,0.13335,0.23053,0.90599,0.65717,0.04655,0.66982,0.53963,0.19885,0.99937,1.07036,0.04704,0.54124,0.96475,0.22521,0.5628,1.02486,-0.08046,0.56832,1.54642,0.24597,0.48352,1.54018,-0.07292,0.86602,1.5226,0.49147,0.59308,1.41927,0.126,0.8077,1.6832,0.36755,0.78126,1.56198
3156,0.07508,0.54004,1.56166,0.09184,0.54617,0.1341,0.23238,0.9576,0.68563,0.04539,0.67644,0.53849,0.19095,1.00011,1.10626,0.05062,0.54728,0.96339,0.22736,0.56903,1.0275,-0.08169,0.57362,1.54393,0.2468,0.49155,1.53996,-0.07239,0.87152,1.52351,0.49727,0.6018,1.43042,0.12548,0.80902,1.68384,0.37641,0.79833,1.5642
3157,0.07443,0.54636,1.55802,0.0926,0.54717,0.13438,0.23342,1.01042,0.71709,0.04339,0.68242,0.5368,0.18424,0.99928,1.13888,0.05402,0.55448,0.96197,0.22944,0.57571,1.02978,-0.08391,0.57828,1.54123,0.24715,0.49829,1.53934,-0.07204,0.87631,1.52445,0.50224,0.6083,1.44076,0.12482,0.81001,1.68449,0.38669,0.81395,1.56521
3158,0.07378,0.55222,1.55522,0.09288,0.5479,0.13437,0.23303,1.06335,0.75092,0.04064,0.68782,0.53481,0.17831,0.99759,1.16701,0.05713,0.56273,0.96065,0.23158,0.58276,1.03125,-0.08659,0.58253,1.5383,0.24722,0.50393,1.53867,-0.07198,0.88063,1.52525,0.5063,0.61321,1.45018,0.12385,0.81039,1.68488,0.39804,0.8283,1.56485
3159,0.07309,0.55748,1.55324,0.093,0.54839,0.13433,0.23078,1.11576,0.78649,0.03777,0.6929,0.53273,0.17313,0.99596,1.18995,0.05998,0.57156,0.95939,0.23412,0.59051,1.03107,-0.08896,0.58621,1.53506,0.24737,0.50908,1.53799,-0.07225,0.88434,1.52573,0.50974,0.61716,1.45816,0.12234,0.80991,1.68497,0.41038,0.84121,1.56333
3160,0.0722,0.56194,1.55164,0.09335,0.54868,0.13439,0.227,1.16739,0.82368,0.03545,0.69794,0.53066,0.16884,0.99564,1.20783,0.06258,0.58048,0.95811,0.23697,0.59968,1.02914,-0.09076,0.58869,1.53139,0.24753,0.51456,1.53723,-0.07306,0.88686,1.52573,0.51287,0.61997,1.46391,0.12009,0.80853,1.68486,0.4236,0.85187,1.56077
3161,0.0706,0.56551,1.54997,0.09381,0.54886,0.13455,0.22246,1.21819,0.86236,0.03379,0.70291,0.52866,0.16539,0.99811,1.22118,0.0648,0.58935,0.95691,0.2393,0.61054,1.02707,-0.09259,0.5893,1.5275,0.2472,0.52059,1.5366,-0.07506,0.88752,1.52517,0.51553,0.62074,1.46687,0.11665,0.80634,1.68461,0.43714,0.85925,1.55686
3162,0.06779,0.5682,1.54813,0.09415,0.54884,0.13472,0.21753,1.2687,0.90187,0.03265,0.70742,0.5268,0.16273,1.00482,1.23023,0.06636,0.59838,0.95602,0.24014,0.62265,1.02698,-0.09524,0.58806,1.52396,0.24603,0.52648,1.53634,-0.07888,0.88636,1.52414,0.51732,0.61859,1.46697,0.1117,0.80363,1.68414,0.4502,0.86255,1.55129
3163,0.06413,0.57004,1.54635,0.09445,0.54872,0.13482,0.21185,1.31958,0.94142,0.03206,0.71115,0.52519,0.16103,1.01651,1.2347,0.06695,0.60804,0.95577,0.23914,0.63562,1.02933,-0.09849,0.58578,1.52119,0.24428,0.53155,1.53627,-0.08432,0.88418,1.52301,0.51822,0.61331,1.4644,0.10577,0.80085,1.68329,0.46192,0.86153,1.54408
3164,0.06064,0.57106,1.54494,0.09508,0.54886,0.13491,0.20489,1.3701,0.98012,0.03233,0.7143,0.52395,0.16051,1.03282,1.23453,0.06646,0.61864,0.95631,0.23684,0.6497,1.03266,-0.10134,0.58334,1.51891,0.24259,0.53575,1.53592,-0.09057,0.88187,1.52213,0.51863,0.60533,1.45944,0.09983,0.79834,1.68192,0.47152,0.85662,1.53537
3165,0.05799,0.5713,1.54402,0.09635,0.54946,0.13511,0.19673,1.41736,1.01605,0.03362,0.71728,0.52312,0.16105,1.05245,1.23056,0.06522,0.63014,0.95747,0.23406,0.66518,1.0355,-0.10304,0.58082,1.51649,0.24132,0.53928,1.53495,-0.09715,0.87946,1.52139,0.51873,0.5952,1.45241,0.09425,0.79593,1.67999,0.47867,0.84856,1.52547
3166,0.05602,0.57071,1.5435,0.09818,0.55042,0.13549,0.18879,1.45803,1.04555,0.03577,0.72038,0.52262,0.16221,1.07368,1.22449,0.06381,0.64221,0.95892,0.23138,0.68174,1.03754,-0.10366,0.57775,1.51359,0.2404,0.54182,1.53344,-0.10384,0.87642,1.52026,0.51813,0.5833,1.44377,0.0887,0.79306,1.67756,0.48376,0.83804,1.51486
3167,0.0542,0.56906,1.54318,0.10013,0.55155,0.13597,0.18336,1.49057,1.06499,0.03857,0.72352,0.52236,0.16335,1.09477,1.21795,0.06264,0.65433,0.96041,0.229,0.69844,1.03915,-0.10367,0.57387,1.51042,0.23957,0.54259,1.5318,-0.11026,0.87244,1.51825,0.51629,0.56975,1.43392,0.08302,0.78924,1.67472,0.48751,0.82554,1.50373
3168,0.05239,0.56608,1.54295,0.10173,0.55276,0.13643,0.1815,1.51569,1.07397,0.04182,0.72642,0.52231,0.16383,1.11431,1.21191,0.06181,0.66603,0.96187,0.22701,0.71428,1.04062,-0.10358,0.56935,1.50742,0.23869,0.54108,1.53046,-0.11614,0.86772,1.51532,0.51296,0.5545,1.42327,0.07741,0.78464,1.67153,0.49055,0.81128,1.49176
3169,0.05096,0.56176,1.54274,0.10267,0.55401,0.13682,0.18188,1.53525,1.07593,0.04524,0.72885,0.52256,0.16339,1.13149,1.20664,0.06133,0.67709,0.96337,0.22562,0.72852,1.04202,-0.1038,0.56448,1.50476,0.2378,0.53757,1.52937,-0.12161,0.8626,1.512,0.50831,0.53751,1.41223,0.07214,0.77987,1.66815,0.49346,0.79537,1.47871
3170,0.0503,0.5564,1.54255,0.10287,0.55524,0.1373,0.18213,1.55114,1.07531,0.04863,0.73079,0.52317,0.1622,1.14618,1.20204,0.06112,0.68747,0.96501,0.22488,0.74087,1.04345,-0.10456,0.55958,1.50215,0.23714,0.53279,1.52803,-0.12666,0.85742,1.509,0.50278,0.51902,1.40099,0.06763,0.77549,1.6649,0.49681,0.77792,1.46476
3171,0.05033,0.55062,1.54226,0.10244,0.55644,0.138,0.1809,1.56475,1.07446,0.05187,0.73253,0.52412,0.16061,1.15879,1.19789,0.06098,0.69696,0.96674,0.22444,0.75146,1.04505,-0.10568,0.55479,1.49919,0.23702,0.52748,1.52593,-0.1311,0.85234,1.50697,0.49671,0.49947,1.3893,0.06425,0.77161,1.66217,0.50069,0.7591,1.45021
3172,0.05053,0.54523,1.5416,0.10166,0.55788,0.1388,0.17864,1.57672,1.07344,0.05478,0.7343,0.52524,0.15893,1.16984,1.19392,0.06065,0.70521,0.96838,0.22376,0.76056,1.04682,-0.10662,0.55001,1.49579,0.23758,0.52201,1.52307,-0.13517,0.84721,1.5061,0.48999,0.47939,1.37688,0.06178,0.76793,1.66002,0.50423,0.73925,1.43523
3173,0.05043,0.5409,1.54036,0.10091,0.55987,0.13944,0.17666,1.58733,1.07161,0.05694,0.73608,0.52632,0.15737,1.1797,1.18957,0.06008,0.7119,0.96978,0.22266,0.76836,1.04854,-0.10711,0.54522,1.4921,0.23856,0.51632,1.51982,-0.13949,0.84189,1.50586,0.48224,0.45938,1.36402,0.05936,0.76406,1.65807,0.50641,0.71905,1.41985
3174,0.04998,0.53765,1.53871,0.10051,0.56226,0.13982,0.17558,1.59699,1.06884,0.05813,0.73763,0.52725,0.15623,1.18855,1.18397,0.05954,0.71679,0.9709,0.22143,0.77488,1.04988,-0.10731,0.54069,1.48849,0.23945,0.51026,1.51661,-0.14403,0.83667,1.50556,0.47328,0.4401,1.3514,0.05665,0.75979,1.65582,0.50713,0.69931,1.40428
3175,0.04952,0.53489,1.53706,0.10047,0.56457,0.14003,0.17485,1.60613,1.06568,0.05864,0.73864,0.52811,0.15605,1.19648,1.17649,0.05932,0.71976,0.97184,0.22056,0.78019,1.05041,-0.10736,0.53677,1.48542,0.23988,0.50387,1.51354,-0.14781,0.83211,1.50497,0.4633,0.42211,1.3395,0.05438,0.75519,1.65318,0.50686,0.68056,1.38887
3176,0.04925,0.53193,1.53584,0.10066,0.56651,0.14016,0.17359,1.6149,1.06293,0.05891,0.73886,0.52902,0.15736,1.20341,1.16718,0.05934,0.72102,0.97279,0.22022,0.78433,1.04981,-0.10718,0.53355,1.48319,0.23975,0.49722,1.5104,-0.14982,0.82848,1.50424,0.4527,0.4056,1.32832,0.05346,0.75053,1.65042,0.50579,0.66299,1.37378
3177,0.04896,0.5285,1.53524,0.101,0.56801,0.14026,0.17179,1.62284,1.06091,0.05905,0.73817,0.53006,0.16029,1.2091,1.15649,0.05919,0.72101,0.97386,0.22016,0.78712,1.0483,-0.10693,0.53074,1.4818,0.23924,0.49028,1.50702,-0.15008,0.82555,1.50342,0.44195,0.39058,1.31766,0.05377,0.74596,1.6479,0.5039,0.64663,1.35922
3178,0.04831,0.52465,1.53517,0.10144,0.56894,0.14036,0.17021,1.62929,1.05928,0.0588,0.73647,0.53122,0.16454,1.21323,1.14477,0.05855,0.71994,0.97504,0.21988,0.78816,1.04672,-0.10708,0.52793,1.48105,0.23865,0.48315,1.50373,-0.14943,0.82289,1.50233,0.43151,0.37711,1.30764,0.05442,0.74147,1.64578,0.50156,0.63165,1.34546
3179,0.04722,0.52041,1.53545,0.10182,0.56915,0.14038,0.16942,1.63372,1.05732,0.058,0.73355,0.53244,0.16975,1.21558,1.13222,0.05738,0.71768,0.97629,0.2191,0.78727,1.04575,-0.10773,0.52485,1.48059,0.23819,0.47619,1.50125,-0.14861,0.82009,1.50083,0.42148,0.36533,1.29875,0.05477,0.73713,1.64408,0.49954,0.6181,1.33261
3180,0.04607,0.51561,1.53597,0.10208,0.56857,0.14012,0.16945,1.63578,1.05422,0.05686,0.72914,0.53361,0.17559,1.21603,1.11921,0.05586,0.71407,0.97748,0.21786,0.78463,1.04528,-0.10839,0.52133,1.48014,0.23777,0.46959,1.50003,-0.14797,0.81685,1.49894,0.41179,0.35521,1.2914,0.05472,0.73298,1.64265,0.49848,0.60576,1.3204
3181,0.0452,0.51004,1.53665,0.10224,0.56723,0.13937,0.17032,1.63532,1.04908,0.05576,0.72322,0.53455,0.1817,1.21456,1.10635,0.05417,0.70935,0.97846,0.21653,0.78058,1.04471,-0.10868,0.51728,1.47964,0.23722,0.46307,1.49991,-0.14761,0.81298,1.49673,0.40249,0.34646,1.28547,0.05434,0.72887,1.64133,0.49826,0.59429,1.30866
3182,0.0446,0.50369,1.53736,0.10229,0.56522,0.13807,0.17242,1.63248,1.04112,0.05498,0.71618,0.53509,0.18759,1.21128,1.0941,0.05244,0.7041,0.97906,0.21546,0.77535,1.04362,-0.10883,0.51276,1.47904,0.23657,0.45633,1.50032,-0.14744,0.8086,1.4943,0.39396,0.33876,1.28055,0.05371,0.72458,1.64006,0.4981,0.58367,1.29786
3183,0.04401,0.49693,1.53796,0.102,0.56275,0.13635,0.17604,1.62768,1.02986,0.05454,0.70858,0.53527,0.19275,1.20651,1.0826,0.05074,0.69867,0.97927,0.21474,0.7692,1.04213,-0.10933,0.50816,1.47835,0.23586,0.44952,1.50077,-0.1472,0.80418,1.49185,0.38661,0.33224,1.27624,0.05296,0.72002,1.63888,0.49739,0.57451,1.28905
3184,0.04328,0.4903,1.53843,0.10109,0.55991,0.13446,0.18107,1.6214,1.01509,0.0543,0.70086,0.53521,0.19697,1.20071,1.07179,0.04921,0.69303,0.97925,0.21427,0.76244,1.04056,-0.11023,0.50387,1.47773,0.23494,0.44305,1.50106,-0.14672,0.80014,1.48965,0.38063,0.32754,1.27231,0.05219,0.71519,1.63792,0.49617,0.56769,1.28294
3185,0.04247,0.48408,1.53892,0.09963,0.55666,0.1326,0.18732,1.61383,0.99688,0.05413,0.69325,0.53501,0.20041,1.19424,1.06184,0.04794,0.68702,0.97906,0.21396,0.75532,1.03903,-0.11106,0.49989,1.47749,0.23357,0.43716,1.50119,-0.14611,0.79639,1.48791,0.37606,0.3253,1.26864,0.05141,0.71023,1.63733,0.49482,0.56387,1.27941
3186,0.04171,0.47828,1.53963,0.09786,0.553,0.13084,0.19469,1.60476,0.97541,0.05398,0.68601,0.53462,0.20342,1.18722,1.05306,0.04685,0.68071,0.97866,0.21374,0.74789,1.03748,-0.11161,0.4958,1.4778,0.23199,0.43193,1.50106,-0.14552,0.79248,1.48668,0.37312,0.32549,1.26517,0.05073,0.70539,1.63723,0.49349,0.56314,1.27799
3187,0.04101,0.47285,1.5406,0.0959,0.54903,0.12912,0.2028,1.59371,0.95076,0.05376,0.67937,0.53395,0.20626,1.17964,1.04557,0.04583,0.67425,0.97798,0.2136,0.74009,1.03577,-0.11219,0.4913,1.47859,0.23077,0.42723,1.50052,-0.14487,0.78816,1.48595,0.37213,0.32731,1.26193,0.05038,0.70085,1.63767,0.49208,0.56495,1.27838
3188,0.04035,0.46788,1.54166,0.09383,0.54488,0.12735,0.21102,1.5801,0.92289,0.05341,0.67338,0.53295,0.20904,1.1715,1.03905,0.04481,0.66769,0.97696,0.21363,0.73184,1.03357,-0.11319,0.48655,1.47949,0.23017,0.42274,1.4995,-0.14403,0.78363,1.4856,0.37312,0.32983,1.25903,0.05033,0.69643,1.63851,0.49048,0.56837,1.2804
3189,0.03983,0.46331,1.54261,0.09191,0.5408,0.12538,0.21874,1.56339,0.89175,0.0531,0.66785,0.53159,0.21187,1.16277,1.03286,0.04366,0.66108,0.97557,0.21383,0.72306,1.03054,-0.11447,0.48193,1.48016,0.22991,0.4181,1.49823,-0.14316,0.77924,1.48543,0.37572,0.33273,1.25668,0.05025,0.69181,1.63941,0.48875,0.57276,1.28388
3190,0.03964,0.45904,1.54329,0.09041,0.53711,0.12309,0.22595,1.54297,0.85751,0.05316,0.66243,0.52999,0.21486,1.15334,1.02637,0.0423,0.65442,0.97392,0.21413,0.71362,1.02674,-0.11555,0.47766,1.48057,0.22962,0.41333,1.49704,-0.14274,0.77512,1.48534,0.37927,0.33629,1.25505,0.04975,0.687,1.64008,0.487,0.57794,1.28866
3191,0.03973,0.45516,1.54367,0.0894,0.53394,0.12058,0.2332,1.5184,0.82066,0.05379,0.6568,0.52837,0.21807,1.1432,1.01928,0.04085,0.64768,0.97222,0.21447,0.70351,1.02282,-0.11619,0.47368,1.48098,0.22918,0.40871,1.49609,-0.14312,0.77117,1.48542,0.38326,0.34085,1.25412,0.04879,0.68243,1.64054,0.48509,0.58398,1.29469
3192,0.03973,0.45181,1.54388,0.08896,0.53114,0.11805,0.24079,1.48948,0.78199,0.05501,0.65083,0.52692,0.22162,1.13261,1.01161,0.03967,0.64087,0.97068,0.21495,0.69301,1.01947,-0.11661,0.46978,1.48164,0.22874,0.4044,1.49526,-0.14414,0.76722,1.48572,0.38755,0.34648,1.25377,0.04758,0.67829,1.64097,0.48255,0.59097,1.30203
3193,0.0394,0.4487,1.5442,0.08911,0.52855,0.11564,0.24787,1.4564,0.74253,0.05661,0.64459,0.52568,0.22567,1.12189,1.00342,0.03897,0.63395,0.96934,0.21562,0.68249,1.01689,-0.11719,0.46583,1.48264,0.22845,0.40037,1.49439,-0.1453,0.76323,1.48615,0.39224,0.35316,1.2539,0.04638,0.67441,1.64149,0.47883,0.59892,1.31078
3194,0.03901,0.44513,1.54481,0.08968,0.5261,0.11338,0.25329,1.41964,0.7034,0.05828,0.63827,0.52458,0.23033,1.11114,0.99452,0.03849,0.62683,0.96813,0.21624,0.67211,1.01479,-0.11818,0.4618,1.48385,0.22835,0.39652,1.49341,-0.14627,0.75921,1.48656,0.39739,0.36078,1.25458,0.04524,0.6706,1.64225,0.47377,0.6076,1.32074
3195,0.03898,0.44056,1.5457,0.09033,0.52369,0.11128,0.25691,1.37989,0.66541,0.05968,0.63197,0.52358,0.23558,1.1003,0.98451,0.03775,0.6196,0.967,0.21646,0.6619,1.01277,-0.1194,0.45776,1.48506,0.22844,0.39298,1.49226,-0.14698,0.75522,1.48694,0.40285,0.36909,1.25582,0.0441,0.66706,1.6434,0.46772,0.61651,1.33136
3196,0.0393,0.43522,1.54665,0.09067,0.52127,0.1093,0.25948,1.33782,0.62894,0.06065,0.62572,0.52263,0.24126,1.0893,0.97297,0.03655,0.61257,0.96592,0.2162,0.65191,1.01062,-0.12048,0.45379,1.48619,0.22877,0.38999,1.49093,-0.14756,0.7513,1.48738,0.40834,0.37777,1.25748,0.04306,0.66407,1.64493,0.46111,0.62516,1.342
3197,0.03948,0.42978,1.54752,0.09055,0.51886,0.1074,0.26167,1.29384,0.59396,0.06124,0.61959,0.52171,0.247,1.07806,0.95957,0.03517,0.60591,0.96487,0.21578,0.64216,1.0083,-0.12132,0.44977,1.48722,0.22931,0.38756,1.4895,-0.14829,0.74729,1.48797,0.41348,0.38671,1.25934,0.04221,0.66167,1.64654,0.45416,0.63332,1.35238
3198,0.03924,0.42469,1.54824,0.09025,0.5165,0.10558,0.26353,1.24799,0.56023,0.06162,0.61365,0.52079,0.252,1.06644,0.9441,0.03405,0.59943,0.96384,0.21559,0.6326,1.00584,-0.12201,0.44519,1.48815,0.22986,0.38541,1.48815,-0.14962,0.74266,1.48867,0.41795,0.39606,1.26143,0.04149,0.65947,1.64781,0.44707,0.64108,1.36267
3199,0.03893,0.41994,1.5488,0.09006,0.51412,0.10386,0.26468,1.20008,0.5278,0.06185,0.60786,0.51989,0.25567,1.05436,0.92671,0.03335,0.5928,0.96285,0.21574,0.6232,1.00326,-0.12232,0.43976,1.48899,0.23023,0.38335,1.48706,-0.15174,0.73705,1.48928,0.42164,0.40597,1.26402,0.04065,0.65707,1.64851,0.43984,0.64859,1.37327
3200,0.03919,0.4154,1.54912,0.08993,0.51172,0.1023,0.26505,1.14989,0.49717,0.06182,0.60224,0.51904,0.2585,1.04167,0.9079,0.03284,0.58603,0.96193,0.21602,0.61392,1.00052,-0.12182,0.434,1.48987,0.23043,0.38141,1.48632,-0.15413,0.73099,1.48958,0.42457,0.41633,1.26726,0.03963,0.65441,1.64882,0.4321,0.65579,1.38445
3201,0.04024,0.41108,1.54916,0.0897,0.50937,0.10099,0.26503,1.09756,0.46901,0.06134,0.59714,0.5183,0.26184,1.02819,0.88809,0.03214,0.57942,0.96112,0.2161,0.6048,0.99767,-0.12064,0.42884,1.49088,0.23063,0.37941,1.4858,-0.15586,0.72549,1.48952,0.42683,0.42684,1.27097,0.0387,0.65168,1.64908,0.42342,0.66234,1.39611
3202,0.04167,0.40695,1.54903,0.08938,0.50723,0.09996,0.26488,1.04361,0.4437,0.06036,0.59305,0.51764,0.26647,1.01372,0.86744,0.03104,0.57329,0.96036,0.21576,0.59592,0.99482,-0.11954,0.42458,1.4919,0.23091,0.37684,1.48518,-0.1566,0.721,1.4892,0.42853,0.4372,1.27495,0.03803,0.64894,1.64948,0.4137,0.66785,1.40803
3203,0.04296,0.40291,1.54891,0.08893,0.50558,0.09899,0.26432,0.98867,0.42128,0.05887,0.59005,0.51687,0.2721,0.99811,0.8459,0.02958,0.56767,0.95947,0.21497,0.58735,0.99207,-0.1191,0.4207,1.49262,0.23122,0.37352,1.48433,-0.15703,0.717,1.48881,0.42966,0.44723,1.27919,0.03742,0.64619,1.64986,0.4032,0.67224,1.41991
3204,0.04395,0.39897,1.54892,0.08824,0.50472,0.09781,0.26273,0.93349,0.40153,0.05689,0.58785,0.51585,0.27811,0.9812,0.82336,0.02787,0.56245,0.95831,0.21382,0.57913,0.98936,-0.11913,0.41664,1.49297,0.23147,0.36991,1.48344,-0.15803,0.71281,1.48841,0.43009,0.4568,1.28371,0.03665,0.64357,1.64987,0.39228,0.67565,1.43137
3205,0.04475,0.3953,1.54898,0.08731,0.50473,0.09643,0.25958,0.87885,0.38401,0.05453,0.58621,0.51469,0.28396,0.96282,0.79971,0.02609,0.55753,0.95699,0.21253,0.57124,0.98658,-0.11905,0.41241,1.49316,0.23171,0.36693,1.48286,-0.15973,0.70832,1.48791,0.42971,0.46582,1.28817,0.03576,0.64125,1.64931,0.38145,0.67826,1.44203
3206,0.04542,0.39209,1.5489,0.08645,0.50529,0.09522,0.25489,0.82539,0.3682,0.05208,0.58506,0.51369,0.28899,0.94288,0.775,0.02435,0.55277,0.95577,0.21124,0.56368,0.98359,-0.11861,0.40839,1.49342,0.232,0.36519,1.48273,-0.16155,0.70396,1.48714,0.42862,0.47417,1.29206,0.03478,0.63909,1.64842,0.3712,0.67995,1.45172
3207,0.04603,0.38925,1.54857,0.08589,0.50578,0.09446,0.2495,0.77321,0.35384,0.04995,0.58437,0.51302,0.29256,0.92146,0.74958,0.02256,0.5479,0.9548,0.2099,0.55641,0.98037,-0.11813,0.40481,1.49382,0.23233,0.36442,1.48288,-0.163,0.70006,1.4859,0.42704,0.48185,1.29529,0.03352,0.63685,1.64761,0.36158,0.68059,1.46066
3208,0.04678,0.38654,1.54802,0.08547,0.50575,0.09412,0.24445,0.7218,0.34105,0.04834,0.58416,0.51261,0.29482,0.89849,0.72406,0.0207,0.54278,0.95394,0.20845,0.54933,0.977,-0.1179,0.40143,1.49417,0.23275,0.36363,1.4831,-0.16416,0.6964,1.48414,0.4251,0.48901,1.29824,0.03186,0.63452,1.64697,0.35226,0.68032,1.4692
3209,0.04798,0.38365,1.54741,0.08485,0.50527,0.0939,0.24003,0.67081,0.33016,0.04714,0.58464,0.51216,0.29659,0.87361,0.69911,0.01899,0.53763,0.9529,0.20704,0.54214,0.97382,-0.11776,0.39777,1.49425,0.23343,0.36201,1.48328,-0.16539,0.69244,1.48205,0.42284,0.49586,1.30134,0.03011,0.63231,1.64615,0.34294,0.67947,1.47751
3210,0.0498,0.38032,1.54689,0.08388,0.50473,0.09354,0.23549,0.62075,0.321,0.04606,0.58598,0.51142,0.29833,0.84654,0.67529,0.0177,0.53284,0.95145,0.20593,0.53457,0.97108,-0.11722,0.39357,1.49394,0.23448,0.35948,1.48343,-0.16691,0.68781,1.47983,0.42027,0.50245,1.30474,0.02869,0.63032,1.64476,0.33339,0.67836,1.48539
3211,0.05204,0.37653,1.54653,0.08269,0.50446,0.09298,0.22996,0.57271,0.31278,0.04506,0.58796,0.51043,0.2996,0.81757,0.65285,0.01673,0.52857,0.94966,0.20503,0.52659,0.96866,-0.11594,0.38892,1.49336,0.2357,0.35644,1.48358,-0.16873,0.68253,1.47744,0.41745,0.50858,1.30833,0.02761,0.62847,1.64265,0.32348,0.67712,1.49243
3212,0.05433,0.37269,1.5462,0.08156,0.50452,0.09247,0.22332,0.52726,0.30477,0.04429,0.59006,0.50955,0.29959,0.78748,0.63175,0.01578,0.52473,0.94792,0.20406,0.51845,0.96619,-0.11403,0.38424,1.49267,0.23671,0.35341,1.48371,-0.17075,0.67699,1.47466,0.41462,0.51378,1.31188,0.02648,0.62662,1.63998,0.31353,0.67542,1.49838
3213,0.05651,0.36945,1.54568,0.08062,0.50466,0.09231,0.216,0.48402,0.2969,0.04376,0.59178,0.50909,0.29802,0.75701,0.61186,0.01469,0.52119,0.94661,0.20291,0.51052,0.96336,-0.1118,0.38001,1.49185,0.23729,0.35082,1.4838,-0.17279,0.67174,1.47142,0.41206,0.5178,1.31507,0.02503,0.62475,1.63703,0.30414,0.67272,1.50344
3214,0.05864,0.36704,1.54487,0.07982,0.50477,0.09248,0.20843,0.44219,0.2896,0.04316,0.5931,0.50903,0.29521,0.72637,0.59318,0.01368,0.51781,0.94574,0.2018,0.50283,0.96014,-0.10943,0.37648,1.49087,0.23767,0.34862,1.48381,-0.17461,0.6671,1.46776,0.40976,0.52096,1.31775,0.02318,0.62294,1.63417,0.29547,0.66889,1.50798
3215,0.06062,0.3651,1.54386,0.0791,0.50485,0.09268,0.20069,0.40144,0.28302,0.04245,0.59414,0.50902,0.29157,0.69541,0.57589,0.01298,0.51442,0.94495,0.20089,0.49503,0.95665,-0.10697,0.37336,1.48986,0.23826,0.34629,1.48356,-0.17605,0.66283,1.46375,0.40747,0.52374,1.31993,0.02107,0.6211,1.63158,0.28735,0.66435,1.51211
3216,0.06221,0.3631,1.54286,0.07848,0.50486,0.09267,0.19266,0.36228,0.27678,0.04191,0.59491,0.50885,0.28732,0.66405,0.56037,0.01266,0.51088,0.94398,0.20015,0.48668,0.95317,-0.10458,0.37007,1.48909,0.2393,0.34347,1.4829,-0.17713,0.65835,1.45947,0.40512,0.52618,1.32161,0.01895,0.61912,1.62911,0.27987,0.65948,1.51572
3217,0.0635,0.3608,1.54204,0.0781,0.50466,0.0926,0.18424,0.3256,0.27011,0.04183,0.59537,0.50867,0.28265,0.63235,0.547,0.01267,0.50721,0.94299,0.19948,0.47768,0.95013,-0.10242,0.36622,1.48877,0.2407,0.34034,1.48199,-0.17803,0.65326,1.45502,0.40296,0.52801,1.32278,0.01711,0.61704,1.62641,0.27334,0.65417,1.51878
3218,0.06485,0.35837,1.54144,0.07809,0.50426,0.09279,0.17562,0.29173,0.2625,0.04216,0.59553,0.50877,0.27771,0.60043,0.53587,0.013,0.50356,0.9423,0.19889,0.4684,0.94783,-0.10045,0.36198,1.48871,0.24217,0.33734,1.4812,-0.17893,0.64767,1.45035,0.40121,0.52903,1.32354,0.01553,0.61505,1.62322,0.26776,0.64809,1.52139
3219,0.06645,0.35604,1.541,0.07837,0.50378,0.09325,0.16719,0.26038,0.25391,0.04265,0.59528,0.50919,0.27238,0.56855,0.52671,0.01361,0.50001,0.94201,0.1984,0.45931,0.94617,-0.09857,0.35782,1.48849,0.24349,0.33461,1.48068,-0.1799,0.64204,1.44551,0.39983,0.5293,1.32401,0.01405,0.61322,1.61962,0.2628,0.64125,1.52356
3220,0.06815,0.35383,1.5406,0.07877,0.50342,0.09359,0.1591,0.23114,0.24455,0.04325,0.59442,0.50966,0.26637,0.53707,0.51906,0.01438,0.49659,0.94192,0.19792,0.4505,0.9447,-0.09676,0.35403,1.48783,0.24465,0.33177,1.48025,-0.18085,0.63679,1.44071,0.39854,0.52895,1.32426,0.01261,0.61141,1.61591,0.25822,0.63413,1.5252
3221,0.06979,0.35158,1.54018,0.07922,0.50333,0.09358,0.15123,0.20399,0.23441,0.04417,0.59295,0.50999,0.25967,0.50618,0.51257,0.01513,0.49313,0.94178,0.19727,0.4417,0.94303,-0.09506,0.35063,1.48687,0.24575,0.32837,1.47963,-0.18157,0.63201,1.43601,0.39718,0.52789,1.32422,0.01134,0.60959,1.61221,0.25399,0.62722,1.52611
3222,0.07138,0.34907,1.53976,0.07964,0.50359,0.09339,0.14347,0.17919,0.22342,0.04549,0.59128,0.51028,0.2525,0.47587,0.50722,0.01572,0.48931,0.94152,0.19631,0.43266,0.94119,-0.09348,0.34757,1.4859,0.24696,0.32427,1.47877,-0.18184,0.62763,1.43105,0.39581,0.52603,1.32376,0.01033,0.60784,1.60837,0.25011,0.62066,1.52611
3223,0.073,0.34612,1.53934,0.0798,0.50413,0.09337,0.13586,0.15706,0.21183,0.047,0.58973,0.5108,0.24515,0.44629,0.50312,0.0161,0.48497,0.9413,0.19503,0.42331,0.93937,-0.092,0.34482,1.48512,0.24846,0.31967,1.47783,-0.18174,0.62345,1.42549,0.39456,0.52343,1.32282,0.00941,0.60617,1.60416,0.24654,0.61415,1.52528
3224,0.07461,0.34271,1.53901,0.07951,0.50472,0.09365,0.12858,0.13766,0.20015,0.04846,0.58821,0.51165,0.2378,0.41783,0.50018,0.01626,0.48011,0.94122,0.19344,0.41366,0.93764,-0.09048,0.34215,1.48463,0.25016,0.31481,1.47694,-0.18163,0.61905,1.4193,0.39339,0.52028,1.3215,0.00827,0.6044,1.59954,0.24324,0.60736,1.524
3225,0.07612,0.33901,1.53888,0.07872,0.50514,0.0941,0.12174,0.12068,0.18884,0.04987,0.58641,0.51269,0.23039,0.39083,0.49814,0.01629,0.47471,0.94123,0.19168,0.40377,0.93596,-0.08872,0.33947,1.4845,0.25169,0.30984,1.47607,-0.18162,0.61418,1.41271,0.39214,0.51667,1.31991,0.00677,0.60238,1.59474,0.24025,0.60016,1.52262
3226,0.07745,0.33527,1.53905,0.07768,0.50528,0.0945,0.11522,0.10567,0.17824,0.0514,0.58435,0.51368,0.22273,0.36541,0.49671,0.01637,0.46882,0.94109,0.19,0.3938,0.93429,-0.08663,0.33703,1.48465,0.25272,0.30476,1.47521,-0.18132,0.60921,1.40591,0.39064,0.51257,1.31808,0.00512,0.60015,1.59009,0.23771,0.59268,1.52138
3227,0.07868,0.33166,1.53938,0.07672,0.50518,0.09482,0.10879,0.09245,0.16862,0.0531,0.58247,0.51449,0.21483,0.34178,0.49578,0.01655,0.4625,0.94055,0.18857,0.38395,0.93269,-0.08431,0.33507,1.48482,0.25342,0.29933,1.47442,-0.18028,0.60464,1.39901,0.38883,0.50785,1.31606,0.00378,0.59793,1.58567,0.23569,0.58521,1.52025
3228,0.08005,0.32829,1.53953,0.07606,0.50493,0.09515,0.10239,0.08101,0.1602,0.05485,0.58115,0.51515,0.20691,0.32024,0.49531,0.01684,0.45583,0.93954,0.18748,0.37436,0.93125,-0.08204,0.33349,1.48493,0.25417,0.29318,1.47356,-0.17861,0.60051,1.39206,0.38691,0.50241,1.31387,0.00293,0.59586,1.58123,0.2342,0.57824,1.51896
3229,0.0818,0.32522,1.53921,0.07565,0.50467,0.09556,0.09609,0.07113,0.15304,0.05655,0.58027,0.51578,0.19914,0.30091,0.49514,0.0173,0.4488,0.93818,0.18674,0.36485,0.93001,-0.08005,0.33208,1.48504,0.25519,0.28621,1.47241,-0.17681,0.59643,1.38504,0.38531,0.49614,1.31149,0.00242,0.59389,1.57644,0.23334,0.57192,1.51714
3230,0.08391,0.32231,1.53842,0.07523,0.50442,0.09602,0.08991,0.06227,0.14692,0.05827,0.57932,0.51645,0.19158,0.28356,0.49498,0.01811,0.4415,0.93674,0.18628,0.35502,0.92882,-0.07829,0.33084,1.48515,0.2564,0.27867,1.47096,-0.17514,0.59226,1.37779,0.38438,0.48898,1.30883,0.00197,0.59198,1.57117,0.23317,0.56574,1.51468
3231,0.08613,0.31932,1.53749,0.07465,0.50411,0.09644,0.08397,0.05406,0.14142,0.06012,0.57785,0.51716,0.18432,0.26787,0.4945,0.01931,0.43421,0.93544,0.18585,0.34464,0.92747,-0.07658,0.3301,1.48517,0.25757,0.27077,1.4696,-0.17336,0.5883,1.37022,0.38397,0.48084,1.30593,0.00149,0.59019,1.56564,0.23363,0.5588,1.51197
3232,0.08819,0.3161,1.53674,0.07395,0.50379,0.09678,0.07858,0.04647,0.13617,0.06216,0.57581,0.51788,0.17756,0.25361,0.49359,0.02065,0.42728,0.93438,0.18503,0.33387,0.92586,-0.07488,0.33009,1.48495,0.25851,0.26249,1.46871,-0.17112,0.58497,1.36237,0.38364,0.47164,1.30291,0.001,0.58838,1.56018,0.23455,0.55064,1.50946
3233,0.09007,0.31275,1.53634,0.0733,0.50363,0.09707,0.07398,0.03969,0.13099,0.0643,0.57352,0.51861,0.17137,0.24058,0.49239,0.02179,0.42075,0.93347,0.18357,0.32296,0.92416,-0.07328,0.33057,1.48446,0.25918,0.25386,1.46819,-0.1683,0.58219,1.35445,0.3832,0.46163,1.29984,0.00056,0.58623,1.55503,0.23572,0.54155,1.50719
3234,0.09184,0.30928,1.53621,0.0728,0.50373,0.09748,0.0701,0.03403,0.12587,0.0666,0.5713,0.51944,0.16581,0.22871,0.4911,0.02263,0.41423,0.93253,0.18162,0.31204,0.92256,-0.07176,0.33079,1.48385,0.25959,0.24523,1.46761,-0.16508,0.57922,1.34668,0.38269,0.45138,1.29661,0.0004,0.58391,1.55005,0.23705,0.53212,1.50493
3235,0.09353,0.3056,1.53613,0.07238,0.504,0.09815,0.0666,0.02983,0.12086,0.06918,0.56941,0.52049,0.161,0.21798,0.48982,0.02317,0.40729,0.93141,0.17961,0.30125,0.92119,-0.07022,0.33007,1.48336,0.25979,0.23703,1.46676,-0.16171,0.57521,1.33918,0.38222,0.44136,1.29312,0.00075,0.58195,1.54492,0.23846,0.52277,1.50249
3236,0.09516,0.30156,1.53595,0.0719,0.50433,0.09908,0.06314,0.02713,0.11603,0.07206,0.56784,0.52172,0.157,0.20829,0.48862,0.02346,0.39991,0.93,0.17782,0.29084,0.92002,-0.0686,0.32839,1.48316,0.25978,0.2293,1.46582,-0.15843,0.5699,1.332,0.3818,0.43146,1.28938,0.00147,0.58059,1.53956,0.23992,0.51365,1.49972
3237,0.09682,0.29712,1.5357,0.07129,0.5047,0.10009,0.05966,0.02557,0.11152,0.07496,0.56634,0.52299,0.15373,0.19942,0.48752,0.02351,0.39235,0.92837,0.17626,0.28099,0.91902,-0.06688,0.32622,1.48308,0.2595,0.22174,1.46508,-0.1554,0.56386,1.32517,0.38153,0.42112,1.2855,0.00223,0.57946,1.53415,0.24147,0.50476,1.49649
3238,0.0987,0.29234,1.53547,0.07071,0.50516,0.10097,0.05647,0.02465,0.1074,0.07752,0.56462,0.52414,0.15099,0.1912,0.48657,0.02338,0.38487,0.92665,0.17484,0.27169,0.91821,-0.065,0.32416,1.48261,0.25886,0.21423,1.46466,-0.15265,0.55797,1.31861,0.38158,0.40997,1.28157,0.00283,0.57813,1.52881,0.24332,0.49596,1.49281
3239,0.10089,0.28748,1.53519,0.07036,0.50579,0.10167,0.05387,0.02388,0.10371,0.07965,0.56245,0.52518,0.14858,0.18348,0.48581,0.02317,0.37758,0.92504,0.17347,0.26279,0.91761,-0.06293,0.32261,1.48148,0.25791,0.20682,1.46443,-0.15003,0.55277,1.31211,0.38203,0.39824,1.27777,0.0034,0.57643,1.52346,0.24546,0.48721,1.48887
3240,0.10323,0.28287,1.53474,0.07034,0.50655,0.10224,0.05193,0.02291,0.10041,0.08148,0.55971,0.52616,0.1464,0.17604,0.48522,0.02296,0.3705,0.92369,0.1721,0.25415,0.91718,-0.06081,0.32156,1.47998,0.25689,0.19935,1.46407,-0.1473,0.54819,1.30561,0.38271,0.38651,1.27425,0.00412,0.57441,1.51809,0.2476,0.4787,1.48491
3241,0.1054,0.27845,1.53418,0.07047,0.50718,0.10267,0.05048,0.02169,0.09747,0.08314,0.55636,0.52703,0.14444,0.16875,0.48476,0.02286,0.36359,0.92258,0.17081,0.2457,0.91689,-0.05896,0.32047,1.47859,0.2561,0.19141,1.46344,-0.14428,0.54371,1.29934,0.38325,0.37504,1.27106,0.0051,0.57224,1.51297,0.24943,0.47057,1.48105
3242,0.10716,0.27386,1.53375,0.07047,0.50741,0.10294,0.04937,0.02033,0.09482,0.08445,0.55259,0.5277,0.14268,0.16164,0.4844,0.02293,0.35679,0.92157,0.1697,0.2374,0.91671,-0.05759,0.31864,1.4775,0.25552,0.18297,1.46283,-0.14094,0.53888,1.29367,0.38348,0.36357,1.26815,0.00638,0.57016,1.50835,0.25091,0.46261,1.47732
3243,0.10848,0.26886,1.53357,0.07017,0.50719,0.10306,0.0485,0.01886,0.09247,0.08522,0.54862,0.52817,0.14101,0.15476,0.48417,0.02316,0.35011,0.92059,0.16873,0.22921,0.91665,-0.05656,0.31588,1.47673,0.2549,0.17438,1.46253,-0.13738,0.53353,1.28873,0.38353,0.3519,1.26547,0.00795,0.56832,1.50421,0.2523,0.45457,1.47372
3244,0.10956,0.26358,1.53345,0.06972,0.50674,0.10309,0.04777,0.01705,0.09048,0.08555,0.54454,0.52851,0.13936,0.14805,0.48405,0.0235,0.34361,0.9197,0.16778,0.22115,0.91672,-0.05565,0.31273,1.47617,0.25404,0.16589,1.46235,-0.13388,0.52782,1.28418,0.38354,0.34009,1.26292,0.00965,0.56662,1.50019,0.25379,0.44644,1.47025
3245,0.11058,0.25829,1.53318,0.06939,0.50631,0.10305,0.04717,0.01478,0.08883,0.08579,0.54035,0.52876,0.13769,0.14147,0.48406,0.02394,0.33743,0.91896,0.16689,0.21341,0.91687,-0.05472,0.30974,1.47568,0.25289,0.15751,1.46195,-0.13068,0.5219,1.27954,0.38358,0.32841,1.26043,0.01112,0.5649,1.4959,0.25536,0.43823,1.4669
3246,0.11148,0.25318,1.53277,0.06939,0.50591,0.10296,0.04668,0.01236,0.08743,0.0862,0.53601,0.52895,0.13603,0.13503,0.48419,0.02444,0.33156,0.91836,0.16618,0.20614,0.91708,-0.05371,0.30698,1.47517,0.25147,0.14944,1.46138,-0.12786,0.51569,1.2747,0.38366,0.31692,1.25798,0.01216,0.563,1.49132,0.25686,0.42986,1.46364
3247,0.11213,0.24823,1.53244,0.06976,0.5054,0.10279,0.04619,0.01034,0.08613,0.08666,0.53144,0.52905,0.13426,0.12878,0.48446,0.02494,0.32589,0.91788,0.16569,0.19936,0.91734,-0.05266,0.30412,1.47459,0.24972,0.142,1.46101,-0.1253,0.50932,1.26999,0.38381,0.3055,1.25563,0.01305,0.56079,1.48672,0.25823,0.42118,1.46051
3248,0.11254,0.24336,1.53233,0.07045,0.5047,0.10253,0.04557,0.00903,0.08489,0.08694,0.52664,0.52903,0.13219,0.12283,0.48488,0.02535,0.32034,0.91749,0.16535,0.19297,0.91771,-0.05171,0.30108,1.47379,0.24773,0.13518,1.461,-0.12274,0.50337,1.26576,0.38385,0.2941,1.25338,0.01421,0.55835,1.48252,0.25944,0.41209,1.45766
3249,0.11282,0.23868,1.53232,0.07134,0.5039,0.1022,0.04485,0.00829,0.08383,0.08699,0.52177,0.52893,0.12978,0.11728,0.48553,0.02574,0.31489,0.91713,0.16515,0.18688,0.91826,-0.05095,0.29823,1.47277,0.24587,0.12859,1.46118,-0.11993,0.49841,1.26202,0.38354,0.28305,1.25122,0.01569,0.55592,1.47896,0.26038,0.40252,1.45541
3250,0.11295,0.23429,1.53228,0.07238,0.50307,0.10191,0.04419,0.00774,0.08309,0.08697,0.51709,0.52882,0.12724,0.11215,0.48639,0.02623,0.3096,0.91678,0.16512,0.18104,0.91903,-0.05024,0.29604,1.47189,0.24436,0.12198,1.46132,-0.1168,0.49423,1.25849,0.38286,0.27281,1.24928,0.01719,0.55368,1.47592,0.26089,0.39275,1.4539
3251,0.113,0.22995,1.53231,0.07358,0.50217,0.10174,0.04373,0.00709,0.08262,0.08697,0.51273,0.52878,0.12493,0.10741,0.48733,0.02694,0.3045,0.91645,0.16525,0.17535,0.9199,-0.04943,0.29456,1.47155,0.24296,0.11535,1.46135,-0.1135,0.49009,1.25497,0.38207,0.2633,1.24769,0.01839,0.55159,1.47312,0.26106,0.38334,1.45282
3252,0.11323,0.22529,1.53264,0.07484,0.50122,0.10169,0.04344,0.00642,0.08225,0.08686,0.50857,0.52884,0.12301,0.10301,0.48819,0.0278,0.2996,0.91626,0.1654,0.16973,0.92075,-0.04856,0.29336,1.47175,0.24132,0.10879,1.46141,-0.11026,0.48553,1.2515,0.38136,0.25393,1.24644,0.01934,0.54942,1.47033,0.26115,0.37463,1.45165
3253,0.11375,0.22036,1.53336,0.07592,0.50038,0.10178,0.0432,0.00591,0.08188,0.08662,0.50434,0.52901,0.12153,0.0989,0.4889,0.02863,0.29485,0.91632,0.16547,0.1642,0.92152,-0.04778,0.29186,1.47206,0.23933,0.10246,1.46169,-0.10739,0.48062,1.24832,0.38075,0.2443,1.24541,0.02029,0.547,1.46753,0.26137,0.36655,1.4502
3254,0.11424,0.2156,1.53427,0.07669,0.49977,0.10204,0.04296,0.00561,0.08156,0.08644,0.49992,0.52931,0.12054,0.09514,0.4895,0.02928,0.29022,0.91662,0.1654,0.15883,0.92227,-0.04709,0.28978,1.47222,0.23715,0.09651,1.4623,-0.10507,0.47562,1.24562,0.38014,0.23449,1.24457,0.02146,0.5444,1.46476,0.26177,0.35878,1.44872
3255,0.11426,0.21127,1.53514,0.07718,0.49943,0.10247,0.04282,0.00539,0.08134,0.08649,0.49547,0.52974,0.12015,0.09176,0.49001,0.0298,0.28568,0.91707,0.16517,0.15354,0.92303,-0.04649,0.28725,1.47238,0.235,0.09076,1.46315,-0.10304,0.47056,1.24337,0.37943,0.22488,1.24396,0.02294,0.54187,1.46202,0.26215,0.35103,1.44758
3256,0.11374,0.2071,1.53593,0.07748,0.49931,0.10297,0.04284,0.00512,0.08119,0.08674,0.4912,0.53018,0.12027,0.08859,0.49044,0.03026,0.28126,0.91747,0.16479,0.14828,0.92381,-0.04598,0.28455,1.47279,0.23314,0.08493,1.464,-0.10068,0.46533,1.24133,0.37854,0.21586,1.24352,0.02466,0.53958,1.45937,0.26225,0.34325,1.44694
3257,0.11305,0.20274,1.53668,0.07772,0.49925,0.10338,0.04301,0.00476,0.08106,0.08707,0.48715,0.5305,0.12062,0.08546,0.49084,0.03075,0.27698,0.91768,0.1643,0.14306,0.92458,-0.04556,0.28186,1.4735,0.23174,0.07895,1.4647,-0.09775,0.45991,1.23935,0.37743,0.20769,1.24313,0.02645,0.53742,1.45691,0.26202,0.33564,1.4467
3258,0.11263,0.19829,1.53738,0.078,0.49902,0.1036,0.04322,0.00436,0.08091,0.08746,0.48324,0.53058,0.12097,0.08244,0.49117,0.03121,0.27281,0.91764,0.16382,0.13798,0.92525,-0.0451,0.27924,1.47429,0.23069,0.07317,1.46527,-0.09472,0.45452,1.23752,0.37621,0.20036,1.2427,0.0281,0.53525,1.45468,0.26172,0.32846,1.44669
3259,0.11268,0.19415,1.53789,0.07833,0.49851,0.10361,0.04341,0.00401,0.08072,0.08788,0.4794,0.53046,0.12129,0.07979,0.49138,0.03165,0.26881,0.91743,0.16341,0.1332,0.92581,-0.04446,0.27671,1.47489,0.22971,0.06804,1.46587,-0.09237,0.44955,1.23598,0.37511,0.19355,1.24227,0.02944,0.53302,1.45268,0.26169,0.32185,1.44673
3260,0.11313,0.19046,1.53824,0.07864,0.49783,0.10349,0.04352,0.00378,0.08053,0.08819,0.47561,0.53019,0.12168,0.07762,0.49149,0.03209,0.26515,0.91725,0.16302,0.12877,0.92626,-0.04362,0.27429,1.47513,0.22865,0.06362,1.4667,-0.09103,0.44513,1.23469,0.37432,0.18685,1.24201,0.03033,0.53066,1.45084,0.26197,0.3157,1.44672
3261,0.11366,0.18694,1.53856,0.07879,0.49717,0.10334,0.04351,0.00366,0.08041,0.08833,0.47182,0.52986,0.12217,0.07567,0.4916,0.03259,0.2619,0.91726,0.16258,0.12466,0.92671,-0.04268,0.2719,1.47505,0.22762,0.05957,1.46779,-0.09043,0.44099,1.23344,0.37381,0.18021,1.24203,0.03078,0.52801,1.44908,0.26221,0.30971,1.44674
3262,0.11394,0.18335,1.53892,0.07878,0.49668,0.10324,0.04331,0.00358,0.08039,0.08838,0.46803,0.52956,0.12274,0.07365,0.49177,0.0331,0.25893,0.91747,0.16204,0.12072,0.92719,-0.04173,0.26944,1.47489,0.22667,0.05553,1.46889,-0.09002,0.43672,1.23213,0.37329,0.17395,1.24223,0.03109,0.52508,1.44727,0.26207,0.30364,1.44702
3263,0.11397,0.17976,1.53921,0.07873,0.49647,0.10325,0.04295,0.0035,0.08042,0.08849,0.4643,0.52931,0.12326,0.07156,0.49196,0.03356,0.25602,0.91771,0.16138,0.1168,0.92768,-0.04077,0.26696,1.47493,0.22561,0.05132,1.46967,-0.08928,0.4322,1.23082,0.37237,0.16841,1.24241,0.03159,0.52212,1.44545,0.26156,0.29764,1.44772
3264,0.11407,0.17617,1.53935,0.07885,0.49646,0.1033,0.04259,0.00339,0.08036,0.0886,0.4608,0.52908,0.1236,0.06961,0.49207,0.03394,0.25306,0.91781,0.16067,0.11286,0.92809,-0.0398,0.26454,1.4752,0.22424,0.04684,1.47003,-0.08802,0.42765,1.22961,0.37098,0.16346,1.24252,0.03244,0.51936,1.44372,0.26103,0.29203,1.44871
3265,0.11446,0.17242,1.53939,0.07921,0.49647,0.10335,0.0425,0.00313,0.08021,0.08863,0.45768,0.52887,0.12378,0.06801,0.49207,0.0343,0.25006,0.9177,0.16002,0.10898,0.92838,-0.03887,0.26225,1.47552,0.22256,0.04204,1.47028,-0.0866,0.42335,1.22851,0.36944,0.15838,1.24272,0.0336,0.51675,1.44203,0.26085,0.28686,1.44968
3266,0.11502,0.16852,1.53947,0.07969,0.49634,0.10344,0.04279,0.00271,0.08003,0.08863,0.45492,0.52872,0.12401,0.06668,0.49205,0.03472,0.24714,0.91753,0.15954,0.1053,0.92863,-0.03808,0.26017,1.47563,0.22088,0.03711,1.47073,-0.08546,0.41944,1.22736,0.36813,0.15268,1.24302,0.03496,0.51406,1.44023,0.26107,0.28177,1.4504
3267,0.11556,0.16472,1.53958,0.08001,0.49613,0.10363,0.04334,0.00237,0.07987,0.08875,0.45223,0.52867,0.1244,0.06534,0.49208,0.03518,0.24435,0.91747,0.15928,0.10191,0.92888,-0.03749,0.25835,1.47549,0.21959,0.03236,1.47126,-0.08469,0.41583,1.22605,0.36717,0.14686,1.24322,0.03631,0.51113,1.43827,0.26131,0.27644,1.45091
3268,0.11599,0.16129,1.53962,0.08004,0.49607,0.10391,0.04382,0.00229,0.07971,0.08901,0.44933,0.52864,0.12484,0.06382,0.49214,0.03559,0.24162,0.91755,0.15913,0.0987,0.92914,-0.03708,0.25663,1.47529,0.21885,0.02804,1.47148,-0.08412,0.41227,1.22467,0.36649,0.14183,1.24312,0.03756,0.50806,1.4363,0.26124,0.27105,1.45134
3269,0.1163,0.15822,1.53953,0.07987,0.49622,0.10419,0.04398,0.00234,0.07956,0.08916,0.44624,0.52854,0.12509,0.06215,0.49223,0.03588,0.23884,0.91764,0.15894,0.09552,0.92938,-0.03669,0.25476,1.47522,0.21844,0.02417,1.47129,-0.08365,0.40867,1.22352,0.36594,0.13783,1.24278,0.03873,0.50507,1.43445,0.26081,0.26599,1.45171
3270,0.11637,0.15532,1.53936,0.07973,0.49646,0.1044,0.04385,0.00226,0.07947,0.08893,0.44319,0.52835,0.12503,0.06049,0.49235,0.03612,0.23609,0.91768,0.15866,0.09235,0.92962,-0.03616,0.25261,1.47521,0.21788,0.02061,1.47106,-0.0832,0.40517,1.2227,0.36524,0.13429,1.24246,0.03993,0.50235,1.43285,0.26025,0.26153,1.45203
3271,0.11621,0.15238,1.53921,0.07978,0.49654,0.10461,0.04363,0.00202,0.07943,0.08836,0.44039,0.5282,0.12468,0.05892,0.49252,0.03634,0.23347,0.91773,0.15832,0.08927,0.9299,-0.03547,0.25019,1.4751,0.21686,0.01717,1.47122,-0.08259,0.40195,1.22213,0.36416,0.13041,1.24237,0.04117,0.49995,1.43153,0.25991,0.25763,1.45233
3272,0.11611,0.14936,1.53918,0.08006,0.49635,0.10493,0.04353,0.00178,0.07942,0.0878,0.43786,0.52822,0.12423,0.05744,0.49274,0.03648,0.23096,0.91785,0.15795,0.08635,0.93022,-0.03481,0.24751,1.4749,0.21543,0.01379,1.47186,-0.08176,0.39888,1.22167,0.36263,0.12592,1.2424,0.04244,0.49786,1.43033,0.26,0.25398,1.45264
3273,0.11642,0.14638,1.53933,0.08049,0.49602,0.1054,0.04361,0.00159,0.07936,0.0875,0.43548,0.52842,0.12383,0.05597,0.49295,0.03644,0.22852,0.91806,0.1576,0.08365,0.9305,-0.03431,0.24465,1.47475,0.21406,0.01053,1.4726,-0.08085,0.39571,1.22126,0.36095,0.12129,1.24228,0.04369,0.49606,1.42907,0.26031,0.25033,1.45288
3274,0.11715,0.14368,1.53953,0.08102,0.49573,0.10594,0.04377,0.00138,0.07927,0.08749,0.43315,0.52867,0.12356,0.05449,0.49312,0.03636,0.22622,0.91831,0.15733,0.08119,0.93072,-0.03386,0.24187,1.47473,0.21317,0.00745,1.47305,-0.07992,0.39248,1.22088,0.35954,0.11721,1.24192,0.04496,0.49445,1.4277,0.26041,0.24668,1.45297
3275,0.11798,0.14138,1.53956,0.08155,0.49551,0.10644,0.04396,0.00109,0.07925,0.08764,0.43084,0.52886,0.12339,0.053,0.49332,0.03643,0.22408,0.91858,0.15716,0.07885,0.93098,-0.03333,0.23941,1.47479,0.21286,0.00443,1.4732,-0.07889,0.38947,1.22052,0.35856,0.11386,1.24149,0.0463,0.49292,1.4264,0.26003,0.2432,1.4529
3276,0.11859,0.13927,1.53939,0.08192,0.49534,0.10686,0.04416,0.00083,0.07939,0.08781,0.42863,0.52897,0.12333,0.05155,0.49365,0.0367,0.22206,0.91881,0.15702,0.07651,0.93137,-0.03284,0.23734,1.47486,0.21289,0.00125,1.47335,-0.0777,0.38682,1.22012,0.35775,0.11079,1.24117,0.04767,0.49136,1.42535,0.25938,0.23996,1.45275
3277,0.11902,0.13698,1.53917,0.08201,0.49522,0.10727,0.04435,0.00075,0.07966,0.08789,0.4266,0.52907,0.12338,0.05016,0.4941,0.03709,0.2201,0.91898,0.1569,0.07416,0.93189,-0.0326,0.23551,1.47494,0.213,-0.0022,1.47359,-0.07645,0.38435,1.21965,0.35689,0.1078,1.24102,0.04896,0.48962,1.42447,0.25879,0.23698,1.45272
3278,0.11946,0.13435,1.53908,0.08191,0.4952,0.10767,0.04443,0.00082,0.07994,0.08782,0.42478,0.52917,0.12351,0.04887,0.49454,0.03754,0.21821,0.91911,0.15681,0.07185,0.93239,-0.03257,0.2338,1.47506,0.21294,-0.00571,1.47358,-0.07536,0.38174,1.21907,0.35603,0.10519,1.24095,0.05018,0.48754,1.42355,0.2585,0.23431,1.45295
3279,0.12,0.13148,1.53919,0.08187,0.49532,0.10802,0.04436,0.00089,0.08011,0.08765,0.42303,0.52921,0.12366,0.04774,0.4948,0.03804,0.21646,0.91923,0.15671,0.06964,0.93273,-0.0325,0.23222,1.47531,0.21253,-0.0089,1.47313,-0.07455,0.37887,1.21846,0.35523,0.1031,1.24078,0.05147,0.4851,1.42242,0.25846,0.23191,1.45333
3280,0.12059,0.12861,1.5394,0.08212,0.49554,0.10833,0.04425,0.0008,0.08014,0.08758,0.42123,0.52917,0.1238,0.04679,0.49488,0.03852,0.21492,0.9194,0.15657,0.0676,0.93288,-0.0321,0.23075,1.47572,0.21185,-0.01153,1.47255,-0.07395,0.37584,1.21795,0.35441,0.1011,1.24042,0.05295,0.48257,1.4211,0.25849,0.22958,1.45354
3281,0.12111,0.12596,1.53957,0.08262,0.49579,0.10866,0.04422,0.00056,0.08009,0.08773,0.41933,0.52912,0.12394,0.04591,0.49487,0.03892,0.21355,0.91967,0.15642,0.06577,0.93294,-0.03138,0.22933,1.47621,0.21126,-0.01369,1.47222,-0.07338,0.3729,1.21761,0.35358,0.09884,1.2399,0.05449,0.48029,1.41981,0.2583,0.22711,1.45344
3282,0.12151,0.12365,1.53966,0.08308,0.49603,0.10904,0.04431,0.00032,0.08009,0.08803,0.41746,0.52911,0.12409,0.04512,0.49491,0.03923,0.21225,0.91996,0.15632,0.06413,0.93304,-0.0306,0.22796,1.47668,0.21107,-0.01577,1.47221,-0.07273,0.37026,1.2174,0.35282,0.09651,1.23941,0.05589,0.47846,1.41868,0.25774,0.22456,1.45317
3283,0.1219,0.12165,1.53972,0.0832,0.49625,0.10936,0.04441,0.00027,0.08019,0.08827,0.41572,0.52906,0.12426,0.04456,0.49506,0.0395,0.21103,0.92019,0.1562,0.0626,0.93325,-0.03003,0.22672,1.47716,0.21119,-0.01812,1.47228,-0.07201,0.36793,1.21727,0.35207,0.09436,1.23906,0.05713,0.47703,1.41773,0.25693,0.22226,1.45288
3284,0.12249,0.11983,1.5397,0.08308,0.49641,0.1096,0.0444,0.00052,0.0804,0.0883,0.41414,0.52896,0.12442,0.04425,0.49529,0.03972,0.20993,0.92036,0.15602,0.0612,0.93355,-0.02973,0.22548,1.4777,0.21126,-0.02077,1.47226,-0.0713,0.36579,1.21726,0.35114,0.09239,1.23876,0.05837,0.47575,1.41691,0.25623,0.22043,1.45261
3285,0.12333,0.118,1.5396,0.08303,0.49648,0.10985,0.04429,0.00098,0.08062,0.08819,0.41276,0.52892,0.1245,0.044,0.49555,0.03985,0.20891,0.92054,0.15587,0.05997,0.93386,-0.02944,0.22402,1.47827,0.21108,-0.02336,1.47213,-0.07063,0.36367,1.21741,0.35,0.09042,1.23836,0.05971,0.47434,1.41624,0.25596,0.21892,1.45231
3286,0.12432,0.11604,1.53948,0.08324,0.49653,0.11023,0.04422,0.00141,0.08076,0.08811,0.41155,0.52905,0.12446,0.04376,0.49575,0.03984,0.20785,0.92075,0.15587,0.05892,0.93409,-0.02896,0.22228,1.47881,0.21076,-0.0256,1.47191,-0.06993,0.36142,1.21764,0.34882,0.08821,1.23764,0.06107,0.47266,1.41571,0.25626,0.21723,1.45193
3287,0.12517,0.11403,1.53948,0.08368,0.49665,0.11075,0.0443,0.00164,0.08076,0.08813,0.41037,0.52931,0.1244,0.04366,0.49581,0.03966,0.20663,0.92097,0.15603,0.05795,0.93416,-0.02837,0.22044,1.47928,0.21055,-0.0275,1.47152,-0.0692,0.35899,1.21778,0.34791,0.0856,1.2365,0.06233,0.47081,1.41517,0.25715,0.21494,1.45136
3288,0.12555,0.11218,1.53962,0.08422,0.49679,0.11127,0.04442,0.00163,0.08066,0.08816,0.40914,0.52955,0.12445,0.04375,0.49571,0.03943,0.20529,0.92112,0.15617,0.05689,0.93409,-0.0279,0.21866,1.47965,0.21059,-0.02922,1.47095,-0.06855,0.35657,1.21778,0.34737,0.08275,1.23505,0.06348,0.46898,1.41449,0.25851,0.21221,1.45063
3289,0.12541,0.11054,1.5398,0.08475,0.49685,0.11158,0.04452,0.00153,0.08052,0.08802,0.40787,0.52958,0.12463,0.04392,0.49553,0.03936,0.20404,0.92117,0.1562,0.0557,0.93396,-0.02758,0.21704,1.47993,0.21084,-0.03085,1.47034,-0.06809,0.35439,1.21774,0.34705,0.08022,1.23368,0.06458,0.46731,1.41374,0.25983,0.20968,1.44993
3290,0.12506,0.10903,1.5399,0.08519,0.49677,0.11157,0.04463,0.00147,0.08042,0.08768,0.40659,0.52932,0.12481,0.04398,0.49541,0.03953,0.20301,0.9211,0.15624,0.05456,0.93388,-0.02728,0.21566,1.48015,0.2111,-0.03247,1.46989,-0.06785,0.35257,1.21775,0.34675,0.07849,1.23287,0.06558,0.46583,1.41303,0.26047,0.20788,1.44954
3291,0.12482,0.10766,1.53987,0.08548,0.49661,0.11138,0.04482,0.00147,0.08042,0.08723,0.40532,0.52889,0.12483,0.04392,0.49545,0.03979,0.20214,0.92097,0.15643,0.05365,0.93392,-0.02692,0.21453,1.48041,0.21115,-0.0341,1.46972,-0.06775,0.35096,1.2178,0.34637,0.07758,1.23279,0.06634,0.46453,1.41244,0.26023,0.20683,1.44959
3292,0.1248,0.10654,1.53967,0.08567,0.49645,0.11124,0.04498,0.00144,0.0805,0.08678,0.40407,0.52852,0.12475,0.04384,0.49558,0.03991,0.20135,0.9209,0.15675,0.05304,0.93404,-0.02658,0.21348,1.48071,0.2109,-0.03559,1.46971,-0.06778,0.34942,1.2179,0.34594,0.07718,1.2332,0.06682,0.46328,1.41202,0.25939,0.20608,1.45005
3293,0.12492,0.10566,1.53938,0.08588,0.49633,0.11132,0.045,0.00138,0.08056,0.08639,0.40291,0.52836,0.12476,0.04381,0.49563,0.03977,0.20068,0.92103,0.15696,0.05263,0.93408,-0.02618,0.21233,1.48094,0.21051,-0.03677,1.46969,-0.06791,0.34799,1.21807,0.3455,0.07682,1.23354,0.06722,0.46188,1.4118,0.25852,0.20515,1.45055
3294,0.12513,0.10479,1.5391,0.08616,0.49623,0.11152,0.04487,0.00136,0.08055,0.08609,0.40188,0.52835,0.12501,0.04391,0.49554,0.03944,0.20018,0.92129,0.1569,0.05232,0.93402,-0.02553,0.21111,1.481,0.21025,-0.03772,1.46951,-0.06798,0.34676,1.21824,0.34513,0.07602,1.23337,0.06775,0.4603,1.41177,0.25817,0.20393,1.45064
3295,0.12539,0.10357,1.539,0.08637,0.49616,0.11167,0.04474,0.00144,0.08052,0.08581,0.40096,0.52831,0.12533,0.04415,0.49541,0.03912,0.19978,0.9215,0.15669,0.05198,0.93394,-0.02471,0.20995,1.48086,0.21032,-0.03871,1.46906,-0.06787,0.34579,1.21831,0.34493,0.07463,1.23258,0.06834,0.45878,1.41182,0.25874,0.20265,1.45009
3296,0.12574,0.10186,1.53912,0.0863,0.49618,0.11167,0.04474,0.00161,0.08052,0.08544,0.40007,0.5281,0.1255,0.04445,0.49536,0.039,0.19933,0.92155,0.15661,0.05155,0.93392,-0.02412,0.20891,1.48052,0.2108,-0.03999,1.46834,-0.06759,0.34507,1.21819,0.34494,0.07289,1.23136,0.06883,0.45756,1.41184,0.2601,0.20155,1.44903
3297,0.12619,0.09983,1.53932,0.08588,0.49632,0.11156,0.0449,0.00182,0.08053,0.08494,0.39907,0.52773,0.12559,0.04467,0.49539,0.03914,0.19879,0.92148,0.15681,0.05107,0.93395,-0.02394,0.20797,1.47999,0.21161,-0.04153,1.46756,-0.06706,0.34458,1.21783,0.34506,0.07122,1.23013,0.06925,0.4566,1.41184,0.26155,0.20064,1.44787
3298,0.12665,0.09786,1.53941,0.08528,0.49654,0.11145,0.04509,0.00203,0.08054,0.08442,0.3979,0.52729,0.12586,0.04478,0.49539,0.03936,0.19826,0.92146,0.15717,0.05065,0.93395,-0.02388,0.20701,1.47944,0.21248,-0.04319,1.46699,-0.06621,0.34414,1.21742,0.34514,0.07007,1.22937,0.06978,0.45575,1.41188,0.2622,0.19975,1.44716
3299,0.12695,0.09615,1.53941,0.08479,0.49678,0.11141,0.04523,0.00222,0.08053,0.08392,0.39661,0.52689,0.12637,0.04486,0.49532,0.03949,0.19784,0.92156,0.15752,0.0504,0.9339,-0.02366,0.20591,1.47921,0.21307,-0.04477,1.46673,-0.06528,0.34343,1.21729,0.34505,0.06971,1.22931,0.07049,0.45492,1.41197,0.26173,0.1988,1.44731
3300,0.12704,0.09473,1.53938,0.08452,0.49705,0.11142,0.04524,0.00237,0.0805,0.08338,0.39534,0.52652,0.12691,0.04496,0.49519,0.03951,0.19753,0.92174,0.15781,0.05028,0.93379,-0.02333,0.20471,1.47942,0.21327,-0.04608,1.46661,-0.06469,0.34239,1.21754,0.34483,0.06997,1.22972,0.07122,0.45415,1.41198,0.26063,0.19784,1.4481
3301,0.12706,0.09357,1.53938,0.08435,0.49727,0.11135,0.0451,0.00246,0.08045,0.08279,0.39425,0.52612,0.12727,0.04513,0.49503,0.03955,0.19728,0.92183,0.15805,0.05018,0.93365,-0.02308,0.20361,1.47981,0.21325,-0.04701,1.46635,-0.06459,0.3413,1.21796,0.34465,0.07034,1.23001,0.07179,0.45342,1.41185,0.25974,0.19685,1.44891
3302,0.12724,0.09256,1.53935,0.08414,0.49738,0.11115,0.04493,0.00247,0.08039,0.08223,0.39347,0.5257,0.12744,0.0454,0.49488,0.03963,0.19705,0.92176,0.1583,0.05008,0.93349,-0.02299,0.20274,1.48005,0.21334,-0.04759,1.46587,-0.0647,0.34048,1.21826,0.34466,0.07037,1.22979,0.07217,0.45264,1.41178,0.2596,0.19577,1.44927
3303,0.1275,0.09158,1.53928,0.08384,0.49739,0.11088,0.04486,0.0024,0.08035,0.08179,0.39294,0.5253,0.12752,0.04574,0.49477,0.03964,0.19688,0.92158,0.15852,0.05007,0.93337,-0.023,0.20207,1.48008,0.21372,-0.04804,1.46533,-0.0646,0.33998,1.21836,0.34484,0.07001,1.22919,0.07244,0.45173,1.412,0.26005,0.19466,1.44919
3304,0.12754,0.09064,1.53915,0.08357,0.49737,0.11057,0.04494,0.00232,0.08034,0.0815,0.39249,0.52488,0.12759,0.04613,0.4947,0.03959,0.1968,0.92137,0.15869,0.05019,0.93331,-0.02307,0.20146,1.48005,0.21435,-0.04858,1.46494,-0.06417,0.3396,1.21837,0.34505,0.06963,1.22864,0.07269,0.4507,1.41251,0.26043,0.19379,1.44899
3305,0.12731,0.08989,1.53896,0.08343,0.49734,0.11022,0.04507,0.00234,0.08035,0.08124,0.392,0.52441,0.12775,0.04647,0.49468,0.03962,0.1968,0.92118,0.15888,0.05033,0.93328,-0.02312,0.20069,1.48004,0.215,-0.04913,1.46468,-0.06368,0.33905,1.21839,0.34517,0.06964,1.22838,0.07287,0.44963,1.41305,0.26026,0.19337,1.44887
3306,0.12711,0.08944,1.53865,0.0834,0.49723,0.10985,0.04513,0.00251,0.0804,0.08095,0.39139,0.52391,0.12807,0.04669,0.49467,0.03984,0.19681,0.92103,0.15925,0.05048,0.93327,-0.02301,0.19964,1.48011,0.21548,-0.04941,1.46434,-0.06353,0.33817,1.21855,0.34519,0.06992,1.22806,0.07279,0.44869,1.4134,0.25997,0.1932,1.44867
3307,0.12709,0.08921,1.53829,0.08348,0.49701,0.10947,0.04512,0.00278,0.08046,0.08062,0.39072,0.52342,0.12849,0.04678,0.49467,0.04017,0.1968,0.92092,0.15985,0.0507,0.93325,-0.02276,0.19839,1.48032,0.2158,-0.04925,1.46385,-0.06388,0.33705,1.21892,0.34518,0.06994,1.22732,0.0724,0.448,1.41355,0.26035,0.19287,1.44828
3308,0.12714,0.0889,1.53801,0.08371,0.4968,0.10911,0.04515,0.00303,0.08043,0.08033,0.39007,0.52294,0.1288,0.04683,0.49459,0.04048,0.19684,0.92085,0.16052,0.05103,0.93315,-0.02258,0.19715,1.48067,0.21611,-0.04893,1.46346,-0.06448,0.33589,1.21944,0.34518,0.06957,1.22641,0.07186,0.44752,1.41364,0.26127,0.19224,1.44787
3309,0.12719,0.08832,1.53795,0.08405,0.4968,0.10885,0.04525,0.00315,0.08024,0.08007,0.38944,0.52251,0.12891,0.04694,0.49441,0.04071,0.19692,0.92081,0.16108,0.05137,0.93293,-0.0226,0.19611,1.48109,0.21662,-0.04883,1.46344,-0.06489,0.33485,1.21992,0.34516,0.06931,1.22593,0.07134,0.44708,1.41386,0.26175,0.19168,1.44774
3310,0.1274,0.08755,1.5381,0.08428,0.49702,0.10877,0.0453,0.00309,0.08002,0.07978,0.38882,0.52221,0.12894,0.04714,0.49416,0.04083,0.19699,0.92087,0.16142,0.05159,0.93266,-0.02266,0.19535,1.48143,0.21745,-0.04909,1.46368,-0.06468,0.33402,1.22018,0.3451,0.06964,1.22598,0.07102,0.44656,1.41431,0.26138,0.19152,1.44794
3311,0.12787,0.08683,1.53825,0.08421,0.49736,0.10885,0.04523,0.00292,0.07992,0.07939,0.38827,0.52205,0.12912,0.04736,0.49397,0.0409,0.19703,0.92104,0.16156,0.05166,0.93247,-0.02253,0.1949,1.48146,0.21836,-0.04957,1.46369,-0.06377,0.33356,1.22008,0.34502,0.07047,1.22612,0.07098,0.44595,1.41495,0.26083,0.19156,1.44833
3312,0.12841,0.08635,1.53816,0.08396,0.49766,0.10893,0.04514,0.00277,0.08001,0.07895,0.38784,0.52193,0.12941,0.04751,0.49395,0.04104,0.19715,0.92125,0.16168,0.05175,0.93246,-0.02231,0.19466,1.48115,0.21905,-0.05001,1.46324,-0.06257,0.33347,1.2197,0.34508,0.07144,1.22604,0.07124,0.44518,1.4156,0.26071,0.19144,1.44878
3313,0.12876,0.08608,1.53783,0.08372,0.49787,0.10883,0.04515,0.00274,0.08018,0.07858,0.38749,0.52169,0.12962,0.04763,0.49407,0.04128,0.19739,0.92134,0.16192,0.05199,0.93258,-0.02227,0.19439,1.48075,0.21952,-0.05021,1.4626,-0.06167,0.33352,1.21934,0.34537,0.07232,1.22587,0.07163,0.44418,1.41619,0.26088,0.1911,1.44922
3314,0.12875,0.08591,1.53752,0.08358,0.49794,0.1085,0.04524,0.00282,0.08031,0.07827,0.38712,0.52124,0.1296,0.04776,0.49421,0.04148,0.19758,0.92121,0.16234,0.05239,0.93269,-0.0225,0.19388,1.48061,0.22004,-0.05017,1.46217,-0.06126,0.33341,1.21932,0.34588,0.07307,1.22581,0.07192,0.44316,1.41676,0.26099,0.1908,1.44956
3315,0.12831,0.08583,1.53742,0.08352,0.49789,0.10806,0.04532,0.00297,0.08032,0.07799,0.38678,0.52071,0.12945,0.04791,0.49427,0.04158,0.19765,0.9209,0.16291,0.05287,0.93268,-0.02282,0.19314,1.48086,0.22064,-0.05006,1.46205,-0.06133,0.33306,1.21974,0.34644,0.07367,1.22591,0.07196,0.44247,1.41729,0.26102,0.19072,1.44982
3316,0.12764,0.0859,1.53744,0.0835,0.49779,0.10768,0.04529,0.00314,0.08026,0.07782,0.38657,0.5203,0.12942,0.04801,0.49421,0.04163,0.19764,0.92061,0.16347,0.0533,0.93258,-0.02308,0.1923,1.48132,0.22104,-0.05004,1.46192,-0.06172,0.33256,1.22039,0.34696,0.0741,1.22606,0.0718,0.44221,1.41766,0.26112,0.1908,1.44999
3317,0.12722,0.08604,1.53733,0.08343,0.49768,0.10743,0.04511,0.00324,0.08022,0.07784,0.38652,0.52007,0.12962,0.04805,0.49411,0.04174,0.19768,0.92043,0.16384,0.05357,0.93246,-0.02323,0.19164,1.48177,0.22098,-0.05014,1.46148,-0.06221,0.33202,1.22096,0.34742,0.07447,1.22615,0.07158,0.44211,1.4178,0.26129,0.19089,1.45011
3318,0.12742,0.08606,1.53702,0.08326,0.49756,0.10726,0.04493,0.00319,0.08023,0.07799,0.38643,0.51991,0.12992,0.04815,0.494,0.04192,0.19781,0.92037,0.16409,0.05375,0.93236,-0.02333,0.19141,1.4821,0.22067,-0.05033,1.46076,-0.06248,0.33155,1.22119,0.34776,0.07491,1.22612,0.07134,0.44187,1.41789,0.26142,0.19085,1.45025
3319,0.12809,0.08576,1.53668,0.08303,0.49745,0.10712,0.0449,0.003,0.08024,0.07801,0.38616,0.51973,0.13018,0.04847,0.4939,0.04208,0.19799,0.92042,0.16439,0.05403,0.93225,-0.02343,0.19165,1.48236,0.22061,-0.05047,1.46014,-0.06245,0.33122,1.22113,0.34791,0.07549,1.226,0.07102,0.44151,1.41807,0.2615,0.1906,1.45053
3320,0.12872,0.08523,1.5365,0.08288,0.49742,0.10703,0.04502,0.00283,0.08022,0.07777,0.38583,0.51956,0.13035,0.04902,0.49378,0.04217,0.19823,0.92055,0.16477,0.0545,0.93212,-0.02351,0.19209,1.4826,0.22101,-0.05035,1.45992,-0.0623,0.33103,1.22099,0.3479,0.07617,1.22586,0.07062,0.44122,1.41837,0.2615,0.19031,1.45089
3321,0.12895,0.08481,1.53646,0.08293,0.49752,0.10695,0.04517,0.00282,0.08017,0.0774,0.38566,0.5194,0.13045,0.04963,0.49367,0.04225,0.19857,0.92066,0.16514,0.05507,0.93199,-0.0235,0.19232,1.48284,0.22158,-0.0499,1.45993,-0.06221,0.33088,1.22102,0.34789,0.07694,1.22573,0.07028,0.44107,1.41868,0.26137,0.19025,1.45114
3322,0.1289,0.08479,1.53644,0.08315,0.49778,0.1068,0.04526,0.00293,0.08014,0.07708,0.38571,0.51918,0.13053,0.05009,0.49361,0.04244,0.19895,0.92065,0.16549,0.05559,0.9319,-0.02339,0.19218,1.48306,0.22201,-0.04923,1.45987,-0.06223,0.33068,1.22123,0.34804,0.07783,1.22564,0.07012,0.44086,1.41899,0.26116,0.19055,1.4512
3323,0.12882,0.0851,1.53634,0.08337,0.49811,0.10657,0.04526,0.00297,0.08017,0.07685,0.38579,0.51888,0.13063,0.05037,0.49359,0.04266,0.19923,0.92048,0.16581,0.05595,0.93186,-0.0233,0.19177,1.48313,0.22243,-0.04853,1.45964,-0.06226,0.33047,1.22142,0.34834,0.07888,1.22553,0.07004,0.44052,1.41929,0.26109,0.19108,1.45121
3324,0.12883,0.0855,1.53619,0.08344,0.49841,0.10636,0.0452,0.00292,0.08024,0.07669,0.38573,0.51857,0.13076,0.05058,0.49359,0.0428,0.1993,0.92025,0.1661,0.05617,0.93185,-0.02322,0.19125,1.48297,0.22306,-0.04787,1.45936,-0.06235,0.33031,1.22148,0.34863,0.08014,1.22539,0.06976,0.44019,1.41956,0.26122,0.19167,1.45134
3325,0.12877,0.0858,1.53608,0.08334,0.49858,0.10623,0.04508,0.00288,0.08032,0.07662,0.38562,0.51836,0.1309,0.05081,0.49358,0.04285,0.19926,0.92008,0.16636,0.05632,0.93184,-0.02306,0.19073,1.4827,0.2238,-0.04729,1.45906,-0.06267,0.3302,1.22149,0.34878,0.08154,1.22523,0.06912,0.44005,1.41981,0.26137,0.19222,1.45159
3326,0.12849,0.08593,1.53611,0.08312,0.49855,0.10609,0.04491,0.00299,0.08035,0.07665,0.38564,0.51824,0.13099,0.05101,0.49355,0.04291,0.19928,0.91997,0.1666,0.05652,0.93179,-0.02298,0.19028,1.48252,0.22431,-0.04681,1.45875,-0.06304,0.33017,1.22162,0.34887,0.08282,1.22514,0.06836,0.44014,1.42013,0.26143,0.19274,1.45187
3327,0.12799,0.08582,1.53631,0.08282,0.49838,0.10587,0.04477,0.00318,0.08033,0.07676,0.38592,0.51815,0.13101,0.05111,0.49351,0.04307,0.19956,0.91988,0.16681,0.05684,0.93173,-0.02321,0.19002,1.48251,0.22446,-0.04637,1.45849,-0.06306,0.3304,1.22184,0.34902,0.08381,1.22519,0.06784,0.44045,1.42063,0.26137,0.19324,1.45207
3328,0.12752,0.08541,1.5366,0.08255,0.4982,0.10553,0.04476,0.00325,0.08028,0.07686,0.38645,0.518,0.13098,0.05117,0.49346,0.04335,0.20009,0.91975,0.16702,0.05732,0.93166,-0.02362,0.19007,1.4826,0.22445,-0.04587,1.45832,-0.06271,0.33092,1.22206,0.34925,0.08459,1.2253,0.06767,0.44082,1.42127,0.26117,0.19374,1.45215
3329,0.1274,0.08498,1.5368,0.0824,0.49812,0.10513,0.04489,0.00313,0.08022,0.07686,0.38712,0.51781,0.13088,0.05137,0.49341,0.04362,0.20066,0.91953,0.16731,0.05791,0.93157,-0.02378,0.19042,1.4827,0.22455,-0.04527,1.45815,-0.06249,0.33152,1.22224,0.34954,0.08537,1.22533,0.06758,0.44108,1.42185,0.26092,0.19421,1.45211
3330,0.12769,0.08503,1.53671,0.08242,0.49818,0.10478,0.04503,0.00295,0.08013,0.07675,0.38779,0.51762,0.1307,0.05171,0.49333,0.04379,0.20109,0.91926,0.16771,0.05855,0.93143,-0.02351,0.19088,1.48283,0.22484,-0.04468,1.45796,-0.06285,0.3319,1.22242,0.34989,0.08617,1.22529,0.06721,0.44118,1.42219,0.26076,0.1947,1.45203
3331,0.12823,0.08579,1.53636,0.08256,0.49832,0.10455,0.04508,0.00288,0.08003,0.07667,0.38833,0.51749,0.13054,0.05201,0.49323,0.04386,0.20141,0.91903,0.16815,0.0592,0.93128,-0.02307,0.19125,1.48304,0.22526,-0.0442,1.45792,-0.06374,0.3319,1.22264,0.35023,0.08679,1.22529,0.06641,0.44123,1.42232,0.26093,0.19523,1.45201
3332,0.12874,0.08693,1.53603,0.08268,0.4985,0.10443,0.04504,0.00296,0.07998,0.07673,0.3887,0.51743,0.13052,0.05214,0.49317,0.04393,0.20172,0.91895,0.16852,0.05977,0.93118,-0.02276,0.19145,1.48329,0.22566,-0.04394,1.45826,-0.06465,0.33169,1.22286,0.35044,0.08686,1.22542,0.06543,0.44128,1.42244,0.26159,0.19575,1.45208
3333,0.12903,0.08787,1.53592,0.08265,0.49865,0.10439,0.045,0.00309,0.08001,0.07688,0.3889,0.5174,0.13072,0.05218,0.49316,0.04404,0.20211,0.919,0.16878,0.06029,0.93115,-0.02262,0.19157,1.48338,0.22583,-0.04402,1.4589,-0.0651,0.33166,1.22296,0.35044,0.08623,1.22566,0.06468,0.44126,1.42274,0.26254,0.19615,1.45221
3334,0.12911,0.08831,1.53601,0.08247,0.49876,0.10438,0.04503,0.00318,0.08006,0.07703,0.38895,0.51738,0.13098,0.0523,0.49316,0.04417,0.20261,0.91919,0.16896,0.06082,0.93115,-0.02257,0.19178,1.48329,0.22576,-0.04432,1.45944,-0.06501,0.33195,1.22291,0.35038,0.08556,1.226,0.06426,0.44123,1.42319,0.2632,0.19641,1.45237
3335,0.1291,0.08836,1.53613,0.0823,0.49888,0.10443,0.04514,0.0032,0.08009,0.07709,0.38895,0.5174,0.13107,0.05256,0.49316,0.04437,0.2032,0.9195,0.16914,0.06136,0.93114,-0.02257,0.19221,1.48331,0.22569,-0.04447,1.45943,-0.06482,0.33226,1.22284,0.35049,0.08583,1.22632,0.0639,0.44138,1.42355,0.26309,0.1967,1.45259
3336,0.12915,0.08844,1.53614,0.08232,0.49908,0.10454,0.04531,0.00328,0.08007,0.07705,0.38906,0.51749,0.13091,0.05286,0.49319,0.04471,0.20378,0.91983,0.16941,0.06185,0.93113,-0.02249,0.19275,1.48365,0.22582,-0.04415,1.45884,-0.06493,0.33228,1.22292,0.35087,0.0872,1.22645,0.06349,0.4417,1.42368,0.26242,0.19723,1.45273
3337,0.12931,0.08886,1.53602,0.08254,0.49928,0.10462,0.04549,0.00351,0.08006,0.07693,0.38944,0.51761,0.13068,0.05307,0.49326,0.04512,0.20423,0.92002,0.16978,0.06225,0.93115,-0.02225,0.1932,1.48423,0.22608,-0.04336,1.45816,-0.06533,0.33202,1.22324,0.35132,0.08881,1.22634,0.06316,0.44197,1.42365,0.26186,0.19796,1.45265
3338,0.12957,0.08968,1.5358,0.08278,0.49933,0.10458,0.04558,0.00387,0.0801,0.07673,0.39004,0.51771,0.13066,0.05313,0.49336,0.04539,0.20452,0.92002,0.17018,0.06265,0.9312,-0.02202,0.19346,1.48475,0.22636,-0.04229,1.45788,-0.06583,0.33179,1.22361,0.35164,0.08985,1.22607,0.06295,0.44212,1.42364,0.2619,0.19862,1.45245
3339,0.13004,0.0907,1.53557,0.08285,0.49919,0.10446,0.04553,0.00422,0.08017,0.07657,0.39065,0.51778,0.13092,0.05312,0.49341,0.04545,0.20474,0.91993,0.17053,0.06314,0.93123,-0.02197,0.19364,1.48492,0.22673,-0.04113,1.45799,-0.06618,0.33187,1.2238,0.35178,0.09053,1.22577,0.06262,0.44234,1.42373,0.26234,0.19899,1.45242
3340,0.13071,0.09159,1.53543,0.08279,0.49905,0.10436,0.04538,0.00447,0.0802,0.07655,0.3911,0.51784,0.13129,0.05323,0.49335,0.04546,0.20505,0.91993,0.17077,0.06366,0.93117,-0.0221,0.19396,1.48467,0.22734,-0.03997,1.45825,-0.06621,0.33239,1.22364,0.35186,0.09159,1.2257,0.06205,0.44269,1.42402,0.2626,0.19929,1.45278
3341,0.13143,0.09215,1.53547,0.08276,0.49904,0.10437,0.04528,0.00461,0.08019,0.07668,0.39138,0.51793,0.13157,0.05359,0.49324,0.04561,0.20552,0.9201,0.17088,0.06407,0.93107,-0.0223,0.19451,1.48421,0.22814,-0.03895,1.45859,-0.06588,0.33321,1.22323,0.35199,0.09319,1.22601,0.06142,0.443,1.42449,0.26242,0.19992,1.45342
3342,0.13204,0.09248,1.53559,0.08287,0.49913,0.10446,0.04528,0.00458,0.08026,0.07687,0.39161,0.51805,0.13163,0.05413,0.49322,0.04589,0.20603,0.92036,0.17092,0.06434,0.93107,-0.0225,0.19512,1.48392,0.22898,-0.03822,1.45904,-0.06548,0.33391,1.22289,0.35214,0.09472,1.22655,0.06096,0.44323,1.42494,0.26196,0.20088,1.45399
3343,0.1325,0.0928,1.53568,0.08311,0.49926,0.10452,0.04539,0.0044,0.08046,0.07704,0.39194,0.51817,0.13155,0.0547,0.49337,0.04615,0.20646,0.92053,0.17101,0.06462,0.93121,-0.02252,0.19555,1.48402,0.22979,-0.03783,1.45952,-0.06539,0.33418,1.22289,0.35222,0.09572,1.227,0.06076,0.44356,1.4251,0.26161,0.20175,1.45433
3344,0.13277,0.09324,1.53578,0.08333,0.49938,0.10455,0.0455,0.00414,0.08074,0.07716,0.39246,0.5183,0.13149,0.05523,0.49359,0.04629,0.20681,0.92059,0.17123,0.06505,0.9314,-0.0223,0.19585,1.48445,0.23042,-0.03757,1.45994,-0.06568,0.33416,1.22323,0.35223,0.09629,1.22726,0.06069,0.44413,1.42498,0.2616,0.2023,1.45459
3345,0.13277,0.09392,1.53591,0.08332,0.4995,0.10459,0.04556,0.00399,0.08098,0.07724,0.39316,0.51849,0.13151,0.05569,0.49377,0.04637,0.20716,0.92061,0.17154,0.06562,0.93155,-0.02203,0.19629,1.48497,0.23067,-0.03719,1.46024,-0.06612,0.33421,1.22366,0.35227,0.09674,1.22749,0.06058,0.44486,1.42483,0.26186,0.20285,1.45486
3346,0.13257,0.09486,1.53599,0.08309,0.49961,0.10465,0.04556,0.00402,0.08112,0.07727,0.39388,0.51871,0.13158,0.05604,0.49384,0.04646,0.20749,0.92066,0.17191,0.06619,0.93159,-0.02194,0.19697,1.48542,0.23059,-0.03658,1.46045,-0.06653,0.33454,1.22402,0.3524,0.09723,1.22774,0.06034,0.4456,1.42486,0.26215,0.20378,1.45498
3347,0.13235,0.09583,1.53598,0.08279,0.49966,0.10471,0.04555,0.00416,0.08108,0.07726,0.39453,0.51893,0.13162,0.05628,0.49379,0.04656,0.20778,0.92072,0.17229,0.06672,0.9315,-0.02206,0.19769,1.48563,0.23056,-0.03578,1.46067,-0.06686,0.33513,1.2242,0.3526,0.09771,1.22791,0.06,0.44631,1.42498,0.26236,0.2049,1.45484
3348,0.13229,0.0966,1.53595,0.08259,0.49964,0.10475,0.04554,0.00421,0.08094,0.07725,0.39511,0.51912,0.13161,0.05653,0.49362,0.04663,0.20803,0.92077,0.1726,0.06717,0.9313,-0.02223,0.19826,1.48545,0.23092,-0.035,1.46104,-0.06696,0.3359,1.2241,0.35285,0.09803,1.22795,0.05961,0.44706,1.42507,0.26263,0.20577,1.45463
3349,0.13243,0.09719,1.53595,0.08249,0.4996,0.1048,0.0455,0.00415,0.08081,0.07727,0.39573,0.51934,0.13161,0.05698,0.49342,0.04667,0.20828,0.92081,0.17281,0.06756,0.93107,-0.02224,0.19867,1.48496,0.23163,-0.03444,1.46158,-0.06677,0.33678,1.22384,0.35311,0.09823,1.22805,0.05923,0.44795,1.42516,0.26311,0.20637,1.45463
3350,0.13263,0.09777,1.53603,0.08241,0.49963,0.10489,0.04539,0.00414,0.08076,0.07738,0.39643,0.5196,0.13165,0.05755,0.49327,0.04675,0.20857,0.92088,0.17299,0.06792,0.93092,-0.02194,0.19897,1.48446,0.23229,-0.0341,1.46208,-0.06645,0.33773,1.22367,0.35328,0.09864,1.22834,0.05896,0.44896,1.42532,0.2637,0.20707,1.45494
3351,0.13273,0.09841,1.53622,0.08233,0.49975,0.10505,0.04524,0.00435,0.08076,0.07754,0.39715,0.51991,0.13166,0.05796,0.4932,0.04691,0.20892,0.92102,0.17322,0.0683,0.93083,-0.02143,0.19923,1.48411,0.23265,-0.03373,1.46236,-0.06612,0.33869,1.22373,0.35331,0.09955,1.22876,0.05888,0.45,1.42559,0.26417,0.20811,1.45547
3352,0.13276,0.09914,1.53645,0.0823,0.49993,0.10523,0.04507,0.00471,0.08074,0.07769,0.39776,0.5202,0.13159,0.05803,0.4932,0.0471,0.20932,0.92121,0.17349,0.06876,0.93079,-0.02098,0.1995,1.48392,0.23276,-0.03309,1.46244,-0.06577,0.33964,1.22392,0.35328,0.10082,1.22913,0.05901,0.45103,1.42587,0.26453,0.20929,1.45604
3353,0.13291,0.09996,1.53654,0.08232,0.50012,0.10534,0.04495,0.00503,0.08074,0.0778,0.39826,0.52038,0.13154,0.05785,0.49325,0.04726,0.20973,0.92135,0.17376,0.06926,0.93079,-0.02071,0.19983,1.48381,0.23282,-0.03228,1.46255,-0.06553,0.34055,1.22413,0.3533,0.10194,1.22939,0.05921,0.45204,1.42606,0.26493,0.21033,1.45649
3354,0.13328,0.10077,1.53648,0.08235,0.50031,0.10529,0.04486,0.00519,0.08074,0.0779,0.39881,0.52043,0.13162,0.05772,0.49325,0.04733,0.21006,0.92129,0.17398,0.06973,0.93076,-0.02047,0.20017,1.48371,0.23296,-0.03157,1.46287,-0.06559,0.34134,1.22432,0.35343,0.10256,1.22966,0.05929,0.45299,1.42607,0.26545,0.21116,1.4568
3355,0.13373,0.10143,1.53642,0.08233,0.50052,0.10514,0.04484,0.0052,0.08068,0.078,0.39952,0.5204,0.13176,0.05778,0.49315,0.04734,0.21026,0.92101,0.17418,0.07013,0.93065,-0.02013,0.20045,1.48358,0.23327,-0.0311,1.46338,-0.06599,0.34184,1.22445,0.35367,0.10283,1.23001,0.05907,0.45379,1.42592,0.26599,0.21183,1.45708
3356,0.1341,0.10196,1.53648,0.08227,0.50069,0.10498,0.04492,0.0051,0.08059,0.07808,0.40036,0.5204,0.1318,0.05797,0.49303,0.0473,0.21037,0.92066,0.17439,0.07047,0.9305,-0.01973,0.20076,1.4835,0.2337,-0.03089,1.46382,-0.06645,0.34209,1.22448,0.35393,0.10316,1.23044,0.05867,0.45438,1.42573,0.26646,0.21256,1.4574
3357,0.1344,0.10238,1.53665,0.08226,0.5007,0.10488,0.04507,0.0049,0.08053,0.07809,0.40118,0.5205,0.13172,0.05816,0.49297,0.04732,0.21043,0.9204,0.1746,0.07071,0.93041,-0.01939,0.2013,1.48353,0.23415,-0.03076,1.46411,-0.06668,0.34231,1.22444,0.35414,0.10378,1.23088,0.05834,0.45487,1.4256,0.26678,0.21356,1.45771
3358,0.13467,0.10281,1.53682,0.08232,0.50055,0.10486,0.04513,0.00469,0.08056,0.07803,0.40183,0.52066,0.13166,0.05826,0.49298,0.04746,0.2105,0.9203,0.17483,0.07087,0.9304,-0.01918,0.2021,1.48361,0.23451,-0.03029,1.46438,-0.06667,0.34278,1.22438,0.35433,0.10463,1.23128,0.05826,0.45546,1.42553,0.26701,0.21473,1.45796
3359,0.13477,0.10334,1.53688,0.08237,0.50047,0.10488,0.04506,0.00462,0.08061,0.07798,0.40217,0.52079,0.1317,0.05831,0.493,0.04769,0.21072,0.92039,0.17515,0.07115,0.93038,-0.01909,0.203,1.48364,0.23463,-0.02916,1.46477,-0.06662,0.34358,1.22437,0.3546,0.10544,1.23156,0.05831,0.45631,1.42549,0.26731,0.21581,1.45813
3360,0.13462,0.10402,1.53683,0.08231,0.50062,0.10493,0.04495,0.00471,0.08062,0.07806,0.40224,0.52082,0.13177,0.05842,0.49296,0.04796,0.21114,0.92061,0.17552,0.07166,0.9303,-0.01909,0.20384,1.48359,0.23449,-0.02761,1.46536,-0.06652,0.34461,1.2244,0.35499,0.1059,1.2318,0.0583,0.45734,1.42559,0.26787,0.21665,1.45824
3361,0.13442,0.10474,1.5367,0.08217,0.50086,0.10496,0.04491,0.00483,0.08058,0.07825,0.40229,0.5208,0.13178,0.05869,0.4929,0.04821,0.21165,0.92082,0.17583,0.0722,0.9302,-0.01915,0.20456,1.4835,0.23424,-0.02628,1.46614,-0.06619,0.34576,1.22447,0.35547,0.10583,1.23216,0.05823,0.45834,1.42599,0.26873,0.21738,1.45836
3362,0.13443,0.10549,1.53658,0.08202,0.50098,0.10495,0.04494,0.00485,0.08062,0.07844,0.40255,0.52083,0.1317,0.05916,0.4929,0.0484,0.21205,0.92091,0.176,0.07258,0.93018,-0.01917,0.20515,1.48341,0.23407,-0.02556,1.46699,-0.0656,0.34689,1.22457,0.35597,0.10541,1.23273,0.05828,0.4591,1.42663,0.26966,0.21817,1.45849
3363,0.13463,0.10634,1.5366,0.08195,0.50099,0.10497,0.04499,0.00476,0.08077,0.07856,0.40303,0.52096,0.13153,0.05972,0.49301,0.04849,0.21231,0.92093,0.17612,0.07286,0.93026,-0.0191,0.2056,1.48342,0.23414,-0.02524,1.46777,-0.06514,0.34776,1.22474,0.35645,0.10509,1.23336,0.05859,0.45946,1.42717,0.2703,0.21904,1.45859
3364,0.13487,0.10727,1.53676,0.08189,0.50104,0.10505,0.04501,0.00467,0.0809,0.07866,0.40357,0.52116,0.13129,0.06015,0.49312,0.04853,0.21253,0.92098,0.17627,0.07319,0.93034,-0.01905,0.20601,1.48358,0.23451,-0.02488,1.46832,-0.06518,0.34816,1.22491,0.3568,0.10524,1.23378,0.05895,0.45944,1.42732,0.27054,0.21995,1.45857
3365,0.13492,0.1082,1.53694,0.08178,0.5012,0.10517,0.04504,0.00465,0.08087,0.07875,0.40406,0.52136,0.13113,0.06027,0.49311,0.04859,0.21283,0.92108,0.17647,0.07361,0.93029,-0.0191,0.20654,1.48376,0.23513,-0.02422,1.46849,-0.06564,0.34828,1.22493,0.35706,0.10601,1.23384,0.05905,0.45929,1.42717,0.27053,0.22083,1.45847
3366,0.13467,0.10905,1.53707,0.08169,0.50137,0.10525,0.04504,0.00475,0.08071,0.07883,0.40449,0.5215,0.13113,0.06016,0.49298,0.04868,0.21319,0.92119,0.17671,0.07409,0.93011,-0.01921,0.20724,1.48374,0.23589,-0.02335,1.46824,-0.06593,0.34858,1.22474,0.35739,0.10746,1.23367,0.05885,0.45932,1.42705,0.2704,0.22163,1.45846
3367,0.13421,0.10982,1.5372,0.08168,0.50144,0.10526,0.04498,0.00495,0.08056,0.07892,0.40487,0.52158,0.13122,0.06012,0.49284,0.04871,0.21357,0.92126,0.17694,0.07463,0.92993,-0.01925,0.20797,1.48347,0.23671,-0.02237,1.46777,-0.06562,0.34936,1.22443,0.35792,0.10927,1.23353,0.05865,0.4598,1.42722,0.2702,0.22238,1.45857
3368,0.13388,0.11051,1.53733,0.08171,0.50142,0.10523,0.04489,0.00513,0.08052,0.07897,0.40515,0.52162,0.13124,0.06032,0.49276,0.04865,0.2139,0.92132,0.17713,0.07518,0.92983,-0.01914,0.20857,1.48311,0.23734,-0.02128,1.46751,-0.06474,0.3505,1.22422,0.35861,0.11071,1.2335,0.05876,0.46066,1.42763,0.27023,0.22305,1.45866
3369,0.13395,0.1112,1.5374,0.08172,0.50144,0.10513,0.04487,0.00521,0.08051,0.07899,0.40536,0.52157,0.13115,0.06062,0.49274,0.04862,0.21425,0.92133,0.17727,0.07569,0.92978,-0.0189,0.20907,1.48285,0.23744,-0.02013,1.46774,-0.06379,0.35171,1.22422,0.35916,0.1111,1.23352,0.05918,0.46154,1.42814,0.27085,0.22362,1.45862
3370,0.13434,0.11192,1.53732,0.08168,0.50156,0.10494,0.04503,0.00523,0.08051,0.07904,0.40561,0.52141,0.13104,0.06084,0.49277,0.04879,0.21466,0.92126,0.17745,0.07612,0.92977,-0.01864,0.20956,1.48284,0.237,-0.01919,1.46841,-0.06328,0.35268,1.22444,0.35932,0.1105,1.23364,0.05971,0.46203,1.42859,0.27189,0.2242,1.4585
3371,0.13481,0.11266,1.53723,0.08161,0.5017,0.10471,0.0453,0.00531,0.08055,0.0791,0.40598,0.52123,0.13105,0.06105,0.49285,0.04923,0.21505,0.92112,0.1778,0.07644,0.92981,-0.01852,0.20999,1.48311,0.23646,-0.01863,1.46913,-0.06336,0.35322,1.2248,0.35922,0.10993,1.23398,0.06013,0.46203,1.42895,0.27267,0.22485,1.45855
3372,0.13515,0.11329,1.53728,0.08153,0.50166,0.10452,0.04545,0.00545,0.08067,0.07914,0.40641,0.52115,0.13123,0.06138,0.49294,0.04979,0.21529,0.92098,0.1783,0.07663,0.92987,-0.01867,0.21027,1.48348,0.2363,-0.01828,1.46945,-0.06364,0.35344,1.22516,0.3592,0.1104,1.23443,0.06035,0.46182,1.42923,0.27289,0.22544,1.45904
3373,0.13525,0.11373,1.53752,0.08147,0.50145,0.10437,0.04539,0.00553,0.08079,0.07917,0.40677,0.52113,0.13151,0.06175,0.49294,0.0503,0.21542,0.92088,0.17878,0.07674,0.92986,-0.01908,0.21044,1.48367,0.23663,-0.01781,1.46924,-0.06364,0.3537,1.22533,0.35944,0.11194,1.23477,0.06046,0.46171,1.42953,0.27297,0.22579,1.45992
3374,0.13509,0.1141,1.53778,0.08141,0.50128,0.10421,0.04518,0.00544,0.08083,0.07927,0.407,0.52106,0.13175,0.06198,0.49285,0.05063,0.21565,0.92083,0.17907,0.07692,0.92976,-0.01959,0.21062,1.48355,0.23719,-0.01715,1.46886,-0.06319,0.35423,1.22524,0.35983,0.11381,1.23498,0.0605,0.46187,1.42989,0.27317,0.22604,1.46087
3375,0.13476,0.11468,1.53784,0.08133,0.50136,0.10407,0.04499,0.00522,0.08081,0.07943,0.40713,0.52093,0.13182,0.06205,0.49274,0.05078,0.21606,0.92084,0.17916,0.07728,0.92964,-0.01997,0.21093,1.48325,0.23772,-0.01651,1.46873,-0.06252,0.355,1.22502,0.3602,0.11541,1.2353,0.06048,0.46228,1.43027,0.27319,0.22663,1.46155
3376,0.13439,0.1156,1.53771,0.08122,0.50162,0.10398,0.0449,0.00503,0.08084,0.07958,0.40723,0.5208,0.13175,0.06216,0.49272,0.0508,0.21656,0.92089,0.17916,0.07776,0.9296,-0.02005,0.2114,1.48299,0.23813,-0.01602,1.46894,-0.06192,0.35578,1.22483,0.36043,0.11659,1.23581,0.06038,0.46296,1.43055,0.27285,0.22763,1.46193
