PaulMeinheit/Bachelor_Muay_Thai/processed_Data/E1/teep/sliced/JointPositions/sliced1.csv
Unnamed: 0_level_0,Neck_Joint_Position,Neck_Joint_Position,Neck_Joint_Position,L_ANKLE_POSITION,L_ANKLE_POSITION,L_ANKLE_POSITION,R_ANKLE_POSITION,R_ANKLE_POSITION,R_ANKLE_POSITION,L_KNEE_POSITION,L_KNEE_POSITION,L_KNEE_POSITION,R_KNEE_POSITION,R_KNEE_POSITION,R_KNEE_POSITION,L_HIP_POSITION,L_HIP_POSITION,L_HIP_POSITION,R_HIP_POSITION,R_HIP_POSITION,R_HIP_POSITION,L_SHOULDER_POSITION,L_SHOULDER_POSITION,L_SHOULDER_POSITION,R_SHOULDER_POSITION,R_SHOULDER_POSITION,R_SHOULDER_POSITION,L_ELBOW_POSITION,L_ELBOW_POSITION,L_ELBOW_POSITION,R_ELBOW_POSITION,R_ELBOW_POSITION,R_ELBOW_POSITION,L_WRIST_POSITION,L_WRIST_POSITION,L_WRIST_POSITION,R_WRIST_POSITION,R_WRIST_POSITION,R_WRIST_POSITION
ITEM,X,Y,Z,X,Y,Z,X,Y,Z,X,Y,Z,X,Y,Z,X,Y,Z,X,Y,Z,X,Y,Z,X,Y,Z,X,Y,Z,X,Y,Z,X,Y,Z,X,Y,Z
1008,0.19272,0.09266,1.53846,0.09916,0.48003,0.11071,0.09714,-0.0097,0.0801,0.11978,0.39748,0.52954,0.17675,0.03518,0.49495,0.09739,0.19609,0.92475,0.22541,0.05684,0.93143,0.03495,0.18516,1.48645,0.28604,-0.04757,1.47132,-0.04446,0.33817,1.24246,0.42565,0.0814,1.246,0.09365,0.45379,1.43304,0.35211,0.23253,1.45307
1009,0.19214,0.09311,1.53811,0.09923,0.48043,0.11109,0.0972,-0.00969,0.07993,0.12002,0.39854,0.53004,0.17668,0.03547,0.49477,0.09721,0.19658,0.92494,0.22507,0.05718,0.93129,0.03534,0.18548,1.48669,0.28617,-0.04738,1.47178,-0.04395,0.33938,1.24322,0.42636,0.08203,1.24707,0.09369,0.45472,1.43431,0.35214,0.2332,1.45389
1010,0.19165,0.09336,1.53808,0.09934,0.48073,0.11156,0.09721,-0.00956,0.07979,0.12039,0.39985,0.5307,0.17663,0.03559,0.49465,0.09695,0.19688,0.92504,0.22469,0.05736,0.93119,0.03569,0.18567,1.48683,0.28592,-0.04741,1.47191,-0.0433,0.34073,1.24401,0.42715,0.0828,1.24832,0.09388,0.4556,1.43572,0.35198,0.23372,1.45498
1011,0.19146,0.09335,1.5383,0.09937,0.48096,0.11213,0.09721,-0.00932,0.07972,0.12097,0.40136,0.53148,0.17668,0.03558,0.49459,0.09664,0.19711,0.92511,0.22424,0.05745,0.93119,0.03597,0.18582,1.48684,0.28529,-0.04761,1.47173,-0.04259,0.34228,1.24478,0.4281,0.08364,1.24976,0.09426,0.45634,1.4372,0.35202,0.23405,1.45645
1012,0.19148,0.09331,1.53851,0.09922,0.48124,0.11278,0.09731,-0.00915,0.07969,0.1216,0.40297,0.53234,0.17673,0.03549,0.4946,0.09633,0.19753,0.92528,0.22369,0.05766,0.93124,0.03623,0.18615,1.48675,0.28457,-0.0477,1.47154,-0.04205,0.34385,1.2454,0.42915,0.08448,1.25127,0.09456,0.45688,1.4386,0.35237,0.23423,1.45818
1013,0.19149,0.09336,1.53856,0.09894,0.48156,0.11344,0.09752,-0.00923,0.07975,0.12202,0.40464,0.53321,0.17667,0.03536,0.49471,0.09599,0.19809,0.92552,0.2231,0.05798,0.93139,0.03643,0.18672,1.48658,0.28413,-0.04753,1.47164,-0.04178,0.34522,1.24573,0.43022,0.08532,1.25279,0.09443,0.45727,1.43978,0.35293,0.23444,1.45996
1014,0.19134,0.09348,1.53853,0.09869,0.48184,0.11408,0.09772,-0.00951,0.07991,0.12208,0.40642,0.53411,0.17653,0.03524,0.49492,0.09553,0.19847,0.92565,0.22259,0.05833,0.93162,0.0364,0.18735,1.48636,0.28409,-0.04722,1.47202,-0.04149,0.34634,1.24573,0.43133,0.08628,1.25432,0.09381,0.45777,1.44078,0.35349,0.23493,1.46163
1015,0.19114,0.09363,1.53854,0.09855,0.48208,0.11475,0.09777,-0.0098,0.08005,0.12194,0.40843,0.53509,0.1764,0.03512,0.49508,0.09491,0.19855,0.92557,0.22228,0.0587,0.93177,0.03603,0.18784,1.48622,0.2843,-0.04685,1.47237,-0.04085,0.34736,1.24562,0.43253,0.08752,1.25589,0.09305,0.45862,1.44173,0.35392,0.2357,1.46323
1016,0.19115,0.09387,1.53864,0.09851,0.48237,0.11551,0.09761,-0.01003,0.08002,0.12183,0.41068,0.53619,0.17626,0.0349,0.49505,0.0942,0.1985,0.92538,0.22219,0.05921,0.93169,0.03545,0.18815,1.48623,0.28443,-0.04633,1.47252,-0.03984,0.34843,1.24563,0.43376,0.0891,1.25746,0.09262,0.45971,1.4427,0.35412,0.23652,1.46495
1017,0.19145,0.09424,1.5388,0.09855,0.48283,0.11637,0.09737,-0.01023,0.07985,0.12178,0.41306,0.53738,0.17602,0.03455,0.4949,0.09354,0.19858,0.92527,0.22219,0.05989,0.93145,0.03494,0.18841,1.48632,0.28445,-0.04554,1.47265,-0.03876,0.34951,1.24578,0.43482,0.0909,1.25896,0.09264,0.46061,1.44366,0.35407,0.23718,1.46683
1018,0.19178,0.09475,1.53899,0.09865,0.48346,0.11733,0.09725,-0.01031,0.07973,0.12169,0.41549,0.53864,0.17574,0.03415,0.49484,0.09304,0.19895,0.92535,0.22208,0.06063,0.93131,0.0348,0.18889,1.48638,0.28456,-0.04455,1.47296,-0.03794,0.35046,1.24586,0.43559,0.09278,1.2603,0.09277,0.46103,1.4445,0.35387,0.23777,1.4687
1019,0.19182,0.09537,1.53913,0.09868,0.48427,0.11839,0.09734,-0.01019,0.07978,0.12158,0.41805,0.54,0.17556,0.03377,0.49499,0.09259,0.19961,0.92561,0.22172,0.06135,0.93141,0.03511,0.18979,1.48645,0.28486,-0.04355,1.47334,-0.03759,0.35111,1.24575,0.43612,0.09466,1.26142,0.09254,0.46103,1.44512,0.35373,0.23849,1.47036
1020,0.19153,0.09609,1.53917,0.09844,0.48527,0.11961,0.09754,-0.00998,0.07993,0.12156,0.42094,0.54149,0.17548,0.03338,0.49525,0.09204,0.20045,0.9259,0.22104,0.06208,0.93167,0.03567,0.19107,1.48668,0.28513,-0.04268,1.4736,-0.03775,0.35149,1.2456,0.43652,0.09643,1.26236,0.09198,0.46096,1.44548,0.35379,0.23938,1.47177
1021,0.19123,0.09688,1.53911,0.09785,0.48649,0.121,0.09767,-0.00998,0.08002,0.12165,0.42418,0.54315,0.17526,0.033,0.49545,0.09132,0.2014,0.92617,0.22014,0.06286,0.93185,0.03607,0.19246,1.48705,0.28519,-0.04182,1.47369,-0.03822,0.35193,1.24561,0.43689,0.09812,1.26322,0.09138,0.4611,1.44573,0.35405,0.24032,1.47311
1022,0.19125,0.0978,1.539,0.09708,0.48795,0.12253,0.09767,-0.01031,0.07997,0.12173,0.42758,0.54491,0.17473,0.03278,0.49549,0.09056,0.20244,0.92648,0.21922,0.06374,0.93185,0.03612,0.19371,1.48734,0.28522,-0.04082,1.47365,-0.03867,0.35279,1.24579,0.43741,0.10004,1.26416,0.09093,0.46158,1.44612,0.35429,0.24133,1.47454
1023,0.19159,0.09897,1.53891,0.09632,0.48957,0.12409,0.09759,-0.01085,0.07985,0.12162,0.43095,0.54668,0.17393,0.03285,0.49544,0.08991,0.20354,0.92686,0.21847,0.06472,0.93174,0.03591,0.1947,1.48741,0.28552,-0.03959,1.47357,-0.0388,0.35412,1.24606,0.43822,0.10246,1.26525,0.09057,0.46241,1.4468,0.3543,0.24263,1.47607
1024,0.19193,0.10032,1.53883,0.09561,0.49122,0.1256,0.09744,-0.01129,0.07978,0.12118,0.4343,0.5484,0.17307,0.03314,0.49542,0.08935,0.20467,0.92723,0.21788,0.06581,0.93163,0.03568,0.19549,1.48727,0.28609,-0.03812,1.4735,-0.03855,0.3557,1.2463,0.43926,0.10522,1.2664,0.09021,0.46351,1.4477,0.35418,0.24426,1.47749
1025,0.19196,0.1016,1.53872,0.09485,0.49275,0.12701,0.09718,-0.01141,0.07969,0.12054,0.4378,0.55007,0.17222,0.03341,0.4954,0.08871,0.20584,0.92747,0.2173,0.06702,0.93151,0.0355,0.19624,1.48704,0.28675,-0.03641,1.47345,-0.03802,0.35733,1.24643,0.4404,0.10787,1.26736,0.08983,0.46475,1.44861,0.3542,0.24602,1.47859
1026,0.19152,0.1027,1.5386,0.09404,0.49408,0.12834,0.09692,-0.01126,0.07948,0.11994,0.4416,0.5517,0.17136,0.03354,0.49529,0.08798,0.20711,0.92752,0.21663,0.06834,0.93129,0.03532,0.19711,1.48685,0.28734,-0.03447,1.47343,-0.03749,0.35885,1.24646,0.44151,0.11024,1.26804,0.08949,0.46604,1.44932,0.35448,0.24776,1.47933
1027,0.19074,0.10378,1.53852,0.09334,0.49528,0.1296,0.09679,-0.01106,0.07914,0.11944,0.44567,0.55329,0.17049,0.03354,0.49511,0.08728,0.20853,0.92743,0.21597,0.06979,0.93097,0.03512,0.19802,1.48683,0.28777,-0.03235,1.47349,-0.0372,0.36008,1.24652,0.44254,0.11247,1.26864,0.08917,0.4673,1.44974,0.35481,0.24957,1.47991
1028,0.19002,0.10504,1.53851,0.09285,0.49652,0.13085,0.09687,-0.01098,0.07884,0.11888,0.44979,0.55487,0.16972,0.03357,0.49496,0.08665,0.21007,0.92736,0.21543,0.0714,0.93066,0.03494,0.1988,1.48697,0.28791,-0.03008,1.47358,-0.03727,0.36087,1.24663,0.44344,0.11483,1.26937,0.08874,0.46837,1.44993,0.35499,0.25152,1.48061
1029,0.18974,0.10653,1.5385,0.09245,0.49791,0.13218,0.09705,-0.0111,0.07866,0.11805,0.45371,0.55651,0.16906,0.03369,0.4949,0.08592,0.21157,0.92743,0.21494,0.07313,0.93044,0.03466,0.19942,1.48709,0.28765,-0.02774,1.47358,-0.03757,0.36143,1.24671,0.44412,0.11743,1.27027,0.08816,0.46922,1.45003,0.35504,0.25356,1.4816
1030,0.18987,0.10825,1.53843,0.09198,0.49941,0.13366,0.09723,-0.01137,0.07857,0.11697,0.45734,0.55823,0.16845,0.03388,0.4949,0.08495,0.21295,0.92769,0.21439,0.07489,0.93028,0.03399,0.2001,1.4871,0.28706,-0.02551,1.47343,-0.03783,0.36223,1.24667,0.44445,0.12022,1.27123,0.08762,0.47007,1.45014,0.35518,0.25568,1.48292
1031,0.18994,0.11018,1.53835,0.09143,0.50098,0.13518,0.09734,-0.01166,0.07854,0.11583,0.46081,0.55997,0.16792,0.03409,0.49492,0.08379,0.21426,0.92799,0.21375,0.07669,0.93017,0.03282,0.20101,1.48714,0.28645,-0.02354,1.47311,-0.03794,0.36342,1.2466,0.44441,0.12324,1.27213,0.08738,0.4711,1.45023,0.35538,0.25798,1.48438
1032,0.18959,0.11229,1.53833,0.09096,0.5026,0.13653,0.09729,-0.01182,0.07857,0.11474,0.46427,0.56152,0.16746,0.03434,0.49497,0.0826,0.21569,0.92817,0.21313,0.07865,0.93007,0.03138,0.20208,1.48737,0.28614,-0.02164,1.47269,-0.038,0.36479,1.24662,0.44423,0.1266,1.27287,0.08746,0.47235,1.45023,0.35533,0.26048,1.48572
1033,0.18894,0.11439,1.53838,0.09063,0.50424,0.13754,0.09709,-0.01178,0.07861,0.11369,0.46778,0.56274,0.16694,0.03469,0.49504,0.08159,0.21748,0.92821,0.21263,0.08092,0.92993,0.03,0.20322,1.4877,0.28627,-0.01948,1.47222,-0.03824,0.36616,1.24678,0.44419,0.13035,1.27346,0.08754,0.47372,1.45019,0.35478,0.26319,1.48674
1034,0.18823,0.11634,1.53845,0.0904,0.50594,0.13824,0.09688,-0.01156,0.07862,0.11261,0.47132,0.56364,0.16618,0.03516,0.49511,0.08092,0.21973,0.92827,0.21231,0.08351,0.92972,0.02885,0.20448,1.48788,0.28673,-0.01695,1.47178,-0.0388,0.36764,1.24695,0.44433,0.13442,1.27394,0.08721,0.47515,1.45025,0.35388,0.26621,1.48744
1035,0.18755,0.11822,1.5384,0.0902,0.50774,0.13882,0.09674,-0.01131,0.07864,0.11152,0.47499,0.56442,0.16524,0.03578,0.49522,0.08055,0.22227,0.92832,0.21218,0.08628,0.9295,0.02797,0.20597,1.48769,0.28735,-0.01422,1.47145,-0.03966,0.36943,1.24695,0.44452,0.1386,1.27438,0.0864,0.47663,1.45038,0.35304,0.26957,1.48794
1036,0.1869,0.1202,1.53813,0.09006,0.50962,0.13949,0.09665,-0.01117,0.07874,0.11049,0.47897,0.56529,0.16437,0.03653,0.49538,0.08032,0.22479,0.92824,0.21225,0.08909,0.92932,0.02732,0.20757,1.48704,0.28795,-0.01134,1.47125,-0.04066,0.37146,1.2467,0.44472,0.1427,1.2748,0.08539,0.47806,1.45044,0.35259,0.27303,1.48848
1037,0.1863,0.12229,1.53773,0.09003,0.51145,0.14024,0.09659,-0.01122,0.07895,0.10965,0.48317,0.56624,0.16376,0.03742,0.49557,0.08005,0.22715,0.92794,0.21246,0.09191,0.92917,0.02667,0.20905,1.48606,0.28837,-0.00819,1.4711,-0.04164,0.37352,1.24622,0.44503,0.14672,1.27526,0.08443,0.4793,1.45037,0.35245,0.27632,1.48918
1038,0.18563,0.12441,1.53737,0.09008,0.51313,0.14095,0.09659,-0.01142,0.07916,0.10897,0.48725,0.56713,0.16342,0.03852,0.49568,0.07957,0.22943,0.92757,0.21259,0.0948,0.92901,0.02577,0.21041,1.4851,0.28853,-0.00487,1.47087,-0.04253,0.37549,1.24565,0.4456,0.15068,1.27586,0.0835,0.48036,1.4503,0.35227,0.27939,1.48999
1039,0.18472,0.1266,1.53715,0.09004,0.5148,0.14145,0.09666,-0.01155,0.07927,0.10826,0.49094,0.56778,0.16324,0.03989,0.49565,0.07887,0.23178,0.92726,0.21253,0.09779,0.92874,0.02473,0.21197,1.48441,0.28847,-0.00174,1.47043,-0.0434,0.37747,1.24521,0.44634,0.15453,1.27665,0.08245,0.48148,1.45042,0.35167,0.28241,1.49069
1040,0.1837,0.12909,1.53697,0.0898,0.51667,0.14168,0.09682,-0.01142,0.07923,0.10735,0.49424,0.56811,0.16309,0.04145,0.49548,0.07814,0.23431,0.92705,0.21239,0.10091,0.92836,0.02395,0.21391,1.48402,0.28829,0.00099,1.46979,-0.04436,0.37964,1.24503,0.44694,0.15835,1.27753,0.08123,0.48291,1.45076,0.35057,0.28561,1.49119
1041,0.18292,0.13196,1.53665,0.08931,0.51885,0.14163,0.09699,-0.01107,0.07909,0.1062,0.49741,0.56814,0.16291,0.043,0.49524,0.07755,0.23705,0.92682,0.21234,0.10419,0.92787,0.0235,0.21609,1.48378,0.28811,0.00357,1.46903,-0.04557,0.38189,1.24506,0.44709,0.16242,1.27829,0.07984,0.48471,1.45113,0.34917,0.28916,1.49155
1042,0.1825,0.13503,1.53606,0.08862,0.52131,0.14141,0.09697,-0.01069,0.07887,0.10498,0.50075,0.56798,0.16276,0.04438,0.49491,0.07707,0.24002,0.92644,0.21237,0.10768,0.92721,0.02316,0.21824,1.48352,0.28806,0.00632,1.46819,-0.04712,0.38403,1.24514,0.44671,0.16704,1.27874,0.07837,0.4867,1.45124,0.34769,0.29312,1.49188
1043,0.18227,0.13811,1.53519,0.08785,0.52397,0.14114,0.09658,-0.01042,0.0786,0.10389,0.5044,0.56777,0.16273,0.04566,0.49445,0.07651,0.24318,0.92592,0.21232,0.11136,0.9264,0.02284,0.22026,1.48316,0.28833,0.00945,1.46728,-0.04899,0.38609,1.24527,0.44598,0.17228,1.2788,0.07707,0.48871,1.45105,0.34603,0.29743,1.49206
1044,0.18221,0.14113,1.53418,0.08711,0.52667,0.14087,0.096,-0.01029,0.07841,0.10303,0.50826,0.56756,0.16282,0.04717,0.49396,0.07584,0.24651,0.92533,0.21218,0.11524,0.92557,0.02244,0.2222,1.48263,0.28906,0.01296,1.46643,-0.05086,0.38857,1.24558,0.44514,0.17793,1.2785,0.0762,0.49077,1.45095,0.34415,0.30189,1.49196
1045,0.18239,0.14404,1.53323,0.08647,0.52927,0.14061,0.09562,-0.01025,0.07842,0.10236,0.51222,0.56736,0.16292,0.04921,0.49361,0.07515,0.25003,0.92481,0.21203,0.11932,0.92492,0.02171,0.22416,1.48195,0.29014,0.01675,1.46566,-0.0523,0.39199,1.24614,0.44428,0.18375,1.27792,0.0758,0.49302,1.45144,0.34227,0.30633,1.49169
1046,0.18267,0.14693,1.53243,0.08592,0.53186,0.14036,0.09556,-0.01023,0.07865,0.10172,0.51621,0.56716,0.16296,0.05176,0.49346,0.07446,0.25369,0.92437,0.2119,0.12357,0.9245,0.02054,0.22629,1.48118,0.29112,0.02063,1.46481,-0.05321,0.3963,1.24687,0.44332,0.18956,1.27723,0.07559,0.49561,1.45257,0.34064,0.31078,1.49146
1047,0.18276,0.15014,1.53176,0.08533,0.53468,0.14007,0.09562,-0.01017,0.07895,0.101,0.52017,0.56692,0.16293,0.05449,0.49336,0.07373,0.25739,0.92394,0.21174,0.12787,0.92416,0.01923,0.22866,1.48035,0.29172,0.02446,1.46376,-0.05409,0.40098,1.24759,0.44218,0.19543,1.27661,0.0751,0.49845,1.45392,0.33913,0.31537,1.49138
1048,0.18265,0.15393,1.53115,0.08457,0.53779,0.13968,0.09565,-0.01005,0.0792,0.10018,0.52404,0.56656,0.16294,0.05716,0.49321,0.07306,0.2611,0.92347,0.21151,0.13207,0.92377,0.01828,0.23134,1.47946,0.29216,0.02837,1.46255,-0.05561,0.40556,1.2483,0.44076,0.20158,1.27598,0.07407,0.50131,1.45514,0.33735,0.32019,1.49131
1049,0.18246,0.15814,1.53049,0.08359,0.54093,0.13915,0.09567,-0.00988,0.07934,0.09936,0.52788,0.56604,0.16307,0.05976,0.49294,0.07254,0.26493,0.92296,0.21126,0.13617,0.92328,0.01784,0.23431,1.47861,0.29282,0.03255,1.46128,-0.05793,0.40995,1.24914,0.43904,0.20815,1.27507,0.07265,0.50406,1.45616,0.33502,0.32527,1.49092
1050,0.1822,0.16232,1.52965,0.08242,0.54388,0.1385,0.09574,-0.00956,0.07937,0.09865,0.53195,0.56541,0.16322,0.06248,0.49254,0.07212,0.26897,0.92233,0.21096,0.14034,0.92267,0.01757,0.23739,1.47789,0.2937,0.037,1.45981,-0.06065,0.41426,1.2502,0.437,0.21508,1.27367,0.07121,0.50691,1.45707,0.33212,0.33064,1.48995
1051,0.18178,0.16629,1.52858,0.08115,0.54658,0.1378,0.09579,-0.00898,0.0793,0.09805,0.53643,0.56473,0.16323,0.06559,0.49202,0.07168,0.27327,0.92153,0.21056,0.1447,0.92197,0.01698,0.24032,1.47731,0.29445,0.04161,1.45806,-0.06322,0.4186,1.25141,0.43455,0.22208,1.27179,0.06998,0.51019,1.45789,0.32879,0.33639,1.48831
1052,0.18112,0.17027,1.52735,0.0799,0.54898,0.13704,0.09576,-0.00817,0.07917,0.09749,0.54124,0.564,0.16306,0.06917,0.49141,0.07114,0.27783,0.92061,0.20999,0.14921,0.92123,0.01609,0.24303,1.47677,0.29485,0.04639,1.45627,-0.06544,0.42302,1.25271,0.43177,0.22882,1.26954,0.06893,0.5139,1.45874,0.32527,0.34248,1.48603
1053,0.18033,0.17453,1.52621,0.07872,0.55089,0.13627,0.09568,-0.00741,0.07906,0.09687,0.54605,0.56324,0.16296,0.07302,0.49071,0.07049,0.28252,0.91976,0.20928,0.15383,0.92045,0.01541,0.24576,1.47614,0.29515,0.05143,1.45489,-0.06748,0.42763,1.25411,0.42893,0.23506,1.26707,0.06788,0.51771,1.45985,0.32187,0.34873,1.48329
1054,0.17968,0.17902,1.52532,0.07759,0.55218,0.13554,0.09563,-0.00704,0.07899,0.09627,0.55068,0.56251,0.16315,0.07678,0.48992,0.06967,0.28724,0.91908,0.20854,0.15864,0.91956,0.01519,0.24875,1.47533,0.29562,0.05668,1.45404,-0.0696,0.43257,1.25563,0.42621,0.24086,1.26452,0.06674,0.52129,1.4613,0.31876,0.35497,1.4803
1055,0.17942,0.18346,1.5246,0.07647,0.55299,0.13488,0.0957,-0.00703,0.07891,0.0958,0.5553,0.56182,0.16352,0.08031,0.48906,0.06872,0.292,0.91846,0.2079,0.16374,0.91851,0.01515,0.25209,1.47434,0.29622,0.06201,1.45336,-0.07196,0.43788,1.25723,0.42354,0.24669,1.26211,0.06548,0.52463,1.46302,0.31569,0.3614,1.47738
1056,0.17951,0.18768,1.5239,0.07537,0.55362,0.13433,0.09583,-0.00696,0.07877,0.0955,0.56035,0.56119,0.16378,0.08374,0.48816,0.06778,0.29691,0.91768,0.20736,0.16909,0.91732,0.01486,0.25577,1.47336,0.29667,0.06734,1.45237,-0.07453,0.44354,1.25889,0.42069,0.25314,1.26004,0.06401,0.52799,1.4649,0.31209,0.3684,1.47464
1057,0.17964,0.19174,1.52313,0.07432,0.55418,0.13391,0.09592,-0.00658,0.07856,0.09535,0.56607,0.56061,0.16387,0.08731,0.48724,0.06693,0.302,0.91658,0.20681,0.17451,0.91608,0.01416,0.25976,1.47253,0.2969,0.0727,1.45088,-0.07713,0.44955,1.26065,0.41753,0.26039,1.25823,0.06239,0.53169,1.46693,0.30758,0.3761,1.4719
1058,0.17947,0.19577,1.52228,0.07339,0.55446,0.13365,0.09594,-0.00596,0.07842,0.09531,0.57223,0.5601,0.16403,0.09118,0.48631,0.06615,0.30719,0.91529,0.20619,0.17987,0.91493,0.01323,0.26388,1.47187,0.29707,0.07817,1.44904,-0.07957,0.45585,1.26262,0.41425,0.26809,1.25645,0.06086,0.53569,1.46919,0.30254,0.38424,1.46896
1059,0.17888,0.19986,1.52139,0.0726,0.55422,0.13353,0.09589,-0.00529,0.07842,0.09539,0.57831,0.55963,0.1645,0.09539,0.48537,0.06539,0.31239,0.91409,0.20549,0.18514,0.91388,0.01231,0.26792,1.47135,0.29725,0.08391,1.44708,-0.08187,0.46225,1.26492,0.41109,0.27592,1.25455,0.05945,0.53951,1.47186,0.29764,0.39252,1.46589
1060,0.17815,0.20418,1.52048,0.0719,0.55349,0.13344,0.09579,-0.00461,0.07857,0.09559,0.58409,0.55906,0.16529,0.09979,0.48443,0.06457,0.31768,0.91307,0.20475,0.19052,0.91287,0.01165,0.27189,1.4709,0.29721,0.09021,1.44516,-0.08419,0.46857,1.26748,0.40804,0.28387,1.25253,0.05787,0.54265,1.47508,0.29295,0.40081,1.4628
1061,0.1776,0.20891,1.51958,0.07129,0.55258,0.13316,0.0957,-0.00391,0.0788,0.09578,0.58973,0.55822,0.16625,0.1042,0.4835,0.06365,0.32321,0.91204,0.20411,0.19635,0.91179,0.0113,0.27597,1.47047,0.29701,0.09725,1.44345,-0.08668,0.47484,1.27022,0.40484,0.29198,1.2502,0.0558,0.54511,1.47885,0.28803,0.40897,1.45949
1062,0.17727,0.21411,1.51864,0.07096,0.55174,0.13264,0.09573,-0.0033,0.07911,0.09583,0.59547,0.55706,0.16724,0.10859,0.48262,0.06278,0.32903,0.91085,0.20391,0.20292,0.91053,0.01101,0.28028,1.47002,0.29751,0.10487,1.44208,-0.08946,0.48127,1.27316,0.40139,0.30018,1.24725,0.05326,0.54731,1.483,0.28268,0.41689,1.45563
1063,0.17704,0.21949,1.51766,0.07129,0.55104,0.13204,0.09586,-0.00281,0.07956,0.09574,0.60136,0.55575,0.16829,0.11315,0.48176,0.06219,0.335,0.90956,0.20462,0.21036,0.90906,0.01039,0.28477,1.46958,0.2998,0.11262,1.441,-0.09248,0.48817,1.27646,0.39792,0.30838,1.24366,0.05084,0.54965,1.48728,0.27725,0.42467,1.45113
1064,0.17687,0.22472,1.5167,0.07242,0.55036,0.13156,0.09606,-0.00237,0.08018,0.09567,0.60729,0.55449,0.1695,0.11806,0.48088,0.062,0.34096,0.90831,0.20633,0.21852,0.90738,0.00925,0.28944,1.46922,0.30397,0.12032,1.43993,-0.09547,0.49583,1.28032,0.39484,0.3167,1.23976,0.0493,0.55226,1.49156,0.27236,0.4326,1.4464
1065,0.17676,0.22978,1.51586,0.07403,0.54972,0.13121,0.09636,-0.00193,0.08097,0.09577,0.61321,0.55329,0.17084,0.12345,0.47995,0.06202,0.34704,0.90722,0.20829,0.22693,0.90567,0.00774,0.29427,1.46898,0.30853,0.12821,1.4384,-0.09824,0.50425,1.2848,0.39242,0.32532,1.2359,0.04885,0.5549,1.4959,0.26836,0.44068,1.44189
1066,0.17642,0.23498,1.5151,0.07545,0.54924,0.13081,0.09681,-0.00156,0.08194,0.09608,0.61905,0.55195,0.17217,0.1293,0.47898,0.0618,0.35362,0.90639,0.2094,0.23517,0.90414,0.00608,0.29919,1.46885,0.31144,0.13653,1.43614,-0.10111,0.51304,1.2899,0.39066,0.33392,1.23204,0.04885,0.55712,1.50045,0.26503,0.44853,1.4375
1067,0.17543,0.24051,1.51427,0.07632,0.54903,0.13009,0.09746,-0.00133,0.08318,0.09647,0.6246,0.55026,0.17351,0.13561,0.47804,0.06102,0.36079,0.90579,0.20928,0.24317,0.9029,0.00429,0.30401,1.46882,0.31177,0.14509,1.43344,-0.10462,0.52172,1.29566,0.38929,0.34176,1.228,0.04858,0.55871,1.50524,0.26184,0.45579,1.43266
1068,0.17364,0.24632,1.51327,0.07678,0.549,0.12888,0.09833,-0.0013,0.08485,0.09685,0.62962,0.54811,0.17515,0.1424,0.47715,0.05977,0.36824,0.90527,0.20839,0.2511,0.90192,0.00228,0.30844,1.46885,0.31015,0.15356,1.43095,-0.10884,0.53012,1.30224,0.38797,0.34834,1.22383,0.04788,0.55989,1.51037,0.25855,0.46277,1.42703
1069,0.17124,0.25232,1.51216,0.0771,0.54896,0.12722,0.09946,-0.00128,0.08702,0.09712,0.63403,0.54557,0.17741,0.14976,0.47633,0.05823,0.37566,0.90472,0.20731,0.25912,0.90118,2e-05,0.31237,1.46885,0.3077,0.16193,1.42929,-0.11331,0.5384,1.30975,0.38659,0.35378,1.21986,0.04713,0.56097,1.51594,0.25539,0.47016,1.4208
1070,0.1685,0.25838,1.5112,0.07731,0.54852,0.12528,0.10081,-0.00077,0.08968,0.09717,0.63785,0.54275,0.18052,0.15787,0.47559,0.05651,0.3831,0.90428,0.20626,0.26741,0.90067,-0.00251,0.31615,1.46871,0.30515,0.17033,1.42873,-0.11738,0.54706,1.31794,0.38517,0.35847,1.21638,0.0467,0.56189,1.52196,0.25268,0.47848,1.4143
1071,0.16548,0.26426,1.51066,0.07729,0.5473,0.12317,0.10234,0.00074,0.09282,0.09696,0.64109,0.53967,0.18456,0.16708,0.47494,0.05489,0.39082,0.90415,0.20549,0.27625,0.90038,-0.00546,0.32037,1.46829,0.30273,0.17873,1.42909,-0.12074,0.55668,1.32646,0.38383,0.36256,1.2134,0.04656,0.56232,1.52831,0.25064,0.48763,1.4077
1072,0.16222,0.26997,1.51055,0.07701,0.54517,0.12083,0.10416,0.00347,0.09655,0.09648,0.64372,0.53624,0.18952,0.17792,0.47435,0.0537,0.39889,0.90432,0.20546,0.28586,0.90032,-0.00887,0.32544,1.4677,0.30049,0.18677,1.42991,-0.12357,0.56745,1.33534,0.38268,0.36599,1.21078,0.04646,0.56206,1.5349,0.24947,0.49698,1.4011
1073,0.15894,0.27585,1.51072,0.07656,0.54245,0.11811,0.10658,0.00719,0.10104,0.09566,0.64561,0.53242,0.19539,0.19089,0.47362,0.05309,0.40704,0.90461,0.20644,0.29619,0.90041,-0.01245,0.33122,1.46728,0.29834,0.19424,1.4308,-0.12625,0.5789,1.34502,0.38179,0.36866,1.2083,0.04629,0.56144,1.54172,0.24906,0.50586,1.39455
1074,0.1558,0.28206,1.51112,0.07608,0.53966,0.11497,0.10993,0.01166,0.10645,0.09427,0.64654,0.52838,0.20214,0.20633,0.47258,0.0527,0.41494,0.90506,0.20794,0.30676,0.90064,-0.01583,0.33728,1.46739,0.29585,0.2014,1.43163,-0.1289,0.59027,1.35578,0.38109,0.37055,1.20577,0.04628,0.56117,1.54874,0.24909,0.51383,1.38792
1075,0.15259,0.28836,1.51189,0.07569,0.53715,0.1117,0.1144,0.01712,0.11302,0.09218,0.64633,0.52457,0.20974,0.22445,0.47132,0.05185,0.42244,0.90602,0.20896,0.31702,0.90119,-0.01902,0.34335,1.46814,0.29244,0.20885,1.43245,-0.13127,0.60119,1.36732,0.38067,0.37174,1.20315,0.04671,0.5617,1.55581,0.24942,0.52091,1.38105
1076,0.14882,0.29452,1.51321,0.07543,0.53518,0.10876,0.11993,0.02416,0.12108,0.08967,0.64529,0.52147,0.21808,0.24533,0.47022,0.05011,0.42964,0.90771,0.2089,0.32681,0.90223,-0.02237,0.34968,1.46943,0.2878,0.21682,1.43331,-0.13302,0.61203,1.37899,0.38059,0.37224,1.20065,0.04749,0.56307,1.5628,0.25016,0.52737,1.37401
1077,0.1442,0.30073,1.5151,0.07525,0.53393,0.10646,0.12624,0.03329,0.1307,0.08716,0.64413,0.51922,0.22711,0.26873,0.46959,0.04759,0.43666,0.90992,0.20798,0.33636,0.90366,-0.02607,0.35682,1.47114,0.28225,0.2248,1.43429,-0.13394,0.62346,1.39043,0.38064,0.37192,1.19857,0.04833,0.56515,1.56972,0.25153,0.53342,1.36703
1078,0.13894,0.30741,1.51739,0.07502,0.53333,0.10469,0.1328,0.04473,0.14169,0.08478,0.64321,0.5176,0.23695,0.2942,0.46936,0.0448,0.44342,0.91224,0.20674,0.34572,0.90501,-0.02979,0.36492,1.47316,0.27638,0.23207,1.43555,-0.134,0.63563,1.40174,0.38039,0.37042,1.19694,0.04906,0.56774,1.57679,0.25378,0.539,1.36028
1079,0.13357,0.31484,1.51977,0.07473,0.53301,0.10311,0.13916,0.05844,0.15395,0.08218,0.64224,0.51623,0.24775,0.3213,0.46949,0.04204,0.44981,0.91449,0.20544,0.35469,0.90589,-0.03315,0.37356,1.47545,0.27069,0.23843,1.43723,-0.13322,0.64809,1.41325,0.37961,0.36739,1.19557,0.04987,0.57054,1.58421,0.2571,0.54383,1.35366
1080,0.12861,0.32283,1.52199,0.07442,0.53251,0.10153,0.14509,0.07443,0.16767,0.07897,0.64085,0.51493,0.25915,0.3499,0.47026,0.03929,0.45587,0.91675,0.20408,0.36335,0.90631,-0.0363,0.3822,1.47812,0.26539,0.2444,1.43933,-0.13176,0.66028,1.42519,0.37835,0.36293,1.19421,0.05097,0.57329,1.59194,0.26146,0.54763,1.34703
1081,0.12434,0.33089,1.52403,0.07417,0.53169,0.10004,0.15059,0.09288,0.18297,0.07517,0.63919,0.51368,0.27004,0.38009,0.47226,0.03664,0.46159,0.91893,0.20295,0.37207,0.90676,-0.03964,0.39061,1.48137,0.2606,0.25062,1.44168,-0.12996,0.67196,1.43742,0.37667,0.35766,1.19275,0.05239,0.57614,1.59968,0.26635,0.55034,1.34052
1082,0.12067,0.33885,1.52598,0.07404,0.53072,0.09876,0.1557,0.11375,0.1996,0.07119,0.63771,0.51252,0.27923,0.41178,0.47596,0.03436,0.46674,0.92077,0.20256,0.38094,0.90784,-0.04324,0.39889,1.48515,0.25637,0.25725,1.44409,-0.12826,0.68305,1.4495,0.37459,0.3524,1.19139,0.05401,0.57964,1.60715,0.2711,0.55235,1.33435
1083,0.11727,0.34697,1.52796,0.07381,0.52976,0.0977,0.16046,0.13683,0.21712,0.0674,0.63649,0.51149,0.28628,0.44458,0.48153,0.03264,0.47111,0.92222,0.20301,0.38963,0.90979,-0.04664,0.40717,1.48905,0.25263,0.264,1.4466,-0.12698,0.69355,1.46113,0.37204,0.34749,1.19035,0.05577,0.58425,1.61417,0.27539,0.55412,1.32853
1084,0.1138,0.35541,1.53004,0.07325,0.52893,0.09686,0.16486,0.16218,0.23507,0.06385,0.63522,0.51071,0.29161,0.47814,0.48915,0.03129,0.47492,0.92362,0.20374,0.39774,0.91244,-0.04949,0.41544,1.49269,0.24917,0.27063,1.44929,-0.12618,0.70344,1.47215,0.36891,0.34246,1.18969,0.05767,0.58987,1.62069,0.27959,0.55565,1.32275
1085,0.11007,0.36375,1.53229,0.0723,0.52838,0.09629,0.16902,0.18991,0.25325,0.06042,0.63371,0.51032,0.29588,0.51228,0.49908,0.02986,0.47858,0.92535,0.20399,0.40508,0.91552,-0.05213,0.42348,1.49608,0.2457,0.27717,1.45215,-0.1255,0.71274,1.48235,0.36516,0.33652,1.18928,0.0597,0.59606,1.62675,0.28452,0.5565,1.31669
1086,0.10623,0.37145,1.5347,0.0712,0.52828,0.09601,0.17305,0.21968,0.27172,0.05704,0.63208,0.51036,0.29945,0.5468,0.51143,0.02817,0.48229,0.92747,0.20359,0.41178,0.91878,-0.05513,0.43114,1.49954,0.24204,0.28353,1.45499,-0.12429,0.72165,1.49141,0.36081,0.32931,1.18911,0.06193,0.60248,1.63242,0.29072,0.5563,1.31032
1087,0.10271,0.37857,1.5372,0.07027,0.52852,0.096,0.17674,0.25088,0.29054,0.05386,0.63049,0.51071,0.30239,0.58145,0.52589,0.0266,0.4859,0.92976,0.20318,0.41822,0.92196,-0.05836,0.4388,1.50322,0.23823,0.28936,1.45769,-0.1221,0.73063,1.49925,0.3561,0.32127,1.18939,0.06441,0.609,1.63774,0.29797,0.55503,1.30388
1088,0.09977,0.38576,1.53971,0.06971,0.52878,0.09622,0.17975,0.28322,0.30951,0.05109,0.62893,0.51129,0.30469,0.61596,0.54215,0.02563,0.48913,0.93207,0.20347,0.42476,0.92497,-0.06109,0.44694,1.50683,0.23436,0.29457,1.46031,-0.1192,0.73998,1.50595,0.35118,0.3132,1.19031,0.06689,0.61561,1.64258,0.30561,0.55303,1.29771
1089,0.09721,0.39358,1.54214,0.06939,0.52897,0.09657,0.18202,0.31664,0.32839,0.04878,0.6272,0.51201,0.30608,0.65009,0.56049,0.02508,0.49173,0.93431,0.20437,0.43141,0.92817,-0.06298,0.45549,1.51005,0.23042,0.2996,1.46306,-0.11632,0.74943,1.51152,0.34586,0.30567,1.19189,0.06888,0.62229,1.64679,0.31308,0.55072,1.29193
1090,0.09474,0.40198,1.5445,0.06911,0.52921,0.09686,0.184,0.35091,0.34727,0.0469,0.62514,0.51275,0.30627,0.68357,0.58144,0.02455,0.49359,0.93636,0.20541,0.43801,0.93199,-0.0644,0.46378,1.5129,0.22653,0.30492,1.46615,-0.11379,0.7584,1.51592,0.33975,0.29882,1.19405,0.07035,0.62892,1.65043,0.32016,0.54825,1.28641
1091,0.0924,0.41036,1.54695,0.0689,0.52966,0.09695,0.18621,0.38551,0.36646,0.04561,0.62284,0.5134,0.3054,0.71627,0.60488,0.02416,0.49483,0.93815,0.20664,0.44464,0.93627,-0.06576,0.4714,1.51554,0.22311,0.31044,1.46973,-0.11118,0.76665,1.5194,0.33278,0.29237,1.19671,0.07182,0.63538,1.65373,0.32726,0.5454,1.28083
1092,0.09029,0.41815,1.54956,0.06899,0.53034,0.09694,0.18851,0.42,0.38616,0.04505,0.62066,0.51398,0.30382,0.74817,0.62999,0.02444,0.49569,0.93967,0.20849,0.45155,0.94028,-0.06713,0.47871,1.51802,0.2206,0.3156,1.47379,-0.10796,0.77462,1.52248,0.32536,0.28612,1.19984,0.07378,0.64164,1.65683,0.33489,0.54185,1.27497
1093,0.08836,0.42525,1.55215,0.06935,0.53109,0.09709,0.19004,0.45419,0.40626,0.04508,0.61926,0.51457,0.30158,0.77906,0.6562,0.02561,0.49659,0.94099,0.21103,0.45871,0.94347,-0.06831,0.4864,1.52023,0.219,0.31999,1.47821,-0.10408,0.78294,1.5254,0.3182,0.28038,1.20346,0.07608,0.64775,1.65967,0.34293,0.53773,1.26895
1094,0.08639,0.43181,1.55447,0.06982,0.53167,0.09755,0.19034,0.48833,0.4265,0.04526,0.61904,0.51519,0.29853,0.80835,0.68405,0.02739,0.49796,0.94212,0.21384,0.46568,0.94627,-0.06921,0.49459,1.52215,0.21769,0.32387,1.48274,-0.09989,0.7917,1.52792,0.31175,0.27576,1.20755,0.07815,0.6537,1.66218,0.35076,0.53367,1.26317
1095,0.08415,0.43792,1.55642,0.07022,0.53198,0.0982,0.18998,0.52283,0.44659,0.0452,0.6197,0.51573,0.29474,0.83551,0.71436,0.02935,0.49989,0.9431,0.21649,0.47236,0.94963,-0.07001,0.50278,1.52384,0.21595,0.32793,1.48713,-0.09575,0.80035,1.52967,0.30599,0.27269,1.21193,0.07964,0.65943,1.66437,0.35784,0.53023,1.25797
1096,0.08158,0.44378,1.55804,0.07054,0.53221,0.09884,0.18984,0.55785,0.46642,0.04479,0.62055,0.5162,0.29015,0.86063,0.74698,0.03129,0.50218,0.94406,0.2189,0.47926,0.95394,-0.07094,0.51051,1.52541,0.2136,0.33258,1.49115,-0.0918,0.80848,1.53056,0.30076,0.27106,1.21636,0.08077,0.66502,1.66622,0.36419,0.52745,1.25338
1097,0.07896,0.44976,1.55927,0.07079,0.53251,0.09948,0.1902,0.59329,0.48611,0.04425,0.62124,0.51671,0.28448,0.88399,0.78116,0.03316,0.50467,0.94513,0.22108,0.48676,0.95879,-0.07201,0.51793,1.52689,0.21107,0.33776,1.49474,-0.08801,0.81622,1.53079,0.29635,0.27024,1.22077,0.08193,0.67088,1.66776,0.3706,0.52484,1.24906
1098,0.07677,0.45619,1.56003,0.07104,0.53293,0.10023,0.19075,0.62893,0.50576,0.04385,0.62192,0.51736,0.27761,0.90527,0.81647,0.03486,0.50743,0.94638,0.22289,0.49452,0.96361,-0.07299,0.52538,1.52816,0.20885,0.34313,1.49804,-0.08445,0.82389,1.53058,0.29325,0.26956,1.22536,0.08324,0.67732,1.66901,0.37838,0.52158,1.24459
1099,0.07512,0.46316,1.56031,0.07126,0.53348,0.10114,0.19099,0.6646,0.52534,0.04367,0.6229,0.51815,0.26957,0.92376,0.85262,0.03626,0.51054,0.94777,0.22422,0.50193,0.96821,-0.07365,0.53291,1.52897,0.2071,0.34848,1.50127,-0.08126,0.83155,1.52993,0.29165,0.26869,1.23039,0.08442,0.68423,1.66998,0.38857,0.51699,1.23958
1100,0.07362,0.4704,1.56018,0.07132,0.53429,0.10223,0.19054,0.70025,0.54485,0.04362,0.62454,0.51906,0.26035,0.93914,0.8891,0.03744,0.51404,0.94918,0.22518,0.50886,0.97264,-0.07408,0.54035,1.52911,0.20573,0.3538,1.5044,-0.07849,0.83905,1.52879,0.29151,0.26773,1.23583,0.08519,0.69126,1.67067,0.40129,0.51079,1.23391
1101,0.07192,0.47745,1.5598,0.07103,0.53531,0.10347,0.18943,0.7362,0.56469,0.04362,0.62721,0.51995,0.25026,0.95168,0.92569,0.03862,0.51797,0.95041,0.22601,0.51562,0.9769,-0.07463,0.54762,1.52852,0.20468,0.35917,1.50716,-0.07606,0.84635,1.52723,0.29287,0.26688,1.24146,0.08554,0.6982,1.67111,0.41583,0.50317,1.22792
1102,0.07006,0.48399,1.55926,0.07041,0.53639,0.10477,0.18798,0.77306,0.58547,0.04366,0.6311,0.52067,0.24005,0.96163,0.96254,0.03999,0.52236,0.95127,0.22693,0.52249,0.98084,-0.07544,0.55484,1.52734,0.2039,0.36475,1.5093,-0.07393,0.85357,1.52542,0.29579,0.26618,1.24713,0.08551,0.70502,1.67129,0.43104,0.49471,1.22238
1103,0.06825,0.49006,1.55849,0.06982,0.53736,0.10593,0.18633,0.81122,0.60742,0.04371,0.63587,0.52099,0.23045,0.96893,0.99938,0.04173,0.5272,0.95162,0.22811,0.52947,0.98446,-0.07634,0.56204,1.52585,0.20323,0.37073,1.5107,-0.07227,0.86074,1.52351,0.30003,0.26552,1.25292,0.08504,0.71161,1.67109,0.44609,0.48588,1.2177
1104,0.06633,0.49604,1.5573,0.06953,0.53817,0.10679,0.18438,0.85064,0.63027,0.04368,0.64086,0.52085,0.22154,0.97348,1.03522,0.04394,0.53239,0.95153,0.22964,0.53639,0.98789,-0.07712,0.56906,1.52416,0.20243,0.37719,1.51147,-0.07117,0.86773,1.52153,0.30519,0.26487,1.25905,0.08415,0.71777,1.67037,0.46111,0.47642,1.21363
1105,0.0639,0.50213,1.55567,0.06949,0.5389,0.10739,0.18207,0.89113,0.65399,0.04332,0.64566,0.52039,0.21283,0.97542,1.0692,0.04663,0.53786,0.95123,0.23155,0.54308,0.99119,-0.07783,0.57567,1.52212,0.20137,0.38388,1.51194,-0.07039,0.87431,1.51948,0.31087,0.26442,1.2657,0.08309,0.72338,1.66925,0.47695,0.46545,1.20972
1106,0.06093,0.5082,1.55378,0.06948,0.53974,0.10803,0.17972,0.93247,0.67903,0.04232,0.6504,0.51995,0.20398,0.97515,1.10098,0.0496,0.5436,0.95099,0.23371,0.54957,0.99444,-0.0788,0.58177,1.51955,0.20019,0.39044,1.51252,-0.0696,0.88036,1.51729,0.31686,0.26455,1.27287,0.08209,0.72851,1.66794,0.49406,0.45228,1.20589
1107,0.05795,0.51404,1.55181,0.06945,0.5408,0.10899,0.17796,0.97428,0.70573,0.04065,0.6554,0.51971,0.19514,0.97341,1.13018,0.05261,0.54976,0.95093,0.23587,0.55606,0.99784,-0.08039,0.58728,1.51656,0.19931,0.39683,1.51348,-0.06887,0.8858,1.51488,0.32295,0.26543,1.28037,0.08108,0.73327,1.66659,0.51197,0.43674,1.20253
1108,0.0556,0.51948,1.5499,0.06963,0.54188,0.11033,0.17695,1.01631,0.73394,0.03863,0.66085,0.51965,0.18663,0.97122,1.15622,0.05552,0.55654,0.95103,0.23781,0.56279,1.00155,-0.08256,0.59214,1.51353,0.19914,0.40338,1.51479,-0.06868,0.89055,1.51217,0.32886,0.26695,1.28796,0.07972,0.7377,1.66507,0.52987,0.41878,1.20035
1109,0.05403,0.52415,1.54821,0.07028,0.5428,0.11208,0.17616,1.05854,0.76334,0.03672,0.66672,0.51972,0.17863,0.96946,1.17868,0.05833,0.56404,0.95128,0.23959,0.56993,1.00543,-0.08501,0.5962,1.51071,0.19973,0.41018,1.5163,-0.06938,0.89453,1.50906,0.33448,0.26878,1.29553,0.07787,0.74178,1.66317,0.54699,0.39849,1.19989
1110,0.05286,0.52767,1.54696,0.07146,0.54383,0.11419,0.17498,1.10109,0.79389,0.03515,0.67288,0.52001,0.17134,0.96878,1.19754,0.06116,0.5721,0.95177,0.24143,0.5777,1.00914,-0.08759,0.59929,1.50804,0.20078,0.41677,1.5178,-0.07091,0.89755,1.50557,0.34008,0.27062,1.30304,0.0757,0.74537,1.66086,0.56274,0.37651,1.20134
1111,0.05156,0.52984,1.54628,0.07287,0.54543,0.1166,0.17332,1.14405,0.82558,0.03399,0.6792,0.52064,0.16499,0.96981,1.21291,0.06409,0.5804,0.9526,0.24351,0.58634,1.01256,-0.09042,0.60114,1.50537,0.20201,0.42251,1.51913,-0.07311,0.89936,1.50192,0.34593,0.27229,1.31029,0.07342,0.74831,1.65837,0.57686,0.35383,1.20468
1112,0.0499,0.53068,1.54612,0.07404,0.54763,0.1192,0.17154,1.18725,0.8582,0.03327,0.68546,0.52169,0.15959,0.97319,1.22492,0.06694,0.58874,0.95385,0.24562,0.59605,1.01583,-0.09354,0.60158,1.50285,0.20343,0.42719,1.52028,-0.07608,0.89978,1.49836,0.35186,0.27371,1.31704,0.071,0.75036,1.65585,0.58918,0.33118,1.20977
1113,0.04807,0.53048,1.54616,0.07472,0.55009,0.12183,0.17002,1.2307,0.89144,0.03316,0.69129,0.52307,0.15499,0.97939,1.2336,0.06924,0.5971,0.9556,0.24727,0.6068,1.0191,-0.0966,0.60064,1.5007,0.20508,0.43107,1.52125,-0.07996,0.89886,1.49499,0.35726,0.27463,1.32311,0.06819,0.75136,1.65329,0.59917,0.3089,1.21615
1114,0.04651,0.52967,1.54606,0.07497,0.55244,0.12416,0.16866,1.2748,0.92514,0.03385,0.69631,0.52449,0.15122,0.98876,1.23871,0.07056,0.60553,0.9577,0.24797,0.61837,1.02237,-0.09926,0.59861,1.49878,0.20678,0.43427,1.52195,-0.08451,0.89691,1.49183,0.36149,0.27456,1.32843,0.06494,0.75139,1.65075,0.60618,0.28704,1.22308
1115,0.04555,0.52848,1.54584,0.07511,0.55448,0.12588,0.16709,1.31956,0.95884,0.03545,0.70022,0.52568,0.14865,1.00167,1.24001,0.07078,0.61412,0.95995,0.24751,0.6307,1.02562,-0.10151,0.59584,1.49671,0.20817,0.43635,1.52239,-0.08914,0.89422,1.48887,0.36416,0.27305,1.33293,0.06135,0.75069,1.64861,0.6101,0.26527,1.23005
1116,0.04502,0.52672,1.54582,0.07547,0.55629,0.12698,0.16541,1.36325,0.9909,0.0378,0.70301,0.52662,0.14772,1.01801,1.23778,0.07011,0.62294,0.96227,0.24603,0.64377,1.02889,-0.10363,0.59254,1.49443,0.20897,0.43668,1.52276,-0.09339,0.89099,1.48603,0.36538,0.27014,1.3365,0.05758,0.74947,1.6471,0.61133,0.24353,1.23684
1117,0.04438,0.52404,1.5462,0.07618,0.5581,0.12771,0.1642,1.40261,1.01813,0.04052,0.70495,0.52749,0.14843,1.03661,1.23319,0.0689,0.63192,0.96465,0.24387,0.65733,1.0322,-0.10574,0.58877,1.49234,0.20902,0.43498,1.5231,-0.09727,0.88725,1.48319,0.36556,0.2661,1.33908,0.05376,0.74781,1.646,0.61054,0.22268,1.243
1118,0.04345,0.52035,1.54682,0.07719,0.55994,0.12836,0.16343,1.43491,1.03724,0.04331,0.70639,0.52844,0.15029,1.05546,1.22774,0.06743,0.64082,0.96704,0.24137,0.67066,1.03542,-0.10764,0.58439,1.4907,0.2086,0.43162,1.52316,-0.10115,0.88288,1.48029,0.36522,0.26108,1.34072,0.05003,0.74569,1.64488,0.60862,0.20367,1.24805
1119,0.04268,0.51577,1.54736,0.07851,0.56176,0.12911,0.16243,1.45969,1.04738,0.04603,0.70761,0.52952,0.15238,1.07279,1.22247,0.06582,0.64927,0.96936,0.23882,0.68294,1.03835,-0.10894,0.57935,1.4893,0.20844,0.42751,1.52266,-0.10525,0.87783,1.47747,0.3646,0.25527,1.34144,0.04654,0.74315,1.64357,0.60619,0.18648,1.2518
1120,0.04241,0.5105,1.54758,0.08028,0.56364,0.13001,0.16125,1.47835,1.05084,0.04857,0.70874,0.53075,0.15369,1.08771,1.21754,0.06416,0.65696,0.97158,0.23648,0.69372,1.04069,-0.10951,0.5739,1.48777,0.20912,0.42356,1.52158,-0.10932,0.87237,1.47495,0.36366,0.24902,1.34117,0.04343,0.74024,1.64221,0.60317,0.17036,1.25414
1121,0.04241,0.50479,1.54746,0.08252,0.56591,0.13101,0.1608,1.49298,1.05114,0.05077,0.70991,0.53214,0.15372,1.10016,1.21269,0.06262,0.66392,0.97373,0.23465,0.70294,1.04233,-0.10969,0.56848,1.48604,0.21058,0.41992,1.52009,-0.11285,0.86691,1.47288,0.36211,0.24256,1.33989,0.04078,0.73694,1.64102,0.59915,0.15473,1.25486
1122,0.04237,0.49892,1.54708,0.08485,0.56881,0.13206,0.1613,1.50506,1.05076,0.05253,0.71135,0.53368,0.15285,1.11048,1.20789,0.06144,0.67012,0.9758,0.23348,0.71072,1.04345,-0.10993,0.56324,1.48431,0.21224,0.41598,1.51837,-0.11563,0.86164,1.47139,0.35976,0.23573,1.3377,0.03853,0.73305,1.64009,0.59394,0.1395,1.25385
1123,0.04246,0.49313,1.54652,0.08663,0.57208,0.13322,0.16172,1.51518,1.05043,0.05385,0.71317,0.53531,0.15189,1.119,1.20337,0.0608,0.67508,0.97775,0.23286,0.71705,1.04451,-0.11023,0.558,1.48272,0.21353,0.4112,1.51651,-0.11798,0.85639,1.47055,0.3567,0.22841,1.3349,0.03652,0.72837,1.63938,0.58776,0.12475,1.25125
1124,0.04285,0.48786,1.54581,0.08756,0.57516,0.1345,0.1612,1.52353,1.0499,0.05475,0.7151,0.53699,0.15114,1.12587,1.19894,0.06065,0.67812,0.97954,0.23247,0.72177,1.04582,-0.11032,0.55264,1.48123,0.21431,0.40587,1.51464,-0.12023,0.85102,1.47024,0.35329,0.22104,1.33183,0.03469,0.72304,1.63873,0.581,0.11087,1.24733
1125,0.0434,0.48361,1.54493,0.08779,0.5778,0.13576,0.16023,1.53044,1.04884,0.05521,0.71654,0.53868,0.15048,1.13125,1.19377,0.06064,0.67894,0.98119,0.23196,0.72471,1.04735,-0.11004,0.54737,1.47973,0.21479,0.40081,1.51297,-0.12244,0.84571,1.47034,0.35004,0.21459,1.32877,0.03321,0.71759,1.63805,0.57401,0.09847,1.24226
1126,0.0438,0.48036,1.544,0.08744,0.57998,0.13686,0.16,1.53653,1.04715,0.05524,0.71701,0.5404,0.15003,1.13546,1.18679,0.06032,0.67773,0.98277,0.23099,0.72584,1.04892,-0.10962,0.54247,1.47826,0.21527,0.39654,1.51165,-0.12446,0.84074,1.47075,0.34729,0.20977,1.32569,0.0323,0.71255,1.63736,0.56699,0.08814,1.23587
1127,0.04381,0.4774,1.54326,0.08643,0.58154,0.13778,0.16081,1.54228,1.045,0.05503,0.71638,0.54212,0.15048,1.1388,1.17747,0.05941,0.67488,0.98429,0.22942,0.72529,1.05044,-0.10936,0.53791,1.47709,0.21588,0.39284,1.51062,-0.12615,0.83612,1.47121,0.34502,0.2064,1.32231,0.03196,0.7081,1.63668,0.56005,0.08006,1.22779
1128,0.04335,0.47413,1.5429,0.08479,0.58223,0.13846,0.16203,1.54758,1.04267,0.0548,0.71477,0.54367,0.15268,1.14122,1.1661,0.05794,0.67091,0.98562,0.2274,0.72328,1.05167,-0.10935,0.53343,1.47637,0.21666,0.38907,1.50967,-0.12716,0.8316,1.47124,0.34298,0.20368,1.31844,0.03209,0.70405,1.63597,0.55337,0.0741,1.21807
1129,0.04276,0.47033,1.54299,0.08298,0.58189,0.1387,0.16322,1.55185,1.04029,0.05474,0.7122,0.54476,0.15711,1.14246,1.15348,0.05615,0.66643,0.98652,0.22539,0.72007,1.05212,-0.10934,0.52884,1.47608,0.21755,0.38485,1.50871,-0.12709,0.827,1.47053,0.34086,0.20095,1.31412,0.03258,0.70003,1.6353,0.54723,0.07005,1.2073
1130,0.04243,0.466,1.54348,0.08163,0.58067,0.13829,0.16461,1.55454,1.0377,0.05484,0.70835,0.54528,0.16348,1.14236,1.14046,0.05441,0.66184,0.98697,0.22389,0.71599,1.05149,-0.10912,0.5241,1.47615,0.21842,0.38016,1.50791,-0.126,0.82228,1.46921,0.33848,0.19812,1.30957,0.03324,0.69569,1.63468,0.54176,0.06792,1.19619
1131,0.04242,0.46108,1.5443,0.08084,0.5788,0.13716,0.16653,1.55521,1.03431,0.05495,0.70278,0.54535,0.17095,1.14084,1.12772,0.05305,0.65705,0.98712,0.22314,0.71119,1.05005,-0.1089,0.51918,1.47664,0.21913,0.37517,1.50743,-0.12457,0.81738,1.4676,0.33582,0.19546,1.30499,0.03377,0.69091,1.63404,0.53681,0.06763,1.18501
1132,0.04255,0.45564,1.54538,0.08019,0.57643,0.13544,0.169,1.55354,1.02935,0.05484,0.69538,0.54516,0.17857,1.13775,1.11582,0.05211,0.65176,0.98714,0.22296,0.70551,1.04831,-0.10899,0.51405,1.47756,0.21962,0.37008,1.50718,-0.12349,0.81221,1.46593,0.33321,0.19332,1.30043,0.03402,0.68588,1.63325,0.53214,0.0688,1.17372
1133,0.04268,0.44988,1.54669,0.07932,0.57354,0.13336,0.17198,1.54938,1.0221,0.05438,0.68654,0.54478,0.18568,1.133,1.1051,0.05138,0.64578,0.98703,0.223,0.69878,1.04669,-0.10946,0.5087,1.47878,0.21986,0.36487,1.50691,-0.12294,0.80678,1.46423,0.33113,0.19182,1.29581,0.03412,0.68097,1.63236,0.52791,0.07108,1.16228
1134,0.04259,0.44407,1.54815,0.07834,0.57008,0.13116,0.17582,1.54297,1.01188,0.05366,0.67695,0.54423,0.19189,1.12682,1.09562,0.05068,0.63919,0.98675,0.22294,0.69107,1.04552,-0.11016,0.50314,1.4801,0.21984,0.35934,1.50646,-0.12269,0.8011,1.46254,0.3299,0.19085,1.29108,0.03428,0.67646,1.63162,0.52461,0.07447,1.15081
1135,0.04207,0.43842,1.5497,0.0776,0.56615,0.12894,0.18093,1.53463,0.99798,0.05298,0.6672,0.54347,0.19722,1.11964,1.08728,0.04979,0.63228,0.98622,0.22263,0.68274,1.04453,-0.11102,0.49752,1.48131,0.21957,0.35345,1.50572,-0.1224,0.79535,1.46101,0.3295,0.19023,1.28625,0.03457,0.67233,1.63128,0.52262,0.07928,1.13954
1136,0.04118,0.43288,1.55133,0.07726,0.56206,0.12655,0.18724,1.52436,0.97978,0.0527,0.65759,0.5424,0.20197,1.11184,1.08008,0.04854,0.62538,0.98534,0.22216,0.67417,1.04275,-0.11193,0.49216,1.48233,0.21919,0.34741,1.50471,-0.12169,0.78989,1.45973,0.32959,0.18996,1.28129,0.03486,0.66822,1.63135,0.52188,0.08583,1.1286
1137,0.04024,0.42735,1.55301,0.07719,0.55812,0.12384,0.19437,1.5118,0.95728,0.05301,0.64814,0.54093,0.20641,1.10355,1.07406,0.04694,0.61864,0.98404,0.22174,0.66546,1.03948,-0.1127,0.48739,1.48318,0.21893,0.34145,1.50365,-0.12045,0.78502,1.45859,0.32981,0.19034,1.27613,0.035,0.66387,1.63158,0.52201,0.09426,1.11814
1138,0.03966,0.42197,1.55455,0.07724,0.55431,0.12087,0.20197,1.49636,0.93105,0.0537,0.63885,0.53915,0.21066,1.0947,1.06905,0.04534,0.61183,0.98238,0.22153,0.65642,1.03521,-0.11307,0.48318,1.48402,0.21895,0.33578,1.50279,-0.11895,0.78068,1.45741,0.32996,0.19167,1.27084,0.03482,0.6593,1.63173,0.5226,0.10432,1.10839
1139,0.0397,0.4169,1.55574,0.07739,0.55041,0.11793,0.20969,1.47757,0.9017,0.0544,0.62979,0.53724,0.21493,1.08524,1.06449,0.04413,0.60472,0.98055,0.22163,0.64685,1.03097,-0.11285,0.47913,1.48504,0.21924,0.33066,1.50211,-0.11771,0.77644,1.45615,0.33005,0.19389,1.26566,0.03441,0.65477,1.63171,0.5235,0.11554,1.09961
1140,0.04024,0.41199,1.55657,0.0778,0.54637,0.11515,0.21732,1.4551,0.86957,0.05501,0.62118,0.53532,0.21961,1.07525,1.05972,0.04346,0.59734,0.97866,0.22209,0.63673,1.02728,-0.11211,0.47475,1.48635,0.21959,0.32612,1.50134,-0.11713,0.77178,1.4548,0.3303,0.19655,1.26083,0.03397,0.65045,1.63147,0.52483,0.12764,1.09188
1141,0.04092,0.40696,1.55711,0.0787,0.54239,0.11251,0.22505,1.42863,0.83495,0.0559,0.61322,0.53337,0.2249,1.06487,1.05434,0.04322,0.5899,0.97671,0.22282,0.6262,1.02411,-0.11116,0.46976,1.48786,0.21983,0.32189,1.50025,-0.11723,0.76645,1.45343,0.33113,0.19935,1.25634,0.0337,0.64621,1.63099,0.52699,0.1409,1.08502
1142,0.04148,0.40174,1.55737,0.08028,0.5387,0.10983,0.23301,1.3979,0.79863,0.05746,0.60588,0.53128,0.23054,1.05424,1.04831,0.04315,0.58249,0.97457,0.2236,0.6154,1.02123,-0.11031,0.46423,1.48924,0.22012,0.31774,1.49866,-0.11779,0.76056,1.45216,0.33287,0.2025,1.25188,0.03367,0.64182,1.63027,0.53026,0.15588,1.07868
1143,0.04195,0.39641,1.55732,0.08267,0.53547,0.10703,0.24067,1.36292,0.76174,0.05955,0.59901,0.52903,0.23627,1.04338,1.04161,0.04301,0.57508,0.97221,0.22417,0.60444,1.0185,-0.10986,0.45841,1.49019,0.22074,0.31356,1.49649,-0.11858,0.75446,1.45112,0.33542,0.20632,1.24701,0.03366,0.63713,1.62951,0.53441,0.17282,1.07263
1144,0.0424,0.39097,1.55707,0.0857,0.53267,0.10425,0.24726,1.32407,0.72508,0.06159,0.59242,0.52675,0.24218,1.03237,1.03384,0.04254,0.56765,0.96978,0.2243,0.59338,1.01588,-0.11002,0.45254,1.49084,0.22151,0.30936,1.49384,-0.11948,0.74836,1.45023,0.33832,0.21078,1.24179,0.03336,0.63226,1.62891,0.53889,0.19128,1.06707
1145,0.04286,0.38538,1.55681,0.08897,0.53001,0.10157,0.2526,1.28189,0.689,0.06326,0.586,0.52449,0.24847,1.02118,1.02436,0.04153,0.5601,0.96734,0.22385,0.5823,1.01304,-0.11082,0.44664,1.49149,0.22203,0.30538,1.49089,-0.12045,0.74223,1.44931,0.34129,0.21565,1.23668,0.0327,0.62747,1.62858,0.54325,0.21038,1.06257
1146,0.04353,0.37979,1.55655,0.09218,0.52724,0.09886,0.25707,1.23703,0.65376,0.0647,0.57975,0.52211,0.25507,1.00984,1.0127,0.04,0.55217,0.9647,0.22294,0.57131,1.00927,-0.11203,0.44056,1.49203,0.22231,0.30204,1.48779,-0.12142,0.73593,1.44832,0.3444,0.22097,1.23202,0.03203,0.62275,1.62834,0.54746,0.2295,1.05933
1147,0.0447,0.3746,1.55612,0.0953,0.5244,0.09592,0.26134,1.18996,0.61959,0.0662,0.57369,0.51945,0.26159,0.99845,0.99877,0.03833,0.54386,0.96171,0.22198,0.56055,1.00431,-0.11318,0.43421,1.49216,0.22274,0.29937,1.48464,-0.12239,0.72943,1.44736,0.34794,0.22712,1.22774,0.03171,0.61783,1.62782,0.55163,0.24881,1.05693
1148,0.0464,0.3701,1.55531,0.09822,0.52177,0.09284,0.26584,1.14064,0.58671,0.06775,0.56779,0.51664,0.26766,0.98703,0.98275,0.03697,0.53581,0.95855,0.22132,0.55005,0.99895,-0.11388,0.42776,1.4919,0.22348,0.29685,1.48156,-0.12347,0.72288,1.44658,0.35192,0.23424,1.22373,0.03186,0.61263,1.62681,0.55557,0.26888,1.05504
1149,0.04829,0.36613,1.55408,0.10062,0.51951,0.08981,0.27022,1.08892,0.55551,0.06902,0.56214,0.51389,0.2731,0.97532,0.96482,0.03611,0.5287,0.95554,0.22107,0.53967,0.99415,-0.11407,0.42158,1.49146,0.22426,0.294,1.47866,-0.12469,0.71666,1.44607,0.35584,0.24181,1.22009,0.03238,0.60758,1.6255,0.55885,0.28984,1.05392
1150,0.04995,0.3623,1.55251,0.10222,0.5177,0.08682,0.27373,1.03521,0.52649,0.06966,0.55708,0.51114,0.27793,0.96296,0.94507,0.03569,0.52232,0.95261,0.22108,0.52926,0.99009,-0.11379,0.416,1.49084,0.22491,0.29081,1.47583,-0.12594,0.71109,1.44589,0.35918,0.24889,1.21678,0.03312,0.60317,1.62427,0.56117,0.31121,1.05415
1151,0.05118,0.3584,1.55063,0.10313,0.51632,0.08375,0.27638,0.98019,0.49975,0.06954,0.55295,0.50824,0.28261,0.94956,0.92339,0.03537,0.51567,0.94948,0.22101,0.51873,0.98623,-0.11307,0.41091,1.48993,0.22546,0.28767,1.47279,-0.12706,0.70606,1.44593,0.36193,0.25472,1.2136,0.03399,0.59932,1.62324,0.56258,0.33243,1.05601
1152,0.05227,0.35447,1.54848,0.10387,0.51527,0.08079,0.27886,0.92409,0.47514,0.06887,0.5498,0.50534,0.28786,0.93468,0.89971,0.03471,0.50807,0.94619,0.22052,0.50804,0.98218,-0.11206,0.40577,1.48883,0.22594,0.28485,1.4694,-0.12812,0.70098,1.44593,0.36435,0.25935,1.21039,0.03486,0.59562,1.62229,0.56308,0.35322,1.05931
1153,0.05373,0.35055,1.54615,0.10487,0.5145,0.07846,0.28113,0.86716,0.45266,0.06808,0.54736,0.50299,0.29405,0.91816,0.87419,0.03338,0.49979,0.9432,0.21944,0.49739,0.97784,-0.11103,0.40013,1.48781,0.2262,0.28215,1.46583,-0.12935,0.69529,1.44549,0.36653,0.26363,1.20726,0.03549,0.5918,1.62122,0.56252,0.3736,1.06364
1154,0.05579,0.34652,1.54384,0.1061,0.51408,0.07715,0.28212,0.81028,0.43243,0.06753,0.54556,0.50163,0.30068,0.90028,0.84716,0.03144,0.49165,0.941,0.21787,0.48729,0.97338,-0.11007,0.39411,1.48705,0.22626,0.27909,1.46242,-0.13089,0.68907,1.44446,0.36853,0.26858,1.20446,0.03582,0.58793,1.6198,0.56098,0.39371,1.06869
1155,0.0581,0.3423,1.54176,0.10714,0.51417,0.07678,0.28124,0.75443,0.41432,0.06717,0.54462,0.5012,0.30654,0.88128,0.81894,0.02934,0.48426,0.93959,0.21618,0.47802,0.96918,-0.10902,0.38826,1.48667,0.22636,0.27543,1.45935,-0.13257,0.68286,1.44307,0.37058,0.27436,1.20227,0.03609,0.5841,1.6179,0.55878,0.41363,1.07454
1156,0.06001,0.33809,1.54003,0.10761,0.51477,0.07691,0.27928,0.69978,0.39797,0.06679,0.5447,0.50129,0.3107,0.86077,0.78982,0.02756,0.47775,0.93859,0.21469,0.46933,0.96566,-0.10784,0.38282,1.48674,0.22684,0.27132,1.45669,-0.1342,0.67696,1.44163,0.37288,0.28014,1.20078,0.03665,0.58039,1.61556,0.55578,0.43336,1.08159
1157,0.06129,0.33425,1.53857,0.10757,0.51563,0.07717,0.27749,0.6458,0.38317,0.06639,0.54561,0.50151,0.31348,0.83796,0.7603,0.02614,0.47191,0.93763,0.21339,0.46071,0.96282,-0.10665,0.3773,1.48716,0.22773,0.26702,1.45443,-0.13572,0.67088,1.44013,0.37525,0.28518,1.19987,0.03763,0.57691,1.613,0.55136,0.45261,1.08994
1158,0.06236,0.33088,1.53732,0.10737,0.51643,0.07749,0.27599,0.59245,0.36989,0.06616,0.54709,0.50178,0.31582,0.81243,0.7311,0.02483,0.46639,0.93656,0.21204,0.45177,0.96025,-0.10533,0.37114,1.48779,0.22882,0.26257,1.4526,-0.13711,0.66402,1.43823,0.37733,0.28961,1.19941,0.03888,0.57367,1.61037,0.5455,0.47078,1.09925
1159,0.06395,0.32762,1.5362,0.10734,0.51687,0.07796,0.27378,0.54064,0.35808,0.06615,0.54888,0.50215,0.31797,0.78455,0.70305,0.02352,0.46098,0.9354,0.21056,0.44246,0.9576,-0.10344,0.36452,1.48842,0.22987,0.258,1.45117,-0.13835,0.65653,1.43588,0.37902,0.29402,1.19948,0.04014,0.57052,1.60766,0.53877,0.4876,1.10928
1160,0.06645,0.32383,1.53515,0.10758,0.51692,0.07855,0.27013,0.49126,0.34762,0.06618,0.55051,0.50259,0.31948,0.75531,0.6767,0.02229,0.45571,0.93426,0.20908,0.43315,0.95488,-0.1007,0.35824,1.48878,0.2309,0.25356,1.45012,-0.13952,0.6492,1.43329,0.38034,0.2987,1.20008,0.04114,0.56726,1.60479,0.53143,0.50344,1.12019
1161,0.0696,0.3192,1.53409,0.10789,0.51682,0.07911,0.26517,0.44439,0.33848,0.06613,0.55127,0.50305,0.3201,0.72554,0.65215,0.02119,0.45075,0.93332,0.20766,0.42438,0.95218,-0.09745,0.35284,1.48864,0.23207,0.24965,1.44938,-0.14068,0.64271,1.4307,0.38125,0.30357,1.20092,0.04176,0.5638,1.60174,0.52324,0.51863,1.13224
1162,0.07277,0.31397,1.53297,0.108,0.51683,0.07955,0.2594,0.39946,0.33035,0.0661,0.55082,0.50351,0.31985,0.69532,0.62911,0.02009,0.44617,0.93268,0.20624,0.41635,0.94946,-0.09436,0.34825,1.48821,0.23346,0.24628,1.44889,-0.14182,0.63701,1.42812,0.38165,0.30822,1.20171,0.04205,0.56018,1.59857,0.51417,0.53273,1.14548
1163,0.0755,0.30858,1.5319,0.10786,0.51695,0.07989,0.25311,0.35588,0.32241,0.06623,0.54933,0.50401,0.31876,0.66408,0.60729,0.01902,0.44179,0.93233,0.20482,0.40873,0.94666,-0.09176,0.34385,1.48787,0.23497,0.24297,1.44868,-0.14293,0.63148,1.42544,0.38171,0.31201,1.20252,0.04221,0.55649,1.59533,0.50457,0.54481,1.15965
1164,0.07786,0.30318,1.5311,0.1076,0.51709,0.08017,0.24633,0.31349,0.31375,0.06654,0.54716,0.50451,0.31671,0.63121,0.58678,0.01814,0.43732,0.93212,0.20351,0.40099,0.94391,-0.08947,0.33898,1.48773,0.23653,0.23925,1.44878,-0.14395,0.6254,1.42257,0.38176,0.31451,1.20355,0.0425,0.55289,1.59211,0.4946,0.55438,1.17422
1165,0.08018,0.29773,1.53065,0.1073,0.51713,0.08043,0.23892,0.27257,0.30398,0.06699,0.54454,0.50503,0.31354,0.59674,0.56817,0.01766,0.4326,0.93198,0.2024,0.39259,0.94143,-0.08718,0.33343,1.48769,0.23816,0.23512,1.44904,-0.14472,0.61852,1.41944,0.38212,0.31585,1.2048,0.04303,0.54962,1.58905,0.48431,0.56168,1.18874
1166,0.08263,0.29247,1.53033,0.10698,0.51701,0.08071,0.23068,0.23363,0.29334,0.0676,0.54157,0.50557,0.30907,0.5613,0.55207,0.01765,0.42772,0.93195,0.20146,0.38323,0.93945,-0.08456,0.32748,1.4877,0.23989,0.23078,1.44927,-0.14506,0.61111,1.41598,0.38296,0.31658,1.20623,0.04372,0.54674,1.58623,0.47386,0.56729,1.20328
1167,0.08509,0.28784,1.52991,0.10667,0.51669,0.08095,0.22138,0.19709,0.28218,0.0684,0.53829,0.50607,0.30331,0.52565,0.53868,0.0181,0.42288,0.93199,0.2006,0.3731,0.9381,-0.08146,0.3217,1.48782,0.24171,0.22632,1.44942,-0.14502,0.60363,1.41216,0.38419,0.31729,1.20793,0.04437,0.54399,1.58346,0.46326,0.5718,1.21822
1168,0.08739,0.2839,1.52942,0.10649,0.5162,0.081,0.21103,0.16316,0.27066,0.06936,0.53471,0.50637,0.29678,0.49021,0.52783,0.01892,0.41816,0.93196,0.1998,0.36271,0.93733,-0.07801,0.31642,1.48813,0.24368,0.22167,1.44959,-0.14489,0.59633,1.40798,0.38555,0.31825,1.20992,0.04483,0.54108,1.58037,0.45213,0.57541,1.23374
1169,0.08961,0.28017,1.52907,0.10645,0.51566,0.08084,0.20003,0.13193,0.25897,0.07038,0.53098,0.50642,0.29034,0.45533,0.51919,0.01998,0.41343,0.93174,0.1991,0.3525,0.93687,-0.07462,0.31149,1.48861,0.24587,0.21659,1.44972,-0.14484,0.58906,1.40334,0.38678,0.31919,1.21199,0.04508,0.53801,1.5768,0.4404,0.57769,1.24982
1170,0.09212,0.276,1.52903,0.1064,0.51515,0.08065,0.189,0.10357,0.24738,0.07125,0.52742,0.50641,0.28449,0.42157,0.51235,0.02118,0.40839,0.93135,0.19852,0.34247,0.93627,-0.07154,0.30649,1.4891,0.2482,0.21086,1.44965,-0.14462,0.58153,1.39822,0.38773,0.31963,1.21387,0.04528,0.535,1.57297,0.42854,0.57795,1.2662
1171,0.09506,0.27113,1.5293,0.10618,0.51476,0.08071,0.17822,0.07812,0.23582,0.0718,0.52425,0.5066,0.2788,0.3894,0.50682,0.02242,0.40274,0.93093,0.19805,0.33232,0.93527,-0.06871,0.3012,1.48959,0.2505,0.20457,1.44944,-0.14388,0.57364,1.39279,0.38839,0.31933,1.21553,0.04563,0.53202,1.5692,0.417,0.57594,1.28231
1172,0.09806,0.26574,1.52987,0.10585,0.51451,0.0811,0.16738,0.05537,0.2238,0.07199,0.52136,0.50709,0.27218,0.35872,0.50209,0.02365,0.39643,0.93054,0.19759,0.32191,0.93387,-0.06591,0.29581,1.49032,0.25267,0.19819,1.4493,-0.14254,0.56554,1.38725,0.38886,0.31835,1.21712,0.04621,0.52883,1.56554,0.40582,0.57206,1.29759
1173,0.10069,0.26014,1.53074,0.10559,0.51439,0.08162,0.156,0.0351,0.21096,0.07212,0.51844,0.50768,0.26403,0.32922,0.49779,0.02474,0.38976,0.93011,0.19703,0.31143,0.93202,-0.06299,0.29077,1.49153,0.25473,0.19203,1.44936,-0.14082,0.55747,1.38172,0.38933,0.31684,1.21872,0.04704,0.52531,1.56183,0.39509,0.56676,1.31168
1174,0.10311,0.25459,1.53177,0.10558,0.51428,0.08203,0.14399,0.01723,0.19765,0.07268,0.51541,0.50815,0.25482,0.30089,0.4938,0.02562,0.38318,0.92952,0.19621,0.30119,0.9296,-0.06001,0.28644,1.49318,0.25669,0.18606,1.44949,-0.13898,0.54977,1.37626,0.38993,0.31485,1.22024,0.04808,0.52174,1.55788,0.38513,0.56024,1.32459
1175,0.10586,0.24933,1.53253,0.1058,0.514,0.0823,0.13184,0.00165,0.18476,0.07399,0.5124,0.5085,0.24557,0.27398,0.4903,0.02623,0.37678,0.92872,0.19511,0.29137,0.92677,-0.05713,0.28283,1.49482,0.25856,0.18024,1.44941,-0.13709,0.54262,1.37087,0.39082,0.31249,1.22157,0.04925,0.51835,1.55377,0.37628,0.55264,1.33666
1176,0.10922,0.2444,1.53262,0.10615,0.51359,0.08254,0.12017,-0.01188,0.17309,0.0759,0.5095,0.50884,0.23691,0.24864,0.48766,0.02664,0.37022,0.92768,0.19393,0.28177,0.92402,-0.05437,0.27956,1.49594,0.2604,0.17463,1.44897,-0.13507,0.53592,1.3655,0.39217,0.31,1.22268,0.05042,0.51514,1.54969,0.36863,0.5441,1.34826
1177,0.11297,0.23961,1.53202,0.10662,0.51323,0.08279,0.10924,-0.02373,0.16284,0.07801,0.50664,0.50917,0.22854,0.22492,0.48593,0.02708,0.3631,0.92637,0.19287,0.27192,0.92167,-0.0517,0.27624,1.49622,0.26237,0.16914,1.44822,-0.13286,0.52944,1.36001,0.394,0.30746,1.22364,0.05157,0.51204,1.54561,0.36215,0.53474,1.35949
1178,0.11674,0.23466,1.53112,0.1072,0.51301,0.08298,0.09886,-0.03421,0.15373,0.0799,0.50365,0.50939,0.21988,0.20301,0.48468,0.0277,0.3553,0.92475,0.19189,0.26129,0.91962,-0.04911,0.27288,1.49572,0.26464,0.16352,1.44725,-0.13055,0.52308,1.35426,0.3962,0.30472,1.22444,0.05281,0.50903,1.5412,0.35673,0.5246,1.37013
1179,0.12045,0.22957,1.53019,0.10771,0.51277,0.08307,0.08884,-0.04345,0.14536,0.08142,0.50047,0.50947,0.21091,0.18301,0.48339,0.02852,0.34694,0.92285,0.19081,0.2497,0.91756,-0.04654,0.26974,1.49472,0.26724,0.15758,1.44613,-0.12828,0.51688,1.34815,0.39852,0.30167,1.225,0.05417,0.50591,1.53619,0.35223,0.51375,1.37994
1180,0.12416,0.22463,1.5291,0.10791,0.51229,0.08309,0.07934,-0.05144,0.13744,0.0827,0.49714,0.50946,0.20207,0.16481,0.48186,0.02949,0.33811,0.92072,0.18962,0.23735,0.91538,-0.04374,0.26689,1.49346,0.26998,0.15127,1.44486,-0.12611,0.51069,1.34172,0.40061,0.29829,1.22529,0.05551,0.50244,1.53069,0.34835,0.50244,1.38876
1181,0.12774,0.22,1.52762,0.1078,0.51155,0.08313,0.07089,-0.05816,0.12982,0.08401,0.49373,0.50948,0.19375,0.14817,0.48023,0.03049,0.32897,0.91844,0.18839,0.22475,0.9132,-0.04056,0.26413,1.49203,0.27245,0.14453,1.44351,-0.12409,0.50426,1.33516,0.40224,0.2946,1.2255,0.0566,0.49859,1.52512,0.3447,0.49102,1.39649
1182,0.13079,0.21558,1.52582,0.1076,0.51076,0.08328,0.06386,-0.06359,0.12247,0.08545,0.4904,0.50961,0.18609,0.13298,0.47866,0.03139,0.31983,0.9161,0.18722,0.21253,0.91112,-0.03726,0.26124,1.49045,0.2743,0.1374,1.44214,-0.12207,0.4976,1.32864,0.40343,0.29049,1.22585,0.05737,0.49462,1.51983,0.34089,0.4797,1.4031
1183,0.13314,0.21119,1.5239,0.10737,0.51018,0.08353,0.05817,-0.06792,0.11552,0.08686,0.48735,0.50982,0.17928,0.11927,0.4771,0.03216,0.31109,0.91378,0.18611,0.20109,0.90909,-0.03434,0.25827,1.48873,0.27558,0.12995,1.44087,-0.11971,0.49106,1.32209,0.40446,0.2858,1.22642,0.05813,0.49084,1.51481,0.33699,0.46841,1.40871
1184,0.13518,0.20681,1.52196,0.10703,0.50991,0.08379,0.05353,-0.07147,0.10919,0.08806,0.48457,0.51,0.1736,0.10714,0.47543,0.03287,0.30295,0.91152,0.18494,0.19035,0.90706,-0.03183,0.25555,1.48684,0.27661,0.12214,1.43984,-0.11682,0.48491,1.31532,0.40552,0.28029,1.22708,0.05932,0.48733,1.50958,0.33356,0.45684,1.41358
1185,0.13745,0.20245,1.51992,0.1066,0.50984,0.08397,0.04973,-0.07453,0.10364,0.08893,0.48169,0.51006,0.16916,0.09668,0.47361,0.03359,0.29526,0.90936,0.18359,0.17991,0.90514,-0.0292,0.25344,1.48476,0.27752,0.11378,1.43906,-0.11372,0.47919,1.3083,0.40651,0.27376,1.22774,0.06108,0.48403,1.5037,0.33102,0.44478,1.41796
1186,0.14016,0.19804,1.51784,0.10632,0.50983,0.08414,0.0467,-0.0771,0.09886,0.08948,0.47829,0.51002,0.16588,0.08771,0.4718,0.03431,0.28768,0.90736,0.18215,0.16957,0.90353,-0.02612,0.25206,1.48247,0.27802,0.10469,1.43845,-0.11081,0.4739,1.3012,0.40724,0.26618,1.22841,0.06318,0.48098,1.49727,0.32916,0.43238,1.42183
1187,0.14305,0.19352,1.51595,0.10637,0.50977,0.08435,0.04442,-0.07916,0.09478,0.0898,0.47427,0.50994,0.16369,0.07984,0.4702,0.03496,0.28008,0.90558,0.18086,0.15957,0.9023,-0.02279,0.25108,1.48007,0.2779,0.09509,1.43794,-0.10798,0.46893,1.29425,0.40776,0.25767,1.22914,0.06542,0.47839,1.49074,0.32749,0.42002,1.42493
1188,0.1456,0.18898,1.51435,0.10663,0.50948,0.0846,0.04281,-0.08092,0.09141,0.09005,0.46981,0.50982,0.16266,0.07258,0.46893,0.03548,0.27273,0.90407,0.17979,0.1503,0.90139,-0.01962,0.24997,1.47789,0.27729,0.08559,1.43761,-0.10481,0.46389,1.28756,0.40836,0.2485,1.22983,0.06788,0.47636,1.48451,0.32598,0.408,1.42707
1189,0.14752,0.18451,1.51296,0.10687,0.50884,0.08484,0.04175,-0.08274,0.08882,0.09031,0.46521,0.50967,0.16266,0.06574,0.46801,0.03596,0.26593,0.90284,0.17884,0.14181,0.9008,-0.01681,0.24843,1.47632,0.27655,0.07673,1.43744,-0.10108,0.45842,1.28125,0.40912,0.23913,1.23021,0.07062,0.47458,1.4788,0.32502,0.39639,1.42851
1190,0.14891,0.17993,1.51176,0.10688,0.50788,0.08505,0.04104,-0.08473,0.08699,0.09065,0.4606,0.5095,0.16325,0.05947,0.46741,0.03659,0.25955,0.90182,0.17799,0.13375,0.90056,-0.01433,0.24639,1.47526,0.27586,0.06843,1.43723,-0.09689,0.45254,1.27543,0.4098,0.2298,1.23007,0.07351,0.47243,1.47375,0.32501,0.38505,1.42966
1191,0.15015,0.17498,1.51093,0.10661,0.50683,0.08527,0.04046,-0.08661,0.0857,0.09111,0.45593,0.50933,0.16395,0.05404,0.46704,0.03745,0.25334,0.9009,0.17731,0.12582,0.90065,-0.01208,0.24387,1.47412,0.27507,0.06023,1.43689,-0.09247,0.44667,1.27002,0.41016,0.22037,1.22954,0.0764,0.46949,1.46933,0.32588,0.37396,1.43063
1192,0.15139,0.16964,1.51063,0.1062,0.50582,0.08556,0.03995,-0.08796,0.08478,0.09172,0.45109,0.50918,0.1647,0.04954,0.46685,0.03842,0.24717,0.90011,0.1767,0.11794,0.90106,-0.00997,0.24114,1.47252,0.27383,0.05174,1.43667,-0.08801,0.44123,1.26486,0.41009,0.21051,1.22902,0.07924,0.46586,1.46533,0.32715,0.36327,1.4313
1193,0.15253,0.16423,1.51076,0.10601,0.5049,0.08604,0.03962,-0.0886,0.08422,0.09245,0.44606,0.50913,0.16567,0.04591,0.46693,0.03932,0.24113,0.89956,0.17598,0.11021,0.90181,-0.00798,0.23856,1.47075,0.27203,0.04301,1.43691,-0.08355,0.43619,1.25985,0.40971,0.20002,1.22887,0.08209,0.46192,1.46151,0.32827,0.35302,1.43157
1194,0.15335,0.15906,1.51111,0.10625,0.5041,0.08685,0.03947,-0.08862,0.08403,0.09324,0.44096,0.50934,0.16691,0.04297,0.4673,0.0401,0.23529,0.89938,0.17517,0.10275,0.90286,-0.00612,0.23618,1.46927,0.26989,0.0345,1.43768,-0.0791,0.43115,1.25501,0.40934,0.18913,1.22903,0.08496,0.45792,1.45782,0.32903,0.34305,1.43149
1195,0.15384,0.15419,1.51146,0.10671,0.50343,0.08799,0.0394,-0.08822,0.08406,0.09412,0.43596,0.50983,0.16824,0.04044,0.46785,0.04086,0.22973,0.89956,0.17448,0.09577,0.90403,-0.00437,0.23373,1.46819,0.26783,0.02665,1.43868,-0.07479,0.42579,1.25047,0.40921,0.17841,1.22922,0.08781,0.45396,1.45426,0.3295,0.33325,1.43121
1196,0.15429,0.14952,1.51169,0.10693,0.50287,0.08933,0.0393,-0.08757,0.08407,0.09503,0.43117,0.51049,0.16944,0.03814,0.46841,0.04167,0.22454,0.89999,0.17413,0.08945,0.9051,-0.0026,0.23108,1.46743,0.26617,0.01948,1.43957,-0.07079,0.42014,1.2464,0.40936,0.16831,1.22923,0.09062,0.45021,1.45087,0.32979,0.3236,1.43094
1197,0.15503,0.14483,1.51177,0.10678,0.50238,0.0907,0.03919,-0.08676,0.08402,0.09581,0.42667,0.51118,0.17043,0.03598,0.46894,0.04246,0.21968,0.90049,0.17405,0.08375,0.90604,-0.00078,0.22821,1.467,0.26503,0.0126,1.44038,-0.06714,0.41428,1.2429,0.40959,0.15878,1.22913,0.09343,0.44682,1.44766,0.32994,0.31413,1.43075
1198,0.15608,0.14001,1.51186,0.10652,0.5019,0.09211,0.03907,-0.08592,0.08396,0.09634,0.4224,0.51191,0.17116,0.0339,0.4695,0.04308,0.21499,0.90101,0.174,0.07844,0.90695,0.00097,0.22512,1.467,0.26416,0.0058,1.4414,-0.06366,0.40826,1.24,0.4097,0.1494,1.22905,0.09634,0.44375,1.44471,0.32995,0.30487,1.43054
1199,0.15717,0.13516,1.51213,0.10638,0.50142,0.0936,0.03893,-0.08526,0.08391,0.0966,0.41827,0.5127,0.17159,0.03184,0.4701,0.04345,0.21041,0.90157,0.17377,0.07329,0.90786,0.00245,0.2219,1.46744,0.26303,-0.00067,1.44277,-0.06027,0.40217,1.23763,0.40959,0.13985,1.22907,0.09937,0.44078,1.44205,0.33004,0.29591,1.43018
1200,0.15802,0.13051,1.51262,0.10642,0.50093,0.09508,0.0388,-0.08498,0.08388,0.09655,0.41427,0.51347,0.17174,0.02979,0.47067,0.04377,0.206,0.90217,0.17342,0.06827,0.9087,0.00363,0.21886,1.46817,0.2613,-0.00651,1.44437,-0.05716,0.39618,1.23555,0.4092,0.13007,1.22906,0.10223,0.43758,1.43963,0.33051,0.28715,1.42972
1201,0.15854,0.12619,1.51328,0.10664,0.50048,0.09644,0.03872,-0.08507,0.08382,0.09621,0.41042,0.5141,0.17173,0.02771,0.47117,0.04435,0.20184,0.90276,0.1732,0.06337,0.90944,0.00464,0.21628,1.46896,0.25918,-0.0119,1.44607,-0.05453,0.39022,1.2334,0.40845,0.12017,1.22888,0.10445,0.43386,1.43733,0.33146,0.27841,1.42929
1202,0.15876,0.12209,1.514,0.10706,0.5001,0.09765,0.03871,-0.08536,0.08367,0.09577,0.40668,0.51454,0.17162,0.02544,0.47162,0.04538,0.19797,0.90333,0.17331,0.05865,0.91009,0.00562,0.21403,1.46966,0.2571,-0.01737,1.44773,-0.05234,0.38415,1.23102,0.40732,0.1102,1.22852,0.10585,0.42957,1.43517,0.33274,0.2696,1.42892
1203,0.15886,0.11791,1.5147,0.10755,0.49987,0.09877,0.03865,-0.08571,0.08339,0.09551,0.40298,0.51486,0.17136,0.02291,0.47203,0.04674,0.19444,0.90394,0.17369,0.05422,0.91063,0.00661,0.21175,1.4702,0.25527,-0.02314,1.4492,-0.05035,0.37805,1.22865,0.40606,0.10042,1.2281,0.10674,0.42497,1.43331,0.33406,0.26085,1.42862
1204,0.15905,0.11345,1.51534,0.10785,0.4998,0.09991,0.03854,-0.08609,0.08301,0.09555,0.3994,0.51515,0.17092,0.02018,0.47241,0.04817,0.19123,0.9046,0.17412,0.0501,0.9111,0.00765,0.20921,1.47061,0.2537,-0.02894,1.45041,-0.04836,0.37231,1.22667,0.40497,0.09131,1.2278,0.10761,0.42056,1.43187,0.33511,0.25246,1.42851
1205,0.1593,0.10885,1.51593,0.10793,0.49977,0.10101,0.03841,-0.08652,0.08262,0.09586,0.3961,0.51546,0.17029,0.01725,0.47286,0.04954,0.18823,0.9052,0.17446,0.04618,0.91161,0.00874,0.20646,1.47096,0.25232,-0.03447,1.45141,-0.04633,0.3672,1.22524,0.40407,0.08324,1.22779,0.1087,0.41677,1.43085,0.33574,0.24466,1.4288
1206,0.15932,0.10455,1.51648,0.10794,0.49957,0.10205,0.03834,-0.08698,0.08229,0.0964,0.39312,0.5158,0.1695,0.0141,0.47348,0.05084,0.18531,0.90567,0.17471,0.04235,0.91227,0.00978,0.20364,1.47122,0.251,-0.03981,1.45232,-0.04432,0.36264,1.22416,0.40314,0.07607,1.22801,0.10979,0.41355,1.43013,0.33605,0.2374,1.42951
1207,0.15906,0.10085,1.51697,0.10792,0.49908,0.10304,0.03831,-0.08738,0.0821,0.09712,0.39038,0.51623,0.16863,0.01086,0.47429,0.0521,0.18242,0.90607,0.17493,0.0386,0.91309,0.01071,0.20084,1.47128,0.24955,-0.04503,1.4532,-0.04242,0.35843,1.22311,0.40202,0.06923,1.22828,0.11055,0.41052,1.42963,0.33621,0.23046,1.43028
1208,0.15883,0.0975,1.5174,0.10779,0.4982,0.10404,0.03824,-0.08766,0.08205,0.09793,0.38784,0.51681,0.16779,0.00774,0.4752,0.05336,0.17956,0.90654,0.1752,0.03492,0.91402,0.0115,0.19819,1.47116,0.24788,-0.04989,1.45403,-0.0406,0.35456,1.222,0.4008,0.06242,1.22842,0.11111,0.40736,1.42927,0.33637,0.22374,1.4308
1209,0.15899,0.09404,1.51784,0.10748,0.4969,0.10505,0.03819,-0.08789,0.08207,0.0987,0.38541,0.51754,0.167,0.00498,0.47606,0.05469,0.17663,0.90707,0.17564,0.03126,0.91491,0.0122,0.19569,1.47104,0.24612,-0.0542,1.45471,-0.03876,0.35101,1.22098,0.39961,0.05588,1.22839,0.11196,0.40392,1.42895,0.33651,0.21732,1.43109
1210,0.15949,0.09041,1.51832,0.10705,0.49524,0.10603,0.03827,-0.08828,0.08203,0.09936,0.38298,0.51834,0.16623,0.00266,0.47675,0.05619,0.1736,0.90763,0.17629,0.02754,0.91566,0.01292,0.19319,1.47112,0.24448,-0.05829,1.45516,-0.0369,0.34748,1.22021,0.39851,0.04992,1.22832,0.11335,0.40021,1.42855,0.33651,0.21135,1.43138
1211,0.16004,0.08704,1.51873,0.10656,0.49341,0.10696,0.03845,-0.08887,0.08195,0.09993,0.38047,0.51909,0.16546,0.00068,0.4773,0.05778,0.17057,0.90822,0.17701,0.0238,0.91626,0.01379,0.19059,1.47149,0.24308,-0.06261,1.45549,-0.03514,0.34369,1.21968,0.39752,0.04449,1.22841,0.11503,0.3965,1.42806,0.33635,0.20583,1.43177
1212,0.16038,0.08426,1.51899,0.10602,0.49154,0.10781,0.03862,-0.08947,0.08187,0.1005,0.37794,0.51979,0.16475,-0.00122,0.47779,0.05922,0.16774,0.90885,0.17758,0.02026,0.9168,0.01479,0.18812,1.47208,0.24185,-0.06706,1.45593,-0.03356,0.33977,1.21928,0.39665,0.0393,1.22873,0.11663,0.39326,1.42748,0.33619,0.20066,1.43229
1213,0.1605,0.08185,1.51919,0.10538,0.48964,0.10858,0.03863,-0.08992,0.08177,0.10115,0.37546,0.52041,0.16408,-0.00335,0.47828,0.06029,0.16519,0.90947,0.17792,0.01712,0.91731,0.01576,0.18603,1.47265,0.24075,-0.0712,1.4566,-0.03213,0.3362,1.21887,0.39585,0.03425,1.22919,0.11796,0.39072,1.42688,0.33604,0.19567,1.43291
1214,0.16053,0.07919,1.51954,0.10474,0.48767,0.10923,0.03845,-0.09015,0.08159,0.10188,0.37312,0.52097,0.16348,-0.00571,0.4787,0.06101,0.16285,0.91003,0.17817,0.01441,0.91771,0.01667,0.1842,1.47294,0.23975,-0.07481,1.4574,-0.03087,0.33325,1.21844,0.39503,0.02953,1.2296,0.11902,0.38853,1.42639,0.33573,0.19072,1.43364
1215,0.16056,0.07589,1.52011,0.10432,0.48558,0.10976,0.03821,-0.09017,0.08135,0.10263,0.37096,0.52149,0.16314,-0.00804,0.47897,0.06162,0.16068,0.91053,0.17848,0.01199,0.91796,0.01761,0.18239,1.47294,0.2388,-0.07809,1.45801,-0.02984,0.33073,1.21801,0.3941,0.02523,1.22976,0.11991,0.38609,1.42603,0.33526,0.1858,1.43442
1216,0.16072,0.07213,1.52078,0.1042,0.4834,0.1102,0.03802,-0.09005,0.08116,0.10336,0.369,0.52198,0.16332,-0.01003,0.47909,0.06229,0.15871,0.91101,0.17876,0.00969,0.9181,0.01857,0.18041,1.47282,0.23793,-0.08137,1.45827,-0.02904,0.32818,1.21759,0.39306,0.02128,1.2296,0.12074,0.38311,1.42571,0.33488,0.18112,1.43502
1217,0.16114,0.06851,1.52127,0.1042,0.48129,0.11051,0.03796,-0.08998,0.08114,0.10413,0.36708,0.52235,0.16397,-0.01159,0.47917,0.06312,0.15695,0.91148,0.1789,0.00738,0.91822,0.01929,0.17827,1.47281,0.2374,-0.08471,1.45826,-0.0283,0.32534,1.21717,0.39211,0.01767,1.22918,0.12163,0.37988,1.42529,0.33479,0.17694,1.43529
1218,0.16179,0.06558,1.52143,0.10399,0.4794,0.11073,0.03795,-0.09016,0.08131,0.10494,0.36502,0.52252,0.16471,-0.01279,0.4793,0.06404,0.15532,0.91189,0.179,0.00511,0.91843,0.01945,0.1761,1.47296,0.23744,-0.08793,1.4581,-0.02739,0.32234,1.2167,0.39151,0.01452,1.22862,0.12264,0.37678,1.42477,0.33476,0.17327,1.43528
1219,0.16241,0.06348,1.52128,0.10339,0.47775,0.11095,0.03793,-0.09059,0.08163,0.10572,0.36282,0.52258,0.16523,-0.01367,0.47954,0.06494,0.15372,0.91229,0.17929,0.00304,0.91872,0.01902,0.17409,1.47323,0.23784,-0.09086,1.45787,-0.02619,0.31949,1.21621,0.39131,0.01182,1.22809,0.1238,0.37391,1.42431,0.33446,0.16987,1.43527
1220,0.16277,0.0618,1.5211,0.10258,0.47619,0.11129,0.0379,-0.09107,0.082,0.10642,0.36074,0.52276,0.16551,-0.01433,0.47984,0.06569,0.15205,0.91269,0.17976,0.00116,0.91906,0.01841,0.17226,1.47356,0.23826,-0.09359,1.45763,-0.02485,0.31698,1.21581,0.3912,0.00944,1.22766,0.12498,0.37118,1.42409,0.33391,0.16655,1.43543
1221,0.16291,0.05994,1.52117,0.10196,0.47459,0.11171,0.03799,-0.09127,0.08225,0.10708,0.35898,0.52313,0.16566,-0.01491,0.48014,0.06627,0.15035,0.91308,0.18021,-0.00064,0.91939,0.01808,0.17043,1.47388,0.23858,-0.09628,1.4574,-0.02372,0.31477,1.21568,0.39081,0.00733,1.22722,0.12603,0.36854,1.42413,0.33332,0.16338,1.43572
1222,0.16306,0.05767,1.52155,0.10178,0.47293,0.1121,0.03827,-0.0911,0.08229,0.10772,0.35751,0.52356,0.16579,-0.01555,0.48038,0.06675,0.14875,0.91342,0.18052,-0.00238,0.91966,0.01814,0.16846,1.47416,0.2389,-0.09893,1.45723,-0.02303,0.31275,1.21584,0.39013,0.00544,1.22673,0.12687,0.36606,1.42429,0.33266,0.16052,1.43596
1223,0.16336,0.05523,1.52199,0.10195,0.47126,0.11238,0.03864,-0.09073,0.08218,0.10837,0.35606,0.5239,0.16598,-0.01624,0.48053,0.06722,0.14737,0.91378,0.18073,-0.00396,0.91983,0.01848,0.16642,1.47434,0.23919,-0.10137,1.45723,-0.02269,0.31089,1.21611,0.38934,0.00361,1.22631,0.12758,0.36383,1.4244,0.33184,0.158,1.43604
1224,0.16375,0.05299,1.52224,0.10225,0.46961,0.11264,0.03895,-0.09043,0.08211,0.10904,0.35445,0.52416,0.1662,-0.0169,0.48067,0.06772,0.14617,0.91424,0.1809,-0.00542,0.92,0.01903,0.16445,1.47441,0.23941,-0.10348,1.4575,-0.02239,0.30906,1.2163,0.38859,0.00161,1.226,0.12814,0.36173,1.42447,0.33106,0.15564,1.43599
1225,0.16408,0.051,1.52229,0.10251,0.46798,0.11294,0.03916,-0.09038,0.08218,0.10973,0.35267,0.52441,0.16638,-0.01748,0.48086,0.06824,0.145,0.9148,0.18098,-0.00693,0.92022,0.01985,0.16262,1.47445,0.23963,-0.10531,1.4579,-0.02198,0.30707,1.21633,0.38793,-0.00061,1.22565,0.12851,0.35945,1.42459,0.33069,0.15325,1.43585
1226,0.16439,0.04916,1.5223,0.10269,0.46635,0.11324,0.03924,-0.09058,0.08231,0.11042,0.35083,0.52464,0.16643,-0.01793,0.48105,0.06869,0.14377,0.91533,0.18096,-0.00851,0.92043,0.02078,0.161,1.47463,0.23997,-0.10693,1.45822,-0.02152,0.30496,1.2163,0.38736,-0.00289,1.2251,0.12879,0.35688,1.42481,0.33079,0.15078,1.43561
1227,0.16484,0.04748,1.52242,0.1028,0.46466,0.11338,0.03911,-0.09087,0.0824,0.11108,0.34904,0.52475,0.1663,-0.01818,0.48114,0.06906,0.14251,0.91569,0.181,-0.01002,0.92054,0.02151,0.15966,1.47499,0.24047,-0.10832,1.45842,-0.0211,0.30295,1.21635,0.3869,-0.00502,1.22437,0.12915,0.35431,1.42503,0.33088,0.14834,1.43526
1228,0.16539,0.046,1.52277,0.10286,0.46291,0.11334,0.03884,-0.0911,0.08245,0.11174,0.34734,0.52471,0.16604,-0.01821,0.48114,0.06943,0.14135,0.9159,0.18122,-0.0113,0.92054,0.02195,0.15854,1.47544,0.24103,-0.10958,1.45858,-0.02075,0.30122,1.21647,0.38659,-0.00694,1.2237,0.12964,0.35212,1.42516,0.33056,0.14606,1.43484
1229,0.16583,0.04457,1.52332,0.10298,0.46125,0.11325,0.03861,-0.09123,0.08249,0.1124,0.34579,0.52464,0.16572,-0.01809,0.48117,0.06982,0.14044,0.91614,0.18154,-0.01227,0.92057,0.02224,0.15751,1.47585,0.2415,-0.11095,1.45867,-0.02045,0.29968,1.2166,0.3864,-0.00873,1.2232,0.13017,0.35043,1.42517,0.32993,0.14395,1.43447
1230,0.16607,0.04315,1.52388,0.1033,0.45978,0.11325,0.03858,-0.09129,0.08257,0.11302,0.34435,0.52463,0.1654,-0.01794,0.4813,0.07019,0.13977,0.91651,0.18183,-0.01301,0.92069,0.02247,0.15637,1.47609,0.24175,-0.11247,1.45869,-0.02015,0.29822,1.21666,0.38624,-0.01046,1.22287,0.13062,0.34907,1.4251,0.32934,0.14198,1.43418
1231,0.16627,0.04194,1.52422,0.10377,0.45847,0.11332,0.03867,-0.09127,0.08264,0.11359,0.34294,0.52468,0.16505,-0.01782,0.4815,0.07048,0.13921,0.91696,0.18204,-0.01363,0.92087,0.02255,0.15501,1.47611,0.24186,-0.11384,1.45867,-0.01982,0.29681,1.2166,0.38605,-0.01209,1.22255,0.13093,0.34776,1.42503,0.32894,0.1402,1.43392
1232,0.16652,0.04114,1.52427,0.10432,0.45716,0.1134,0.03878,-0.09119,0.08266,0.11405,0.34149,0.52472,0.16475,-0.0178,0.48166,0.07065,0.13866,0.91743,0.18221,-0.01419,0.92102,0.02255,0.15353,1.47599,0.24197,-0.11482,1.4586,-0.01947,0.29546,1.2165,0.38575,-0.01335,1.22211,0.13114,0.34639,1.42503,0.32858,0.13872,1.43362
1233,0.16685,0.04064,1.52416,0.10495,0.45577,0.11345,0.03889,-0.09105,0.08263,0.11442,0.34002,0.52475,0.16465,-0.01789,0.48173,0.07072,0.13809,0.91791,0.18235,-0.01471,0.92108,0.02277,0.15212,1.47594,0.2422,-0.11545,1.45849,-0.01912,0.29417,1.21649,0.38522,-0.01405,1.22151,0.13138,0.34515,1.4251,0.3281,0.13763,1.43331
1234,0.16727,0.04018,1.52401,0.10567,0.45441,0.1135,0.03909,-0.09084,0.08257,0.1148,0.33861,0.52479,0.16483,-0.01794,0.48172,0.07084,0.13758,0.91838,0.1825,-0.01522,0.92108,0.02325,0.15083,1.47601,0.24266,-0.11593,1.45844,-0.01875,0.29297,1.21663,0.38443,-0.01428,1.22082,0.13174,0.34427,1.42516,0.32749,0.13695,1.43299
1235,0.16781,0.03963,1.52391,0.10633,0.45334,0.11354,0.03935,-0.0906,0.08251,0.11527,0.33742,0.52481,0.16521,-0.01775,0.48163,0.07111,0.13723,0.9188,0.18271,-0.01561,0.921,0.0237,0.14953,1.47602,0.24348,-0.11633,1.45858,-0.01835,0.29188,1.21677,0.38365,-0.01433,1.22016,0.13214,0.34374,1.42516,0.32691,0.13662,1.43259
1236,0.16835,0.0391,1.52395,0.10681,0.4527,0.1136,0.03957,-0.09045,0.08249,0.11575,0.33653,0.52479,0.1657,-0.01726,0.48147,0.07141,0.13701,0.9191,0.18308,-0.01579,0.92084,0.02397,0.14824,1.47589,0.24463,-0.11665,1.45882,-0.01801,0.29094,1.21681,0.38328,-0.01443,1.21962,0.13239,0.34334,1.42513,0.32648,0.13645,1.43209
1237,0.16878,0.03865,1.52419,0.1071,0.4524,0.1137,0.03976,-0.09051,0.08255,0.11615,0.33591,0.5248,0.16624,-0.01661,0.48129,0.07159,0.13678,0.91929,0.18361,-0.01577,0.92067,0.02421,0.14718,1.47573,0.24583,-0.11683,1.459,-0.01779,0.29009,1.21677,0.38349,-0.01463,1.21921,0.13247,0.34288,1.4251,0.32615,0.1362,1.43157
1238,0.16907,0.03819,1.5246,0.10729,0.45228,0.1139,0.03995,-0.09067,0.08269,0.11647,0.3354,0.52488,0.16683,-0.01597,0.48115,0.07159,0.13647,0.91943,0.18416,-0.01568,0.92053,0.02444,0.14647,1.47568,0.24682,-0.11692,1.45903,-0.01759,0.28931,1.21669,0.38396,-0.01489,1.21888,0.13248,0.34229,1.42511,0.32593,0.1358,1.43114
1239,0.16936,0.03766,1.52499,0.10742,0.45218,0.11415,0.04008,-0.09069,0.08288,0.11677,0.33491,0.52503,0.16749,-0.01548,0.48107,0.07145,0.13613,0.91959,0.18456,-0.01561,0.92046,0.02446,0.14603,1.47573,0.24769,-0.11702,1.45899,-0.01728,0.28864,1.21657,0.38425,-0.01502,1.21849,0.13248,0.34175,1.42518,0.32597,0.1354,1.43088
1240,0.16973,0.0372,1.52518,0.10753,0.45207,0.11441,0.04009,-0.09043,0.08311,0.11707,0.33448,0.52519,0.16821,-0.01515,0.48107,0.07128,0.13589,0.9198,0.18478,-0.01557,0.92048,0.02428,0.1456,1.4758,0.24861,-0.11721,1.45894,-0.01684,0.28809,1.21648,0.3842,-0.01488,1.21803,0.13252,0.3414,1.42531,0.32628,0.13521,1.43075
1241,0.17014,0.03693,1.52513,0.10771,0.45205,0.11466,0.04008,-0.09003,0.08336,0.11731,0.33418,0.52536,0.16889,-0.0149,0.48112,0.07115,0.13583,0.92005,0.18491,-0.01543,0.92055,0.02424,0.14501,1.47586,0.24956,-0.11742,1.45898,-0.01641,0.28765,1.21654,0.38401,-0.01458,1.21765,0.13267,0.3412,1.42552,0.32661,0.13529,1.43066
1242,0.17054,0.0369,1.52503,0.1079,0.45219,0.11488,0.04016,-0.08973,0.08355,0.11737,0.33398,0.52549,0.16947,-0.01467,0.48116,0.07107,0.13588,0.92028,0.18509,-0.01519,0.92061,0.02459,0.14425,1.47588,0.25037,-0.11747,1.45927,-0.01614,0.28734,1.21682,0.38398,-0.01446,1.21754,0.13287,0.34108,1.42579,0.32665,0.13551,1.4305
1243,0.17099,0.03706,1.52509,0.10789,0.4524,0.11501,0.04039,-0.08971,0.08367,0.11708,0.33384,0.52551,0.16989,-0.01449,0.48119,0.07107,0.13592,0.92044,0.18535,-0.01495,0.92064,0.02511,0.14353,1.4759,0.25099,-0.11727,1.45989,-0.01613,0.28715,1.21722,0.38415,-0.0147,1.21773,0.133,0.34104,1.42607,0.32637,0.1357,1.43028
1244,0.17155,0.0373,1.52536,0.10754,0.45258,0.11503,0.04065,-0.09,0.08378,0.11644,0.33381,0.52549,0.17015,-0.01442,0.48124,0.07111,0.13592,0.9205,0.1856,-0.01479,0.92069,0.02535,0.14314,1.47607,0.25155,-0.11683,1.46061,-0.01626,0.28697,1.21756,0.38441,-0.01495,1.21799,0.13297,0.34106,1.42629,0.32605,0.13577,1.43015
1245,0.17223,0.03751,1.52565,0.10701,0.45273,0.11506,0.04081,-0.09035,0.0839,0.11566,0.33398,0.52553,0.17022,-0.01433,0.48129,0.0711,0.13593,0.92055,0.18581,-0.01461,0.92074,0.02521,0.14317,1.47645,0.25218,-0.11617,1.46095,-0.01631,0.28665,1.21773,0.3846,-0.01455,1.21798,0.13285,0.34106,1.42643,0.32596,0.13587,1.43027
1246,0.1729,0.03766,1.52581,0.10655,0.45292,0.11518,0.04084,-0.09049,0.08397,0.11501,0.33432,0.52569,0.17008,-0.01409,0.48135,0.07107,0.13602,0.92066,0.18607,-0.01429,0.92078,0.02499,0.14349,1.47694,0.25303,-0.11537,1.46069,-0.01617,0.28621,1.21774,0.38474,-0.01318,1.21758,0.13275,0.34109,1.42649,0.32604,0.13625,1.43055
1247,0.17337,0.03791,1.52585,0.10626,0.45326,0.11535,0.04086,-0.09041,0.08399,0.11457,0.33476,0.5259,0.16976,-0.01374,0.48142,0.07118,0.13626,0.92083,0.1865,-0.01381,0.92083,0.025,0.14385,1.47732,0.25419,-0.11455,1.46014,-0.0159,0.28584,1.21768,0.38496,-0.01126,1.21698,0.13277,0.34139,1.42643,0.32603,0.13707,1.43065
1248,0.17359,0.03855,1.52585,0.10597,0.45376,0.11553,0.04093,-0.09035,0.08404,0.11418,0.33529,0.52609,0.16936,-0.01338,0.48157,0.0715,0.13665,0.92102,0.18704,-0.01325,0.92094,0.02529,0.14408,1.47747,0.25567,-0.11368,1.45983,-0.01566,0.28567,1.21762,0.38532,-0.00942,1.21649,0.1329,0.3421,1.42621,0.32579,0.13832,1.4304
1249,0.17368,0.03951,1.52586,0.10546,0.45437,0.11567,0.04096,-0.09041,0.08423,0.11375,0.33593,0.52624,0.16909,-0.01309,0.48179,0.07188,0.13711,0.92117,0.18753,-0.0127,0.92112,0.02572,0.14431,1.47756,0.25732,-0.11262,1.45996,-0.01555,0.28568,1.21764,0.38578,-0.00786,1.21621,0.13302,0.3431,1.42596,0.32549,0.13981,1.42996
1250,0.17388,0.04033,1.52594,0.10462,0.4549,0.11578,0.0409,-0.09046,0.08454,0.11335,0.33663,0.52638,0.16907,-0.01288,0.48204,0.0721,0.13754,0.92124,0.18789,-0.01217,0.92135,0.02613,0.14475,1.47785,0.25884,-0.11132,1.46033,-0.01562,0.28571,1.21779,0.38626,-0.00636,1.21611,0.13295,0.34412,1.42583,0.3254,0.14137,1.42967
1251,0.17434,0.04081,1.52618,0.10355,0.45526,0.11588,0.04078,-0.09029,0.08489,0.11305,0.3373,0.52655,0.16924,-0.01265,0.48229,0.07216,0.13794,0.92131,0.18822,-0.01157,0.9216,0.02646,0.1454,1.47842,0.26004,-0.10997,1.46062,-0.01583,0.28563,1.21805,0.38672,-0.00474,1.21613,0.13262,0.34501,1.4259,0.32566,0.14287,1.42971
1252,0.17495,0.04127,1.52654,0.10245,0.45552,0.11598,0.04067,-0.08995,0.08518,0.11274,0.33785,0.52671,0.16938,-0.01239,0.4825,0.07219,0.13843,0.92148,0.18863,-0.01078,0.9218,0.02665,0.14613,1.47905,0.26091,-0.10884,1.46068,-0.01618,0.28559,1.21835,0.38717,-0.00309,1.21621,0.1321,0.34576,1.4261,0.32609,0.14417,1.43002
1253,0.17539,0.04209,1.52692,0.10154,0.4558,0.11602,0.04063,-0.08963,0.08531,0.11228,0.33833,0.5268,0.16931,-0.01209,0.48265,0.07225,0.13909,0.92171,0.18913,-0.00978,0.92192,0.02671,0.14689,1.47947,0.26164,-0.108,1.46055,-0.01658,0.28591,1.21862,0.38764,-0.00142,1.2163,0.1316,0.34647,1.42632,0.32647,0.14532,1.43044
1254,0.17545,0.0433,1.52729,0.10089,0.45617,0.11598,0.04072,-0.08947,0.08529,0.11173,0.33889,0.52682,0.16897,-0.01175,0.48274,0.07232,0.13993,0.92193,0.1896,-0.00862,0.92196,0.02669,0.1477,1.47967,0.26245,-0.1072,1.46033,-0.0169,0.2867,1.21885,0.38807,0.0004,1.21633,0.13133,0.34741,1.42647,0.32689,0.14654,1.43088
1255,0.17519,0.04467,1.52767,0.10039,0.45661,0.11593,0.04091,-0.08935,0.08523,0.11124,0.33957,0.52683,0.16839,-0.01128,0.48285,0.07242,0.14098,0.92219,0.18993,-0.00739,0.92203,0.02668,0.14854,1.47986,0.26335,-0.10612,1.46017,-0.01703,0.28769,1.21914,0.38833,0.00242,1.21626,0.13137,0.34885,1.42651,0.32758,0.14804,1.43128
1256,0.1749,0.04598,1.52805,0.09992,0.45702,0.11584,0.04108,-0.08909,0.08525,0.11082,0.34035,0.52685,0.1677,-0.01061,0.48307,0.07258,0.14223,0.9225,0.19013,-0.0061,0.92219,0.02671,0.14948,1.48027,0.26407,-0.1047,1.46021,-0.01698,0.2886,1.21953,0.38832,0.00441,1.21618,0.13155,0.35071,1.42653,0.32834,0.14984,1.43154
1257,0.17485,0.04715,1.52843,0.09944,0.45731,0.11563,0.04119,-0.08876,0.0854,0.1103,0.3412,0.52679,0.16708,-0.00978,0.48335,0.07269,0.14356,0.92274,0.19027,-0.00476,0.92244,0.02683,0.15066,1.48083,0.26451,-0.1031,1.46056,-0.01699,0.28949,1.21996,0.38812,0.00604,1.21621,0.13156,0.35269,1.42661,0.32872,0.15169,1.4316
1258,0.1752,0.04832,1.52882,0.09885,0.45752,0.11527,0.04128,-0.08854,0.08567,0.10964,0.34209,0.52663,0.16661,-0.00892,0.48367,0.07265,0.1448,0.92281,0.19039,-0.00339,0.92272,0.02704,0.15202,1.48126,0.26485,-0.1013,1.46112,-0.01735,0.29056,1.22033,0.38792,0.00735,1.21628,0.13118,0.35452,1.42676,0.32862,0.15332,1.43148
1259,0.17579,0.04967,1.52924,0.09803,0.45777,0.11496,0.0414,-0.08845,0.086,0.10915,0.34297,0.52649,0.16626,-0.00809,0.484,0.07251,0.14593,0.92283,0.19046,-0.00209,0.92301,0.02722,0.15334,1.48148,0.26526,-0.09918,1.46162,-0.01803,0.29173,1.22062,0.38785,0.0087,1.21621,0.13049,0.35617,1.42691,0.32844,0.1548,1.43128
1260,0.17634,0.05118,1.52975,0.09704,0.45808,0.11485,0.04158,-0.08827,0.08632,0.10905,0.34373,0.52647,0.16607,-0.00731,0.48432,0.07238,0.14705,0.92299,0.19045,-0.00087,0.92331,0.02712,0.15448,1.48167,0.26568,-0.09682,1.46201,-0.01865,0.29272,1.22082,0.38794,0.01021,1.21606,0.12977,0.35773,1.427,0.32848,0.1564,1.43106
1261,0.17665,0.05276,1.53038,0.09607,0.45832,0.11486,0.04182,-0.08789,0.08664,0.10924,0.34439,0.52657,0.16609,-0.00658,0.48463,0.07231,0.14825,0.92333,0.19042,0.00035,0.92362,0.0266,0.15556,1.48197,0.26596,-0.09462,1.46261,-0.01888,0.2935,1.22091,0.38812,0.01143,1.21619,0.12924,0.35924,1.42707,0.32868,0.1582,1.4308
1262,0.17678,0.05441,1.53103,0.09531,0.45835,0.1148,0.04206,-0.08741,0.08695,0.10939,0.34511,0.52667,0.16628,-0.00601,0.48494,0.07232,0.14954,0.9237,0.19044,0.00166,0.92393,0.02587,0.15677,1.48232,0.26618,-0.09293,1.46357,-0.01882,0.29441,1.22096,0.38824,0.0122,1.2167,0.12888,0.36077,1.42723,0.32883,0.16001,1.4306
1263,0.17687,0.05609,1.5316,0.09476,0.45815,0.11452,0.04221,-0.08708,0.08731,0.10922,0.34608,0.5267,0.16643,-0.00572,0.4853,0.07234,0.15092,0.92394,0.19052,0.00308,0.92428,0.02525,0.15819,1.4826,0.26662,-0.0916,1.46458,-0.01873,0.2957,1.22106,0.3881,0.01324,1.2173,0.12856,0.36244,1.4275,0.32891,0.16186,1.4307
1264,0.17697,0.05768,1.53205,0.09429,0.45788,0.11404,0.04223,-0.087,0.08768,0.10876,0.34742,0.52665,0.16635,-0.00556,0.48569,0.07235,0.15238,0.924,0.1906,0.0046,0.92462,0.02487,0.15969,1.48284,0.26746,-0.09009,1.46524,-0.01881,0.29726,1.22128,0.38767,0.0154,1.21762,0.12824,0.36432,1.42779,0.32905,0.16404,1.43117
1265,0.17709,0.05908,1.5324,0.09369,0.45773,0.11347,0.04217,-0.0871,0.08797,0.10827,0.34904,0.52655,0.16598,-0.00515,0.48597,0.07231,0.15389,0.92389,0.19073,0.00625,0.92485,0.02465,0.16113,1.48315,0.26847,-0.08795,1.46548,-0.0191,0.2988,1.22166,0.38717,0.01861,1.21759,0.1279,0.36636,1.42804,0.32921,0.16667,1.43172
1266,0.1772,0.06051,1.5327,0.09284,0.45773,0.11291,0.04211,-0.08719,0.08814,0.10792,0.35063,0.52638,0.16546,-0.00427,0.48608,0.0722,0.15547,0.92374,0.19092,0.00807,0.92489,0.02455,0.16257,1.48357,0.26927,-0.08525,1.46549,-0.01966,0.30038,1.22223,0.38689,0.02199,1.21739,0.12752,0.36844,1.42831,0.32921,0.16942,1.43203
1267,0.17719,0.06231,1.53297,0.09174,0.45786,0.11238,0.04208,-0.08718,0.08827,0.10763,0.35191,0.52612,0.16507,-0.00324,0.48611,0.07208,0.15725,0.92374,0.19115,0.01014,0.92485,0.02463,0.16432,1.48397,0.26959,-0.08251,1.46551,-0.02043,0.30232,1.22288,0.38687,0.02475,1.21724,0.12708,0.37054,1.42867,0.32903,0.17191,1.43202
1268,0.17689,0.06461,1.53314,0.09049,0.45814,0.11189,0.04211,-0.08706,0.08848,0.10729,0.35295,0.52578,0.16488,-0.00246,0.48625,0.07208,0.15934,0.92394,0.19143,0.01245,0.92492,0.02487,0.16648,1.48414,0.26948,-0.08016,1.4657,-0.0212,0.30472,1.22335,0.38687,0.02684,1.21738,0.12656,0.37267,1.42905,0.32872,0.17424,1.4319
1269,0.17638,0.06726,1.53309,0.08912,0.45859,0.11139,0.04217,-0.08684,0.08877,0.10686,0.35407,0.52541,0.16475,-0.00195,0.48654,0.0723,0.16164,0.9242,0.19179,0.01487,0.9251,0.02497,0.16875,1.48398,0.26921,-0.07813,1.46614,-0.02169,0.30731,1.22346,0.38662,0.02883,1.21781,0.12591,0.37494,1.42938,0.32825,0.17673,1.43193
1270,0.17598,0.06995,1.53281,0.08764,0.45911,0.11081,0.0422,-0.0865,0.08902,0.10631,0.35553,0.52503,0.16451,-0.00142,0.48683,0.07269,0.16395,0.92431,0.19224,0.01722,0.92528,0.02465,0.17083,1.48366,0.26908,-0.07598,1.46669,-0.02182,0.30976,1.2233,0.38613,0.03128,1.21832,0.12511,0.37742,1.42969,0.32764,0.17947,1.43222
1271,0.17586,0.07252,1.53243,0.08609,0.45957,0.11007,0.04212,-0.08611,0.08915,0.10558,0.35735,0.52459,0.16411,-0.00069,0.48698,0.07312,0.16618,0.92416,0.19271,0.01949,0.92531,0.02396,0.17279,1.48346,0.26913,-0.07355,1.46708,-0.02172,0.31204,1.22313,0.38563,0.03432,1.21871,0.12429,0.38008,1.43005,0.32694,0.18234,1.43266
1272,0.17585,0.07502,1.53221,0.08451,0.45978,0.10916,0.04197,-0.08577,0.08919,0.1048,0.35928,0.52406,0.16356,0.00017,0.48704,0.07346,0.16837,0.92384,0.19308,0.02171,0.92524,0.02319,0.17483,1.48343,0.2692,-0.07101,1.46715,-0.02163,0.31439,1.22311,0.38536,0.03773,1.21901,0.12355,0.38287,1.43048,0.3261,0.18533,1.4331
1273,0.17569,0.07755,1.53231,0.083,0.4596,0.1082,0.04188,-0.08559,0.08925,0.10424,0.36103,0.52352,0.16294,0.001,0.48712,0.0736,0.17052,0.92354,0.1933,0.02391,0.92519,0.02252,0.17699,1.48342,0.2691,-0.06849,1.46699,-0.02171,0.3169,1.2232,0.3854,0.04124,1.21935,0.12285,0.38574,1.43087,0.32507,0.18836,1.43347
1274,0.1754,0.08009,1.53262,0.08163,0.45912,0.1073,0.04195,-0.08557,0.08937,0.10398,0.36257,0.52304,0.1624,0.00181,0.48725,0.07348,0.17258,0.92332,0.19338,0.02615,0.92521,0.02203,0.17926,1.48339,0.26879,-0.0659,1.46679,-0.02199,0.31944,1.22328,0.38564,0.04457,1.21974,0.12206,0.38859,1.4312,0.32394,0.19113,1.43386
1275,0.17515,0.08261,1.53288,0.08037,0.45871,0.10648,0.0422,-0.08564,0.08955,0.10381,0.36419,0.52262,0.16209,0.00272,0.48738,0.07315,0.17468,0.92312,0.19342,0.02855,0.92522,0.02168,0.18162,1.48343,0.26841,-0.06307,1.46677,-0.02228,0.32185,1.22333,0.38596,0.04763,1.22015,0.1212,0.39134,1.43154,0.3229,0.19345,1.43438
1276,0.17493,0.08513,1.53291,0.07915,0.45864,0.10565,0.04251,-0.08564,0.08971,0.10351,0.36622,0.52221,0.16212,0.00372,0.4874,0.07276,0.17705,0.92286,0.19338,0.03122,0.92515,0.02128,0.18397,1.4835,0.268,-0.05992,1.46701,-0.02251,0.32422,1.22339,0.38631,0.05053,1.22065,0.12037,0.39401,1.4319,0.322,0.19557,1.43502
1277,0.17458,0.08764,1.53277,0.07803,0.45883,0.10472,0.04275,-0.08546,0.08982,0.10306,0.36869,0.52174,0.1624,0.00472,0.48731,0.07249,0.17987,0.92257,0.19318,0.03409,0.92497,0.0207,0.1863,1.48345,0.26742,-0.05654,1.46742,-0.02282,0.32683,1.22344,0.38664,0.05349,1.22131,0.11964,0.39673,1.4322,0.32126,0.19801,1.43572
1278,0.17406,0.08999,1.53271,0.07704,0.4591,0.1037,0.04293,-0.08508,0.08989,0.10261,0.37129,0.52119,0.16269,0.00582,0.48719,0.07247,0.18297,0.92229,0.19286,0.03694,0.92477,0.01999,0.18885,1.48315,0.26655,-0.05318,1.4678,-0.02331,0.32988,1.22337,0.38678,0.05669,1.2221,0.11891,0.39953,1.43239,0.32065,0.20099,1.43643
1279,0.17345,0.09214,1.53287,0.07602,0.4594,0.10273,0.04314,-0.08457,0.09009,0.10222,0.37366,0.5206,0.16291,0.00718,0.48719,0.07265,0.18604,0.92207,0.19258,0.03964,0.92471,0.01925,0.19176,1.48266,0.26554,-0.05001,1.46808,-0.02387,0.33337,1.22317,0.3866,0.06018,1.22294,0.11799,0.4024,1.43264,0.32,0.20428,1.43725
1280,0.1728,0.09449,1.53316,0.07489,0.45978,0.10196,0.04348,-0.08398,0.09054,0.10191,0.37573,0.52013,0.16323,0.00877,0.48741,0.07284,0.18893,0.92201,0.1925,0.04232,0.92487,0.01849,0.19478,1.48218,0.26473,-0.04709,1.46828,-0.02436,0.33708,1.22302,0.38623,0.06393,1.22372,0.11682,0.40535,1.4332,0.31909,0.2075,1.43822
1281,0.17207,0.09747,1.53339,0.0738,0.46013,0.10142,0.04387,-0.08347,0.09118,0.10168,0.37779,0.51987,0.1637,0.01039,0.48777,0.07294,0.19178,0.92214,0.19258,0.04515,0.92516,0.01772,0.19758,1.48188,0.26428,-0.04442,1.46838,-0.02479,0.34069,1.22311,0.38594,0.0678,1.22446,0.11563,0.4083,1.43401,0.31793,0.21057,1.43922
1282,0.17141,0.10095,1.53347,0.07294,0.46028,0.10093,0.04416,-0.0832,0.09188,0.10155,0.38018,0.51976,0.16414,0.0119,0.48813,0.07301,0.19478,0.92234,0.19265,0.04816,0.92542,0.01695,0.20019,1.48184,0.26408,-0.04198,1.46845,-0.0253,0.344,1.22342,0.38586,0.07164,1.22524,0.11463,0.4112,1.43477,0.31672,0.21374,1.44009
1283,0.17102,0.10445,1.53343,0.07226,0.46016,0.10034,0.04435,-0.08306,0.09255,0.10149,0.38291,0.51966,0.16439,0.01333,0.48846,0.07309,0.19787,0.92241,0.19263,0.05117,0.92564,0.01624,0.20289,1.48205,0.26393,-0.03958,1.46862,-0.02597,0.347,1.22379,0.38589,0.07538,1.22613,0.11382,0.41407,1.43528,0.31565,0.2172,1.4408
1284,0.17071,0.10771,1.53343,0.07161,0.45988,0.09967,0.04461,-0.08287,0.09321,0.10139,0.3857,0.51951,0.1646,0.01483,0.48882,0.0731,0.20078,0.92232,0.19249,0.05396,0.92591,0.01562,0.20579,1.48237,0.2636,-0.03685,1.46895,-0.02675,0.34977,1.22408,0.38587,0.07911,1.22709,0.11296,0.41692,1.43559,0.31481,0.22083,1.44155
1285,0.17002,0.11084,1.53358,0.07101,0.45973,0.0991,0.04505,-0.08253,0.09393,0.1012,0.38821,0.51937,0.16511,0.01652,0.48919,0.07291,0.20336,0.92221,0.19226,0.05652,0.92624,0.01502,0.2088,1.48263,0.26289,-0.03356,1.46932,-0.0275,0.35247,1.22418,0.38576,0.08293,1.22802,0.11192,0.4197,1.43586,0.31421,0.22428,1.44257
1286,0.16889,0.11396,1.53393,0.07062,0.45991,0.09874,0.04561,-0.08219,0.09475,0.10102,0.39041,0.51934,0.16613,0.01836,0.48948,0.07249,0.20581,0.92228,0.19186,0.059,0.92656,0.0144,0.21184,1.48273,0.26185,-0.02989,1.46965,-0.02815,0.35527,1.22416,0.38554,0.08684,1.22888,0.11082,0.42248,1.43614,0.31365,0.2273,1.4439
1287,0.16786,0.117,1.53442,0.07048,0.46031,0.09858,0.04624,-0.08198,0.09563,0.10098,0.39251,0.51944,0.16752,0.02021,0.48971,0.07198,0.20845,0.9226,0.19124,0.06155,0.92684,0.01386,0.21501,1.4828,0.2608,-0.02632,1.46998,-0.02872,0.35836,1.22418,0.38521,0.09076,1.22975,0.10984,0.42553,1.43644,0.31283,0.23004,1.44537
1288,0.16741,0.11992,1.53496,0.0705,0.46054,0.09848,0.04691,-0.0819,0.09655,0.1012,0.3947,0.51965,0.16894,0.02199,0.48995,0.07159,0.21142,0.92311,0.19058,0.06429,0.9271,0.01342,0.21858,1.48299,0.26002,-0.0231,1.4704,-0.02915,0.36182,1.22432,0.38485,0.09462,1.23071,0.10901,0.42914,1.43679,0.31171,0.23283,1.44676
1289,0.16732,0.12274,1.53554,0.07052,0.46036,0.0984,0.0476,-0.08184,0.09744,0.10169,0.39706,0.51992,0.17013,0.02373,0.49024,0.0715,0.21457,0.9237,0.19022,0.06722,0.92734,0.01297,0.22263,1.48336,0.25947,-0.0201,1.47087,-0.02934,0.3656,1.22449,0.38463,0.09845,1.23175,0.10818,0.43325,1.43728,0.31068,0.23586,1.44805
1290,0.16696,0.12556,1.53622,0.07047,0.45998,0.09831,0.04828,-0.08164,0.09829,0.10245,0.39951,0.52019,0.17109,0.02551,0.49058,0.07165,0.21769,0.92423,0.19031,0.07028,0.92759,0.01251,0.22692,1.48384,0.25891,-0.01698,1.47134,-0.02939,0.36953,1.2247,0.38454,0.10226,1.23282,0.10725,0.43743,1.43797,0.31002,0.239,1.44934
1291,0.16612,0.1285,1.53698,0.07054,0.45979,0.0982,0.04896,-0.08122,0.09918,0.1033,0.40193,0.52038,0.172,0.02745,0.49097,0.07183,0.22069,0.92463,0.19064,0.0734,0.92789,0.01211,0.23103,1.48439,0.2582,-0.01361,1.47187,-0.02959,0.37344,1.22511,0.38442,0.10602,1.23386,0.10637,0.44129,1.43883,0.30957,0.24207,1.45069
1292,0.1652,0.1318,1.53768,0.07093,0.45992,0.09805,0.04959,-0.08065,0.10019,0.10399,0.40432,0.52051,0.17307,0.02963,0.4914,0.07186,0.22368,0.92498,0.19086,0.07654,0.92825,0.01165,0.2347,1.48502,0.25746,-0.01008,1.47247,-0.03006,0.37718,1.22578,0.38407,0.10986,1.23482,0.1057,0.44464,1.43975,0.30891,0.24509,1.45207
1293,0.16468,0.13567,1.53818,0.07169,0.46018,0.09792,0.05017,-0.08007,0.10137,0.10435,0.40677,0.5207,0.17434,0.03209,0.49182,0.07177,0.22682,0.92543,0.19085,0.07975,0.92864,0.01089,0.23803,1.48571,0.25682,-0.00653,1.47306,-0.03066,0.3807,1.22654,0.38346,0.11395,1.2357,0.1052,0.44759,1.44063,0.30798,0.24825,1.45341
1294,0.16454,0.13996,1.53849,0.07263,0.46035,0.09788,0.05081,-0.07956,0.10266,0.10439,0.40934,0.52102,0.17569,0.03464,0.49229,0.07159,0.23017,0.92608,0.19066,0.08308,0.92908,0.00984,0.24129,1.48635,0.25624,-0.00304,1.47361,-0.03112,0.3841,1.22716,0.38285,0.11822,1.23663,0.10477,0.45049,1.44139,0.30708,0.25163,1.45479
1295,0.16438,0.14416,1.53882,0.07342,0.46033,0.09793,0.05168,-0.07908,0.10399,0.10431,0.41195,0.52144,0.17702,0.03703,0.49291,0.07133,0.2336,0.92685,0.19036,0.08647,0.92964,0.00878,0.2447,1.48682,0.25564,0.00049,1.47423,-0.03132,0.38761,1.22757,0.38255,0.12248,1.23778,0.10428,0.4538,1.44204,0.30649,0.25503,1.45636
1296,0.16381,0.14787,1.53936,0.07388,0.46018,0.09803,0.05272,-0.07852,0.10527,0.10435,0.41446,0.52186,0.17838,0.03914,0.49362,0.07098,0.23693,0.9276,0.18996,0.08976,0.93026,0.00804,0.24832,1.48716,0.2552,0.00417,1.47509,-0.03141,0.39128,1.22783,0.3826,0.12656,1.23912,0.10363,0.45765,1.4426,0.30617,0.25824,1.45809
1297,0.16294,0.15117,1.54006,0.07407,0.46002,0.09815,0.05372,-0.07797,0.10648,0.1046,0.41679,0.52224,0.17981,0.04108,0.49427,0.07051,0.24008,0.92828,0.18951,0.09292,0.93082,0.00763,0.25217,1.48758,0.25521,0.00796,1.4763,-0.0316,0.39486,1.22807,0.38269,0.1304,1.2404,0.10291,0.46173,1.44302,0.30579,0.2613,1.45968
1298,0.16217,0.15439,1.54076,0.07419,0.45997,0.09827,0.05461,-0.07751,0.1077,0.105,0.419,0.52257,0.18133,0.04309,0.49481,0.06996,0.24312,0.92888,0.18909,0.09606,0.93126,0.00744,0.25624,1.48827,0.25563,0.01167,1.4777,-0.03198,0.39816,1.22837,0.38258,0.13407,1.24149,0.10232,0.46567,1.44324,0.3051,0.26443,1.46088
1299,0.16176,0.15782,1.54138,0.07437,0.46012,0.09834,0.05543,-0.07709,0.10903,0.1054,0.42113,0.52281,0.18291,0.0453,0.49532,0.06941,0.24613,0.92943,0.18879,0.09928,0.93167,0.00738,0.26045,1.48916,0.25602,0.0152,1.479,-0.0325,0.40125,1.22871,0.3823,0.13765,1.24246,0.10184,0.46932,1.44338,0.30413,0.26775,1.46176
1300,0.16165,0.16147,1.54203,0.07463,0.46043,0.09833,0.05622,-0.07653,0.11047,0.10567,0.42322,0.52296,0.18449,0.04775,0.49589,0.06897,0.24914,0.9299,0.18869,0.10257,0.93216,0.00739,0.26462,1.4899,0.25596,0.01871,1.48002,-0.03306,0.40444,1.22901,0.38201,0.14124,1.2434,0.10128,0.47271,1.44362,0.30315,0.27118,1.46255
1301,0.16166,0.16524,1.54275,0.07494,0.46077,0.0983,0.05696,-0.07582,0.11194,0.10573,0.4253,0.52309,0.18592,0.05034,0.49652,0.06865,0.25211,0.93038,0.18873,0.10583,0.93272,0.00737,0.26858,1.49028,0.25549,0.02247,1.48079,-0.0336,0.40802,1.22928,0.38188,0.14497,1.24434,0.10062,0.476,1.44405,0.30238,0.27466,1.46341
1302,0.16156,0.16912,1.54347,0.07526,0.46103,0.09833,0.05771,-0.07507,0.11335,0.10556,0.42746,0.52332,0.18716,0.05294,0.49715,0.0684,0.2551,0.93095,0.18878,0.10907,0.93327,0.00732,0.2723,1.4905,0.25491,0.02659,1.48143,-0.03407,0.41197,1.22968,0.38195,0.1489,1.24522,0.10008,0.47941,1.44466,0.30179,0.27824,1.46425
1303,0.16108,0.17302,1.54414,0.07553,0.46125,0.09848,0.05854,-0.07437,0.11468,0.10522,0.42968,0.52367,0.18827,0.05537,0.49781,0.06808,0.25814,0.93164,0.18873,0.11233,0.93383,0.0072,0.27588,1.4909,0.25441,0.03098,1.48196,-0.03439,0.41595,1.23032,0.38208,0.15303,1.24596,0.09979,0.48312,1.44538,0.30122,0.2819,1.46502
1304,0.16002,0.17693,1.54483,0.07566,0.46156,0.09868,0.05951,-0.07377,0.11595,0.10479,0.4319,0.52404,0.1893,0.05757,0.49851,0.0676,0.26118,0.93236,0.18851,0.11558,0.93439,0.0068,0.27946,1.4916,0.25396,0.03543,1.48237,-0.0346,0.41965,1.23106,0.38209,0.15743,1.24659,0.09958,0.48711,1.44603,0.30058,0.28551,1.46587
1305,0.15848,0.18102,1.54555,0.07562,0.46194,0.09879,0.06056,-0.0733,0.11714,0.10431,0.43408,0.5243,0.19028,0.05966,0.49917,0.06709,0.2641,0.93293,0.18823,0.11869,0.9349,0.00604,0.28322,1.49243,0.25348,0.03969,1.48263,-0.0349,0.42304,1.23162,0.38185,0.16207,1.24718,0.09915,0.49124,1.44643,0.30002,0.28902,1.46699
1306,0.15693,0.18534,1.54632,0.07552,0.46219,0.0987,0.06169,-0.07308,0.11824,0.10381,0.43626,0.52435,0.19122,0.06182,0.49965,0.06679,0.26681,0.93321,0.18823,0.12166,0.93527,0.00521,0.28724,1.49315,0.25309,0.04359,1.48287,-0.03545,0.42628,1.23188,0.38139,0.16668,1.24775,0.09845,0.49526,1.44653,0.29973,0.2925,1.46827
1307,0.15588,0.18962,1.54718,0.07548,0.46221,0.09839,0.06287,-0.07305,0.11925,0.10327,0.43838,0.52421,0.19219,0.06407,0.49993,0.06673,0.26935,0.93329,0.18872,0.12465,0.93545,0.00464,0.29148,1.49369,0.25292,0.04714,1.48333,-0.03624,0.42957,1.23195,0.38091,0.17081,1.24835,0.09767,0.49901,1.44645,0.29975,0.29603,1.4694
1308,0.15553,0.19358,1.54807,0.07552,0.46214,0.09801,0.06392,-0.07287,0.12022,0.1026,0.4402,0.52397,0.19324,0.06633,0.50016,0.06673,0.27183,0.93338,0.18938,0.1277,0.93556,0.00431,0.29571,1.49408,0.25291,0.05056,1.48426,-0.03716,0.43296,1.23199,0.3806,0.17418,1.24909,0.09696,0.50256,1.44631,0.29992,0.29973,1.47013
1309,0.15574,0.19726,1.54878,0.07546,0.46229,0.09769,0.06467,-0.07219,0.12122,0.10182,0.4416,0.52376,0.19427,0.06855,0.50049,0.06652,0.27431,0.93366,0.18963,0.13057,0.93579,0.00394,0.29968,1.4944,0.25293,0.05417,1.48563,-0.03804,0.43629,1.23206,0.38055,0.17703,1.25002,0.09622,0.50611,1.44622,0.29999,0.30373,1.47045
1310,0.15614,0.20079,1.54922,0.07519,0.46274,0.09752,0.06514,-0.071,0.12224,0.10104,0.44275,0.52365,0.19518,0.07068,0.50101,0.06608,0.27676,0.93411,0.18927,0.13309,0.93624,0.00344,0.30331,1.49468,0.2529,0.05813,1.48704,-0.03864,0.43939,1.23208,0.38073,0.17992,1.25098,0.09538,0.50976,1.44621,0.29972,0.30799,1.47045
1311,0.15634,0.20418,1.54959,0.07478,0.46326,0.09744,0.06554,-0.06964,0.12319,0.10043,0.44392,0.52361,0.19589,0.0726,0.50164,0.06559,0.27917,0.93459,0.18861,0.13536,0.9368,0.00297,0.30672,1.49495,0.25272,0.06226,1.48815,-0.03883,0.4422,1.232,0.38098,0.1831,1.25184,0.09455,0.51348,1.44623,0.29902,0.31234,1.47026
1312,0.15615,0.2074,1.55007,0.07434,0.46355,0.09733,0.06598,-0.06849,0.12393,0.09996,0.44512,0.52354,0.19637,0.07424,0.50218,0.06523,0.28151,0.93498,0.18806,0.13754,0.93725,0.00254,0.30994,1.49523,0.25242,0.06628,1.48897,-0.03882,0.44492,1.23195,0.38114,0.18653,1.25261,0.09397,0.51726,1.44619,0.29796,0.31666,1.47005
1313,0.15578,0.21054,1.55062,0.07385,0.46364,0.09706,0.06633,-0.06757,0.12442,0.09948,0.44624,0.52332,0.1966,0.07569,0.50252,0.06502,0.2837,0.9352,0.18782,0.1397,0.93747,0.00199,0.31288,1.49546,0.25221,0.07005,1.48968,-0.03898,0.4478,1.23209,0.38118,0.19018,1.2534,0.09367,0.52112,1.44608,0.29665,0.32085,1.46998
1314,0.15549,0.21378,1.55112,0.07324,0.46367,0.09665,0.06642,-0.06671,0.12475,0.09887,0.44731,0.52295,0.19656,0.07708,0.50269,0.06488,0.28567,0.93523,0.18779,0.14177,0.93754,0.00129,0.31561,1.49557,0.25222,0.07361,1.49032,-0.03953,0.45088,1.23236,0.38118,0.19402,1.25418,0.09344,0.52497,1.44589,0.29522,0.32479,1.47015
1315,0.1553,0.21716,1.55153,0.0727,0.46373,0.09621,0.0663,-0.06581,0.12502,0.09822,0.44841,0.52256,0.19624,0.07847,0.50284,0.06466,0.28741,0.93512,0.18768,0.1436,0.93763,0.00067,0.31836,1.49558,0.25231,0.07698,1.49085,-0.0404,0.45393,1.23256,0.38123,0.19782,1.25491,0.09299,0.52861,1.44562,0.29396,0.32845,1.47044
1316,0.15503,0.22061,1.55186,0.07246,0.46377,0.0959,0.0662,-0.06489,0.12518,0.09778,0.44947,0.52229,0.1956,0.07977,0.50304,0.06433,0.28898,0.93506,0.18732,0.14515,0.9378,0.00034,0.3212,1.49555,0.2523,0.08015,1.49127,-0.04138,0.45667,1.23258,0.38128,0.20125,1.25549,0.09233,0.5319,1.44525,0.29323,0.33192,1.47067
1317,0.15456,0.22401,1.55207,0.07245,0.46383,0.09578,0.0663,-0.064,0.12517,0.09771,0.45034,0.52221,0.1947,0.08077,0.50333,0.06388,0.29044,0.93517,0.18676,0.14651,0.93803,0.0003,0.32391,1.49554,0.25217,0.08315,1.49162,-0.04228,0.45902,1.23252,0.38124,0.20421,1.25587,0.09168,0.53484,1.44482,0.29311,0.33529,1.47077
1318,0.15401,0.22722,1.55217,0.07238,0.46397,0.09583,0.06649,-0.06315,0.12497,0.09792,0.45092,0.52225,0.19363,0.08134,0.50366,0.06339,0.29175,0.93544,0.18628,0.14784,0.93827,0.00035,0.32636,1.4955,0.25205,0.08611,1.49193,-0.04313,0.46112,1.23246,0.38112,0.20692,1.25604,0.09115,0.53744,1.44438,0.29325,0.33846,1.47077
1319,0.15369,0.23016,1.55214,0.07207,0.46425,0.09592,0.06654,-0.06231,0.12462,0.09813,0.4513,0.52232,0.19244,0.08163,0.50393,0.06296,0.29285,0.93573,0.1861,0.14915,0.93839,0.00028,0.32857,1.49536,0.25193,0.089,1.49212,-0.04398,0.46316,1.23236,0.38093,0.20966,1.25612,0.09061,0.53973,1.44398,0.29306,0.34131,1.47078
1320,0.1537,0.23285,1.55198,0.07169,0.46456,0.09592,0.06625,-0.06156,0.12412,0.0981,0.45168,0.52229,0.19101,0.08189,0.504,0.06265,0.29382,0.93591,0.18608,0.15036,0.93833,2e-05,0.33056,1.49503,0.25179,0.09162,1.49215,-0.04478,0.46518,1.23213,0.38066,0.21254,1.25623,0.08993,0.54189,1.44363,0.29228,0.34403,1.47077
1321,0.15389,0.2353,1.55173,0.07151,0.46467,0.09579,0.06555,-0.06093,0.12348,0.09791,0.45216,0.52217,0.18927,0.08213,0.50384,0.06238,0.2948,0.93597,0.18595,0.15145,0.93805,-0.00036,0.3323,1.4945,0.25171,0.09389,1.49216,-0.04543,0.46709,1.23174,0.38027,0.21547,1.2564,0.08915,0.54419,1.44318,0.29116,0.34687,1.4707
