PaulMeinheit/Bachelor_Muay_Thai/processed_Data/N1/teep/sliced/JointAngles/sliced3.csv
Unnamed: 0_level_0,L_MTP_ANGLE,L_MTP_ANGLE,L_MTP_ANGLE,R_MTP_ANGLE,R_MTP_ANGLE,R_MTP_ANGLE,L_ANKLE_ANGLE,L_ANKLE_ANGLE,L_ANKLE_ANGLE,R_ANKLE_ANGLE,R_ANKLE_ANGLE,R_ANKLE_ANGLE,L_KNEE_ANGLE,L_KNEE_ANGLE,L_KNEE_ANGLE,R_KNEE_ANGLE,R_KNEE_ANGLE,R_KNEE_ANGLE,L_HIP_ANGLE,L_HIP_ANGLE,L_HIP_ANGLE,R_HIP_ANGLE,R_HIP_ANGLE,R_HIP_ANGLE,L_SHOULDER_ANGLE,L_SHOULDER_ANGLE,L_SHOULDER_ANGLE,R_SHOULDER_ANGLE,R_SHOULDER_ANGLE,R_SHOULDER_ANGLE,L_ELBOW_ANGLE,L_ELBOW_ANGLE,L_ELBOW_ANGLE,R_ELBOW_ANGLE,R_ELBOW_ANGLE,R_ELBOW_ANGLE,L_WRIST_ANGLE,L_WRIST_ANGLE,L_WRIST_ANGLE,R_WRIST_ANGLE,R_WRIST_ANGLE,R_WRIST_ANGLE,NECK_ANGLE,NECK_ANGLE,NECK_ANGLE,NECK_ANGLE_SHADOW,NECK_ANGLE_SHADOW,NECK_ANGLE_SHADOW,Trunk_Joint_Angle,Trunk_Joint_Angle,Trunk_Joint_Angle
ITEM,X,Y,Z,X,Y,Z,X,Y,Z,X,Y,Z,X,Y,Z,X,Y,Z,X,Y,Z,X,Y,Z,X,Y,Z,X,Y,Z,X,Y,Z,X,Y,Z,X,Y,Z,X,Y,Z,X,Y,Z,X,Y,Z,X,Y,Z
1492,-11.88487,0.0,-0.0,-4.50656,-0.0,-0.0,-17.66269,-10.78038,6.7879,17.47077,8.02493,-8.39917,-20.73187,0.64432,0.00018,-12.9159,-1.28658,0.00042,36.25982,12.92233,2.97638,1.65003,-1.93713,-13.55752,35.32861,5.10116,-14.0415,29.11029,-10.52428,21.40633,123.57368,-0.00361,-81.7659,134.50539,-0.00258,83.1407,5.01676,6.25189,0.01394,-0.22042,1.41198,-0.00294,-16.61905,-0.41204,-1.72868,-38.34117,0.25722,-1.75838,-1.44956,-2.10033,9.53301
1493,-12.83203,0.0,-0.0,-4.93474,0.0,0.0,-18.30108,-11.23692,6.90461,17.29882,7.867,-8.36435,-20.80148,0.63169,-6e-05,-12.78262,-1.02447,0.00029,36.36303,13.11207,2.9882,1.6422,-1.94696,-13.29561,35.50058,5.19915,-13.81684,28.91701,-10.80982,21.26413,122.99276,-0.00488,-82.13865,134.59688,-0.0052,82.16222,6.35925,6.30997,0.0194,0.24873,1.01247,-0.00444,-16.37799,-0.27292,-1.49279,-38.10283,0.29915,-1.48776,-1.67069,-2.08958,9.7622
1494,-13.22409,0.0,0.0,-5.16898,-0.0,0.0,-18.9805,-11.54543,6.7608,17.14841,7.58306,-8.28547,-20.93816,0.66948,-0.00054,-12.71483,-0.89632,4e-05,36.44243,13.23238,3.17435,1.64099,-1.97134,-13.17039,35.51414,5.27448,-13.39354,28.75598,-11.19013,21.13022,122.56117,-0.00307,-82.35091,134.79182,-0.00506,81.83215,7.66201,6.9688,0.01319,0.34195,1.00534,-0.00367,-16.17517,-0.27519,-1.09596,-37.90335,0.15014,-1.11996,-1.89445,-2.10076,9.9078
1495,-12.91144,0.0,-0.0,-5.15034,0.0,-0.0,-19.67442,-11.52643,6.27845,16.9601,7.17199,-8.05083,-21.1801,0.72709,-0.00071,-12.7216,-0.90297,1e-05,36.61497,13.31582,3.52474,1.7517,-1.98516,-13.29122,35.31606,5.35483,-12.83519,28.63043,-11.58997,21.00441,122.44689,-0.00206,-82.03041,135.14946,-0.00141,81.69978,8.25365,7.55037,-0.00192,0.17636,1.36929,-0.00256,-16.08888,-0.41879,-0.74709,-37.81926,-0.11241,-0.84905,-2.01019,-2.10045,9.9532
1496,-12.78591,0.0,-0.0,-5.20774,0.0,-0.0,-20.10832,-11.36496,5.69717,16.76272,6.61683,-7.79565,-21.57415,0.70925,0.0001,-12.73625,-0.95391,3e-05,36.92029,13.43916,3.7994,1.95756,-1.92659,-13.48207,35.05642,5.43133,-12.32414,28.48978,-11.85653,20.851,122.47092,-0.00101,-81.33115,135.55806,0.00304,81.10821,8.36166,7.60653,-0.01034,0.04733,1.75341,-0.00038,-16.12733,-0.5922,-0.59187,-37.85877,-0.33096,-0.76907,-1.99999,-2.0464,9.9169
1497,-13.40257,0.0,0.0,-5.52903,-0.0,-0.0,-20.13983,-11.32327,5.29441,16.61056,6.02958,-7.73035,-22.12527,0.56503,0.00154,-12.69411,-0.98402,-0.0,37.3565,13.57572,3.76379,2.20149,-1.78673,-13.57679,34.85557,5.48637,-11.99866,28.38076,-11.92929,20.67517,122.35181,-0.00059,-80.8451,135.9095,0.00316,80.16035,8.3414,7.17524,-0.01073,0.0479,2.03336,0.00047,-16.22166,-0.67351,-0.61551,-37.95317,-0.39774,-0.82114,-1.88282,-1.94066,9.76493
1498,-14.30366,0.0,-0.0,-5.96904,0.0,0.0,-19.92984,-11.5178,5.15463,16.52398,5.64789,-7.91393,-22.76541,0.35075,0.00205,-12.59899,-0.99788,-6e-05,37.88718,13.59672,3.46038,2.47347,-1.66501,-13.56983,34.68698,5.52208,-11.86473,28.48241,-11.91371,20.55808,122.05206,-0.00232,-81.02487,136.15042,0.00022,79.50384,8.04634,6.4128,-0.00112,-0.01845,2.28482,-0.00086,-16.25262,-0.60919,-0.72992,-37.98336,-0.29564,-0.90359,-1.67568,-1.86119,9.486
1499,-14.75762,0.0,-0.0,-6.23861,-0.0,-0.0,-19.6996,-11.95188,5.15225,16.47496,5.65149,-8.24339,-23.45185,0.20566,0.00084,-12.48176,-1.00305,-3e-05,38.41795,13.41252,3.19785,2.7458,-1.68774,-13.50479,34.44439,5.53746,-11.85072,28.86717,-11.9667,20.61826,121.7869,-0.00149,-81.84479,136.25159,-0.00127,79.49316,7.15074,5.39724,0.01492,-0.33353,2.467,-0.00201,-16.1643,-0.44907,-0.87697,-37.89394,-0.09245,-0.9809,-1.43551,-1.87042,9.15638
1500,-14.5849,0.0,0.0,-6.22836,0.0,-0.0,-19.4359,-12.47573,5.10052,16.43093,5.96549,-8.56613,-24.2685,0.22429,-0.00113,-12.34789,-0.96262,0.00017,38.88702,13.077,3.18543,2.95157,-1.87075,-13.37777,34.05031,5.52329,-11.89787,29.30511,-12.12377,20.89062,121.76408,0.0017,-82.83144,136.2178,-0.00069,79.92288,5.74456,4.36102,0.01972,-0.81995,2.33368,-0.0007,-16.06804,-0.29336,-1.00097,-37.79687,0.0981,-1.03845,-1.22347,-1.92271,8.87666
1501,-13.87932,0.0,0.0,-6.01819,-0.0,0.0,-18.98772,-12.69728,4.87066,16.34764,6.30942,-8.73127,-25.3483,0.36586,-0.00211,-12.19737,-0.85971,0.00032,39.33663,12.76,3.31319,3.0687,-2.08365,-13.20598,33.5495,5.48303,-11.97504,29.42084,-12.28945,21.23914,121.9671,0.00141,-83.37972,136.09634,0.00022,80.48036,4.4255,3.7964,0.0073,-1.24857,1.61124,0.00066,-16.13836,-0.20605,-1.00267,-37.86726,0.17983,-1.0077,-1.04995,-1.91202,8.7119
1502,-12.79539,-0.0,-0.0,-5.67229,-0.0,-0.0,-18.3102,-12.3609,4.4701,16.15426,6.49442,-8.64886,-26.71705,0.51758,-0.00102,-12.0533,-0.76558,0.00014,39.81927,12.6148,3.35869,3.13108,-2.16765,-13.08438,33.10716,5.43008,-12.05175,29.07222,-12.37306,21.46926,122.18158,-0.00101,-83.37997,135.95238,0.00087,81.08075,3.63937,4.12261,-0.00511,-1.51064,0.39466,-0.00014,-16.38046,-0.21242,-0.80463,-38.11053,0.1006,-0.8261,-0.92585,-1.79423,8.67595
1503,-12.04524,0.0,0.0,-5.32413,0.0,-0.0,-17.4365,-11.74063,4.07592,15.86116,6.56648,-8.40252,-28.25168,0.61019,0.00071,-11.93254,-0.7644,-0.00017,40.33173,12.63931,3.21317,3.17778,-2.07942,-13.09992,32.86447,5.37453,-12.09114,28.51773,-12.35059,21.51525,122.21338,-0.00285,-83.38952,135.85565,0.00148,81.56528,3.24978,5.14164,-0.00894,-1.64435,-0.65254,-0.00112,-16.58045,-0.32425,-0.42475,-38.31218,-0.14393,-0.51462,-0.8624,-1.61867,8.68656
1504,-12.20751,0.0,-0.0,-5.17576,0.0,-0.0,-16.47468,-11.25289,3.81836,15.58177,6.60413,-8.20048,-29.75005,0.6634,0.00096,-11.81482,-0.83404,-0.00026,40.82778,12.68825,2.91072,3.22,-1.9056,-13.23795,32.80948,5.3338,-12.02239,28.16433,-12.23578,21.4552,122.064,-0.00341,-83.63858,135.86853,0.00276,81.48786,3.15469,5.98631,-0.00802,-1.63358,-0.77198,0.00113,-16.51923,-0.50029,0.04573,-38.25232,-0.48166,-0.14277,-0.81517,-1.45084,8.59613
1505,-12.6362,0.0,-0.0,-5.2981,0.0,0.0,-15.66742,-10.97197,3.63201,15.39913,6.54523,-8.17052,-31.03124,0.72865,0.00021,-11.67278,-0.86342,0.0,41.19021,12.64283,2.56574,3.2118,-1.76915,-13.37927,32.81688,5.33233,-11.75648,28.19952,-12.07586,21.39211,121.90602,-0.00257,-83.47257,135.97577,0.00266,80.73303,3.6695,5.99394,-0.01126,-1.39912,0.12591,0.0059,-16.20382,-0.62145,0.48611,-37.93727,-0.75727,0.22145,-0.75648,-1.3223,8.37657
1506,-12.14707,0.0,-0.0,-5.59075,0.0,-0.0,-15.25612,-10.78184,3.45057,15.3047,6.30834,-8.24294,-32.01491,0.82181,-0.0003,-11.51392,-0.77632,0.00035,41.28062,12.51034,2.29721,3.08706,-1.74893,-13.41245,32.78689,5.36603,-11.34107,28.49698,-11.9491,21.36643,121.93035,-0.00232,-82.6522,136.03133,-0.00115,79.90342,4.80298,5.35846,-0.0131,-0.99037,1.29928,0.00511,-15.85786,-0.57464,0.77311,-37.59041,-0.82005,0.50539,-0.74805,-1.25194,8.19599
1507,-10.36863,-0.0,0.0,-5.78619,-0.0,-0.0,-15.27554,-10.70594,3.37087,15.22853,5.98699,-8.23811,-32.73869,0.93129,-0.00046,-11.38145,-0.62089,0.00038,41.09092,12.37057,2.18548,2.86365,-1.83798,-13.35626,32.71615,5.39649,-11.02416,28.80346,-11.91941,21.35816,122.21996,0.00147,-82.07525,135.87556,-0.00356,79.64687,5.92216,4.61885,-0.00567,-0.62242,1.85237,-0.00027,-15.67437,-0.36325,0.84692,-37.40564,-0.65102,0.65223,-0.85276,-1.24814,8.2303
1508,-8.0926,-0.0,0.0,-5.61632,0.0,0.0,-15.47322,-10.8887,3.5561,15.08072,5.83298,-8.0699,-33.30529,1.03018,-0.00031,-11.30901,-0.53613,0.00015,40.76339,12.29883,2.2187,2.65367,-1.94143,-13.30955,32.64082,5.39258,-11.02044,28.97115,-11.9861,21.37939,122.71793,0.00688,-82.37886,135.50264,0.00048,80.25623,6.45322,4.11488,0.00163,-0.54923,1.52631,-0.0004,-15.62676,-0.10728,0.76516,-37.35751,-0.38296,0.67106,-1.03417,-1.27596,8.47223
1509,-6.56521,0.0,-0.0,-5.19159,0.0,0.0,-15.48915,-11.2963,4.04914,14.83419,6.01747,-7.84419,-33.78889,1.06301,0.00029,-11.25888,-0.59675,-6e-05,40.42839,12.30082,2.26376,2.52588,-1.97725,-13.30609,32.56731,5.36027,-11.26678,29.031,-12.08231,21.53703,123.28355,0.00585,-83.07365,135.0293,0.00743,81.83614,6.3169,4.02288,0.00319,-0.9489,0.80807,0.00236,-15.57461,0.0369,0.64775,-37.30558,-0.20556,0.61538,-1.19741,-1.27685,8.75348
1510,-6.34711,0.0,-0.0,-4.89793,0.0,-0.0,-15.20481,-11.59742,4.66872,14.57052,6.40369,-7.71512,-34.18859,1.00185,0.00071,-11.1418,-0.71097,-6e-05,40.12292,12.2944,2.21024,2.45265,-1.98297,-13.29826,32.50424,5.33391,-11.50578,29.0732,-12.13666,21.90045,123.79402,0.00111,-83.43999,134.55066,0.00845,83.9641,5.68096,4.19068,0.00645,-1.77777,0.36508,-0.00077,-15.47462,-0.04547,0.57911,-37.20597,-0.25666,0.52111,-1.24963,-1.23818,8.90151
1511,-6.8763,-0.0,0.0,-4.78742,0.0,0.0,-14.8027,-11.491,5.07121,14.36898,6.62386,-7.65975,-34.49322,0.93116,0.00034,-10.92621,-0.74159,0.00027,39.8835,12.22289,2.14432,2.43375,-2.03585,-13.26643,32.50311,5.33781,-11.54883,29.12404,-12.12358,22.33626,124.20419,-0.00156,-83.28603,134.11275,0.00159,85.57951,4.85187,4.06018,0.01136,-2.6594,0.46182,-0.00449,-15.3839,-0.34042,0.58987,-37.11597,-0.53463,0.4219,-1.09361,-1.19409,8.8781
1512,-7.32995,-0.0,-0.0,-4.55763,0.0,0.0,-14.41526,-11.0758,5.01957,14.20442,6.48922,-7.5116,-34.74307,0.97402,-0.00036,-10.67289,-0.68073,0.00037,39.74,12.16033,2.21008,2.4984,-2.10079,-13.24971,32.60086,5.36974,-11.35351,29.1497,-12.04727,22.61127,124.53245,-0.0028,-82.663,133.77766,-0.00449,85.87627,4.51909,3.23921,-0.00287,-3.12649,0.88467,-0.00169,-15.30939,-0.65931,0.71021,-37.04259,-0.87542,0.4156,-0.72007,-1.15319,8.795
1513,-7.44444,-0.0,0.0,-4.14754,0.0,-0.0,-13.9422,-10.69704,4.60001,14.02552,6.22652,-7.19805,-34.96874,1.13799,-0.00062,-10.43712,-0.61877,0.0001,39.60984,12.20899,2.36065,2.5726,-2.07388,-13.29105,32.75787,5.44084,-10.96208,29.10085,-11.91894,22.6444,124.81042,-0.00382,-81.58082,133.62868,-0.00341,85.11372,5.35513,2.01522,-0.02892,-3.04224,1.2615,0.00171,-15.17601,-0.77019,0.98465,-36.90898,-1.08002,0.6295,-0.30256,-1.08443,8.78045
1514,-7.28505,0.0,0.0,-3.89426,0.0,-0.0,-13.2584,-10.53101,4.11808,13.86529,6.16131,-6.80506,-35.12791,1.32222,-0.00024,-10.20405,-0.59883,-0.0001,39.36899,12.34659,2.44705,2.53195,-1.94655,-13.40343,32.87703,5.59768,-10.55279,28.94778,-11.7726,22.55203,125.02058,-0.00289,-80.33749,133.67499,-0.00057,84.35143,6.84779,1.27037,-0.03308,-2.61696,1.32952,0.00073,-14.9516,-0.63238,1.39031,-36.6814,-1.1022,1.0574,-0.03824,-0.97864,8.84739
1515,-7.02142,0.0,-0.0,-4.15717,0.0,-0.0,-12.35892,-10.53215,3.83395,13.8235,6.34765,-6.46528,-35.15737,1.43846,0.00022,-9.95552,-0.58944,-7e-05,39.00447,12.47966,2.44776,2.37198,-1.81328,-13.52489,32.86063,5.86345,-10.41044,28.72212,-11.68115,22.45032,125.11572,-0.00138,-79.5442,133.79141,-0.00011,84.31998,7.48654,1.7891,-0.03957,-2.12347,0.98184,-0.00166,-14.71041,-0.42581,1.77209,-36.43562,-1.05163,1.48859,0.0622,-0.86517,8.9347
1516,-6.97191,-0.0,0.0,-4.89828,0.0,0.0,-11.34772,-10.59772,3.78706,13.93221,6.63221,-6.26682,-35.02834,1.47343,0.00042,-9.72968,-0.55605,3e-05,38.59643,12.56631,2.46078,2.20938,-1.75386,-13.54101,32.69201,6.17454,-10.62353,28.51994,-11.70867,22.32402,125.15086,-0.00163,-79.44803,133.83917,-0.00046,84.69741,6.81759,3.25276,-0.04819,-1.77346,0.2754,-0.00148,-14.55015,-0.3213,1.92913,-36.27305,-1.01267,1.67318,0.13823,-0.77354,9.02465
1517,-7.21709,0.0,-0.0,-5.57199,0.0,0.0,-10.42649,-10.61892,3.83562,14.08054,6.87143,-6.20478,-34.72748,1.45505,0.00025,-9.56718,-0.49313,6e-05,38.19404,12.61662,2.54393,2.13666,-1.7807,-13.42336,32.49305,6.40679,-10.9062,28.4246,-11.81583,22.13211,125.3064,-0.00223,-79.71763,133.83191,-0.00164,84.78864,6.2783,4.25301,-0.04094,-1.68483,-0.48134,-0.00017,-14.50196,-0.31594,1.78406,-36.22634,-0.954,1.54038,0.30612,-0.71465,9.14834
1518,-7.40798,0.0,-0.0,-5.66418,0.0,-0.0,-9.74377,-10.55625,3.8828,14.1383,7.0137,-6.17064,-34.24692,1.3869,-0.00041,-9.45297,-0.41702,2e-05,37.77884,12.67168,2.64003,2.14901,-1.84168,-13.28634,32.42025,6.47074,-10.90435,28.41718,-11.87133,21.90384,125.70457,-0.00055,-80.0842,133.89627,-0.00255,84.51299,7.31364,3.81547,-0.05678,-1.7884,-0.84488,-0.00088,-14.51345,-0.31448,1.45673,-36.24076,-0.83147,1.23681,0.57731,-0.67016,9.31617
1519,-7.1489,0.0,-0.0,-5.24669,0.0,0.0,-9.21407,-10.47679,4.01138,14.06826,7.11547,-5.99345,-33.61561,1.26266,-0.00092,-9.33955,-0.35797,-6e-05,37.32812,12.78255,2.65688,2.19358,-1.85609,-13.29361,32.47339,6.38816,-10.63028,28.3925,-11.81044,21.65577,126.27296,0.00413,-80.71291,134.10335,-0.00121,84.10377,9.50897,2.48547,-0.0527,-1.8459,-0.65946,-0.00094,-14.48607,-0.28129,1.17959,-36.21521,-0.69805,0.99163,0.89242,-0.59818,9.50245
1520,-6.1933,-0.0,-0.0,-4.68495,-0.0,0.0,-8.64288,-10.40979,4.359,13.87337,7.27112,-5.55971,-32.90582,1.14035,-0.00026,-9.18855,-0.33253,-0.0001,36.86116,12.9158,2.58285,2.22585,-1.80526,-13.52701,32.50569,6.27615,-10.42716,28.24729,-11.70995,21.3627,126.81868,0.00581,-81.59348,134.43449,0.00292,83.44681,11.24964,1.54701,-0.01069,-1.69448,-0.15402,0.00092,-14.34525,-0.2459,1.13884,-36.07449,-0.65008,0.96687,1.19521,-0.49231,9.66244
1521,-4.61952,0.0,0.0,-4.29687,0.0,-0.0,-7.93094,-10.28845,4.9988,13.61939,7.469,-4.9967,-32.19015,1.08652,0.00048,-8.98879,-0.31455,-0.0,36.40029,12.94563,2.4602,2.2119,-1.76474,-13.86474,32.42973,6.24944,-10.54728,27.93452,-11.65889,21.0647,127.17102,0.00329,-82.06316,134.86128,0.00489,82.53589,11.57108,1.69825,0.00462,-1.4509,0.40827,0.00144,-14.07899,-0.20051,1.34255,-35.80663,-0.68334,1.17293,1.47418,-0.41413,9.74767
1522,-3.15172,0.0,-0.0,-4.48996,0.0,0.0,-7.05386,-10.08875,5.92092,13.50106,7.60527,-4.63545,-31.50822,1.0506,-0.00032,-8.76798,-0.26504,0.00014,35.91982,12.8309,2.29842,2.12481,-1.79703,-14.03255,32.30364,6.32949,-10.93831,27.50989,-11.66203,20.85355,127.2787,0.0027,-81.84402,135.35172,0.00038,81.93565,10.6693,2.78125,-0.01192,-1.31454,0.81393,-0.00028,-13.70261,-0.09263,1.6098,-35.42751,-0.68205,1.46115,1.72234,-0.40939,9.7551
1523,-2.60728,-0.0,0.0,-5.39139,0.0,-0.0,-6.04159,-9.91109,6.92801,13.63714,7.61479,-4.64917,-30.87552,0.96491,-0.00121,-8.58109,-0.19185,0.00012,35.39273,12.6976,2.13595,1.9784,-1.85427,-13.90057,32.2386,6.44091,-11.3639,27.14849,-11.70756,20.71207,127.24239,0.00313,-81.73827,135.83368,-0.00455,82.05571,9.28642,4.09735,-0.01831,-1.2278,0.77494,-0.00364,-13.21196,0.09239,1.72122,-34.93499,-0.5514,1.63314,1.89643,-0.42126,9.74518
1524,-2.91574,0.0,0.0,-6.36659,0.0,-0.0,-5.03743,-9.88076,7.66839,13.86427,7.46619,-4.89301,-30.28073,0.91931,-8e-05,-8.4635,-0.12819,0.0,34.83879,12.64982,2.09483,1.82374,-1.86023,-13.60744,32.31137,6.4984,-11.58969,27.02384,-11.79585,20.51209,127.20273,0.00332,-81.9173,136.23177,-0.00336,82.48444,8.38002,4.75782,-0.01235,-1.02094,0.123,-0.00693,-12.62988,0.32471,1.59915,-34.35356,-0.2904,1.60574,1.96197,-0.37103,9.77181
1525,-3.33074,0.0,0.0,-6.67478,0.0,-0.0,-4.22632,-9.97684,7.96351,13.94135,7.1282,-5.15871,-29.67195,1.033,0.00187,-8.40262,-0.06695,-2e-05,34.28461,12.62056,2.23649,1.69931,-1.84607,-13.3254,32.50835,6.49396,-11.55252,27.17212,-11.86696,20.24126,127.18002,0.00453,-81.15794,136.52794,0.00029,82.5983,8.64649,4.38213,-0.01981,-0.84652,-0.92358,-0.00401,-12.10132,0.56473,1.3634,-33.82714,0.01983,1.47558,1.96315,-0.29078,9.82278
1526,-3.4069,0.0,-0.0,-6.39461,0.0,-0.0,-3.68405,-10.0232,7.97847,13.86918,6.67809,-5.37836,-29.00909,1.22593,0.00182,-8.36962,0.01814,2e-05,33.74973,12.49437,2.44517,1.62115,-1.91321,-13.09496,32.71059,6.49451,-11.41045,27.5238,-11.81297,20.08842,127.10558,0.0055,-79.31284,136.74561,0.00146,82.41846,9.70616,3.49096,-0.02214,-1.05837,-1.87064,0.00158,-11.83104,0.75223,1.22952,-33.55827,0.24357,1.42062,2.00891,-0.28181,9.82303
1527,-3.2609,0.0,-0.0,-6.2091,0.0,0.0,-3.34086,-9.90645,8.0027,13.86859,6.34362,-5.58124,-28.33108,1.29677,-0.00024,-8.36743,0.11186,1e-05,33.26908,12.26103,2.54463,1.59277,-2.09454,-12.91686,32.80167,6.56353,-11.34507,27.97367,-11.5979,20.18362,126.95667,0.00182,-78.27003,136.88992,0.00079,82.47749,10.44071,2.80928,-0.00923,-1.62246,-2.34713,0.00126,-11.86578,0.8303,1.31088,-33.59237,0.28598,1.52509,2.16886,-0.37834,9.67635
1528,-3.13691,0.0,0.0,-6.45442,0.0,-0.0,-3.06101,-9.72555,8.15584,14.07114,6.30095,-5.79966,-27.71128,1.18943,-0.00128,-8.42248,0.171,-3e-05,32.86973,11.9865,2.49658,1.60472,-2.32494,-12.84304,32.79007,6.70003,-11.3547,28.36833,-11.3127,20.36921,126.75225,-0.0026,-79.2127,136.95277,0.00076,83.12475,10.34763,2.41534,0.00063,-2.0186,-2.3679,-0.00061,-11.9898,0.81972,1.52174,-33.71417,0.1981,1.71704,2.41158,-0.52637,9.34963
1529,-3.11571,-0.0,-0.0,-6.78341,0.0,0.0,-2.73634,-9.67567,8.32852,14.34979,6.49111,-6.03822,-27.15434,1.04339,-0.0003,-8.52732,0.17113,-6e-05,32.52703,11.724,2.40915,1.62723,-2.51142,-12.9344,32.77267,6.8538,-11.33792,28.56347,-11.08992,20.37109,126.47153,-0.00049,-81.05068,136.95457,0.00103,84.05386,9.86938,1.9735,0.00319,-1.77278,-2.20905,-0.00054,-11.89264,0.81916,1.69367,-33.61501,0.13395,1.87654,2.64717,-0.65721,8.92216
1530,-3.1789,0.0,0.0,-6.82748,-0.0,-0.0,-2.33437,-9.84294,8.38737,14.5186,6.71526,-6.27897,-26.58609,0.96366,0.0006,-8.63779,0.10571,-0.00012,32.16191,11.50475,2.36053,1.61721,-2.59712,-13.17729,32.79688,6.97482,-11.31296,28.56047,-10.98485,20.1298,126.07488,0.00555,-82.3035,136.91728,-0.00021,84.46917,9.48332,1.46364,0.00184,-0.89837,-2.10408,-0.00141,-11.47136,0.90189,1.70649,-33.19367,0.20606,1.91907,2.80966,-0.74141,8.53086
1531,-3.30067,0.0,0.0,-6.71366,0.0,-0.0,-1.88342,-10.13646,8.37003,14.5704,6.84091,-6.46673,-25.94048,0.88903,5e-05,-8.75056,-0.02348,-0.00017,31.70825,11.33347,2.3553,1.5773,-2.62056,-13.48144,32.82154,7.02388,-11.41649,28.50517,-10.96833,19.85848,125.57172,0.00431,-82.98489,136.80247,-0.00302,83.96558,9.23583,1.15447,4e-05,0.10773,-2.15585,-0.00241,-10.93347,1.03981,1.51103,-32.65838,0.40652,1.78856,2.91626,-0.81561,8.27848
1532,-3.38032,0.0,-0.0,-6.66735,-0.0,0.0,-1.44329,-10.37728,8.39403,14.59981,6.86353,-6.51237,-25.2355,0.75009,-0.00063,-8.92374,-0.18903,-0.00017,31.19245,11.16476,2.44504,1.5725,-2.69488,-13.78384,32.82045,6.96339,-11.6788,28.52394,-11.0178,19.81212,124.98939,-0.00579,-83.934,136.52501,-0.0031,83.11897,9.1709,1.01012,-0.00372,0.60459,-2.46822,0.00134,-10.53149,1.149,1.15973,-32.26051,0.63798,1.50269,3.03134,-0.94149,8.16123
1533,-3.29993,0.0,-0.0,-6.65156,-0.0,0.0,-1.0707,-10.43152,8.50683,14.64478,6.84907,-6.39171,-24.55901,0.5781,-0.00042,-9.20031,-0.3586,-6e-05,30.71422,10.96213,2.69544,1.65275,-2.86473,-14.07867,32.84814,6.78449,-11.9277,28.62003,-11.15633,20.056,124.31472,-0.01156,-85.22953,136.04173,0.00281,82.83134,9.51583,0.59227,-0.01264,0.2751,-3.09696,0.00911,-10.24947,1.18934,0.80594,-31.98175,0.80641,1.18902,3.17271,-1.11371,8.09049
1534,-3.19082,0.0,0.0,-6.6472,0.0,-0.0,-0.75417,-10.28141,8.74116,14.72201,6.88782,-6.24794,-23.97979,0.39846,-0.00023,-9.56744,-0.54447,0.00038,30.33474,10.74974,3.03749,1.80212,-3.05809,-14.30309,32.9673,6.54693,-11.97722,28.72355,-11.38548,20.43145,123.54457,-0.00277,-86.01743,135.42943,0.00786,83.29527,10.12714,-0.31804,-0.01742,-0.6273,-3.78313,0.00932,-9.86314,1.20043,0.57589,-31.5971,0.90188,0.97945,3.2994,-1.28299,8.00815
1535,-3.3432,0.0,-0.0,-6.70742,0.0,0.0,-0.43686,-9.98273,9.122,14.85738,7.04833,-6.32464,-23.49257,0.2014,-0.00036,-9.98232,-0.77801,0.00083,30.02199,10.53458,3.3195,1.95655,-3.20799,-14.32607,33.15954,6.35718,-11.81852,28.77312,-11.63272,20.69707,122.75312,0.01123,-85.56409,134.88052,0.00574,83.91539,10.26807,-1.31033,-0.01193,-1.49254,-4.01627,0.00196,-9.25121,1.25582,0.46779,-30.98616,0.99336,0.89956,3.37254,-1.45134,7.90777
1536,-3.751,0.0,0.0,-6.65754,0.0,0.0,-0.13539,-9.59425,9.58427,15.00969,7.26772,-6.77151,-23.06083,0.03285,-0.00019,-10.39259,-1.02225,0.00045,29.72656,10.25112,3.48547,2.0545,-3.33696,-14.07073,33.33348,6.27989,-11.56025,28.78631,-11.80777,20.7231,122.06841,0.01232,-84.16631,134.56459,0.00167,84.06788,9.57883,-1.85053,-0.01169,-1.85167,-3.54804,0.00054,-8.5108,1.39845,0.41287,-30.24707,1.14618,0.90138,3.39062,-1.659,7.77487
1537,-4.11014,0.0,0.0,-6.28014,0.0,-0.0,0.06533,-9.20079,10.03449,15.09545,7.35922,-7.52307,-22.68909,-0.02753,0.00018,-10.75852,-1.183,-0.00067,29.46586,9.85089,3.5948,2.0958,-3.49832,-13.56757,33.41443,6.28997,-11.2678,28.8839,-11.87355,20.59389,121.5964,0.00331,-82.68209,134.44612,-0.00025,83.71347,8.87745,-1.94402,-0.01219,-1.716,-2.63295,0.00324,-7.80736,1.62302,0.36882,-29.54571,1.37109,0.94365,3.37506,-1.91102,7.60139
1538,-4.25358,0.0,-0.0,-5.67396,-0.0,0.0,0.14115,-8.90944,10.39164,15.09544,7.30029,-8.33673,-22.41257,0.04496,0.00029,-11.09296,-1.25248,-0.00124,29.28972,9.3695,3.73037,2.13924,-3.69415,-12.98219,33.43913,6.31546,-10.9804,29.15308,-11.85199,20.49484,121.33993,-0.00142,-81.20545,134.30887,-0.00146,83.2242,9.14987,-1.93573,-0.00046,-1.44408,-1.65799,0.00182,-7.21374,1.90822,0.30302,-28.95529,1.66036,0.98822,3.33986,-2.17575,7.39955
1539,-4.26279,0.0,0.0,-5.07259,0.0,-0.0,0.16192,-8.73372,10.57058,15.0631,7.3709,-8.94755,-22.21077,0.20992,0.00021,-11.46994,-1.36142,-0.00034,29.18264,8.86336,3.93189,2.23994,-3.89153,-12.60232,33.53612,6.28327,-10.84665,29.4943,-11.818,20.48794,121.20262,-0.00093,-79.50412,133.99086,-0.00115,82.90019,10.16513,-1.89306,0.02154,-1.32606,-0.83856,-0.00154,-6.67376,2.22443,0.1638,-28.41995,2.00562,0.97612,3.29408,-2.42888,7.18945
1540,-4.25271,0.0,0.0,-4.54924,0.0,0.0,0.21046,-8.58074,10.60129,15.04998,7.7791,-9.23649,-22.00448,0.3967,0.00014,-11.96864,-1.62079,0.00129,29.05418,8.36985,4.14522,2.41191,-4.07208,-12.6169,33.75315,6.13285,-11.10856,29.71381,-11.8709,20.46722,121.10628,-0.0005,-78.64143,133.52103,0.00097,82.87064,10.72291,-1.51669,0.02959,-1.3463,-0.3007,-0.00232,-6.07945,2.48618,-0.03988,-27.83053,2.32413,0.88402,3.26137,-2.65049,7.0435
1541,-4.25335,-0.0,0.0,-4.06513,-0.0,0.0,0.32126,-8.37504,10.62861,15.06498,8.32539,-9.29745,-21.76055,0.54891,1e-05,-12.60297,-1.97753,0.00165,28.8342,7.93608,4.26757,2.63515,-4.23447,-12.89586,33.95668,5.8546,-11.90956,29.7439,-12.03632,20.34347,121.05879,0.00141,-80.27811,133.04657,0.002,83.07854,9.68885,-0.48435,-0.01252,-1.30755,-0.03738,-0.00097,-5.38931,2.56432,-0.19562,-27.14244,2.45437,0.76837,3.26251,-2.80879,7.06397
1542,-4.25589,0.0,0.0,-3.66145,-0.0,-0.0,0.4956,-8.122,10.69246,15.1207,8.66442,-9.36816,-21.51774,0.655,-0.00015,-13.32522,-2.29186,0.00041,28.54723,7.60178,4.27342,2.89385,-4.38438,-13.09817,34.00005,5.52281,-13.10584,29.68937,-12.22375,20.18069,121.08442,0.00518,-84.28561,132.7049,0.00128,83.31763,6.79004,1.30978,-0.08353,-1.13163,0.16017,0.0005,-4.67615,2.42336,-0.23516,-26.42727,2.33809,0.67936,3.29388,-2.89369,7.25045
1543,-4.27123,0.0,0.0,-3.48216,-0.0,-0.0,0.73245,-7.89879,10.68664,15.2626,8.74459,-9.63035,-21.30577,0.7328,-0.00022,-14.07593,-2.51091,-0.00055,28.28305,7.35261,4.22465,3.19936,-4.53001,-13.01889,33.93404,5.2351,-14.28383,29.68019,-12.35466,20.10514,121.14839,0.00441,-88.36736,132.5313,0.00076,83.46349,3.23513,3.59048,-0.08933,-1.02081,0.37589,0.00172,-4.07021,2.20448,-0.27947,-25.81833,2.15119,0.55704,3.34532,-2.94007,7.47468
1544,-4.30112,-0.0,-0.0,-3.53427,0.0,0.0,0.98784,-7.80378,10.52297,15.48467,8.75959,-9.99977,-21.10658,0.81034,-0.00012,-14.79318,-2.6951,-0.0003,28.10963,7.11903,4.19074,3.5545,-4.68671,-12.79777,33.95517,5.01458,-15.06286,29.75368,-12.47436,20.13506,121.20276,0.00075,-90.35557,132.4411,0.00045,83.39996,1.14347,5.54027,-0.02223,-1.26036,0.3697,0.00492,-3.65416,2.09167,-0.52667,-25.40138,2.13794,0.28561,3.417,-3.00404,7.6166
1545,-4.33318,0.0,0.0,-3.58303,-0.0,-0.0,1.15058,-7.87579,10.20043,15.67704,8.7775,-10.21512,-20.89237,0.92181,0.00014,-15.43096,-2.89487,0.00023,28.03281,6.83206,4.22635,3.93702,-4.87693,-12.72802,34.19646,4.81736,-15.40558,29.8992,-12.64312,20.16422,121.27297,-0.00036,-90.35802,132.31206,-0.001,82.90701,1.51771,6.22185,0.003,-1.75648,-0.05422,0.00719,-3.3902,2.1164,-1.0141,-25.13798,2.3414,-0.158,3.50449,-3.12656,7.6609
1546,-4.38343,-0.0,-0.0,-3.44873,0.0,0.0,1.14156,-8.09118,9.7659,15.73261,8.68762,-10.19617,-20.67111,1.08387,0.00033,-16.02396,-3.07847,0.0002,28.02358,6.4994,4.36565,4.33288,-5.08893,-12.88791,34.62559,4.62181,-15.58003,30.13332,-12.79585,20.10283,121.41574,0.00267,-90.11269,132.09061,-0.00282,81.95627,3.25416,5.50155,-0.01527,-1.95021,-0.6809,0.00323,-3.16034,2.15478,-1.56556,-24.90729,2.58123,-0.6561,3.57842,-3.28831,7.63814
1547,-4.46351,-0.0,0.0,-3.23195,0.0,-0.0,1.00471,-8.39964,9.30949,15.66829,8.47719,-10.15917,-20.4835,1.26112,0.00021,-16.68928,-3.18784,-0.00034,28.0431,6.19839,4.57697,4.73799,-5.2736,-13.06449,35.10099,4.45218,-15.85592,30.47103,-12.83682,19.97917,121.59319,0.00652,-90.46592,131.82869,-0.00251,80.80721,4.64281,4.35392,-0.00856,-1.48124,-1.09396,0.00037,-2.8775,2.08983,-1.96021,-24.62117,2.66701,-1.04688,3.58818,-3.40923,7.53621
1548,-4.49599,-0.0,-0.0,-3.07626,-0.0,0.0,0.84677,-8.68882,8.94467,15.57936,8.31106,-10.32043,-20.34824,1.37694,-8e-05,-17.52601,-3.21334,-0.00075,28.04669,5.96877,4.76382,5.13972,-5.42539,-13.03758,35.50077,4.30862,-16.32264,30.88329,-12.80529,19.87579,121.69045,0.00735,-90.34978,131.63879,-0.00012,79.7435,5.19154,4.02443,0.00898,-0.68361,-1.15035,0.00122,-2.52743,1.92081,-2.11839,-24.26706,2.56857,-1.25655,3.49653,-3.44026,7.3338
1549,-4.28824,0.0,0.0,-2.85985,-0.0,0.0,0.70958,-8.77659,8.67551,15.49029,8.29105,-10.61716,-20.22444,1.38993,-0.00027,-18.52588,-3.20604,-0.00032,28.00267,5.76559,4.88256,5.53506,-5.60313,-12.8475,35.80666,4.13327,-16.96869,31.3179,-12.81652,19.79007,121.71512,0.0023,-88.41027,131.60686,0.00151,79.01,5.50386,4.80941,0.01741,-0.15339,-1.05442,0.00105,-2.14276,1.74576,-2.13289,-23.87944,2.41134,-1.33491,3.32886,-3.42643,7.08649
1550,-3.74953,0.0,0.0,-2.37956,0.0,0.0,0.56399,-8.55049,8.36602,15.31995,8.27089,-10.84111,-20.04687,1.3479,-0.00019,-19.57534,-3.21645,0.00027,27.9048,5.53622,5.00678,5.92774,-5.83421,-12.68136,36.05329,3.89249,-17.77361,31.72388,-12.88997,19.60906,121.87399,-0.0072,-85.17273,131.72911,0.00062,78.86836,5.99068,5.78961,0.01327,-0.12248,-1.02874,0.00064,-1.77841,1.68437,-2.1568,-23.51394,2.36316,-1.37989,3.16543,-3.4375,6.89446
1551,-3.20836,0.0,-0.0,-1.77422,0.0,-0.0,0.42444,-8.12891,7.95618,15.02288,8.00786,-10.99007,-19.79466,1.33561,0.00019,-20.54481,-3.2289,-2e-05,27.76127,5.28796,5.19576,6.29638,-6.05566,-12.53853,36.22258,3.65226,-18.63877,32.06154,-12.95085,19.25053,122.34338,-0.00072,-82.88754,131.9352,-0.00051,79.32027,6.45327,5.92742,0.00309,-0.37072,-1.07579,0.0007,-1.4653,1.78863,-2.28658,-23.20127,2.50805,-1.46185,3.05203,-3.47668,6.79178
1552,-3.11831,0.0,0.0,-1.40647,-0.0,-0.0,0.33492,-7.78849,7.54778,14.66474,7.49293,-11.22441,-19.50272,1.38055,0.00052,-21.40591,-3.21807,-0.00014,27.5967,5.07201,5.40216,6.63906,-6.18398,-12.25736,36.25275,3.51699,-19.35572,32.31539,-12.95444,18.80565,123.0575,0.01595,-82.8343,132.16336,0.00044,79.90051,6.6978,5.16617,-0.00126,-0.5205,-1.08126,0.00066,-1.16765,1.98569,-2.49946,-22.90489,2.76989,-1.58664,2.9609,-3.49531,6.72908
1553,-3.35068,0.0,0.0,-1.35434,0.0,-0.0,0.23439,-7.6956,7.21974,14.31445,7.00646,-11.51395,-19.19129,1.4246,0.00029,-22.25241,-3.22145,0.00095,27.45116,4.92252,5.55595,7.0299,-6.22799,-11.84832,36.15368,3.51755,-19.79868,32.49263,-12.90506,18.48395,123.79013,0.01375,-83.89795,132.37386,0.00165,80.2526,6.77593,4.29021,-0.00156,-0.40681,-1.05906,0.00033,-0.81391,2.12293,-2.66545,-22.55194,2.95881,-1.69002,2.86674,-3.47528,6.63985
1554,-3.34619,-0.0,-0.0,-1.40325,0.0,-0.0,0.01333,-7.7758,6.966,13.97812,6.81539,-11.67755,-18.81619,1.38822,-0.00049,-23.20338,-3.25692,0.00183,27.33898,4.79871,5.62409,7.55962,-6.31326,-11.47778,36.05087,3.59267,-20.11867,32.61766,-12.80557,18.37414,124.33681,0.0006,-84.46524,132.52417,0.00151,80.60609,6.64415,3.98462,-0.00281,-0.18493,-1.13114,-0.00022,-0.36698,2.10385,-2.70271,-22.10423,2.95487,-1.73173,2.80322,-3.47443,6.5042
1555,-2.99948,0.0,0.0,-1.43453,0.0,0.0,-0.30485,-7.82948,6.79374,13.62462,6.94544,-11.71106,-18.33119,1.26969,-0.00102,-24.31625,-3.24917,0.00073,27.2195,4.60539,5.5963,8.23374,-6.56473,-11.16547,36.08747,3.65803,-20.60085,32.72632,-12.6725,18.30873,124.61507,-0.00417,-84.38071,132.61417,0.00086,81.16357,6.18972,4.22445,-0.00445,-0.03368,-1.29015,-0.00032,0.12225,1.97185,-2.73811,-21.61211,2.84537,-1.81358,2.80487,-3.57218,6.37424
1556,-2.80022,0.0,0.0,-1.41901,0.0,-0.0,-0.58857,-7.70318,6.69034,13.18685,7.25035,-11.78671,-17.77988,1.16067,-0.00055,-25.57112,-3.12446,-0.00133,27.05271,4.30941,5.50451,8.9748,-6.95886,-10.77912,36.31385,3.67082,-21.31745,32.84638,-12.54613,18.06715,124.66882,-0.00191,-84.34491,132.71904,0.00027,81.66825,5.59646,4.50807,-0.00146,0.05691,-1.38082,-0.00027,0.52521,1.84652,-2.98676,-21.20372,2.82095,-2.09118,2.8401,-3.76287,6.31322
1557,-3.13099,0.0,0.0,-1.16376,0.0,-0.0,-0.75037,-7.40744,6.57361,12.59586,7.57392,-11.98881,-17.28311,1.14204,0.00022,-26.90969,-2.90463,-0.00239,26.87335,4.00423,5.4149,9.72377,-7.34242,-10.25926,36.68609,3.64438,-22.0319,32.98865,-12.44369,17.67647,124.57256,0.00113,-84.57666,132.89635,2e-05,81.89376,5.25296,4.53206,0.00325,0.17418,-1.35445,-0.00065,0.74487,1.79901,-3.44313,-20.97635,2.94566,-2.53307,2.84925,-3.93776,6.30458
1558,-3.88631,-0.0,0.0,-0.49534,0.0,0.0,-0.78004,-7.14356,6.41599,11.8872,7.84341,-12.24288,-16.92434,1.19788,0.00046,-28.29629,-2.66045,-0.00228,26.75052,3.79202,5.34288,10.48955,-7.6228,-9.66819,37.13708,3.6234,-22.45306,33.18021,-12.34137,17.37753,124.33608,0.00196,-84.86993,133.09952,-6e-05,81.88558,5.23106,4.59728,0.00364,0.35859,-1.33913,-0.00145,0.81257,1.81268,-3.84898,-20.90178,3.10847,-2.90538,2.81118,-4.01199,6.25905
1559,-4.63733,0.0,0.0,0.3971,0.0,-0.0,-0.74862,-7.10316,6.24994,11.19526,8.09783,-12.41959,-16.65524,1.26951,0.00059,-29.7145,-2.45903,-0.001,26.6878,3.64247,5.27691,11.29485,-7.86528,-9.14287,37.63111,3.65169,-22.50974,33.48114,-12.20314,17.32798,123.93909,-0.00135,-85.29564,133.23492,-0.00028,81.7272,5.11922,5.30891,-0.00648,0.49957,-1.31871,-0.00243,0.85216,1.85247,-4.03341,-20.85945,3.21363,-3.06215,2.74478,-4.03187,6.11264
1560,-5.03422,0.0,0.0,1.11661,0.0,0.0,-0.7825,-7.22113,6.03707,10.57494,8.41379,-12.41697,-16.33943,1.33106,0.00091,-31.10913,-2.35226,0.00082,26.61993,3.47175,5.26079,12.12398,-8.15002,-8.82753,38.15941,3.74505,-22.36591,33.90564,-12.00692,17.45538,123.42652,-0.00559,-86.0904,133.2653,-0.00052,81.49296,4.50383,6.78296,-0.02171,0.38815,-1.04102,-0.00441,0.96204,1.92547,-4.10978,-20.74958,3.30968,-3.10614,2.68533,-4.08706,5.89804
1561,-5.19746,0.0,0.0,1.45511,0.0,0.0,-0.90796,-7.27407,5.77622,9.92704,8.77058,-12.22386,-15.89419,1.34388,0.00058,-32.4148,-2.33423,0.00169,26.49916,3.30193,5.29326,12.95617,-8.43965,-8.72695,38.68945,3.8827,-22.22215,34.36494,-11.74636,17.56917,122.93378,-0.00391,-87.09187,133.22661,-0.00037,81.33418,3.45807,8.32688,-0.01906,0.0716,-0.48622,-0.00518,1.12773,2.04574,-4.25925,-20.58348,3.47669,-3.2006,2.67674,-4.18056,5.69931
1562,-5.48701,0.0,-0.0,1.51907,0.0,-0.0,-1.02365,-7.14319,5.60946,9.14686,9.01863,-11.8962,-15.35467,1.22361,-0.0008,-33.63804,-2.35566,0.00179,26.34657,3.22603,5.27637,13.8153,-8.66089,-8.73028,39.14691,4.05461,-22.13309,34.77282,-11.42374,17.5428,122.5919,0.00252,-87.82941,133.1561,-0.00028,81.33076,2.40803,9.10089,-0.00101,-0.06388,-0.08262,-0.00416,1.25721,2.18596,-4.49595,-20.45222,3.69445,-3.36881,2.74747,-4.26937,5.53442
1563,-6.03738,0.0,-0.0,1.57875,0.0,0.0,-1.05952,-6.88174,5.61832,8.25008,9.00787,-11.52917,-14.80493,0.94546,-0.00187,-34.82822,-2.37055,0.00158,26.19534,3.26675,5.17953,14.70604,-8.81161,-8.74195,39.47943,4.30682,-22.00873,35.14961,-11.06694,17.39327,122.37754,0.00625,-88.16616,133.03053,-0.00114,81.29807,1.66243,8.89372,0.00888,0.26418,-0.16272,-0.00542,1.32264,2.30211,-4.72669,-20.38447,3.88765,-3.54044,2.8552,-4.3461,5.34012
1564,-6.78913,0.0,-0.0,1.77868,0.0,0.0,-1.03828,-6.66064,5.65781,7.33636,8.7784,-11.26455,-14.30353,0.63816,-0.00126,-36.00021,-2.3262,0.00068,26.007,3.33993,5.13743,15.52598,-8.94668,-8.67045,39.71413,4.69142,-21.78462,35.56001,-10.7153,17.22587,122.096,0.00167,-88.54263,132.82076,-0.0019,81.0947,1.20642,8.2053,0.00559,0.89435,-0.4528,-0.00502,1.42021,2.37271,-4.89312,-20.28482,4.01475,-3.66913,2.8808,-4.42002,5.10088
1565,-7.56293,-0.0,0.0,1.93411,0.0,0.0,-1.02513,-6.66415,5.50242,6.50092,8.55783,-11.16484,-13.88073,0.49926,0.00041,-37.15055,-2.17818,-0.0008,25.70975,3.33134,5.34762,16.15431,-9.14198,-8.44198,39.92614,5.18494,-21.53564,36.03548,-10.35231,17.14628,121.54478,-0.01086,-89.4712,132.57776,-0.00064,81.02831,0.83492,7.89618,-0.00278,1.41681,-0.37268,-0.00226,1.62578,2.39659,-4.95292,-20.07845,4.05903,-3.71593,2.73513,-4.49176,4.90642
1566,-8.09278,0.0,-0.0,1.74748,-0.0,-0.0,-1.05559,-6.89854,5.13196,5.75953,8.47616,-11.14886,-13.54617,0.59226,0.00133,-38.28824,-1.91923,-0.00242,25.32943,3.19743,5.83208,16.62315,-9.45168,-8.08247,40.17575,5.68153,-21.37181,36.56208,-9.94852,17.20793,120.70797,-0.01647,-90.81503,132.39407,0.00086,81.39799,0.43442,8.59606,-0.00715,1.64918,0.29173,-0.00085,1.84752,2.39502,-4.84283,-19.85927,4.01689,-3.61406,2.4753,-4.56275,4.82033
1567,-8.23883,-0.0,0.0,1.21304,0.0,-0.0,-1.10487,-7.13066,4.78426,5.01448,8.42295,-11.11713,-13.26962,0.75981,0.00081,-39.39612,-1.59452,-0.00277,24.99302,3.01731,6.32244,17.09409,-9.82731,-7.71838,40.47605,6.05169,-21.2966,37.05435,-9.58736,17.38716,119.84438,-0.00536,-91.7265,132.3111,0.00084,81.86462,0.1565,9.96494,-0.0003,1.7592,1.19256,0.00075,1.93009,2.42161,-4.59871,-19.78291,3.95137,-3.37705,2.25462,-4.62465,4.7712
1568,-8.06414,0.0,0.0,0.60711,-0.0,0.0,-1.16571,-7.14154,4.66174,4.15207,8.29301,-11.01696,-12.99572,0.78562,-0.0004,-40.42102,-1.31622,-0.00092,24.78626,2.9329,6.53624,17.67456,-10.12753,-7.48977,40.79047,6.20175,-21.21257,37.40254,-9.41156,17.61802,119.33708,0.00432,-91.61672,132.2988,0.00029,81.92194,0.23854,10.75868,0.00522,1.83776,1.81909,0.00167,1.86835,2.50929,-4.42559,-19.85057,3.96883,-3.18347,2.15828,-4.65182,4.64871
1569,-7.78651,0.0,0.0,0.14952,0.0,0.0,-1.28464,-6.97911,4.68372,3.19357,8.17386,-10.82315,-12.70524,0.62048,-0.0011,-41.34089,-1.18834,0.00143,24.70571,3.0137,6.51219,18.35693,-10.2609,-7.44177,41.06668,6.09851,-21.0049,37.6033,-9.44767,17.8417,119.35003,0.00311,-90.85004,132.29546,-0.00027,81.561,0.78285,10.12015,-0.00438,1.68877,1.99624,0.00176,1.80789,2.61373,-4.51443,-19.91192,4.0987,-3.22738,2.16819,-4.62503,4.46013
1570,-7.5911,0.0,0.0,-0.15818,0.0,-0.0,-1.49732,-6.82227,4.58004,2.29125,8.16035,-10.52176,-12.42313,0.40548,-0.0007,-42.19381,-1.19756,0.00207,24.71212,3.19521,6.52094,19.07425,-10.27757,-7.53511,41.27658,5.78008,-20.65504,37.76731,-9.59002,17.99858,119.69304,0.0011,-90.09239,132.26509,-0.00063,81.13136,1.73806,8.50393,-0.01365,1.22571,1.97342,0.00105,1.86286,2.66951,-4.82246,-19.85176,4.26438,-3.4933,2.23937,-4.54718,4.30616
1571,-7.40895,0.0,-0.0,-0.43189,-0.0,-0.0,-1.79754,-6.71148,4.17081,1.56374,8.15711,-10.10035,-12.1561,0.30215,0.00016,-43.01227,-1.22943,0.00084,24.73806,3.35375,6.70742,19.72067,-10.2986,-7.74081,41.4077,5.36802,-20.32627,37.97355,-9.72212,18.04411,120.09911,0.00103,-89.63316,132.22655,-0.00079,80.99176,2.72971,6.9014,-0.00461,0.73481,2.0386,-0.00017,2.01873,2.67891,-5.11243,-19.68933,4.38027,-3.75969,2.31246,-4.4358,4.21533
1572,-7.05805,0.0,-0.0,-0.75583,0.0,-0.0,-2.15118,-6.57444,3.54296,0.96187,8.0062,-9.56767,-11.87126,0.34146,0.00067,-43.77501,-1.19429,-0.0004,24.70209,3.42524,6.96962,20.21059,-10.38931,-8.02472,41.44732,5.04699,-20.24105,38.16746,-9.78741,18.01309,120.4938,-0.00082,-89.35959,132.23079,-0.00088,81.14132,3.11867,5.71313,0.01127,0.62346,2.15845,-0.00119,2.19492,2.68165,-5.19598,-19.51117,4.41368,-3.83644,2.32454,-4.31846,4.12396
1573,-6.50375,0.0,-0.0,-1.11233,-0.0,-0.0,-2.51912,-6.38826,2.95311,0.33577,7.70066,-8.9696,-11.55234,0.42662,0.00046,-44.44524,-1.11477,-0.00016,24.56976,3.43909,7.16477,20.5657,-10.53011,-8.30503,41.41624,4.96475,-20.44366,38.24145,-9.7876,18.01183,120.9052,-0.0037,-88.9866,132.31712,0.00022,81.04295,2.7326,4.89233,0.01504,1.04986,2.11167,-0.00357,2.34591,2.67372,-5.07624,-19.36289,4.36207,-3.72793,2.26809,-4.2331,4.01954
1574,-5.97779,0.0,0.0,-1.40556,-0.0,-0.0,-2.83433,-6.1998,2.59881,-0.35025,7.37413,-8.41173,-11.25319,0.44989,-6e-05,-45.01514,-1.03771,0.00054,24.3748,3.44276,7.26258,20.86288,-10.6911,-8.48204,41.38742,5.09579,-20.78824,38.20726,-9.76723,18.11603,121.28166,-0.00258,-88.72501,132.47992,0.0023,80.183,2.12032,4.49647,0.00722,1.73931,1.8981,-0.00454,2.47585,2.63731,-4.87962,-19.23657,4.25559,-3.55844,2.17661,-4.21291,3.95439
1575,-5.94664,-0.0,0.0,-1.55574,0.0,-0.0,-2.97576,-6.08792,2.52313,-0.94618,7.18615,-8.04942,-11.06472,0.39216,-0.00022,-45.49735,-0.89545,0.00011,24.1817,3.42936,7.27587,21.12413,-10.88368,-8.45648,41.43248,5.25444,-21.138,38.21381,-9.7766,18.28975,121.5173,0.00021,-89.24796,132.67261,0.00265,78.70137,1.76868,4.61142,0.00096,2.17793,1.79082,-0.00322,2.56171,2.60111,-4.73204,-19.15307,4.16742,-3.43453,2.06713,-4.26252,3.9238
1576,-6.65062,0.0,0.0,-1.60816,0.0,-0.0,-2.89552,-6.12935,2.66654,-1.29637,7.23885,-7.93348,-11.02336,0.31241,-7e-05,-45.90763,-0.59034,-0.00086,24.05174,3.37468,7.19956,21.34451,-11.11569,-8.17818,41.55932,5.29802,-21.45745,38.36325,-9.81842,18.43166,121.56014,0.00072,-90.51604,132.84705,0.00069,77.18125,1.65915,5.27905,0.00057,2.13181,1.9066,-0.00276,2.54115,2.57809,-4.6703,-19.17437,4.12321,-3.38563,1.96207,-4.34643,3.86699
1577,-7.55854,-0.0,-0.0,-1.73111,0.0,0.0,-2.75931,-6.31959,2.91505,-1.4092,7.44378,-7.87827,-11.08312,0.26474,1e-05,-46.26692,-0.19373,-0.00093,24.026,3.31251,7.07412,21.56396,-11.33545,-7.75682,41.71781,5.24944,-21.74461,38.5889,-9.85254,18.51133,121.4425,0.00203,-91.67323,132.99005,-0.00142,76.08797,1.65724,6.61068,0.00318,1.8695,1.97115,-0.00209,2.42972,2.50307,-4.63147,-19.28468,4.03916,-3.37732,1.91443,-4.40326,3.76646
1578,-7.86403,-0.0,-0.0,-2.04622,0.0,0.0,-2.78133,-6.57292,3.13791,-1.41505,7.53009,-7.6322,-11.1744,0.2542,-1e-05,-46.59036,0.0985,-0.00012,24.09473,3.30674,6.98458,21.81127,-11.47261,-7.43313,41.85764,5.19736,-21.99272,38.75819,-9.86274,18.59648,121.29063,0.00416,-92.20864,133.14061,-0.00172,75.53513,1.76281,8.44494,0.00414,1.77219,1.76792,-0.00142,2.35929,2.34383,-4.55864,-19.35262,3.8643,-3.36861,1.94,-4.39189,3.65099
1579,-7.5859,0.0,-0.0,-2.47573,-0.0,0.0,-2.92678,-6.79212,3.27511,-1.40731,7.37348,-7.17361,-11.25644,0.25298,-1e-05,-46.86644,0.18703,0.00053,24.1882,3.36826,6.94182,22.03782,-11.5101,-7.35162,41.97033,5.17836,-22.19673,38.83408,-9.88474,18.71761,121.29426,0.00129,-92.02222,133.35939,0.00053,75.21311,2.13095,9.98977,-0.00243,1.91361,1.59489,-0.00026,2.41898,2.20831,-4.46972,-19.29154,3.70552,-3.33612,1.97535,-4.32929,3.54822
1580,-7.39003,0.0,0.0,-2.83176,0.0,-0.0,-2.97991,-6.84317,3.34409,-1.35886,7.18601,-6.69579,-11.32301,0.22787,4e-05,-47.069,0.10615,0.00055,24.25048,3.45829,6.89583,22.19503,-11.47136,-7.44557,42.0787,5.18762,-22.34043,38.88305,-9.94903,18.81832,121.55656,-0.00869,-90.78354,133.65045,0.00291,74.74092,2.97912,10.3486,-0.02037,2.08789,1.87397,0.00049,2.54533,2.20905,-4.38735,-19.16697,3.67576,-3.25922,1.97164,-4.26775,3.48432
1581,-7.56587,0.0,0.0,-3.08628,0.0,0.0,-2.85851,-6.65366,3.36902,-1.18359,7.21854,-6.35387,-11.38565,0.17363,0.0001,-47.1886,-0.08487,0.00026,24.30422,3.54667,6.85638,22.31227,-11.37748,-7.56551,42.18913,5.21369,-22.42635,38.95755,-10.02712,18.88151,121.99387,-0.01408,-88.58099,133.93822,0.00185,74.33089,4.03911,9.41691,-0.02725,2.07463,2.5035,-0.00063,2.64244,2.30473,-4.28624,-19.07425,3.72728,-3.12969,1.97436,-4.2388,3.47213
1582,-7.89722,0.0,-0.0,-3.37085,-0.0,-0.0,-2.67552,-6.42886,3.38457,-0.87082,7.42666,-6.16458,-11.45292,0.1376,8e-05,-47.22096,-0.31735,-8e-05,24.38923,3.62039,6.86113,22.41823,-11.2492,-7.62296,42.27411,5.21687,-22.50667,39.03817,-10.06958,18.96391,122.44226,-0.00586,-86.61216,134.14404,-0.00046,74.52004,4.55088,7.99791,-0.0075,1.82548,2.99995,-0.00048,2.70121,2.38831,-4.14994,-19.02018,3.75452,-2.97191,2.04158,-4.23289,3.48981
1583,-8.11888,0.0,0.0,-3.64023,0.0,-0.0,-2.55538,-6.46876,3.41241,-0.54319,7.56219,-6.0817,-11.52565,0.18324,-3e-05,-47.1289,-0.50106,-0.00014,24.49067,3.67018,6.91034,22.45801,-11.10898,-7.61443,42.31046,5.13166,-22.61419,39.08521,-10.08216,19.05398,122.80994,0.00466,-86.02879,134.25861,-0.00068,75.2864,4.36797,7.09015,0.00989,1.50746,3.13592,0.00134,2.73958,2.42664,-4.02528,-18.98509,3.74404,-2.84174,2.14884,-4.22448,3.51769
1584,-8.17239,-0.0,0.0,-3.69175,0.0,0.0,-2.50482,-6.80179,3.42575,-0.31633,7.53702,-6.08116,-11.60525,0.31697,-0.00011,-46.88005,-0.58158,0.00032,24.56496,3.70044,7.02047,22.36283,-10.96834,-7.54527,42.29973,4.93676,-22.73118,39.08282,-10.12733,19.02622,123.09473,0.00615,-86.50269,134.32457,0.00054,75.9426,4.27423,7.16786,0.0175,1.40273,3.12003,0.00296,2.74386,2.45243,-3.99811,-18.98194,3.75794,-2.8069,2.22729,-4.21173,3.58698
1585,-8.22856,0.0,-0.0,-3.51836,-0.0,-0.0,-2.45783,-7.24427,3.43141,-0.14178,7.58959,-6.17848,-11.68876,0.47995,-0.0001,-46.52763,-0.59122,0.00087,24.57509,3.71738,7.23034,22.13946,-10.8416,-7.37888,42.24763,4.6892,-22.89045,39.03146,-10.24199,18.82799,123.31332,0.00212,-86.90746,134.34827,0.00146,75.88527,4.61107,7.9407,0.01803,1.61425,3.13306,0.00446,2.72807,2.4977,-4.13314,-18.99634,3.84993,-2.91571,2.23908,-4.2338,3.74427
1586,-8.37838,0.0,-0.0,-3.26164,0.0,0.0,-2.40575,-7.59426,3.4343,0.09921,7.97218,-6.36043,-11.76838,0.62005,-3e-05,-46.17107,-0.63843,0.00088,24.52198,3.70421,7.54224,21.85621,-10.74979,-7.14389,42.15596,4.46277,-23.177,38.95515,-10.38488,18.63123,123.4604,-0.00023,-87.2949,134.24251,0.00176,75.38674,4.49693,8.65939,0.01018,1.85284,2.96823,0.00584,2.75602,2.53952,-4.40888,-18.96403,3.99074,-3.1567,2.21074,-4.32052,3.95771
1587,-8.32767,0.0,-0.0,-2.96373,0.0,0.0,-2.44631,-7.6605,3.31042,0.41247,8.55492,-6.54185,-11.83449,0.7346,3e-05,-45.82518,-0.83187,0.00017,24.46334,3.65307,7.92112,21.57079,-10.67674,-7.00459,42.032,4.29757,-23.55529,38.90974,-10.48652,18.65359,123.51393,-0.00204,-88.89458,133.90848,0.00256,75.20708,3.15642,8.78398,0.01108,1.79413,2.37943,0.0069,2.85037,2.50051,-4.69138,-18.86263,4.05893,-3.43401,2.215,-4.42113,4.12047
1588,-7.70204,0.0,0.0,-2.64051,0.0,-0.0,-2.66905,-7.41251,3.00369,0.7133,8.94173,-6.64472,-11.84939,0.82284,6e-05,-45.40703,-1.18112,-0.0009,24.42881,3.60421,8.2702,21.27293,-10.56336,-7.09235,41.88682,4.23653,-23.83281,38.91755,-10.52028,18.86909,123.44928,-0.00395,-91.67666,133.38844,0.0012,75.49864,1.23692,8.35215,0.01191,1.5708,1.54461,0.00362,2.94673,2.35168,-4.81716,-18.75955,3.96714,-3.60624,2.28938,-4.44531,4.17406
1589,-6.61592,0.0,-0.0,-2.3829,-0.0,0.0,-3.0017,-7.06514,2.76498,0.95604,8.90326,-6.6824,-11.75392,0.84594,-9e-05,-44.86322,-1.59227,-0.00153,24.36208,3.59332,8.40322,20.92103,-10.39294,-7.36112,41.72226,4.33739,-23.8618,38.91312,-10.50353,19.07255,123.27086,0.00012,-93.60445,132.86588,-0.00236,75.96362,0.05392,7.76214,0.00244,1.51968,0.88261,-0.0014,2.98236,2.18307,-4.73034,-18.72171,3.77839,-3.58796,2.39904,-4.39269,4.16007
1590,-5.71177,0.0,0.0,-2.2198,0.0,-0.0,-3.23327,-6.84985,2.9032,1.157,8.60834,-6.7377,-11.54522,0.77629,-0.00038,-44.22795,-1.9633,-0.00151,24.20526,3.57928,8.18168,20.50813,-10.24318,-7.66346,41.52374,4.57914,-23.68469,38.82342,-10.45243,19.20181,123.04929,0.00575,-93.24326,132.46748,-0.00251,76.68904,0.13972,7.4067,-0.00182,1.57711,0.55515,-0.0017,2.96502,2.1149,-4.52091,-18.74217,3.63766,-3.41837,2.49259,-4.38037,4.13611
1591,-5.68689,-0.0,0.0,-2.0478,0.0,0.0,-3.18633,-6.83126,3.42331,1.36009,8.46244,-6.91224,-11.31636,0.64718,-0.00036,-43.52982,-2.22096,-0.00093,23.97889,3.49133,7.66475,20.03642,-10.20172,-7.85716,41.27879,4.81337,-23.45312,38.6738,-10.3615,19.39543,122.88952,0.00411,-91.52917,132.12872,0.00322,78.02856,1.03866,7.38851,0.00166,1.29934,0.32523,0.0033,2.91302,2.17983,-4.32026,-18.79999,3.62382,-3.20764,2.55395,-4.50806,4.10427
1592,-6.6161,0.0,0.0,-1.72396,-0.0,0.0,-2.87511,-6.91714,4.04371,1.61066,8.66596,-7.2611,-11.18207,0.51987,-5e-05,-42.71796,-2.30861,0.00025,23.76401,3.33612,7.07715,19.48648,-10.25361,-7.86764,41.00003,4.89189,-23.24778,38.55751,-10.22877,19.71413,122.85429,0.00031,-90.24869,131.71446,0.00904,79.88591,2.0541,7.4259,0.00103,0.48257,-0.07401,0.00883,2.80764,2.33331,-4.18421,-18.91176,3.7161,-3.02418,2.61241,-4.73879,4.04837
1593,-7.73415,0.0,-0.0,-1.19104,0.0,-0.0,-2.5054,-6.97352,4.47596,1.92713,9.02913,-7.74201,-11.16524,0.4313,0.00016,-41.73445,-2.22261,0.00178,23.60937,3.1969,6.67491,18.84676,-10.29939,-7.70396,40.71915,4.81366,-22.99212,38.52414,-10.06867,20.01127,122.94225,6e-05,-90.1396,131.21786,0.00592,81.47998,2.83222,7.17625,-0.00338,-0.49251,-0.53069,0.00682,2.64888,2.5296,-4.09291,-19.07708,3.86469,-2.86645,2.70383,-4.95508,4.00857
1594,-8.33754,-0.0,0.0,-0.59002,-0.0,-0.0,-2.25554,-7.01015,4.66454,2.31503,9.25225,-8.26052,-11.18409,0.39058,0.00021,-40.61769,-2.01672,0.0028,23.474,3.12216,6.57626,18.13787,-10.28206,-7.39815,40.47292,4.69,-22.59835,38.5318,-9.89051,20.14644,123.08665,-0.00038,-91.09738,130.77815,-0.00166,81.99966,3.24626,6.70005,-0.00496,-1.0728,-0.71268,0.00137,2.49394,2.73173,-4.01927,-19.23852,4.02522,-2.72295,2.82203,-5.10225,4.05088
1595,-8.51691,0.0,0.0,-0.14034,-0.0,-0.0,-2.11151,-7.16981,4.74322,2.80039,9.17752,-8.70082,-11.18154,0.39697,0.0002,-39.48029,-1.78647,0.00193,23.32384,3.08075,6.67501,17.41471,-10.23232,-7.04571,40.29542,4.6045,-22.18021,38.49432,-9.69476,20.14721,123.143,-0.00594,-92.88422,130.53128,-0.00322,81.47585,3.09942,6.41721,-0.00603,-1.06203,-0.57507,-0.00037,2.41828,2.87986,-3.95103,-19.31926,4.13758,-2.60447,2.94212,-5.21265,4.1652
1596,-8.68145,0.0,0.0,0.07916,-0.0,-0.0,-1.94826,-7.47767,4.80551,3.42079,8.8387,-8.97014,-11.22907,0.44372,4e-05,-38.41888,-1.65763,-0.00051,23.23593,3.04377,6.78277,16.74742,-10.1722,-6.85177,40.1914,4.56186,-21.95434,38.35436,-9.507,20.10528,122.97337,-0.00856,-94.6426,130.48682,-0.00082,80.78799,2.4911,6.53995,-0.00834,-0.62698,-0.41667,-0.00105,2.44971,2.9115,-3.87557,-19.28994,4.13906,-2.52254,3.07031,-5.3026,4.27682
1597,-8.98112,0.0,0.0,0.09019,0.0,0.0,-1.68071,-7.74437,4.82617,4.18863,8.44631,-9.12676,-11.4206,0.5233,-0.00026,-37.47897,-1.67114,-0.00155,23.30135,3.01159,6.84141,16.172,-10.08973,-6.909,40.11773,4.55218,-21.95625,38.10593,-9.39365,20.06065,122.57217,0.0026,-94.94273,130.55525,0.00017,80.6765,2.03271,6.76204,-0.00711,-0.05537,-0.43964,-0.00178,2.5283,2.81289,-3.78627,-19.21019,4.01443,-2.47609,3.23146,-5.34829,4.34937
1598,-9.19219,0.0,0.0,-0.03234,0.0,0.0,-1.37341,-7.76491,4.76284,5.05622,8.23059,-9.3263,-11.69609,0.62135,-0.00036,-36.65093,-1.72887,-0.00045,23.46896,2.95745,6.92171,15.65875,-10.01709,-7.0566,40.02922,4.5989,-22.01164,37.7607,-9.41275,20.03193,122.05391,0.01501,-93.32694,130.66754,0.00027,80.98884,2.07035,6.6472,-0.00519,0.41897,-0.55686,-0.00111,2.56679,2.62674,-3.68973,-19.16853,3.80581,-2.45542,3.42319,-5.36457,4.40572
1599,-8.88721,0.0,0.0,-0.10693,-0.0,0.0,-1.21463,-7.50513,4.64686,5.92798,8.24767,-9.58692,-11.8884,0.69158,-0.00014,-35.8625,-1.7642,-6e-05,23.60225,2.85931,7.05119,15.15347,-9.99783,-7.16242,39.93037,4.71438,-21.93023,37.33337,-9.54486,20.06923,121.54623,0.01231,-90.96996,130.8186,0.00073,81.17814,2.19985,6.15511,-0.00266,0.70771,-0.6442,3e-05,2.55282,2.40632,-3.59135,-19.1788,3.56466,-2.44572,3.61913,-5.39397,4.46061
1600,-8.03262,0.0,-0.0,-0.00311,-0.0,0.0,-1.28674,-7.1281,4.56693,6.72457,8.40118,-9.79491,-11.93903,0.6898,1e-05,-35.00303,-1.82748,-0.00146,23.64632,2.76338,7.17105,14.61298,-9.9964,-7.31846,39.84347,4.86182,-21.67299,36.88692,-9.68828,20.21022,121.12133,-0.00133,-89.64996,131.01021,0.00128,81.06437,1.78296,5.64568,-0.0012,0.79554,-0.69099,0.00052,2.53332,2.18396,-3.50281,-19.19475,3.32534,-2.44586,3.79418,-5.43435,4.49898
1601,-7.32219,-0.0,0.0,0.19861,0.0,0.0,-1.40678,-6.92206,4.57649,7.42802,8.58127,-9.9531,-11.97837,0.64736,-6e-05,-33.98227,-1.91898,-0.00182,23.64515,2.73777,7.25614,13.98197,-9.93984,-7.58377,39.74998,5.00029,-21.38026,36.55174,-9.72417,20.40846,120.80225,-0.01068,-90.33707,131.22746,0.00081,80.84778,0.67521,5.4469,-0.00464,0.65742,-0.67106,-0.00017,2.53303,2.01035,-3.45772,-19.19211,3.14738,-2.4683,3.91578,-5.46312,4.53089
1602,-7.43275,0.0,-0.0,0.34496,0.0,0.0,-1.31492,-7.06306,4.64119,8.07139,8.70629,-10.21555,-12.17447,0.64242,-0.00039,-32.7995,-1.92519,0.00064,23.66122,2.78325,7.34732,13.23271,-9.82484,-7.81554,39.60289,5.12106,-21.19007,36.4394,-9.58109,20.5745,120.60925,-0.00825,-92.18263,131.47505,-0.00118,80.88979,-0.40335,5.49043,-0.00685,0.35258,-0.47434,-0.00167,2.54846,1.96583,-3.46144,-19.17573,3.10741,-2.48826,3.96688,-5.49652,4.59619
1603,-8.26022,0.0,0.0,0.3549,0.0,0.0,-0.97196,-7.42465,4.73037,8.71698,8.71516,-10.67394,-12.53218,0.69316,-0.00059,-31.56798,-1.78247,0.00326,23.72008,2.8205,7.43639,12.43651,-9.72865,-7.86586,39.38619,5.22067,-21.05584,36.53612,-9.26385,20.65968,120.55322,-0.00219,-93.39077,131.78218,-0.00196,81.30162,-0.49555,5.43052,-0.00812,0.07847,-0.00134,-0.00153,2.5758,2.06782,-3.43845,-19.15083,3.19364,-2.42908,3.98874,-5.57864,4.69709
1604,-9.17534,0.0,0.0,0.19613,0.0,-0.0,-0.58344,-7.7078,4.8995,9.42984,8.5905,-11.24249,-12.88428,0.73043,-0.0002,-30.42648,-1.57373,0.00304,23.78615,2.77055,7.41802,11.69703,-9.71473,-7.7608,39.12985,5.27158,-20.86159,36.71001,-8.85384,20.63281,120.60102,0.00054,-93.42944,132.15819,0.00068,81.65031,0.37465,5.07007,-0.0092,0.04038,0.72872,0.00144,2.60667,2.22961,-3.31282,-19.12526,3.29746,-2.25228,4.03797,-5.73359,4.79378
1605,-9.4906,0.0,0.0,-0.11445,0.0,-0.0,-0.40292,-7.67682,5.15439,10.21137,8.36634,-11.70999,-13.09802,0.68863,0.00033,-29.41696,-1.45967,0.00026,23.80841,2.64597,7.23966,11.03044,-9.75023,-7.70738,38.87726,5.22951,-20.62751,36.82169,-8.48953,20.45741,120.71829,0.00113,-93.091,132.56453,0.00218,81.67866,1.2379,4.48219,-0.0036,0.26973,1.53138,0.00357,2.64327,2.34033,-3.12398,-19.09366,3.33043,-2.03563,4.11268,-5.92604,4.86794
1606,-8.81736,-0.0,0.0,-0.48837,0.0,-0.0,-0.52819,-7.33383,5.35009,10.97195,8.09967,-11.89159,-13.23342,0.6129,0.00039,-28.48556,-1.54545,-0.00256,23.81503,2.53679,7.0392,10.40248,-9.7376,-7.92622,38.67062,5.09059,-20.45435,36.80598,-8.3352,20.18037,120.90775,0.00025,-92.77036,132.93878,-0.0002,81.77583,1.47965,3.84134,0.00292,0.60492,2.17617,0.00243,2.71823,2.32132,-2.97249,-19.02022,3.25673,-1.90186,4.18254,-6.06482,4.95653
1607,-7.5045,0.0,-0.0,-0.80603,0.0,0.0,-0.81829,-6.97734,5.37304,11.61208,7.79376,-11.80564,-13.45672,0.64045,-0.00043,-27.5601,-1.77203,-0.00279,23.91504,2.50438,7.01957,9.83393,-9.62427,-8.39037,38.53719,4.94825,-20.38241,36.65937,-8.51497,19.96018,121.15973,-0.00166,-92.21548,133.22382,-0.00198,82.0647,1.34739,3.37581,0.00318,0.90407,2.60966,0.00062,2.83446,2.14046,-2.90049,-18.90118,3.06207,-1.902,4.27424,-6.07639,5.12494
1608,-6.33477,0.0,0.0,-0.96033,-0.0,0.0,-1.04034,-6.94018,5.27866,12.09687,7.38401,-11.65724,-13.84123,0.84049,-0.00154,-26.57793,-1.96422,-0.00028,24.16791,2.53858,7.22531,9.35554,-9.44838,-8.8588,38.4525,4.93254,-20.42293,36.41938,-8.99315,19.92443,121.43396,-0.00291,-91.37483,133.37257,-0.00221,81.91575,1.24935,3.27771,0.00087,1.163,2.87707,-0.00049,2.91824,1.86227,-2.90021,-18.81212,2.80356,-2.00489,4.44548,-5.9742,5.38608
1609,-5.62156,0.0,-0.0,-0.91111,0.0,-0.0,-1.09032,-7.22309,5.18016,12.44189,6.93026,-11.6187,-14.2979,1.11782,-0.00139,-25.512,-2.02173,0.00204,24.49154,2.61499,7.53365,8.91479,-9.2704,-9.2034,38.36344,5.06558,-20.58371,36.19255,-9.50635,20.04433,121.714,-0.00235,-90.57269,133.37787,-0.00288,80.99929,1.29916,3.48309,-5e-05,1.35826,2.85152,-0.00089,2.9083,1.64982,-2.95047,-18.81767,2.62479,-2.13034,4.66873,-5.84058,5.65266
1610,-5.02863,-0.0,0.0,-0.74192,0.0,-0.0,-1.0367,-7.54422,5.15159,12.69298,6.68815,-11.691,-14.68804,1.32372,-0.00027,-24.41267,-2.01335,0.00154,24.74015,2.71765,7.78618,8.42294,-9.11354,-9.5415,38.26892,5.22801,-20.79199,36.12172,-9.72072,20.18766,122.01983,0.00051,-90.25877,133.30138,-0.00208,80.00033,1.46108,3.74494,1e-05,1.36741,2.39224,0.00074,2.83332,1.62469,-2.99718,-18.89157,2.61874,-2.18308,4.8227,-5.76035,5.8133
1611,-4.18991,0.0,-0.0,-0.60944,0.0,0.0,-0.99661,-7.69665,5.28617,12.92914,6.78706,-11.78311,-14.96939,1.40013,0.00045,-23.35938,-2.05717,-0.00061,24.84894,2.81022,7.83691,7.85155,-8.98142,-10.02192,38.20736,5.28961,-20.90707,36.24229,-9.53759,20.25784,122.37254,0.00337,-90.61989,133.21172,0.00078,79.7439,1.65278,3.91042,-0.0,1.12038,1.66719,0.0029,2.73605,1.74124,-2.97228,-18.99119,2.71779,-2.11674,4.83853,-5.76687,5.85191
1612,-3.21655,0.0,0.0,-0.61548,0.0,0.0,-0.98893,-7.69992,5.70608,13.21576,7.00314,-11.86776,-15.21288,1.37137,0.00061,-22.36086,-2.15872,-0.00132,24.86879,2.87676,7.59922,7.23651,-8.86335,-10.57714,38.15512,5.23992,-20.85147,36.41343,-9.18954,20.27514,122.76655,0.00256,-91.24351,133.10425,0.00399,80.29687,1.7465,3.99472,-0.00042,0.68301,0.98906,0.00293,2.60382,1.85968,-2.827,-19.12744,2.77406,-1.9378,4.79875,-5.81097,5.86014
1613,-2.55736,-0.0,0.0,-0.75993,0.0,0.0,-0.93308,-7.64461,6.37606,13.54622,7.02853,-11.97886,-15.49489,1.28284,0.00051,-21.36039,-2.2236,6e-05,24.88773,2.97001,7.18054,6.62623,-8.71953,-10.99248,38.02026,5.18036,-20.6986,36.45836,-8.99106,20.33427,123.13703,-0.00017,-91.52187,132.93506,0.00385,81.00703,1.65148,4.12741,-0.00114,0.24307,0.50173,0.00124,2.43783,1.89797,-2.53348,-19.29751,2.701,-1.65079,4.84121,-5.79595,5.92449
1614,-2.54041,0.0,-0.0,-1.02995,-0.0,0.0,-0.76462,-7.56525,7.03648,13.88064,6.84067,-12.09863,-15.82379,1.19385,0.00014,-20.33202,-2.20268,0.00146,24.95716,3.14426,6.84464,6.05421,-8.51485,-11.17041,37.75566,5.21323,-20.59555,36.34736,-9.04893,20.47234,123.38547,-0.00021,-91.29811,132.69189,-0.00293,80.83893,1.45456,4.44494,-0.0008,0.08778,0.2127,-0.00021,2.31504,1.87974,-2.13202,-19.4238,2.53546,-1.28444,4.99595,-5.67444,6.04257
1615,-3.18089,-0.0,0.0,-1.45814,0.0,0.0,-0.47453,-7.50871,7.47543,14.21773,6.70084,-12.16336,-16.169,1.15338,-0.00026,-19.31151,-2.15321,0.00107,25.05976,3.39569,6.74026,5.52662,-8.24979,-11.19027,37.42396,5.34214,-20.58306,36.20004,-9.23933,20.62215,123.50529,0.00139,-90.79319,132.37291,-0.00955,79.39438,1.39065,4.88819,0.00141,0.35525,0.08301,-0.00028,2.31456,1.90295,-1.77396,-19.42723,2.42447,-0.94311,5.15516,-5.48113,6.18551
1616,-4.12247,0.0,-0.0,-2.00662,0.0,-0.0,-0.10947,-7.54066,7.73182,14.55577,6.85196,-12.12133,-16.49992,1.15116,-0.00032,-18.33453,-2.16211,-0.00056,25.1239,3.6983,6.78965,5.01768,-7.94743,-11.19357,37.14791,5.47079,-20.53847,36.12728,-9.41883,20.71383,123.61666,0.00058,-90.07344,131.94864,-0.0032,77.90993,1.51585,5.22981,0.00232,0.8255,-0.06734,-0.00039,2.41298,2.05144,-1.60854,-19.33207,2.50115,-0.73435,5.19874,-5.27059,6.37552
1617,-4.76915,0.0,0.0,-2.52129,-0.0,0.0,0.22674,-7.64252,7.97729,14.83962,7.2681,-11.95992,-16.80601,1.13652,-6e-05,-17.39898,-2.23869,-0.00142,25.1162,4.02887,6.85192,4.51193,-7.6463,-11.27606,37.02271,5.50725,-20.32819,36.12165,-9.5929,20.75573,123.79715,-0.00244,-88.81618,131.42191,0.01232,77.99156,1.57829,5.46184,0.00068,1.16959,-0.4725,-0.00022,2.49584,2.26291,-1.60743,-19.25278,2.69717,-0.65489,5.13336,-5.07333,6.63979
1618,-4.82983,0.0,0.0,-2.91876,0.0,-0.0,0.45678,-7.74598,8.32835,15.02829,7.70903,-11.71934,-17.10583,1.08798,0.00014,-16.50329,-2.30506,-0.00079,25.11757,4.35443,6.87145,4.06811,-7.39771,-11.43022,37.04068,5.46134,-19.99105,36.11631,-9.82803,20.80383,123.96344,-0.00261,-86.9509,130.89871,0.01552,79.42805,1.39417,5.85304,-0.00138,1.25953,-1.10104,0.00078,2.47724,2.34078,-1.5846,-19.27284,2.76104,-0.60479,5.09678,-4.90422,6.9529
1619,-4.5712,0.0,-0.0,-3.24939,0.0,-0.0,0.5857,-7.84169,8.78519,15.14049,7.94921,-11.45942,-17.40928,1.03102,9e-05,-15.68203,-2.2944,0.00017,25.2337,4.64207,6.8441,3.77493,-7.22703,-11.59946,37.08291,5.40968,-19.71567,36.07911,-10.06951,20.89254,124.00336,-0.00078,-85.40929,130.52681,0.00518,80.50611,1.20265,6.34305,-0.00201,1.17143,-1.61783,0.00048,2.39261,2.1756,-1.4156,-19.35525,2.54504,-0.50905,5.20779,-4.76059,7.26175
1620,-4.37387,0.0,0.0,-3.51141,0.0,-0.0,0.63158,-7.92706,9.28116,15.18121,7.88074,-11.23892,-17.7066,0.98868,0.0,-14.96496,-2.19925,0.00073,25.45874,4.88548,6.71236,3.60363,-7.09251,-11.75812,37.03975,5.37976,-19.61083,35.99661,-10.19239,20.9905,123.94372,-0.00089,-85.2679,130.35327,-0.00177,80.23381,1.47522,6.29587,-0.00853,1.04171,-1.68969,-0.00076,2.34572,1.88921,-1.17108,-19.39846,2.1885,-0.38807,5.42079,-4.6054,7.50852
1621,-4.28673,0.0,-0.0,-3.59386,-0.0,0.0,0.57484,-7.89918,9.7344,15.10351,7.53734,-11.0811,-18.0234,0.94905,5e-05,-14.32859,-2.03924,0.00098,25.71733,5.11304,6.4105,3.40999,-6.91768,-11.93105,36.94383,5.33288,-19.59078,35.85786,-10.20145,21.018,123.90499,-0.00016,-86.37939,130.2832,-0.00238,79.14774,2.32742,5.24935,-0.01938,0.99685,-1.26693,-6e-05,2.37203,1.70587,-1.00856,-19.37006,1.95803,-0.30505,5.5774,-4.39414,7.6394
1622,-4.13563,0.0,0.0,-3.4539,0.0,-0.0,0.43038,-7.6815,10.05816,14.88858,7.13255,-10.87827,-18.41647,0.90049,2e-05,-13.73951,-1.86268,0.00069,25.98901,5.36985,6.02209,3.13411,-6.67416,-12.20615,36.91892,5.25832,-19.50565,35.70408,-10.22849,20.93341,123.93974,0.00104,-87.7584,130.20262,-0.00093,78.26281,3.40243,3.56961,-0.01677,1.15612,-0.66598,0.00185,2.40725,1.73996,-0.99357,-19.3353,1.98414,-0.27849,5.59625,-4.1264,7.65532
1623,-3.93064,0.0,-0.0,-3.29438,0.0,0.0,0.32698,-7.43214,10.23951,14.63563,6.93112,-10.45092,-18.89912,0.85992,-0.00021,-13.21983,-1.74208,-0.00011,26.29554,5.68838,5.73596,2.88032,-6.40727,-12.64992,37.00147,5.21861,-19.2492,35.60307,-10.33169,20.79808,123.99918,0.00047,-88.66708,130.13014,0.00027,78.15155,4.38697,2.0736,-0.00403,1.49206,-0.33031,0.00132,2.39059,1.9236,-1.05698,-19.35432,2.17819,-0.26932,5.54054,-3.84625,7.64865
1624,-3.93474,0.0,0.0,-3.4701,-0.0,-0.0,0.4139,-7.41705,10.44149,14.51082,6.99944,-9.78162,-19.41902,0.82248,-0.00017,-12.81798,-1.70584,-0.00069,26.61095,6.08147,5.6084,2.76126,-6.17213,-13.13432,37.08433,5.2951,-18.76727,35.55215,-10.40463,20.72395,124.03958,-0.0014,-88.79398,130.20908,-8e-05,78.66066,5.04151,1.2764,0.00419,1.71473,-0.34616,-0.00051,2.34926,2.09002,-1.07763,-19.39804,2.34042,-0.2268,5.50274,-3.59415,7.73482
1625,-4.22525,-0.0,0.0,-4.03431,-0.0,0.0,0.65096,-7.6674,10.84266,14.56214,7.17438,-9.06546,-19.90369,0.74346,0.0002,-12.52167,-1.70397,-0.00068,26.87524,6.54558,5.53826,2.7565,-5.96609,-13.41967,37.03649,5.52422,-18.08722,35.46514,-10.31089,20.7672,124.07178,-0.00287,-87.96404,130.53603,0.00061,79.13304,4.91423,1.12463,0.00264,1.51554,-0.35032,-0.00292,2.35682,2.13275,-0.96348,-19.39126,2.33784,-0.10492,5.50753,-3.37056,7.89935
1626,-4.50369,0.0,0.0,-4.53599,-0.0,0.0,0.81081,-7.94245,11.34653,14.64792,7.28213,-8.50871,-20.32137,0.62053,0.00032,-12.24081,-1.65319,-0.00021,27.08801,7.05417,5.49033,2.7559,-5.74241,-13.43758,36.82037,5.87205,-17.32498,35.2657,-10.05239,20.90339,124.0759,-0.00057,-86.18246,131.02899,0.00202,79.18309,3.8691,1.21518,-0.0002,0.92536,-0.06156,-0.00494,2.42783,2.09162,-0.68708,-19.31961,2.19729,0.13659,5.54501,-3.13868,7.97031
1627,-4.59456,0.0,0.0,-4.59555,-0.0,0.0,0.77362,-8.06762,11.70866,14.62613,7.30384,-8.18818,-20.7189,0.5114,0.00012,-11.89614,-1.50078,0.00048,27.31632,7.58006,5.54441,2.68873,-5.47477,-13.27003,36.50264,6.24035,-16.62846,34.96691,-9.77222,21.08978,123.93403,0.00437,-84.07852,131.49651,0.00167,78.9367,2.5894,1.19784,0.00063,0.31115,0.36777,-0.00294,2.49462,2.06568,-0.28863,-19.25166,2.02567,0.49707,5.61662,-2.85094,7.84201
1628,-4.71756,-0.0,0.0,-4.39891,0.0,-0.0,0.66588,-8.13258,11.89793,14.52862,7.33244,-8.05634,-21.17649,0.45063,-0.00014,-11.49395,-1.25798,0.00087,27.59977,8.10873,5.72573,2.56846,-5.19695,-12.94935,36.18509,6.52031,-16.08637,34.6452,-9.62216,21.31095,123.54382,0.00067,-82.82417,131.81256,0.0008,78.48083,1.88968,1.05066,0.00053,0.0093,0.58323,-0.00026,2.48551,2.09343,0.16349,-19.25904,1.88405,0.92727,5.70492,-2.49307,7.62826
1629,-5.00936,0.0,-0.0,-4.30118,0.0,-0.0,0.6085,-8.30286,12.05549,14.46096,7.44051,-7.96103,-21.70151,0.42713,-0.00037,-11.09413,-0.98725,0.00069,27.90964,8.58968,5.95435,2.44745,-4.99666,-12.53896,35.90609,6.67095,-15.64129,34.36895,-9.65281,21.54615,122.98963,-0.0099,-83.13363,131.98189,3e-05,77.89667,1.99637,0.96496,0.00038,0.05913,0.38928,-0.00072,2.37962,2.14571,0.6017,-19.36231,1.77039,1.35361,5.76719,-2.12984,7.49729
1630,-5.25682,0.0,0.0,-4.36959,-0.0,0.0,0.53942,-8.60563,12.24122,14.43856,7.59675,-7.71239,-22.20712,0.41226,-0.00043,-10.74513,-0.76626,0.00015,28.20522,8.95481,6.12181,2.3786,-4.93351,-12.2464,35.6133,6.74016,-15.13033,34.17348,-9.82338,21.72937,122.48522,-0.00916,-84.35909,132.06415,-0.00062,77.75012,2.89503,0.99303,-0.00106,0.24945,-0.09537,-0.00128,2.19326,2.16087,0.94303,-19.5455,1.65813,1.6762,5.79189,-1.86642,7.49308
1631,-5.19882,0.0,0.0,-4.47702,0.0,-0.0,0.34652,-8.91643,12.36944,14.38026,7.6845,-7.20878,-22.63022,0.37029,-0.00014,-10.46213,-0.65518,-0.00033,28.48292,9.23699,6.15435,2.38063,-4.93028,-12.26143,35.24928,6.80773,-14.47286,34.05408,-10.07607,21.80593,122.13435,0.00306,-84.98773,132.09038,-0.00038,78.50036,4.53177,0.95328,-0.00758,0.3138,-0.57549,-7e-05,1.96275,2.07675,1.12301,-19.77311,1.51338,1.81217,5.79925,-1.71271,7.55906
1632,-4.8234,0.0,-0.0,-4.52027,0.0,0.0,0.0278,-9.06717,12.3288,14.21839,7.63181,-6.52602,-23.03284,0.28212,0.00048,-10.23657,-0.65926,-0.00045,28.78113,9.56672,6.05232,2.42247,-4.82138,-12.55492,34.83769,6.9187,-13.76152,33.95747,-10.35267,21.82321,121.82739,0.01213,-84.44403,132.05272,0.00014,79.59085,6.22469,0.76832,-0.01172,0.1772,-0.84202,0.00066,1.73448,1.88917,1.18588,-19.99894,1.31587,1.80106,5.78891,-1.54761,7.61241
1633,-4.49438,-0.0,0.0,-4.59924,-0.0,0.0,-0.28716,-9.02979,12.19439,14.02523,7.52067,-5.90449,-23.54082,0.16262,0.00097,-10.06029,-0.71442,-0.00025,29.15426,10.01273,5.87144,2.4776,-4.54664,-12.86108,34.47002,7.07005,-13.10354,33.82407,-10.57131,21.90045,121.36972,0.00546,-83.87828,131.93907,-0.00056,80.09782,6.87538,0.66249,-0.01013,0.04581,-0.87649,0.00059,1.55622,1.67795,1.28005,-20.17446,1.08481,1.8103,5.74572,-1.27803,7.60569
1634,-4.56169,-0.0,-0.0,-4.85306,0.0,0.0,-0.51946,-8.92975,12.1345,13.94383,7.51197,-5.52598,-24.21541,0.07095,0.00021,-9.93272,-0.7587,-5e-05,29.63083,10.51496,5.74593,2.56215,-4.20752,-12.93178,34.22176,7.24435,-12.46405,33.65571,-10.67262,22.08631,120.66009,-0.01476,-84.64455,131.76366,-0.00126,79.90885,6.30066,0.74028,-0.00789,0.12714,-0.79363,0.00046,1.47324,1.55168,1.51229,-20.25379,0.88157,1.97923,5.67907,-0.95864,7.56989
1635,-4.83721,0.0,-0.0,-5.14905,0.0,-0.0,-0.78213,-8.83595,12.10452,13.98673,7.67395,-5.32095,-25.02674,0.07599,-0.00142,-9.83769,-0.80134,-5e-05,30.20044,10.98038,5.84065,2.69362,-3.92144,-12.8158,34.09323,7.43188,-11.76117,33.5275,-10.68194,22.30715,119.75536,-0.02409,-86.58275,131.56508,-0.00065,79.56413,5.55443,0.62168,-0.00679,0.37591,-0.71308,-0.00023,1.48712,1.55472,1.83535,-20.23548,0.76485,2.28039,5.6193,-0.70066,7.56305
1636,-4.97273,0.0,-0.0,-5.36882,0.0,-0.0,-1.16994,-8.72864,12.01665,14.05535,7.9391,-5.1506,-25.8978,0.14336,-0.00155,-9.74094,-0.85204,-6e-05,30.804,11.35794,6.07798,2.83067,-3.73475,-12.71595,34.01954,7.60435,-11.01318,33.50786,-10.66088,22.51618,118.80328,-0.01207,-88.39555,131.36621,-0.00022,79.35167,5.58576,-0.12352,-0.01376,0.6687,-0.70456,-0.00167,1.52446,1.63591,2.13557,-20.19381,0.72921,2.58925,5.56909,-0.5384,7.58645
1637,-4.93372,-0.0,0.0,-5.59796,-0.0,0.0,-1.59803,-8.62218,12.01359,14.06756,8.18743,-5.00516,-26.74145,0.14557,0.00014,-9.62352,-0.84869,9e-05,31.32795,11.64376,6.15479,2.87603,-3.64986,-12.67464,33.91201,7.68643,-10.30467,33.55821,-10.63238,22.81376,117.92799,0.00359,-89.20631,131.14987,-0.00058,79.15301,6.25792,-1.36894,-0.01629,0.9335,-0.89136,-0.00238,1.50257,1.73501,2.38676,-20.21174,0.72838,2.85921,5.4726,-0.41749,7.59337
1638,-4.804,0.0,-0.0,-5.82996,0.0,0.0,-1.95886,-8.5482,12.2281,13.97392,8.3211,-4.89559,-27.52177,0.02402,0.00147,-9.50324,-0.74558,0.00017,31.70672,11.89963,5.95085,2.78485,-3.6114,-12.58585,33.70795,7.59945,-9.71865,33.57833,-10.60843,23.28975,117.17434,0.01082,-89.06135,130.90103,-0.00044,78.96121,6.80402,-2.55954,-0.00489,0.96228,-1.4209,0.00131,1.40182,1.85097,2.61076,-20.30873,0.75328,3.11013,5.28411,-0.25723,7.56905
1639,-4.62413,0.0,-0.0,-5.93487,-0.0,-0.0,-2.25913,-8.50032,12.52131,13.7696,8.311,-4.73504,-28.27933,-0.14791,0.00114,-9.40739,-0.59921,5e-05,32.0159,12.2198,5.67999,2.63488,-3.51804,-12.41791,33.42468,7.36055,-9.34075,33.5643,-10.63293,23.81285,116.52026,0.01287,-88.3527,130.65277,0.00032,78.96302,6.59866,-3.31122,0.00623,0.52198,-2.22468,0.00702,1.24931,1.97786,2.74724,-20.45907,0.82072,3.28381,5.05024,-0.0266,7.5604
1640,-4.45048,0.0,-0.0,-5.92481,0.0,0.0,-2.57628,-8.48207,12.69991,13.53592,8.19957,-4.44059,-29.05593,-0.26775,-4e-05,-9.32352,-0.49153,-6e-05,32.36133,12.62284,5.59599,2.5091,-3.3266,-12.27428,33.1656,7.10751,-9.20302,33.61436,-10.74058,24.13607,115.88546,0.01025,-87.57163,130.46358,0.00058,79.21182,5.43749,-3.64058,0.00749,-0.23218,-3.00822,0.00622,1.08662,2.07422,2.73447,-20.62257,0.91497,3.3076,4.84693,0.22309,7.59415
1641,-4.35407,-0.0,-0.0,-6.06858,-0.0,0.0,-2.95963,-8.5407,12.84051,13.41132,8.04252,-4.07459,-29.8381,-0.32138,-0.00055,-9.20382,-0.42603,4e-05,32.73265,13.02541,5.68004,2.36937,-3.09807,-12.22444,33.04008,6.9704,-9.21923,33.76486,-10.90879,24.17906,115.15123,-0.0035,-87.47751,130.35808,0.00039,79.60339,3.53059,-3.6804,0.00078,-0.80318,-3.53519,0.00077,0.9599,2.15518,2.67065,-20.75115,1.01377,3.27829,4.66222,0.42005,7.61186
1642,-4.23651,0.0,-0.0,-6.41748,-0.0,-0.0,-3.45414,-8.67092,13.09675,13.41026,7.88494,-3.74003,-30.59356,-0.34654,-0.0004,-9.03304,-0.36248,0.0002,33.07497,13.34283,5.78799,2.16414,-2.92194,-12.22299,33.06276,6.93833,-9.25558,33.93958,-11.06971,24.08065,114.26916,-0.02152,-88.64255,130.29832,0.0003,79.98165,1.39759,-3.45755,-0.00719,-0.86831,-3.78933,-0.00175,0.89453,2.29313,2.70947,-20.81664,1.12759,3.36537,4.43915,0.54766,7.55828
1643,-3.86356,0.0,0.0,-6.48691,0.0,-0.0,-4.13511,-8.77645,13.37559,13.36152,7.78486,-3.44271,-31.33729,-0.35663,0.00018,-8.87988,-0.30007,0.00018,33.45153,13.5928,5.91086,1.99661,-2.82006,-12.21183,33.15832,6.90598,-9.2229,34.07641,-11.16337,24.00492,113.3653,-0.02139,-90.62532,130.21042,-9e-05,80.1153,-0.30691,-3.03362,-0.00732,-0.54893,-3.9234,-0.0011,0.8846,2.477,2.83431,-20.8252,1.25227,3.54931,4.20691,0.6534,7.47627
1644,-3.24183,0.0,-0.0,-5.92772,0.0,0.0,-5.0029,-8.84834,13.53229,13.17013,7.75903,-3.21358,-32.13984,-0.3785,0.00136,-8.8588,-0.25918,5e-05,33.97764,13.86868,6.02277,2.00332,-2.73542,-12.14218,33.27016,6.81,-9.09352,34.19806,-11.19199,24.00655,112.67216,-0.00369,-92.27806,130.03748,-0.00113,79.85663,-1.11661,-2.66454,-0.00172,-0.15519,-4.12797,-0.0003,0.91862,2.59086,2.90313,-20.79052,1.33263,3.65533,4.03072,0.81098,7.43954
1645,-2.63673,-0.0,0.0,-4.98053,0.0,0.0,-5.99316,-9.01356,13.53863,12.95077,7.7455,-3.14417,-33.04482,-0.41261,0.00144,-9.02757,-0.23414,-8e-05,34.64557,14.19249,6.02783,2.1511,-2.62423,-11.97974,33.39424,6.66346,-8.89538,34.34793,-11.2163,24.06811,112.37549,0.00914,-92.93183,129.77127,-0.00189,79.34676,-1.07709,-2.59851,0.00014,0.18204,-4.46756,-0.00028,0.96976,2.55987,2.89397,-20.73934,1.30722,3.63537,3.89104,1.05935,7.43758
1646,-2.4145,0.0,-0.0,-4.19581,0.0,0.0,-7.09468,-9.31636,13.35241,12.86246,7.70295,-3.22642,-34.00565,-0.36387,-0.00069,-9.3335,-0.21082,-0.00015,35.35594,14.44127,5.97052,2.30888,-2.5355,-11.7778,33.49511,6.49765,-8.66116,34.52621,-11.28916,24.17941,112.57393,0.00961,-92.71487,129.46652,-0.0015,78.89172,-0.59282,-2.7725,-0.00054,0.50452,-4.85697,-0.00028,0.96979,2.41665,2.96474,-20.7365,1.148,3.64809,3.72635,1.35208,7.36457
1647,-3.00822,-0.0,0.0,-4.18875,0.0,-0.0,-8.28568,-9.66198,13.0018,13.00176,7.63085,-3.35943,-34.94962,-0.18412,-0.00233,-9.67464,-0.1958,-0.0001,36.03118,14.49683,5.95577,2.39979,-2.54209,-11.6102,33.49497,6.32159,-8.38426,34.68482,-11.41262,24.35514,113.29775,0.00479,-91.97045,129.24477,-0.00084,78.74593,-0.00039,-2.92104,0.00058,0.72377,-5.20879,0.00091,0.87807,2.22361,3.25605,-20.81993,0.86101,3.84717,3.495,1.59556,7.11725
1648,-4.48204,-0.0,0.0,-5.25075,0.0,-0.0,-9.45204,-9.96039,12.6738,13.37005,7.50324,-3.47472,-35.86965,0.00696,-0.00121,-10.0026,-0.21198,8e-05,36.64798,14.43604,5.95319,2.4362,-2.61385,-11.45325,33.38139,6.12516,-8.08178,34.75685,-11.56731,24.58565,114.48524,0.00053,-90.85616,129.22858,-0.00072,78.90744,0.51468,-2.92092,0.00306,0.6255,-5.48449,0.002,0.76248,2.01009,3.73736,-20.92206,0.48484,4.2152,3.1827,1.75347,6.71628
1649,-6.13594,0.0,0.0,-6.87391,0.0,0.0,-10.52269,-10.15451,12.4858,13.81247,7.33611,-3.55029,-36.79142,0.06245,0.00103,-10.3261,-0.26831,0.0002,37.22693,14.44261,5.8725,2.48392,-2.66137,-11.24576,33.24445,5.89835,-7.82243,34.70354,-11.73664,24.81536,116.007,-0.00072,-89.41533,129.44205,0.0007,79.0267,0.85576,-2.90622,0.00521,0.20979,-5.54776,0.00013,0.72914,1.78462,4.2757,-20.93961,0.07658,4.63192,2.83663,1.85744,6.29528
1650,-7.06642,-0.0,-0.0,-8.04452,0.0,0.0,-11.56428,-10.2063,12.35018,14.0877,7.22847,-3.55741,-37.67908,-0.01565,0.00139,-10.63328,-0.34471,0.00012,37.8035,14.56449,5.71686,2.60553,-2.68031,-11.00808,33.17049,5.64931,-7.62264,34.54494,-11.89224,25.01344,117.77248,-0.0027,-87.75546,129.81773,0.00248,78.84776,1.10352,-3.18909,0.0041,-0.26883,-5.08918,-0.00282,0.80169,1.55866,4.77317,-20.85176,-0.31697,5.01066,2.56347,1.92416,5.95715
1651,-7.10948,0.0,-0.0,-8.17928,-0.0,0.0,-12.60614,-10.1626,12.16994,14.07136,7.2374,-3.46046,-38.45363,-0.12344,-5e-05,-10.88712,-0.41988,-1e-05,38.39476,14.71302,5.56469,2.83338,-2.73912,-10.80918,33.15822,5.41145,-7.41632,34.34679,-12.0106,25.20357,119.77422,-0.01468,-85.94499,130.26601,0.0008,78.66143,1.45951,-4.12632,-0.00465,-0.56916,-3.93287,-0.00127,0.94426,1.35955,5.19292,-20.69581,-0.65682,5.32725,2.44174,1.94668,5.71674
1652,-6.97299,0.0,-0.0,-7.63541,0.0,-0.0,-13.49959,-10.13827,12.02532,13.86407,7.33508,-3.29509,-39.09131,-0.24497,-0.00058,-11.08775,-0.49385,-0.0,38.97813,14.84701,5.4076,3.15611,-2.85553,-10.64428,33.18605,5.22518,-7.19556,34.17582,-12.08987,25.37406,121.98691,-0.0288,-83.99895,130.68124,-0.00216,78.86513,2.02151,-5.81123,-0.01645,-0.63946,-2.4452,0.0025,1.14291,1.23997,5.50537,-20.48677,-0.88315,5.57354,2.44068,1.94492,5.57112
1653,-7.45537,0.0,0.0,-7.25999,-0.0,-0.0,-14.10064,-10.16053,12.02686,13.69637,7.47089,-3.17778,-39.64111,-0.47765,0.00057,-11.28052,-0.57006,8e-05,39.51582,15.00525,5.12679,3.52086,-2.97984,-10.4415,33.29944,5.09565,-7.09491,34.0711,-12.1096,25.43201,124.25207,-0.02108,-82.2336,130.95827,-0.00204,79.20559,2.73287,-7.7158,-0.01647,-0.61419,-1.36474,0.00296,1.37143,1.25398,5.67318,-20.25204,-0.93195,5.73469,2.4623,1.95179,5.51705
1654,-8.68458,-0.0,0.0,-7.50612,0.0,0.0,-14.50306,-10.12928,12.07431,13.72056,7.54557,-3.17946,-40.15611,-0.84219,0.00154,-11.49844,-0.62917,4e-05,39.97902,15.2006,4.71345,3.85078,-3.08384,-10.16642,33.55782,4.97864,-7.2643,34.06309,-12.03019,25.31454,126.32497,0.00686,-81.25191,131.06812,-0.00104,79.05235,3.5638,-8.85058,0.00176,-0.63084,-1.10061,0.00183,1.52859,1.39891,5.68744,-20.09355,-0.80248,5.80135,2.42428,1.96445,5.51047
1655,-10.27861,0.0,0.0,-8.1396,0.0,-0.0,-14.91139,-10.0133,11.9652,13.8819,7.45305,-3.26437,-40.65069,-1.20011,0.00096,-11.72183,-0.6442,-0.00015,40.35762,15.39502,4.35867,4.08824,-3.19559,-9.83833,33.95048,4.82734,-7.72303,34.17262,-11.87426,25.1143,128.04819,0.02347,-81.27089,131.0826,-0.00115,78.47156,4.54189,-8.60863,0.02643,-0.6866,-1.37774,0.00095,1.5073,1.5869,5.59042,-20.11762,-0.59198,5.78047,2.29193,1.95334,5.49335
1656,-11.78852,0.0,0.0,-8.5961,-0.0,0.0,-15.36189,-9.9166,11.64002,13.98878,7.24265,-3.34868,-41.10731,-1.38108,-0.00049,-11.91885,-0.63122,-0.00022,40.69847,15.56281,4.27482,4.27772,-3.33934,-9.50062,34.41216,4.64535,-8.39631,34.33961,-11.74224,25.02989,129.43597,0.01346,-81.67124,131.09094,-0.0014,78.37434,5.4619,-7.40489,0.03411,-0.7785,-1.69815,0.00068,1.30791,1.70285,5.48201,-20.32064,-0.44425,5.72246,2.11513,1.91388,5.45212
1657,-12.59823,0.0,-0.0,-8.3496,0.0,-0.0,-15.74266,-9.9068,11.19103,13.91166,7.08899,-3.3667,-41.46692,-1.31816,-0.00111,-12.11161,-0.65008,-6e-05,41.01717,15.70755,4.52417,4.49749,-3.49807,-9.19976,34.84923,4.49132,-9.25186,34.4216,-11.70519,25.18398,130.52637,-0.0026,-81.64812,131.09888,-0.00065,79.20554,5.70642,-6.11733,0.01768,-0.99238,-1.91181,0.00104,1.0069,1.70416,5.49161,-20.62129,-0.44657,5.73187,1.96989,1.8756,5.40392
1658,-12.3565,-0.0,-0.0,-7.35875,-0.0,0.0,-15.92426,-9.97432,10.80669,13.72468,7.13381,-3.32974,-41.62811,-1.07894,-0.00031,-12.35068,-0.73686,0.0002,41.19596,15.80134,4.96388,4.70503,-3.65535,-8.94783,35.16252,4.44579,-10.33772,34.34659,-11.72594,25.51711,131.177,-0.00445,-81.35642,131.04532,0.00023,80.12505,4.48491,-5.03246,-0.01408,-1.27056,-2.1027,0.00074,0.64665,1.63942,5.66123,-20.9754,-0.56924,5.86562,1.84483,1.8642,5.32645
1659,-11.76028,0.0,0.0,-6.27743,0.0,0.0,-15.76192,-10.08692,10.69734,13.62244,7.43758,-3.29569,-41.51378,-0.80176,0.00017,-12.63737,-0.87373,0.00031,41.16235,15.76961,5.31809,4.83612,-3.82936,-8.73443,35.35637,4.55419,-11.61666,34.21351,-11.70014,25.86473,131.16708,-0.00579,-81.80672,130.89772,-0.00085,80.17454,1.51322,-3.90541,-0.04371,-1.37752,-2.23131,-6e-05,0.24695,1.56507,5.88298,-21.36689,-0.72002,6.04432,1.71364,1.87972,5.15527
1660,-11.73746,0.0,-0.0,-5.75806,-0.0,0.0,-15.19827,-10.14188,10.90107,13.70292,7.90278,-3.27379,-41.12345,-0.62081,-0.00149,-12.92714,-1.01912,0.00018,41.00222,15.60475,5.37012,4.94077,-4.03619,-8.5298,35.6043,4.78124,-12.8117,34.17645,-11.55985,26.11651,130.47124,-0.01498,-83.47794,130.64232,-0.00302,79.48223,-2.34416,-2.6402,-0.04316,-1.34793,-2.25771,0.00135,-0.13053,1.48938,6.03439,-21.7388,-0.84614,6.15717,1.60474,1.90549,4.90221
1661,-11.84563,0.0,-0.0,-5.61172,0.0,-0.0,-14.46266,-10.0368,11.15907,13.86782,8.24424,-3.21556,-40.50717,-0.56475,-0.00324,-13.19032,-1.13781,0.0,40.7814,15.44399,5.18518,5.07304,-4.23551,-8.28409,36.1307,5.03853,-13.59263,34.27986,-11.34371,26.2724,129.20789,-0.01265,-85.68916,130.22015,-0.00474,78.70052,-5.49053,-1.18677,-0.01469,-1.65714,-2.37816,0.00654,-0.43448,1.4131,6.11931,-22.0398,-0.94832,6.20802,1.50643,1.9419,4.72701
1662,-10.61023,0.0,0.0,-5.07916,0.0,-0.0,-13.96676,-9.85553,11.06333,13.92695,8.24894,-3.04256,-39.72797,-0.44434,-0.00066,-13.42224,-1.22322,-4e-05,40.49981,15.44571,5.15391,5.21573,-4.34736,-8.04937,37.0524,5.25131,-13.8824,34.44115,-11.15752,26.33492,127.39277,0.00574,-87.47229,129.6304,-0.00341,78.25382,-6.78334,0.56181,0.02247,-2.5679,-2.70407,0.01051,-0.68597,1.37725,6.22175,-22.28739,-1.01935,6.29005,1.37789,2.03431,4.7899
1663,-7.57424,-0.0,-0.0,-3.91283,-0.0,0.0,-13.87002,-9.75752,10.43206,13.81389,8.00061,-2.72045,-38.84731,-0.02822,0.00508,-13.61625,-1.28764,-4e-05,40.18098,15.62657,5.61588,5.33139,-4.3322,-7.97119,38.32924,5.3765,-13.83141,34.5398,-11.06757,26.20554,124.9664,0.01499,-88.56307,129.07629,-0.00018,78.36858,-6.03337,2.21532,0.03451,-3.51425,-2.83794,0.00907,-0.92091,1.43665,6.37732,-22.51555,-1.02137,6.45653,1.22896,2.23193,5.0561
1664,-4.14834,0.0,0.0,-2.79315,0.0,0.0,-13.88589,-9.69552,9.55503,13.68293,7.7241,-2.37559,-37.89498,0.58766,0.00707,-13.77486,-1.3172,-0.00015,39.8236,15.88464,6.41275,5.38734,-4.2364,-8.0293,39.76337,5.40676,-13.59293,34.51117,-11.04177,25.80343,122.03613,-0.00633,-89.44713,128.81961,0.00066,78.76711,-3.81475,3.02177,0.00115,-3.65991,-2.23973,0.01505,-1.12598,1.59948,6.54195,-22.71263,-0.93052,6.66951,1.07333,2.51058,5.336
1665,-2.1517,0.0,0.0,-2.49939,-0.0,0.0,-13.63449,-9.50209,8.95163,13.72546,7.57382,-2.21102,-36.83886,1.02929,0.00268,-13.93277,-1.28971,-0.00029,39.37706,16.13502,7.05038,5.39789,-4.143,-7.99706,41.01715,5.417,-13.25976,34.39664,-10.95844,25.28552,119.01083,-0.03143,-90.59779,128.88438,0.00159,78.60668,-1.34043,2.7819,-0.02737,-3.00287,-0.97854,0.01945,-1.2714,1.7998,6.68035,-22.85089,-0.79514,6.87186,0.90627,2.78323,5.47521
1666,-2.0713,0.0,0.0,-2.99457,0.0,0.0,-13.07406,-9.21649,8.92621,13.93504,7.65172,-2.27727,-35.62838,1.06605,-0.00433,-14.12493,-1.25193,-0.00016,38.81422,16.39071,7.21308,5.43103,-4.06821,-7.71466,41.76112,5.5616,-12.91826,34.29405,-10.68284,24.97878,116.48471,-0.02092,-91.71459,129.06799,0.00134,77.68128,0.0687,2.01123,-0.01507,-2.35709,0.17736,0.00862,-1.36554,1.92581,6.83223,-22.93759,-0.73378,7.05938,0.74164,3.01582,5.44413
1667,-3.04823,0.0,-0.0,-3.66539,0.0,-0.0,-12.44681,-9.10144,9.50564,14.17428,7.97623,-2.46336,-34.27912,0.76611,-0.00893,-14.34802,-1.28885,0.00011,38.16656,16.71237,6.89041,5.52621,-3.95146,-7.20848,41.90755,5.94898,-12.63195,34.24289,-10.21547,25.03652,114.92303,0.00402,-92.04472,129.20975,-0.00106,76.9866,-0.00467,1.27585,0.0052,-2.30587,0.37436,0.00303,-1.4366,1.89491,7.06731,-22.99795,-0.84888,7.26654,0.59427,3.27277,5.30163
1668,-4.00724,0.0,-0.0,-4.06657,-0.0,0.0,-11.95609,-9.29178,10.51477,14.38746,8.3118,-2.64716,-32.87457,0.3773,-0.00706,-14.583,-1.3985,-3e-05,37.5049,17.08187,6.30698,5.66124,-3.77759,-6.59157,41.66087,6.53274,-12.3931,34.21236,-9.74179,25.30725,114.4421,0.01136,-91.61696,129.26096,-0.00135,77.33541,-0.86458,0.75594,0.00878,-2.66866,-0.66688,0.00513,-1.47769,1.70721,7.41018,-23.02392,-1.14936,7.51635,0.45146,3.61005,5.1195
1669,-4.45342,0.0,-0.0,-4.0441,-0.0,0.0,-11.65623,-9.61654,11.5286,14.5879,8.3391,-2.74012,-31.48517,0.19974,0.00065,-14.83409,-1.50508,-0.00049,36.86755,17.40945,5.93362,5.79233,-3.61135,-5.99144,41.30895,7.16624,-12.13431,34.22483,-9.44148,25.57247,114.8934,0.01247,-91.31706,129.14328,-0.00036,78.18196,-1.51582,0.32616,0.00218,-2.90295,-2.39817,-0.00098,-1.43804,1.42681,7.81542,-22.96671,-1.55889,7.7903,0.26964,3.99884,4.93454
1670,-4.58233,0.0,0.0,-3.62756,-0.0,-0.0,-11.49816,-9.8673,12.16726,14.74424,8.15061,-2.70094,-30.13344,0.36944,0.00703,-15.12803,-1.61271,-0.00037,36.21721,17.67768,6.17351,5.89552,-3.4771,-5.51389,41.01314,7.7091,-11.76853,34.39705,-9.29134,25.77051,116.05453,0.01014,-91.42833,128.75728,-0.00396,78.44365,-1.30239,-0.09562,-0.00383,-2.63655,-3.80213,-0.00561,-1.27433,1.15138,8.21188,-22.78585,-1.96051,8.05812,-0.00059,4.38767,4.7516
1671,-4.86862,0.0,-0.0,-3.12488,0.0,-0.0,-11.36283,-10.04075,12.51547,14.83723,8.19191,-2.57419,-28.85381,0.71914,0.0063,-15.48368,-1.82366,0.00058,35.5425,17.96105,6.91746,6.00478,-3.31342,-5.20071,40.78919,8.04878,-11.22747,34.79128,-9.14701,25.98658,117.69289,-0.00046,-91.33727,128.1429,-0.00865,77.85863,-0.08913,-0.34495,0.00016,-1.82893,-4.19488,0.00253,-1.01739,0.98853,8.58585,-22.51134,-2.24908,8.3465,-0.34038,4.77333,4.54363
1672,-5.5318,0.0,0.0,-3.01555,-0.0,-0.0,-11.13857,-10.22648,12.958,14.96969,8.57691,-2.46126,-27.73103,0.96748,0.00106,-15.89049,-2.16354,0.0012,34.95674,18.29603,7.65113,6.2022,-3.07862,-5.01058,40.59397,8.12283,-10.51917,35.26038,-8.96286,26.31835,119.5639,-0.00409,-90.75932,127.53743,-0.00692,77.08911,1.55995,-0.21266,0.00872,-0.72764,-3.7066,0.009,-0.77097,0.97995,8.99676,-22.24244,-2.40753,8.72599,-0.63541,5.17813,4.24568
1673,-6.43471,0.0,0.0,-3.56401,0.0,-0.0,-10.81829,-10.43137,13.68462,15.29041,8.92744,-2.45258,-26.82049,0.98924,-0.00255,-16.32692,-2.50344,0.00059,34.59175,18.62662,7.97245,6.5325,-2.81962,-4.84448,40.39202,7.97097,-9.77361,35.5053,-8.856,26.7078,121.46429,-0.00258,-89.90672,127.26216,-0.00463,76.93198,2.63362,0.32131,0.00496,0.29185,-2.93265,0.00418,-0.6293,1.05599,9.48708,-22.07126,-2.51609,9.21051,-0.78639,5.59165,3.82917
1674,-7.31293,-0.0,-0.0,-4.57381,0.0,0.0,-10.51679,-10.60025,14.50756,15.79427,9.00543,-2.55016,-26.07322,0.86482,-0.00257,-16.79914,-2.72003,-0.00036,34.43251,18.90506,7.90421,6.96384,-2.59031,-4.62142,40.16863,7.70067,-9.17229,35.34628,-8.96589,26.89211,123.2907,-0.01083,-88.73848,127.48463,-0.00536,77.44872,2.62981,1.16639,-0.00778,1.07421,-2.19963,0.0015,-0.62294,1.1205,9.98642,-22.03343,-2.63842,9.69932,-0.81828,5.98161,3.40376
1675,-7.91783,0.0,-0.0,-5.56246,-0.0,-0.0,-10.39828,-10.69123,15.06902,16.30875,9.0451,-2.65839,-25.39952,0.74819,-0.00077,-17.34154,-2.82981,-0.00061,34.33757,19.16022,7.74503,7.4354,-2.38289,-4.3305,39.89833,7.39179,-8.8003,34.91219,-9.26902,26.65196,125.00966,-0.01722,-87.20574,128.02327,-0.00108,77.86292,2.09027,2.19044,-0.0122,1.81531,-1.31068,0.00942,-0.74551,1.1387,10.33931,-22.13327,-2.7502,10.03482,-0.83707,6.34567,3.13771
1676,-8.11991,0.0,0.0,-6.1686,0.0,0.0,-10.57304,-10.67136,15.15768,16.71756,9.31686,-2.72769,-24.77279,0.72342,0.00063,-17.97141,-2.90475,-0.00042,34.18571,19.39456,7.678,7.89012,-2.20665,-3.99255,39.53848,7.05378,-8.63519,34.45576,-9.58082,26.12811,126.56159,-0.00704,-85.8052,128.47783,0.00356,77.62881,1.85803,3.06164,-0.00919,2.59371,-0.15868,0.01524,-0.99003,1.11767,10.45932,-22.37037,-2.81353,10.13901,-0.90589,6.70075,3.04741
1677,-8.00872,0.0,-0.0,-6.33529,0.0,0.0,-11.01636,-10.51725,14.8008,17.07299,9.72314,-2.81994,-24.25165,0.76751,0.00071,-18.65742,-2.98146,-7e-05,33.99653,19.5505,7.63814,8.31659,-2.10483,-3.6459,39.08894,6.66267,-8.65025,34.03704,-9.75421,25.7472,127.8465,0.00529,-85.04871,128.59856,0.00348,77.03027,2.0033,3.29037,-0.00709,2.99221,0.67436,0.01399,-1.33791,1.06638,10.42143,-22.72164,-2.84748,10.08497,-0.9718,7.06818,2.99184
1678,-7.73928,0.0,0.0,-6.13624,-0.0,0.0,-11.53933,-10.22861,14.12331,17.44109,9.98369,-2.96991,-23.93515,0.80332,0.00014,-19.33416,-3.09804,0.00048,33.90495,19.64839,7.5243,8.76371,-2.04085,-3.38409,38.63263,6.25107,-8.80492,33.56142,-9.79955,25.78499,128.84125,0.00522,-84.86914,128.40564,0.00234,76.45446,1.8073,2.58928,0.00722,2.67509,0.3745,0.01846,-1.7269,0.99099,10.38262,-23.11452,-2.90353,10.02127,-0.94307,7.49459,2.88057
1679,-7.28675,0.0,0.0,-5.59284,-0.0,0.0,-11.8356,-9.83295,13.29892,17.78336,9.97162,-3.13618,-23.89341,0.76159,3e-05,-19.94751,-3.27033,0.00023,33.9551,19.77863,7.32496,9.2203,-1.93661,-3.26487,38.28591,5.93796,-8.99375,33.0236,-9.82072,26.06896,129.64314,-0.00025,-85.06068,128.00958,2e-05,75.78663,0.75466,1.11975,0.0299,2.21898,-1.17448,0.00828,-2.07481,0.8807,10.46452,-23.45923,-3.03609,10.05735,-0.86806,7.98982,2.75539
1680,-6.58155,0.0,0.0,-4.77927,0.0,0.0,-11.61813,-9.45929,12.58767,18.05923,9.79115,-3.30285,-24.12243,0.63749,0.00044,-20.5131,-3.43315,-0.00128,34.02482,19.93606,7.07308,9.59427,-1.82794,-3.20654,38.09668,5.82116,-9.12852,32.48889,-9.90495,26.14384,130.34364,-0.00179,-85.77464,127.55692,-0.00212,74.62135,-0.82468,-0.49823,0.02909,2.69171,-3.08182,-0.01474,-2.35106,0.70005,10.71744,-23.72261,-3.29649,10.22725,-0.91126,8.44079,2.67718
1681,-5.78317,-0.0,-0.0,-3.93722,0.0,-0.0,-10.81038,-9.32465,12.21236,18.30145,9.69122,-3.45725,-24.55024,0.50004,0.00056,-21.11936,-3.55244,-0.0022,34.00963,20.02537,6.8464,9.87825,-1.81822,-3.13854,37.97794,5.88613,-9.20201,31.96265,-10.04672,25.73902,130.96922,0.00116,-87.24245,127.23677,0.00027,72.88176,-2.12316,-1.52051,0.00928,4.26665,-4.1765,-0.00498,-2.57535,0.4426,11.13345,-23.92482,-3.68778,10.52144,-1.12696,8.69061,2.62869
1682,-5.10482,0.0,0.0,-3.23655,-0.0,0.0,-9.63566,-9.47907,12.15841,18.53363,9.86848,-3.49361,-25.07789,0.41597,0.00022,-21.83516,-3.74253,-0.00044,33.91877,20.02654,6.76021,10.15395,-1.89702,-3.18166,37.77499,6.03644,-9.21271,31.44972,-10.13826,25.0309,131.57117,0.00668,-89.3635,127.08479,0.00308,71.17644,-2.44622,-1.7954,-0.00102,5.88719,-4.24996,0.014,-2.74923,0.17305,11.64827,-24.06989,-4.12615,10.9038,-1.42667,8.72012,2.54917
1683,-4.54461,-0.0,-0.0,-2.62064,-0.0,0.0,-8.45736,-9.71119,12.18166,18.73817,10.26263,-3.30587,-25.63173,0.40611,-0.00027,-22.64946,-4.13675,0.00281,33.82187,20.01656,6.88393,10.46743,-1.94194,-3.50302,37.43555,6.15006,-9.13288,30.98561,-10.09969,24.38499,132.21634,0.0099,-91.69994,126.93415,0.003,70.23379,-1.50833,-1.96984,-0.0112,6.47883,-4.15077,0.01601,-2.84554,-0.02229,12.1235,-24.13759,-4.48082,11.27662,-1.71416,8.68089,2.44724
1684,-4.05966,0.0,-0.0,-2.11674,0.0,0.0,-7.48072,-9.84184,12.11173,18.95179,10.60122,-3.03326,-26.18132,0.46418,-0.00051,-23.51997,-4.67261,0.00378,33.80525,20.02848,7.13808,10.81693,-1.88438,-4.0088,37.06753,6.14797,-9.00249,30.51683,-10.00092,23.91112,132.86369,0.00561,-93.67953,126.68529,0.00263,70.18005,0.39574,-2.69123,-0.02927,5.97601,-4.466,0.01448,-2.8348,-0.0898,12.38188,-24.10987,-4.63752,11.49355,-1.93693,8.73323,2.41715
1685,-3.75897,-0.0,-0.0,-1.96106,-0.0,0.0,-6.63272,-9.8858,12.07217,19.27766,10.67218,-3.05779,-26.71107,0.53925,-0.00011,-24.42116,-5.11354,0.00138,33.8906,20.02023,7.29552,11.15642,-1.76173,-4.35105,36.79271,6.06816,-8.96619,29.90728,-9.97846,23.37644,133.40154,-0.00147,-94.87421,126.44452,0.00173,70.60289,2.44214,-3.89985,-0.02803,5.15055,-4.83595,0.00842,-2.67348,-0.02069,12.34187,-23.94949,-4.5586,11.48131,-2.11534,8.9122,2.51892
1686,-3.67275,0.0,0.0,-2.16179,-0.0,-0.0,-5.77493,-9.85904,12.20726,19.73571,10.51503,-3.55701,-27.19074,0.57817,0.00034,-25.32766,-5.3051,-0.00108,34.02246,19.96456,7.24447,11.42593,-1.64178,-4.3612,36.62369,6.01413,-9.15974,29.08973,-10.11562,22.53387,133.8047,-0.00455,-95.20301,126.38097,0.00092,70.95876,3.67761,-5.08469,-0.00446,4.74561,-4.69327,0.00344,-2.32056,0.1225,12.11065,-23.60949,-4.34125,11.31733,-2.30945,9.15871,2.71437
1687,-3.62435,0.0,0.0,-2.30558,-0.0,-0.0,-4.9327,-9.72736,12.42431,20.23074,10.29334,-4.25498,-27.57308,0.61441,0.00015,-26.19681,-5.29269,-0.00143,34.18104,19.82583,7.12003,11.62437,-1.60939,-4.28305,36.52413,6.04095,-9.58226,28.09964,-10.44011,21.46386,134.1239,-0.0038,-94.85474,126.56249,0.00131,70.98405,3.59942,-5.89302,0.01198,4.76972,-4.06844,0.00248,-1.82947,0.2271,11.8996,-23.13084,-4.16714,11.15825,-2.48952,9.39491,2.89808
1688,-3.60782,0.0,0.0,-2.06113,-0.0,-0.0,-4.19461,-9.57764,12.69051,20.72215,10.02852,-4.84116,-27.82253,0.68597,-0.00012,-26.99244,-5.14853,-0.00138,34.3809,19.48112,6.97236,11.76027,-1.7865,-4.37294,36.4577,6.14917,-10.0811,26.99507,-10.906,20.52348,134.37495,-0.00162,-94.13323,126.89048,0.00079,70.97582,2.53227,-6.28231,0.00963,4.6273,-3.50068,0.00236,-1.38466,0.23679,11.85603,-22.68891,-4.14229,11.12108,-2.5483,9.52918,2.92026
1689,-3.89118,-0.0,0.0,-1.55339,0.0,0.0,-3.5309,-9.5049,13.18763,21.24941,9.63424,-5.34679,-27.95671,0.71239,-3e-05,-27.69555,-4.87067,-0.00185,34.57809,18.8473,6.65313,11.79235,-2.22888,-4.53064,36.30861,6.31042,-10.47407,25.80393,-11.38264,19.92648,134.55234,-0.00023,-93.27744,127.15765,0.00029,71.42739,1.34428,-6.27226,0.00089,3.92916,-3.41784,0.00574,-1.16351,0.17938,11.96438,-22.4615,-4.23513,11.20138,-2.44214,9.48177,2.6917
1690,-4.48707,-0.0,-0.0,-1.08659,0.0,-0.0,-2.86792,-9.36304,13.90671,21.76603,9.20632,-5.92054,-28.04628,0.58463,0.00027,-28.26837,-4.51905,-0.00134,34.71091,18.0644,6.19532,11.70586,-2.81126,-4.54908,35.88671,6.46853,-10.74842,24.47952,-11.78535,19.46336,134.67189,-0.00031,-92.22955,127.21465,0.0013,72.27264,0.69257,-5.78104,-0.00166,3.05264,-3.78486,0.00555,-1.16251,0.09032,12.06221,-22.45585,-4.35364,11.26035,-2.20481,9.26892,2.33973
1691,-4.9674,0.0,0.0,-0.80877,0.0,0.0,-2.22422,-8.94119,14.47802,22.14514,9.02964,-6.53293,-28.15184,0.33818,0.00041,-28.65265,-4.26118,9e-05,34.78837,17.3759,5.91812,11.53716,-3.31926,-4.48251,35.09176,6.61794,-11.12223,22.89264,-12.18427,18.75156,134.73189,-9e-05,-90.73682,127.07468,0.0004,72.86033,0.59701,-4.73056,0.0015,2.66238,-4.33782,-0.00054,-1.21352,0.00875,11.94644,-22.51747,-4.38758,11.12246,-1.87191,8.99819,2.12192
1692,-4.96442,0.0,0.0,-0.71239,-0.0,-0.0,-1.67112,-8.30084,14.55028,22.36047,9.2443,-7.0601,-28.27299,0.15548,9e-05,-28.83128,-4.21253,0.0007,34.85338,16.86538,6.07727,11.28682,-3.6319,-4.56962,34.01669,6.83989,-11.81639,20.9412,-12.69879,17.65761,134.70311,0.00075,-88.77357,126.8522,-0.00178,72.77915,0.68089,-3.24223,0.00536,2.74854,-4.99032,-0.00183,-1.14714,-0.00737,11.51705,-22.48173,-4.2465,10.71544,-1.48761,8.76144,2.16771
1693,-4.41122,-0.0,0.0,-0.66845,-0.0,0.0,-1.27444,-7.69281,14.04674,22.4909,9.72439,-7.4461,-28.37299,0.216,-0.00024,-28.85004,-4.34805,0.00028,34.92192,16.43307,6.68876,10.92646,-3.77485,-4.96002,32.9043,7.13654,-12.79527,18.66585,-13.32057,16.29388,134.59641,-0.00054,-86.86494,126.65445,-0.00119,72.22491,0.70149,-1.77217,0.01372,2.75409,-5.86069,0.00435,-0.92152,0.03157,10.85116,-22.29977,-3.96773,10.10789,-1.11944,8.57749,2.41786
1694,-3.36259,0.0,0.0,-0.46854,0.0,0.0,-1.08,-7.25238,13.08163,22.57105,10.2764,-7.70853,-28.4172,0.53719,5e-05,-28.77656,-4.56573,-0.00024,34.99282,15.95558,7.58169,10.47537,-3.85528,-5.61752,32.05194,7.31295,-13.82983,16.21676,-13.90671,14.71682,134.5347,-0.00124,-85.99638,126.54343,0.00321,71.55968,0.82849,-1.12375,0.02049,2.60005,-6.87081,0.00909,-0.64593,0.02543,10.11573,-22.07061,-3.70509,9.41939,-0.80602,8.42717,2.74981
1695,-2.12841,0.0,0.0,-0.07902,-0.0,-0.0,-1.02514,-6.96307,11.93734,22.57481,10.73223,-7.93209,-28.3551,0.902,0.00061,-28.67815,-4.74567,-0.00029,35.05291,15.37873,8.34618,9.99356,-3.97391,-6.34855,31.66091,7.17871,-14.7404,13.73787,-14.32528,12.87748,134.74245,0.0069,-86.7755,126.50671,0.00799,70.78642,1.43386,-2.1429,-0.00188,2.82728,-7.57187,0.01341,-0.47013,-0.09115,9.41579,-21.93846,-3.55767,8.72389,-0.5274,8.29,3.06672
1696,-1.26945,0.0,0.0,0.29177,-0.0,0.0,-0.97478,-6.81227,10.95489,22.49061,10.97231,-8.22327,-28.09836,1.03854,0.00023,-28.61116,-4.81951,-0.00011,35.06597,14.69858,8.5338,9.53988,-4.17851,-6.96034,31.65831,6.82078,-15.45325,11.3349,-14.54561,10.88002,135.37129,0.01298,-88.58992,126.37733,0.00444,69.41133,2.70859,-5.023,-0.05073,3.68117,-7.81259,0.02084,-0.43152,-0.26407,8.75893,-21.93928,-3.47796,8.04808,-0.22783,8.12064,3.33244
1697,-1.04937,0.0,-0.0,0.48664,0.0,-0.0,-0.91432,-6.82878,10.22123,22.33487,11.00388,-8.6027,-27.57973,0.90242,-0.00104,-28.5852,-4.82361,2e-05,34.98721,13.91654,8.11147,9.12888,-4.47877,-7.47681,31.73432,6.52747,-15.93943,9.07108,-14.60591,9.04338,136.26306,-0.00042,-90.21365,125.89409,-0.00992,67.18281,4.53783,-8.80615,-0.06982,4.62023,-8.32461,0.02295,-0.45463,-0.37894,8.12149,-21.99671,-3.35094,7.41183,0.13379,7.8346,3.55891
1698,-1.29532,-0.0,0.0,0.49015,0.0,-0.0,-0.9388,-6.99661,9.58397,22.15889,10.82902,-9.05681,-26.84929,0.62918,-0.00197,-28.56237,-4.78361,0.00014,34.79675,13.04164,7.3698,8.68491,-4.85519,-8.02341,31.65613,6.46591,-16.26849,6.85702,-14.56986,7.50787,136.95642,-0.01839,-90.98298,125.01562,-0.01902,64.60536,6.57978,-11.88253,-0.02819,5.0608,-9.84932,0.02059,-0.45817,-0.39249,7.46384,-22.03069,-3.1219,6.79423,0.53478,7.39177,3.76404
1699,-1.70571,0.0,-0.0,0.32027,0.0,-0.0,-1.09865,-7.18544,8.86955,22.01316,10.37705,-9.61337,-26.06617,0.33991,-0.00163,-28.52011,-4.65296,0.00023,34.53046,12.12157,6.56011,8.12095,-5.23793,-8.58345,31.47598,6.57449,-16.64808,4.41637,-14.51156,5.97985,137.00452,-0.01018,-90.57915,124.07323,-0.01341,62.26449,8.33978,-13.20033,0.0247,5.135,-11.94123,0.00753,-0.38713,-0.38151,6.68957,-21.99162,-2.82681,6.07737,0.90633,6.87817,3.99559
1700,-1.99283,0.0,-0.0,0.09117,0.0,0.0,-1.3672,-7.25192,7.92636,21.86433,9.75665,-10.25723,-25.37195,0.14852,-0.0001,-28.49771,-4.45251,0.00011,34.28414,11.21501,5.89411,7.49088,-5.53855,-9.06873,31.38186,6.73892,-17.319,1.52877,-14.45834,4.14236,136.30035,0.0298,-88.50195,123.41524,-0.00136,60.68333,9.31641,-12.90288,0.03199,5.07862,-13.5174,-0.00618,-0.20263,-0.43415,5.67913,-21.84455,-2.5034,5.11762,1.20895,6.43578,4.34863
1701,-2.07584,0.0,-0.0,0.01627,-0.0,0.0,-1.65188,-7.24251,6.76773,21.62039,9.25605,-10.94774,-24.82498,0.14759,0.001,-28.55644,-4.25862,4e-05,34.17551,10.32508,5.45236,6.95034,-5.717,-9.43922,31.45685,6.94088,-18.45765,-1.67595,-14.32989,2.1492,135.14565,0.05403,-84.91335,122.97584,0.01028,60.57775,9.27992,-11.84191,0.00637,4.48723,-14.28529,-0.00204,0.07939,-0.54959,4.384,-21.60187,-2.13262,3.87037,1.46435,6.13787,4.854
1702,-2.12686,-0.0,0.0,0.25996,-0.0,0.0,-1.86347,-7.33963,5.63286,21.20498,9.05381,-11.68769,-24.44797,0.32771,0.00077,-28.69616,-4.05999,0.00047,34.26138,9.40445,5.05054,6.54931,-5.78944,-9.71344,31.67033,7.24352,-20.13388,-4.71451,-14.02789,0.49411,134.04898,0.02863,-81.25188,122.34431,0.02053,61.95572,8.40348,-10.78047,-0.011,2.91856,-14.84992,0.02218,0.37277,-0.68671,2.85223,-21.3412,-1.69371,2.3957,1.69645,5.97185,5.41027
1703,-2.32652,-0.0,0.0,0.8402,0.0,-0.0,-2.02064,-7.58881,4.74611,20.59159,9.10426,-12.44185,-24.22235,0.61342,0.00014,-28.86437,-3.79206,0.00114,34.46048,8.41757,4.51564,6.18641,-5.81304,-9.94779,32.01376,7.69794,-22.23938,-7.07431,-13.60789,-0.52799,133.39281,-0.00547,-79.27148,121.22228,0.0127,63.61845,6.9935,-10.13419,-0.00771,0.78423,-15.56215,0.03889,0.58564,-0.8338,1.18859,-21.14686,-1.21462,0.7954,1.87035,5.87633,5.94369
1704,-2.81817,0.0,0.0,1.60155,0.0,-0.0,-2.18603,-7.84882,4.22043,19.8397,9.14223,-13.14149,-24.04587,0.90937,-4e-05,-29.07495,-3.40693,0.00073,34.62106,7.36518,3.85749,5.80159,-5.87913,-10.11331,32.53898,8.27706,-24.48563,-8.5504,-13.27631,-1.0953,133.22157,-0.00953,-79.99353,119.71771,-0.01229,64.41599,5.27108,-10.07179,0.00416,-0.881,-15.87606,0.02913,0.67379,-0.99472,-0.50265,-21.0595,-0.7379,-0.83524,1.93784,5.7652,6.55667
1705,-3.60628,0.0,0.0,2.30303,0.0,-0.0,-2.37343,-7.97614,4.08398,19.06845,8.85649,-13.78003,-23.81951,1.12146,-0.00012,-29.45237,-2.88384,-0.00153,34.70255,6.27264,3.08323,5.50268,-6.04469,-10.12717,33.2967,8.88475,-26.56528,-9.21216,-13.21749,-1.53259,133.29007,-0.00134,-83.13958,118.17065,-0.01957,64.49871,3.65798,-10.52401,0.0066,-1.60189,-15.16217,0.015,0.62175,-1.16948,-2.16809,-21.09447,-0.28386,-2.44685,1.92165,5.58709,7.40856
1706,-4.32151,0.0,0.0,2.7487,0.0,-0.0,-2.58706,-7.91645,4.15434,18.35113,8.25299,-14.35529,-23.56458,1.22915,-0.00034,-30.11055,-2.3018,-0.00325,34.79826,5.19818,2.17358,5.43615,-6.24451,-10.09463,34.27214,9.40227,-28.32461,-9.09856,-13.49804,-1.86464,133.26491,0.00075,-86.70248,116.79191,-0.00373,64.81234,2.85648,-11.04358,-0.00062,-2.03685,-13.72338,0.00037,0.43005,-1.36531,-3.7766,-21.2527,0.12881,-4.01342,1.88677,5.38972,8.52093
1707,-4.57527,0.0,0.0,2.89064,0.0,-0.0,-2.82126,-7.69374,4.08386,17.6508,7.66449,-14.81139,-23.37738,1.31295,-0.0005,-31.02744,-1.82211,-0.00179,34.96548,4.21044,1.23946,5.59803,-6.35338,-10.27354,35.32944,9.75172,-29.7608,-8.14023,-14.09497,-1.90906,132.94817,0.01179,-88.15917,115.59245,0.01012,65.79472,3.17123,-10.81238,0.00624,-3.02528,-12.45289,-0.00671,0.12626,-1.59124,-5.27049,-21.51026,0.47006,-5.48477,1.85305,5.27164,9.75421
1708,-4.44806,0.0,0.0,2.89668,0.0,0.0,-3.02701,-7.41191,3.6966,16.86659,7.3284,-15.10099,-23.28341,1.47358,-0.00043,-32.084,-1.52665,0.0017,35.14072,3.3047,0.48463,5.86124,-6.36827,-10.78386,36.2234,9.97929,-30.91636,-6.38716,-14.91677,-1.66281,132.41493,0.02378,-86.96823,114.58762,0.00989,67.16595,4.06559,-9.28722,0.01836,-4.54374,-11.86732,0.00186,-0.2687,-1.83282,-6.62046,-21.85068,0.74241,-6.82834,1.81186,5.24093,10.93224
1709,-4.23569,0.0,-0.0,3.00069,0.0,0.0,-3.17775,-7.21849,3.12751,15.94515,7.1725,-15.22461,-23.17929,1.73788,0.00012,-33.20275,-1.3617,0.00478,35.22285,2.41125,0.01239,6.14613,-6.42877,-11.52393,36.76669,10.25824,-31.87123,-4.06599,-15.86686,-1.35384,131.95728,0.0154,-84.71151,113.87492,0.00096,68.46362,4.71837,-7.03998,0.00955,-5.82306,-11.91841,0.00777,-0.75002,-2.04678,-7.88998,-22.26978,1.0095,-8.08717,1.77747,5.18778,11.98864
1710,-4.112,-0.0,0.0,3.29393,-0.0,0.0,-3.2882,-7.21862,2.6167,14.92655,7.01562,-15.25188,-22.93838,2.03317,0.00068,-34.40319,-1.19942,0.00551,35.16159,1.51581,-0.28199,6.47204,-6.65076,-12.27139,37.00257,10.74491,-32.758,-1.30829,-16.97666,-1.19156,131.83907,-0.00187,-82.64648,113.51229,-0.00631,69.21323,4.72922,-5.41111,-0.00018,-6.05186,-12.35084,-3e-05,-1.24551,-2.20046,-9.17555,-22.69199,1.337,-9.33914,1.7371,5.02819,12.99922
1711,-4.25777,0.0,-0.0,3.80002,0.0,-0.0,-3.34231,-7.40291,2.28278,13.88016,6.78605,-15.29575,-22.56996,2.25729,0.00044,-35.73703,-0.87586,0.00208,34.99422,0.67612,-0.59799,6.89378,-7.05732,-12.77491,37.1158,11.43012,-33.61791,1.99954,-18.36028,-1.22043,132.07585,-0.01258,-80.63875,113.47778,-0.00458,69.07599,4.26691,-5.06959,0.00275,-4.94917,-12.88477,-0.00867,-1.59949,-2.31942,-10.48591,-22.96078,1.70409,-10.60204,1.62585,4.78609,14.06272
1712,-4.88083,0.0,-0.0,4.61862,0.0,0.0,-3.30408,-7.64402,2.06143,12.83822,6.51633,-15.41033,-22.23864,2.39074,-0.00019,-37.21025,-0.25383,-0.00442,34.84269,-0.06772,-0.9983,7.45755,-7.63181,-12.86642,37.18481,12.16114,-34.28778,6.02546,-19.9611,-1.35323,132.46001,-0.01129,-78.55341,113.76945,0.00481,68.11102,3.87325,-5.46125,0.00048,-2.99155,-13.25733,-0.00495,-1.72659,-2.47596,-11.68454,-22.99989,1.99364,-11.7752,1.41791,4.52165,15.18279
1713,-5.90675,0.0,-0.0,5.76482,0.0,-0.0,-3.18798,-7.77247,1.81846,11.77819,6.26014,-15.5544,-22.11211,2.498,-0.00061,-38.7867,0.64401,-0.00847,34.82117,-0.70037,-1.37265,8.17291,-8.30881,-12.60361,37.14881,12.82912,-34.60817,10.77715,-21.48075,-1.43862,132.75407,-0.00318,-77.15802,114.42882,0.01001,66.80576,3.81233,-5.82721,-0.00527,-1.1443,-13.29572,0.0027,-1.70874,-2.72172,-12.58215,-22.90837,2.08937,-12.70059,1.16104,4.27849,16.27222
1714,-6.85972,0.0,-0.0,6.92077,-0.0,0.0,-3.05842,-7.69859,1.5209,10.65221,6.07642,-15.64593,-22.21683,2.60369,-0.00058,-40.46167,1.58709,-0.0061,34.93136,-1.18455,-1.62954,9.00286,-8.9656,-12.28963,37.0152,13.50734,-34.72603,16.05826,-22.62693,-1.3631,132.83478,0.00032,-77.091,115.42927,-0.00029,65.90656,3.39441,-6.10325,0.00365,-0.21634,-12.92937,0.00016,-1.6652,-3.03907,-13.12629,-22.81535,1.98975,-13.32238,0.89854,4.0839,17.24091
1715,-7.26053,0.0,-0.0,7.62453,0.0,0.0,-2.9733,-7.47696,1.25146,9.4494,6.01344,-15.61731,-22.45688,2.6442,0.0,-42.2809,2.31976,-5e-05,35.09612,-1.4997,-1.80394,9.9097,-9.52707,-12.22729,36.95473,14.34218,-34.97625,21.55367,-23.32614,-1.16517,132.73676,0.00128,-77.78188,116.58316,-0.01285,65.78841,1.72593,-6.62938,0.03007,-0.2946,-12.21246,-0.00812,-1.61081,-3.37552,-13.43847,-22.72991,1.78832,-13.73463,0.62694,3.91697,18.07919
1716,-7.06944,0.0,0.0,7.79763,0.0,0.0,-2.93503,-7.19437,1.05048,8.18502,6.0353,-15.40298,-22.74637,2.58681,0.00048,-44.25616,2.7792,0.00398,35.27256,-1.71836,-1.94147,10.89137,-10.05818,-12.47937,37.13644,15.32493,-35.38811,26.98384,-23.7054,-0.98779,132.59581,0.00605,-77.72943,117.59402,-0.00855,65.83155,-0.59009,-7.35603,0.03966,-0.75528,-11.43408,-0.00826,-1.51305,-3.73698,-13.66956,-22.60779,1.53416,-14.08012,0.33026,3.70681,18.85135
1717,-6.5614,0.0,-0.0,7.76029,0.0,0.0,-2.89336,-6.85412,0.83365,6.88159,6.01183,-14.91267,-23.07452,2.52657,0.00013,-46.3232,3.06814,0.00419,35.46157,-1.98552,-1.95855,11.94389,-10.72361,-12.93633,37.53347,16.26469,-35.49742,32.17007,-23.98261,-0.88077,132.51448,0.00864,-75.35271,118.23413,0.00031,65.1521,-1.60258,-7.56162,0.02932,-0.95503,-10.97698,-0.00319,-1.42307,-4.18277,-13.93473,-22.48975,1.21336,-14.48742,0.00371,3.39199,19.61887
1718,-5.98784,0.0,-0.0,7.72725,0.0,-0.0,-2.79531,-6.4782,0.52162,5.62577,5.87228,-14.13252,-23.43273,2.58251,-0.00058,-48.39817,3.29248,0.00246,35.62351,-2.40846,-1.7193,13.01444,-11.65817,-13.46393,37.97278,16.98246,-34.85629,36.99749,-24.33617,-0.70021,132.56883,-0.00035,-70.29682,118.46022,-0.00069,63.87609,-0.53086,-6.85443,0.02506,-0.80142,-10.87447,-0.00024,-1.47013,-4.67883,-14.31463,-22.49771,0.88642,-15.01915,-0.35966,2.94126,20.39274
1719,-5.69895,0.0,-0.0,7.89384,0.0,-0.0,-2.59432,-6.21537,0.19629,4.44944,5.71278,-13.24491,-23.767,2.74249,-0.00054,-50.38875,3.52641,-0.00027,35.70075,-2.98292,-1.27314,14.02537,-12.84005,-13.9179,38.39006,17.42576,-33.67824,41.4271,-24.81577,-0.22799,132.92926,-0.00058,-64.91589,118.33924,-0.00535,62.88969,0.74027,-6.43338,0.04391,-0.51933,-10.74466,0.00208,-1.71571,-5.07109,-14.77467,-22.6964,0.68453,-15.58772,-0.75454,2.35548,21.14278
1720,-6.13521,0.0,-0.0,8.68235,-0.0,0.0,-2.25445,-6.21517,0.03311,3.16916,5.63562,-12.48603,-24.06665,2.90218,0.00013,-52.17648,3.81623,-0.00194,35.73941,-3.62119,-0.88821,14.94038,-14.08142,-14.21005,38.91574,17.60176,-32.72186,45.49274,-25.41199,0.65444,133.6895,0.04019,-62.88781,117.92879,-0.00668,62.7052,-0.37169,-8.15127,0.18594,-0.26422,-10.28358,0.00324,-2.07008,-5.27293,-15.16018,-23.01106,0.63339,-16.01849,-1.12157,1.70519,21.85163
