PaulMeinheit/Bachelor_Muay_Thai/processed_Data/N1/teep/sliced/JointAngles/sliced7.csv
Unnamed: 0_level_0,L_MTP_ANGLE,L_MTP_ANGLE,L_MTP_ANGLE,R_MTP_ANGLE,R_MTP_ANGLE,R_MTP_ANGLE,L_ANKLE_ANGLE,L_ANKLE_ANGLE,L_ANKLE_ANGLE,R_ANKLE_ANGLE,R_ANKLE_ANGLE,R_ANKLE_ANGLE,L_KNEE_ANGLE,L_KNEE_ANGLE,L_KNEE_ANGLE,R_KNEE_ANGLE,R_KNEE_ANGLE,R_KNEE_ANGLE,L_HIP_ANGLE,L_HIP_ANGLE,L_HIP_ANGLE,R_HIP_ANGLE,R_HIP_ANGLE,R_HIP_ANGLE,L_SHOULDER_ANGLE,L_SHOULDER_ANGLE,L_SHOULDER_ANGLE,R_SHOULDER_ANGLE,R_SHOULDER_ANGLE,R_SHOULDER_ANGLE,L_ELBOW_ANGLE,L_ELBOW_ANGLE,L_ELBOW_ANGLE,R_ELBOW_ANGLE,R_ELBOW_ANGLE,R_ELBOW_ANGLE,L_WRIST_ANGLE,L_WRIST_ANGLE,L_WRIST_ANGLE,R_WRIST_ANGLE,R_WRIST_ANGLE,R_WRIST_ANGLE,NECK_ANGLE,NECK_ANGLE,NECK_ANGLE,NECK_ANGLE_SHADOW,NECK_ANGLE_SHADOW,NECK_ANGLE_SHADOW,Trunk_Joint_Angle,Trunk_Joint_Angle,Trunk_Joint_Angle
ITEM,X,Y,Z,X,Y,Z,X,Y,Z,X,Y,Z,X,Y,Z,X,Y,Z,X,Y,Z,X,Y,Z,X,Y,Z,X,Y,Z,X,Y,Z,X,Y,Z,X,Y,Z,X,Y,Z,X,Y,Z,X,Y,Z,X,Y,Z
3820,-0.1234,-0.0,-0.0,-10.59409,-0.0,-0.0,7.52618,-5.08556,8.33734,-12.82511,8.47629,-9.28737,-21.02384,2.81882,0.00035,-53.41586,-1.10668,0.0014,25.45598,0.02707,5.01913,22.24936,-11.93507,-5.70197,-13.1573,18.73583,-15.59309,-5.96452,-17.06527,11.88036,31.68539,-0.00066,-110.16844,30.61465,0.00057,99.74807,4.53978,-6.90518,0.00056,3.27266,6.34197,-0.0016,-20.12296,0.0486,-2.58873,-41.83543,1.0034,-2.38697,1.71296,-3.37477,2.79734
3821,-0.55536,0.0,0.0,-8.51095,0.0,0.0,7.58598,-4.826,7.92095,-11.91471,8.19859,-10.0017,-20.69018,2.92435,0.00055,-53.95084,-1.24404,0.00139,25.15362,0.12596,5.36979,22.83858,-11.8335,-6.07186,-12.98634,18.66816,-15.75953,-5.93213,-17.23486,11.90484,31.50713,-6e-05,-110.16418,30.91928,0.00694,98.60647,4.64477,-7.01364,-0.00068,3.32009,6.20921,-0.00135,-20.14861,-0.06606,-2.56652,-41.86073,0.88866,-2.40877,1.62021,-3.10829,2.61244
3822,-0.60077,0.0,0.0,-6.73657,-0.0,-0.0,7.57635,-4.4896,7.50121,-11.15774,7.66242,-10.43443,-20.36469,3.02206,0.00021,-54.40618,-1.37835,0.00044,24.89843,0.18146,5.73773,23.46892,-11.78832,-6.44343,-12.75766,18.63328,-15.84433,-5.88216,-17.38338,11.88976,31.32215,5e-05,-110.24899,31.26658,0.00915,96.75159,5.01773,-7.27471,-0.00185,3.02554,6.10674,-0.00047,-20.28646,-0.16276,-2.47751,-41.99943,0.76589,-2.36184,1.54114,-2.89843,2.46774
3823,-0.19771,0.0,-0.0,-5.89095,0.0,0.0,7.40731,-4.21469,7.24635,-10.25749,7.26594,-10.86846,-20.04136,3.03478,-0.00034,-54.75687,-1.35603,-0.00064,24.65098,0.18135,6.00484,24.10042,-11.79732,-6.49705,-12.44482,18.70694,-15.82094,-5.73736,-17.43247,11.78103,31.16884,6e-05,-110.59341,31.56387,0.00372,95.23404,5.38082,-7.47725,-0.00108,2.56031,5.81709,0.00034,-20.42439,-0.23967,-2.29567,-42.13971,0.62716,-2.22135,1.39043,-2.85594,2.36519
3824,0.43201,-0.0,-0.0,-6.03114,0.0,0.0,7.08642,-4.11262,7.1421,-9.0826,7.23184,-11.55074,-19.72217,2.96899,-0.00043,-54.94528,-1.11524,-0.00054,24.4132,0.16293,6.14496,24.68242,-11.80543,-6.17073,-12.04986,18.89586,-15.67023,-5.53608,-17.37915,11.5918,31.07463,0.00049,-111.21967,31.82594,-0.00375,95.07607,5.68895,-7.52527,-0.0002,2.22281,5.25853,-0.00091,-20.50243,-0.29811,-2.07892,-42.22053,0.49267,-2.04159,1.19055,-2.94667,2.24506
3825,0.89108,0.0,0.0,-6.51802,0.0,0.0,6.78184,-4.27346,7.04738,-7.74634,7.3995,-12.3618,-19.46339,2.90068,5e-05,-54.94418,-0.80783,0.00041,24.20671,0.17153,6.28534,25.18618,-11.7818,-5.72468,-11.6019,19.14696,-15.48551,-5.38055,-17.30252,11.41798,31.01328,0.0004,-111.99621,32.15195,-0.00752,96.09358,6.04347,-7.49509,6e-05,2.05918,4.61038,-0.00177,-20.5708,-0.33995,-1.95206,-42.2904,0.40685,-1.93922,1.00963,-3.05964,2.11991
3826,0.97157,0.0,-0.0,-6.80013,-0.0,-0.0,6.66659,-4.7437,6.96635,-6.36883,7.54318,-13.00378,-19.31724,2.8687,0.00054,-54.778,-0.66139,0.00075,24.03002,0.2299,6.50925,25.60867,-11.73596,-5.47765,-11.12111,19.38296,-15.43193,-5.28775,-17.28054,11.32998,30.91372,-0.0008,-112.83298,32.54251,-0.00457,97.11098,6.37159,-7.38911,-0.0002,1.8694,3.99969,0.00027,-20.71469,-0.38724,-1.99295,-42.43366,0.37806,-1.99472,0.87013,-3.10363,2.07591
3827,0.79707,0.0,0.0,-6.85959,-0.0,-0.0,6.74295,-5.35067,7.03638,-5.00007,7.66855,-13.3866,-19.21515,2.82991,0.00056,-54.46075,-0.74434,0.00025,23.84777,0.33495,6.74485,25.96126,-11.67342,-5.52566,-10.634,19.53521,-15.53626,-5.14739,-17.3199,11.30095,30.74591,-0.00165,-113.68039,32.8337,-0.00074,97.17848,6.38522,-7.13554,-0.00145,1.56884,3.33862,0.00264,-20.93442,-0.48773,-2.09393,-42.65182,0.32207,-2.12571,0.76106,-3.04815,2.13536
3828,0.53179,0.0,0.0,-6.78309,-0.0,-0.0,6.89734,-5.66902,7.25376,-3.74771,7.91507,-13.63267,-18.99285,2.70675,-0.00031,-53.94786,-0.97114,-0.00082,23.60554,0.49089,6.89072,26.23806,-11.55361,-5.7697,-10.18533,19.57348,-15.62532,-4.86164,-17.37225,11.26041,30.56417,-0.00087,-114.37662,32.9133,-0.00091,96.2873,5.9004,-6.8226,-0.00192,1.29846,2.65881,0.00209,-21.15211,-0.67396,-2.05318,-42.8698,0.13397,-2.15677,0.68223,-2.90363,2.22179
3829,0.16968,0.0,0.0,-6.45911,0.0,0.0,7.03871,-5.44915,7.43674,-2.70803,8.31952,-13.85086,-18.56223,2.47145,-0.00148,-53.1821,-1.25349,-0.00211,23.25391,0.71766,6.94029,26.38778,-11.32083,-6.10543,-9.78149,19.53551,-15.53987,-4.48613,-17.37701,11.1589,30.42851,0.00037,-114.72217,32.92857,-0.00074,95.17559,5.04504,-6.59735,-0.00095,1.12815,2.25216,-2e-05,-21.31176,-0.87575,-1.83481,-43.0324,-0.13429,-2.02859,0.62369,-2.70449,2.26043
3830,-0.25971,-0.0,-0.0,-5.79678,0.0,0.0,7.12369,-4.93921,7.42633,-1.80471,8.68434,-14.03983,-18.01145,2.19555,-0.00139,-52.17518,-1.53681,-0.00228,22.79245,0.99787,6.98281,26.35592,-10.99114,-6.49996,-9.37623,19.50306,-15.24453,-4.18055,-17.28321,10.97246,30.35547,0.00096,-114.76249,33.14918,-0.00153,94.59587,4.16164,-6.39375,-0.0009,0.93619,2.30711,-0.00186,-21.42211,-0.9255,-1.59906,-43.14576,-0.26775,-1.82802,0.541,-2.51432,2.23131
3831,-0.55763,0.0,-0.0,-4.96879,0.0,0.0,7.13722,-4.55126,7.19936,-0.87734,8.71397,-14.15248,-17.52294,1.98783,-0.00018,-51.02758,-1.74889,0.00028,22.30363,1.25598,7.09492,26.17543,-10.66805,-6.93326,-8.95259,19.51901,-14.70709,-4.02646,-17.08475,10.69966,30.37679,0.00136,-114.8145,33.65203,-0.00473,94.72753,3.61375,-6.02366,-9e-05,0.68401,2.67738,-0.00226,-21.5197,-0.73056,-1.46798,-43.24455,-0.13517,-1.6341,0.40063,-2.38646,2.142
3832,-0.56019,-0.0,0.0,-4.34241,0.0,0.0,7.08584,-4.43802,6.8682,0.11804,8.33239,-14.16192,-17.21136,1.88223,0.00059,-49.85626,-1.83079,0.00381,21.90483,1.41799,7.22585,25.97898,-10.44954,-7.34394,-8.55993,19.55556,-13.89655,-3.93353,-16.85357,10.40804,30.53662,0.00157,-115.04527,34.23731,-0.00433,95.15734,3.55996,-5.43954,0.00257,0.50584,3.01008,-0.00091,-21.63766,-0.38491,-1.40602,-43.36316,0.16299,-1.44861,0.23106,-2.31581,2.02101
3833,-0.36107,0.0,-0.0,-4.12716,0.0,-0.0,6.98693,-4.53556,6.6216,1.07123,7.79724,-14.01173,-17.03068,1.82926,0.00047,-48.70181,-1.87442,0.0034,21.62439,1.46483,7.26883,25.88976,-10.34442,-7.70361,-8.24306,19.57468,-12.93365,-3.75259,-16.70068,10.24085,30.80223,0.0006,-115.22387,34.66672,-0.00089,95.30741,3.83756,-4.80094,0.00355,0.43089,3.00698,0.00062,-21.80715,-0.06272,-1.33647,-43.53389,0.43655,-1.26472,0.09027,-2.28165,1.94391
3834,-0.29138,0.0,-0.0,-4.29931,-0.0,0.0,6.87969,-4.77891,6.61204,1.89832,7.46129,-13.62001,-16.84073,1.77829,1e-05,-47.51378,-2.07675,-0.00143,21.3658,1.42325,7.18251,25.89868,-10.29537,-8.0828,-7.976,19.58081,-12.10459,-3.46316,-16.68315,10.27124,31.06544,-0.0004,-115.08989,34.9095,-0.00011,95.08179,4.12989,-4.34332,0.00239,0.31586,2.68973,0.00165,-22.0337,0.11797,-1.24948,-43.76169,0.5722,-1.11702,0.00162,-2.29291,1.98521
3835,-0.57121,0.0,-0.0,-4.71663,0.0,0.0,6.81158,-5.14314,6.83209,2.66011,7.44594,-13.00794,-16.56295,1.72519,-0.00028,-46.20429,-2.46673,-0.00572,21.03885,1.33983,6.98334,25.86319,-10.25439,-8.57011,-7.68702,19.59933,-11.66709,-3.20648,-16.76552,10.38016,31.24534,-0.00021,-114.63459,35.12009,-0.00168,94.90747,4.17944,-4.16717,0.00173,0.10657,2.38351,0.00118,-22.26891,0.12154,-1.17665,-43.99742,0.54856,-1.04805,-0.04374,-2.33842,2.10781
3836,-0.9947,0.0,0.0,-4.9596,0.0,0.0,6.78163,-5.54311,7.06136,3.40591,7.58201,-12.29046,-16.23695,1.70542,-0.00016,-44.71683,-2.86803,-0.00623,20.66818,1.25408,6.77101,25.65975,-10.2095,-9.18587,-7.33542,19.63782,-11.64447,-3.12126,-16.85695,10.37266,31.35005,-1e-05,-113.89812,35.44723,-0.00114,94.91061,3.81472,-4.12835,-0.00011,-0.08877,2.35459,-0.00024,-22.45253,0.00073,-1.1322,-44.18096,0.41988,-1.05147,-0.04695,-2.37499,2.18196
3837,-1.2388,0.0,-0.0,-4.80871,0.0,0.0,6.77699,-5.80412,7.06867,4.1342,7.68702,-11.62114,-15.94204,1.7555,0.00012,-43.08873,-3.09492,-0.0029,20.34857,1.1737,6.70912,25.3341,-10.15909,-9.78767,-6.93335,19.69337,-11.83348,-3.16978,-16.86176,10.16551,31.44981,-0.00062,-112.91982,35.90546,0.00328,94.67948,2.95271,-3.95219,-0.00633,-0.18085,2.56745,-0.00102,-22.56885,-0.10835,-1.10333,-44.29723,0.30785,-1.06504,0.00683,-2.40001,2.13993
3838,-1.39167,0.0,-0.0,-4.90896,0.0,-0.0,6.86431,-5.80858,6.87642,4.93957,7.81623,-11.21142,-15.71152,1.86714,0.00027,-41.42115,-3.0392,0.00229,20.13746,1.09503,6.86019,25.0382,-10.09013,-10.06893,-6.49522,19.76727,-11.98192,-3.16212,-16.74032,9.81726,31.62325,-0.00048,-111.94895,36.40014,0.00561,94.09348,1.75727,-3.55137,-0.01049,-0.13532,2.8605,-0.0006,-22.63986,-0.09292,-1.0807,-44.36842,0.31381,-1.03831,0.12411,-2.45099,2.03608
3839,-1.71463,0.0,0.0,-5.74116,0.0,-0.0,7.09145,-5.61688,6.63482,5.84805,8.12161,-11.1288,-15.50525,1.99052,0.00034,-39.7457,-2.71657,0.00548,19.98373,1.04302,7.15896,24.81132,-9.98536,-9.89094,-6.03405,19.85067,-11.92266,-2.95823,-16.54309,9.45059,31.93424,0.00219,-111.34235,36.84634,0.00185,93.72783,0.66921,-3.21544,-0.00591,0.1232,3.20218,0.00135,-22.71351,0.01417,-1.07591,-44.44236,0.41152,-0.99421,0.27026,-2.52776,1.94307
3840,-2.00809,0.0,-0.0,-6.44851,0.0,-0.0,7.31462,-5.37576,6.38324,6.59204,8.51052,-11.10434,-15.23868,2.06489,0.00023,-37.9827,-2.27591,0.00489,19.75395,1.06274,7.51811,24.52178,-9.83926,-9.50306,-5.61562,19.92874,-11.63612,-2.61144,-16.34967,9.17451,32.42715,0.005,-111.14724,37.24618,-0.00359,94.1159,0.01865,-3.28364,-0.00012,0.62568,3.62605,0.00324,-22.85384,0.09012,-1.09769,-44.58277,0.49014,-0.98632,0.36952,-2.58342,1.86983
3841,-1.76901,-0.0,-0.0,-5.91469,-0.0,-0.0,7.29445,-5.17273,6.12034,6.89075,8.64319,-10.80454,-14.85374,2.04585,-0.00015,-36.06842,-1.87811,0.0017,19.37224,1.16166,7.8562,24.06421,-9.67091,-9.27224,-5.32759,20.00163,-11.25414,-2.30146,-16.18544,9.03019,33.10365,0.00298,-110.98677,37.65902,-0.0054,95.03473,-0.29539,-3.72457,0.00176,1.20346,4.02192,0.00234,-23.06763,0.08843,-1.12064,-44.79641,0.49706,-1.00827,0.37616,-2.59637,1.78942
3842,-0.90904,0.0,0.0,-4.3672,-0.0,-0.0,6.96229,-5.03615,5.94295,6.86979,8.32456,-10.23605,-14.36821,1.93457,-0.00053,-34.06275,-1.59087,-0.00142,18.90651,1.2768,8.0849,23.49872,-9.52515,-9.35448,-5.17648,20.06715,-10.92576,-2.14734,-16.03242,9.01839,33.89979,-0.0041,-110.41845,38.12502,-0.00249,95.81163,-0.57518,-4.23217,0.00178,1.56732,4.18738,0.00039,-23.27769,0.06242,-1.09288,-45.00657,0.46262,-0.99211,0.3368,-2.60382,1.66906
3843,0.0916,0.0,0.0,-3.06391,0.0,-0.0,6.5036,-5.00329,6.00303,6.96119,7.7728,-9.71334,-13.85917,1.76509,-0.0006,-32.10439,-1.38423,-0.0023,18.46188,1.33186,8.12172,22.93592,-9.44211,-9.64359,-5.06695,20.09474,-10.66008,-2.09729,-15.89782,9.18907,34.69851,-0.00939,-109.3115,38.62114,0.00185,96.00159,-0.92114,-4.52819,0.00071,1.54261,4.10209,8e-05,-23.44213,0.04852,-0.98761,-45.1716,0.41074,-0.89946,0.33321,-2.64731,1.48493
3844,0.665,0.0,0.0,-2.84792,0.0,-0.0,6.18444,-5.0967,6.31873,7.41964,7.4207,-9.46868,-13.40819,1.57435,-0.00037,-30.28676,-1.20333,-0.00176,18.06007,1.31675,7.97906,22.40121,-9.41071,-9.93168,-4.88447,20.0475,-10.36888,-2.00136,-15.8208,9.59889,35.38271,-0.00648,-108.01907,39.06732,0.00307,95.60857,-1.16586,-4.49017,-1e-05,1.20796,3.98572,-0.00017,-23.62495,0.0329,-0.85425,-45.35511,0.34686,-0.78137,0.3867,-2.72366,1.28137
3845,0.60727,0.0,-0.0,-3.58954,0.0,0.0,6.11988,-5.26311,6.71212,8.1073,7.45223,-9.46731,-13.0541,1.40246,-5e-05,-28.60966,-1.01765,-0.00074,17.67733,1.27562,7.80304,21.87968,-9.37693,-10.05484,-4.58384,19.92634,-10.04317,-1.77627,-15.81905,10.17241,35.92263,0.0018,-107.18385,39.38334,0.00083,94.86967,-1.14705,-4.23986,0.00022,0.80864,4.01023,-0.00066,-23.87636,0.03635,-0.81235,-45.60674,0.33454,-0.74116,0.45512,-2.81414,1.19477
3846,0.18114,0.0,-0.0,-4.65072,0.0,-0.0,6.21105,-5.42615,7.01973,8.69935,7.58669,-9.56303,-12.78961,1.28644,0.00016,-27.04881,-0.79683,0.00077,17.3221,1.25315,7.71773,21.39536,-9.29372,-9.94387,-4.20869,19.78317,-9.80426,-1.46243,-15.86618,10.73203,36.41452,0.00818,-107.08376,39.57008,-0.00097,93.86387,-0.97551,-4.07749,-0.00025,0.50495,4.10723,-0.00019,-24.11965,0.12086,-0.96366,-45.84947,0.46907,-0.85043,0.48506,-2.90942,1.33516
3847,-0.18243,0.0,0.0,-5.39598,-0.0,0.0,6.30457,-5.60691,7.26059,8.96617,7.42524,-9.66525,-12.58985,1.24311,0.00021,-25.60091,-0.53328,0.00159,17.02474,1.28468,7.68446,20.97162,-9.13503,-9.69785,-3.84684,19.69816,-9.7704,-1.12852,-15.90252,11.15815,36.98625,0.00844,-107.29527,39.71354,5e-05,92.48297,-0.95268,-4.16594,-0.00038,0.25133,4.13263,0.0006,-24.23796,0.26946,-1.27654,-45.9664,0.72295,-1.08607,0.4489,-2.9805,1.63594
3848,-0.34922,0.0,-0.0,-5.594,0.0,-0.0,6.37299,-5.90478,7.57266,8.92592,6.96828,-9.77191,-12.42683,1.25985,0.00018,-24.24577,-0.28015,0.001,16.78568,1.37462,7.54626,20.56837,-8.90888,-9.54243,-3.57935,19.72805,-9.91355,-0.79252,-15.86196,11.46909,37.68531,0.00196,-107.17269,39.89356,0.00217,90.88227,-1.22256,-4.42942,0.00063,-0.02871,4.0925,0.00064,-24.24753,0.36195,-1.58006,-45.97409,0.92122,-1.33382,0.36655,-2.99241,1.88938
3849,-0.54181,0.0,0.0,-5.53204,0.0,-0.0,6.49825,-6.30586,8.02426,8.77802,6.5925,-9.89878,-12.28441,1.29427,9e-05,-22.94035,-0.10236,9e-05,16.56906,1.47328,7.20029,20.1146,-8.67296,-9.62027,-3.4327,19.8562,-10.08447,-0.45495,-15.73895,11.80211,38.48486,-0.00804,-106.36108,40.12362,0.00279,89.52598,-1.62797,-4.77941,0.00175,-0.24659,4.09647,0.0001,-24.30086,0.33573,-1.71438,-46.02604,0.94659,-1.46832,0.29651,-2.9529,1.93419
3850,-0.92683,0.0,0.0,-5.63281,0.0,-0.0,6.71547,-6.59593,8.49354,8.68136,6.5213,-10.02372,-12.17951,1.30043,2e-05,-21.67501,-0.01496,8e-05,16.34706,1.53404,6.76345,19.59781,-8.47526,-9.84974,-3.34035,20.00909,-10.19876,-0.16246,-15.62378,12.2837,39.31651,-0.01332,-104.94672,40.40343,0.00107,88.77655,-1.94413,-5.14142,0.00211,-0.21741,4.15031,-0.00024,-24.50217,0.28809,-1.66195,-46.22756,0.88293,-1.43724,0.29337,-2.8978,1.79566
3851,-1.37633,0.0,0.0,-6.07164,-0.0,0.0,6.94725,-6.54359,8.75544,8.62977,6.59544,-10.10179,-12.13158,1.27375,1e-05,-20.49527,-0.00508,0.00042,16.13533,1.57361,6.53637,19.10405,-8.28701,-10.02691,-3.18962,20.11378,-10.32119,-0.00069,-15.62956,12.87552,40.05869,-0.00798,-103.49053,40.78608,-0.00363,88.82034,-2.15039,-5.26941,0.00066,0.10683,4.15747,-0.00058,-24.8051,0.34468,-1.50628,-46.53217,0.87786,-1.27166,0.38501,-2.84302,1.66273
3852,-1.65497,0.0,-0.0,-6.708,0.0,-0.0,7.0857,-6.14262,8.66546,8.50754,6.63038,-10.04737,-12.11031,1.24926,1e-05,-19.43525,-0.0971,-0.0005,15.97997,1.64076,6.72362,18.73811,-8.0373,-10.10493,-2.93272,20.11728,-10.51163,0.0028,-15.78742,13.44521,40.60968,0.0002,-102.6416,41.31182,-0.00785,89.6112,-2.43726,-4.87491,-0.00407,0.52303,4.05816,-0.00068,-25.09955,0.49748,-1.33424,-46.82882,0.95613,-1.05525,0.57492,-2.7798,1.69586
3853,-1.62548,0.0,-0.0,-7.20989,0.0,0.0,7.08832,-5.63682,8.28941,8.20223,6.70314,-9.75389,-12.0595,1.23738,-4e-05,-18.44871,-0.32545,-0.00244,15.90447,1.758,7.20952,18.50352,-7.69887,-10.23366,-2.62785,19.99789,-10.70541,-0.05692,-16.0067,13.93609,41.04836,0.00294,-102.53979,41.90769,-0.00557,90.6563,-2.96222,-4.03667,-0.00814,0.73355,3.83768,2e-05,-25.30575,0.6646,-1.22234,-47.03682,1.06994,-0.88942,0.83333,-2.71315,1.88067
3854,-1.29498,0.0,-0.0,-7.14785,-0.0,0.0,7.00241,-5.31319,7.86427,7.64052,6.96678,-9.22077,-11.97279,1.21221,-9e-05,-17.44888,-0.62726,-0.00296,15.87592,1.90732,7.70192,18.29621,-7.32213,-10.47943,-2.38005,19.79647,-10.81525,-0.04229,-16.13408,14.34291,41.62747,0.00295,-102.86053,42.45241,-0.00045,91.38802,-3.61609,-3.25471,-0.00499,0.62947,3.50264,0.00088,-25.38765,0.82789,-1.22605,-47.1199,1.223,-0.83239,1.09521,-2.67016,2.09556
3855,-0.85069,0.0,-0.0,-6.43538,0.0,-0.0,6.9226,-5.29342,7.6584,6.85886,7.38259,-8.68537,-11.90141,1.1667,-6e-05,-16.41949,-0.83431,-0.00059,15.82985,2.03734,7.96907,18.00145,-7.00024,-10.67591,-2.24424,19.59412,-10.85078,0.1032,-16.09276,14.63992,42.50613,0.00388,-103.31414,42.92142,0.00021,91.7522,-4.10151,-2.91999,0.00053,0.36467,3.07256,0.00088,-25.35559,0.99147,-1.32383,-47.0887,1.41116,-0.86264,1.27995,-2.65842,2.22788
3856,-0.5496,0.0,-0.0,-5.83427,0.0,-0.0,6.9048,-5.47607,7.85906,6.10067,7.77607,-8.51554,-11.88181,1.10782,2e-05,-15.45018,-0.83055,0.00204,15.71921,2.09113,7.86701,17.57554,-6.80414,-10.64635,-2.16631,19.43519,-10.87487,0.33443,-15.96512,14.84662,43.54663,0.00393,-103.78987,43.40149,-0.00125,91.95133,-4.22426,-2.90012,0.00214,0.12405,2.57162,0.00049,-25.26928,1.09112,-1.43407,-47.0027,1.54454,-0.92815,1.32648,-2.65298,2.21014
3857,-0.43943,0.0,0.0,-6.01644,-0.0,-0.0,6.92494,-5.64117,8.36341,5.58539,8.03494,-8.75825,-11.89976,1.02985,7e-05,-14.64113,-0.69634,0.00175,15.54389,2.06807,7.44171,17.05771,-6.72845,-10.56433,-2.04132,19.30764,-10.90919,0.56935,-15.89471,15.0674,44.46746,0.00111,-104.1515,43.96827,0.0011,91.85444,-4.0205,-2.86575,0.00164,-0.08822,2.09937,0.00034,-25.21092,1.05978,-1.51102,-46.94356,1.54391,-1.01125,1.24576,-2.6299,2.03506
3858,-0.39534,0.0,-0.0,-6.56262,0.0,-0.0,6.95707,-5.68397,8.79722,5.27789,8.08725,-9.04984,-11.92689,0.93721,6e-05,-14.01344,-0.59634,-5e-05,15.34049,2.02802,6.97768,16.52774,-6.71016,-10.80372,-1.8352,19.20069,-10.94289,0.75226,-15.93253,15.40347,45.13961,-0.00142,-104.25536,44.59855,0.00431,91.28149,-3.66623,-2.80202,0.00063,-0.36754,1.84947,-0.00044,-25.23593,0.91561,-1.57842,-46.96671,1.43494,-1.12728,1.1289,-2.60024,1.77667
3859,-0.38218,0.0,0.0,-6.87168,-0.0,0.0,7.01706,-5.72832,8.97402,5.08698,7.83343,-9.18386,-11.93698,0.85555,0.0,-13.52127,-0.55645,-0.00063,15.15016,1.99926,6.68607,16.06218,-6.7116,-11.35343,-1.61927,19.12106,-10.98551,0.87686,-16.03426,15.87121,45.65656,-0.00132,-104.13416,45.20118,0.00287,90.50278,-3.39377,-2.90269,0.00036,-0.72118,1.92816,-0.00159,-25.32852,0.73226,-1.66565,-47.057,1.29691,-1.27622,1.0785,-2.61267,1.57572
3860,-0.41441,0.0,0.0,-7.00686,0.0,-0.0,7.07353,-5.92668,9.03454,4.99363,7.3375,-9.3477,-11.8917,0.81846,2e-05,-13.08399,-0.49819,-5e-05,14.99602,1.94911,6.52799,15.70026,-6.72795,-11.80805,-1.50855,19.04766,-11.05221,0.96793,-16.15836,16.39011,46.17723,6e-05,-103.94917,45.68353,-0.00034,89.89613,-3.42844,-3.14362,0.00091,-1.05754,2.18047,-0.0013,-25.40597,0.58527,-1.75571,-47.13249,1.1937,-1.41433,1.14129,-2.69729,1.56094
3861,-0.43894,0.0,-0.0,-7.19983,0.0,-0.0,7.0484,-6.21496,9.07585,4.94029,6.92603,-9.70858,-11.77425,0.84747,0.00017,-12.61384,-0.41684,0.0003,14.86883,1.86946,6.43485,15.41185,-6.72262,-11.91864,-1.58624,18.94546,-11.14258,1.04337,-16.29746,16.82552,46.78664,-9e-05,-103.77948,46.0181,-0.00076,89.49328,-3.84634,-3.23861,-0.00118,-1.2921,2.36492,-8e-05,-25.40379,0.53148,-1.81353,-47.12935,1.16513,-1.48796,1.29015,-2.81838,1.76665
3862,-0.4184,0.0,0.0,-7.48798,0.0,-0.0,6.94088,-6.37311,9.02987,4.87597,6.84753,-10.17501,-11.63685,0.92558,0.0002,-12.07622,-0.37551,-3e-05,14.74002,1.81173,6.44877,15.1264,-6.64153,-11.77545,-1.82833,18.8215,-11.2615,1.10911,-16.44695,17.10047,47.47482,-0.00279,-103.5218,46.27366,0.0012,89.09624,-4.45886,-2.94346,-0.00466,-1.36915,2.44857,0.00079,-25.35641,0.56828,-1.83826,-47.08202,1.20848,-1.49731,1.45463,-2.91376,2.12564
3863,-0.38117,0.0,0.0,-7.95215,0.0,-0.0,6.84654,-6.32259,8.90918,4.85248,6.98659,-10.63,-11.57076,1.01244,2e-05,-11.5028,-0.39428,-0.00046,14.61269,1.82671,6.58167,14.80758,-6.46462,-11.55151,-2.08516,18.6926,-11.38575,1.19474,-16.58719,17.27528,48.16848,-0.0034,-103.16551,46.52005,0.00229,88.64647,-4.8839,-2.29246,-0.00307,-1.23704,2.5083,0.00108,-25.3431,0.60626,-1.87161,-47.06869,1.25609,-1.51424,1.58549,-2.93682,2.5065
3864,-0.37245,-0.0,-0.0,-8.63231,-0.0,-0.0,6.84837,-6.25986,8.84386,4.91718,7.0472,-11.05974,-11.61695,1.09872,-0.0002,-10.92726,-0.44511,-0.00065,14.54229,1.91154,6.7396,14.48381,-6.20996,-11.3794,-2.2082,18.53355,-11.41937,1.33153,-16.68511,17.4678,48.78154,0.00033,-103.00797,46.73971,0.00119,88.33405,-4.82844,-1.55182,0.00197,-0.91836,2.47692,0.00058,-25.37125,0.54204,-1.94539,-47.09558,1.22375,-1.60657,1.71041,-2.87002,2.75998
3865,-0.43799,0.0,-0.0,-9.26325,-0.0,0.0,6.94172,-6.43401,8.90769,5.01375,6.83088,-11.41274,-11.71238,1.20116,-0.00022,-10.35715,-0.49015,-0.0004,14.56397,2.00776,6.82653,14.20565,-5.93888,-11.36023,-2.18547,18.33683,-11.28429,1.478,-16.69381,17.69185,49.26604,0.00303,-103.20847,46.90273,-0.00074,88.38361,-4.36242,-0.95712,0.00349,-0.53541,2.24618,-1e-05,-25.37613,0.37605,-2.03506,-47.09824,1.10274,-1.75134,1.90082,-2.77052,2.80768
3866,-0.60182,0.0,0.0,-9.53602,0.0,-0.0,7.06504,-6.86591,9.10281,5.06495,6.30394,-11.60964,-11.74613,1.31021,-4e-05,-9.80769,-0.47485,0.00037,14.61164,2.04451,6.7991,13.9728,-5.74482,-11.4653,-2.09081,18.17089,-11.05032,1.56382,-16.57914,17.84267,49.61551,0.00187,-103.4429,47.03445,-0.00236,88.92572,-3.86025,-0.55131,0.00125,-0.16868,1.88999,0.00019,-25.32185,0.22702,-2.11111,-47.04205,0.99243,-1.87716,2.15021,-2.75952,2.71527
3867,-0.81746,-0.0,-0.0,-9.44593,0.0,-0.0,7.17793,-7.33573,9.40254,5.06839,5.64184,-11.64646,-11.68135,1.40071,7e-05,-9.32506,-0.37207,0.00087,14.59179,1.99718,6.68168,13.75345,-5.68056,-11.56,-1.96464,18.11327,-10.90112,1.60096,-16.39782,17.89853,49.85228,-0.00059,-103.26509,47.15954,-0.00228,89.72852,-3.65242,-0.26639,-0.00106,0.18324,1.55158,0.00053,-25.25079,0.22241,-2.18796,-46.97002,1.01659,-1.95027,2.36992,-2.89991,2.645
3868,-1.02974,-0.0,0.0,-9.24583,0.0,-0.0,7.29412,-7.62622,9.73678,5.10348,5.21552,-11.56908,-11.58645,1.4688,-1e-05,-8.96283,-0.25338,0.00051,14.51812,1.9049,6.56205,13.56547,-5.70465,-11.5883,-1.81078,18.15294,-10.95824,1.62697,-16.2933,17.99331,50.02821,-0.00179,-102.61879,47.28049,-0.00045,90.13502,-3.74351,-0.07237,-0.00162,0.50487,1.22919,0.00031,-25.23412,0.38437,-2.26994,-46.95347,1.19739,-1.9665,2.5429,-3.1244,2.70384
3869,-1.24647,0.0,-0.0,-9.21181,-0.0,0.0,7.4298,-7.75415,10.05133,5.26341,5.2885,-11.45503,-11.52167,1.51258,-0.00014,-8.71839,-0.22938,-0.00017,14.45603,1.82674,6.46972,13.42126,-5.72884,-11.58796,-1.63562,18.17386,-11.15961,1.59317,-16.33199,18.17585,50.18066,-0.00103,-101.96209,47.4149,0.00088,89.92419,-3.87018,-0.03243,-0.00118,0.79423,0.8805,-0.0001,-25.30025,0.61135,-2.34885,-47.02053,1.43745,-1.9558,2.73828,-3.3129,2.83945
3870,-1.43052,-0.0,-0.0,-9.38758,0.0,0.0,7.55493,-7.88344,10.35016,5.53081,5.70835,-11.39942,-11.46443,1.52186,-0.00022,-8.5118,-0.31253,-0.0005,14.38392,1.79362,6.33496,13.23936,-5.70216,-11.56587,-1.43939,18.03924,-11.33046,1.46026,-16.42738,18.31434,50.27832,0.00016,-101.74609,47.55633,0.00058,89.64326,-3.85222,-0.21204,-0.00091,1.10326,0.60014,0.0001,-25.40029,0.76738,-2.469,-47.12057,1.62687,-2.0097,2.94749,-3.39131,2.92673
3871,-1.43284,-0.0,-0.0,-9.45604,0.0,-0.0,7.62717,-8.02086,10.57244,5.72896,6.04996,-11.39195,-11.40829,1.51943,-0.00021,-8.27446,-0.39937,-0.00029,14.25659,1.80945,6.17292,12.95348,-5.63298,-11.51015,-1.21874,17.71328,-11.37178,1.33433,-16.49292,18.34424,50.26292,0.00055,-101.84335,47.63041,-0.00024,89.59988,-3.80488,-0.53974,-0.00026,1.41308,0.52175,0.0006,-25.42614,0.79289,-2.66341,-47.14407,1.7225,-2.18092,3.05697,-3.33972,2.93299
3872,-1.1685,-0.0,0.0,-9.09937,0.0,-0.0,7.64193,-7.99245,10.57494,5.69566,6.04785,-11.30042,-11.42278,1.54124,-0.00017,-8.02956,-0.39025,0.00013,14.12137,1.87778,6.13128,12.63477,-5.55405,-11.45667,-1.00413,17.27821,-11.32422,1.36747,-16.5605,18.4038,50.13632,0.00085,-101.83988,47.57889,-0.00144,89.40751,-3.94649,-0.81827,0.00026,1.56381,0.65918,9e-05,-25.29694,0.71734,-2.83463,-47.01151,1.71566,-2.36801,3.00601,-3.17196,2.92643
3873,-0.77718,0.0,0.0,-8.5252,0.0,0.0,7.62479,-7.71536,10.34324,5.50777,5.77079,-11.07549,-11.5145,1.55857,-0.00013,-7.83937,-0.28029,0.00026,14.03937,2.00529,6.24859,12.39891,-5.4863,-11.44442,-0.8731,16.82953,-11.23208,1.5725,-16.69439,18.66277,49.97616,0.00084,-101.66167,47.44163,-0.00243,88.79852,-4.31109,-0.89733,-0.00033,1.40664,0.90302,-0.0009,-25.05272,0.58108,-2.82714,-46.76595,1.5863,-2.41148,2.88187,-2.94665,2.94068
3874,-0.52663,-0.0,0.0,-8.31081,0.0,-0.0,7.5995,-7.29429,10.0598,5.418,5.41867,-10.83703,-11.55985,1.50693,-0.00022,-7.72502,-0.12531,0.00012,13.99449,2.17199,6.35957,12.28069,-5.43822,-11.46852,-0.89755,16.41234,-11.04929,1.8302,-16.87647,19.12569,49.87566,0.00036,-101.5576,47.29083,-0.00182,88.13676,-4.73259,-0.8213,-0.00065,0.97809,1.09418,-0.00047,-24.83506,0.38924,-2.63003,-46.54948,1.33515,-2.2993,2.83559,-2.7547,2.91972
3875,-0.58953,-0.0,0.0,-8.73994,-0.0,-0.0,7.5866,-6.90563,9.93988,5.57938,5.11851,-10.70454,-11.47583,1.39085,-0.00036,-7.67595,0.03579,-3e-05,13.94905,2.31748,6.31396,12.24866,-5.426,-11.48139,-1.05148,16.04792,-10.74043,2.04275,-17.02606,19.61421,49.85695,-0.00028,-101.72775,47.13636,0.0002,87.95739,-5.01777,-0.79095,-0.0003,0.47778,1.15581,0.00068,-24.75232,0.15971,-2.40123,-46.46829,1.03725,-2.17164,2.91723,-2.65997,2.83342
3876,-0.90911,-0.0,0.0,-9.47756,0.0,0.0,7.60322,-6.69557,10.06799,5.8997,4.96111,-10.64252,-11.33447,1.28826,-0.00022,-7.68043,0.18869,-0.0001,13.89955,2.39119,6.15551,12.26396,-5.46223,-11.43664,-1.20125,15.75063,-10.38937,2.21247,-17.08932,19.91933,49.8299,-0.0015,-102.18636,46.93299,0.00291,88.43887,-5.06099,-0.9416,-0.00057,0.11139,1.19078,0.00091,-24.77629,-0.01541,-2.26925,-46.49303,0.82573,-2.11381,3.03628,-2.65943,2.7711
3877,-1.2255,0.0,0.0,-9.81834,-0.0,0.0,7.62564,-6.71534,10.35004,6.12199,5.04787,-10.50733,-11.2353,1.2558,-0.0,-7.69879,0.30191,-9e-05,13.84165,2.41326,6.03379,12.27915,-5.51402,-11.37366,-1.25217,15.52393,-10.1453,2.36918,-17.07378,19.98369,49.6767,-0.00183,-102.67982,46.64719,0.00366,89.25212,-4.9175,-1.17097,-0.001,-0.06295,1.33934,0.00066,-24.79341,-0.00095,-2.2308,-46.51076,0.82494,-2.07274,3.10478,-2.70966,2.84095
3878,-1.31134,0.0,0.0,-9.32056,-0.0,0.0,7.60387,-6.8998,10.62185,6.04465,5.36728,-10.23593,-11.17845,1.27383,6e-05,-7.63537,0.33686,-0.00014,13.7421,2.46066,6.01018,12.21793,-5.5012,-11.37512,-1.26769,15.36966,-10.09454,2.47297,-17.01873,19.91939,49.38875,0.00071,-102.75642,46.32099,0.00062,89.72786,-4.81087,-1.26484,-0.00104,-0.14885,1.56258,0.00051,-24.75058,0.25815,-2.26401,-46.46907,1.07793,-2.0077,3.15264,-2.77333,3.02823
3879,-1.26318,0.0,0.0,-8.35153,-0.0,0.0,7.54843,-7.09846,10.82189,5.7431,5.75271,-9.96088,-11.11411,1.28909,4e-05,-7.41634,0.30336,-0.00027,13.5943,2.57605,6.00489,12.04257,-5.37548,-11.42678,-1.35272,15.27538,-10.20439,2.45336,-16.96377,19.84908,49.06047,0.00297,-102.30524,46.06572,-0.00199,89.47984,-4.87976,-1.17384,-0.00116,-0.22968,1.69651,0.00051,-24.70546,0.63351,-2.39339,-46.42538,1.47453,-1.98899,3.26517,-2.82676,3.22514
3880,-1.37686,-0.0,0.0,-7.6849,-0.0,0.0,7.51899,-7.15936,11.01331,5.50578,6.01222,-9.86437,-11.01742,1.27933,2e-05,-7.10227,0.2592,-0.00026,13.45041,2.7104,5.91204,11.82719,-5.18922,-11.46185,-1.47748,15.19151,-10.37259,2.33061,-16.9434,19.79569,48.7522,0.00221,-101.78178,45.94424,-0.0013,88.84937,-4.96034,-1.04765,-0.00084,-0.24225,1.65089,0.00016,-24.73066,0.88471,-2.60379,-46.45045,1.78574,-2.09151,3.4533,-2.85102,3.3579
3881,-1.70572,0.0,-0.0,-7.65465,0.0,0.0,7.52333,-7.03539,11.24296,5.52703,6.03089,-9.96858,-10.87761,1.25425,3e-05,-6.83176,0.25573,-0.00018,13.33372,2.78823,5.71846,11.65837,-5.03972,-11.48509,-1.54233,15.05847,-10.51172,2.21113,-16.9873,19.73854,48.43977,-0.00041,-101.66693,45.8709,0.00074,88.44779,-4.84876,-1.00581,-0.00041,-0.09221,1.43112,-0.00083,-24.82182,0.88371,-2.81959,-46.53854,1.86466,-2.29245,3.63128,-2.8359,3.42082
3882,-1.9993,0.0,-0.0,-8.16002,-0.0,0.0,7.51245,-6.77782,11.45528,5.78091,5.82139,-10.15518,-10.68825,1.21721,2e-05,-6.64375,0.31402,-9e-05,13.17562,2.80396,5.51219,11.48848,-4.96223,-11.51042,-1.55977,14.85128,-10.58088,2.15483,-17.1046,19.69437,48.09897,-0.0031,-102.08553,45.68574,0.00264,88.49641,-4.63226,-1.00166,-0.00015,0.16717,1.06364,-0.00117,-24.90874,0.71509,-2.99472,-46.62075,1.77279,-2.51763,3.71092,-2.78254,3.41849
3883,-2.04849,-0.0,-0.0,-8.98449,-0.0,0.0,7.45279,-6.4133,11.5738,6.10869,5.52178,-10.31623,-10.47771,1.15153,-2e-05,-6.4454,0.43589,0.00022,12.91107,2.82225,5.3713,11.1977,-4.91487,-11.47623,-1.63435,14.58166,-10.57728,2.1247,-17.2716,19.71026,47.76184,-0.00347,-102.81731,45.33138,0.00199,88.71381,-4.55358,-0.92506,-0.00025,0.31186,0.64504,9e-05,-24.92789,0.53858,-3.12684,-46.63572,1.65767,-2.70575,3.67483,-2.6917,3.33743
3884,-1.91303,-0.0,0.0,-9.77487,-0.0,0.0,7.35974,-5.92854,11.62254,6.34119,5.29652,-10.43888,-10.29443,1.04018,-4e-05,-6.16258,0.60616,0.0006,12.5905,2.89763,5.24815,10.78547,-4.85225,-11.31317,-1.79834,14.28508,-10.54491,2.07633,-17.44047,19.79743,47.46553,-0.00101,-103.36649,44.90656,-0.00091,88.68746,-4.72029,-0.77415,-0.00033,0.14758,0.40271,0.00042,-24.88594,0.44298,-3.20446,-46.59139,1.59756,-2.81327,3.57485,-2.56561,3.18095
3885,-1.80804,-0.0,0.0,-10.17367,0.0,-0.0,7.27123,-5.42514,11.6855,6.3997,5.25436,-10.52326,-10.14001,0.90388,-2e-05,-5.83799,0.77737,0.00054,12.33917,3.01893,5.07614,10.41614,-4.77409,-11.06438,-1.98246,14.02497,-10.57065,2.02632,-17.56153,19.89218,47.19821,0.00177,-103.34402,44.54097,-0.00146,88.42404,-5.03556,-0.69655,0.00039,-0.2646,0.53981,-0.0012,-24.84583,0.44403,-3.21909,-46.55101,1.60395,-2.82647,3.50616,-2.43183,3.01449
3886,-1.83016,0.0,0.0,-10.12081,-0.0,0.0,7.20713,-5.14039,11.79556,6.30842,5.44635,-10.49242,-9.97228,0.80073,4e-05,-5.55931,0.87747,9e-05,12.21676,3.14505,4.93556,10.24331,-4.68838,-10.87994,-2.13702,13.86917,-10.70698,2.01978,-17.61476,19.92326,46.94493,0.00259,-102.83826,44.25847,0.00024,88.28048,-5.26073,-0.82789,0.00049,-0.6935,0.99336,-0.00143,-24.84008,0.53317,-3.20138,-46.54654,1.68022,-2.77703,3.53383,-2.33159,2.94627
3887,-1.88799,-0.0,0.0,-9.8632,-0.0,0.0,7.17354,-5.23059,11.94037,6.1444,5.84093,-10.31419,-9.79422,0.76493,9e-05,-5.3453,0.86708,-0.00026,12.16196,3.26914,4.95576,10.23005,-4.57457,-10.85389,-2.30765,13.81133,-10.87279,2.06872,-17.61448,19.8687,46.75902,0.0015,-102.30908,43.9662,0.00045,88.30383,-5.17745,-1.12134,-0.00084,-1.03356,1.46127,4e-05,-24.85016,0.68942,-3.20266,-46.55836,1.82586,-2.7204,3.61906,-2.27567,3.04274
3888,-1.88646,0.0,0.0,-9.62995,0.0,-0.0,7.17833,-5.64651,12.08179,5.98338,6.27472,-10.07741,-9.67826,0.77727,2e-05,-5.14217,0.77984,-0.00037,12.09568,3.41178,5.15565,10.21555,-4.41699,-10.94656,-2.58277,13.74705,-10.89515,2.1317,-17.57684,19.68322,46.71685,0.00103,-102.24038,43.5588,-0.0017,88.20253,-4.81406,-1.41762,-0.00154,-1.33449,1.73871,0.00113,-24.8931,0.87477,-3.26087,-46.60258,2.0196,-2.70591,3.68279,-2.23854,3.27597
3889,-1.84751,-0.0,0.0,-9.45203,-0.0,-0.0,7.20861,-6.20224,12.16996,5.86658,6.51608,-9.87475,-9.66266,0.80107,-8e-05,-4.92618,0.69211,-0.00028,11.99983,3.57077,5.43349,10.11164,-4.24307,-11.06767,-2.99023,13.58955,-10.70361,2.16813,-17.50964,19.30314,46.8017,0.00144,-102.70471,43.00316,-0.00304,87.9151,-4.4576,-1.64274,-0.00091,-1.54766,1.92846,0.00165,-25.03099,1.03573,-3.39216,-46.74035,2.21769,-2.76837,3.69875,-2.188,3.53355
3890,-1.80257,0.0,0.0,-9.2226,0.0,-0.0,7.21123,-6.68983,12.17895,5.78602,6.41614,-9.71991,-9.67961,0.83367,-6e-05,-4.74674,0.6672,-0.00016,11.88406,3.70359,5.67338,9.95841,-4.10659,-11.15769,-3.45499,13.37443,-10.41982,2.20362,-17.43004,18.80552,46.90967,0.00078,-103.21492,42.31926,-0.00122,87.69223,-4.4004,-1.84973,0.00041,-1.50333,2.18887,0.00228,-25.22333,1.0997,-3.56895,-46.93039,2.34251,-2.90905,3.68756,-2.11374,3.67107
3891,-1.70785,-0.0,0.0,-8.87495,0.0,-0.0,7.13025,-7.00158,12.11196,5.70821,5.98517,-9.56667,-9.64221,0.91935,0.00013,-4.62561,0.72487,-0.00014,11.77099,3.75396,5.8606,9.83122,-4.04542,-11.21381,-3.86775,13.19031,-10.21532,2.28203,-17.35815,18.38843,46.98726,-9e-05,-103.32339,41.56305,0.0021,87.73061,-4.71051,-2.11963,0.00194,-1.19922,2.42301,0.00166,-25.26474,1.01001,-3.69687,-46.96798,2.30647,-3.06117,3.69231,-2.04181,3.61926
3892,-1.59199,0.0,-0.0,-8.72397,0.0,-0.0,6.97625,-7.15608,12.058,5.66659,5.36182,-9.4119,-9.54773,1.07465,0.00025,-4.49335,0.8526,-2e-05,11.67813,3.70396,5.99419,9.72769,-4.05921,-11.2357,-4.19318,13.06684,-10.16574,2.36251,-17.29963,18.12526,47.0848,0.00018,-103.22005,40.85899,0.00368,87.98564,-5.18112,-2.48551,0.00205,-0.888,2.46274,0.00014,-25.00534,0.82401,-3.6724,-46.70641,2.12462,-3.10726,3.73428,-2.01079,3.45861
3893,-1.54874,-0.0,-0.0,-9.12671,0.0,-0.0,6.80998,-7.20607,12.14155,5.7131,4.71395,-9.33204,-9.44157,1.2327,0.00013,-4.2842,1.03722,0.00022,11.57751,3.60317,6.01094,9.57235,-4.11857,-11.18417,-4.48104,12.99151,-10.26507,2.34522,-17.26289,17.91698,47.26274,0.00138,-103.33675,40.3353,0.00261,88.19897,-5.43366,-2.88035,6e-05,-0.81687,2.40942,-0.00072,-24.58953,0.71834,-3.47342,-46.29311,1.95286,-2.96138,3.77697,-2.02358,3.34257
3894,-1.4684,0.0,-0.0,-9.72576,0.0,-0.0,6.66002,-7.18281,12.34981,5.76245,4.15308,-9.35462,-9.34556,1.30862,-4e-05,-4.01724,1.2691,0.00035,11.443,3.53541,5.9199,9.33931,-4.18545,-11.05546,-4.78756,12.95563,-10.46644,2.20017,-17.27426,17.69216,47.52955,0.00166,-103.66678,39.9622,0.0013,88.15676,-5.17325,-3.13765,-0.00045,-0.98596,2.45564,-0.00149,-24.33373,0.80834,-3.18161,-46.04373,1.92856,-2.65682,3.79725,-2.03411,3.34257
3895,-1.1338,0.0,-0.0,-9.97409,0.0,0.0,6.5386,-7.09207,12.59133,5.70541,3.76657,-9.40917,-9.27648,1.26635,-6e-05,-3.74062,1.51731,0.00023,11.32242,3.56751,5.79435,9.09488,-4.21832,-10.93459,-5.148,12.92701,-10.67764,1.99877,-17.3444,17.45259,47.87178,6e-05,-103.87112,39.54922,0.00054,87.93155,-4.48652,-3.10442,0.00205,-1.15778,2.45485,-0.00269,-24.40361,1.00561,-2.95794,-46.11978,2.02909,-2.3759,3.85431,-1.97744,3.39374
3896,-0.58961,0.0,-0.0,-9.90964,0.0,-0.0,6.48518,-6.93635,12.81657,5.56634,3.63006,-9.38956,-9.26511,1.13121,9e-05,-3.4548,1.72571,-2e-05,11.28975,3.71517,5.64956,8.90308,-4.17896,-10.94623,-5.59287,12.84346,-10.80517,1.80979,-17.43474,17.14219,48.26266,-0.00179,-103.76832,38.9749,-0.00116,87.62846,-3.84759,-2.75377,0.00199,-1.11293,2.07371,-0.00486,-24.70988,1.11894,-2.9616,-46.42751,2.13574,-2.33734,4.02493,-1.81291,3.39167
3897,-0.10537,0.0,-0.0,-9.69478,-0.0,0.0,6.50964,-6.79644,12.95639,5.39499,3.71179,-9.20589,-9.29781,1.00593,0.00018,-3.12726,1.85666,-0.00021,11.32768,3.90464,5.50089,8.74229,-4.07993,-11.13565,-6.11356,12.66594,-10.81546,1.61768,-17.48238,16.66765,48.64266,-0.0019,-103.48782,38.34098,-0.00314,87.19852,-3.71564,-2.20606,-0.00247,-0.92719,1.39019,-0.00489,-25.03005,1.07022,-3.20192,-46.74318,2.17937,-2.57876,4.29086,-1.5753,3.30406
3898,0.13854,-0.0,0.0,-9.27164,-0.0,0.0,6.5629,-6.83845,12.89845,5.19218,3.89842,-8.86945,-9.30681,1.02498,0.00025,-2.75595,1.92635,-0.00021,11.33622,3.99708,5.45766,8.54764,-4.00642,-11.38951,-6.64082,12.42125,-10.73463,1.36774,-17.46337,16.05689,48.96989,-0.00069,-103.25165,37.8143,-0.00294,86.72894,-4.1427,-1.71673,-0.00425,-0.87668,0.88962,-0.00241,-25.1555,0.96737,-3.51428,-46.86164,2.19934,-2.90721,4.54809,-1.38209,3.16814
3899,0.15039,0.0,0.0,-8.81981,0.0,-0.0,6.60679,-7.12958,12.62728,5.00309,4.12871,-8.53271,-9.26134,1.21378,0.00035,-2.38785,1.98014,-4e-05,11.25552,3.92663,5.62087,8.30094,-4.03142,-11.52589,-7.11346,12.19876,-10.62356,1.06467,-17.41754,15.45034,49.31117,0.00091,-103.14619,37.38244,-0.00055,86.51743,-4.7831,-1.62189,-0.00078,-1.04817,0.81576,-0.001,-25.02521,0.97346,-3.73753,-46.72709,2.28755,-3.1125,4.70778,-1.3365,3.03535
3900,0.00221,0.0,-0.0,-8.9122,0.0,-0.0,6.65271,-7.49015,12.34958,4.95354,4.38772,-8.36436,-9.20544,1.4333,0.00021,-2.08489,2.04948,0.00011,11.1037,3.77537,5.89524,8.03561,-4.13421,-11.46101,-7.54698,12.08715,-10.53686,0.78643,-17.39171,14.904,49.82741,0.00308,-103.16766,36.88457,0.00339,86.77238,-5.22091,-2.12728,0.00057,-1.23348,0.9673,-0.00021,-24.77979,1.14383,-3.84848,-46.48206,2.48687,-3.1526,4.73674,-1.42832,2.95315
3901,-0.26462,0.0,-0.0,-9.8148,0.0,-0.0,6.71583,-7.65516,12.29314,5.09797,4.64401,-8.35907,-9.18843,1.53351,2e-05,-1.88473,2.12875,0.00011,10.94094,3.67535,6.08416,7.80461,-4.22946,-11.30034,-7.98311,12.09829,-10.47844,0.59492,-17.37085,14.31279,50.60902,0.00363,-103.25481,36.25346,0.00608,87.42781,-5.27426,-3.0202,-0.0017,-1.24566,1.10121,0.00019,-24.62525,1.41194,-3.90577,-46.33091,2.75714,-3.10663,4.66082,-1.55837,2.94528
3902,-0.59781,0.0,-0.0,-10.94637,-0.0,0.0,6.78455,-7.5926,12.39629,5.29053,4.88046,-8.37147,-9.21212,1.5115,-3e-05,-1.76557,2.18164,2e-05,10.82806,3.69777,6.16559,7.64161,-4.23741,-11.2358,-8.39647,12.18291,-10.43997,0.47098,-17.30335,13.58549,51.53184,0.00041,-103.19495,35.59084,0.0037,88.17343,-5.03918,-3.63216,-0.00084,-1.15163,1.18798,-0.00015,-24.63335,1.69648,-3.94513,-46.34354,3.03606,-3.03785,4.55723,-1.63123,2.98085
3903,-0.88311,0.0,0.0,-11.45834,0.0,-0.0,6.85389,-7.52545,12.41337,5.33946,5.1153,-8.35485,-9.25766,1.45812,-2e-05,-1.65167,2.17725,-0.0001,10.78261,3.84238,6.28033,7.52803,-4.12549,-11.31419,-8.72889,12.29908,-10.46967,0.35529,-17.1888,12.79987,52.36263,-0.00163,-102.82508,34.99091,-0.00185,88.63609,-4.7632,-3.30067,0.00099,-1.10639,1.32206,-0.00064,-24.70815,1.96446,-3.99321,-46.4229,3.30281,-2.98327,4.50658,-1.60673,3.01206
3904,-1.00852,0.0,-0.0,-11.06023,-0.0,0.0,6.93037,-7.59073,12.23369,5.21449,5.33359,-8.3812,-9.31736,1.42254,0.0,-1.50464,2.11713,-0.00019,10.80147,4.06446,6.49805,7.45659,-3.91966,-11.41238,-8.98254,12.40446,-10.62059,0.21833,-17.09619,12.09639,53.04202,0.00095,-102.29345,34.41545,-0.00487,88.71745,-4.69778,-2.08925,-0.00242,-1.10683,1.54599,-0.0005,-24.71157,2.20183,-4.15512,-46.42844,3.5832,-3.04588,4.55937,-1.49444,3.05057
3905,-0.92891,-0.0,-0.0,-10.19042,-0.0,0.0,6.98158,-7.65139,11.98396,5.03626,5.44722,-8.43922,-9.36243,1.3918,-0.0,-1.38408,2.04328,-0.00014,10.87908,4.29188,6.69939,7.46603,-3.69248,-11.44527,-9.20254,12.42652,-10.84525,0.08282,-17.08221,11.51344,53.76074,0.0042,-101.84962,33.77927,-0.00249,88.73657,-4.92611,-0.89267,-0.0039,-1.06045,1.81436,0.00023,-24.58434,2.37168,-4.53815,-46.29741,3.8826,-3.33922,4.70894,-1.33322,3.14499
3906,-0.59309,-0.0,0.0,-9.58593,0.0,-0.0,6.92848,-7.52355,11.87728,4.93919,5.40139,-8.39263,-9.31816,1.35015,-7e-05,-1.35907,2.01952,-9e-05,10.95726,4.45492,6.70883,7.54366,-3.52627,-11.48412,-9.40787,12.33081,-11.03406,-0.00088,-17.12701,11.02744,54.68288,0.00308,-101.47977,33.06004,0.00155,89.02303,-5.30497,-0.47837,0.00016,-1.00874,2.08302,0.00062,-24.3908,2.42533,-5.03571,-46.09377,4.11632,-3.78232,4.87922,-1.17589,3.29056
3907,0.05037,-0.0,0.0,-9.54469,-0.0,0.0,6.73295,-7.22795,11.95494,4.96759,5.28596,-8.15721,-9.14373,1.31169,-7e-05,-1.40528,2.07119,-9e-05,10.94764,4.51943,6.55407,7.59739,-3.46691,-11.65238,-9.58619,12.19356,-11.14899,-0.0189,-17.1679,10.64459,55.72258,-0.00252,-100.94961,32.30085,0.00253,89.53977,-5.60945,-0.66201,0.00214,-1.11099,2.32024,0.00044,-24.27386,2.37936,-5.37177,-45.96701,4.19774,-4.11217,4.99515,-1.07647,3.42825
3908,0.82808,0.0,-0.0,-9.70937,0.0,-0.0,6.48833,-6.92256,12.0488,5.08405,5.23552,-7.84561,-8.90856,1.29946,2e-05,-1.4393,2.16562,-1e-05,10.8187,4.49062,6.46533,7.55471,-3.50955,-11.93191,-9.74102,12.13286,-11.22167,-0.02979,-17.17056,10.3862,56.72342,-0.00731,-100.19031,31.57621,0.00143,90.12833,-5.68372,-0.83085,0.00123,-1.42943,2.53189,-5e-05,-24.31059,2.35851,-5.41707,-46.00197,4.1951,-4.16206,5.04488,-1.07471,3.52199
3909,1.31966,0.0,0.0,-9.68187,0.0,0.0,6.35995,-6.70877,12.05778,5.23509,5.27023,-7.68065,-8.72587,1.30431,5e-05,-1.40473,2.26727,0.00012,10.59909,4.41593,6.55246,7.40529,-3.60403,-12.1354,-9.93479,12.17362,-11.23824,-0.10294,-17.15572,10.25962,57.70614,-0.00708,-99.47019,30.94507,-0.00013,90.73141,-5.54727,-0.81349,0.00036,-1.83017,2.81829,-0.00051,-24.40053,2.48679,-5.30067,-46.09849,4.27131,-4.00616,5.04222,-1.15648,3.57566
3910,1.24718,0.0,0.0,-9.4712,0.0,0.0,6.42807,-6.63216,12.08719,5.36967,5.32886,-7.74617,-8.6459,1.28831,3e-05,-1.30068,2.35909,0.00015,10.34805,4.3832,6.66417,7.18523,-3.66527,-12.14129,-10.27203,12.23353,-11.13568,-0.24958,-17.16537,10.21378,58.77708,0.00049,-99.18331,30.37914,-0.00182,91.23994,-5.43862,-0.73476,-0.00036,-2.08541,3.18188,-0.00029,-24.35794,2.73387,-5.20782,-46.06524,4.46657,-3.82809,5.00502,-1.235,3.58622
3911,0.75276,0.0,-0.0,-9.21838,-0.0,-0.0,6.63609,-6.77573,12.23742,5.4241,5.35745,-7.87619,-8.64225,1.24733,0.0,-1.16285,2.4156,3e-05,10.16595,4.44873,6.64324,6.98984,-3.62811,-12.06739,-10.79363,12.2491,-10.9181,-0.42949,-17.21009,10.1075,59.938,0.01141,-99.55972,29.75805,-0.00148,91.58167,-5.58405,-0.52576,-0.00155,-2.05146,3.33664,-0.00128,-24.10644,2.93862,-5.19554,-45.82007,4.65226,-3.74068,4.9992,-1.22769,3.54093
3912,0.20475,0.0,0.0,-9.05511,0.0,-0.0,6.86762,-7.16791,12.47455,5.38072,5.29217,-7.88135,-8.65488,1.23148,-0.0,-1.02607,2.41907,-9e-05,10.13509,4.5655,6.51022,6.92127,-3.5083,-12.06771,-11.37847,12.26849,-10.71178,-0.58299,-17.24855,9.79252,61.12824,0.01316,-100.38174,28.98544,0.0017,91.89876,-5.92852,-0.0575,-0.00235,-1.79889,3.00072,-0.00341,-23.74002,2.99637,-5.19801,-45.45534,4.70683,-3.72154,5.10037,-1.14865,3.46106
3913,-0.11822,0.0,0.0,-9.20304,-0.0,-0.0,7.01932,-7.66451,12.73077,5.31489,5.07887,-7.78606,-8.63391,1.28024,5e-05,-0.903,2.39632,-5e-05,10.21909,4.63582,6.361,6.97674,-3.38589,-12.09348,-11.81826,12.38701,-10.67949,-0.67816,-17.2224,9.2224,62.34069,0.00053,-101.00273,28.1148,0.00353,92.29977,-6.27959,0.58271,-0.00173,-1.5853,2.29788,-0.00232,-23.44228,2.96386,-5.14915,-45.15779,4.65857,-3.68812,5.29176,-1.0829,3.39832
3914,-0.12198,-0.0,0.0,-9.64323,0.0,0.0,7.03304,-8.08057,12.93544,5.28786,4.79971,-7.70366,-8.57848,1.37959,9e-05,-0.79525,2.38568,6e-05,10.30136,4.62648,6.27194,7.0519,-3.3193,-12.03839,-12.02486,12.60892,-10.85769,-0.76407,-17.13275,8.50513,63.6079,-0.0133,-100.99407,27.33011,0.00135,92.64371,-6.54892,1.19864,-0.00057,-1.61506,1.6283,0.00049,-23.37558,2.96454,-5.08722,-45.09258,4.63632,-3.63023,5.47906,-1.07467,3.37766
3915,0.09244,0.0,0.0,-10.06363,0.0,-0.0,6.93968,-8.33505,13.02409,5.28934,4.68528,-7.64798,-8.54251,1.4807,3e-05,-0.71461,2.37441,0.0001,10.31276,4.60362,6.28171,7.06129,-3.28392,-11.92528,-12.10754,12.81767,-11.06979,-0.92813,-17.05919,7.86671,64.94997,-0.01188,-100.6495,26.78567,-0.00106,92.80145,-6.65478,1.67984,0.00073,-1.81256,1.27735,0.00119,-23.57157,3.04709,-5.11534,-45.29041,4.7234,-3.62575,5.59515,-1.07574,3.38452
3916,0.24806,0.0,-0.0,-10.25792,0.0,0.0,6.86561,-8.39058,13.00137,5.30666,4.85646,-7.5969,-8.58823,1.53549,-1e-05,-0.68789,2.3315,9e-05,10.27924,4.6501,6.3764,7.01622,-3.22086,-11.80576,-12.21442,12.90173,-11.08408,-1.18113,-17.06168,7.45248,66.36771,0.00324,-100.59375,26.49125,-0.00108,92.97871,-6.51739,2.04255,0.00117,-1.9379,1.33075,0.00117,-23.89441,3.16925,-5.25176,-45.61381,4.88729,-3.70739,5.64568,-1.0201,3.398
3917,0.12585,0.0,-0.0,-10.14357,-0.0,0.0,6.9159,-8.2223,12.90885,5.33195,5.12331,-7.58126,-8.72327,1.52921,6e-05,-0.73966,2.28825,0.0,10.28095,4.764,6.51065,7.0048,-3.13881,-11.66801,-12.36105,12.87355,-10.89313,-1.44459,-17.10984,7.18047,67.84679,0.01311,-101.02087,26.35927,-0.0004,93.50535,-6.36762,2.34773,-0.00038,-1.91176,1.77746,0.00129,-24.15833,3.27342,-5.3772,-45.87803,5.03041,-3.78548,5.68593,-0.91885,3.40173
3918,-0.16436,0.0,0.0,-9.76072,0.0,-0.0,7.05113,-7.8987,12.77247,5.36091,5.22165,-7.62685,-8.88634,1.48302,8e-05,-0.86961,2.30444,-0.00017,10.3808,4.86914,6.64214,7.11221,-3.10768,-11.51553,-12.4706,12.83467,-10.71155,-1.65563,-17.14695,6.89205,69.37201,0.00622,-101.51004,26.29372,-3e-05,94.35063,-6.62693,2.56173,-0.00164,-1.89601,2.49412,-0.00011,-24.28387,3.33663,-5.38006,-46.00557,5.09019,-3.76465,5.78018,-0.84148,3.38512
3919,-0.26577,0.0,-0.0,-9.39425,-0.0,0.0,7.13128,-7.58655,12.63488,5.41312,5.1388,-7.70514,-9.00154,1.4341,3e-05,-1.03545,2.37491,-0.0002,10.54894,4.90963,6.75205,7.31455,-3.15404,-11.40496,-12.51628,12.8584,-10.67982,-1.81818,-17.15609,6.54211,70.9426,-0.00564,-101.64028,26.18889,0.00043,95.1656,-7.31558,2.54448,0.00013,-2.04031,3.21544,-0.00145,-24.30839,3.37947,-5.31376,-46.0331,5.10549,-3.68701,5.93936,-0.83024,3.34971
3920,0.04999,0.0,-0.0,-9.24145,-0.0,-0.0,7.06243,-7.45249,12.55994,5.47732,4.99171,-7.75983,-9.03697,1.41999,-1e-05,-1.16903,2.44195,-6e-05,10.67853,4.89997,6.8492,7.48362,-3.22231,-11.3769,-12.53461,12.95179,-10.74298,-1.95099,-17.14372,6.19502,72.56145,-0.0072,-101.48811,25.9318,0.0001,95.6736,-8.04015,2.22184,0.00204,-2.26165,3.66513,-0.00071,-24.28898,3.45012,-5.33287,-46.0156,5.17819,-3.67854,6.10389,-0.86875,3.31442
3921,0.65436,0.0,0.0,-9.21249,0.0,-0.0,6.88393,-7.57186,12.59023,5.5219,4.74658,-7.76107,-9.0171,1.44953,-2e-05,-1.23262,2.47125,5e-05,10.69841,4.90282,6.91452,7.52781,-3.23237,-11.3936,-12.53892,13.10311,-10.81249,-2.05506,-17.11809,5.9527,74.21986,0.00081,-101.34974,25.50438,-0.0013,95.81799,-8.60526,1.72122,0.00167,-2.34442,3.72419,-0.00017,-24.24807,3.56813,-5.49132,-45.97487,5.34636,-3.78221,6.20698,-0.91145,3.29987
3922,1.21557,0.0,-0.0,-9.30816,-0.0,-0.0,6.72614,-7.8716,12.73174,5.58991,4.31916,-7.74926,-8.9973,1.48267,-3e-05,-1.24235,2.46887,4e-05,10.62094,4.96945,6.86937,7.45859,-3.15073,-11.35612,-12.50009,13.30142,-10.85197,-2.13712,-17.09081,5.88032,75.89247,0.00879,-101.32059,25.03787,-0.00157,95.75491,-9.1584,1.35817,-0.00133,-2.20058,3.4593,-0.00102,-24.17877,3.68575,-5.67775,-45.90507,5.5245,-3.9121,6.21766,-0.92741,3.28989
3923,1.50921,0.0,-0.0,-9.63994,-0.0,0.0,6.67881,-8.14925,12.89764,5.7271,3.81435,-7.77015,-9.02885,1.47896,-3e-05,-1.22908,2.44621,-1e-05,10.53065,5.09522,6.70087,7.36106,-3.00573,-11.2326,-12.3998,13.51006,-10.81382,-2.20734,-17.07607,5.94579,77.55042,0.00866,-101.2396,24.69371,-0.00057,95.70148,-9.71052,1.49759,-0.00422,-1.94566,3.07448,-0.00121,-24.08254,3.74284,-5.74518,-45.80917,5.60244,-3.95367,6.16711,-0.91523,3.22919
3924,1.54577,0.0,0.0,-10.0131,-0.0,0.0,6.7265,-8.24377,12.94627,5.86497,3.45959,-7.7961,-9.13468,1.45084,-3e-05,-1.2102,2.39101,-5e-05,10.54194,5.23769,6.52083,7.34118,-2.83783,-11.13021,-12.25841,13.67851,-10.64971,-2.26602,-17.08103,6.04214,79.19555,-0.00163,-100.8008,24.53087,0.00015,95.67886,-9.94411,2.2915,0.00095,-1.74236,2.8417,-0.00033,-24.01567,3.75043,-5.65862,-45.74477,5.57751,-3.87022,6.14888,-0.87978,3.08754
3925,1.46736,0.0,0.0,-10.00183,0.0,0.0,6.80166,-8.16977,12.92468,5.91681,3.39878,-7.7966,-9.27607,1.42509,-6e-05,-1.20655,2.28451,-1e-05,10.65938,5.34739,6.39084,7.42141,-2.6826,-11.14303,-12.10854,13.81681,-10.40423,-2.33393,-17.09291,6.0686,80.85469,-0.01171,-99.85126,24.52283,0.00058,95.54211,-9.66444,3.51663,0.00918,-1.65069,2.95517,0.00021,-24.05719,3.77901,-5.51539,-45.79086,5.55115,-3.72619,6.21522,-0.83907,2.93194
3926,1.42159,-0.0,-0.0,-9.52242,-0.0,0.0,6.83099,-8.00746,13.07008,5.91044,3.62813,-7.81893,-9.35223,1.40022,-8e-05,-1.24669,2.15106,7e-05,10.74137,5.36671,6.22518,7.5154,-2.60193,-11.20272,-11.95497,14.01556,-10.2155,-2.4507,-17.08182,5.96193,82.54449,-0.01081,-98.67483,24.61303,0.00081,95.23946,-9.15257,4.77204,0.00783,-1.631,3.36833,0.00023,-24.2073,3.84805,-5.44714,-45.94508,5.59006,-3.63695,6.31039,-0.8445,2.87557
3927,1.50965,0.0,0.0,-8.99431,-0.0,0.0,6.76927,-7.78495,13.42534,5.92131,4.00629,-7.91599,-9.30227,1.38237,-5e-05,-1.33285,2.05268,5e-05,10.69044,5.26996,5.97173,7.5487,-2.63669,-11.17833,-11.77076,14.32023,-10.1693,-2.61624,-17.03119,5.67257,84.29752,-0.00669,-97.64013,24.7091,0.00039,94.90607,-8.75984,5.80544,0.00193,-1.63222,3.77382,0.00022,-24.36854,3.87733,-5.51196,-46.10585,5.64121,-3.68641,6.35862,-0.91764,2.92523
3928,1.71553,-0.0,0.0,-8.70072,-0.0,-0.0,6.6513,-7.54104,13.68374,5.92279,4.28692,-8.03555,-9.19123,1.40163,2e-05,-1.43049,2.02042,-3e-05,10.56742,5.12963,5.79765,7.53317,-2.72647,-11.06071,-11.53939,14.62523,-10.1834,-2.78889,-16.95875,5.20082,86.18732,-0.00358,-96.83068,24.72047,-0.00016,94.70403,-8.46902,6.51856,-0.00013,-1.63737,3.83536,0.0002,-24.44576,3.80582,-5.6571,-46.17691,5.62841,-3.8482,6.35656,-0.99114,2.96581
3929,1.89518,-0.0,-0.0,-8.49678,0.0,-0.0,6.56309,-7.36714,13.56441,5.85083,4.2878,-8.09161,-9.13673,1.46113,2e-05,-1.51212,2.02708,-3e-05,10.48085,5.07327,5.92824,7.51847,-2.75822,-10.93061,-11.27953,14.79746,-10.11121,-2.95008,-16.87934,4.65029,88.23533,0.00753,-96.35889,24.66046,-9e-05,94.60735,-8.22111,6.79365,0.00033,-1.64101,3.52594,9e-05,-24.42295,3.69425,-5.7606,-46.14743,5.563,-3.9861,6.3586,-0.98813,2.91571
3930,1.91379,0.0,0.0,-8.34998,0.0,-0.0,6.54139,-7.35787,13.16589,5.77729,4.07119,-8.1203,-9.16283,1.51513,-0.0,-1.5829,2.03496,0.0,10.45739,5.16034,6.33575,7.53252,-2.68832,-10.79264,-10.99164,14.86483,-9.95625,-3.13058,-16.7723,4.17005,90.31795,0.01535,-96.32261,24.66509,0.00092,94.41699,-8.1762,6.62649,0.00175,-1.64869,3.18282,-0.00022,-24.33384,3.63926,-5.73496,-46.057,5.50244,-3.98267,6.41003,-0.92313,2.81474
3931,1.73605,0.0,0.0,-8.3424,0.0,0.0,6.55218,-7.54295,12.80681,5.8109,3.84682,-8.22248,-9.1664,1.51908,-2e-05,-1.64829,2.03779,1e-05,10.424,5.33267,6.77623,7.5534,-2.57061,-10.59982,-10.61518,14.96333,-9.88647,-3.35621,-16.63111,3.85203,92.27637,0.00297,-96.38383,24.84485,0.00204,94.05234,-8.3173,6.29098,0.00174,-1.6952,3.14375,-0.00083,-24.20959,3.65231,-5.60897,-45.93643,5.46803,-3.86047,6.48886,-0.86475,2.75102
3932,1.42589,0.0,0.0,-8.23701,0.0,-0.0,6.55286,-7.80664,12.65787,5.91089,3.72978,-8.40324,-9.04972,1.47261,-0.00011,-1.69612,2.04513,1e-05,10.29771,5.47968,7.06938,7.53033,-2.48325,-10.41281,-10.09607,15.15039,-10.00732,-3.57912,-16.5128,3.72595,94.12761,-0.01532,-96.17403,25.12018,0.00143,93.71078,-8.30365,6.03114,-0.0007,-1.80417,3.36093,-0.00116,-24.07974,3.65941,-5.47291,-45.81017,5.42435,-3.73112,6.52155,-0.84241,2.741
3933,1.15452,0.0,-0.0,-7.89484,-0.0,-0.0,6.52015,-7.94726,12.65891,5.98099,3.69572,-8.60664,-8.85465,1.39357,-0.00012,-1.72667,2.05341,-0.0,10.10579,5.54769,7.17681,7.45876,-2.45198,-10.35665,-9.45029,15.39362,-10.23808,-3.70178,-16.48956,3.82047,96.05553,-0.01473,-95.892,25.29393,0.00022,93.62051,-7.99428,5.78321,-0.00251,-1.96057,3.46975,-0.00037,-23.97326,3.57121,-5.35598,-45.70343,5.29921,-3.65505,6.47153,-0.83224,2.7
3934,1.08277,0.0,0.0,-7.64496,0.0,0.0,6.45235,-7.90118,12.68737,6.00331,3.68182,-8.82184,-8.70603,1.27709,0.0,-1.76534,2.05027,-2e-05,9.94734,5.5911,7.1284,7.38795,-2.43195,-10.41361,-8.73295,15.67426,-10.45524,-3.68518,-16.56312,4.14477,98.18613,0.00943,-96.04411,25.29079,-5e-05,93.76772,-7.77605,5.45199,-0.0005,-2.15846,3.24233,0.0009,-23.89554,3.36533,-5.22014,-45.622,5.05776,-3.6051,6.36767,-0.79803,2.56367
3935,1.15012,0.0,0.0,-7.6148,0.0,0.0,6.39384,-7.77607,12.62902,5.96915,3.63949,-9.01119,-8.65868,1.11638,0.00015,-1.83245,2.0319,-5e-05,9.84974,5.70316,7.05853,7.35147,-2.36153,-10.44754,-8.01486,15.98288,-10.62934,-3.61253,-16.65445,4.61082,100.47609,0.03418,-96.78094,25.2338,-1e-05,93.95456,-8.07132,5.19395,0.00215,-2.41083,2.8435,0.0011,-23.84446,3.12127,-5.05852,-45.56689,4.77132,-3.54532,6.27091,-0.72439,2.39673
3936,1.149,0.0,0.0,-7.39608,-0.0,0.0,6.40495,-7.62616,12.36485,5.85105,3.57288,-9.0453,-8.66908,0.94137,0.00015,-1.92533,2.00055,-8e-05,9.77635,5.89724,7.18163,7.35648,-2.23915,-10.42405,-7.37004,16.27613,-10.79522,-3.63854,-16.67294,5.04743,102.79251,0.03264,-97.57862,25.31749,0.00026,94.01889,-8.78179,5.23386,0.00111,-2.68274,2.61595,4e-05,-23.82598,2.95362,-4.94161,-45.54602,4.57236,-3.49874,6.26454,-0.63841,2.29911
3937,1.04935,-0.0,0.0,-6.82247,0.0,0.0,6.46917,-7.39372,11.92229,5.71647,3.60022,-8.8818,-8.67023,0.79508,4e-05,-2.04242,1.94508,1e-05,9.71947,6.0806,7.53854,7.41538,-2.13555,-10.38781,-6.80415,16.51018,-11.00156,-3.86564,-16.58463,5.31145,105.01767,0.00948,-97.63636,25.67056,0.00062,93.9664,-9.55828,5.57967,-0.00048,-2.8681,2.75731,-0.00025,-23.81907,2.93075,-4.9622,-45.53796,4.55872,-3.5264,6.40128,-0.6042,2.27151
3938,0.99836,-0.0,-0.0,-6.38226,0.0,0.0,6.4983,-7.09798,11.55307,5.71728,3.89922,-8.71395,-8.61856,0.69576,-4e-05,-2.19387,1.83961,0.00022,9.6912,6.14995,7.90117,7.53473,-2.11719,-10.2778,-6.24255,16.66281,-11.28108,-4.24553,-16.43067,5.37831,107.12843,-0.01404,-96.60031,26.25562,0.00033,93.9141,-10.23191,6.01351,0.00016,-2.86003,3.18394,0.00094,-23.79445,3.05442,-5.13399,-45.51308,4.7371,-3.64039,6.6308,-0.66586,2.26143
3939,0.98503,0.0,0.0,-6.49256,-0.0,-0.0,6.46258,-6.87824,11.47683,5.90928,4.4995,-8.77083,-8.51631,0.64526,-1e-05,-2.35883,1.68372,0.00029,9.68377,6.09343,8.05064,7.68742,-2.17214,-10.0013,-5.62818,16.72016,-11.58947,-4.61045,-16.28537,5.32982,109.22741,-0.03526,-94.67651,26.85905,-0.00038,93.9472,-10.59452,6.26101,0.00042,-2.62816,3.58105,0.00095,-23.78836,3.25627,-5.33457,-45.50854,4.99873,-3.75215,6.85029,-0.79246,2.24949
3940,0.83526,0.0,0.0,-7.02817,0.0,0.0,6.43451,-6.79723,11.67855,6.21226,5.17314,-9.04369,-8.42494,0.6347,3e-05,-2.46562,1.53578,0.00011,9.69358,5.9879,7.95771,7.81164,-2.23555,-9.64029,-4.94434,16.70143,-11.81085,-4.82522,-16.191,5.27963,111.43886,-0.04946,-92.29688,27.27225,-0.0013,94.10307,-10.23668,6.14612,-0.00506,-2.23026,3.65413,-0.00129,-23.84639,3.42313,-5.40275,-45.57041,5.17894,-3.75364,7.00945,-0.90766,2.20826
3941,0.54187,0.0,0.0,-7.7605,0.0,0.0,6.4729,-6.75223,12.02868,6.54187,5.60542,-9.33934,-8.4094,0.63394,1e-05,-2.45699,1.47373,4e-05,9.72295,5.91295,7.66868,7.83921,-2.26751,-9.39676,-4.13037,16.65162,-11.89548,-4.88724,-16.15322,5.32987,113.7272,-0.02854,-90.19912,27.48527,-0.00257,94.36391,-9.09368,5.71459,-0.01077,-1.79736,3.41681,-0.00262,-23.88528,3.4758,-5.32384,-45.61297,5.1987,-3.66059,7.10631,-0.95946,2.09315
3942,0.30095,0.0,0.0,-8.57828,0.0,0.0,6.5536,-6.66559,12.41317,6.83582,5.67173,-9.50132,-8.45164,0.61793,-4e-05,-2.36368,1.51867,0.00014,9.73039,5.89137,7.27293,7.74652,-2.27448,-9.37034,-3.0995,16.56512,-11.96231,-4.88244,-16.18398,5.52722,115.88259,0.0227,-89.35984,27.65843,-0.00261,94.5,-7.79678,5.21635,-0.00681,-1.48723,3.18245,-0.00161,-23.76592,3.42071,-5.24584,-45.49361,5.11871,-3.60844,7.12702,-0.93228,1.9512
3943,0.25818,-0.0,-0.0,-9.20537,0.0,0.0,6.61962,-6.63635,12.71217,6.99887,5.51325,-9.4761,-8.46009,0.60813,-3e-05,-2.28926,1.62012,7e-05,9.65415,5.89011,6.9689,7.59145,-2.28619,-9.51282,-1.88119,16.39305,-12.18098,-4.90734,-16.29532,5.79973,117.72537,0.04565,-89.92472,27.97083,0.00162,94.12534,-7.01264,4.87722,0.00052,-1.35084,3.27267,-0.00022,-23.51877,3.32075,-5.29571,-45.24199,5.04428,-3.69202,7.07153,-0.8341,1.90077
3944,0.42803,0.0,0.0,-9.26028,0.0,0.0,6.61084,-6.7682,12.80817,6.95676,5.3212,-9.28397,-8.36697,0.65689,0.00016,-2.30752,1.71804,-9e-05,9.49789,5.849,6.94439,7.4713,-2.33725,-9.73676,-0.64501,16.15106,-12.56394,-5.01861,-16.44691,5.97742,119.26772,0.01479,-90.62232,28.50418,0.00778,93.1258,-6.73081,4.72792,0.00299,-1.26645,3.75599,0.00108,-23.32895,3.23606,-5.45092,-45.04561,5.02294,-3.868,7.00555,-0.70617,1.94402
3945,0.76429,0.0,0.0,-8.78573,0.0,0.0,6.48982,-6.96063,12.70593,6.76585,5.12043,-9.02692,-8.19446,0.78321,0.00033,-2.37396,1.79451,-0.00011,9.32352,5.73206,7.17363,7.41419,-2.43729,-9.9478,0.46529,15.93666,-12.97352,-5.19351,-16.54329,5.92876,120.67872,-0.02583,-90.25011,29.18219,0.00808,91.86961,-6.57001,4.64329,0.00216,-1.07088,4.3999,0.00173,-23.28264,3.1933,-5.60457,-44.99397,5.03998,-4.02695,7.00012,-0.61444,1.95632
3946,1.10338,0.0,-0.0,-8.29642,-0.0,0.0,6.31817,-7.05636,12.56419,6.58795,4.82424,-8.84426,-8.02637,0.9486,0.00021,-2.36682,1.86217,3e-05,9.16493,5.56277,7.45398,7.34419,-2.55562,-10.04954,1.45065,15.81998,-13.32659,-5.35485,-16.51127,5.69818,122.10891,-0.02613,-89.30738,29.81319,0.00202,90.88677,-6.42014,4.53254,0.00146,-0.70656,4.84522,-0.00025,-23.28926,3.19349,-5.71569,-44.99766,5.08119,-4.13036,7.04028,-0.61178,1.88384
3947,1.16061,0.0,-0.0,-8.14308,-0.0,0.0,6.23599,-7.11771,12.51132,6.53993,4.40432,-8.79281,-7.91978,1.09744,-3e-05,-2.23048,1.93095,0.00017,9.02103,5.40585,7.6463,7.20164,-2.64975,-10.03662,2.39459,15.77626,-13.68144,-5.43464,-16.37228,5.50196,123.54749,0.00577,-89.14541,30.2155,-0.00268,90.45966,-6.39307,4.50086,0.00141,-0.28465,4.86703,-0.00314,-23.26723,3.22466,-5.84857,-44.97306,5.15922,-4.24254,7.07105,-0.69379,1.78595
3948,0.85067,0.0,-0.0,-8.41678,0.0,-0.0,6.31149,-7.3341,12.53115,6.66227,3.95934,-8.80961,-7.86104,1.18718,-0.00014,-2.05236,1.99668,0.00012,8.92099,5.32142,7.75577,7.06142,-2.69979,-10.02417,3.36032,15.72707,-14.12021,-5.39022,-16.2243,5.57999,124.89718,0.02435,-90.05264,30.31299,-0.00236,90.52072,-6.48833,4.66259,0.00146,-0.08453,4.50145,-0.00208,-23.25121,3.25759,-6.04801,-44.95256,5.26345,-4.41608,7.10415,-0.78758,1.69878
3949,0.50485,0.0,0.0,-9.21334,-0.0,-0.0,6.45736,-7.69293,12.55394,6.95085,3.67725,-8.79458,-7.81144,1.20205,-0.00012,-1.95709,2.04193,-2e-05,8.90127,5.3106,7.82009,7.03742,-2.7215,-10.11761,4.36726,15.61433,-14.64775,-5.23244,-16.14814,6.01408,126.14521,0.01352,-91.10844,30.1859,-0.00048,90.88799,-6.66915,4.91147,0.00185,-0.3316,3.93459,0.00213,-23.29483,3.28036,-6.23622,-44.99146,5.35408,-4.58297,7.18811,-0.8267,1.59907
3950,0.52718,0.0,-0.0,-10.12764,0.0,0.0,6.51954,-7.99183,12.53263,7.24358,3.68738,-8.70624,-7.75513,1.17574,-3e-05,-1.94426,2.04232,-0.00012,8.9121,5.3158,7.86519,7.09157,-2.73942,-10.28262,5.41308,15.44509,-15.22148,-5.06022,-16.12662,6.64561,127.35532,-0.0083,-91.42709,30.04712,-0.00086,91.48843,-7.00277,5.12869,0.00184,-0.88372,3.30558,0.00365,-23.39983,3.33869,-6.28781,-45.09696,5.42732,-4.60938,7.29505,-0.82883,1.47912
3951,0.95393,0.0,-0.0,-10.23577,0.0,-0.0,6.44295,-8.15068,12.48178,7.27536,3.90653,-8.58192,-7.69015,1.16214,8e-05,-1.92045,1.99407,-0.0002,8.85778,5.31077,7.91797,7.08685,-2.73767,-10.3794,6.48039,15.28306,-15.82144,-4.96877,-16.07755,7.2329,128.53758,-0.01735,-91.00704,30.08409,-0.00246,92.15302,-7.57057,5.38806,-0.00022,-1.31917,2.70434,0.00105,-23.55928,3.45826,-6.17508,-45.26395,5.49681,-4.45994,7.34824,-0.83988,1.36493
3952,1.48726,0.0,0.0,-9.45911,-0.0,0.0,6.33685,-8.23619,12.48168,7.04869,4.11731,-8.48412,-7.60877,1.16439,0.0001,-1.86663,1.94073,-0.00018,8.74279,5.33977,7.96534,7.01157,-2.68053,-10.32921,7.54907,15.18071,-16.44368,-4.93206,-15.9782,7.71168,129.64265,-0.00871,-90.54943,30.31168,-0.00128,92.42254,-8.34455,5.83605,-0.0037,-1.37425,2.29481,-0.00088,-23.76576,3.53752,-5.97386,-45.47893,5.49616,-4.24302,7.35626,-0.83296,1.26238
3953,1.81209,0.0,0.0,-8.84783,0.0,-0.0,6.35787,-8.23265,12.57487,6.86768,4.20475,-8.45708,-7.49638,1.13201,-3e-05,-1.82828,1.94269,-8e-05,8.63552,5.43716,7.94013,6.9461,-2.57964,-10.18791,8.65635,15.11416,-17.01564,-4.86035,-15.9063,8.17895,130.64107,0.00283,-90.63667,30.61756,0.00169,91.94938,-9.10503,6.50835,-0.00403,-1.16135,2.242,6e-05,-23.9669,3.42716,-5.7337,-45.68267,5.30493,-4.06033,7.37517,-0.73514,1.14546
3954,1.8321,0.0,-0.0,-8.92791,-0.0,-0.0,6.53287,-8.06493,12.68725,6.87091,4.24866,-8.50745,-7.35029,1.03128,-0.00019,-1.77739,2.00353,2e-05,8.5156,5.57734,7.81965,6.86319,-2.48375,-10.0255,9.90702,15.0107,-17.4127,-4.73463,-15.92528,8.65918,131.53548,0.00552,-91.25078,30.91959,0.00297,90.92475,-9.58009,7.19584,-0.00028,-1.01033,2.52888,0.0001,-24.08404,3.12536,-5.43941,-45.79742,4.91585,-3.89839,7.36081,-0.53523,1.023
3955,1.71591,0.0,-0.0,-9.09252,0.0,0.0,6.72718,-7.77555,12.70622,6.87828,4.42556,-8.59351,-7.20297,0.88266,-0.00018,-1.65952,2.05565,-0.0,8.33642,5.71321,7.71827,6.70735,-2.42511,-9.8298,11.33711,14.83532,-17.62201,-4.60836,-15.99391,9.07888,132.34233,0.00203,-92.05157,31.22396,0.00196,89.90257,-9.73391,7.56908,0.00207,-1.18142,2.95935,-0.00162,-24.08326,2.79873,-5.11426,-45.79472,4.49226,-3.71694,7.24694,-0.31776,0.96089
3956,1.66949,-0.0,0.0,-8.80119,0.0,-0.0,6.80215,-7.48075,12.61465,6.74287,4.81512,-8.64271,-7.09505,0.73029,-4e-05,-1.5288,2.03673,-6e-05,8.16029,5.80777,7.78647,6.57188,-2.4108,-9.59441,12.81643,14.62756,-17.80377,-4.50368,-16.03428,9.4391,133.08823,0.00142,-92.89935,31.53564,-0.00044,89.36915,-9.73984,7.53586,0.00148,-1.6243,3.2994,-0.0018,-24.00516,2.60289,-4.85286,-45.71726,4.21372,-3.54631,7.1134,-0.19251,0.9958
3957,1.6545,0.0,0.0,-8.23517,0.0,0.0,6.76546,-7.22358,12.49414,6.53993,5.27611,-8.58569,-7.02697,0.61153,4e-05,-1.48735,1.95184,6e-05,8.08644,5.84382,8.02654,6.59058,-2.42403,-9.41629,14.17237,14.47027,-18.14534,-4.38368,-16.02231,9.82119,133.78075,0.00539,-93.90763,31.80406,-0.00174,89.44253,-9.78015,7.31752,0.00026,-1.98232,3.40083,-0.00078,-23.91767,2.57396,-4.72363,-45.63191,4.13909,-3.43678,7.10551,-0.20147,1.09113
3958,1.5133,0.0,-0.0,-7.90341,0.0,-0.0,6.72779,-6.99602,12.43535,6.42998,5.58102,-8.40188,-6.97106,0.55361,5e-05,-1.54569,1.85962,0.00013,8.12777,5.83342,8.27486,6.7578,-2.43241,-9.40967,15.34594,14.4161,-18.67975,-4.24638,-15.97945,10.23169,134.39037,0.00707,-94.97406,32.022,-0.0005,89.78127,-9.99577,7.21168,-0.00063,-1.94938,3.29862,-0.00068,-23.84193,2.67759,-4.70577,-45.55936,4.22876,-3.38172,7.2517,-0.29547,1.20243
3959,1.28262,0.0,-0.0,-8.13838,0.0,-0.0,6.74846,-6.85924,12.47321,6.5044,5.61432,-8.16199,-6.91126,0.56223,6e-05,-1.63493,1.82458,5e-05,8.21989,5.80615,8.37126,6.96057,-2.42636,-9.55501,16.35798,14.42385,-19.22959,-4.16804,-15.94007,10.59511,134.9046,0.00098,-95.43824,32.28168,0.00192,89.90998,-10.30665,7.41893,0.00055,-1.59598,3.16907,-0.00039,-23.75086,2.83719,-4.73969,-45.472,4.38957,-3.35405,7.46219,-0.3852,1.30073
3960,1.15323,0.0,-0.0,-8.85464,0.0,-0.0,6.78312,-6.9058,12.57589,6.74029,5.38262,-8.0019,-6.85681,0.59863,6e-05,-1.70491,1.86781,-4e-05,8.29498,5.79854,8.30294,7.10744,-2.41752,-9.70752,17.21801,14.39646,-19.56228,-4.1965,-15.93382,10.88066,135.37625,-0.00966,-94.48785,32.63554,0.00265,89.76648,-10.33978,7.91878,0.00499,-1.23864,3.09063,0.00017,-23.62921,2.925,-4.79443,-45.35169,4.49138,-3.3724,7.65313,-0.39831,1.33754
3961,1.20892,0.0,0.0,-9.67363,0.0,0.0,6.76535,-7.10959,12.69835,7.03033,4.96466,-7.99086,-6.83593,0.59648,8e-05,-1.75085,1.94317,-5e-05,8.31238,5.85471,8.16546,7.16611,-2.39078,-9.7479,17.96712,14.28539,-19.66529,-4.2677,-15.94641,11.10229,135.84964,-0.01255,-92.1866,32.99336,0.00079,89.70033,-10.02408,8.40996,0.00612,-1.07609,2.9481,0.00042,-23.48578,2.85874,-4.8599,-45.20489,4.45402,-3.45793,7.79984,-0.3102,1.29002
3962,1.33896,0.0,0.0,-10.186,-0.0,0.0,6.68999,-7.36065,12.8018,7.23239,4.52892,-8.03063,-6.85173,0.525,6e-05,-1.77571,1.96483,-4e-05,8.24072,6.00642,8.08098,7.13192,-2.29707,-9.68059,18.71779,14.12269,-19.79602,-4.28163,-15.90907,11.21708,136.26959,-0.00272,-89.52658,33.22961,-0.00066,89.86124,-9.88361,8.61706,0.0032,-1.08181,2.64425,0.00062,-23.34142,2.71237,-4.91894,-45.05502,4.33986,-3.56719,7.90724,-0.14443,1.24004
3963,1.38551,-0.0,-0.0,-10.26309,0.0,-0.0,6.60364,-7.64323,12.8181,7.27493,4.31287,-7.97082,-6.84695,0.41831,-5e-05,-1.77674,1.87682,-8e-05,8.07819,6.2373,8.15976,7.03715,-2.11364,-9.58931,19.52256,13.96377,-20.16147,-4.20164,-15.77481,11.17413,136.56552,0.00589,-87.04952,33.32049,-0.00082,89.98238,-10.1824,8.61596,0.00126,-1.16186,2.29718,0.00051,-23.25708,2.63309,-4.97301,-44.96721,4.28618,-3.64692,8.00364,0.05276,1.29851
3964,1.32369,-0.0,0.0,-10.05887,0.0,0.0,6.53602,-8.02467,12.66146,7.20506,4.43193,-7.7724,-6.77282,0.33607,-0.00012,-1.76952,1.71281,-9e-05,7.89013,6.48471,8.44151,6.95614,-1.88733,-9.55825,20.27997,13.83532,-20.62236,-4.04918,-15.60112,11.08756,136.79306,0.00122,-84.33216,33.37251,-0.00076,89.8698,-10.39623,8.61102,-0.00034,-1.25867,2.22962,-1e-05,-23.31924,2.65391,-5.04647,-45.0282,4.33267,-3.70756,8.12342,0.24249,1.4343
3965,1.25365,0.0,-0.0,-9.56756,0.0,0.0,6.48399,-8.44564,12.29977,7.07602,4.7119,-7.4818,-6.67381,0.29883,-7e-05,-1.79823,1.56251,-1e-05,7.7656,6.70504,8.87415,6.95006,-1.68105,-9.63908,20.8886,13.72488,-20.86255,-3.85153,-15.50843,11.20928,137.08783,-0.01059,-81.11667,33.54325,-0.00075,89.6698,-10.0034,8.5526,-0.0036,-1.32894,2.68644,-4e-05,-23.54875,2.68506,-5.12914,-45.25658,4.39216,-3.77296,8.25105,0.4117,1.50383
3966,1.23008,0.0,0.0,-8.76031,0.0,0.0,6.47905,-8.66467,11.82937,6.9201,4.8717,-7.15558,-6.65428,0.26619,8e-05,-1.89912,1.47224,6e-05,7.75773,6.91182,9.34247,7.03791,-1.50586,-9.81947,21.42249,13.5949,-20.85401,-3.62326,-15.54942,11.65768,137.48802,-0.01089,-78.35356,33.88839,-0.00027,89.52313,-9.32254,8.16127,-0.00383,-1.32804,3.43908,0.00052,-23.84671,2.6801,-5.1701,-45.5534,4.40268,-3.81293,8.34445,0.56076,1.44791
3967,1.16649,0.0,-0.0,-8.12862,-0.0,0.0,6.60943,-8.49239,11.47032,6.84275,4.83904,-6.89509,-6.77316,0.19586,0.0003,-2.05216,1.42606,6e-05,7.85164,7.11279,9.68755,7.18789,-1.35446,-9.99217,22.03143,13.4356,-20.96966,-3.39696,-15.65836,12.26906,137.87102,0.00052,-77.74844,34.30343,0.00103,89.33491,-9.23593,7.31023,0.00784,-1.23086,3.86826,-0.00016,-24.04995,2.69361,-5.13612,-45.75786,4.40268,-3.77629,8.39392,0.66752,1.3323
3968,0.96341,0.0,0.0,-8.23661,0.0,0.0,6.89219,-8.03564,11.40978,6.94744,4.74149,-6.84302,-6.97635,0.10663,0.00031,-2.19883,1.41292,-1e-05,7.94866,7.25091,9.79689,7.31473,-1.26276,-10.01138,22.71762,13.28491,-21.52735,-3.23329,-15.73013,12.76329,138.08395,0.00303,-79.96453,34.64342,0.00131,89.09003,-10.14536,6.30286,0.01638,-1.051,3.59943,-0.00189,-24.06277,2.76493,-5.03416,-45.77517,4.43126,-3.65493,8.40495,0.68572,1.23349
3969,0.69243,-0.0,-0.0,-8.77674,0.0,-0.0,7.17587,-7.64281,11.62818,7.15407,4.68904,-7.02562,-7.14549,0.05257,0.00013,-2.31261,1.43927,-9e-05,7.94966,7.26187,9.73035,7.36113,-1.27778,-9.831,23.35368,13.16033,-22.41456,-3.14726,-15.70563,12.98373,138.0993,-0.00299,-83.7015,34.86521,-0.00011,89.05621,-11.50331,5.60229,0.00763,-0.84421,2.9746,-0.00168,-23.94094,2.84614,-4.90325,-45.65871,4.45834,-3.50294,8.38363,0.59771,1.1822
3970,0.54573,0.0,0.0,-8.99456,-0.0,0.0,7.30183,-7.55548,11.96352,7.29803,4.72393,-7.28604,-7.23086,0.05369,2e-05,-2.41922,1.47866,-9e-05,7.87164,7.16624,9.63116,7.37088,-1.37793,-9.53371,23.89075,13.02571,-23.31968,-3.06819,-15.57358,12.94611,138.01486,-0.00407,-86.94636,35.05503,-0.00184,89.42142,-12.53027,5.37327,-0.00275,-0.69157,2.7729,6e-05,-23.80966,2.87394,-4.82051,-45.53009,4.45358,-3.41562,8.35877,0.45321,1.18169
3971,0.59391,-0.0,0.0,-8.91138,0.0,0.0,7.30913,-7.66442,12.28473,7.39454,4.85493,-7.45659,-7.30025,0.0881,-1e-05,-2.55067,1.47754,4e-05,7.81682,7.06143,9.53979,7.41731,-1.46853,-9.22411,24.39965,12.84861,-24.13084,-2.94372,-15.34841,12.74722,137.9265,-0.00067,-88.37898,35.34201,-0.00123,89.9526,-12.96786,5.53252,-0.00374,-0.6678,3.35828,-0.0,-23.73046,2.85868,-4.86593,-45.44944,4.45619,-3.46356,8.3722,0.33544,1.22035
3972,0.72644,0.0,0.0,-9.20432,0.0,-0.0,7.34998,-7.69047,12.53905,7.60894,5.00873,-7.51441,-7.44717,0.13403,-3e-05,-2.71888,1.41992,0.00017,7.84733,7.0337,9.40145,7.50174,-1.46542,-8.96778,24.93124,12.63133,-24.9173,-2.83892,-15.08141,12.48802,137.85204,0.00176,-87.79336,35.78823,0.00315,90.18974,-12.87741,5.97418,-0.00023,-0.78145,4.27495,-0.00075,-23.69139,2.88001,-5.03097,-45.4072,4.537,-3.60924,8.44692,0.29546,1.2739
3973,0.84529,-0.0,-0.0,-10.09885,0.0,0.0,7.47456,-7.52287,12.72815,8.0057,5.07962,-7.51963,-7.69354,0.18429,-5e-05,-2.92921,1.34311,0.00019,7.96495,7.09713,9.18277,7.5973,-1.3657,-8.81477,25.48158,12.37271,-25.65966,-2.85411,-14.8525,12.22058,137.76219,0.00142,-86.30699,36.35151,0.00518,90.07098,-12.17147,6.41844,-0.00263,-0.89795,4.86828,-8e-05,-23.65103,3.00754,-5.20717,-45.36647,4.72059,-3.72592,8.59095,0.33253,1.32093
3974,0.9432,-0.0,0.0,-10.96009,-0.0,0.0,7.624,-7.30349,12.87512,8.44653,5.04069,-7.47974,-7.98248,0.2403,-5e-05,-3.1736,1.29628,-0.0,8.15365,7.20177,8.93091,7.71928,-1.23602,-8.80022,26.05524,12.08288,-26.18956,-2.97455,-14.7155,11.95357,137.63206,-0.00068,-85.47266,36.92585,1e-05,90.18191,-10.78716,6.49838,-0.01244,-0.8163,4.99045,0.00021,-23.55453,3.22127,-5.29447,-45.27456,4.95141,-3.72782,8.79277,0.41937,1.33805
3975,1.02587,-0.0,0.0,-11.08711,-0.0,0.0,7.76708,-7.2272,13.03764,8.77132,4.90979,-7.38521,-8.24785,0.30412,-2e-05,-3.42437,1.30796,-0.00027,8.34895,7.28315,8.71447,7.85972,-1.1495,-8.85937,26.62724,11.86215,-26.39944,-3.06705,-14.65851,11.75322,137.47336,-0.00112,-85.51788,37.41418,-0.00485,90.94441,-9.15231,6.32119,-0.01269,-0.54245,4.88886,0.0001,-23.36334,3.40596,-5.27367,-45.08988,5.11528,-3.63984,8.96617,0.51579,1.27702
3976,1.14322,0.0,-0.0,-10.55055,0.0,0.0,7.91735,-7.30822,13.29304,8.97694,4.73534,-7.29753,-8.49926,0.36785,2e-05,-3.66617,1.35644,-0.0003,8.46179,7.31748,8.56163,7.95744,-1.12137,-8.8359,27.11484,11.83922,-26.40557,-3.01325,-14.62267,11.75934,137.35442,-0.00029,-85.27785,37.77739,-0.00305,91.84959,-8.0483,6.37419,-0.00402,-0.35055,4.76677,0.00038,-23.09876,3.44028,-5.1993,-44.82817,5.11969,-3.55784,8.98429,0.57819,1.10256
3977,1.40885,0.0,-0.0,-9.82372,0.0,-0.0,8.06177,-7.38258,13.62829,9.11103,4.65148,-7.27701,-8.81949,0.42124,6e-05,-3.90358,1.36249,1e-05,8.49411,7.34634,8.49059,7.99306,-1.08583,-8.65614,27.48261,11.96171,-26.4347,-2.81846,-14.549,11.99956,137.36343,-0.0031,-83.77727,38.02565,0.00103,92.08358,-7.91001,6.73448,-0.00058,-0.44368,4.68954,0.00039,-22.86039,3.3054,-5.17194,-44.58603,4.98428,-3.5825,8.828,0.59927,0.8712
3978,1.83188,0.0,-0.0,-9.21673,0.0,-0.0,8.18509,-7.34012,13.96469,9.171,4.77607,-7.3164,-9.26819,0.46367,0.00016,-4.12985,1.26971,0.00029,8.53256,7.43703,8.48248,8.00781,-0.95916,-8.37686,27.78237,11.98844,-26.61961,-2.59706,-14.41214,12.27804,137.50032,-0.00632,-81.3096,38.20017,0.00236,91.62798,-8.47101,7.01039,0.00089,-0.71208,4.67158,-4e-05,-22.75618,3.10803,-5.23645,-44.47402,4.82477,-3.71587,8.61572,0.62756,0.723
3979,2.22224,0.0,0.0,-8.85352,0.0,-0.0,8.32707,-7.26662,14.25919,9.15208,5.09937,-7.35203,-9.83716,0.50388,0.00028,-4.32879,1.11919,0.00018,8.62904,7.61324,8.46539,8.02052,-0.7366,-8.09793,28.06713,11.75606,-26.9772,-2.4667,-14.24279,12.40076,137.62526,-0.00575,-79.41131,38.38075,0.0016,91.12103,-9.1744,7.00327,0.00167,-0.92247,4.67528,-0.0003,-22.77345,2.989,-5.29438,-44.4862,4.73559,-3.81399,8.45662,0.71869,0.75875
3980,2.38612,-0.0,0.0,-8.53642,0.0,0.0,8.5392,-7.32562,14.49002,9.05384,5.54361,-7.2474,-10.50037,0.55794,0.00023,-4.52547,0.98912,-5e-05,8.77634,7.83208,8.41581,8.02684,-0.49897,-7.95199,28.36628,11.33397,-27.48133,-2.46285,-14.1229,12.42885,137.58351,-0.00917,-79.71477,38.66191,0.00056,90.92291,-9.71486,6.85399,0.00039,-0.98233,4.66129,-0.00028,-22.79567,3.00126,-5.24788,-44.50994,4.72979,-3.76614,8.36035,0.8743,0.95094
3981,2.34796,0.0,0.0,-7.88778,0.0,0.0,8.82382,-7.58123,14.68202,8.91742,5.96714,-6.87688,-11.24411,0.64458,-5e-05,-4.79137,0.89893,-4e-05,8.98073,8.02188,8.35361,8.0665,-0.3215,-8.05561,28.70869,10.91,-28.04164,-2.53594,-14.11501,12.52977,137.38135,-0.01259,-82.14199,39.07307,-0.0007,90.98801,-10.06928,6.65446,-0.00076,-0.91602,4.66497,-8e-05,-22.75406,3.08784,-5.18548,-44.4725,4.78717,-3.67591,8.30287,1.04249,1.1848
3982,2.27158,0.0,0.0,-6.83713,0.0,0.0,9.14459,-7.94474,14.89551,8.84747,6.14779,-6.30572,-12.04285,0.77165,-0.00034,-5.14468,0.81657,0.00013,9.26855,8.14753,8.26889,8.18423,-0.19686,-8.36586,29.06895,10.63274,-28.48054,-2.60751,-14.19852,12.70444,137.1833,-0.00625,-84.8996,39.54456,-0.00148,91.24074,-10.33046,6.31229,-0.00029,-0.7447,4.72185,0.00012,-22.66219,3.16452,-5.25429,-44.38138,4.88384,-3.71149,8.28622,1.17963,1.34478
3983,2.23028,-0.0,0.0,-5.61305,0.0,0.0,9.45606,-8.2481,15.06778,8.88151,6.00371,-5.76564,-12.84233,0.93245,-0.00041,-5.48755,0.71571,0.00015,9.62849,8.23298,8.20783,8.35072,-0.06257,-8.68192,29.33842,10.54834,-28.63426,-2.62722,-14.30405,12.86471,137.13766,0.00124,-86.63333,39.97231,-0.00027,91.53233,-10.64223,5.78178,0.00113,-0.54928,4.78285,0.0001,-22.55973,3.18157,-5.39768,-44.27596,4.95265,-3.83866,8.31677,1.28299,1.36821
3984,2.24067,-0.0,0.0,-4.56197,0.0,-0.0,9.70972,-8.38812,15.10748,8.96259,5.77186,-5.4619,-13.5872,1.10941,-0.00028,-5.71059,0.60094,-4e-05,10.01048,8.29447,8.23788,8.49387,0.092,-8.81866,29.44977,10.60129,-28.49672,-2.57119,-14.36637,13.02091,137.25339,0.00315,-87.45715,40.26095,0.00145,91.70118,-11.04546,5.14563,0.00173,-0.50053,4.75781,0.00027,-22.51301,3.12253,-5.38575,-44.22765,4.89339,-3.84948,8.37059,1.33913,1.25823
3985,2.38038,0.0,-0.0,-4.11883,0.0,0.0,9.87656,-8.38055,15.1598,9.08059,5.77113,-5.45411,-14.28194,1.27013,-0.0002,-5.82545,0.49973,-0.00017,10.38093,8.29831,8.24048,8.57198,0.19355,-8.74799,29.48601,10.69234,-28.26487,-2.41083,-14.34097,13.23598,137.43419,0.00152,-87.81105,40.30565,0.00143,91.77428,-11.4151,4.44639,0.00123,-0.65794,4.59021,0.0008,-22.58508,3.00478,-5.11505,-44.30265,4.68399,-3.64119,8.39449,1.30411,1.06391
3986,2.53495,0.0,0.0,-4.26697,0.0,0.0,9.99416,-8.27003,15.36882,9.23409,6.03478,-5.57209,-15.01241,1.39706,-0.0005,-5.94967,0.43115,-0.00015,10.7606,8.22683,8.11286,8.6139,0.1809,-8.62357,29.56818,10.75672,-28.1949,-2.14202,-14.24256,13.53007,137.5681,-0.0005,-87.59917,40.0586,-0.00072,91.73837,-11.60603,3.77211,0.00042,-0.87355,4.28841,0.0008,-22.74221,2.87639,-4.76247,-44.46398,4.43441,-3.3607,8.36582,1.17469,0.8685
3987,2.45698,0.0,-0.0,-4.47142,0.0,0.0,10.13436,-8.04704,15.59646,9.37863,6.33227,-5.56497,-15.87346,1.48941,-0.00031,-6.17869,0.38435,-4e-05,11.17371,8.13769,7.99289,8.6679,0.08728,-8.59937,29.70225,10.76867,-28.38019,-1.83344,-14.14415,13.87002,137.57782,-0.00165,-87.03413,39.63873,-0.00242,91.52343,-11.53094,3.35773,0.00043,-0.97438,3.91592,2e-05,-22.85847,2.77848,-4.58143,-44.58134,4.27652,-3.22858,8.3013,1.0174,0.76027
3988,2.35845,0.0,0.0,-4.71685,0.0,-0.0,10.29745,-7.69682,15.72821,9.58642,6.48448,-5.46027,-16.87726,1.51213,0.00115,-6.49177,0.3333,7e-05,11.56495,8.13075,7.9258,8.68919,0.02432,-8.61543,29.82704,10.70324,-28.73069,-1.58173,-14.09336,14.18023,137.46379,-0.00367,-87.03835,39.26056,-0.0013,91.29849,-11.2122,3.25084,0.00088,-0.91066,3.54737,-0.00072,-22.84523,2.72938,-4.61523,-44.56603,4.2434,-3.27825,8.1722,0.91086,0.75829
3989,2.66365,0.0,0.0,-5.37377,0.0,-0.0,10.42675,-7.35574,15.80269,9.95832,6.4473,-5.44202,-17.95912,1.4607,0.00177,-6.78998,0.26368,9e-05,11.86687,8.26149,7.80503,8.5957,0.08693,-8.54601,29.92028,10.55748,-29.1469,-1.42894,-14.07631,14.39002,137.32944,-0.00459,-87.75587,39.05225,0.00018,91.17813,-10.90168,3.25619,0.00047,-0.72367,3.23999,-0.0008,-22.72379,2.74582,-4.69746,-44.44329,4.28908,-3.34867,7.93494,0.88634,0.81575
3990,3.2536,0.0,0.0,-6.15667,0.0,-0.0,10.51249,-7.30054,15.79973,10.37252,6.2084,-5.45053,-19.08277,1.43111,-6e-05,-7.00597,0.18123,2e-05,12.13338,8.4931,7.6858,8.4213,0.26333,-8.42358,29.98672,10.38379,-29.57831,-1.36543,-14.07415,14.48583,137.28801,-0.00417,-88.15063,39.01208,0.0007,90.96337,-10.98639,3.32855,-0.00113,-0.46913,3.06218,-0.00015,-22.56547,2.82495,-4.7011,-44.28711,4.36393,-3.32269,7.65116,0.91758,0.91317
3991,3.75942,0.0,0.0,-6.59541,-0.0,-0.0,10.5757,-7.66189,15.75178,10.61934,5.87206,-5.31403,-20.3172,1.48949,-0.00183,-7.14221,0.09365,0.0,12.49494,8.75606,7.6193,8.26704,0.47882,-8.31335,30.03357,10.24138,-29.9283,-1.37981,-14.10587,14.51635,137.3148,-0.00369,-87.75544,39.08678,0.00058,90.58531,-11.59175,3.57151,-0.00297,-0.19946,3.07575,0.00065,-22.41997,2.91069,-4.68562,-44.14438,4.43786,-3.27645,7.44106,0.97238,1.07214
3992,4.23432,-0.0,-0.0,-6.90459,-0.0,-0.0,10.59129,-8.26089,15.86803,10.6845,5.68291,-5.09282,-21.76314,1.56851,-0.00077,-7.23602,0.00536,4e-05,13.01803,9.02871,7.40399,8.16012,0.70111,-8.16472,30.09437,10.1373,-30.0723,-1.45885,-14.19432,14.54948,137.25964,-0.00145,-87.10849,39.21956,-0.00012,90.27876,-12.27405,3.94063,-0.00155,0.01814,3.21045,0.0007,-22.30778,2.94219,-4.76991,-44.03129,4.49828,-3.34319,7.33535,1.05818,1.28042
3993,4.94205,0.0,-0.0,-7.52378,0.0,-0.0,10.50904,-8.79281,16.23983,10.74812,5.73344,-4.98742,-23.40926,1.58324,0.0015,-7.34347,-0.05445,-4e-05,13.68876,9.31171,6.89572,8.09044,0.92365,-7.92931,30.20242,10.05641,-30.01944,-1.56113,-14.30669,14.59926,137.02951,0.00192,-86.51307,39.35147,-0.00057,90.19576,-12.27951,4.2002,-0.00134,0.13701,3.2591,0.00018,-22.24883,2.92552,-4.92947,-43.96832,4.54177,-3.49788,7.27547,1.18146,1.47374
3994,5.83481,0.0,0.0,-8.35898,-0.0,0.0,10.30911,-9.08227,16.63225,10.95054,5.80869,-5.04054,-25.1323,1.55668,0.00155,-7.52093,-0.04049,-0.00032,14.48387,9.57781,6.31466,8.10451,1.10363,-7.67135,30.33926,10.00251,-29.95877,-1.63404,-14.36391,14.62649,136.68265,0.00314,-85.99879,39.42244,-0.00021,90.3102,-11.32753,4.138,-0.00858,0.17754,3.10033,-0.00015,-22.27609,2.91555,-5.01391,-43.99335,4.56371,-3.58018,7.23394,1.3008,1.60689
3995,6.66785,0.0,0.0,-8.90813,0.0,-0.0,10.0041,-9.17514,16.77939,11.20897,5.68452,-5.09574,-26.83499,1.55732,-0.0001,-7.76675,0.03777,-0.00044,15.35958,9.81486,5.96027,8.227,1.21594,-7.47916,30.45881,9.96483,-30.06309,-1.65464,-14.33233,14.64711,136.32745,0.00159,-85.85701,39.37332,7e-05,90.5565,-10.03652,3.92534,-0.0132,0.18015,2.80411,-9e-05,-22.4006,2.94701,-4.96877,-44.11982,4.57626,-3.52649,7.23075,1.37614,1.69998
3996,7.44168,0.0,-0.0,-8.87091,0.0,0.0,9.59408,-9.27059,16.68909,11.32574,5.43244,-4.97216,-28.50349,1.59343,-0.00121,-8.00909,0.0954,-0.00015,16.21106,10.04884,5.84097,8.35981,1.2985,-7.39258,30.53201,9.88416,-30.27793,-1.64877,-14.28676,14.76452,136.02386,-0.00033,-86.36821,39.17131,-0.00128,90.70437,-9.35755,4.04366,-0.01219,0.13937,2.47164,0.00035,-22.59545,2.99613,-4.90106,-44.31767,4.59686,-3.44523,7.25523,1.41851,1.79434
3997,8.54267,0.0,0.0,-8.47912,0.0,-0.0,8.99819,-9.53665,16.47727,11.25003,5.31259,-4.61155,-30.15027,1.64029,-0.00153,-8.17876,0.05948,0.00014,16.97041,10.27791,5.78935,8.39217,1.37427,-7.44837,30.5416,9.69994,-30.41136,-1.67226,-14.34058,15.03661,135.79739,-0.00226,-88.10968,38.88733,-0.00286,90.50166,-9.76192,4.40726,-0.00237,0.02867,2.16682,0.00065,-22.84817,2.99487,-4.86087,-44.57124,4.58084,-3.40829,7.27515,1.44872,1.89424
3998,10.37846,0.0,-0.0,-8.27092,-0.0,0.0,8.09464,-9.93238,16.12512,11.12078,5.4665,-4.11414,-31.79724,1.68055,-0.00035,-8.26279,-0.0531,0.00012,17.71648,10.49183,5.71214,8.34263,1.43438,-7.65492,30.49897,9.42183,-30.38732,-1.75045,-14.51401,15.38219,135.67165,-0.00149,-91.81827,38.70916,-0.0014,89.99728,-10.99659,4.13162,0.02392,-0.14136,2.04112,0.00011,-23.16731,2.90074,-4.73858,-44.8903,4.4482,-3.32942,7.28737,1.47542,1.97429
3999,12.68594,0.0,0.0,-8.52094,-0.0,0.0,6.92119,-10.23709,15.60071,11.08243,5.76772,-3.65527,-33.50356,1.66747,0.00341,-8.28867,-0.16517,-5e-05,18.57096,10.74464,5.56866,8.28913,1.5092,-7.91494,30.48146,9.11136,-30.24549,-1.84553,-14.72086,15.66868,135.6552,0.00111,-96.28964,38.76845,0.00201,89.29771,-12.24629,2.89223,0.03229,-0.31326,2.2793,-0.00077,-23.49913,2.74023,-4.49615,-45.22272,4.20946,-3.16342,7.28409,1.5269,2.0328
4000,14.49471,0.0,0.0,-8.99306,-0.0,0.0,5.70413,-10.28284,15.00024,11.15836,5.95978,-3.2999,-35.31645,1.58114,0.00541,-8.31109,-0.22868,-0.00016,19.54252,11.06589,5.34347,8.2621,1.62379,-8.13007,30.56819,8.81281,-29.99419,-1.90845,-14.87951,15.82977,135.70345,0.00051,-98.3295,38.96579,0.00334,88.45635,-12.72108,1.72829,0.01568,-0.45019,2.81974,-0.00094,-23.71595,2.54295,-4.3068,-45.43814,3.95618,-3.06046,7.23656,1.61899,2.12539
4001,15.21715,0.0,0.0,-9.24724,0.0,0.0,4.54597,-10.15224,14.3661,11.27429,5.91555,-2.90325,-37.19239,1.55404,-0.00042,-8.40811,-0.2734,-5e-05,20.5639,11.36136,5.16134,8.27881,1.71827,-8.37394,30.74666,8.55462,-29.67318,-1.93958,-14.97248,15.87133,135.71509,0.00176,-96.63804,39.074,0.00217,87.78239,-12.4492,1.7177,0.00652,-0.64544,3.30163,9e-05,-23.74669,2.28659,-4.31856,-45.46228,3.72238,-3.16648,7.15297,1.70438,2.32604
4002,15.48703,0.0,-0.0,-9.04681,0.0,0.0,3.23418,-10.10938,13.61512,11.355,5.70893,-2.30724,-39.03521,1.73829,-0.00869,-8.62954,-0.35772,0.00028,21.60229,11.53299,5.14747,8.36118,1.72225,-8.78168,30.95666,8.37014,-29.41586,-1.96498,-15.01708,15.85877,135.60275,0.00274,-93.68968,38.96981,0.00156,87.56313,-12.22178,2.61834,0.00033,-1.05167,3.3735,0.00299,-23.66594,1.98473,-4.44889,-45.37172,3.49011,-3.39961,7.07436,1.72153,2.63483
4003,16.30097,0.0,0.0,-8.44924,-0.0,-0.0,1.54646,-10.29977,12.80743,11.37533,5.47987,-1.61187,-40.8162,1.99917,-0.00689,-8.94261,-0.4885,0.00044,22.65919,11.63054,5.11259,8.47212,1.66413,-9.26842,31.17377,8.26932,-29.29621,-1.96415,-15.03816,15.90341,135.38115,-0.00363,-92.62029,38.65484,0.00085,87.62017,-12.64777,3.36434,-0.00062,-1.59554,3.00865,0.00433,-23.60774,1.7746,-4.53065,-45.30706,3.32509,-3.55351,6.99828,1.66983,2.96409
4004,17.49221,0.0,0.0,-7.64636,0.0,-0.0,-0.34018,-10.59654,12.18046,11.3292,5.31508,-1.09612,-42.61265,2.01178,0.00444,-9.25059,-0.62247,0.00018,23.72181,11.79262,4.72528,8.51997,1.64474,-9.55559,31.38244,8.23443,-29.24971,-1.87479,-15.04696,16.02286,135.16649,-0.00745,-93.7404,38.16744,-0.00122,87.60633,-13.51139,3.31854,0.00579,-1.93177,2.53269,0.00162,-23.64833,1.79667,-4.51722,-45.34843,3.34062,-3.53284,6.86864,1.60997,3.23619
4005,17.89489,-0.0,0.0,-6.94883,-0.0,-0.0,-1.98167,-10.77016,11.7799,11.2497,5.24396,-0.89737,-44.51872,1.71968,0.0116,-9.47557,-0.72853,-0.00015,24.7828,12.07702,4.01327,8.45111,1.72157,-9.50703,31.5394,8.25123,-29.17398,-1.70249,-15.04144,16.04125,135.07193,-0.00553,-94.73358,37.62551,-0.00258,87.44889,-14.09967,2.7676,0.00457,-1.78588,2.32928,0.00052,-23.78995,2.00067,-4.48036,-45.4954,3.51655,-3.42298,6.65356,1.60524,3.44135
4006,16.84808,0.0,0.0,-6.71432,0.0,0.0,-3.16727,-10.70412,11.36701,11.23976,5.26537,-0.90858,-46.55555,1.39917,0.00794,-9.63013,-0.81438,-0.0002,25.85318,12.41072,3.3316,8.28771,1.85141,-9.26687,31.62505,8.30433,-29.02439,-1.5748,-15.05679,15.79703,135.09613,-0.00431,-93.76665,37.24278,-0.00216,87.36161,-14.0245,2.40737,0.0012,-1.21896,2.49366,0.00231,-23.96856,2.17415,-4.50725,-45.67746,3.68766,-3.38371,6.3767,1.66065,3.60441
4007,14.75227,0.0,0.0,-6.93023,0.0,0.0,-4.0675,-10.46724,10.75658,11.36196,5.33626,-0.90546,-48.67015,1.30073,-0.00091,-9.79181,-0.90497,-1e-05,26.93801,12.69147,2.90762,8.09808,1.95747,-9.0774,31.67926,8.33658,-28.8439,-1.60562,-15.16728,15.43069,135.12321,-0.00143,-91.57755,37.13058,-0.00203,87.46214,-13.4628,2.54301,0.0036,-0.60023,2.79412,0.00219,-24.07408,2.15579,-4.62099,-45.78,3.71264,-3.49633,6.08195,1.73373,3.75698
4008,12.39356,-0.0,0.0,-7.12948,0.0,-0.0,-4.95349,-10.2714,9.9911,11.54522,5.40299,-0.69384,-50.76295,1.4769,-0.0078,-10.01083,-1.01163,0.00014,28.04168,12.87761,2.70545,7.96799,2.00996,-9.06738,31.75204,8.25708,-28.73871,-1.73707,-15.40112,15.28037,135.03673,0.00169,-89.95396,37.13817,-0.0026,87.47285,-12.71813,2.98862,0.00728,-0.39709,2.9366,0.00142,-24.04818,1.96086,-4.778,-45.74584,3.58955,-3.71464,5.81746,1.79873,3.93743
4009,10.31887,0.0,0.0,-6.98992,-0.0,-0.0,-5.96649,-10.32785,9.20519,11.69694,5.47187,-0.27308,-52.70912,1.82608,-0.00858,-10.2736,-1.11548,-3e-05,29.14288,12.97173,2.57601,7.92898,2.00721,-9.15299,31.8657,8.03547,-28.80341,-1.81177,-15.69039,15.46118,134.83846,0.00193,-89.55206,37.0374,-0.00325,87.15939,-12.02814,3.42191,0.00814,-0.80226,2.82738,0.00256,-23.95007,1.72789,-4.95525,-45.63804,3.43856,-3.96584,5.59687,1.84693,4.1678
4010,8.92589,0.0,0.0,-6.80774,0.0,0.0,-7.17128,-10.60388,8.46528,11.85374,5.62392,0.16967,-54.41065,2.15191,-0.00378,-10.55244,-1.1959,-0.00029,30.17427,12.98365,2.38918,7.92326,1.92853,-9.16196,32.02242,7.76533,-28.98663,-1.76651,-15.92385,15.7291,134.66075,0.00097,-89.78362,36.79847,-0.00231,86.80048,-11.5359,3.51949,0.0071,-1.4862,2.58495,0.0023,-23.89129,1.57422,-5.18362,-45.56982,3.38011,-4.23521,5.3781,1.83717,4.42451
4011,8.57905,0.0,0.0,-7.12841,0.0,0.0,-8.59447,-10.76538,7.77748,12.13134,5.98375,0.51141,-55.85326,2.27536,0.00206,-10.84984,-1.28259,-0.00015,31.0819,12.93404,2.11475,7.89601,1.75127,-9.07772,32.18155,7.59253,-29.01564,-1.6496,-16.03615,15.81929,134.65129,-0.00407,-89.35815,36.53529,-0.00034,86.76125,-11.0222,3.11224,0.00419,-1.87005,2.33971,-0.00045,-23.94008,1.49114,-5.44736,-45.60933,3.40027,-4.51138,5.13755,1.70737,4.65175
4012,9.15952,0.0,0.0,-8.03642,0.0,0.0,-10.06588,-10.47068,7.20579,12.55792,6.61399,0.809,-57.09622,2.15407,0.00505,-11.17358,-1.44042,0.00037,31.87074,12.86152,1.80517,7.85316,1.50433,-9.03493,32.26663,7.58768,-28.62278,-1.49937,-16.04339,15.736,134.84506,-0.01263,-87.36648,36.28106,0.00118,87.02994,-10.06944,2.30385,-0.00289,-1.65573,2.13143,-0.00273,-24.0743,1.39794,-5.63831,-45.73581,3.38413,-4.72356,4.90615,1.4508,4.80619
4013,9.92452,0.0,0.0,-9.06909,0.0,0.0,-11.23494,-9.68234,6.8797,13.02741,7.37311,1.13761,-58.19036,1.9028,0.00421,-11.49586,-1.68185,0.00059,32.58383,12.81627,1.5263,7.80956,1.27738,-9.09605,32.26586,7.68833,-27.89209,-1.3131,-16.02888,15.652,135.15497,-0.01047,-84.8986,35.97863,0.00196,87.41701,-8.62396,1.22137,-0.01222,-1.02244,2.01653,-0.00209,-24.17395,1.2782,-5.68036,-45.83159,3.28836,-4.80697,4.7027,1.15935,4.9019
4014,10.08715,0.0,0.0,-9.59908,0.0,-0.0,-11.83479,-8.72022,6.91362,13.36205,7.97776,1.46409,-59.1184,1.7127,0.00107,-11.76922,-1.93626,0.00023,33.24712,12.83262,1.35976,7.74557,1.14147,-9.16278,32.2648,7.75609,-27.20946,-1.10986,-16.09788,15.69063,135.45624,0.00208,-84.36148,35.62802,0.00078,87.71739,-7.05122,-0.11282,-0.01642,-0.36794,2.14199,0.0006,-24.10801,1.19232,-5.64896,-45.76483,3.19696,-4.8095,4.49004,0.9459,5.01448
4015,9.3386,0.0,0.0,-9.17674,0.0,0.0,-11.81217,-8.02144,7.35795,13.39386,8.27111,1.73248,-59.82943,1.73353,-0.00151,-11.98067,-2.14005,-0.0001,33.83738,12.90062,1.42035,7.63084,1.07803,-9.11329,32.34693,7.6717,-26.85613,-0.96004,-16.28665,15.8177,135.65976,0.00708,-86.55983,35.3121,-0.0022,87.70597,-5.83565,-1.51127,-0.00842,0.09153,2.58307,0.00199,-23.89434,1.18301,-5.6954,-45.54952,3.20544,-4.85616,4.228,0.82904,5.21
4016,7.87434,0.0,0.0,-7.83845,0.0,-0.0,-11.27498,-7.84111,8.16792,13.08539,8.33161,1.95578,-60.3046,1.97024,-0.00176,-12.15938,-2.30438,-9e-05,34.32573,12.97618,1.73397,7.46286,1.01788,-8.95077,32.54519,7.34667,-26.80056,-0.92856,-16.51069,15.84072,135.72873,0.00238,-89.77258,35.05061,-0.00504,87.30766,-5.41314,-2.55756,0.00149,0.46396,3.0601,-0.00023,-23.71809,1.23967,-5.857,-45.36932,3.31772,-4.98563,3.93921,0.74492,5.46053
4017,6.27556,-0.0,0.0,-6.21666,0.0,-0.0,-10.46363,-8.14044,9.21814,12.61991,8.28952,2.13421,-60.56694,2.24458,-0.00064,-12.32466,-2.45801,-2e-05,34.74498,13.01753,2.08839,7.27328,0.92257,-8.77242,32.87931,6.72476,-26.84214,-0.99565,-16.64859,15.56037,135.66423,-0.00089,-91.98811,34.71997,-0.00393,86.82906,-5.84907,-2.97092,-0.00092,0.92203,3.06873,-0.00569,-23.73334,1.31842,-6.01208,-45.38122,3.44811,-5.10088,3.69497,0.64883,5.65919
4018,5.39748,0.0,0.0,-5.18194,0.0,-0.0,-9.69139,-8.60941,10.36845,12.30677,8.16906,2.1825,-60.6491,2.30469,-0.00034,-12.46742,-2.59377,-8e-05,35.17347,13.03359,2.15658,7.10967,0.82368,-8.63191,33.31781,5.8996,-26.80558,-1.08752,-16.66863,14.97351,135.50558,0.00011,-92.84621,34.22878,0.00393,86.95008,-6.49362,-2.87131,-0.00626,1.37287,2.53726,-0.00764,-23.89769,1.35681,-6.04362,-45.5454,3.49543,-5.11604,3.5478,0.56536,5.73121
4019,5.75264,0.0,-0.0,-5.04705,0.0,-0.0,-9.12836,-8.90505,11.51476,12.31085,7.98133,2.03728,-60.55753,2.08647,-0.0011,-12.58694,-2.70323,-9e-05,35.62701,13.078,1.86268,6.99043,0.78604,-8.4984,33.70104,5.17925,-26.64753,-1.18143,-16.65631,14.32343,135.34322,0.00162,-93.15444,33.68658,0.00829,87.9381,-6.43014,-2.56923,-0.0035,1.51372,1.97737,-0.00412,-24.0583,1.31021,-5.99816,-45.70647,3.43534,-5.09095,3.48151,0.54839,5.6903
4020,6.95778,-0.0,0.0,-5.16905,-0.0,0.0,-8.70177,-8.97071,12.58639,12.49469,7.87432,1.78839,-60.24995,1.85679,-0.00018,-12.71264,-2.80767,0.00017,36.02973,13.16035,1.54069,6.9026,0.81142,-8.35642,33.82077,4.89141,-26.46364,-1.29733,-16.72886,13.94344,135.26904,0.00182,-93.30972,33.26205,0.00238,89.04327,-5.43908,-2.17281,0.00317,1.21758,1.76201,-0.00138,-24.14614,1.18681,-6.02371,-45.79077,3.33007,-5.16034,3.44559,0.60044,5.58436
4021,8.28893,0.0,0.0,-4.7771,0.0,-0.0,-8.32248,-8.9213,13.51684,12.61399,8.02157,1.6255,-59.67517,1.93266,0.00324,-12.89028,-2.92615,0.00057,36.34005,13.22168,1.56765,6.87778,0.82163,-8.27505,33.63029,5.09663,-26.37034,-1.39528,-16.90742,13.95002,135.30579,-0.0007,-92.71526,32.96803,-0.00265,89.5672,-4.18268,-1.58538,0.00535,0.66356,1.79385,-0.0007,-24.1886,1.04068,-6.15402,-45.82571,3.24228,-5.33562,3.42845,0.65285,5.45258
4022,9.2561,0.0,-0.0,-3.97249,-0.0,0.0,-7.98297,-8.76964,14.30426,12.62332,8.32679,1.60259,-58.86385,2.27435,0.00413,-13.14125,-3.01261,0.00043,36.57524,13.22643,1.88024,6.934,0.76764,-8.26675,33.3447,5.52002,-26.40981,-1.38124,-17.07176,14.05582,135.41771,-0.004,-90.97264,32.68217,0.00048,89.91461,-3.3677,-0.874,0.00013,0.0778,1.97252,-0.00159,-24.16794,0.93734,-6.27855,-45.79855,3.19212,-5.4897,3.39841,0.64824,5.33474
4023,9.26525,0.0,0.0,-3.41322,-0.0,-0.0,-7.52587,-8.546,15.05113,12.68446,8.45676,1.5065,-57.93565,2.57186,6e-05,-13.4313,-2.96477,-0.00047,36.66232,13.22308,2.09925,6.91813,0.69834,-8.12836,33.28051,5.7652,-26.56186,-1.22254,-17.09895,13.8685,135.55139,-0.00313,-89.06889,32.29332,0.00533,90.63502,-2.99674,-0.42441,-0.00555,-0.38165,2.39563,-0.00191,-24.00571,0.89638,-6.35905,-45.6326,3.18372,-5.57976,3.21808,0.61879,5.26373
4024,7.90206,0.0,0.0,-3.40384,0.0,0.0,-6.74165,-8.36894,15.76066,12.92272,8.27123,1.13105,-56.97794,2.67582,-0.00376,-13.7092,-2.76643,-0.00124,36.49071,13.29477,2.07036,6.65141,0.69943,-7.65484,33.53975,5.61204,-26.74144,-0.98945,-17.04135,13.40203,135.67113,0.00061,-88.38969,31.79361,0.00193,91.24915,-2.65648,-0.61784,-0.00795,-0.57248,3.08301,0.00042,-23.68946,0.87412,-6.5011,-45.31071,3.21537,-5.72022,2.81826,0.65657,5.24782
4025,5.76138,-0.0,0.0,-3.69252,0.0,0.0,-5.77336,-8.27076,16.20627,13.28364,8.01461,0.6457,-55.96345,2.72399,-0.00261,-13.97527,-2.58577,-0.00095,36.14687,13.4773,2.02173,6.23469,0.80067,-6.98112,33.87754,5.16527,-26.81891,-0.78434,-17.06985,13.02911,135.80598,0.00142,-88.77649,31.28827,-0.00492,91.0039,-2.35413,-1.40252,-0.0036,-0.5006,3.88199,0.00204,-23.31199,0.83736,-6.76599,-44.92246,3.27876,-5.98041,2.39166,0.81178,5.29447
4026,3.86401,0.0,-0.0,-3.79173,0.0,0.0,-4.9975,-8.23012,16.18437,13.60662,8.01327,0.46729,-54.81833,2.9256,0.00264,-14.27817,-2.6445,0.00045,35.87665,13.72833,2.26814,5.97823,0.95822,-6.49194,33.98279,4.73695,-26.79001,-0.65226,-17.25106,12.95857,136.00571,-0.00291,-88.64489,30.90874,-0.00451,90.12975,-2.62282,-2.2389,0.00206,-0.36843,4.54487,0.00056,-22.98621,0.78642,-7.06593,-44.58371,3.34184,-6.27851,2.20689,1.03347,5.41992
4027,2.65862,-0.0,-0.0,-3.44615,0.0,0.0,-4.59111,-8.28289,15.79518,13.78341,8.34427,0.76174,-53.51128,3.31363,0.00516,-14.63954,-3.00959,0.0019,35.81417,13.96711,2.84429,6.04341,1.10407,-6.4212,33.84819,4.54705,-26.89171,-0.56064,-17.48325,13.04743,136.24139,-0.00584,-87.19533,30.68448,0.00029,89.52121,-3.82258,-2.54454,-0.0062,-0.33446,4.81103,-0.001,-22.77071,0.69086,-7.2703,-44.35773,3.32818,-6.50407,2.29828,1.21464,5.5931
4028,2.16631,-0.0,0.0,-2.97072,0.0,-0.0,-4.50507,-8.5092,15.39943,13.8667,8.83508,1.24139,-52.04706,3.66716,-0.0003,-15.01122,-3.54507,0.00189,35.86163,14.12021,3.38594,6.2886,1.18888,-6.64508,33.72586,4.55335,-27.36195,-0.47027,-17.6479,13.08568,136.4427,-0.00311,-85.35615,30.54133,0.00287,89.50094,-5.62311,-2.23222,-0.01661,-0.40809,4.64798,-0.00081,-22.64744,0.5477,-7.32288,-44.22921,3.21439,-6.60579,2.45916,1.27252,5.7203
4029,2.18789,0.0,0.0,-2.81358,0.0,0.0,-4.6658,-8.9589,15.27784,14.00327,9.25054,1.52104,-50.42715,3.80975,-0.00593,-15.31591,-4.02499,0.00059,35.82238,14.12944,3.56844,6.45088,1.17968,-6.87118,33.77167,4.58656,-28.0534,-0.39791,-17.74464,13.05625,136.59181,-0.00036,-84.23153,30.43054,0.00261,89.38885,-7.06009,-1.66985,-0.00919,-0.55303,4.34064,-0.00034,-22.55192,0.48552,-7.24797,-44.13562,3.12902,-6.55894,2.48686,1.18299,5.71749
4030,2.23047,0.0,0.0,-2.9166,0.0,-0.0,-5.02722,-9.5411,15.37012,14.27491,9.43901,1.5147,-48.65271,3.90325,-0.00194,-15.51433,-4.28001,-0.0005,35.59704,13.98937,3.57092,6.39257,1.0683,-6.93154,33.89893,4.58531,-28.49845,-0.38246,-17.83577,13.03084,136.71553,-0.00065,-83.91684,30.36411,0.00221,88.55982,-7.21751,-1.12547,0.00677,-0.66206,4.15631,-0.00062,-22.44968,0.64312,-7.08663,-44.04332,3.21621,-6.35061,2.36538,0.99313,5.56953
4031,1.95611,-0.0,-0.0,-2.99463,-0.0,0.0,-5.55312,-10.07623,15.4665,14.66539,9.41585,1.34999,-46.75259,4.15564,0.00541,-15.64538,-4.28306,-0.00078,35.22751,13.80741,3.74419,6.16311,0.91871,-6.7884,33.95045,4.64883,-28.49397,-0.41881,-17.89346,12.89264,136.86177,-0.00082,-84.089,30.31968,0.00287,87.69918,-6.40081,-0.48717,0.00894,-0.57289,4.10726,-0.00099,-22.34773,0.9873,-6.85733,-43.9579,3.45181,-6.01015,2.20978,0.81899,5.33428
4032,1.49763,0.0,0.0,-2.98251,0.0,-0.0,-6.23737,-10.4549,15.43212,15.0844,9.3662,1.13059,-44.77634,4.48853,0.00693,-15.80153,-4.14812,-0.00063,34.79062,13.75377,4.12948,5.89634,0.84501,-6.44519,33.86007,4.89149,-28.36905,-0.45923,-17.81452,12.41442,137.08934,0.00276,-84.78614,30.23602,0.00428,88.0368,-6.23187,0.394,-0.01249,-0.30394,4.13126,-0.00094,-22.2263,1.35366,-6.58804,-43.85503,3.69319,-5.62413,2.09498,0.78121,5.10076
4033,1.03888,0.0,0.0,-2.85733,0.0,-0.0,-7.07623,-10.66279,15.15512,15.39722,9.48178,0.94132,-42.73969,4.71122,0.00378,-16.04293,-4.04392,-0.0002,34.30848,13.9108,4.56584,5.69457,0.90615,-6.00707,33.65957,5.30045,-28.41628,-0.47121,-17.61052,11.63264,137.3974,0.00708,-86.18772,30.12481,0.00353,89.54939,-7.64209,1.27586,-0.02568,-0.06133,4.23645,-0.0007,-22.04461,1.60664,-6.35501,-43.68773,3.84245,-5.31364,2.00033,0.92123,4.9285
4034,0.52022,0.0,0.0,-2.54569,0.0,-0.0,-7.99005,-10.74712,14.62214,15.54768,9.74421,0.88344,-40.6053,4.71949,-0.00031,-16.34228,-4.071,0.00012,33.77728,14.22083,4.88084,5.5976,1.07693,-5.66324,33.42141,5.73028,-28.40592,-0.4699,-17.45135,10.88669,137.68556,0.00514,-87.80287,30.07528,0.0003,91.02756,-9.37107,1.76012,-0.0112,0.06797,4.35337,-0.00071,-21.81092,1.71781,-6.24111,-43.46067,3.90379,-5.16647,1.91037,1.20403,4.82764
4035,-0.14843,0.0,-0.0,-2.06356,0.0,-0.0,-8.87091,-10.73899,13.99759,15.59994,9.97327,1.00767,-38.34742,4.50779,-0.00265,-16.62522,-4.22374,-0.00012,33.23449,14.58484,4.94762,5.60467,1.32483,-5.54592,33.19698,6.02429,-28.05526,-0.48132,-17.47527,10.48402,137.85201,-0.00037,-88.52211,30.13098,-0.00101,91.52381,-9.5737,1.864,0.00224,0.16863,4.30042,-0.00086,-21.55779,1.72832,-6.25473,-43.20735,3.91858,-5.17527,1.88375,1.58228,4.75966
4036,-0.91346,0.0,0.0,-1.55821,-0.0,0.0,-9.70038,-10.56592,13.45962,15.64122,10.10031,1.24427,-36.02384,4.12487,-0.00385,-16.87685,-4.4635,-0.00033,32.71493,14.97081,4.76554,5.67416,1.64939,-5.60322,32.98151,6.1615,-27.61167,-0.51716,-17.65569,10.47642,137.92145,-0.00289,-87.97496,30.26825,-0.00012,91.05437,-8.22637,1.89788,0.00499,0.26749,4.01839,-0.00065,-21.26826,1.67336,-6.32613,-42.91403,3.89382,-5.26208,1.95535,2.01094,4.68085
4037,-1.6785,0.0,-0.0,-1.27992,0.0,-0.0,-10.52436,-10.18528,13.04448,15.7395,10.21545,1.43965,-33.76301,3.59495,-0.00558,-17.185,-4.77653,0.00029,32.17855,15.43256,4.46561,5.74912,2.03858,-5.59869,32.73731,6.24124,-27.60097,-0.62741,-17.89008,10.69694,138.01717,-0.0002,-87.39074,30.50146,0.00106,90.22967,-6.90329,1.89309,0.003,0.29459,3.64835,6e-05,-20.91348,1.57401,-6.38384,-42.55479,3.82276,-5.35254,2.04881,2.42524,4.65096
4038,-2.421,0.0,0.0,-1.40021,0.0,-0.0,-11.405,-9.78603,12.57385,15.94288,10.37115,1.54622,-31.66853,2.97545,-0.00474,-17.62115,-5.15146,0.00121,31.58617,16.00289,4.24835,5.81875,2.42534,-5.37892,32.45979,6.31248,-28.24859,-0.89556,-18.12,10.88372,138.20749,0.00659,-88.32378,30.8729,0.00143,89.56304,-6.86483,1.5997,0.00842,0.22655,3.35255,0.0005,-20.55445,1.47816,-6.40344,-42.19275,3.74088,-5.40622,2.07934,2.7552,4.79709
4039,-3.15283,0.0,0.0,-1.88861,0.0,-0.0,-12.42026,-9.66166,11.77302,16.24418,10.57894,1.68359,-29.74373,2.41614,-0.00043,-18.11763,-5.54899,0.0012,30.97827,16.58569,4.21134,5.8926,2.72182,-5.08588,32.1952,6.33319,-29.26865,-1.29608,-18.30152,10.80639,138.43182,0.0081,-90.65013,31.29421,0.00092,89.19962,-8.17399,0.9774,0.01714,0.14152,3.18332,0.00044,-20.32992,1.44796,-6.39456,-41.9678,3.70954,-5.40911,2.06913,2.97285,5.09358
4040,-3.86229,0.0,0.0,-2.57298,0.0,0.0,-13.56485,-9.87478,10.58835,16.56668,10.93615,1.91864,-27.92472,2.01723,0.00298,-18.5344,-5.92227,0.00041,30.41132,17.03624,4.20515,5.92755,2.90672,-4.95037,31.98491,6.29917,-30.06633,-1.61778,-18.36011,10.41657,138.56902,0.00284,-92.70149,31.52003,0.00038,89.09139,-10.13461,0.38863,0.01059,0.16256,3.0782,6e-05,-20.2978,1.50434,-6.37436,-41.93774,3.7545,-5.36946,2.09467,3.12789,5.30731
4041,-4.53642,0.0,-0.0,-3.09714,-0.0,0.0,-14.69323,-10.20868,9.26235,16.80731,11.44965,2.14955,-26.17376,1.74114,0.00301,-18.81206,-6.23375,-0.0002,29.90595,17.31563,4.02916,5.87953,3.03348,-5.00088,31.83603,6.26086,-30.22309,-1.63861,-18.2824,9.90659,138.54185,0.0,-93.38189,31.3678,-0.00041,89.08606,-11.91384,0.26034,-0.00393,0.35565,2.92552,-0.00064,-20.32854,1.6034,-6.34937,-41.97177,3.83736,-5.30959,2.19617,3.31041,5.24147
4042,-5.29644,0.0,0.0,-3.04236,0.0,0.0,-15.64917,-10.45225,8.079,16.92392,11.8177,2.25251,-24.53067,1.49768,0.00099,-19.01831,-6.42422,-0.00051,29.47999,17.49474,3.68468,5.79744,3.13577,-5.03808,31.74079,6.22192,-29.85311,-1.38132,-18.19947,9.56384,138.37466,0.00027,-93.24879,30.92298,-0.00165,88.98708,-12.90511,0.6571,-0.00629,0.66238,2.67508,-0.00112,-20.25106,1.67374,-6.31391,-41.89725,3.88967,-5.25055,2.36755,3.55748,4.9539
4043,-6.41061,-0.0,0.0,-2.41131,0.0,-0.0,-16.39602,-10.5681,7.13939,16.98461,11.7411,2.19277,-23.07342,1.22652,-0.00093,-19.27029,-6.43541,-0.00098,29.15966,17.65001,3.32414,5.77723,3.18602,-4.8125,31.67476,6.18135,-29.37453,-1.10439,-18.287,9.55496,138.19019,0.00083,-93.34876,30.47148,-0.00148,88.7887,-12.94204,1.22601,-0.00036,0.96087,2.41089,-0.00067,-20.07357,1.70099,-6.26859,-41.72198,3.89829,-5.19828,2.5775,3.82132,4.66395
4044,-7.83785,-0.0,-0.0,-1.73387,0.0,-0.0,-17.03488,-10.6004,6.31621,17.10381,11.3625,2.01854,-21.8076,0.93508,-0.00116,-19.62159,-6.31522,-0.00118,28.93686,17.80347,3.09939,5.85016,3.16645,-4.27917,31.58201,6.23259,-29.0383,-1.01213,-18.58618,9.83046,138.14027,0.00133,-93.73852,30.23415,-0.00045,88.66408,-12.34382,1.55715,0.00096,1.1838,2.31521,0.00031,-19.92616,1.76509,-6.22594,-41.57761,3.94214,-5.13486,2.78595,4.03312,4.48369
4045,-9.04993,0.0,-0.0,-1.51481,0.0,-0.0,-17.68886,-10.60481,5.39758,17.3479,11.10781,1.83633,-20.61818,0.70223,0.00059,-20.02749,-6.2178,-0.00055,28.74242,17.9364,3.07536,5.97046,3.11192,-3.68297,31.41115,6.45661,-28.85854,-1.05217,-18.96767,10.22813,138.30559,-0.00216,-93.57563,30.19403,-0.00023,88.64669,-11.63672,1.59699,0.00054,1.33525,2.49674,0.00083,-19.83193,1.94575,-6.18832,-41.4893,4.09618,-5.033,2.95932,4.1738,4.33173
4046,-9.70841,0.0,-0.0,-1.74145,-0.0,0.0,-18.31588,-10.62646,4.35304,17.69581,11.20143,1.74919,-19.39178,0.58555,0.00245,-20.42669,-6.25541,0.00021,28.49384,18.03628,3.18984,6.09617,3.06356,-3.29053,31.16972,6.77198,-28.82554,-1.03521,-19.27318,10.63765,138.64613,-0.00732,-92.39773,30.17896,-0.00052,88.58419,-11.14045,1.64366,0.00257,1.41803,2.82925,0.00054,-19.68218,2.21061,-6.1649,-41.34752,4.33369,-4.91316,3.08434,4.27865,4.12185
4047,-9.99541,-0.0,0.0,-1.96171,0.0,-0.0,-18.76118,-10.61255,3.40227,18.04917,11.50238,1.80073,-18.15384,0.52057,0.00189,-20.80646,-6.41781,0.00037,28.16633,18.13331,3.34569,6.22072,3.03967,-3.10238,30.91132,7.02407,-28.92701,-0.88655,-19.44946,10.98949,139.03534,-0.00581,-90.81112,30.06969,-0.00031,88.48841,-10.91308,1.9851,0.00374,1.41276,3.06668,9e-05,-19.40282,2.45527,-6.21506,-41.0736,4.57957,-4.86927,3.17036,4.39498,3.92052
4048,-10.19808,-0.0,-0.0,-1.87393,0.0,0.0,-18.98758,-10.44763,2.79007,18.3305,11.72973,1.98073,-17.01831,0.38486,-0.00041,-21.17529,-6.64618,0.00017,27.79601,18.27477,3.53119,6.33195,3.05473,-2.94716,30.67306,7.18102,-29.01702,-0.71343,-19.54514,11.18669,139.33369,-0.00026,-89.72141,29.90302,0.00052,88.63113,-10.9602,2.6652,0.00165,1.33233,3.11378,-1e-05,-19.03842,2.62047,-6.37584,-40.7091,4.7924,-4.95783,3.23312,4.5413,3.8386
4049,-10.45626,-0.0,-0.0,-1.70648,0.0,-0.0,-19.09623,-10.09549,2.57587,18.57649,11.75009,2.2286,-16.04348,0.14322,-0.00183,-21.54161,-6.91319,0.00016,27.41906,18.46003,3.75577,6.40481,3.1144,-2.74233,30.43843,7.35382,-28.88644,-0.65243,-19.62616,11.20235,139.45862,0.00186,-89.40088,29.79935,0.00029,89.1045,-11.28164,3.47584,-0.00119,1.21737,3.05496,0.0001,-18.68651,2.70763,-6.54285,-40.35448,4.935,-5.08113,3.26525,4.6855,3.86242
4050,-10.71379,0.0,0.0,-1.74058,-0.0,0.0,-19.20047,-9.62787,2.59694,18.8327,11.6545,2.44913,-15.19698,-0.12383,-0.00131,-21.9214,-7.21032,0.00041,27.04273,18.63794,3.97901,6.44628,3.19222,-2.53104,30.12709,7.64884,-28.47426,-0.72265,-19.71132,11.13816,139.42592,0.00092,-89.48549,29.81826,-0.00069,89.59388,-11.78162,4.14271,-0.00173,1.0526,2.96761,0.00043,-18.40744,2.70891,-6.56344,-40.07478,4.94379,-5.09984,3.24724,4.77385,3.89585
