PaulMeinheit/Bachelor_Muay_Thai/processed_Data/N1/teep/sliced/JointAngles/sliced0.csv
Unnamed: 0_level_0,L_MTP_ANGLE,L_MTP_ANGLE,L_MTP_ANGLE,R_MTP_ANGLE,R_MTP_ANGLE,R_MTP_ANGLE,L_ANKLE_ANGLE,L_ANKLE_ANGLE,L_ANKLE_ANGLE,R_ANKLE_ANGLE,R_ANKLE_ANGLE,R_ANKLE_ANGLE,L_KNEE_ANGLE,L_KNEE_ANGLE,L_KNEE_ANGLE,R_KNEE_ANGLE,R_KNEE_ANGLE,R_KNEE_ANGLE,L_HIP_ANGLE,L_HIP_ANGLE,L_HIP_ANGLE,R_HIP_ANGLE,R_HIP_ANGLE,R_HIP_ANGLE,L_SHOULDER_ANGLE,L_SHOULDER_ANGLE,L_SHOULDER_ANGLE,R_SHOULDER_ANGLE,R_SHOULDER_ANGLE,R_SHOULDER_ANGLE,L_ELBOW_ANGLE,L_ELBOW_ANGLE,L_ELBOW_ANGLE,R_ELBOW_ANGLE,R_ELBOW_ANGLE,R_ELBOW_ANGLE,L_WRIST_ANGLE,L_WRIST_ANGLE,L_WRIST_ANGLE,R_WRIST_ANGLE,R_WRIST_ANGLE,R_WRIST_ANGLE,NECK_ANGLE,NECK_ANGLE,NECK_ANGLE,NECK_ANGLE_SHADOW,NECK_ANGLE_SHADOW,NECK_ANGLE_SHADOW,Trunk_Joint_Angle,Trunk_Joint_Angle,Trunk_Joint_Angle
ITEM,X,Y,Z,X,Y,Z,X,Y,Z,X,Y,Z,X,Y,Z,X,Y,Z,X,Y,Z,X,Y,Z,X,Y,Z,X,Y,Z,X,Y,Z,X,Y,Z,X,Y,Z,X,Y,Z,X,Y,Z,X,Y,Z,X,Y,Z
360,-10.27871,0.0,-0.0,-2.98788,0.0,-0.0,-14.39356,-11.48539,6.47479,14.72432,6.89715,-5.52888,-33.46939,0.7767,7e-05,-8.64246,0.54656,-2e-05,40.71277,12.10414,3.16064,0.28235,-2.61727,-12.55336,30.21323,6.33126,-8.4664,26.82267,-13.36527,15.53761,126.36293,-0.00185,-87.52231,137.62218,-0.00012,80.92583,3.48945,1.57584,0.00591,-0.90576,1.02468,-0.0011,-11.83992,-1.04074,0.20433,-33.57583,-1.04242,-0.1956,-0.46866,-1.66168,7.95357
361,-10.53675,-0.0,0.0,-3.17519,0.0,-0.0,-14.39817,-11.47139,6.46359,14.66183,6.78314,-5.60436,-33.48502,0.64885,9e-05,-8.57117,0.57596,-5e-05,40.73816,12.05862,2.81956,0.33074,-2.55157,-12.55247,29.81451,6.4286,-8.21904,26.72418,-13.3483,15.70955,126.49054,-0.00231,-87.67654,137.59625,0.00053,80.92596,3.95154,1.63444,0.0026,-0.83543,0.46728,-0.00081,-11.23596,-0.96542,0.25784,-32.97144,-0.99226,-0.11798,-0.40724,-1.5753,7.81831
362,-10.7427,-0.0,-0.0,-3.4048,-0.0,0.0,-14.34271,-11.48729,6.22489,14.65995,6.3534,-5.43672,-33.5519,0.59414,8e-05,-8.58265,0.59236,-7e-05,40.84872,12.09904,2.61148,0.52319,-2.4448,-12.663,29.5591,6.53028,-8.26654,26.74074,-13.27917,15.98407,126.39114,-0.00612,-88.69095,137.57983,0.001,81.21022,3.51117,2.50818,-0.01449,-0.88897,0.43085,-0.00106,-10.51704,-0.85703,0.26284,-32.25186,-0.89343,-0.0732,-0.26832,-1.47789,7.6888
363,-10.46507,-0.0,-0.0,-3.46682,-0.0,-0.0,-14.35423,-11.59083,5.75047,14.69026,5.80595,-5.12345,-33.65238,0.65902,6e-05,-8.73818,0.61491,-6e-05,40.95039,12.15574,2.64618,0.80577,-2.39974,-12.79216,29.53273,6.58602,-8.46818,26.88144,-13.22123,16.24674,126.1274,-0.00683,-89.95108,137.60362,0.00076,81.60836,2.78438,3.56364,-0.01857,-1.0248,0.92458,-0.00019,-9.91461,-0.76086,0.18202,-31.64887,-0.77417,-0.11266,-0.11611,-1.42304,7.62731
364,-9.92001,-0.0,0.0,-3.48315,0.0,0.0,-14.38133,-11.86311,5.23648,14.73962,5.45088,-4.91924,-33.77518,0.77709,0.00013,-8.96408,0.61845,-1e-05,40.89426,12.21035,2.81764,0.99398,-2.38909,-12.80426,29.63548,6.5467,-8.55864,27.0335,-13.23409,16.43876,125.94903,-0.00564,-90.21034,137.7159,-0.00011,82.01737,2.76511,3.90931,-0.01927,-1.03045,1.733,0.00329,-9.55802,-0.70984,-0.005,-31.2918,-0.65754,-0.26749,-0.05826,-1.34625,7.63515
365,-9.56832,0.0,0.0,-3.76497,0.0,-0.0,-14.26517,-12.12547,4.78879,14.79791,5.45486,-4.95036,-33.93423,0.87003,0.00012,-9.10114,0.56494,-0.00011,40.6443,12.26895,2.98435,0.9568,-2.32471,-12.72633,29.63452,6.42965,-8.43779,27.06462,-13.33412,16.58922,126.03545,-0.00792,-89.14658,137.88402,-0.00067,82.54685,3.65019,3.27505,-0.02581,-0.83764,2.44586,0.00453,-9.28075,-0.67739,-0.24127,-31.01385,-0.53991,-0.47494,-0.12048,-1.17542,7.65631
366,-9.20363,0.0,0.0,-4.30251,0.0,0.0,-13.96738,-12.00661,4.31441,14.8442,5.74652,-5.0499,-34.14155,0.94642,-9e-05,-9.08956,0.43543,-0.00027,40.35021,12.3084,3.14364,0.79522,-2.18756,-12.75567,29.44301,6.29292,-8.25783,26.97643,-13.50076,16.73087,126.31718,-0.00489,-87.96445,138.00409,-0.00016,83.30846,4.46156,2.39181,-0.01805,-0.62693,2.66166,0.00238,-8.80333,-0.56454,-0.40323,-30.53554,-0.37511,-0.5836,-0.19108,-0.95299,7.65708
367,-8.35965,-0.0,-0.0,-4.73477,0.0,-0.0,-13.57722,-11.40929,3.79819,14.86282,6.09402,-4.98764,-34.3811,1.03352,-0.00023,-9.03807,0.2529,-0.00012,40.19664,12.3064,3.34078,0.75275,-2.04174,-12.98242,29.20898,6.17505,-8.21181,26.91368,-13.69266,16.82036,126.58468,0.00142,-87.71134,138.03644,0.00029,84.2205,4.25765,2.20196,-0.01262,-0.50349,2.40652,0.00073,-8.08583,-0.31628,-0.42137,-29.81757,-0.13778,-0.50853,-0.13209,-0.78464,7.67956
368,-7.19568,0.0,-0.0,-4.74308,0.0,-0.0,-13.22147,-10.70198,3.41717,14.8381,6.30935,-4.78629,-34.59865,1.10274,-0.00011,-9.06034,0.08333,0.00013,40.17102,12.27289,3.55915,0.90978,-1.96707,-13.23819,29.07409,6.0973,-8.30554,27.01052,-13.85581,16.82039,126.74861,0.00236,-87.83384,138.02631,-3e-05,85.16333,3.25257,2.86352,-0.01443,-0.38622,2.07665,0.00057,-7.34173,-0.06307,-0.32346,-29.07367,0.06118,-0.32383,0.05225,-0.72143,7.7665
369,-6.44145,0.0,-0.0,-4.39179,0.0,-0.0,-12.98427,-10.37656,3.3366,14.77052,6.42906,-4.6801,-34.74013,1.10365,6e-05,-9.13821,-0.01272,0.00013,40.12499,12.22691,3.72596,1.13685,-1.98885,-13.30184,29.00305,6.08694,-8.35678,27.27087,-13.92952,16.81608,126.92109,-0.00095,-87.40625,137.97632,-0.00033,85.99239,2.43847,3.71499,-0.00851,-0.28064,1.85277,0.00146,-6.75914,-0.0064,-0.14669,-28.49136,0.04837,-0.13863,0.26625,-0.73338,7.86468
370,-6.75846,-0.0,0.0,-4.13806,0.0,-0.0,-12.80061,-10.63416,3.59588,14.71876,6.65159,-4.82404,-34.80527,1.00219,0.0001,-9.19155,-0.03363,5e-05,40.01363,12.18392,3.73001,1.32926,-2.05382,-13.13068,28.91662,6.13602,-8.21336,27.60664,-13.89246,16.93633,127.24763,-0.00359,-86.55115,137.84441,-0.00115,86.38657,2.50917,4.02471,-0.00716,-0.33192,1.61254,0.00262,-6.3543,-0.14745,0.06721,-28.08667,-0.16186,0.00783,0.48697,-0.75377,7.88377
371,-8.00685,0.0,0.0,-4.27704,0.0,0.0,-12.52662,-11.20355,4.09052,14.7271,7.03364,-5.11018,-34.83464,0.81382,2e-05,-9.19159,-0.01846,4e-05,39.88354,12.16429,3.53059,1.47655,-2.07994,-12.85522,28.83883,6.16706,-7.9416,27.93803,-13.81623,17.16723,127.73876,-0.00164,-85.91519,137.69632,-0.00172,86.1325,3.26418,3.72642,-0.01061,-0.49473,1.50281,0.00372,-6.05,-0.29582,0.21206,-27.78256,-0.35331,0.08745,0.72601,-0.71621,7.83604
372,-9.18918,0.0,-0.0,-4.54258,-0.0,0.0,-12.09015,-11.59703,4.63164,14.74057,7.32601,-5.28889,-34.8461,0.60891,-0.00021,-9.17741,0.02094,-0.0,39.68482,12.18137,3.22458,1.54349,-2.03469,-12.61292,28.81037,6.11253,-7.74694,28.23749,-13.80138,17.34923,128.29063,0.00216,-85.80859,137.69331,-0.00064,85.51446,3.90935,3.47815,-0.00767,-0.45571,1.97002,0.00756,-5.77269,-0.34662,0.18678,-27.50539,-0.39114,0.04516,0.89861,-0.58444,7.83728
373,-9.38513,0.0,-0.0,-4.51159,0.0,-0.0,-11.49934,-11.63966,5.08928,14.67514,7.23588,-5.24741,-34.7998,0.4645,-0.00043,-9.21147,0.10617,-0.00015,39.2877,12.22532,2.92898,1.48086,-1.95222,-12.43724,28.76985,6.01022,-7.73328,28.50164,-13.84596,17.38557,128.8221,0.00179,-85.99909,137.87842,2e-05,84.99169,3.98225,3.91712,-0.00478,-0.08341,3.02796,0.01033,-5.45875,-0.36629,-0.00035,-27.19143,-0.34013,-0.13595,0.89765,-0.38553,7.97046
374,-8.41404,0.0,-0.0,-4.03997,0.0,0.0,-10.85446,-11.50273,5.33615,14.50205,6.79372,-5.0668,-34.63503,0.44866,-9e-05,-9.31929,0.22275,-0.00025,38.70403,12.26949,2.7377,1.35768,-1.87648,-12.3386,28.63883,5.97313,-7.83534,28.71427,-13.85184,17.36846,129.31229,-0.0026,-85.99191,138.1028,-0.00014,84.66947,3.74146,5.08632,-0.00139,0.30043,4.05197,0.00507,-5.05395,-0.38751,-0.27517,-26.7862,-0.25808,-0.3991,0.7862,-0.19817,8.19553
375,-6.60935,0.0,-0.0,-3.19612,-0.0,0.0,-10.33729,-11.25958,5.17702,14.24325,6.32122,-4.82407,-34.33699,0.60432,0.00089,-9.45546,0.29181,-0.00013,38.13051,12.29339,2.77535,1.33255,-1.80997,-12.38918,28.45295,6.05858,-7.98119,28.86347,-13.77891,17.45679,129.70985,-0.00502,-85.74512,138.20433,-0.00023,84.44033,3.54075,6.73471,0.001,0.26748,4.46876,0.00092,-4.55833,-0.31507,-0.58753,-26.28943,-0.07514,-0.66243,0.77694,-0.07591,8.39158
376,-4.49133,-0.0,0.0,-2.15521,0.0,0.0,-9.99844,-10.81568,4.6182,13.96534,6.05759,-4.51491,-33.9497,0.88388,0.00143,-9.54685,0.25181,-3e-05,37.70395,12.28874,3.08936,1.45181,-1.73401,-12.61893,28.31535,6.19823,-8.19098,28.99253,-13.71761,17.69427,129.94452,-0.00392,-85.83889,138.16463,-0.00027,84.23641,3.32293,8.65825,-0.00317,-0.24967,4.27185,0.00247,-4.02868,-0.11403,-0.89464,-25.75836,0.22531,-0.87328,0.98195,-0.00094,8.45298
377,-2.80049,-0.0,-0.0,-1.27729,0.0,-0.0,-9.60651,-10.26251,4.07493,13.78168,5.94931,-4.20954,-33.52889,1.1325,0.00062,-9.57723,0.14641,-7e-05,37.3255,12.24293,3.48062,1.57112,-1.66592,-12.87894,28.25681,6.29506,-8.458,29.19191,-13.75819,18.00719,130.07768,-0.0008,-86.65346,138.06526,-0.00047,83.96037,2.94318,10.39591,-0.00482,-0.93349,3.84227,0.00234,-3.51745,0.07824,-1.1171,-25.24622,0.48628,-1.00875,1.26883,0.05715,8.36266
378,-2.26382,-0.0,0.0,-0.95417,-0.0,-0.0,-8.89537,-9.89975,4.01495,13.77839,5.84073,-4.06912,-33.10228,1.20321,-0.00081,-9.60581,0.07068,-9e-05,36.82843,12.15084,3.63231,1.54825,-1.64489,-12.95105,28.21129,6.35087,-8.66903,29.49714,-13.85535,18.32685,130.29439,0.00309,-87.84587,137.99013,-0.00046,83.61035,2.59593,11.15482,-0.00083,-1.46883,3.5467,-0.00031,-3.06161,0.13404,-1.19298,-24.79006,0.56622,-1.05858,1.44077,0.092,8.21101
379,-2.80353,0.0,-0.0,-1.18637,0.0,-0.0,-7.91916,-9.81783,4.42889,13.90429,5.74291,-4.10933,-32.65789,1.11676,-0.00119,-9.69464,0.04796,-5e-05,36.24665,12.04208,3.46992,1.45424,-1.6609,-12.82463,28.12669,6.43771,-8.76197,29.82674,-13.88556,18.62002,130.67114,0.00291,-88.75554,137.99289,-0.00022,83.35358,2.64164,10.54912,-0.00506,-1.77996,3.50661,-0.00144,-2.72704,0.10023,-1.1594,-24.4556,0.52238,-1.0399,1.51111,0.10942,8.11447
380,-3.49414,0.0,0.0,-1.60423,0.0,-0.0,-6.99325,-9.76734,4.91268,14.02864,5.78377,-4.17254,-32.1508,1.02737,-0.00017,-9.84469,0.03295,4e-05,35.76311,11.94329,3.2057,1.48111,-1.66383,-12.69133,28.03522,6.59155,-8.82887,30.07882,-13.78714,18.83092,131.08134,-0.00066,-88.9357,138.07167,4e-05,83.24174,3.10904,9.04229,-0.01099,-1.85232,3.64644,-0.00011,-2.57717,0.10421,-1.12205,-24.30598,0.51224,-1.00374,1.671,0.14845,8.09971
381,-3.64142,0.0,0.0,-1.91599,0.0,-0.0,-6.32444,-9.49955,5.24657,14.09911,5.97385,-4.18116,-31.5452,1.02117,0.00106,-10.00794,0.00162,8e-05,35.44116,11.82348,3.02816,1.6864,-1.65042,-12.66927,27.98935,6.78637,-8.9481,30.25013,-13.60744,18.89389,131.37549,-0.00131,-88.50848,138.16592,0.00032,83.15852,3.6329,7.44038,-0.0056,-1.61235,3.87338,0.00187,-2.55943,0.19267,-1.13846,-24.28846,0.6005,-0.98623,2.01834,0.2116,8.09496
382,-3.37562,-0.0,0.0,-2.06019,0.0,0.0,-5.8435,-9.04631,5.58905,14.1411,6.19203,-4.19473,-30.85046,1.04668,0.00128,-10.12719,-0.03489,4e-05,35.15789,11.63885,2.95987,1.94127,-1.67133,-12.71917,27.98042,6.96889,-9.05517,30.40048,-13.45409,18.80657,131.5264,0.00087,-88.21173,138.21838,0.00045,82.9944,3.90375,6.28413,0.00235,-1.10593,4.06051,0.00161,-2.49083,0.30937,-1.16906,-24.22016,0.72023,-0.97145,2.46221,0.24424,8.02911
383,-3.17195,0.0,0.0,-2.07428,-0.0,0.0,-5.37464,-8.69923,6.1116,14.16784,6.36071,-4.2232,-30.07827,1.01221,0.00044,-10.16217,-0.07163,-3e-05,34.75575,11.42563,2.95176,2.08751,-1.74201,-12.78441,27.95677,7.10214,-9.05678,30.55436,-13.40921,18.6479,131.57167,0.0014,-88.67863,138.21523,0.00012,82.60267,3.96613,5.70649,0.00376,-0.58018,3.98702,-0.0004,-2.23166,0.37762,-1.16147,-23.96137,0.78082,-0.93913,2.86563,0.21325,7.90415
384,-3.24609,0.0,0.0,-2.00848,0.0,-0.0,-4.86079,-8.77537,6.75157,14.17794,6.50684,-4.16903,-29.1961,0.88069,-0.00064,-10.12336,-0.11729,-8e-05,34.18124,11.27329,2.95072,2.09078,-1.82148,-12.88056,27.8938,7.19951,-8.95587,30.69802,-13.46046,18.53809,131.52531,-0.00076,-89.83279,138.15439,-0.0006,81.89709,4.03246,5.54047,0.0014,-0.31584,3.57289,-0.00011,-1.83799,0.37699,-1.13225,-23.56787,0.76941,-0.91221,3.18369,0.14628,7.76276
385,-3.42756,-0.0,-0.0,-1.92253,0.0,0.0,-4.39487,-9.30314,7.37236,14.19793,6.65497,-4.0083,-28.18658,0.68177,-0.00115,-10.08244,-0.17139,-5e-05,33.50942,11.19681,2.90639,2.04606,-1.886,-13.02903,27.82349,7.29927,-8.83468,30.81495,-13.51508,18.58073,131.38339,-0.00245,-91.17153,138.03163,-0.00063,81.13532,4.14668,5.52241,-0.00038,-0.45704,3.08765,0.00106,-1.46793,0.35618,-1.12577,-23.19775,0.74769,-0.9139,3.45512,0.08062,7.62694
386,-3.4218,0.0,0.0,-1.9215,-0.0,0.0,-4.06483,-9.95447,7.93731,14.27135,6.74125,-3.91616,-27.11796,0.46065,-0.00098,-10.10358,-0.21749,-0.0,32.85564,11.12305,2.78937,2.0417,-1.94867,-13.14453,27.80963,7.39074,-8.77592,30.87219,-13.49973,18.78444,131.14336,-0.00028,-92.11595,137.88393,0.0004,80.65609,4.24501,5.51985,-6e-05,-0.93561,2.91255,-0.0008,-1.19679,0.38562,-1.15578,-22.92658,0.78614,-0.93088,3.70448,0.02916,7.50518
387,-3.17626,-0.0,0.0,-2.1111,0.0,-0.0,-3.83247,-10.37272,8.453,14.40869,6.69416,-4.07573,-26.09717,0.24332,-0.00045,-10.18346,-0.24867,1e-05,32.27494,11.00366,2.63313,2.07131,-2.01221,-13.09492,27.89479,7.41352,-8.80766,30.82685,-13.42463,19.03478,130.77542,0.00428,-92.34547,137.78268,0.00127,80.36555,4.42943,5.60515,0.00211,-1.49743,3.14511,-0.00267,-1.01579,0.48112,-1.2131,-22.74575,0.89608,-0.94878,3.91127,-0.00599,7.42066
388,-2.94062,0.0,-0.0,-2.45601,-0.0,0.0,-3.59338,-10.43842,8.86678,14.56432,6.54815,-4.41537,-25.18115,0.05297,0.00025,-10.28424,-0.28152,1e-05,31.74349,10.85465,2.55051,2.07681,-2.06775,-12.90759,28.06348,7.3643,-8.92801,30.69215,-13.32475,19.19268,130.21236,0.00537,-92.184,137.74016,0.00155,79.99337,4.73988,5.91725,0.00307,-1.875,3.53999,-0.00143,-0.91357,0.58071,-1.27062,-22.64378,1.00989,-0.96533,4.05945,-0.03186,7.36959
389,-2.94955,-0.0,0.0,-2.81841,0.0,-0.0,-3.30019,-10.16742,9.11335,14.68407,6.40359,-4.71608,-24.36601,-0.0896,0.00068,-10.38369,-0.32967,-0.0,31.21259,10.69355,2.63895,2.01818,-2.12538,-12.76318,28.25971,7.33735,-9.1627,30.5627,-13.2,19.21077,129.4205,0.00035,-92.25169,137.67407,0.00142,79.62648,4.79388,6.4425,-0.00107,-1.93126,3.80464,0.00035,-0.84272,0.62614,-1.29617,-22.57308,1.06154,-0.97225,4.16238,-0.06754,7.28648
390,-3.24256,0.0,-0.0,-3.16955,0.0,0.0,-2.9712,-9.57832,9.2405,14.77521,6.32959,-4.94638,-23.63475,-0.20498,0.00025,-10.48666,-0.38023,-2e-05,30.68088,10.5068,2.84049,1.91799,-2.20814,-12.71993,28.43584,7.39936,-9.50019,30.54177,-13.0496,19.13256,128.48322,-0.00556,-92.82392,137.51038,0.00081,79.41607,4.20525,6.93662,-0.00393,-1.64361,3.88997,0.0008,-0.69473,0.62955,-1.28811,-22.42517,1.06173,-0.96349,4.25295,-0.12809,7.10907
391,-3.73787,0.0,0.0,-3.48432,0.0,-0.0,-2.64287,-8.76468,9.34922,14.86025,6.35179,-5.2298,-22.97388,-0.33044,-0.0006,-10.61681,-0.422,1e-05,30.21261,10.29467,3.03286,1.86771,-2.31747,-12.66053,28.58326,7.48432,-9.79098,30.65448,-12.89019,19.02674,127.55923,-0.00668,-93.77946,137.26836,-0.00035,79.19488,3.29493,7.1021,0.00059,-1.11122,3.91768,0.00027,-0.39258,0.62792,-1.2603,-22.12318,1.04992,-0.93826,4.37615,-0.21155,6.85953
392,-4.26503,0.0,0.0,-3.51933,0.0,0.0,-2.37375,-7.99007,9.44618,14.8818,6.44446,-5.55249,-22.35295,-0.44529,-0.00078,-10.78563,-0.47294,0.00011,29.86465,10.10459,3.22754,1.94433,-2.41425,-12.53346,28.72882,7.4733,-9.89403,30.84196,-12.7302,18.95718,126.74706,-0.00325,-94.85011,137.00476,-0.00067,78.90661,2.85758,6.84146,0.00372,-0.60527,3.89162,-0.00078,0.0389,0.64242,-1.22211,-21.69202,1.04925,-0.89741,4.55836,-0.29681,6.63301
393,-4.54781,0.0,-0.0,-3.04395,-0.0,0.0,-2.25227,-7.55016,9.45604,14.75505,6.53124,-5.79405,-21.74329,-0.47947,9e-05,-10.96335,-0.54473,0.00015,29.61658,9.97336,3.52802,2.10704,-2.46113,-12.41649,28.91265,7.34096,-9.89961,31.01918,-12.59163,18.97669,126.05495,0.00166,-95.76965,136.73131,-0.00032,78.7795,3.27575,6.27659,0.0007,-0.43594,3.65184,-4e-05,0.50462,0.70246,-1.20815,-21.22679,1.09986,-0.86221,4.7704,-0.35506,6.50322
394,-4.26505,0.0,0.0,-2.16523,0.0,-0.0,-2.36034,-7.47251,9.25146,14.48451,6.59572,-5.88724,-21.15588,-0.38036,0.00144,-11.1131,-0.62654,8e-05,29.41496,9.87906,4.04118,2.26494,-2.47907,-12.3955,29.15438,7.16974,-10.01524,31.12269,-12.52596,19.08994,125.49229,0.00408,-96.52522,136.43767,-0.00096,78.85831,4.34083,5.5013,-0.00628,-0.7056,3.10075,0.0027,0.9127,0.81851,-1.26645,-20.81926,1.22924,-0.87339,4.97969,-0.37593,6.48153
395,-3.37958,0.0,-0.0,-1.32541,0.0,-0.0,-2.66465,-7.52054,8.81107,14.19917,6.7042,-5.84737,-20.61162,-0.18671,0.00176,-11.25684,-0.70407,-0.00012,29.21849,9.78856,4.7695,2.40295,-2.52598,-12.45536,29.41298,7.02176,-10.29506,31.13775,-12.55272,19.22811,125.08436,0.00281,-97.47743,136.14912,-0.00165,79.09012,5.70826,4.48428,-0.0127,-1.2867,2.39734,0.00322,1.20344,0.93357,-1.4043,-20.52868,1.38716,-0.95886,5.20049,-0.37928,6.56853
396,-2.43849,-0.0,-0.0,-1.04548,0.0,-0.0,-2.94791,-7.54358,8.49792,14.09388,6.85562,-5.84447,-20.08555,-0.07052,1e-05,-11.46431,-0.75136,-0.00045,28.9427,9.68971,5.38727,2.51912,-2.63515,-12.41375,29.60316,6.86442,-10.65334,31.11999,-12.62778,19.31989,124.78611,0.00047,-98.83142,135.88795,-0.00062,79.656,6.90249,3.3371,-0.00852,-2.02955,1.81396,0.00127,1.3209,0.9827,-1.5776,-20.41052,1.49696,-1.10166,5.40981,-0.40286,6.74839
397,-2.06408,0.0,-0.0,-1.43707,0.0,0.0,-3.00099,-7.58725,8.708,14.24519,6.98877,-6.04325,-19.52222,-0.17717,-0.00225,-11.7728,-0.78097,-0.00045,28.49839,9.55935,5.50666,2.56996,-2.7917,-12.13702,29.69222,6.6643,-11.07235,31.16782,-12.7002,19.35947,124.46946,-0.00084,-100.24035,135.60745,0.00153,80.61279,7.09314,2.50193,-0.00384,-2.82521,1.39056,0.00054,1.25147,0.96961,-1.71703,-20.47877,1.53642,-1.23606,5.5249,-0.48539,6.93805
398,-2.2584,-0.0,0.0,-2.00267,-0.0,0.0,-2.83449,-7.69325,9.23002,14.49019,7.1213,-6.3193,-18.91575,-0.39936,-0.00215,-12.15045,-0.88667,0.00018,27.93344,9.36063,5.23703,2.55897,-2.9452,-11.79491,29.73398,6.4749,-11.61253,31.3256,-12.75434,19.34698,124.05228,-1e-05,-101.22427,135.26552,0.00241,81.64653,5.75444,2.42305,-0.02089,-3.46246,1.00392,0.00042,1.09889,0.93287,-1.80693,-20.63024,1.53556,-1.3332,5.524,-0.63124,7.03708
399,-2.70507,0.0,-0.0,-2.26807,-0.0,-0.0,-2.56465,-7.86099,9.55446,14.62866,7.29099,-6.48573,-18.35084,-0.49308,-0.0002,-12.54828,-1.11487,0.00059,27.40102,9.09295,4.97843,2.54012,-3.03405,-11.59994,29.7669,6.36422,-12.19726,31.52333,-12.79499,19.24686,123.64587,0.00014,-101.49113,134.93527,0.0011,82.33966,3.70273,2.96612,-0.03229,-3.63513,0.71354,0.00012,1.00809,0.89129,-1.94912,-20.71933,1.54957,-1.48072,5.46988,-0.77063,7.01898
400,-3.26147,0.0,0.0,-2.30802,0.0,-0.0,-2.27937,-8.11216,9.57404,14.66281,7.45304,-6.59995,-17.92508,-0.37131,0.00073,-12.97404,-1.37227,0.00015,26.99753,8.80563,4.87916,2.55302,-3.04234,-11.52232,29.76404,6.31982,-12.56465,31.65173,-12.82608,19.06425,123.49593,-0.00642,-100.73775,134.73074,2e-05,82.35226,2.65925,3.44982,-0.01944,-3.20892,0.66042,0.00164,1.04013,0.8577,-2.21835,-20.68414,1.61801,-1.74332,5.42261,-0.82283,6.9229
401,-3.80694,-0.0,0.0,-2.35384,-0.0,0.0,-2.08083,-8.42212,9.51461,14.71055,7.57736,-6.79018,-17.62924,-0.13218,0.00038,-13.48322,-1.55458,-0.00047,26.70309,8.52295,4.86992,2.62392,-3.04722,-11.47855,29.72249,6.27229,-12.57872,31.68118,-12.84516,18.88322,123.68137,-0.01426,-98.92972,134.65839,0.00039,81.75428,3.40344,3.49372,-0.00672,-2.45286,0.74995,0.00251,1.19564,0.85662,-2.47786,-20.52549,1.71305,-1.98489,5.40749,-0.82135,6.78576
402,-4.07932,0.0,-0.0,-2.35765,-0.0,-0.0,-2.05544,-8.66902,9.48555,14.78664,7.71963,-7.03462,-17.33502,0.10943,0.00015,-14.08963,-1.67977,-0.0003,26.44012,8.2171,4.92287,2.77602,-3.14039,-11.48033,29.69715,6.16722,-12.47016,31.67729,-12.84079,18.8021,123.97066,-0.01025,-96.95635,134.63823,0.0007,81.16174,4.89083,3.47933,0.00059,-1.8645,0.76597,0.00176,1.44813,0.90461,-2.52944,-20.27288,1.77672,-2.01505,5.44421,-0.87877,6.62968
403,-3.8644,0.0,-0.0,-2.15903,0.0,-0.0,-2.20744,-8.73865,9.39844,14.78301,7.89623,-7.24163,-16.9014,0.30828,0.00037,-14.73051,-1.82479,0.00032,26.14046,7.88726,5.05941,3.00134,-3.30453,-11.50734,29.70369,6.00505,-12.58716,31.72144,-12.78569,18.85854,124.10699,-0.00217,-96.11888,134.62308,0.00033,81.10851,5.41924,3.97891,-0.0127,-1.69324,0.73073,0.00104,1.69043,1.00313,-2.40428,-20.03329,1.82193,-1.86225,5.54522,-1.02692,6.46566
404,-3.28599,-0.0,-0.0,-1.7976,-0.0,-0.0,-2.47573,-8.63252,9.19343,14.63501,8.00716,-7.40093,-16.28905,0.45072,0.00034,-15.34176,-1.99521,0.00032,25.77566,7.58689,5.25579,3.25371,-3.44712,-11.4699,29.69678,5.85121,-13.00939,31.83165,-12.66119,19.00736,124.11107,-2e-05,-96.72746,134.62015,-0.0007,81.67046,4.30869,5.01468,-0.03829,-1.8201,0.92005,-0.00063,1.7935,1.14428,-2.31515,-19.93296,1.92007,-1.72715,5.67781,-1.19516,6.28035
405,-2.78906,0.0,-0.0,-1.49994,-0.0,0.0,-2.75455,-8.41078,8.92597,14.40771,7.98841,-7.54288,-15.59475,0.52153,-0.0001,-15.92782,-2.14008,-0.00022,25.38808,7.35838,5.47198,3.51837,-3.53081,-11.34362,29.66824,5.7922,-13.55548,31.9407,-12.51856,19.1591,124.19426,-0.00199,-97.78104,134.64661,-0.00164,82.52993,2.45745,5.9173,-0.03477,-2.0616,1.45651,-0.00241,1.76368,1.30132,-2.36676,-19.96424,2.08505,-1.71695,5.79571,-1.32367,6.07976
406,-2.83595,0.0,-0.0,-1.46304,0.0,-0.0,-2.89749,-8.12913,8.70524,14.21877,7.92397,-7.68921,-14.9851,0.5209,-0.00041,-16.54302,-2.24221,-0.00058,25.07366,7.18276,5.67471,3.84113,-3.60327,-11.16103,29.66716,5.83095,-14.05344,31.95335,-12.47539,19.23258,124.49586,-0.00592,-98.26743,134.72842,-0.00037,82.94866,1.3167,5.97321,-0.01987,-2.26944,2.07169,-0.00193,1.73749,1.43469,-2.50251,-19.99076,2.25919,-1.79369,5.88951,-1.42135,5.93393
407,-3.53808,-0.0,-0.0,-1.68475,-0.0,0.0,-2.82652,-7.86804,8.64093,14.12771,7.91369,-7.90953,-14.57389,0.47648,-0.00027,-17.2336,-2.32625,-0.00035,24.87658,6.99473,5.79281,4.23453,-3.72125,-10.8973,29.72141,5.86551,-14.45357,31.85622,-12.58629,19.18367,124.98749,-0.00397,-98.37576,134.90282,0.00373,82.30007,1.23336,5.35544,-0.01819,-2.2363,2.44314,-0.00033,1.835,1.5125,-2.70525,-19.89197,2.40649,-1.9533,5.94286,-1.53205,5.90555
408,-4.34311,0.0,0.0,-1.87308,-0.0,0.0,-2.68627,-7.67166,8.69595,14.06845,7.97073,-8.2155,-14.33459,0.4463,8e-05,-18.00233,-2.43019,0.00056,24.74033,6.73884,5.80895,4.63052,-3.88825,-10.57979,29.81219,5.82363,-14.72728,31.75619,-12.73958,19.03553,125.5741,0.00548,-98.95904,135.17053,0.00599,80.86513,1.35822,4.94799,-0.01727,-1.87391,2.57798,0.00035,2.08823,1.51841,-3.02624,-19.63447,2.53076,-2.24947,5.9105,-1.68352,5.94101
409,-4.59711,0.0,-0.0,-1.74498,0.0,0.0,-2.67106,-7.49183,8.72518,13.9449,8.07977,-8.51013,-14.13264,0.47625,0.00031,-18.82983,-2.56702,0.0012,24.582,6.42055,5.7944,4.97279,-4.06591,-10.32438,29.93173,5.73936,-14.83168,31.75496,-12.76573,18.87811,126.16948,0.01021,-100.134,135.4747,0.00293,79.60645,1.18905,5.15669,-0.01315,-1.41063,2.67474,0.00031,2.45661,1.47043,-3.39461,-19.2595,2.62245,-2.60969,5.79391,-1.87173,5.90621
410,-4.50063,0.0,-0.0,-1.44681,0.0,0.0,-2.72554,-7.28225,8.75248,13.78367,8.18499,-8.79249,-13.8546,0.53466,0.00019,-19.71169,-2.67332,0.00025,24.37135,6.10315,5.74176,5.28688,-4.22186,-10.10353,30.11998,5.64663,-14.87338,31.80702,-12.64248,18.77515,126.6179,0.00525,-101.03506,135.76079,-0.00163,79.22284,1.04733,5.70704,-0.00552,-1.13796,2.78067,-0.00026,2.83543,1.43915,-3.62883,-18.87602,2.68002,-2.83904,5.67062,-2.07906,5.74973
411,-4.61478,-0.0,-0.0,-1.25609,0.0,0.0,-2.71441,-7.06017,8.87929,13.63563,8.14818,-9.12131,-13.48832,0.55912,-0.00013,-20.63216,-2.66939,-0.00138,24.14019,5.84691,5.58943,5.63128,-4.35256,-9.8036,30.41007,5.51373,-15.1616,31.78116,-12.51514,18.67991,126.70625,0.00183,-101.00845,136.01581,-0.00322,79.65553,1.01712,6.52197,-0.00285,-1.07504,2.71106,-0.0005,3.09254,1.5087,-3.69849,-18.61885,2.7704,-2.87806,5.61809,-2.29019,5.57566
412,-4.81557,-0.0,0.0,-1.10379,0.0,0.0,-2.71,-6.86975,8.97786,13.4169,7.89268,-9.39221,-13.0846,0.54884,-0.00015,-21.53205,-2.58673,-0.00126,23.93904,5.66237,5.41687,6.02545,-4.46602,-9.50926,30.76335,5.33963,-15.88138,31.64482,-12.52243,18.4991,126.41039,0.00172,-100.47482,136.21962,-0.00163,80.40178,0.72131,7.79426,-0.0087,-1.07874,2.25001,-6e-05,3.16241,1.69597,-3.76847,-18.55115,2.97026,-2.87375,5.63939,-2.48182,5.51992
413,-4.5768,-0.0,0.0,-0.7795,-0.0,0.0,-2.85109,-6.71804,8.79205,13.01787,7.55023,-9.46131,-12.68237,0.54495,0.00014,-22.35792,-2.5395,0.00046,23.78569,5.53353,5.41377,6.44613,-4.55165,-9.39888,31.09891,5.20902,-16.78498,31.50072,-12.66182,18.2311,126.00332,0.00026,-100.18262,136.32349,0.0005,81.08543,-0.00184,9.39012,-0.01639,-1.0746,1.43166,0.0005,3.08156,1.91365,-3.92161,-18.63348,3.22913,-2.93551,5.68493,-2.5988,5.57005
414,-3.92238,0.0,-0.0,-0.2997,0.0,-0.0,-3.08864,-6.55761,8.305,12.47316,7.30744,-9.41199,-12.28857,0.55178,0.00021,-23.12081,-2.5574,0.00109,23.6542,5.46101,5.62703,6.8653,-4.58256,-9.40536,31.35984,5.18643,-17.43052,31.45226,-12.80745,17.98656,125.79176,-0.00022,-100.17245,136.32904,0.00126,81.49374,-1.14497,10.9615,-0.0229,-0.97997,0.6069,0.00068,2.93723,2.03911,-4.04404,-18.77815,3.39096,-3.00288,5.72515,-2.57873,5.56469
415,-3.64525,0.0,0.0,0.13667,0.0,0.0,-3.20297,-6.40969,7.85004,11.91678,7.16576,-9.49481,-11.91706,0.52352,-0.00012,-23.87679,-2.54025,-0.00041,23.50379,5.45253,5.81045,7.2614,-4.55302,-9.23413,31.54173,5.22368,-17.6874,31.51315,-12.82738,17.85861,125.84116,-0.00063,-99.82338,136.33035,0.00132,81.43204,-2.48835,12.24969,-0.01864,-0.66929,0.18034,0.0022,2.83919,2.03854,-4.05756,-18.87591,3.39543,-3.01567,5.74452,-2.43213,5.39636
416,-4.38463,0.0,0.0,0.38054,0.0,0.0,-3.06534,-6.39648,7.72494,11.41868,7.04621,-9.77916,-11.60759,0.44051,-0.00035,-24.67081,-2.44083,-0.00163,23.32714,5.47721,5.70927,7.62972,-4.50222,-8.79138,31.70725,5.23192,-17.80979,31.65836,-12.72508,17.82462,126.0066,-0.00094,-98.3278,136.40587,0.00138,81.02782,-3.00623,12.96082,-0.00809,-0.25116,0.27631,0.00358,2.87778,1.98447,-4.07876,-18.83572,3.35303,-3.05542,5.70227,-2.26316,5.1453
417,-5.76131,0.0,-0.0,0.46246,0.0,-0.0,-2.80702,-6.54626,7.82067,10.93379,7.02933,-10.0378,-11.3716,0.35855,-0.0002,-25.5095,-2.36709,-0.00075,23.1441,5.45086,5.43805,7.98846,-4.50702,-8.34411,31.93622,5.19714,-18.04708,31.8806,-12.66184,17.81102,126.13208,0.00164,-95.28082,136.50459,0.00096,80.73972,-1.62114,12.9341,-0.01502,-0.12532,0.67587,0.00104,3.02679,1.94252,-4.26002,-18.68212,3.38106,-3.23956,5.56671,-2.18691,4.96343
418,-6.89235,-0.0,-0.0,0.52368,0.0,-0.0,-2.65748,-6.7334,7.82232,10.41477,7.26785,-10.07004,-11.14554,0.33746,6e-05,-26.37244,-2.41433,0.00077,22.93255,5.30256,5.32368,8.3384,-4.63343,-8.12981,32.22168,5.1623,-18.3867,32.1463,-12.76995,17.79736,126.18205,0.00409,-91.51685,136.51418,0.00068,80.73933,1.153,12.39387,-0.02099,-0.51651,1.07405,-0.00175,3.15105,1.91457,-4.58455,-18.5501,3.47505,-3.55181,5.36036,-2.2467,4.89775
419,-7.33895,-0.0,0.0,0.58495,0.0,0.0,-2.704,-6.8562,7.57808,9.90863,7.7259,-9.90245,-10.86024,0.3766,0.00023,-27.25471,-2.55431,0.00154,22.65672,5.06672,5.51119,8.67065,-4.85935,-8.12395,32.48679,5.12395,-18.69151,32.37827,-12.97311,17.80512,126.19925,0.00351,-88.76508,136.40996,0.00029,80.69498,3.55712,11.65665,-0.00669,-1.11818,1.33872,-0.00133,3.14508,1.88155,-4.8796,-18.54827,3.55339,-3.83855,5.15078,-2.40106,4.88951
420,-7.25429,-0.0,0.0,0.47776,0.0,0.0,-2.83704,-6.94099,7.17054,9.49821,8.14822,-9.6418,-10.55542,0.4416,0.00022,-28.18842,-2.71353,0.00155,22.36632,4.86037,5.87261,9.02489,-5.0852,-8.21266,32.71423,5.03697,-18.91878,32.55545,-13.07326,17.83889,126.17509,0.00121,-87.94729,136.24849,-0.00066,80.26039,4.55848,10.86957,0.00987,-1.39471,1.50896,0.00048,3.01968,1.82227,-4.98355,-18.66969,3.53672,-3.95723,4.9985,-2.5709,4.87915
421,-7.01262,0.0,-0.0,0.12177,-0.0,0.0,-2.87406,-7.03939,6.79774,9.18352,8.33306,-9.38342,-10.36001,0.48311,0.00012,-29.18957,-2.82422,0.00068,22.17854,4.75839,6.1649,9.47168,-5.25779,-8.29687,32.96409,4.92081,-19.13031,32.75213,-12.98715,17.89235,126.05054,-0.00187,-88.56749,136.05653,-0.00147,79.47974,4.53607,10.09858,0.01216,-1.18396,1.66925,0.00152,2.86544,1.71943,-4.87657,-18.82434,3.40164,-3.89576,4.91811,-2.7116,4.84975
422,-6.84752,-0.0,-0.0,-0.22377,0.0,-0.0,-2.74837,-7.11838,6.59196,8.84855,8.34602,-9.2317,-10.34514,0.44913,0.0002,-30.19946,-2.83137,-0.00079,22.1589,4.73437,6.24028,10.02834,-5.41936,-8.28708,33.25531,4.84749,-19.36125,33.01793,-12.82963,17.97875,125.83163,-0.00315,-89.70156,135.82819,-0.001,78.72192,4.36586,9.30771,0.00274,-0.85881,1.88419,0.00077,2.76544,1.59674,-4.67897,-18.92661,3.21463,-3.75734,4.88892,-2.82768,4.80429
423,-6.7316,0.0,-0.0,-0.13795,0.0,-0.0,-2.56921,-7.11931,6.48203,8.30276,8.36376,-9.21006,-10.44161,0.34766,0.00026,-31.11889,-2.72761,-0.00171,22.2512,4.7242,6.16787,10.61917,-5.61354,-8.17948,33.5108,4.81674,-19.57166,33.28692,-12.77321,18.12889,125.60469,-0.00164,-90.70595,135.59122,0.00033,78.29514,4.58691,8.40973,-0.0078,-0.87003,2.14947,-0.00097,2.72888,1.51934,-4.54696,-18.96477,3.09393,-3.66319,4.87333,-2.90789,4.74711
424,-6.57,0.0,0.0,0.46968,0.0,0.0,-2.46964,-7.05309,6.29781,7.40322,8.44724,-9.19643,-10.51809,0.25321,0.00011,-31.91192,-2.56453,-0.00146,22.33563,4.69858,6.12624,11.15067,-5.82496,-8.08368,33.64755,4.76248,-19.73025,33.45914,-12.8614,18.3648,125.44221,0.00056,-91.09978,135.38452,0.00081,78.14378,5.16104,7.59197,-0.00898,-1.27375,2.36379,-0.00121,2.69806,1.52231,-4.55096,-18.99555,3.09818,-3.66582,4.83094,-2.90684,4.69248
425,-6.31557,0.0,0.0,1.16239,-0.0,0.0,-2.47078,-6.94843,5.99841,6.23523,8.54273,-9.04322,-10.51057,0.21188,-2e-05,-32.66182,-2.43685,0.00014,22.34516,4.66218,6.18894,11.62428,-6.0248,-8.1399,33.69301,4.68047,-19.8693,33.53217,-12.9777,18.66376,125.35828,0.00125,-90.66054,135.19916,0.0005,78.07699,5.60255,7.22514,-0.00301,-1.75446,2.41736,-0.00027,2.62939,1.56771,-4.6313,-19.06322,3.17004,-3.72374,4.74276,-2.82188,4.65772
426,-5.88681,0.0,-0.0,1.45911,0.0,-0.0,-2.51633,-6.76057,5.68752,5.12239,8.56555,-8.73212,-10.45579,0.19462,-4e-05,-33.49521,-2.42734,0.00234,22.29689,4.62514,6.29181,12.11764,-6.20906,-8.41544,33.77307,4.6456,-20.03271,33.60071,-12.98829,18.95416,125.35316,0.00064,-89.70477,135.00638,0.00034,78.12173,5.38187,7.30169,0.00114,-1.97744,2.32024,-0.00051,2.55551,1.60971,-4.68157,-19.13675,3.22764,-3.75496,4.61206,-2.72614,4.62397
427,-5.37044,0.0,0.0,1.39399,-0.0,-0.0,-2.51659,-6.44277,5.47926,4.36968,8.44563,-8.40463,-10.43018,0.15749,1e-05,-34.45387,-2.49194,0.00278,22.23371,4.59462,6.3638,12.66582,-6.38873,-8.78861,33.97161,4.71713,-20.20556,33.73891,-12.86536,19.17398,125.4335,0.00072,-88.7449,134.8243,9e-05,78.47511,4.36904,7.41876,0.00496,-1.86521,2.21635,-0.00125,2.54572,1.65867,-4.65464,-19.14821,3.26319,-3.71178,4.44391,-2.69581,4.54415
428,-5.10112,0.0,-0.0,1.37375,0.0,0.0,-2.40451,-6.1069,5.41243,4.00485,8.18949,-8.20434,-10.48137,0.10226,5e-05,-35.4749,-2.4793,0.00096,22.18408,4.5684,6.42513,13.23531,-6.5851,-9.00032,34.23975,4.897,-20.30792,33.92694,-12.67081,19.32401,125.54453,0.0014,-88.23048,134.71434,-0.00106,79.26858,3.06257,7.37623,0.0062,-1.56376,2.29792,-0.00033,2.62485,1.74954,-4.55629,-19.07334,3.31128,-3.58664,4.24515,-2.75105,4.41637
429,-5.28187,-0.0,0.0,1.6328,-0.0,0.0,-2.22615,-6.00422,5.42823,3.79636,7.94125,-8.13185,-10.59992,0.0626,1e-05,-36.47879,-2.303,-0.00093,22.1572,4.53275,6.55368,13.78863,-6.82819,-8.89425,34.48219,5.14075,-20.27071,34.09015,-12.49605,19.43619,125.54823,-0.00325,-88.81206,134.72182,-0.00166,80.15148,2.28453,7.33385,0.00334,-1.18182,2.69287,0.00248,2.76416,1.89386,-4.39748,-18.94073,3.38668,-3.38546,4.02894,-2.87066,4.30166
430,-5.86162,-0.0,0.0,2.05146,0.0,0.0,-2.07981,-6.28041,5.43488,3.50328,7.8879,-8.13601,-10.73174,0.05578,-5e-05,-37.42692,-1.98072,-0.00201,22.13894,4.48136,6.7595,14.30974,-7.12495,-8.50034,34.69493,5.34773,-20.11883,34.17672,-12.42087,19.51401,125.34557,-0.01342,-90.88352,134.84023,0.00104,80.21519,2.37453,7.43032,0.00118,-0.72399,3.30999,0.00425,2.92625,2.06193,-4.20777,-18.78637,3.47269,-3.14671,3.80572,-3.01425,4.2533
431,-6.64483,0.0,0.0,2.39967,0.0,-0.0,-2.00556,-6.80431,5.38757,3.0691,8.05334,-8.20186,-10.81018,0.07759,-4e-05,-38.30283,-1.56041,-0.00241,22.09787,4.41796,6.95608,14.78623,-7.44279,-7.95512,34.93353,5.40604,-19.95896,34.19421,-12.45309,19.54277,124.99661,-0.01358,-93.48064,135.02063,0.00386,79.07791,2.76632,7.67376,-0.00158,-0.32903,3.81297,0.0025,3.08067,2.19364,-4.04025,-18.63824,3.53311,-2.94207,3.5846,-3.14045,4.2649
432,-7.26538,0.0,-0.0,2.53924,0.0,-0.0,-2.01502,-7.28912,5.25513,2.58638,8.25845,-8.25419,-10.80108,0.13463,6e-05,-39.09618,-1.13473,-0.00151,22.03027,4.33089,7.09093,15.22253,-7.75223,-7.48107,35.17256,5.31521,-19.89049,34.19292,-12.51115,19.53011,124.67329,-0.00252,-94.81697,135.18855,0.00221,77.7279,2.64125,8.05441,-0.00583,-0.26685,3.92405,0.00099,3.20644,2.25658,-3.93266,-18.51592,3.5518,-2.81866,3.39024,-3.24008,4.28432
433,-7.39367,0.0,0.0,2.37956,-0.0,-0.0,-2.1224,-7.54963,4.97043,2.15601,8.31151,-8.13916,-10.73935,0.23911,0.00011,-39.82967,-0.8504,0.00061,22.00167,4.19744,7.24167,15.67288,-8.06229,-7.3098,35.31774,5.20217,-19.92141,34.2249,-12.51735,19.50429,124.49406,0.00302,-94.55148,135.25865,-2e-05,77.38738,1.90848,8.48945,-0.00531,-0.56641,3.68478,0.00132,3.32286,2.2734,-3.87815,-18.40087,3.54727,-2.76173,3.26206,-3.33999,4.26367
434,-7.1422,-0.0,-0.0,1.87139,0.0,0.0,-2.26872,-7.62633,4.54134,1.82333,8.20316,-7.81463,-10.70504,0.3606,4e-05,-40.56385,-0.78138,0.00229,22.09119,4.03021,7.50848,16.20725,-8.38833,-7.45802,35.34941,5.17719,-19.9487,34.31168,-12.47344,19.50412,124.43816,0.00144,-94.27931,135.18213,0.0004,78.02805,1.28283,8.84785,0.00114,-0.94225,3.27783,0.00089,3.48423,2.27186,-3.81218,-18.24062,3.52143,-2.70095,3.21923,-3.46304,4.20649
435,-6.91815,-0.0,0.0,1.15178,-0.0,0.0,-2.32736,-7.64811,4.13978,1.60184,8.05565,-7.43,-10.7473,0.42349,6e-05,-41.33963,-0.83262,0.00202,22.29147,3.88483,7.8454,16.83251,-8.71335,-7.67577,35.34575,5.23948,-19.8603,34.443,-12.40988,19.57353,124.4266,-0.00054,-95.3336,135.00671,0.00048,78.80757,1.4717,9.01896,0.00418,-1.16337,2.80308,-0.00011,3.69845,2.25531,-3.66497,-18.02855,3.45161,-2.57018,3.24001,-3.60188,4.15319
436,-6.85949,0.0,-0.0,0.46687,-0.0,0.0,-2.25501,-7.60788,3.929,1.52877,7.92475,-7.12468,-10.83145,0.38072,0.00015,-42.12419,-0.84638,0.00042,22.5014,3.78093,8.09651,17.46659,-9.02164,-7.72642,35.36933,5.32935,-19.67596,34.59521,-12.32533,19.71185,124.43564,-0.00066,-97.23805,134.86784,-0.00031,79.30622,2.40809,8.85231,-0.00037,-1.24572,2.39402,-0.00049,3.89005,2.22486,-3.48483,-17.83918,3.35669,-2.41397,3.28504,-3.74481,4.10705
437,-6.93997,-0.0,0.0,-0.1567,0.0,0.0,-2.1234,-7.45565,3.90262,1.67645,7.80343,-6.92369,-10.86572,0.26802,8e-05,-42.82607,-0.7393,-0.00085,22.60712,3.65797,8.17203,17.9776,-9.33696,-7.5856,35.41069,5.39423,-19.51643,34.731,-12.21577,19.84364,124.48486,-0.00073,-98.4851,134.87955,-0.00082,79.65832,3.40542,8.31157,-0.00284,-1.29419,2.27773,-0.00051,3.98223,2.18725,-3.4295,-17.74705,3.30128,-2.37647,3.32068,-3.89715,4.01237
438,-7.35389,0.0,0.0,-0.91885,0.0,-0.0,-1.99932,-7.33996,3.96933,2.04945,7.73179,-6.86703,-10.78848,0.16195,-2e-05,-43.36435,-0.5115,-0.00104,22.55814,3.47579,8.13764,18.27119,-9.66238,-7.31513,35.44806,5.39137,-19.4575,34.79112,-12.11009,19.89092,124.55574,-0.0011,-98.09317,135.01768,-0.00086,80.05622,3.99832,7.67634,0.00025,-1.36303,2.48607,-0.00055,3.9705,2.15022,-3.57174,-17.75573,3.3195,-2.52246,3.31752,-4.05346,3.85567
439,-8.03848,-0.0,0.0,-1.81027,0.0,-0.0,-1.92691,-7.39675,4.03591,2.4888,7.72201,-6.97498,-10.61752,0.09653,-4e-05,-43.72108,-0.24671,-0.00038,22.38984,3.30199,8.15595,18.36975,-9.92598,-6.95708,35.50534,5.28886,-19.51686,34.74326,-12.04086,19.86163,124.5753,0.00021,-96.44727,135.14429,-0.0002,80.52335,4.12827,7.37607,0.00068,-1.44629,2.70073,-0.00029,3.90248,2.12949,-3.79322,-17.81953,3.38217,-2.73611,3.2503,-4.18638,3.742
440,-8.38462,0.0,0.0,-2.45817,0.0,0.0,-1.95777,-7.4801,4.03248,2.77669,7.70887,-7.12928,-10.41014,0.05063,-6e-05,-43.91839,-0.08054,0.00026,22.17416,3.22268,8.29284,18.35424,-10.05351,-6.60423,35.61627,5.10077,-19.70826,34.65448,-12.00399,19.8426,124.47774,-7e-05,-95.00612,135.17436,0.00047,80.86263,3.73137,7.66744,-0.00621,-1.49423,2.62073,-4e-05,3.83089,2.13324,-3.89616,-17.88935,3.42372,-2.83045,3.10879,-4.26959,3.75767
441,-8.07425,0.0,0.0,-2.58142,0.0,-0.0,-2.07889,-7.46221,3.98108,2.86143,7.62501,-7.22435,-10.21761,0.01468,-5e-05,-43.97914,-0.05502,0.0003,21.96149,3.21859,8.40855,18.25388,-10.06591,-6.39253,35.75912,4.89311,-19.98621,34.63782,-11.97487,19.90715,124.28469,-0.00338,-94.92223,135.17157,0.00048,80.90188,2.83283,8.4086,-0.01108,-1.4681,2.38934,-0.0,3.77232,2.13693,-3.77264,-17.95022,3.38146,-2.71421,2.92156,-4.28753,3.80896
442,-7.57667,0.0,0.0,-2.36346,0.0,0.0,-2.19003,-7.46535,3.9422,2.90953,7.41295,-7.30311,-10.09303,0.01581,-1e-05,-43.95034,-0.07386,0.0001,21.81121,3.19309,8.36212,18.10482,-10.07085,-6.36175,35.87785,4.72506,-20.21475,34.69825,-11.95788,20.03628,124.13535,-0.00391,-95.79676,135.22444,7e-05,80.85741,1.725,9.10556,-0.00362,-1.40508,2.41037,2e-05,3.68971,2.11757,-3.49433,-18.03708,3.26054,-2.46259,2.7856,-4.25854,3.74536
443,-7.48223,0.0,-0.0,-2.14913,0.0,0.0,-2.20932,-7.57141,3.90419,3.10064,7.12448,-7.45491,-10.08215,0.05622,-5e-05,-43.89994,-0.04712,0.0001,21.80532,3.1053,8.20275,18.01243,-10.14619,-6.40089,35.94361,4.61276,-20.27448,34.73635,-11.98184,20.14597,124.1991,-0.00358,-96.28393,135.28773,-0.00014,81.06364,0.75083,9.29728,0.00695,-1.37698,2.7863,-0.00029,3.55314,2.10737,-3.27218,-18.17683,3.16888,-2.25982,2.80452,-4.23893,3.56253
444,-7.74903,0.0,-0.0,-1.94783,0.0,0.0,-2.15842,-7.62365,3.8427,3.43963,7.01846,-7.73183,-10.16564,0.07635,-4e-05,-43.82978,0.0007,0.00028,21.93582,3.03326,8.03627,18.0015,-10.23591,-6.37898,35.95526,4.55988,-20.15345,34.73257,-12.0301,20.17934,124.50195,-0.0049,-95.76051,135.24475,-0.00016,81.39576,0.28886,8.90067,0.00501,-1.39999,3.22513,-0.00059,3.41102,2.1642,-3.29591,-18.31977,3.23045,-2.26081,2.94189,-4.24688,3.35689
445,-7.80782,0.0,0.0,-1.55733,-0.0,-0.0,-2.12148,-7.38989,3.78846,3.81345,7.27661,-8.1385,-10.25221,0.01657,-2e-05,-43.66025,-0.02148,0.00031,22.06671,3.07477,7.88224,17.94029,-10.21427,-6.29207,35.92781,4.57207,-19.93877,34.78045,-12.02802,20.14847,124.86569,-0.00279,-94.69839,135.09547,-0.00073,81.34521,0.67856,8.18109,-0.00608,-1.48349,3.48161,-0.00069,3.35299,2.28327,-3.57437,-18.37611,3.44407,-2.47557,3.03493,-4.23193,3.18336
446,-7.27326,0.0,0.0,-1.01211,0.0,-0.0,-2.14314,-6.81016,3.76029,4.13972,7.70784,-8.61456,-10.27426,-0.10315,-9e-05,-43.33971,-0.16883,0.0001,22.09475,3.2123,7.76063,17.72259,-10.05243,-6.23035,35.90341,4.62528,-19.76928,34.90041,-11.93804,20.09285,125.06238,0.00025,-93.94421,134.97884,0.0004,80.58796,1.74198,7.52073,-0.00846,-1.66705,3.58866,-0.00068,3.40344,2.37797,-3.91796,-18.32201,3.65913,-2.75997,2.99832,-4.16201,3.04835
447,-6.34393,0.0,0.0,-0.58,0.0,-0.0,-2.19597,-6.11381,3.73497,4.41083,7.98067,-9.07749,-10.26282,-0.20258,-9e-05,-42.90237,-0.43173,-0.00017,22.05654,3.32671,7.75904,17.39185,-9.85309,-6.24588,35.9305,4.65832,-19.75437,34.97301,-11.81858,20.02191,125.00314,-0.00244,-94.24186,135.00331,0.00272,79.40176,2.78727,7.21039,-0.00148,-1.84979,3.64576,-0.00038,3.48969,2.37288,-4.10778,-18.23214,3.7246,-2.93842,2.90376,-4.07734,2.97869
448,-5.44259,0.0,-0.0,-0.4414,0.0,0.0,-2.25387,-5.64073,3.69301,4.65861,7.96827,-9.46755,-10.284,-0.23302,-5e-05,-42.3948,-0.78415,-0.00077,22.03612,3.32768,7.92327,17.03569,-9.72648,-6.33622,36.01972,4.62697,-19.87672,34.9013,-11.76253,19.92682,124.78072,-0.00606,-95.65932,135.13171,0.0019,78.66986,3.29248,7.27894,0.0023,-1.79154,3.63927,-0.00033,3.53907,2.28391,-4.09918,-18.18081,3.63877,-2.96341,2.85014,-4.03376,3.02145
449,-4.79084,0.0,0.0,-0.53441,-0.0,0.0,-2.33634,-5.55262,3.65606,4.89919,7.74412,-9.74634,-10.33076,-0.21547,-3e-05,-41.82078,-1.19803,-0.00159,22.05119,3.24122,8.1608,16.6808,-9.67789,-6.47859,36.11497,4.55375,-19.97632,34.73943,-11.81209,19.82672,124.56824,-0.00358,-97.2613,135.24721,-0.00029,79.06684,3.31681,7.56613,0.00157,-1.41627,3.51214,-0.001,3.55953,2.18124,-4.0026,-18.15981,3.50767,-2.91164,2.8621,-4.03295,3.17883
450,-4.60234,0.0,0.0,-0.68083,-0.0,0.0,-2.42029,-5.80109,3.71316,5.11501,7.49722,-9.94982,-10.32758,-0.19842,-3e-05,-41.1982,-1.60239,-0.00151,22.04792,3.16849,8.32171,16.32528,-9.63084,-6.56686,36.12467,4.48993,-19.89447,34.63925,-11.93693,19.74558,124.46251,0.00039,-97.90308,135.26945,-0.00104,80.08109,3.19403,7.9793,0.00052,-0.90904,3.29161,-0.001,3.5746,2.12161,-3.89302,-18.14544,3.41176,-2.83184,2.90935,-4.03854,3.40509
451,-5.17229,0.0,0.0,-0.82579,0.0,-0.0,-2.42132,-6.24589,3.94247,5.28714,7.44217,-10.20258,-10.22659,-0.20536,-5e-05,-40.58313,-1.89059,-0.00019,21.97568,3.15577,8.33775,15.96897,-9.54912,-6.45224,36.02856,4.42877,-19.6614,34.70792,-12.07088,19.6636,124.42733,0.00174,-97.23537,135.20782,-0.00202,80.6031,3.05312,8.43648,8e-05,-0.52707,3.1237,8e-05,3.55683,2.1389,-3.76774,-18.16583,3.38148,-2.70892,2.94738,-4.04257,3.64558
452,-6.37362,0.0,-0.0,-1.03558,-0.0,0.0,-2.33415,-6.689,4.27487,5.40922,7.57439,-10.57493,-10.06809,-0.22442,-4e-05,-39.98556,-1.99856,0.00127,21.87108,3.13577,8.21814,15.58996,-9.48611,-6.16078,35.91339,4.30396,-19.4626,34.89356,-12.15998,19.56382,124.40004,0.00141,-95.83041,135.15767,-0.00279,80.50166,2.85043,8.69162,0.00031,-0.4642,3.15391,0.00014,3.4835,2.22909,-3.65509,-18.24308,3.4236,-2.57073,2.95882,-4.06731,3.82271
453,-7.59333,0.0,0.0,-1.25845,0.0,-0.0,-2.24748,-6.95903,4.55575,5.47111,7.64015,-10.97984,-9.94733,-0.23852,1e-05,-39.33973,-1.96929,0.00174,21.84373,3.03164,7.9667,15.17093,-9.49378,-5.91618,35.849,4.0967,-19.40558,35.0124,-12.18622,19.50045,124.3867,0.00051,-94.56382,135.21207,-0.00306,80.65702,2.69425,8.54273,-1e-05,-0.76758,3.38761,-0.00105,3.38098,2.32585,-3.61376,-18.34844,3.49819,-2.4964,2.99321,-4.11141,3.86541
454,-8.37009,0.0,-0.0,-1.29272,-0.0,0.0,-2.21831,-7.06026,4.69356,5.45846,7.46654,-11.25079,-9.91601,-0.24602,3e-05,-38.58189,-1.92403,0.00083,21.93843,2.87125,7.61968,14.72382,-9.54198,-5.89632,35.79943,3.89567,-19.42064,34.95089,-12.15575,19.52931,124.41635,0.00039,-94.04386,135.33188,-0.00201,81.48127,2.7817,8.10825,-0.00151,-1.22015,3.69683,-0.00096,3.29584,2.36068,-3.6382,-18.43398,3.53959,-2.50621,3.11181,-4.14845,3.7928
455,-8.65934,-0.0,0.0,-1.02406,0.0,-0.0,-2.26249,-7.11456,4.66025,5.39238,7.11962,-11.24954,-9.92265,-0.24783,4e-05,-37.71098,-1.9543,-0.00054,22.05887,2.74424,7.32506,14.25623,-9.56951,-6.07865,35.70773,3.81936,-19.38961,34.80672,-12.06318,19.60421,124.45792,0.00031,-94.50041,135.36847,-2e-05,82.32581,3.05677,7.74121,-0.00169,-1.42249,3.87385,-0.00047,3.27441,2.34396,-3.64371,-18.45494,3.5261,-2.51753,3.28764,-4.17802,3.69781
456,-8.58346,0.0,0.0,-0.58236,0.0,-0.0,-2.37597,-7.19001,4.50822,5.37003,6.77521,-10.95402,-9.88573,-0.24024,5e-05,-36.78712,-2.05551,-0.00118,22.08861,2.69179,7.23902,13.77716,-9.5626,-6.29589,35.5761,3.90795,-19.26889,34.74058,-11.89938,19.6285,124.44184,-0.00112,-95.75615,135.25153,-0.00109,82.26714,3.18619,7.71191,-0.0015,-1.14938,3.73448,-0.0027,3.34092,2.33867,-3.55067,-18.3898,3.48677,-2.43298,3.44033,-4.23105,3.65856
457,-8.19365,0.0,0.0,-0.2356,0.0,0.0,-2.50186,-7.24559,4.36508,5.52243,6.63221,-10.5284,-9.80655,-0.21926,5e-05,-35.87767,-2.18049,-0.00128,22.04409,2.68021,7.35779,13.31823,-9.5434,-6.4218,35.42556,4.09917,-19.09564,34.76229,-11.70583,19.56935,124.37646,-0.00171,-97.21124,135.07487,-0.00236,81.06404,2.91278,7.91742,-0.00123,-0.55233,3.33885,-0.0042,3.46634,2.37657,-3.39898,-18.26754,3.46586,-2.27787,3.552,-4.31924,3.68547
458,-7.50227,0.0,0.0,-0.14642,0.0,0.0,-2.57066,-7.17051,4.26788,5.91283,6.80946,-10.24822,-9.75926,-0.17128,-2e-05,-34.98492,-2.29398,-0.00098,22.03943,2.63449,7.56149,12.88471,-9.541,-6.47836,35.28522,4.29129,-18.93601,34.78794,-11.55085,19.47172,124.37607,-0.00161,-98.0822,134.95874,-0.00057,79.49498,2.40295,7.92036,0.00099,0.04808,3.0019,-0.00177,3.58941,2.43318,-3.32817,-18.14677,3.49224,-2.19103,3.65616,-4.43196,3.72957
459,-6.82413,0.0,0.0,-0.26382,0.0,-0.0,-2.55054,-6.96233,4.17525,6.51459,7.18723,-10.32476,-9.79301,-0.08559,-0.00012,-34.05134,-2.33809,0.00053,22.12172,2.48952,7.76495,12.41943,-9.59182,-6.46963,35.22437,4.42256,-18.81699,34.81369,-11.44347,19.40477,124.50217,-0.00318,-97.89459,134.91136,0.00107,78.5992,2.17053,7.48352,0.00064,0.46535,2.93372,0.00084,3.66159,2.46807,-3.38741,-18.07454,3.54657,-2.23317,3.74424,-4.58117,3.75021
460,-6.67999,0.0,-0.0,-0.4268,-0.0,0.0,-2.44762,-6.82716,4.16163,7.26403,7.48271,-10.75395,-9.87614,0.00256,-0.00012,-33.04316,-2.2634,0.00229,22.21404,2.25859,7.93594,11.86251,-9.70358,-6.29765,35.27358,4.49632,-18.7074,34.88689,-11.34312,19.41656,124.66732,-0.00344,-96.95275,134.87755,0.00122,78.60812,2.46903,6.94382,0.00014,0.69245,3.04724,0.00119,3.65338,2.46162,-3.4774,-18.08127,3.57387,-2.31924,3.7852,-4.78186,3.76396
461,-7.11141,0.0,0.0,-0.51329,0.0,-0.0,-2.31192,-6.92392,4.35678,8.0679,7.54741,-11.28379,-9.9205,0.02094,-9e-05,-31.99527,-2.13625,0.00181,22.21685,2.0443,8.04776,11.22511,-9.81919,-5.97893,35.33651,4.57103,-18.55844,34.97606,-11.2414,19.48735,124.78053,-0.00129,-96.16301,134.84526,0.00061,79.0253,2.85993,6.8362,0.00065,0.75069,3.2242,0.0003,3.5527,2.42464,-3.50007,-18.18076,3.54791,-2.35403,3.8107,-4.99634,3.82061
462,-7.61527,0.0,0.0,-0.52716,0.0,0.0,-2.20052,-7.12991,4.72281,8.80173,7.48847,-11.61792,-9.87131,-0.06495,-0.00014,-30.97297,-2.08821,-0.00033,22.11464,1.94661,8.09457,10.57961,-9.87108,-5.70502,35.28317,4.72164,-18.32918,34.99332,-11.16942,19.52804,124.8632,0.00138,-96.36736,134.85034,-1e-05,79.40434,2.60827,7.32755,-0.00669,0.65485,3.53901,-0.00068,3.38925,2.38623,-3.41924,-18.34455,3.48232,-2.29313,3.8918,-5.15834,3.95614
463,-7.82193,0.0,0.0,-0.57097,-0.0,-0.0,-2.11779,-7.19694,5.05618,9.38589,7.47314,-11.67537,-9.78593,-0.20155,-7e-05,-30.0157,-2.14379,-0.00121,21.9948,1.95557,8.11342,9.99801,-9.87403,-5.6205,35.10843,4.95343,-18.00702,34.91697,-11.13923,19.49757,124.95658,0.00305,-97.82893,134.92941,-0.00027,79.57471,1.4373,8.10302,-0.01252,0.50372,4.11046,-0.00072,3.23243,2.34832,-3.19241,-18.50375,3.36318,-2.09629,4.04887,-5.24771,4.15038
464,-7.64555,0.0,-0.0,-0.68,-0.0,-0.0,-2.06325,-7.03996,5.17686,9.8347,7.54975,-11.55403,-9.7952,-0.27849,-7e-05,-29.12156,-2.22034,-0.00055,21.99745,1.96123,8.1646,9.52215,-9.91236,-5.75174,34.93375,5.18325,-17.63994,34.80739,-11.13081,19.48384,125.03352,0.0021,-99.86227,135.09137,-0.00073,79.57661,-0.12858,8.66174,-0.00509,0.41784,4.83213,-9e-05,3.13537,2.26805,-2.77464,-18.60431,3.13402,-1.73769,4.25124,-5.29884,4.3197
465,-6.892,0.0,-0.0,-0.74014,0.0,-0.0,-2.12063,-6.78982,5.06447,10.19646,7.69491,-11.32065,-9.97857,-0.22426,-0.00053,-28.27421,-2.28853,-0.00026,22.21354,1.88546,8.28671,9.16014,-10.02364,-6.13631,34.86123,5.34164,-17.30949,34.71205,-11.13415,19.56857,125.03758,0.00071,-101.19133,135.28838,-0.00135,79.56344,-1.09664,8.69402,5e-05,0.41584,5.29555,-0.00037,3.09687,2.12421,-2.21691,-18.64548,2.79397,-1.27268,4.47476,-5.34144,4.38923
466,-5.59291,0.0,-0.0,-0.66744,-0.0,0.0,-2.34262,-6.63506,4.90543,10.52617,7.87002,-11.05563,-10.29634,-0.08279,-0.0008,-27.46214,-2.36338,0.00012,22.58036,1.76036,8.42667,8.85925,-10.16209,-6.73026,34.87265,5.43689,-17.06534,34.63301,-11.16115,19.69669,124.94822,0.00091,-101.29733,135.41887,-0.00115,79.54329,-0.95532,8.24084,-0.0055,0.45013,5.07985,-0.00096,3.08925,1.9782,-1.70221,-18.65415,2.46781,-0.84855,4.6926,-5.37904,4.38007
467,-4.4757,0.0,0.0,-0.54637,0.0,0.0,-2.5796,-6.64785,4.96583,10.9193,8.02202,-10.95227,-10.64112,0.02277,-0.00037,-26.66097,-2.38889,0.00136,22.93265,1.65488,8.48752,8.53689,-10.29044,-7.2624,34.88564,5.51242,-16.90911,34.59,-11.20842,19.78467,124.80325,0.00061,-100.89248,135.42076,-0.0002,79.54541,-0.42994,7.65296,-0.00664,0.45861,4.26641,-7e-05,3.11448,1.92974,-1.40918,-18.62954,2.3143,-0.59425,4.87143,-5.43054,4.4019
468,-3.9802,0.0,0.0,-0.4638,0.0,0.0,-2.66507,-6.66614,5.25601,11.42908,8.18361,-11.01376,-10.93979,0.01129,0.00019,-25.82714,-2.36513,0.00094,23.20028,1.5842,8.52747,8.18721,-10.43035,-7.5905,34.86206,5.60218,-16.78319,34.62685,-11.24311,19.83707,124.67061,-0.00036,-100.78136,135.34169,0.00064,79.73539,-0.72431,7.43476,-0.00792,0.41316,3.5326,0.0013,3.22099,1.99828,-1.33993,-18.52431,2.35233,-0.5045,5.03451,-5.54246,4.53599
469,-3.50383,0.0,0.0,-0.4073,0.0,0.0,-2.65095,-6.45515,5.50954,11.97799,8.44972,-10.93588,-11.20541,-0.09474,0.00047,-24.94012,-2.43355,-0.00181,23.44796,1.53619,8.69684,7.86254,-10.58667,-7.9506,34.8303,5.71317,-16.56294,34.73916,-11.23393,19.89116,124.59671,-0.00056,-101.0585,135.25058,0.00079,80.0668,-1.92734,7.88466,-0.01373,0.37735,3.46614,0.00196,3.44735,2.07814,-1.34555,-18.29916,2.42859,-0.48011,5.23008,-5.72131,4.74245
470,-2.73952,0.0,-0.0,-0.4931,-0.0,0.0,-2.59306,-6.11631,5.66917,12.48498,8.7224,-10.65835,-11.49432,-0.2243,0.00055,-24.04611,-2.61317,-0.00254,23.70155,1.54633,8.90041,7.5506,-10.68166,-8.4157,34.829,5.81796,-16.17639,34.8643,-11.17477,19.96609,124.58366,-7e-05,-101.42383,135.13298,0.00069,80.35549,-3.02115,8.77067,-0.00696,0.3867,3.93429,0.00186,3.74628,2.05164,-1.30938,-17.99992,2.39057,-0.45633,5.42252,-5.87827,4.93513
471,-2.43408,0.0,-0.0,-0.96325,0.0,-0.0,-2.38861,-6.04489,5.99389,12.97441,8.76505,-10.54519,-11.82695,-0.31397,0.00034,-23.22438,-2.72944,-0.00039,23.88666,1.66005,8.86992,7.1902,-10.63312,-8.64541,34.85508,5.89566,-15.72642,34.9563,-11.07487,20.07618,124.59552,0.00075,-101.563,134.96196,0.0005,80.48592,-3.38056,9.54198,0.00485,0.38881,4.40577,0.00102,3.97238,1.91292,-1.22503,-17.772,2.23049,-0.42941,5.52681,-5.90364,5.09066
472,-3.01011,0.0,0.0,-1.72777,0.0,-0.0,-2.02221,-6.37307,6.53408,13.44441,8.58696,-10.77619,-12.18399,-0.30744,-0.00026,-22.48101,-2.71816,0.00083,23.97076,1.8311,8.61242,6.77026,-10.47261,-8.51793,34.86896,5.98282,-15.37193,35.02285,-10.94634,20.21059,124.58709,0.00193,-101.33698,134.81059,0.00067,80.29591,-3.35322,9.90325,0.00983,0.42567,4.61922,0.00032,3.9817,1.74958,-1.08957,-17.76077,2.02862,-0.36411,5.53325,-5.7949,5.21053
473,-3.96666,0.0,0.0,-2.32342,0.0,0.0,-1.62168,-6.80302,7.0171,13.79959,8.42259,-11.1308,-12.57086,-0.19526,-0.00076,-21.71201,-2.67753,0.00047,24.03764,1.97013,8.3895,6.32654,-10.30359,-8.34353,34.83767,6.14414,-15.12111,35.09012,-10.81778,20.327,124.56637,0.00287,-100.97022,134.77472,0.00124,79.69259,-3.41578,9.90201,0.01018,0.60728,4.63871,-0.00021,3.78362,1.64671,-0.83876,-17.958,1.8402,-0.16924,5.51207,-5.64761,5.2775
474,-4.82715,0.0,-0.0,-2.4895,-0.0,0.0,-1.23315,-7.02517,7.33605,13.99007,8.37019,-11.38999,-13.02226,-0.06462,-0.00045,-20.82782,-2.64691,0.00039,24.17525,2.07552,8.28686,5.88281,-10.17403,-8.34877,34.75957,6.39227,-14.83937,35.1748,-10.73826,20.41694,124.61302,0.00233,-100.66539,134.79831,2e-05,78.86799,-3.31756,9.51289,-0.00025,0.84613,4.5528,-0.00036,3.5419,1.62824,-0.46718,-18.19951,1.68546,0.16909,5.51756,-5.54005,5.32167
475,-5.33533,0.0,-0.0,-2.32718,-0.0,0.0,-0.86415,-6.97987,7.64968,14.04772,8.35218,-11.46366,-13.53161,-0.0172,0.00034,-19.87735,-2.60331,0.00039,24.37087,2.21647,8.18477,5.45235,-10.06425,-8.52029,34.65624,6.66255,-14.43504,35.27534,-10.72516,20.53255,124.79189,-0.00092,-100.0508,134.71159,-0.00164,78.22275,-2.39255,8.59585,-0.02412,0.91377,4.38627,0.00016,3.40105,1.66685,-0.12106,-18.34001,1.59317,0.50489,5.54837,-5.48549,5.43566
476,-5.0967,0.0,0.0,-1.93974,0.0,-0.0,-0.65719,-6.74725,7.98841,14.01235,8.31462,-11.28841,-14.03182,-0.04926,0.00057,-18.98558,-2.57184,-0.00031,24.56638,2.43245,8.05933,5.07147,-9.94174,-8.83493,34.53988,6.88531,-13.94963,35.36295,-10.7002,20.71435,125.0789,-0.00493,-98.68855,134.47752,-0.00025,78.15844,-0.66138,7.3057,-0.03294,0.7971,4.18407,0.00059,3.38699,1.73162,0.04234,-18.35411,1.59283,0.68066,5.59852,-5.45507,5.66341
477,-4.14277,0.0,0.0,-1.43037,0.0,-0.0,-0.70292,-6.45428,8.22224,13.97137,8.24264,-10.95075,-14.46843,-0.08951,0.00027,-18.22175,-2.56517,-0.00063,24.75605,2.7107,7.97778,4.77995,-9.78589,-9.23835,34.38266,7.06614,-13.45031,35.42941,-10.53042,20.9398,125.39532,-0.00542,-96.79007,134.25191,0.00117,78.72074,1.02287,6.22861,-0.01171,0.76973,4.07603,0.00097,3.46305,1.80846,0.05488,-18.27881,1.65957,0.72078,5.6837,-5.40518,5.9229
478,-3.3212,0.0,0.0,-1.11033,0.0,0.0,-0.81743,-6.25805,8.39454,14.07986,8.10688,-10.72924,-14.8618,-0.11494,0.00017,-17.58503,-2.52216,5e-05,24.98118,3.01511,7.87669,4.57792,-9.59484,-9.55178,34.14344,7.24897,-12.95291,35.53013,-10.19192,21.16319,125.66438,-0.00213,-94.99732,134.15559,0.00068,79.46664,1.90349,5.97063,0.00601,1.04394,4.19519,0.00206,3.59049,1.8812,0.10695,-18.15191,1.70785,0.7961,5.79582,-5.29869,6.08397
479,-3.33919,0.0,0.0,-1.2489,0.0,-0.0,-0.77248,-6.26946,8.70005,14.39781,7.9665,-10.79449,-15.26767,-0.1414,0.00021,-17.04186,-2.40868,0.00062,25.26662,3.3067,7.63083,4.42973,-9.37942,-9.6555,33.81769,7.42714,-12.50405,35.67656,-9.86138,21.36363,125.82864,0.00113,-93.93153,134.15224,0.00047,79.93732,1.79435,6.59965,0.00064,1.53682,4.51077,0.00199,3.72685,1.92985,0.33671,-18.01472,1.66798,1.02752,5.89562,-5.11638,6.10825
480,-3.9454,-0.0,0.0,-1.70487,-0.0,-0.0,-0.59522,-6.51166,9.17663,14.78343,7.9713,-11.02236,-15.69178,-0.14583,-7e-05,-16.51948,-2.28639,0.0003,25.57036,3.56766,7.27582,4.27665,-9.14178,-9.6529,33.42411,7.55674,-12.19428,35.73734,-9.76852,21.53642,125.87659,0.0013,-93.85748,134.17549,0.00082,79.87978,0.99624,7.53038,-0.00661,2.08353,4.87999,-0.0003,3.82458,1.94599,0.70446,-17.91431,1.54683,1.37503,5.95672,-4.85975,6.0801
481,-4.4873,0.0,-0.0,-2.09109,-0.0,-0.0,-0.43834,-6.94736,9.69007,15.03124,8.14469,-11.17426,-16.09799,-0.09305,-0.00048,-15.94345,-2.22704,-0.00052,25.80772,3.83351,6.94954,4.05533,-8.85972,-9.74727,32.97333,7.61773,-12.02437,35.57249,-9.95727,21.67694,125.86771,-0.00037,-94.33186,134.21111,0.00091,79.25369,0.28542,8.04607,-0.00546,2.60762,5.21431,-0.00314,3.86597,1.93046,1.04049,-17.86945,1.40803,1.68134,5.97094,-4.54191,6.10639
482,-4.74213,-0.0,0.0,-2.28743,0.0,-0.0,-0.31542,-7.44139,10.15701,15.08008,8.33474,-11.0952,-16.48874,-0.01475,-0.00039,-15.33512,-2.22401,-0.00093,25.95608,4.16955,6.71,3.775,-8.52411,-10.04158,32.50447,7.62136,-11.8811,35.20743,-10.24497,21.81278,125.88218,-0.0021,-94.53627,134.24284,0.00054,78.64685,0.51411,7.93736,-0.00905,2.8332,5.38343,-0.0017,3.85778,1.89478,1.20953,-17.8754,1.31232,1.8251,5.944,-4.18847,6.22786
483,-4.89601,0.0,-0.0,-2.60243,-0.0,0.0,-0.14563,-7.76672,10.60991,15.0658,8.37445,-10.78468,-16.89825,0.00444,0.00033,-14.79661,-2.19933,-0.00048,26.07216,4.58735,6.52754,3.51923,-8.19155,-10.44512,32.12661,7.60554,-11.70767,34.80972,-10.41774,22.01934,125.90515,-0.00268,-94.19543,134.23813,0.00075,79.07509,1.67201,7.61136,-0.01073,2.20606,5.10738,0.0125,3.78026,1.87087,1.26115,-17.95211,1.27101,1.86419,5.89258,-3.8588,6.40838
484,-5.056,0.0,0.0,-3.34807,0.0,0.0,0.02953,-7.833,11.06926,15.15903,8.2042,-10.39683,-17.30604,-0.06873,0.00094,-14.36853,-2.07794,0.00034,26.19005,5.01321,6.37251,3.32193,-7.94481,-10.757,31.95211,7.61164,-11.59505,34.56134,-10.41999,22.32717,125.79586,-0.00048,-93.61961,134.18903,0.0012,80.84779,2.7802,7.59051,-0.00609,0.62415,4.24925,0.02732,3.62655,1.89095,1.36393,-18.10471,1.25163,1.96707,5.8114,-3.62421,6.56378
485,-5.07786,-0.0,0.0,-4.3729,0.0,-0.0,0.02789,-7.84382,11.44433,15.35136,7.94838,-10.10349,-17.6356,-0.15121,0.00078,-13.98669,-1.86868,0.00083,26.29457,5.355,6.28886,3.14177,-7.80876,-10.88663,31.9738,7.62396,-11.61912,34.54969,-10.35747,22.63272,125.45364,0.00322,-92.97365,134.11168,-0.00029,82.94295,3.15213,7.8964,-0.00429,-1.05983,3.15811,0.0167,3.45551,1.93913,1.57192,-18.27336,1.21942,2.17806,5.68603,-3.49786,6.63921
486,-4.71296,0.0,0.0,-5.06,-0.0,0.0,-0.30283,-8.00936,11.53482,15.43877,7.8227,-9.88692,-17.86089,-0.11236,9e-05,-13.59261,-1.66813,0.00053,26.40781,5.58992,6.43651,2.97645,-7.73927,-10.96674,32.05342,7.58837,-11.67273,34.7042,-10.35663,22.78716,124.98416,0.00402,-92.28036,134.03912,-0.00295,83.93292,3.14904,8.04278,-0.00383,-1.82213,2.54811,-7e-05,3.30021,1.94948,1.75393,-18.42606,1.1617,2.35091,5.56192,-3.41982,6.67266
487,-3.7917,0.0,-0.0,-4.76329,0.0,-0.0,-0.9755,-8.17727,11.14768,15.23172,7.86931,-9.51248,-18.05604,0.09559,-0.00086,-13.20581,-1.57197,-0.00022,26.62221,5.77295,6.99328,2.90914,-7.68286,-11.22179,32.0257,7.52465,-11.54321,34.83608,-10.42023,22.76319,124.60649,0.00158,-91.82761,134.05312,-0.00301,83.56359,3.36929,7.6565,-0.00507,-1.48595,2.97504,0.00625,3.12081,1.88603,1.79505,-18.60438,1.08754,2.3656,5.53753,-3.33706,6.72493
488,-2.51584,0.0,0.0,-3.44091,-0.0,0.0,-1.8386,-8.05269,10.37619,14.77002,7.91548,-8.83842,-18.306,0.38109,-0.00159,-12.86924,-1.58242,-0.00057,26.9891,5.9676,7.87441,2.99119,-7.62412,-11.7056,31.78814,7.54471,-11.10207,34.79832,-10.43492,22.66887,124.43624,0.0014,-91.91843,134.24144,-0.00067,82.69798,3.85263,6.81013,-0.0057,-0.67559,4.2577,0.01482,2.92828,1.80951,1.76636,-18.79682,1.02707,2.31063,5.63465,-3.26292,6.76989
489,-1.58361,0.0,0.0,-1.93135,0.0,0.0,-2.60893,-7.73149,9.72684,14.31923,7.82728,-8.1136,-18.61918,0.55604,-0.00121,-12.57435,-1.61558,-0.00031,27.41178,6.20496,8.60606,3.12068,-7.56161,-12.17501,31.3612,7.71475,-10.41932,34.63101,-10.34788,22.61272,124.40783,0.00371,-92.57444,134.55411,0.00081,81.84667,4.3226,5.76165,-0.00314,-0.1082,5.46844,0.00814,2.82289,1.81895,1.79718,-18.90181,1.02443,2.34275,5.72178,-3.22714,6.74925
490,-1.62714,-0.0,-0.0,-1.27567,0.0,-0.0,-3.05888,-7.60741,9.7057,14.11966,7.67295,-7.72623,-18.97273,0.45239,0.00029,-12.27283,-1.5967,0.00013,27.73859,6.49806,8.70519,3.1263,-7.48301,-12.31771,30.90112,7.95766,-9.73856,34.50696,-10.261,22.61751,124.35468,0.00292,-93.77144,134.79175,-0.00021,80.99871,4.60745,4.76295,0.00054,-0.033,5.88747,0.00196,2.85521,1.91867,1.87084,-18.86903,1.08982,2.44806,5.6456,-3.22111,6.70337
491,-2.47958,-0.0,-0.0,-1.71919,0.0,0.0,-3.22969,-7.79068,10.26747,14.16629,7.63848,-7.74041,-19.38656,0.06538,0.00182,-11.95048,-1.52042,0.0003,27.94591,6.84048,8.20847,2.96923,-7.41063,-12.07752,30.57808,8.13268,-9.26772,34.51221,-10.29263,22.6698,124.15892,-0.00437,-95.64602,134.81517,-0.00084,80.50446,4.71157,4.02311,0.00229,-0.13035,5.83477,0.00235,2.95428,2.00916,1.9047,-18.77007,1.16136,2.51301,5.40705,-3.2423,6.72415
492,-3.36062,-0.0,-0.0,-2.67158,0.0,-0.0,-3.3949,-8.04085,10.86962,14.28205,7.85104,-7.91864,-19.90134,-0.42069,0.00203,-11.65245,-1.42244,0.00014,28.16597,7.19368,7.63536,2.79382,-7.4005,-11.63806,30.42921,8.16827,-8.9605,34.55398,-10.42886,22.78117,123.82779,-0.01433,-98.23973,134.67746,0.00118,80.78587,4.78018,3.53585,0.00132,0.01338,6.0915,0.00592,3.01629,2.04458,1.95426,-18.70751,1.17593,2.57214,5.14527,-3.3289,6.80802
493,-3.72612,0.0,0.0,-3.43758,0.0,0.0,-3.77256,-8.12491,11.01015,14.31542,8.24752,-8.01311,-20.54478,-0.78846,0.00085,-11.41862,-1.33251,-8e-05,28.56868,7.54191,7.43173,2.76997,-7.43255,-11.23136,30.39115,8.09643,-8.60159,34.53492,-10.56136,22.94979,123.39302,-0.01531,-100.84373,134.49568,0.00267,81.55382,4.96815,3.09395,-0.00052,0.29959,6.70992,0.0076,3.00378,2.10411,2.14797,-18.71713,1.15959,2.77406,4.98383,-3.46865,6.8569
494,-3.6599,0.0,0.0,-3.71858,0.0,-0.0,-4.34429,-7.95705,10.57826,14.22756,8.59834,-7.87094,-21.34879,-0.95591,-0.00044,-11.22559,-1.25667,-0.0001,29.25112,7.94208,7.60986,2.92983,-7.38322,-11.06091,30.43252,7.99516,-8.10124,34.51294,-10.61157,23.10819,122.81103,0.00483,-101.88358,134.30649,0.00143,82.03666,5.27926,2.57252,-0.00163,0.18832,6.96007,0.01076,2.95074,2.25947,2.46546,-18.7653,1.18653,3.12635,4.94428,-3.53864,6.80427
495,-3.72505,0.0,-0.0,-3.69368,0.0,-0.0,-4.97556,-7.69783,9.81298,14.08888,8.70292,-7.47477,-22.33264,-0.97284,-0.00115,-11.02693,-1.18021,5e-05,30.19242,8.44901,7.8971,3.18811,-7.17241,-11.1956,30.5745,7.9368,-7.57738,34.57592,-10.58132,23.15453,122.05659,0.03312,-100.3376,134.09511,-0.00218,81.5917,5.67848,1.99134,-0.00329,-0.53472,6.3716,0.01733,2.90743,2.46907,2.73681,-18.80452,1.28094,3.45586,4.9844,-3.43407,6.6874
496,-4.70839,0.0,0.0,-3.83378,0.0,0.0,-5.58547,-7.8058,9.04609,14.02402,8.5746,-6.98669,-23.45615,-0.91051,-0.00158,-10.83706,-1.09362,0.00011,31.27685,9.03983,8.0589,3.47438,-6.85373,-11.46397,30.81417,7.96538,-7.17389,34.64614,-10.51377,23.03626,121.26383,0.0334,-97.20444,133.87004,-0.00447,80.18246,6.17908,1.35065,-0.00529,-1.36163,5.25379,0.01127,2.89846,2.63055,2.82594,-18.81285,1.39802,3.59836,5.05049,-3.19671,6.60445
497,-6.97789,-0.0,0.0,-4.41605,0.0,0.0,-6.19116,-8.59255,8.42666,14.08377,8.40602,-6.61452,-24.63458,-0.81932,-0.00163,-10.72558,-1.01745,4e-05,32.36163,9.66206,8.05335,3.76513,-6.51719,-11.61237,31.08888,8.04038,-6.94581,34.56944,-10.4369,22.81108,120.66902,0.00807,-94.674,133.6759,-0.00245,78.62994,6.58857,0.61562,-0.00277,-1.72664,4.17712,-0.00207,2.91702,2.666,2.71614,-18.79713,1.47154,3.50955,5.07309,-2.94263,6.62046
498,-9.73215,-0.0,-0.0,-5.12836,-0.0,-0.0,-6.89694,-9.73107,7.87296,14.15508,8.35981,-6.4036,-25.79327,-0.7584,-0.00073,-10.71007,-0.98161,-1e-05,33.33716,10.29317,7.9532,4.00101,-6.18164,-11.58869,31.32804,8.03208,-6.89906,34.34218,-10.35844,22.6184,120.39464,-0.00764,-93.91713,133.57603,0.00039,77.91553,6.56286,-0.1926,0.00384,-1.74616,3.47655,-0.00672,2.93044,2.55855,2.4816,-18.78782,1.4584,3.25204,4.97272,-2.71922,6.70257
499,-11.57652,0.0,0.0,-5.4154,0.0,0.0,-7.79729,-10.57001,7.31156,14.07651,8.44993,-6.24017,-26.87446,-0.79606,0.00088,-10.71752,-0.98342,3e-05,34.14732,10.91566,7.76579,4.08341,-5.82532,-11.54691,31.51641,7.88426,-6.99951,34.09513,-10.30372,22.56569,120.36282,-0.00675,-94.43545,133.59854,0.00064,78.28323,6.09093,-0.96829,0.0065,-1.90448,3.24021,-0.00538,2.8979,2.36958,2.26424,-18.82301,1.36322,2.98028,4.71718,-2.49573,6.74422
500,-12.10177,-0.0,0.0,-5.17749,0.0,-0.0,-8.82193,-10.85005,6.83806,13.83179,8.59667,-6.01903,-27.81567,-0.95333,0.00173,-10.69695,-0.98985,6e-05,34.78674,11.48719,7.44577,4.01411,-5.47771,-11.58768,31.66403,7.73081,-7.12137,33.933,-10.32618,22.657,120.45089,-0.00117,-95.26439,133.66481,0.00081,79.41175,5.52931,-1.60458,0.00328,-2.32897,3.30759,-0.00312,2.82279,2.22168,2.22895,-18.89755,1.23887,2.89277,4.36567,-2.26305,6.68158
501,-12.01729,0.0,-0.0,-4.81725,-0.0,0.0,-9.8001,-10.78916,6.53808,13.54502,8.70498,-5.73911,-28.57483,-1.16107,0.001,-10.70329,-0.97493,-0.0,35.28359,11.97464,7.09181,3.94392,-5.21834,-11.6273,31.72981,7.73663,-7.07796,33.91544,-10.4678,22.85064,120.65649,0.00344,-95.91302,133.6378,0.00225,80.81216,5.19646,-2.1299,-0.00093,-2.7888,3.28359,0.00058,2.75407,2.19947,2.4452,-18.96193,1.13827,3.08534,4.0301,-2.05718,6.5662
502,-11.69534,0.0,-0.0,-4.66843,-0.0,0.0,-10.69532,-10.66223,6.33744,13.32186,8.71309,-5.49574,-29.15873,-1.31728,-0.00027,-10.80979,-0.93474,-0.00014,35.64711,12.37925,6.89073,3.98087,-5.08015,-11.51843,31.64996,7.8837,-6.76768,34.06339,-10.71003,23.1262,121.03136,0.00435,-96.20515,133.47379,0.00166,81.83112,5.23679,-2.5952,-0.00305,-3.09886,2.88755,0.00344,2.6835,2.23219,2.79888,-19.02529,1.03793,3.42585,3.76981,-1.87375,6.4804
503,-10.73286,0.0,-0.0,-4.67388,-0.0,0.0,-11.62755,-10.59193,6.15535,13.17836,8.62051,-5.38689,-29.58016,-1.40371,-0.00077,-10.99746,-0.89391,-0.00018,35.86938,12.71377,6.83873,4.07829,-5.00424,-11.21918,31.44778,8.01872,-6.27279,34.28398,-10.97144,23.43408,121.53918,-0.00087,-95.8826,133.26308,-0.00064,81.95758,5.68226,-2.83799,-0.00064,-3.10969,2.32798,0.00438,2.52787,2.14172,3.1071,-19.17329,0.83996,3.67858,3.57053,-1.65618,6.431
504,-9.04896,-0.0,0.0,-4.61405,-0.0,-0.0,-12.67967,-10.56594,5.99674,13.08369,8.47354,-5.37638,-29.82688,-1.48898,-0.00055,-11.18723,-0.91002,-5e-05,35.99158,12.99628,6.78172,4.18314,-4.91068,-10.85063,31.23481,8.06016,-5.78049,34.40078,-11.17825,23.666,122.10388,-0.00847,-94.73697,133.12857,-0.00085,81.22707,6.39159,-2.65545,0.00411,-2.65261,2.08669,0.00712,2.27764,1.8744,3.32904,-19.41702,0.50958,3.78585,3.42231,-1.39396,6.3763
505,-7.38529,-0.0,-0.0,-4.42651,0.0,0.0,-13.78967,-10.50694,5.8329,13.01017,8.31409,-5.32738,-29.92474,-1.59397,-0.00025,-11.3387,-1.01565,2e-05,36.0779,13.24525,6.70479,4.30983,-4.78417,-10.59637,31.08709,8.04106,-5.431,34.32329,-11.33576,23.7762,122.75217,-0.00746,-93.20049,133.14359,2e-05,80.23775,7.11861,-2.23166,0.00332,-1.92984,2.33306,0.00824,2.05712,1.59747,3.54755,-19.63151,0.17154,3.88644,3.31639,-1.15251,6.29403
506,-6.56807,-0.0,0.0,-4.28245,0.0,0.0,-14.76596,-10.3697,5.6322,12.9667,8.12075,-5.17316,-29.97226,-1.65145,-8e-05,-11.48557,-1.16522,1e-05,36.18665,13.44792,6.72005,4.50026,-4.66944,-10.52833,30.99482,7.97524,-5.28433,34.17976,-11.49447,23.84554,123.5886,0.00854,-92.28275,133.3134,-0.0016,79.75208,7.75018,-2.09912,-0.00299,-1.52969,2.87229,0.00235,1.98082,1.49374,3.77444,-19.70193,-0.00866,4.05886,3.24514,-0.99177,6.19618
507,-6.90538,-0.0,0.0,-4.40101,-0.0,0.0,-15.36036,-10.1847,5.51092,12.98321,7.89618,-4.96958,-30.0566,-1.61716,-8e-05,-11.67221,-1.30376,2e-05,36.39899,13.5726,6.84799,4.82249,-4.59539,-10.55178,30.94785,7.80937,-5.3865,34.24174,-11.65667,23.95946,124.61415,0.02348,-92.41699,133.54919,-0.0033,80.06711,8.26289,-2.5183,-0.00619,-1.69152,3.52776,-0.00337,2.03319,1.571,3.93039,-19.64538,0.00554,4.23227,3.26803,-0.9057,6.12307
508,-8.23546,0.0,-0.0,-4.77103,0.0,0.0,-15.43512,-10.04269,5.61311,13.04218,7.7998,-4.83505,-30.18976,-1.51919,-0.00016,-11.86493,-1.44194,2e-05,36.72761,13.63392,7.00779,5.26927,-4.52255,-10.51087,30.98707,7.53532,-5.73723,34.6124,-11.76936,24.12841,125.67915,0.01358,-92.75809,133.66872,-0.0002,80.93763,8.55586,-3.14397,-0.00317,-2.02218,4.09915,-0.00275,2.11997,1.72073,3.99407,-19.5569,0.12117,4.34673,3.42979,-0.83558,6.10715
509,-9.98041,0.0,-0.0,-5.13653,-0.0,0.0,-15.09395,-10.01247,5.90079,13.07408,7.96049,-4.87652,-30.33823,-1.41429,-0.00019,-11.97997,-1.59142,-0.0001,37.01748,13.71568,7.1216,5.66938,-4.37704,-10.2902,31.1292,7.26299,-6.17332,35.04357,-11.80945,24.32778,126.67798,-0.01358,-92.0891,133.53038,0.00504,82.01855,8.65984,-3.54434,-0.00126,-2.10603,4.19645,-0.00126,2.18165,1.85925,4.03894,-19.49411,0.23333,4.43957,3.62689,-0.71494,6.13415
510,-11.3097,-0.0,0.0,-5.24166,0.0,-0.0,-14.59721,-10.04792,6.24872,13.03501,8.23706,-5.10425,-30.45203,-1.34324,-0.00021,-11.99182,-1.69526,-0.00014,37.06466,13.8794,7.13941,5.8261,-4.13956,-9.87607,31.30734,7.11652,-6.47543,35.21351,-11.82817,24.4977,127.67014,-0.02536,-90.40572,133.19069,0.00506,82.90929,8.85033,-3.79546,-0.00451,-1.93595,3.63397,-0.00229,2.23577,1.97914,4.11037,-19.43814,0.31837,4.55019,3.67895,-0.51619,6.15396
511,-11.81772,0.0,0.0,-5.01029,0.0,-0.0,-14.14616,-10.05589,6.63628,12.94745,8.3845,-5.37453,-30.48311,-1.27118,-0.00025,-11.94507,-1.70215,-4e-05,36.82784,14.05821,7.07694,5.7068,-3.88101,-9.42015,31.44281,7.09704,-6.6676,35.12082,-11.87994,24.55262,128.71629,-0.00511,-89.15327,132.8447,0.00031,83.0815,9.14428,-4.24104,-0.00826,-1.71101,2.79327,-0.00217,2.31992,2.11935,4.15448,-19.35301,0.43239,4.64295,3.51802,-0.2676,6.11086
512,-11.81838,-0.0,0.0,-4.5762,-0.0,0.0,-13.80136,-10.06167,7.10479,12.87411,8.28958,-5.43932,-30.42051,-1.08299,-3e-05,-11.89053,-1.64469,2e-05,36.47624,14.11242,7.06551,5.47804,-3.70269,-9.15833,31.54569,7.10356,-6.98231,35.06672,-11.91226,24.48635,129.71402,0.0186,-89.43227,132.62701,-0.00196,82.37521,9.13474,-4.83459,-0.00677,-1.5557,2.31042,-0.00067,2.41326,2.28832,4.12659,-19.26108,0.5997,4.67945,3.26828,-0.0225,5.97797
513,-11.628,0.0,-0.0,-4.16921,-0.0,0.0,-13.59854,-10.18781,7.63892,12.87125,7.94402,-5.15635,-30.28152,-0.71911,0.00044,-11.86915,-1.57976,-3e-05,36.19827,13.99292,7.25411,5.35135,-3.65562,-9.16978,31.68567,7.0473,-7.44207,35.2853,-11.79036,24.3946,130.50838,0.01552,-90.56241,132.56554,-0.0003,81.31961,8.84986,-5.14757,-0.00033,-1.4468,2.54233,0.00101,2.42811,2.41048,4.09671,-19.24766,0.72425,4.69683,3.10933,0.18644,5.78453
514,-11.07475,0.0,-0.0,-3.91852,0.0,-0.0,-13.5931,-10.47017,8.21296,12.94082,7.44487,-4.67763,-30.0668,-0.29155,0.00067,-11.90767,-1.52126,-0.00011,35.98096,13.80466,7.62276,5.36018,-3.69747,-9.28396,31.87841,6.90154,-7.7809,35.68841,-11.47754,24.34565,131.07291,-0.00066,-91.12125,132.66072,0.00127,80.58595,9.03693,-4.927,0.01553,-1.2852,3.3079,0.00262,2.27358,2.39416,4.15688,-19.40027,0.68688,4.74667,3.05898,0.37078,5.59618
515,-10.01832,-0.0,-0.0,-3.82548,-0.0,-0.0,-13.73616,-10.75217,8.83969,13.02689,7.02258,-4.28439,-29.77496,0.01239,0.00021,-11.98512,-1.47709,-0.00014,35.7009,13.70085,7.97952,5.37884,-3.71121,-9.2996,32.08544,6.70169,-7.93423,35.99581,-11.13916,24.32678,131.43988,-0.00702,-90.65069,132.88451,0.00038,80.44894,9.82084,-4.14686,0.02338,-1.09144,4.02876,0.00273,1.93877,2.25378,4.29933,-19.73014,0.50386,4.82711,3.00368,0.57449,5.44844
516,-8.83841,-0.0,-0.0,-3.90914,0.0,0.0,-13.84364,-10.73516,9.49893,13.09055,6.83709,-4.06316,-29.44871,0.11241,-0.00048,-12.04019,-1.46338,-0.0001,35.37777,13.73213,8.15927,5.34537,-3.61124,-9.20204,32.31945,6.52709,-8.2909,36.04813,-10.98657,24.31403,131.54059,-0.00088,-89.67415,133.15849,-0.0017,80.8922,9.93939,-2.71261,-0.01456,-1.03253,4.29122,0.00274,1.52664,2.1148,4.45615,-20.13697,0.31685,4.92143,2.91477,0.82637,5.31268
517,-8.15657,-0.0,0.0,-4.18352,-0.0,-0.0,-13.76393,-10.23977,10.12378,13.1452,6.806,-3.92218,-29.15256,0.07408,-0.00062,-12.0237,-1.44127,4e-05,35.12263,13.82659,8.16043,5.28616,-3.43098,-9.07277,32.64756,6.42662,-9.2113,35.90466,-11.04274,24.28527,131.30484,0.00574,-88.84306,133.40881,-0.00249,81.72233,8.23296,-0.71511,-0.06797,-1.07512,4.21071,0.00271,1.18153,2.09549,4.57983,-20.47807,0.25328,5.02917,2.84873,1.10712,5.15795
518,-8.28468,0.0,-0.0,-4.48655,0.0,-0.0,-13.51709,-9.49295,10.67607,13.19184,6.73233,-3.81035,-28.92343,0.02547,-0.00026,-11.9343,-1.33115,0.00031,34.93945,13.89888,8.10679,5.19565,-3.268,-8.92754,33.08877,6.35621,-10.48585,35.70006,-11.15952,24.19099,130.83833,0.00468,-88.62512,133.59966,-0.00123,82.4668,5.20217,1.24048,-0.05556,-0.84825,4.0577,0.00012,0.94966,2.20396,4.67614,-20.70698,0.31857,5.15865,2.80654,1.37618,5.01208
519,-9.11169,-0.0,0.0,-4.61877,0.0,0.0,-13.20286,-8.95517,11.19999,13.21444,6.53319,-3.73126,-28.77404,0.0445,4e-05,-11.82269,-1.12791,0.00039,34.78325,13.92234,8.09889,5.07884,-3.18162,-8.762,33.58333,6.23996,-11.55569,35.5396,-11.22303,23.99182,130.27466,0.00011,-89.14156,133.72533,0.00036,82.62405,2.13689,2.67578,-0.01613,-0.02433,3.88496,-0.00362,0.72016,2.34215,4.8084,-20.93232,0.39824,5.33248,2.77519,1.60716,4.92345
520,-10.41152,0.0,0.0,-4.6655,0.0,-0.0,-12.83443,-8.86283,11.80624,13.24093,6.31037,-3.67094,-28.71727,0.06124,0.00019,-11.76147,-0.92889,0.00014,34.67448,13.91878,8.07084,5.00753,-3.17067,-8.60902,34.07224,6.06055,-12.16967,35.48726,-11.22324,23.72959,129.4928,-0.00233,-89.99373,133.80617,0.00087,82.20934,-0.63045,3.98706,-0.03138,1.27968,3.74301,-0.00332,0.35113,2.4051,5.01017,-21.29443,0.38238,5.54309,2.79344,1.78691,4.89639
521,-11.70047,0.0,0.0,-4.79592,-0.0,0.0,-12.45976,-9.14528,12.5212,13.29376,6.19701,-3.63003,-28.76052,-0.06382,0.00054,-11.78837,-0.81601,-0.0001,34.61603,13.92316,7.86201,4.99805,-3.21357,-8.46531,34.56647,5.82957,-12.48698,35.54206,-11.1829,23.53089,128.24742,-0.0014,-90.68037,133.83249,0.00092,81.79671,-3.32105,5.65336,-0.05858,2.40346,3.74917,-0.00014,-0.14726,2.37342,5.20336,-21.78574,0.28175,5.71082,2.84111,1.90803,4.88329
522,-11.96905,0.0,0.0,-4.83332,-0.0,0.0,-12.37527,-9.62093,13.11751,13.31849,6.19144,-3.58013,-28.89086,-0.30686,0.00085,-11.89233,-0.78641,-0.00012,34.59348,13.94141,7.49649,5.0129,-3.30321,-8.3239,35.11222,5.53391,-12.64789,35.64233,-11.11709,23.48875,126.58945,0.00038,-91.09044,133.71445,0.00183,81.83938,-5.39629,7.11161,-0.03352,2.59647,3.76561,0.00323,-0.62664,2.31047,5.30259,-22.26134,0.18667,5.77978,2.85633,1.9686,4.8345
523,-10.62616,-0.0,0.0,-4.52783,-0.0,0.0,-12.86968,-10.07666,13.27453,13.28158,6.22024,-3.40325,-29.09735,-0.46612,0.00061,-12.0553,-0.82228,9e-05,34.69815,13.95258,7.23007,5.11915,-3.43593,-8.26383,35.71107,5.19152,-12.63467,35.74305,-11.01463,23.54243,124.88573,0.00228,-91.33176,133.37016,0.0018,82.15066,-6.13667,7.44694,-0.00307,1.79846,3.4678,0.00921,-0.98951,2.29334,5.33893,-22.62283,0.15736,5.80721,2.90003,1.97217,4.76043
524,-8.45025,0.0,-0.0,-4.04846,-0.0,0.0,-13.81726,-10.33352,12.92577,13.25046,6.30166,-3.04325,-29.39643,-0.40792,-3e-05,-12.25682,-0.9284,0.00035,35.01182,13.9593,7.23756,5.38577,-3.58381,-8.33744,36.31988,4.89949,-12.46298,35.86959,-10.84522,23.54239,123.39834,0.0028,-91.46492,132.86348,-0.00093,82.23804,-5.72246,6.70855,-3e-05,0.71933,2.76863,0.00946,-1.25967,2.3424,5.40324,-22.89062,0.17928,5.88503,3.04541,1.94023,4.71401
525,-6.67524,0.0,0.0,-3.72236,0.0,-0.0,-14.82165,-10.40293,12.24756,13.26151,6.52683,-2.60448,-29.80619,-0.17556,-0.00066,-12.43829,-1.07205,0.00034,35.43353,14.01987,7.4446,5.69388,-3.69635,-8.46714,36.89612,4.73591,-12.21474,36.06805,-10.62992,23.42195,122.12134,-0.00163,-91.65463,132.41386,-0.00256,81.96086,-4.78218,5.72428,-0.001,0.12541,1.91062,0.00066,-1.46346,2.39355,5.566,-23.0882,0.16689,6.05506,3.1844,1.93338,4.71317
526,-5.59257,-0.0,0.0,-3.52171,-0.0,0.0,-15.64394,-10.46028,11.37389,13.2175,6.88169,-2.19144,-30.31729,0.12626,-0.0013,-12.52695,-1.1754,0.00015,35.8099,14.22642,7.70955,5.87043,-3.72045,-8.56729,37.38884,4.63703,-11.93333,36.31313,-10.44435,23.24867,121.08035,-0.00423,-92.23502,132.24788,-0.00232,81.68397,-3.71942,5.03552,0.00151,0.29284,1.2368,-0.00516,-1.54396,2.36627,5.87981,-23.15614,0.02601,6.33648,3.1705,2.03425,4.7297
527,-4.63348,0.0,0.0,-3.15234,-0.0,0.0,-16.32556,-10.52873,10.2991,13.01592,7.18683,-1.77722,-30.9042,0.42983,-0.0021,-12.52221,-1.19973,7e-05,36.13497,14.61352,8.01723,5.91782,-3.65128,-8.66201,37.71553,4.46995,-11.63079,36.47899,-10.30501,23.12564,120.52768,0.00791,-93.4129,132.41548,-0.00296,81.7556,-2.88004,4.56305,0.00352,1.0143,0.9633,-0.00209,-1.43796,2.26327,6.34876,-23.03045,-0.24226,6.73422,3.04386,2.25566,4.73007
528,-3.57417,0.0,-0.0,-2.57734,0.0,-0.0,-16.9775,-10.4225,9.08698,12.73048,7.26688,-1.34145,-31.54537,0.66616,-0.0019,-12.5232,-1.1696,-3e-05,36.49398,15.06779,8.37749,5.97378,-3.59048,-8.77608,37.7895,4.24491,-11.36999,36.4285,-10.14961,23.07728,120.7206,0.02397,-94.84106,132.75412,-0.00222,81.92594,-2.49328,4.1901,0.00604,1.87632,1.06738,0.00227,-1.20306,2.15405,6.88487,-22.77176,-0.54087,7.19222,2.9624,2.47032,4.68198
529,-3.35285,0.0,0.0,-2.2918,-0.0,-0.0,-17.49017,-10.16306,8.10975,12.6026,7.15498,-1.06994,-32.23181,0.68451,0.00083,-12.63043,-1.1052,-0.00026,36.90395,15.40576,8.54982,6.10915,-3.67312,-8.76725,37.5903,4.11769,-11.27823,36.1524,-9.97835,23.06372,121.64359,0.01091,-95.47035,133.04427,-0.00029,81.63522,-2.2631,4.25794,0.01165,2.48061,1.37834,0.00176,-0.99833,2.08384,7.36718,-22.54431,-0.78326,7.61472,2.98748,2.52707,4.55512
530,-5.17034,0.0,-0.0,-2.79406,0.0,-0.0,-17.56711,-10.01904,7.77331,12.78634,7.05929,-1.15408,-32.94704,0.36841,0.00404,-12.83738,-1.02128,-0.00032,37.32916,15.56764,8.21221,6.30316,-3.89832,-8.47661,37.21132,4.13072,-11.47602,35.78812,-9.89935,23.09442,123.04967,-0.02278,-94.45914,133.18469,-0.00011,80.87712,-1.82474,5.19383,0.01571,2.57294,1.74094,-0.00132,-0.91694,2.05033,7.74243,-22.4443,-0.9521,7.95128,3.06858,2.44068,4.35738
531,-8.60176,0.0,-0.0,-3.78928,0.0,-0.0,-17.15798,-10.04654,7.95982,13.14207,7.1087,-1.43661,-33.62307,-0.1392,0.00366,-13.05412,-0.96832,-9e-05,37.73158,15.65235,7.51034,6.53732,-4.13944,-8.00314,36.79615,4.12865,-11.97476,35.49557,-9.96703,23.22422,124.70683,-0.03085,-92.37708,133.21539,-0.00046,80.29299,-1.45172,6.73265,0.00494,2.1906,2.02273,-0.00209,-0.90899,2.04543,8.03097,-22.42135,-1.06243,8.21777,3.1544,2.34818,4.14513
532,-11.50382,-0.0,-0.0,-4.43129,0.0,-0.0,-16.66434,-10.11463,8.13063,13.39567,7.24573,-1.61881,-34.1518,-0.53198,0.00054,-13.21111,-0.97943,5e-05,37.99454,15.75942,6.97755,6.74165,-4.32266,-7.56679,36.44071,3.98418,-12.64212,35.35527,-10.07998,23.42784,126.50097,-0.01141,-90.52995,133.23346,-0.00046,80.35896,-1.55279,7.87627,-0.00651,1.64195,2.11511,-0.00047,-0.90055,2.07748,8.2421,-22.40137,-1.10996,8.42586,3.16733,2.30419,3.96449
533,-12.217,0.0,0.0,-4.32624,0.0,-0.0,-16.49914,-10.26412,7.9679,13.44148,7.36232,-1.66265,-34.47647,-0.66439,-0.00129,-13.31065,-1.03476,-4e-05,37.99274,15.88999,6.88684,6.80629,-4.4765,-7.22961,36.21567,3.73291,-13.32273,35.36871,-10.09683,23.59399,128.32346,0.00442,-89.41914,133.31425,-0.00023,80.79057,-1.97756,7.75115,-0.00361,1.20097,2.03778,0.00032,-0.91077,2.13111,8.31462,-22.40726,-1.08663,8.51297,3.01246,2.2487,3.82155
534,-10.92471,0.0,0.0,-3.83757,0.0,-0.0,-16.60057,-10.6025,7.62902,13.39505,7.40958,-1.70111,-34.64548,-0.64207,-0.00103,-13.40879,-1.11631,-0.00013,37.80972,16.004,7.04194,6.76978,-4.63355,-6.93749,36.20669,3.46839,-13.97352,35.49445,-9.96959,23.65364,129.97812,0.00919,-88.85008,133.44691,0.00043,80.90386,-2.37547,6.31431,0.0016,0.90407,1.91327,-0.00016,-1.00052,2.14721,8.17922,-22.50426,-1.02205,8.39296,2.73841,2.13869,3.72551
535,-8.6077,0.0,-0.0,-3.52136,0.0,0.0,-16.59826,-11.02841,7.45736,13.41765,7.41209,-1.79,-34.75069,-0.64099,-0.00019,-13.57787,-1.22328,-5e-05,37.67535,16.09958,7.12596,6.80751,-4.77857,-6.65277,36.43702,3.24822,-14.62999,35.66124,-9.77102,23.61164,131.24222,0.00767,-88.57871,133.55269,0.00036,80.45713,-2.66108,4.3061,0.00276,0.73131,1.80955,-0.00083,-1.17002,2.10102,7.8787,-22.69002,-0.9549,8.09657,2.52327,2.0185,3.68934
536,-6.01761,-0.0,-0.0,-3.60778,0.0,0.0,-16.29938,-11.28137,7.63068,13.56094,7.46469,-1.87986,-34.83758,-0.71667,0.00018,-13.86812,-1.35141,0.00021,37.71486,16.21815,7.05913,7.03109,-4.87196,-6.37131,36.81814,3.09,-15.29922,35.78008,-9.67233,23.47001,131.95728,0.00507,-88.16052,133.59238,8e-05,79.90217,-2.82091,2.73382,0.0015,0.74854,1.71656,-0.00124,-1.3739,2.03271,7.55866,-22.91067,-0.90108,7.77395,2.48062,1.98297,3.69148
537,-4.12023,0.0,0.0,-3.9765,-0.0,0.0,-15.79287,-11.18154,8.05594,13.76208,7.64859,-1.91724,-34.87615,-0.79495,-4e-05,-14.26476,-1.4978,0.00044,37.88213,16.40405,7.00422,7.41674,-4.88307,-6.09897,37.23011,2.97772,-15.91044,35.80478,-9.82049,23.24538,132.09088,0.00839,-87.18227,133.55576,0.00095,79.82912,-2.68163,2.20032,0.00298,0.89916,1.61581,-0.00099,-1.59263,1.96076,7.34478,-23.14037,-0.88952,7.54868,2.59513,2.10121,3.69732
538,-4.13506,0.0,0.0,-4.45553,0.0,-0.0,-15.1731,-10.79073,8.55081,13.9648,7.9071,-1.97101,-34.78882,-0.80866,-0.0004,-14.68164,-1.65253,0.00038,38.04924,16.6622,7.07864,7.8596,-4.80986,-5.80488,37.60629,2.89898,-16.30331,35.80868,-10.15852,23.03432,131.79254,0.01011,-86.01414,133.37184,0.00108,80.19394,-2.09164,2.4853,0.00593,0.96208,1.46042,-1e-05,-1.82657,1.85637,7.30914,-23.37666,-0.97353,7.47721,2.7886,2.35943,3.69404
539,-6.16175,0.0,0.0,-4.93543,0.0,-0.0,-14.42067,-10.37703,9.05764,14.18176,8.09592,-2.1909,-34.50806,-0.75558,-0.00035,-15.027,-1.79126,0.00012,38.08741,16.9453,7.21543,8.22999,-4.67837,-5.42824,37.94304,2.89359,-16.29004,35.9346,-10.45087,22.93601,131.32335,0.00252,-85.63319,133.00189,-0.00278,80.27449,-1.13237,2.8644,0.00239,0.85545,1.22593,0.00082,-2.05824,1.70914,7.5059,-23.59978,-1.18269,7.60608,2.95844,2.67267,3.6751
540,-8.36839,0.0,-0.0,-5.12369,0.0,-0.0,-13.5948,-10.17536,9.60035,14.39225,8.17256,-2.58101,-34.02187,-0.6308,0.00035,-15.26872,-1.89103,-8e-05,37.90805,17.18877,7.33727,8.41446,-4.53472,-4.9826,38.26254,3.01516,-15.82149,36.19363,-10.53805,22.93601,130.83827,-0.00564,-86.43729,132.57446,-0.00554,79.69511,-0.06291,2.91594,-0.00269,0.72277,0.96638,0.00067,-2.27846,1.53923,7.92081,-23.80069,-1.49296,7.9296,2.99684,2.95512,3.62919
541,-8.80331,0.0,0.0,-4.73105,0.0,0.0,-12.86366,-10.19607,10.17323,14.51508,8.23393,-2.95417,-33.36769,-0.42983,0.00093,-15.42641,-1.92388,-0.00017,37.5176,17.34302,7.43363,8.38911,-4.44741,-4.59013,38.55304,3.24425,-15.09244,36.3993,-10.47664,22.95,130.31526,-0.00601,-87.71167,132.27658,-0.00289,79.00446,0.74529,2.87078,-0.00278,0.69168,0.66222,0.0001,-2.51339,1.36065,8.41889,-24.01144,-1.84168,8.32753,2.87888,3.17113,3.55778
542,-7.77684,0.0,0.0,-4.0431,0.0,0.0,-12.2764,-10.33367,10.77702,14.5487,8.3693,-3.13223,-32.59036,-0.21582,0.00037,-15.52641,-1.86794,-0.00021,37.02133,17.37901,7.46032,8.25206,-4.48613,-4.37055,38.73563,3.50587,-14.43846,36.40041,-10.38705,22.93343,129.74918,-0.00068,-88.47418,132.15532,9e-05,78.88076,0.83957,3.11374,-0.00492,0.73763,0.22961,-0.0004,-2.7661,1.18637,8.83707,-24.24351,-2.15699,8.65291,2.70721,3.32303,3.47228
543,-6.97724,0.0,0.0,-3.683,0.0,-0.0,-11.77153,-10.54394,11.38677,14.58892,8.58847,-3.05866,-31.7178,-0.05739,-0.00036,-15.58842,-1.77833,-0.00017,36.48074,17.32949,7.42988,8.1052,-4.64596,-4.32805,38.71089,3.77156,-14.09696,36.27559,-10.2892,22.87946,129.30183,0.00087,-88.43057,132.11343,0.00117,79.40468,-0.01746,3.59273,-0.00818,0.84671,-0.26989,-0.00136,-2.95924,1.03408,9.1146,-24.42321,-2.40027,8.85555,2.56798,3.43469,3.39233
544,-6.85428,0.0,0.0,-3.80481,0.0,0.0,-11.38997,-10.7718,11.86321,14.69132,8.85664,-2.79033,-30.77184,0.07372,0.00025,-15.64855,-1.7723,-3e-05,35.82656,17.31444,7.52757,7.9478,-4.81331,-4.3396,38.45,4.04699,-14.03396,36.19773,-10.15835,22.77638,129.20215,-0.002,-88.02449,132.06392,0.00124,80.30495,-1.47145,3.90161,-0.00279,1.18017,-0.65371,-0.00185,-3.00243,0.89828,9.30823,-24.45745,-2.59749,8.98618,2.40097,3.56659,3.36323
545,-6.61969,0.0,0.0,-4.02188,-0.0,-0.0,-11.21867,-10.85398,12.11384,14.8445,9.0777,-2.48595,-29.7957,0.22723,0.00102,-15.76194,-1.89037,0.00018,35.0139,17.44647,7.85806,7.75585,-4.85691,-4.25433,38.03803,4.27122,-13.99969,36.20388,-10.01578,22.64065,129.56102,0.00226,-87.9826,132.02438,0.00037,81.29951,-2.73857,3.75111,0.00356,1.90954,-0.76084,0.00095,-2.91052,0.77659,9.53354,-24.35445,-2.79313,9.15154,2.11634,3.78965,3.41091
546,-6.01965,0.0,0.0,-4.03446,0.0,-0.0,-11.18499,-10.67889,12.28673,15.04354,9.12448,-2.28096,-28.86339,0.36423,0.00039,-15.95647,-2.05548,0.00021,34.17549,17.71234,8.21523,7.58443,-4.74328,-4.05597,37.61651,4.37932,-13.79143,36.18238,-9.90083,22.52861,130.29329,0.01378,-88.75705,132.05559,-0.00034,82.04102,-3.25765,3.24306,0.00209,2.95174,-0.55199,0.0043,-2.79235,0.70742,9.90931,-24.21502,-2.99482,9.47644,1.77358,4.1049,3.4593
547,-5.4425,0.0,0.0,-3.89688,-0.0,-0.0,-11.1213,-10.3455,12.61586,15.27344,9.01597,-2.14382,-28.04102,0.43682,-0.00046,-16.19678,-2.18824,2e-05,33.51877,17.97331,8.34135,7.51652,-4.55797,-3.91048,37.27737,4.45909,-13.48177,36.02834,-9.84409,22.4509,131.17921,0.01441,-89.99982,132.15611,5e-05,82.13805,-3.09005,2.76016,0.00017,3.95805,-0.2222,0.0022,-2.71714,0.70552,10.49279,-24.10321,-3.20951,10.01974,1.54444,4.41916,3.36172
548,-5.02182,0.0,0.0,-3.79691,-0.0,-0.0,-10.93075,-10.08493,13.20747,15.484,9.00212,-2.01249,-27.35204,0.47425,-0.00044,-16.42718,-2.28652,-6e-05,33.12356,18.08871,8.20481,7.56463,-4.41569,-3.95563,37.02658,4.6798,-13.34587,35.76984,-9.88892,22.33741,132.01912,-0.00109,-90.70376,132.25415,-5e-05,81.38696,-2.73861,2.52798,0.0014,4.48856,-0.09309,-0.001,-2.6579,0.70716,11.19687,-23.99703,-3.46444,10.6771,1.51782,4.64078,3.0536
549,-4.70963,0.0,0.0,-3.90889,0.0,-0.0,-10.58433,-10.06281,14.00593,15.66529,9.33946,-1.99792,-26.80341,0.5219,-7e-05,-16.64814,-2.3872,5e-05,32.90604,18.05979,7.92023,7.67735,-4.34109,-4.08102,36.83519,5.05237,-13.55173,35.52683,-10.082,22.12471,132.73141,-0.01393,-90.30796,132.2934,-0.00114,80.03727,-2.62866,2.40593,0.00275,4.26097,-0.33645,0.00267,-2.58835,0.64374,11.81378,-23.88544,-3.74779,11.2298,1.61629,4.7913,2.64917
550,-4.6429,0.0,0.0,-4.33385,0.0,0.0,-10.09447,-10.22614,14.78184,15.89902,9.96175,-2.24545,-26.41587,0.58934,5e-05,-16.9262,-2.49305,-3e-05,32.74544,18.03273,7.63809,7.83041,-4.26421,-4.03602,36.66213,5.38269,-13.99525,35.33036,-10.42938,21.83544,133.29022,-0.0104,-89.50522,132.29556,-0.00123,78.84107,-2.69416,2.21765,0.00378,3.39151,-0.8816,0.00818,-2.55423,0.53192,12.21083,-23.82496,-3.9961,11.55991,1.72586,4.98053,2.35308
551,-4.92461,0.0,0.0,-5.00302,0.0,0.0,-9.50432,-10.38136,15.25693,16.28621,10.50045,-2.67384,-26.2038,0.64529,-0.0001,-17.32712,-2.56206,-0.00056,32.57541,18.15252,7.48991,8.05253,-4.12865,-3.71817,36.40689,5.48735,-14.42043,35.05465,-10.8526,21.56963,133.69133,0.00095,-89.40306,132.31297,-0.00023,78.35224,-2.48819,1.96751,0.00457,2.38945,-1.43993,0.00566,-2.60275,0.44682,12.43414,-23.85893,-4.15638,11.7376,1.82427,5.27856,2.26925
552,-5.32219,-0.0,0.0,-5.6791,0.0,-0.0,-8.81504,-10.43878,15.3507,16.82733,10.70317,-3.02032,-26.15307,0.6182,-0.00011,-17.85021,-2.59049,-0.00087,32.3763,18.44999,7.47372,8.33949,-3.93489,-3.29499,35.92316,5.38037,-14.60582,34.563,-11.20758,21.4259,134.04507,0.00723,-90.12534,132.33437,0.00055,78.20684,-1.67312,1.67175,0.00453,1.83134,-1.64232,0.00027,-2.72066,0.41846,12.55749,-23.96825,-4.22753,11.84256,1.93794,5.66728,2.30969
553,-5.39686,0.0,0.0,-6.05377,0.0,-0.0,-7.99396,-10.44419,15.17769,17.39916,10.67056,-3.12202,-26.24235,0.46538,0.00023,-18.42872,-2.66431,-0.00018,32.17326,18.86119,7.47003,8.61252,-3.67974,-3.05523,35.18261,5.21751,-14.49934,33.83787,-11.4171,21.38984,134.53011,0.00277,-90.76144,132.29156,-2e-05,77.62968,-0.29151,1.24606,0.00144,1.95115,-1.35455,0.00111,-2.8675,0.39498,12.56248,-24.11534,-4.25122,11.83869,2.05802,6.10657,2.30982
554,-4.89501,-0.0,-0.0,-5.87956,0.0,0.0,-7.09075,-10.40593,14.84509,17.85579,10.60207,-3.06033,-26.46295,0.25156,0.00044,-18.98695,-2.86168,0.00076,32.0293,19.28983,7.44216,8.79561,-3.3527,-3.12858,34.39092,5.12784,-14.27391,32.97098,-11.54602,21.29381,135.16866,-0.00813,-90.46334,132.157,-0.00122,76.33968,1.34173,0.54071,-0.00565,2.51607,-0.76354,0.00353,-2.98904,0.29062,12.43567,-24.2493,-4.30252,11.68224,2.1444,6.56865,2.21346
555,-3.97299,0.0,-0.0,-5.20087,-0.0,-0.0,-6.21853,-10.31001,14.43688,18.16011,10.51835,-3.02091,-26.79459,0.09198,0.00011,-19.49775,-3.14848,0.00099,31.96535,19.63421,7.50408,8.87797,-3.01161,-3.38855,33.81963,5.15299,-14.18871,32.08684,-11.68072,20.93226,135.80782,-0.01091,-89.36683,131.96442,-0.00152,74.65037,2.83829,-0.61804,-0.01234,3.15338,-0.19865,0.00172,-3.00831,0.04153,12.2503,-24.28929,-4.46738,11.41836,2.17088,6.99495,2.09302
556,-3.03,-0.0,0.0,-4.43985,0.0,0.0,-5.4101,-10.21462,14.1029,18.41283,10.32559,-3.07786,-27.16929,0.0241,-0.00032,-19.99788,-3.42085,0.00057,31.92303,19.81496,7.73515,8.89327,-2.77389,-3.67409,33.5342,5.28591,-14.35573,31.23034,-11.84131,20.23265,136.35556,-0.00181,-88.52035,131.73265,-0.00207,72.97736,3.89393,-2.34905,-0.01028,3.71307,-0.01492,-0.00251,-2.88224,-0.32455,12.08106,-24.18621,-4.74702,11.1268,2.15626,7.29181,2.00319
557,-2.35856,0.0,0.0,-4.05632,0.0,-0.0,-4.60867,-10.12462,13.99236,18.74502,9.99581,-3.19561,-27.47453,-0.01811,-0.0004,-20.54818,-3.59534,-0.00022,31.84693,19.81333,8.0139,8.87813,-2.69882,-3.96639,33.37048,5.49352,-14.72164,30.31295,-12.06824,19.31221,136.84785,0.00932,-88.86774,131.43637,-0.00283,71.54321,4.32835,-4.54767,0.00425,4.18828,-0.37283,-0.00442,-2.66716,-0.66892,11.91566,-23.99354,-5.00772,10.84653,2.15507,7.40795,1.89623
558,-2.00944,-0.0,-0.0,-4.12442,0.0,-0.0,-3.80085,-9.96998,14.14385,19.19518,9.61963,-3.39784,-27.605,-0.08875,-0.00032,-21.1568,-3.64799,-0.00097,31.74086,19.65258,8.13798,8.83276,-2.73845,-4.2763,33.11632,5.70479,-15.24407,29.19936,-12.46618,18.34854,137.27539,0.01154,-90.36018,131.06175,-0.00069,70.62155,4.06662,-6.69329,0.0173,4.53966,-1.03958,-0.00291,-2.48708,-0.8599,11.69354,-23.83494,-5.10479,10.56908,2.20786,7.37645,1.71024
559,-1.88565,-0.0,-0.0,-4.28163,0.0,-0.0,-3.08662,-9.80148,14.45983,19.67266,9.35266,-3.77449,-27.52368,-0.11764,6e-05,-21.74023,-3.63238,-0.00093,31.62712,19.34438,8.12906,8.72023,-2.82107,-4.55128,32.64213,5.82676,-15.96035,27.80534,-13.09274,17.38563,137.52734,0.00392,-92.23582,130.65833,0.00297,70.49433,3.31172,-7.96164,0.01099,4.81815,-1.69493,-0.00249,-2.42063,-0.86785,11.39708,-23.7887,-5.00424,10.28904,2.32177,7.25665,1.47972
560,-1.83571,0.0,0.0,-4.06138,0.0,-0.0,-2.59369,-9.69718,14.75138,20.02851,9.31263,-4.32812,-27.29032,0.00536,0.00073,-22.19233,-3.64786,-0.00023,31.51914,18.90668,8.26428,8.53359,-2.9214,-4.76528,31.93368,5.8128,-16.90752,26.10623,-13.85253,16.32893,137.53186,-0.00462,-94.06797,130.3295,0.0031,70.92298,2.63803,-7.89802,0.00207,5.11749,-2.27716,-0.00368,-2.43169,-0.71771,11.07268,-23.81637,-4.7462,10.0408,2.50058,7.07716,1.30377
561,-1.7557,0.0,-0.0,-3.30055,0.0,0.0,-2.34061,-9.51103,14.85751,20.18389,9.48038,-4.94081,-27.03208,0.25761,0.00073,-22.49981,-3.75126,0.0003,31.43355,18.40388,8.71143,8.32284,-3.03667,-4.97305,31.05817,5.70507,-18.03442,24.12387,-14.5609,15.1104,137.37686,-0.00709,-96.02663,130.17157,0.00131,71.3224,2.62583,-7.02042,0.00641,5.28515,-2.77988,-0.00277,-2.42096,-0.45094,10.7846,-23.81635,-4.39274,9.86933,2.74484,6.8477,1.22543
562,-1.77123,0.0,0.0,-2.33773,-0.0,0.0,-2.17187,-9.09284,14.82096,20.22029,9.68699,-5.53841,-26.85036,0.48968,0.00011,-22.75917,-3.90456,0.00033,31.36466,17.89609,9.2388,8.11516,-3.15134,-5.21609,30.10551,5.58991,-19.16732,21.93071,-15.12417,13.76538,137.27847,-0.00387,-97.88597,130.17662,0.00121,71.40681,3.45761,-6.43633,0.00165,5.09526,-3.09062,-0.00072,-2.31722,-0.14397,10.60152,-23.71597,-4.04014,9.8107,3.01221,6.58359,1.18489
563,-2.1177,0.0,-0.0,-1.75353,0.0,-0.0,-1.87006,-8.61373,14.85738,20.31642,9.7264,-6.18271,-26.72679,0.58746,-0.00016,-23.06413,-4.01066,-0.00017,31.2679,17.3629,9.43939,7.88025,-3.27071,-5.46851,29.20426,5.52036,-20.12035,19.62054,-15.59474,12.3966,137.4026,-0.0045,-98.68558,130.19531,0.00105,71.13822,4.83109,-6.91774,-0.01684,4.68436,-3.22303,0.00034,-2.11134,0.12063,10.60356,-23.50336,-3.79452,9.90936,3.24641,6.29338,1.09884
564,-2.62466,0.0,0.0,-1.70349,0.0,0.0,-1.40694,-8.30585,14.9771,20.52743,9.55431,-6.87071,-26.52611,0.58704,0.00019,-23.39429,-4.02253,-0.00067,31.12056,16.72477,9.25735,7.61181,-3.45573,-5.78075,28.50603,5.49877,-20.90422,17.2219,-16.01999,11.08256,137.69774,-0.00816,-98.08381,130.07516,-0.00197,70.34801,6.0818,-8.47202,-0.01841,4.45847,-3.34828,-0.00016,-1.85977,0.29438,10.79221,-23.23545,-3.70151,10.14889,3.47349,5.95631,0.96342
565,-2.7613,-0.0,0.0,-1.72732,0.0,0.0,-0.97792,-8.10473,14.87624,20.706,9.34243,-7.45141,-26.10378,0.58701,0.00058,-23.63569,-3.98754,-0.00061,30.95647,15.94378,8.99128,7.34049,-3.74731,-6.30261,28.02691,5.53493,-21.71923,14.65221,-16.31615,9.74494,137.94138,-0.0058,-97.06844,129.82153,-0.00525,68.86428,6.48611,-10.39584,0.0003,4.68702,-3.55164,-0.00262,-1.66512,0.35473,10.97429,-23.02735,-3.71166,10.34083,3.78394,5.54109,0.84587
566,-2.40775,-0.0,0.0,-1.4138,0.0,-0.0,-0.73657,-7.82058,14.39012,20.71576,9.21349,-7.94463,-25.42908,0.58261,1e-05,-23.69205,-3.92187,-4e-05,30.81444,15.07122,8.72287,7.03096,-4.07571,-7.00877,27.61631,5.68609,-22.69472,11.81939,-16.35079,8.18855,137.96361,-0.00102,-96.52374,129.56252,-0.00369,66.89069,5.55898,-11.67763,-0.0019,5.3412,-3.76259,-0.00483,-1.59189,0.3067,10.84644,-22.96372,-3.7098,10.20399,4.18936,5.05773,0.77459
567,-1.99928,0.0,-0.0,-0.89003,0.0,0.0,-0.65844,-7.43893,13.68785,20.59519,9.0389,-8.62404,-24.62499,0.51483,-0.00088,-23.55415,-3.74541,0.00093,30.70234,14.20201,8.23713,6.5866,-4.31584,-7.64762,27.18783,5.99174,-23.7436,8.77863,-16.1087,6.36149,137.76857,0.0022,-96.1188,129.39113,0.00149,64.99614,3.50786,-11.81242,-0.02853,6.07941,-3.95365,-0.00292,-1.60025,0.21243,10.2334,-23.01337,-3.57397,9.59758,4.58896,4.56898,0.7078
568,-1.79191,0.0,-0.0,-0.50294,0.0,-0.0,-0.70759,-7.09907,12.88642,20.44844,8.68256,-9.57652,-23.86032,0.423,-0.00051,-23.29332,-3.45461,0.00131,30.61928,13.41513,7.5672,6.00609,-4.41774,-8.09374,26.83742,6.37948,-24.6739,5.75186,-15.71584,4.48322,137.42918,-0.00036,-95.41872,129.27121,0.00572,63.71455,1.70494,-11.18125,-0.02772,6.30751,-4.38371,0.00992,-1.56081,0.19216,9.20408,-23.03485,-3.21652,8.63041,4.89896,4.11859,0.65119
569,-1.61772,0.0,-0.0,-0.37537,0.0,-0.0,-0.93725,-6.93458,11.91054,20.29664,8.22899,-10.53058,-23.18434,0.37717,7e-05,-22.99924,-3.21193,0.00041,30.56421,12.73363,7.03022,5.42084,-4.43535,-8.4762,26.66874,6.72897,-25.34562,2.96657,-15.28824,2.835,136.96693,-0.01165,-94.91607,129.07408,0.00661,63.09533,1.77121,-10.44995,-0.00152,5.66833,-5.40547,0.03057,-1.3092,0.34306,7.97074,-22.84472,-2.624,7.53684,5.12703,3.66869,0.72823
570,-1.39577,0.0,0.0,-0.40594,0.0,-0.0,-1.37767,-7.01455,10.7691,20.08564,7.81261,-11.2556,-22.51992,0.34215,-0.00051,-22.70331,-3.14558,-0.00075,30.53638,12.11177,6.70292,4.93583,-4.44182,-8.90442,26.68653,7.01467,-25.7362,0.45821,-14.79137,1.43781,136.36815,-0.01686,-94.84848,128.68913,0.0006,62.58874,3.68141,-9.93683,0.0093,4.6575,-6.83634,0.0296,-0.80147,0.60511,6.6934,-22.39078,-1.91086,6.44439,5.33284,3.16515,1.08362
571,-1.29162,0.0,0.0,-0.42933,0.0,0.0,-1.97868,-7.32248,9.55421,19.75385,7.48152,-11.7864,-21.80743,0.28238,-0.00096,-22.37939,-3.19597,-0.001,30.56564,11.46229,6.40779,4.53716,-4.4711,-9.36307,26.93359,7.25825,-25.99119,-1.93822,-14.07399,0.03939,135.62784,0.00205,-94.09709,128.1013,-0.01215,61.57482,5.59923,-9.70509,0.00505,4.23803,-7.93042,0.00688,-0.27071,0.77093,5.38764,-21.90776,-1.27575,5.29116,5.60003,2.63142,1.75335
572,-1.46713,0.0,-0.0,-0.37452,-0.0,0.0,-2.6426,-7.73332,8.29778,19.30843,7.21998,-12.26811,-21.07531,0.27023,-0.00021,-22.02079,-3.19343,-7e-05,30.68628,10.69937,6.04611,4.14671,-4.53634,-9.83669,27.55245,7.41117,-26.44342,-4.33445,-13.03204,-1.48265,134.77815,0.02993,-91.53709,127.39616,-0.01953,60.1494,5.81466,-9.8439,0.01037,4.58564,-8.29498,-0.00739,-0.04385,0.7059,4.01593,-21.72246,-0.82997,3.99217,5.97013,2.12985,2.62405
573,-2.0119,-0.0,0.0,-0.40302,0.0,-0.0,-3.22964,-8.08897,7.06048,18.85513,6.92639,-12.81528,-20.38719,0.36738,0.00061,-21.68292,-3.01734,0.00096,30.86116,9.77969,5.57147,3.687,-4.64333,-10.34481,28.58356,7.44726,-27.38259,-6.5496,-11.76368,-2.84319,133.95001,0.03165,-87.76532,126.69687,-0.0109,59.34415,4.34886,-10.3188,0.02076,4.6973,-8.39841,-0.00538,-0.15207,0.48266,2.59241,-21.8619,-0.51119,2.58694,6.33644,1.66779,3.51098
574,-2.85286,0.0,-0.0,-0.70618,-0.0,-0.0,-3.64481,-8.32222,5.91478,18.47621,6.51775,-13.42536,-19.78748,0.5517,0.00072,-21.45677,-2.71555,0.00087,31.0147,8.74055,4.91858,3.14657,-4.75102,-10.94618,29.79842,7.51041,-28.723,-8.13883,-10.59972,-3.63468,133.36346,0.00897,-84.79517,126.00365,0.00586,60.18888,2.79264,-10.75106,0.01685,3.52913,-8.93138,0.01737,-0.31238,0.24587,1.16098,-22.04011,-0.20145,1.16951,6.51335,1.21214,4.30227
575,-3.69035,0.0,0.0,-1.1521,0.0,0.0,-3.95056,-8.44881,4.85955,18.09935,6.07593,-14.0238,-19.29258,0.77886,0.00041,-21.41759,-2.43463,0.00025,31.13453,7.70282,4.0617,2.614,-4.75591,-11.6683,30.8856,7.80284,-30.07274,-8.60284,-9.95664,-3.74843,133.16893,-0.00246,-84.26192,125.07932,0.00971,62.24535,2.83161,-10.81252,0.01172,1.19071,-10.0643,0.03775,-0.3158,0.05692,-0.25677,-22.04793,0.14795,-0.21744,6.43688,0.78217,5.01361
576,-4.24597,0.0,-0.0,-1.35388,0.0,0.0,-4.28303,-8.47598,3.93019,17.5644,5.79781,-14.62968,-18.89626,1.01043,3e-05,-21.58769,-2.22727,9e-05,31.26103,6.78556,3.00647,2.20831,-4.59692,-12.38477,31.75564,8.32457,-31.13082,-7.6848,-10.12516,-3.38066,133.2892,0.00103,-85.75386,123.67467,-0.01034,63.89082,4.66013,-10.74461,0.00561,-1.34377,-11.39277,0.02488,-0.2565,-0.09463,-1.6277,-21.98049,0.51471,-1.54709,6.20804,0.4597,5.72966
577,-4.4389,0.0,0.0,-1.08925,0.0,0.0,-4.6811,-8.38931,3.23096,16.80722,5.82433,-15.29533,-18.58704,1.21998,-0.00025,-21.94115,-2.03493,0.0004,31.41516,5.99727,1.83374,1.99209,-4.36128,-12.95208,32.49289,8.86168,-31.92044,-5.61145,-11.15382,-2.79106,133.43309,0.00185,-87.14322,121.9073,-0.01915,64.53414,6.82291,-11.06112,-0.00091,-3.45729,-12.31645,-0.00469,-0.36231,-0.23682,-2.905,-22.06779,0.85521,-2.78645,5.95946,0.29985,6.55534
578,-4.3255,0.0,0.0,-0.51844,-0.0,0.0,-5.07453,-8.18601,2.78692,15.9507,6.03653,-15.93878,-18.36266,1.40788,-0.00037,-22.44301,-1.80106,0.00068,31.59445,5.2455,0.74565,1.95939,-4.20665,-13.42397,33.08072,9.23064,-32.7452,-2.92881,-12.8692,-2.21908,133.27052,0.00502,-86.9941,120.20856,9e-05,65.06792,7.80659,-11.74929,0.00648,-5.12615,-12.56382,-0.02012,-0.7327,-0.40457,-4.15364,-22.40968,1.16085,-4.00883,5.73277,0.2671,7.58371
579,-4.08084,-0.0,0.0,0.05352,0.0,0.0,-5.4335,-7.91909,2.47858,15.20222,6.06071,-16.4231,-18.2011,1.59907,-0.0002,-23.0773,-1.49043,0.00026,31.78957,4.44019,-0.04807,2.0654,-4.21724,-13.96363,33.4266,9.42576,-33.97155,0.01682,-15.00727,-1.91019,132.59949,0.0083,-85.83923,118.8784,0.00409,65.64893,7.48728,-11.96603,0.00786,-6.05051,-12.47142,-0.01758,-1.26134,-0.62199,-5.5741,-22.89328,1.48295,-5.40959,5.4516,0.24573,8.8448
580,-3.95937,0.0,0.0,0.50869,0.0,-0.0,-5.86657,-7.73394,2.12878,14.65527,5.66813,-16.71942,-18.04803,1.83427,0.00028,-23.84561,-1.0782,-0.00089,31.99639,3.56098,-0.4678,2.2781,-4.38377,-14.63721,33.60693,9.58019,-35.69777,3.32483,-17.34649,-2.0222,131.46149,0.00072,-84.87084,117.90617,-0.01423,65.1089,6.83429,-10.76998,0.00542,-5.63752,-12.58776,-0.01647,-1.7575,-0.86936,-7.2923,-23.31743,1.88532,-7.09881,5.00327,0.10775,10.28413
581,-4.10772,0.0,0.0,0.90826,0.0,-0.0,-6.49346,-7.73918,1.63351,14.21451,5.07819,-16.89219,-17.87701,2.11884,0.0006,-24.75704,-0.60072,-0.00171,32.24355,2.66921,-0.58994,2.62975,-4.66143,-15.38616,33.8289,9.89042,-37.59278,7.24784,-19.70598,-2.46472,130.20018,-0.00714,-84.47495,117.17107,-0.0189,63.24258,6.56944,-8.34571,0.0116,-4.10987,-13.06715,-0.01643,-2.15424,-1.09826,-9.17918,-23.61353,2.36417,-8.9392,4.37392,-0.19443,11.79995
582,-4.54507,0.0,-0.0,1.28925,0.0,-0.0,-7.22445,-7.85625,1.07145,13.73002,4.6741,-17.0238,-17.71862,2.35173,0.00029,-25.81499,-0.14509,-0.00165,32.54257,1.90325,-0.60046,3.17053,-4.99751,-16.05962,34.15392,10.53755,-39.15512,11.86618,-21.88064,-2.88225,129.29108,-0.00204,-84.28089,116.54675,-0.00067,61.61329,6.39687,-6.12578,0.00814,-2.66397,-13.63987,-0.00437,-2.57749,-1.30125,-10.91906,-23.92382,2.81001,-10.63453,3.66828,-0.59364,13.31703
583,-5.28847,0.0,-0.0,1.58391,0.0,0.0,-7.78655,-7.91999,0.66293,13.18012,4.57875,-17.16512,-17.59827,2.39235,-0.00026,-27.01338,0.22414,-0.00076,32.81187,1.40822,-0.69712,3.88514,-5.33923,-16.46265,34.40791,11.58304,-40.08066,17.04323,-23.71224,-2.90711,129.0508,0.0132,-83.99712,115.85844,0.01628,61.35009,5.56102,-5.4103,0.01048,-2.21997,-13.96393,0.00717,-3.16085,-1.53709,-12.23663,-24.40713,3.06868,-11.94914,3.00048,-0.98261,14.84926
584,-6.21497,0.0,-0.0,1.70373,0.0,0.0,-8.02161,-7.85455,0.52131,12.69642,4.69939,-17.25769,-17.51376,2.24271,-0.00046,-28.36247,0.47121,0.00092,32.96791,1.18588,-0.96846,4.72243,-5.68227,-16.55443,34.39786,12.89853,-40.33987,22.43228,-25.24613,-2.51306,129.59398,0.02673,-83.69849,114.99128,0.00911,61.73057,3.91227,-6.2783,0.02128,-2.69363,-13.7684,0.00621,-3.86406,-1.86357,-13.06859,-25.03779,3.06518,-12.8438,2.42678,-1.33399,16.47813
585,-7.06865,0.0,0.0,1.71486,0.0,-0.0,-8.02305,-7.75994,0.52976,12.40583,4.95275,-17.19782,-17.49302,2.06914,-0.00031,-29.89151,0.6029,0.00209,33.05611,1.05577,-1.36723,5.65559,-6.10607,-16.49588,34.17112,14.20234,-40.05656,27.5615,-26.72968,-2.02309,130.92477,0.00979,-83.11903,114.00211,-0.0142,61.50865,1.95736,-7.96127,0.0182,-3.51321,-12.8775,-0.00016,-4.52795,-2.29115,-13.53085,-25.65477,2.83308,-13.42969,1.94767,-1.73068,18.26109
586,-7.68819,-0.0,0.0,1.83331,0.0,0.0,-7.98702,-7.81424,0.49873,12.27567,5.26802,-16.98429,-17.57732,2.00619,-0.0002,-31.5925,0.6891,0.002,33.19627,0.82711,-1.77822,6.66995,-6.70674,-16.46225,34.00769,15.20155,-39.4009,32.14171,-28.3979,-1.67076,132.79938,-0.04355,-81.27934,113.00318,-0.01965,60.75776,0.00987,-9.82837,0.0158,-4.32811,-11.36763,-0.00546,-5.01983,-2.81375,-13.76894,-26.1172,2.43123,-13.84025,1.53793,-2.26854,20.1518
587,-7.9764,0.0,0.0,2.1547,0.0,0.0,-8.0557,-8.00138,0.31964,12.14821,5.56259,-16.68428,-17.73632,2.03306,-0.00012,-33.38224,0.79774,0.00166,33.43641,0.45479,-2.08645,7.72435,-7.5093,-16.54962,34.13321,15.78237,-38.46638,36.28506,-30.27368,-1.20776,134.60812,-0.06217,-77.69422,112.0184,0.00424,60.79942,-1.89768,-11.83437,0.02005,-5.2732,-9.67567,-0.01023,-5.2992,-3.40037,-13.8952,-26.37721,1.92925,-14.16918,1.18901,-2.96308,21.96893
588,-7.96452,-0.0,-0.0,2.5734,-0.0,0.0,-8.22772,-8.14362,0.00362,11.89601,5.80917,-16.37781,-17.88246,2.0704,5e-05,-35.14214,0.9701,0.0008,33.69008,-0.00015,-2.21454,8.72811,-8.47477,-16.71551,34.45581,16.10458,-37.17056,40.34776,-32.18697,-0.05241,135.72905,-0.01522,-73.66743,110.98792,0.02802,62.3218,-3.3269,-14.15081,0.00066,-6.67317,-8.44236,-0.00453,-5.39591,-3.95446,-13.99853,-26.45858,1.44929,-14.46473,0.88758,-3.77661,23.46542
589,-7.90419,0.0,0.0,3.01486,0.0,0.0,-8.38996,-8.20428,-0.37872,11.50149,6.02187,-16.16441,-17.9658,2.10276,0.00014,-36.78465,1.25755,-0.00142,33.83213,-0.49055,-2.12069,9.58358,-9.55215,-16.78357,34.64462,16.42411,-35.44045,44.59101,-33.92484,2.1149,136.03241,0.02259,-71.37092,109.83382,0.01927,64.24155,-3.60052,-16.44249,-0.03224,-8.43281,-8.09383,0.01202,-5.34404,-4.3648,-14.12167,-26.39193,1.11046,-14.72683,0.5726,-4.68978,24.49237
