PaulMeinheit/Bachelor_Muay_Thai/processed_Data/N1/teep/sliced/JointAngles/sliced4.csv
Unnamed: 0_level_0,L_MTP_ANGLE,L_MTP_ANGLE,L_MTP_ANGLE,R_MTP_ANGLE,R_MTP_ANGLE,R_MTP_ANGLE,L_ANKLE_ANGLE,L_ANKLE_ANGLE,L_ANKLE_ANGLE,R_ANKLE_ANGLE,R_ANKLE_ANGLE,R_ANKLE_ANGLE,L_KNEE_ANGLE,L_KNEE_ANGLE,L_KNEE_ANGLE,R_KNEE_ANGLE,R_KNEE_ANGLE,R_KNEE_ANGLE,L_HIP_ANGLE,L_HIP_ANGLE,L_HIP_ANGLE,R_HIP_ANGLE,R_HIP_ANGLE,R_HIP_ANGLE,L_SHOULDER_ANGLE,L_SHOULDER_ANGLE,L_SHOULDER_ANGLE,R_SHOULDER_ANGLE,R_SHOULDER_ANGLE,R_SHOULDER_ANGLE,L_ELBOW_ANGLE,L_ELBOW_ANGLE,L_ELBOW_ANGLE,R_ELBOW_ANGLE,R_ELBOW_ANGLE,R_ELBOW_ANGLE,L_WRIST_ANGLE,L_WRIST_ANGLE,L_WRIST_ANGLE,R_WRIST_ANGLE,R_WRIST_ANGLE,R_WRIST_ANGLE,NECK_ANGLE,NECK_ANGLE,NECK_ANGLE,NECK_ANGLE_SHADOW,NECK_ANGLE_SHADOW,NECK_ANGLE_SHADOW,Trunk_Joint_Angle,Trunk_Joint_Angle,Trunk_Joint_Angle
ITEM,X,Y,Z,X,Y,Z,X,Y,Z,X,Y,Z,X,Y,Z,X,Y,Z,X,Y,Z,X,Y,Z,X,Y,Z,X,Y,Z,X,Y,Z,X,Y,Z,X,Y,Z,X,Y,Z,X,Y,Z,X,Y,Z,X,Y,Z
2294,-1.39308,0.0,0.0,-1.36959,-0.0,-0.0,-0.33694,-7.69365,10.02743,13.92673,7.76602,-4.36078,-20.50635,1.13875,0.00039,-7.92786,0.39417,-0.00022,29.18713,7.85191,4.28731,-0.66789,-3.68371,-14.54701,29.82153,6.59125,-18.1884,24.96404,-12.01332,19.73013,124.2308,-0.00134,-93.71725,132.19759,0.00601,84.83922,0.43292,5.3059,-0.00952,-1.37891,0.04472,0.0005,-0.26881,1.96185,-0.30589,-22.01381,1.93561,0.44254,4.83518,-2.54424,8.40458
2295,-1.12756,0.0,-0.0,-0.82931,0.0,0.0,-0.41688,-7.79102,9.95366,13.90629,7.84914,-4.08267,-20.32952,1.14884,-0.00025,-8.41393,0.15529,0.0004,29.03428,7.59737,4.33549,-0.40651,-3.86905,-14.72951,29.92395,6.40936,-18.74232,24.83025,-11.9851,19.41855,124.49934,0.00197,-93.89439,132.32774,-0.00015,83.66074,2.70105,5.07865,0.0112,-1.24829,-0.15577,-0.00063,0.06622,1.86149,-0.56923,-21.67804,1.9399,0.16075,4.94631,-2.71215,8.45369
2296,-1.69764,-0.0,0.0,-1.19421,0.0,-0.0,-0.2285,-8.15932,10.19164,14.04717,8.23598,-3.95425,-20.21994,1.04646,-0.00031,-8.9899,-0.11794,0.00123,28.864,7.43213,4.08849,-0.14697,-4.01323,-14.75142,30.20126,6.24669,-19.36995,24.81027,-11.92466,19.08148,124.54223,0.00223,-93.82777,132.15555,-0.00252,82.74864,4.38686,5.08316,0.00989,-1.16976,-1.06678,0.00022,0.36204,1.68896,-0.9112,-21.38,1.90627,-0.22087,4.99831,-2.88333,8.65937
2297,-2.54719,-0.0,0.0,-1.88444,0.0,-0.0,0.08421,-8.6158,10.43864,14.27984,8.66977,-4.1133,-20.16031,1.02137,1e-05,-9.60089,-0.38914,0.00098,28.72168,7.25291,3.91741,0.11332,-4.15625,-14.58332,30.66848,6.06394,-20.02005,24.83962,-11.87274,18.70181,124.65565,0.00111,-93.61599,131.95224,0.00026,81.98234,5.40612,4.62386,-0.00294,-1.09336,-2.06629,0.00187,0.74599,1.61302,-1.26145,-20.9942,1.96541,-0.5744,4.95965,-3.11838,8.95269
2298,-2.89185,0.0,-0.0,-2.15222,-0.0,0.0,0.25336,-8.82443,10.43065,14.45971,8.82482,-4.5712,-20.09069,1.14399,0.00028,-10.1385,-0.58573,-0.00025,28.6093,6.98127,4.01538,0.33612,-4.33507,-14.27863,31.15311,5.87065,-20.70857,24.84668,-11.80345,18.311,125.06284,0.00151,-93.59815,131.98949,0.00262,81.38539,5.81659,3.43875,-0.00472,-0.92443,-2.46004,0.00271,1.26224,1.71503,-1.53139,-20.47812,2.16011,-0.78739,4.83702,-3.43512,9.18108
2299,-2.62909,0.0,0.0,-1.83483,-0.0,-0.0,0.22185,-8.60096,10.25903,14.52629,8.58363,-5.24485,-19.97981,1.27344,0.00019,-10.56622,-0.70056,-0.00105,28.49808,6.66127,4.19565,0.50326,-4.5128,-13.87483,31.48423,5.71654,-21.43773,24.84268,-11.702,17.98737,125.67483,0.00256,-93.82798,132.23003,0.00086,81.46532,5.66861,2.05195,0.00225,-0.74771,-2.17953,0.00228,1.81756,1.95082,-1.70439,-19.9254,2.44318,-0.86072,4.66969,-3.76767,9.25679
2300,-2.35231,0.0,0.0,-1.3394,-0.0,0.0,0.17319,-8.12895,10.1866,14.53053,8.09886,-5.94201,-19.85586,1.2639,-6e-05,-10.97201,-0.80843,-0.00082,28.38448,6.37944,4.20044,0.67622,-4.64328,-13.45739,31.63619,5.64585,-22.03054,24.92809,-11.58101,17.86275,126.28249,0.00072,-94.04059,132.32494,-0.00079,82.24516,5.19004,1.01594,0.00338,-0.8306,-2.0371,0.00526,2.29255,2.18832,-1.80064,-19.45382,2.69941,-0.86208,4.51547,-4.04005,9.19217
2301,-2.33283,0.0,0.0,-0.98328,-0.0,0.0,0.16496,-7.71265,10.1561,14.50381,7.652,-6.38403,-19.76366,1.17212,-5e-05,-11.45896,-0.98527,0.00012,28.31933,6.1402,4.09371,0.94356,-4.75253,-13.25773,31.71523,5.6568,-22.26573,25.16751,-11.44266,17.99199,126.83275,-0.00329,-93.87625,132.00763,-0.00758,82.63339,4.89425,0.25505,-0.00268,-1.2178,-2.79808,0.01205,2.63492,2.29336,-1.85213,-19.11303,2.81604,-0.87096,4.42829,-4.25403,9.02208
2302,-2.1042,0.0,0.0,-0.68698,-0.0,0.0,0.01699,-7.43872,9.81106,14.40864,7.47368,-6.39971,-19.72107,1.17215,7e-05,-12.04863,-1.25306,0.00099,28.35158,5.89977,4.18344,1.32501,-4.88605,-13.45995,31.8579,5.70063,-22.2166,25.45977,-11.29579,18.19246,127.34221,-0.00459,-93.27337,131.44693,-0.01581,81.8231,5.13601,-0.49471,-0.00842,-1.57345,-3.95931,0.01019,2.83095,2.24037,-1.91386,-18.91568,2.78967,-0.94798,4.42154,-4.46055,8.79264
2303,-1.47561,0.0,0.0,-0.38263,-0.0,0.0,-0.28718,-7.28995,9.16416,14.26494,7.5832,-6.19901,-19.72692,1.30495,0.0,-12.7163,-1.56469,0.00088,28.43657,5.67428,4.48972,1.73433,-5.01092,-13.84221,32.11331,5.73239,-22.21859,25.61296,-11.17216,18.15796,127.72715,-0.00166,-92.52665,131.06081,-0.01264,80.6229,5.63458,-1.02905,-0.00796,-1.52894,-4.23959,0.00667,2.88776,2.12487,-2.00422,-18.85622,2.71585,-1.07479,4.4276,-4.6573,8.57764
2304,-1.12622,0.0,-0.0,-0.23769,0.0,0.0,-0.43427,-7.3813,8.74667,14.18686,7.81387,-6.21559,-19.76407,1.45025,-0.00011,-13.44233,-1.83737,-0.0003,28.45679,5.52074,4.63858,2.05867,-5.04659,-13.92576,32.39765,5.75388,-22.46529,25.57048,-11.08607,17.81177,127.91772,0.00123,-91.94811,130.98349,-0.00669,80.43607,5.76763,-0.87075,-0.01005,-1.11,-3.44935,0.00682,2.87065,2.04324,-2.07257,-18.87141,2.66533,-1.16857,4.3468,-4.77502,8.43211
2305,-1.64505,-0.0,0.0,-0.33744,0.0,0.0,-0.21168,-7.7869,8.88289,14.23429,8.04063,-6.60415,-19.78578,1.51772,-0.00013,-14.20539,-2.03886,-0.0013,28.34938,5.43787,4.39594,2.27619,-4.98361,-13.55226,32.60225,5.78434,-22.84295,25.48873,-11.02792,17.44096,127.98669,0.00169,-91.7131,130.89449,0.00133,81.51847,5.36569,-0.02616,-0.01484,-0.81547,-2.99127,0.01035,2.88201,2.01169,-2.12055,-18.85913,2.65379,-1.22486,4.15267,-4.77478,8.36722
2306,-2.57875,0.0,0.0,-0.50889,0.0,0.0,0.14723,-8.25399,9.22945,14.34362,8.28953,-7.09134,-19.74627,1.55082,1e-05,-15.01402,-2.22578,-0.00068,28.18559,5.34778,3.99023,2.4994,-4.91223,-13.06436,32.72388,5.80721,-23.13373,25.54973,-10.99835,17.37392,128.02266,0.0012,-91.67092,130.45807,0.00873,82.99518,4.91094,0.79113,-0.01029,-1.20929,-4.03949,0.03044,2.99558,2.01637,-2.26061,-18.74448,2.70998,-1.35328,3.91903,-4.70583,8.35928
2307,-2.99341,0.0,-0.0,-0.59817,0.0,0.0,0.25288,-8.42032,9.2637,14.44746,8.60882,-7.38083,-19.64083,1.63225,0.00035,-15.95013,-2.46666,0.0012,28.0827,5.18432,3.78796,2.88259,-4.91886,-12.83589,32.82306,5.78164,-23.22058,25.73716,-11.01068,17.59069,128.02065,0.00166,-91.14659,129.78925,0.00613,83.99084,4.80795,0.84731,-0.00339,-2.28436,-5.92392,0.0365,3.23337,2.07523,-2.54735,-18.50502,2.87079,-1.59795,3.73911,-4.64663,8.34158
2308,-2.71149,0.0,-0.0,-0.6786,0.0,-0.0,0.07855,-8.24652,8.97656,14.54473,8.9278,-7.54165,-19.47382,1.74452,0.00066,-17.09121,-2.74132,0.00212,28.04292,4.9725,3.86572,3.46623,-5.00614,-12.80287,32.92297,5.67892,-23.13803,25.85431,-11.08061,17.77315,127.97478,0.00263,-89.51537,129.32021,0.00115,84.17096,4.91387,0.07602,0.0001,-3.30855,-6.99589,0.01415,3.55769,2.21186,-2.87495,-18.17968,3.11895,-1.85178,3.63742,-4.64063,8.25432
2309,-2.30354,0.0,-0.0,-0.78512,0.0,-0.0,-0.10942,-7.94653,8.70493,14.61038,9.09205,-7.77723,-19.19613,1.80331,0.00067,-18.40338,-2.9659,0.0011,27.96217,4.76033,4.10499,4.17869,-5.16087,-12.68835,33.02278,5.50216,-22.98126,25.75066,-11.2033,17.70843,127.93969,0.00207,-87.16544,129.28207,0.00092,83.7882,5.08597,-1.01869,0.00034,-3.60875,-6.57742,0.00385,3.87748,2.38113,-3.12099,-17.86037,3.36723,-2.01772,3.59783,-4.72732,8.11781
2310,-2.21244,0.0,0.0,-0.73166,0.0,-0.0,-0.18675,-7.63999,8.57915,14.56468,9.03076,-8.0757,-18.7484,1.76462,6e-05,-19.77156,-3.09363,-0.00038,27.77553,4.54134,4.42463,4.94282,-5.40622,-12.42712,33.12373,5.31019,-22.76806,25.4682,-11.32405,17.47795,127.93707,0.00064,-85.47282,129.51343,0.00072,83.41828,5.61695,-1.81188,0.00225,-3.33506,-5.33722,0.00406,4.1121,2.47373,-3.28596,-17.62559,3.51429,-2.13674,3.61122,-4.94569,7.98967
2311,-2.56795,0.0,0.0,-0.42723,0.0,-0.0,-0.21733,-7.36139,8.55412,14.37723,8.85226,-8.40232,-18.18284,1.61304,-0.00096,-21.09494,-3.13426,-0.00107,27.50958,4.32999,4.66833,5.68638,-5.70066,-12.05623,33.20993,5.18255,-22.49428,25.16706,-11.38475,17.23335,127.88757,-0.00363,-85.62289,129.73734,-0.00018,83.29865,6.6815,-1.89839,0.01122,-3.02254,-4.19931,0.00034,4.23736,2.43176,-3.45812,-17.4969,3.539,-2.31239,3.63532,-5.24253,7.88503
2312,-3.22449,0.0,-0.0,-0.05554,0.0,0.0,-0.28197,-7.18462,8.58762,14.07499,8.71854,-8.83996,-17.65111,1.37344,-0.00123,-22.31549,-3.11455,-0.00082,27.25574,4.18253,4.65,6.35247,-5.92544,-11.56804,33.25893,5.13979,-22.29114,24.9692,-11.40318,17.0143,127.70129,-0.00957,-87.48564,129.83167,-0.00034,83.22998,7.77148,-1.41885,0.01365,-2.82246,-3.55515,-0.00211,4.25982,2.3137,-3.68899,-17.46809,3.51474,-2.57087,3.62521,-5.48186,7.77166
2313,-3.6711,-0.0,0.0,0.16865,0.0,0.0,-0.4338,-7.12973,8.55963,13.66359,8.66547,-9.35242,-17.25303,1.16617,-0.00042,-23.42597,-3.05571,7e-05,27.12113,4.09232,4.44321,6.96847,-6.03975,-11.05073,33.24306,5.15509,-22.30438,24.87995,-11.43843,16.85627,127.41297,-0.007,-89.64746,129.83299,-0.00011,83.1404,8.15336,-0.97451,0.00748,-2.62446,-3.31795,-0.00189,4.19733,2.22124,-3.92703,-17.52432,3.51689,-2.82654,3.6176,-5.57996,7.60233
2314,-3.4887,0.0,-0.0,0.1855,-0.0,-0.0,-0.66924,-7.14489,8.33669,13.15319,8.62211,-9.70689,-16.96189,1.12294,0.00052,-24.50108,-2.97803,0.00127,27.12243,3.99268,4.31726,7.62446,-6.12588,-10.68379,33.11174,5.22656,-22.4663,24.82338,-11.49276,16.84509,127.15255,0.00206,-90.75454,129.82939,-5e-05,83.20228,7.64064,-0.86571,0.00258,-2.48682,-3.26594,-0.00073,4.09674,2.20862,-4.08556,-17.62165,3.56379,-2.97866,3.66349,-5.55931,7.36302
2315,-2.94028,-0.0,0.0,0.0913,0.0,-0.0,-0.88618,-7.25012,7.97767,12.59395,8.538,-9.7097,-16.69244,1.25514,0.00097,-25.65574,-2.88968,0.00154,27.14055,3.86691,4.40515,8.36121,-6.27106,-10.52146,32.84032,5.37711,-22.60833,24.74565,-11.53335,16.99228,126.96113,0.00544,-90.82188,129.88521,-0.00078,83.51352,6.62771,-0.70659,-0.00448,-2.62903,-3.2771,0.00052,4.03453,2.25851,-4.14108,-17.68393,3.63066,-3.01181,3.70903,-5.49001,7.10814
2316,-2.85848,-0.0,0.0,0.10076,-0.0,-0.0,-0.92312,-7.52518,7.7186,12.00028,8.40477,-9.45328,-16.40439,1.44597,0.00069,-26.93578,-2.74271,-0.0007,27.0407,3.77889,4.58648,9.12873,-6.46806,-10.35528,32.52054,5.59079,-22.69931,24.6553,-11.57786,17.21644,126.70323,-0.00202,-90.93597,130.02332,-0.00212,84.01902,5.69127,-0.11708,-0.00767,-3.21175,-3.31347,0.00039,4.07539,2.29982,-4.12881,-17.64429,3.66451,-2.98507,3.6409,-5.42475,6.92639
2317,-3.75025,0.0,0.0,0.4052,-0.0,0.0,-0.72235,-7.89062,7.68365,11.31835,8.2233,-9.19642,-16.13287,1.55508,2e-05,-28.29725,-2.48637,-0.00364,26.83627,3.79063,4.66989,9.88285,-6.64377,-9.94625,32.35899,5.77848,-22.80097,24.5535,-11.65885,17.44137,126.21114,-0.01463,-91.83825,130.24878,-0.00201,84.4892,5.30293,0.60623,-0.00254,-4.10905,-3.25912,-0.00187,4.22342,2.26845,-4.07557,-17.49655,3.61567,-2.94718,3.44721,-5.3795,6.85285
2318,-5.02686,0.0,0.0,0.92653,-0.0,-0.0,-0.4648,-8.08137,7.67865,10.53313,8.03392,-9.01165,-15.92891,1.53661,-0.00023,-29.68432,-2.18768,-0.00321,26.69425,3.87908,4.62159,10.66806,-6.76646,-9.40456,32.51598,5.82237,-22.89562,24.42001,-11.74667,17.59993,125.50552,-0.01433,-93.03468,130.53683,0.00121,84.3952,5.54949,0.85961,-0.00013,-4.76931,-2.98636,-0.0015,4.41234,2.18213,-3.98005,-17.30744,3.50016,-2.89034,3.26354,-5.34516,6.81437
2319,-5.47994,-0.0,-0.0,1.32065,0.0,-0.0,-0.44182,-7.92454,7.37692,9.71525,7.90527,-8.73621,-15.7795,1.46305,0.0001,-31.05837,-2.00631,0.00119,26.73983,3.9597,4.61871,11.54567,-6.88132,-9.1226,32.93268,5.69396,-22.88228,24.30826,-11.79665,17.62446,124.78999,0.00027,-93.40598,130.79543,0.00343,83.31224,5.95711,0.5808,-0.00141,-4.636,-2.60667,0.00229,4.55785,2.13457,-3.85198,-17.16322,3.40862,-2.78887,3.22202,-5.30717,6.69695
2320,-4.78569,0.0,0.0,1.45061,0.0,-0.0,-0.72042,-7.54084,6.74526,8.90121,7.8939,-8.30481,-15.59459,1.41858,0.00041,-32.37096,-2.00765,0.0046,26.87411,3.97495,4.85294,12.47375,-7.05689,-9.26031,33.38166,5.51372,-22.70195,24.33781,-11.82541,17.54702,124.18828,0.00746,-92.77083,130.92142,0.00172,81.68566,5.80982,0.4216,-0.00841,-3.95083,-2.46798,0.00396,4.63815,2.21413,-3.72855,-17.08686,3.43687,-2.64459,3.29406,-5.28353,6.48452
2321,-4.16565,-0.0,0.0,1.63631,0.0,-0.0,-1.00522,-7.23842,6.19787,8.03778,8.09929,-7.98378,-15.29244,1.3795,2e-05,-33.58646,-2.03535,0.00257,26.85389,3.92037,5.22786,13.32121,-7.33787,-9.45258,33.6914,5.42582,-22.42368,24.52424,-11.86484,17.48929,123.618,-0.00058,-92.21994,130.93625,0.00061,80.64611,4.75916,0.89037,-0.02186,-3.58486,-2.87027,0.00842,4.69706,2.43606,-3.63405,-17.03457,3.60808,-2.47439,3.32685,-5.34263,6.28327
2322,-4.80302,0.0,-0.0,2.09495,0.0,0.0,-1.00243,-7.15938,6.09655,7.10951,8.5516,-8.00294,-14.88341,1.26862,-0.00082,-34.71319,-1.88303,-0.00173,26.56789,3.8047,5.4513,14.0075,-7.73137,-9.27271,33.85691,5.45836,-22.21116,24.71894,-11.89629,17.4775,122.98434,-0.0106,-92.56386,131.01546,0.00018,80.75769,3.0889,1.55497,-0.01735,-3.8073,-3.80517,0.0113,4.76486,2.7125,-3.56465,-16.9745,3.8392,-2.30726,3.22497,-5.53875,6.18495
2323,-6.21303,0.0,0.0,2.55806,0.0,-0.0,-0.81095,-7.15985,6.25734,6.20793,9.00632,-8.11893,-14.44304,1.11468,-0.00085,-35.76857,-1.55788,-0.0028,26.15172,3.64011,5.47086,14.57873,-8.20327,-8.80947,33.96059,5.56492,-22.16809,24.80253,-11.89165,17.43756,122.3409,-0.0084,-93.28236,131.3138,-0.00113,81.53117,1.48986,1.58411,0.00192,-3.95058,-4.92491,0.00244,4.83517,2.89419,-3.52704,-16.90935,3.99404,-2.20483,3.04112,-5.82435,6.1612
2324,-7.20461,0.0,-0.0,2.83336,0.0,0.0,-0.72093,-7.20245,6.29879,5.40377,9.15479,-7.94208,-14.03506,1.04436,3e-05,-36.76815,-1.22272,-0.00085,25.81025,3.46727,5.51705,15.14642,-8.67872,-8.42643,34.0816,5.71247,-22.21287,24.85281,-11.86451,17.37695,121.79748,0.0003,-93.41858,131.76631,-0.00176,82.41859,0.56335,0.97654,0.00676,-3.5044,-5.80198,-0.00527,4.90484,2.8964,-3.53089,-16.83968,3.99752,-2.20759,2.88642,-6.07062,6.13592
2325,-7.46235,-0.0,0.0,3.12463,0.0,0.0,-0.82516,-7.48861,6.15585,4.66056,8.93609,-7.43928,-13.69048,1.12275,0.00071,-37.76644,-0.96404,0.00038,25.62497,3.34341,5.76305,15.79307,-9.08482,-8.23154,34.25642,5.86572,-22.16486,25.02149,-11.8554,17.36877,121.43847,0.00364,-92.92959,132.13896,-0.00065,83.34173,0.43108,0.5628,0.00345,-2.77185,-6.27194,-0.00387,4.97375,2.76424,-3.53251,-16.76739,3.87536,-2.25817,2.81505,-6.19038,6.09175
2326,-7.33953,0.0,-0.0,3.47064,0.0,0.0,-1.03189,-8.03292,5.95446,3.93551,8.46758,-6.84573,-13.43072,1.28247,0.00058,-38.81512,-0.74727,-0.00036,25.55402,3.29052,6.15185,16.50293,-9.40357,-8.10852,34.44404,5.97209,-21.93724,25.3133,-11.89056,17.39614,121.37141,0.0055,-92.73653,132.28348,0.00112,84.09345,0.84879,0.74765,0.0031,-2.22424,-6.41734,-0.00015,5.03469,2.60351,-3.45992,-16.70356,3.69921,-2.25033,2.7965,-6.19924,6.03005
2327,-7.08219,0.0,0.0,3.52618,-0.0,0.0,-1.23636,-8.51413,5.75418,3.28626,7.92862,-6.33999,-13.26943,1.39779,0.00011,-39.86258,-0.54015,-0.00103,25.53289,3.28462,6.4832,17.169,-9.66017,-8.01735,34.56224,6.01155,-21.61219,25.59661,-11.94235,17.363,121.65798,0.01169,-93.52733,132.26744,0.00127,84.25187,1.52506,1.03187,-2e-05,-1.82932,-6.22569,0.00447,5.1045,2.5018,-3.30506,-16.63357,3.54743,-2.14408,2.76257,-6.15552,5.91638
2328,-6.70106,0.0,-0.0,3.06725,0.0,-0.0,-1.39413,-8.65256,5.58006,2.81088,7.58066,-5.93896,-13.18878,1.39633,-0.00013,-40.78405,-0.38897,-0.00018,25.53423,3.29193,6.61332,17.71047,-9.8853,-8.01845,34.60073,6.0097,-21.35341,25.79169,-11.94556,17.22534,122.13364,0.01156,-94.81803,132.24208,0.00097,83.70786,2.19888,0.89976,-0.00383,-1.31867,-5.59624,0.00955,5.22916,2.49887,-3.13456,-16.51112,3.48162,-1.98665,2.68233,-6.10099,5.75401
2329,-6.07857,-0.0,0.0,2.24296,-0.0,-0.0,-1.54602,-8.46626,5.4658,2.52263,7.62654,-5.57157,-13.1408,1.29964,-0.00014,-41.5195,-0.35123,0.00098,25.55355,3.29771,6.58092,18.14631,-10.09894,-8.11316,34.65396,5.99845,-21.26432,25.94887,-11.88742,17.04838,122.4668,0.00473,-95.59516,132.25861,0.00059,82.77881,2.68132,0.48022,-0.00284,-0.74294,-4.78173,0.00825,5.41016,2.56235,-3.0104,-16.3331,3.49464,-1.84767,2.58607,-6.05775,5.61569
2330,-5.22089,0.0,0.0,1.36685,-0.0,-0.0,-1.73304,-8.15551,5.3925,2.34479,7.96701,-5.17929,-13.0907,1.17289,-9e-05,-42.11212,-0.39446,0.00102,25.56556,3.31376,6.52283,18.51336,-10.29978,-8.20901,34.80249,5.99877,-21.32927,26.14656,-11.83762,16.93936,122.49856,0.00239,-95.73753,132.26532,-0.00011,81.98289,2.98265,0.1525,-0.00018,-0.39493,-4.36229,0.00287,5.55029,2.6042,-2.92143,-16.19495,3.50058,-1.74942,2.50496,-6.03373,5.53803
2331,-4.48836,0.0,0.0,0.70156,-0.0,0.0,-1.88404,-7.94011,5.29533,2.20248,8.28269,-4.77823,-13.04733,1.06951,-3e-05,-42.62329,-0.42113,0.0002,25.52603,3.36288,6.53104,18.79519,-10.46433,-8.21241,34.99126,6.03067,-21.45559,26.3803,-11.85419,16.95086,122.42069,0.00377,-95.93064,132.24307,-0.00019,81.74681,3.26075,0.02574,0.00135,-0.39227,-4.55119,0.00127,5.54349,2.57241,-2.79002,-16.20248,3.42241,-1.63906,2.42208,-6.02589,5.47801
2332,-4.2807,-0.0,0.0,0.32146,-0.0,0.0,-1.88536,-7.97454,5.18239,2.06982,8.39316,-4.4684,-13.03807,1.01338,2e-05,-43.07238,-0.3844,-0.00038,25.43498,3.46021,6.59865,18.98701,-10.55468,-8.10089,35.09228,6.10857,-21.53935,26.59048,-11.92036,17.05962,122.54105,0.00169,-96.16962,132.24394,-0.0001,82.11712,3.62252,0.09445,0.00275,-0.69307,-4.93513,0.00095,5.40866,2.50723,-2.59254,-16.33788,3.28878,-1.47969,2.31642,-6.01267,5.40335
2333,-4.56248,0.0,0.0,0.11121,0.0,-0.0,-1.72295,-8.23313,5.16676,1.95832,8.35977,-4.35281,-13.07072,0.99291,4e-05,-43.45134,-0.31261,-0.0004,25.36538,3.60338,6.62634,19.14411,-10.54219,-7.92445,35.07917,6.21002,-21.53312,26.76585,-11.99491,17.19446,122.96313,-0.00851,-95.59717,132.28551,4e-05,82.91892,3.96052,0.50238,0.00273,-1.32341,-5.04345,-0.00232,5.27243,2.47429,-2.45992,-16.47465,3.2091,-1.36865,2.21255,-5.94744,5.33338
2334,-4.80788,0.0,0.0,-0.03824,-0.0,-0.0,-1.52823,-8.42081,5.27378,1.88339,8.24483,-4.37201,-13.12316,0.97783,5e-05,-43.74844,-0.24683,-0.00019,25.38405,3.76078,6.52451,19.30941,-10.44969,-7.77236,35.05518,6.26416,-21.52757,26.94454,-12.07489,17.26488,123.54102,-0.01379,-94.10781,132.30257,0.0008,83.9936,3.90092,1.23939,-0.00094,-2.2083,-4.76209,-0.00576,5.23345,2.47288,-2.53138,-16.51295,3.23424,-1.43559,2.14374,-5.799,5.28435
2335,-4.40556,0.0,0.0,-0.11648,0.0,-0.0,-1.50031,-8.16876,5.33668,1.82763,7.98494,-4.30571,-13.15041,0.94458,0.0,-43.94669,-0.22592,0.0,25.4577,3.88711,6.32836,19.44703,-10.34332,-7.73364,35.12319,6.19442,-21.75871,27.122,-12.19419,17.21307,124.0229,-0.00697,-93.02507,132.21913,0.00072,84.89362,3.07808,1.86616,0.00054,-2.8946,-4.18073,-0.00234,5.27821,2.44614,-2.74027,-16.46555,3.28672,-1.63968,2.10241,-5.59882,5.24465
2336,-3.48005,0.0,-0.0,-0.16366,0.0,0.0,-1.67247,-7.55645,5.27857,1.77096,7.60523,-4.09871,-13.11576,0.87732,-0.0001,-44.03045,-0.26106,6e-05,25.4823,3.95604,6.13206,19.48518,-10.27601,-7.7947,35.30836,5.98458,-22.36499,27.23381,-12.37281,17.05359,124.21341,-0.0044,-93.68481,132.02322,-0.00161,85.03301,1.69649,1.99109,0.00887,-2.83966,-3.48026,0.00564,5.3179,2.36261,-2.90229,-16.42226,3.2691,-1.82128,2.06237,-5.43103,5.20689
2337,-3.02649,0.0,-0.0,-0.3722,0.0,0.0,-1.8232,-7.18897,5.25852,1.73239,7.35277,-3.99902,-13.03323,0.78521,-0.00014,-44.00823,-0.28952,0.00011,25.40534,3.95782,6.00596,19.39887,-10.27141,-7.79851,35.56917,5.72055,-23.07985,27.24596,-12.58179,16.86175,124.13125,-0.00715,-95.80648,131.77832,-0.00356,84.42601,0.66814,1.83179,0.01133,-2.09634,-2.96525,0.00625,5.29334,2.24932,-2.95399,-16.44384,3.183,-1.91137,2.02654,-5.377,5.18158
2338,-3.52668,-0.0,0.0,-0.80114,-0.0,0.0,-1.79006,-7.36686,5.31199,1.73984,7.36659,-4.16747,-12.9591,0.71941,-6e-05,-43.90471,-0.25724,0.00015,25.27903,3.89547,6.03242,19.21395,-10.329,-7.67827,35.81354,5.54489,-23.42392,27.22639,-12.76327,16.75747,124.01015,-0.00406,-97.75121,131.56778,-0.00334,83.68684,0.80466,1.89815,0.01385,-1.42501,-2.84654,0.00142,5.22238,2.15876,-2.96899,-16.51276,3.10443,-1.9589,2.02307,-5.44364,5.15211
2339,-4.1294,0.0,0.0,-1.15296,0.0,0.0,-1.69908,-7.60567,5.21072,1.81863,7.44371,-4.42812,-12.93565,0.71945,0.0,-43.73122,-0.22227,-0.00011,25.18657,3.80176,6.23197,18.95189,-10.40589,-7.62153,35.94583,5.52167,-23.25783,27.2955,-12.8749,16.84953,124.04865,-0.00177,-98.17767,131.41396,-0.00175,83.48518,1.97614,2.26765,0.01597,-1.51105,-2.99362,-0.00068,5.1382,2.14428,-3.0254,-16.59593,3.11185,-2.01671,2.06106,-5.5431,5.05418
2340,-4.00159,-0.0,0.0,-1.11468,0.0,-0.0,-1.71936,-7.42327,4.88968,2.0108,7.41086,-4.57922,-12.95645,0.76241,2e-05,-43.4981,-0.26234,-0.00052,25.15605,3.7136,6.45722,18.63682,-10.44347,-7.76047,35.96058,5.57605,-22.8629,27.5134,-12.9176,17.11944,124.21757,-0.00288,-96.92587,131.25267,0.00203,84.23326,3.47148,2.4875,0.00579,-2.31022,-3.1402,-0.00149,5.03621,2.24083,-3.15305,-16.6982,3.24877,-2.09957,2.12357,-5.59295,4.86879
2341,-3.66003,0.0,0.0,-0.81108,-0.0,-0.0,-1.78752,-7.11149,4.67098,2.33454,7.43826,-4.67038,-12.97995,0.79961,3e-05,-43.25103,-0.33277,-0.00047,25.16224,3.63336,6.53655,18.34288,-10.43077,-7.8693,35.96066,5.60258,-22.54207,27.8349,-12.92298,17.42004,124.36772,-0.0015,-94.78918,130.99626,0.00669,85.84191,4.87968,2.09589,-0.0102,-3.30597,-3.27506,-0.00079,4.91212,2.40997,-3.32865,-16.82353,3.47086,-2.20009,2.20811,-5.61209,4.69995
2342,-4.07117,0.0,0.0,-0.60468,0.0,0.0,-1.76438,-7.22447,4.81257,2.71237,7.70875,-4.81824,-12.96295,0.80294,-3e-05,-43.04874,-0.33731,-5e-05,25.17422,3.55791,6.47847,18.1438,-10.39583,-7.66948,36.04948,5.57025,-22.42103,28.15018,-12.90729,17.63889,124.42565,0.00083,-92.92888,130.63168,0.00549,87.53947,6.10011,1.05143,-0.01603,-4.06173,-3.61048,1e-05,4.79591,2.53122,-3.47002,-16.94048,3.6358,-2.28655,2.33016,-5.65363,4.66554
2343,-5.17753,0.0,-0.0,-0.59731,0.0,-0.0,-1.66941,-7.71378,5.13209,3.01796,8.03616,-4.98944,-12.87925,0.7663,-0.00017,-42.88537,-0.26507,0.00044,25.16673,3.50504,6.40875,18.00447,-10.3512,-7.2464,36.23877,5.50089,-22.50491,28.34802,-12.85826,17.7829,124.4303,0.00112,-91.99152,130.26683,-0.0011,88.37527,6.88328,-0.25786,-0.00617,-4.39197,-4.18339,-0.00192,4.71798,2.5115,-3.50002,-17.0175,3.62857,-2.32177,2.47517,-5.70179,4.74982
2344,-6.20954,0.0,-0.0,-0.6939,0.0,0.0,-1.61147,-8.14215,5.31292,3.19733,8.11784,-5.11302,-12.72013,0.71718,-0.00016,-42.666,-0.16472,0.00101,25.10262,3.47935,6.3901,17.79389,-10.28537,-6.88066,36.46324,5.42337,-22.72109,28.36201,-12.77828,17.85809,124.43785,0.00049,-91.83421,130.09122,-0.00368,88.19403,6.94066,-1.25017,0.00309,-4.29706,-4.65155,-0.00233,4.674,2.37247,-3.43956,-17.05918,3.47706,-2.31713,2.59398,-5.71195,4.87252
2345,-6.76157,-0.0,0.0,-0.89647,0.0,-0.0,-1.62735,-8.39565,5.29487,3.28488,8.00149,-5.19568,-12.50317,0.722,0.00013,-42.27979,-0.10228,0.00095,24.95261,3.45996,6.43182,17.41701,-10.18047,-6.70259,36.64767,5.36915,-22.97526,28.20032,-12.69723,17.77879,124.44048,-0.00024,-92.14275,130.25363,-0.00238,87.67573,6.41294,-1.49275,-0.00047,-3.87947,-4.56453,0.00257,4.6316,2.19418,-3.39656,-17.09833,3.29553,-2.34327,2.65974,-5.69376,5.0407
2346,-6.9666,0.0,-0.0,-1.15912,-0.0,-0.0,-1.68106,-8.64415,5.19465,3.34044,7.99142,-5.25871,-12.28278,0.81783,0.00034,-41.68742,-0.16214,-0.00049,24.75097,3.425,6.54914,16.89323,-10.03161,-6.70404,36.76107,5.35335,-23.19494,27.97482,-12.6226,17.50997,124.3834,-0.00108,-92.6358,130.71222,-0.00219,87.37656,5.91583,-1.04208,-0.0041,-3.30427,-3.83515,0.00685,4.57371,2.0486,-3.45544,-17.15226,3.18208,-2.45199,2.69534,-5.69487,5.29086
2347,-7.07004,0.0,0.0,-1.19947,0.0,-0.0,-1.73902,-8.83288,5.08491,3.4105,8.19364,-5.33782,-12.1179,0.94752,0.00016,-40.94211,-0.37761,-0.00231,24.59288,3.35701,6.70031,16.32164,-9.86454,-6.86374,36.8208,5.35356,-23.30908,27.87228,-12.52356,17.20493,124.23537,-0.00127,-92.95644,131.23555,-0.00122,87.13488,5.95227,-0.36799,-0.00196,-2.75401,-2.87972,0.00462,4.54131,2.00886,-3.59316,-17.18159,3.19611,-2.59478,2.74407,-5.74361,5.5393
2348,-7.20524,0.0,0.0,-0.79249,0.0,-0.0,-1.79444,-8.69337,4.97834,3.51794,8.47645,-5.55199,-12.02302,1.00923,-0.00014,-40.12639,-0.66813,-0.00248,24.54336,3.24922,6.78047,15.78651,-9.71892,-7.11181,36.85258,5.344,-23.25963,28.00329,-12.39052,17.06721,124.01534,-0.00025,-92.86246,131.60068,0.00038,86.38416,6.44311,0.16006,-0.00062,-2.3191,-2.24942,-0.00033,4.58609,2.10091,-3.7097,-17.13677,3.32472,-2.66903,2.82688,-5.8333,5.62886
2349,-7.47667,0.0,-0.0,-0.12688,0.0,-0.0,-1.8275,-8.22603,4.92564,3.68735,8.81334,-6.05115,-11.98276,0.95746,-0.00024,-39.26192,-0.87261,-0.00024,24.57544,3.12515,6.71538,15.27433,-9.61416,-7.27615,36.86439,5.34077,-23.03941,28.26164,-12.26801,17.14271,123.77422,0.00164,-92.20844,131.75377,0.00048,84.99342,7.03126,0.43476,-0.00015,-2.00713,-2.19836,-0.00267,4.66509,2.22957,-3.7453,-17.05997,3.45741,-2.65443,2.92183,-5.93407,5.51454
2350,-7.78202,0.0,0.0,0.40774,-0.0,0.0,-1.82117,-7.74263,5.00931,3.95577,9.27967,-6.8068,-12.00097,0.82488,-9e-05,-38.3104,-0.88321,0.00248,24.62912,3.0286,6.51272,14.71303,-9.54389,-7.24075,36.84475,5.37577,-22.694,28.41766,-12.19619,17.31401,123.57542,0.00255,-91.05352,131.79556,0.00068,83.6301,7.43673,0.38999,0.00168,-1.84675,-2.59413,-0.00153,4.65574,2.27797,-3.73704,-17.07055,3.49932,-2.6288,3.00142,-6.01101,5.33685
2351,-7.67135,-0.0,-0.0,0.68733,0.0,0.0,-1.81494,-7.40081,5.24291,4.32411,9.71,-7.51922,-12.09683,0.65954,0.0002,-37.27328,-0.76839,0.0027,24.69615,2.97865,6.23253,14.10074,-9.49598,-7.13792,36.76867,5.42938,-22.30264,28.35713,-12.1494,17.43565,123.46798,0.00234,-90.13581,131.88643,-0.00073,83.12525,7.36103,0.18697,0.00166,-1.88606,-3.08808,0.0005,4.49986,2.26473,-3.73036,-17.22625,3.48455,-2.6275,3.09097,-6.05326,5.29064
2352,-6.99451,0.0,0.0,0.87121,-0.0,0.0,-1.82526,-7.1241,5.56074,4.7464,9.76108,-7.90368,-12.26512,0.49394,0.00039,-36.22842,-0.68765,0.00085,24.79318,2.94341,5.92623,13.50515,-9.46248,-7.19237,36.63184,5.44761,-21.9466,28.15854,-12.07161,17.45438,123.44171,0.00284,-90.37075,132.13516,-0.00585,83.79553,6.64959,0.40028,-0.00826,-2.12756,-3.35477,0.00065,4.28366,2.28588,-3.69887,-17.44346,3.49255,-2.59037,3.23702,-6.08977,5.42315
2353,-6.3322,0.0,0.0,1.07272,0.0,-0.0,-1.76869,-6.93445,5.88336,5.21285,9.35149,-8.01524,-12.47459,0.37619,0.00027,-35.24373,-0.70463,-0.00012,24.89841,2.87147,5.63069,12.9432,-9.43044,-7.42377,36.47298,5.44976,-21.64608,27.98884,-11.94868,17.43552,123.40472,0.00244,-91.65795,132.5023,-0.00798,85.28604,5.6583,1.47229,-0.01623,-2.49198,-3.28268,-0.00064,4.15353,2.35772,-3.62013,-17.57651,3.53016,-2.4905,3.42515,-6.1609,5.58638
2354,-6.2109,-0.0,-0.0,1.19797,-0.0,-0.0,-1.58088,-6.92548,6.13325,5.78031,8.74618,-8.10586,-12.71726,0.35479,1e-05,-34.31858,-0.7887,9e-05,25.00881,2.75175,5.40752,12.39038,-9.37414,-7.69672,36.32502,5.53197,-21.30784,27.98866,-11.79766,17.49174,123.24767,0.00112,-93.14615,132.83202,-0.00266,86.73756,5.04764,3.10862,-0.00547,-2.8737,-3.02619,-0.00142,4.16439,2.43664,-3.56869,-17.56829,3.58444,-2.41339,3.6043,-6.27131,5.61186
2355,-6.29551,0.0,0.0,1.10086,0.0,-0.0,-1.35471,-7.00394,6.23506,6.4708,8.25232,-8.26715,-13.02818,0.42049,-0.00017,-33.42084,-0.94468,-0.0003,25.20824,2.64313,5.32588,11.88026,-9.25056,-7.97152,36.18516,5.72397,-20.82569,28.17819,-11.62214,17.68034,122.94147,0.0013,-94.37358,133.01324,0.00301,87.26527,5.11847,4.47463,0.00515,-3.1772,-2.88129,-0.00178,4.23623,2.51204,-3.63095,-17.49724,3.67751,-2.44332,3.77345,-6.36547,5.50429
2356,-5.87784,0.0,-0.0,0.84231,0.0,-0.0,-1.26003,-7.00501,6.16022,7.19511,8.01388,-8.42574,-13.41116,0.53141,-0.00021,-32.52293,-1.2046,-0.00129,25.55978,2.61884,5.40671,11.46248,-9.0214,-8.29893,36.06535,5.9446,-20.26339,28.46255,-11.43598,17.97055,122.53523,0.00125,-95.43177,133.04996,0.00334,86.53213,5.45683,5.00672,0.00222,-3.27788,-2.98982,-0.00273,4.2802,2.56781,-3.76017,-17.45252,3.77712,-2.54279,3.9757,-6.36387,5.41215
2357,-4.91392,0.0,0.0,0.65146,0.0,-0.0,-1.35592,-6.9625,5.97446,7.84698,7.99363,-8.57478,-13.76977,0.68493,-0.00014,-31.60089,-1.52248,-0.00134,25.95757,2.66008,5.60585,11.08425,-8.71911,-8.65189,36.00116,6.1244,-19.81298,28.80951,-11.28083,18.31666,122.08361,-0.00284,-96.66633,132.97601,0.00014,84.94151,5.39234,4.87125,-0.00078,-3.11922,-3.06823,-0.00189,4.3432,2.532,-3.8254,-17.38757,3.76798,-2.61675,4.21701,-6.25825,5.43518
2358,-4.08079,-0.0,-0.0,0.584,-0.0,-0.0,-1.5571,-7.0618,5.82126,8.43455,8.03513,-8.79721,-13.98666,0.88614,8e-05,-30.63782,-1.79616,-0.00037,26.19348,2.68176,5.82992,10.60991,-8.43646,-8.94591,36.00164,6.27369,-19.56164,29.32795,-11.15934,18.70336,121.59505,-0.00798,-98.25634,132.81697,-0.0023,83.17751,4.80873,4.52571,-0.00032,-2.79836,-2.56741,0.00232,4.5487,2.36674,-3.7813,-17.17888,3.59815,-2.63704,4.42825,-6.13205,5.53743
2359,-3.84059,-0.0,-0.0,0.46557,-0.0,0.0,-1.75635,-7.39535,5.80611,9.02892,8.02162,-9.10588,-14.06846,1.07445,0.00017,-29.63692,-1.98189,0.00017,26.18744,2.68379,5.99251,9.97398,-8.21214,-9.17505,36.05551,6.42523,-19.4159,30.07529,-10.99766,19.0897,121.01517,-0.00493,-99.65453,132.60938,-0.00181,81.72613,4.23594,4.18875,-0.00021,-2.46614,-1.30376,0.00465,4.87472,2.17244,-3.69811,-16.84988,3.38689,-2.63173,4.52947,-6.05217,5.63654
2360,-3.93081,-0.0,0.0,0.20714,0.0,0.0,-1.90202,-7.85073,5.91454,9.641,7.99501,-9.41218,-14.14091,1.16538,0.00013,-28.62433,-2.10619,-9e-05,26.06897,2.7462,6.08332,9.26085,-8.02169,-9.40342,36.15259,6.585,-19.24072,30.90508,-10.75261,19.4067,120.30016,0.00772,-99.98576,132.33304,0.00091,80.8984,4.12765,3.90758,-0.00031,-2.29494,0.13313,0.00287,5.11398,2.11391,-3.64681,-16.61023,3.31354,-2.60574,4.52704,-6.01918,5.70037
2361,-3.92897,-0.0,-0.0,-0.09541,0.0,0.0,-1.94948,-8.1915,6.11893,10.24732,8.04378,-9.6667,-14.30064,1.13025,0.00033,-27.63385,-2.18015,-2e-05,25.99851,2.87652,6.13282,8.59887,-7.88094,-9.64168,36.25683,6.74474,-18.97938,31.56168,-10.52402,19.65441,119.54105,0.01525,-99.1198,131.895,0.00405,80.77567,4.28566,3.74873,0.00021,-2.48282,0.82797,0.00546,5.12192,2.24983,-3.59992,-16.60603,3.42246,-2.51172,4.5034,-6.04009,5.74807
2362,-3.81902,0.0,0.0,-0.35792,0.0,0.0,-1.82968,-8.23785,6.46155,10.86144,8.14785,-9.91272,-14.54,1.00816,0.00052,-26.68559,-2.18773,0.00067,26.00781,2.99648,6.13599,8.03145,-7.83538,-9.83427,36.3097,6.9069,-18.64974,31.86589,-10.44806,19.89665,118.91745,0.00858,-97.89605,131.29893,0.0041,81.0454,4.06974,3.78799,-0.00124,-2.99235,0.47004,0.01154,4.9745,2.4907,-3.45288,-16.76119,3.59181,-2.28565,4.51497,-6.1444,5.81949
2363,-3.83855,0.0,0.0,-0.58644,-0.0,-0.0,-1.52292,-8.06485,6.9519,11.49119,8.22407,-10.18425,-14.81909,0.8993,0.00017,-25.77638,-2.13828,0.00136,26.05985,3.05081,6.06329,7.52926,-7.86355,-9.95476,36.28514,7.09951,-18.31986,31.8336,-10.5189,20.12738,118.47788,-0.00141,-97.26535,130.73666,0.00086,81.23512,3.13785,4.04985,-0.00435,-3.32988,-0.29167,0.0099,4.82999,2.6804,-3.15859,-16.91418,3.65913,-1.94161,4.54909,-6.30482,5.96698
2364,-4.12976,0.0,0.0,-0.80831,-0.0,-0.0,-1.11503,-7.96515,7.49778,12.08514,8.23971,-10.44085,-15.13277,0.90833,-0.00055,-24.87638,-2.07627,0.00124,26.15046,3.05726,5.91118,7.05971,-7.87467,-10.04807,36.20928,7.36389,-18.09501,31.64398,-10.63311,20.25791,118.08497,-0.00497,-97.40832,130.40807,-0.00138,81.21454,1.9479,4.43461,-0.0028,-3.01798,-0.54257,0.00905,4.77279,2.69451,-2.81447,-16.97567,3.54488,-1.61646,4.57872,-6.42557,6.23226
2365,-4.57261,0.0,-0.0,-1.04439,0.0,-0.0,-0.74471,-8.07167,7.96906,12.5796,8.24743,-10.60066,-15.49081,1.02273,-0.00074,-23.93842,-2.0769,-0.00047,26.30421,3.09243,5.72886,6.61439,-7.77864,-10.20333,36.11355,7.67434,-18.01293,31.47655,-10.72242,20.25528,117.65941,-0.00228,-97.8305,130.31895,-0.00164,81.58304,1.44468,4.66082,-0.00048,-2.27162,0.00196,0.00937,4.79744,2.53763,-2.57293,-16.94994,3.30976,-1.45018,4.62922,-6.43656,6.60779
2366,-4.91486,0.0,-0.0,-1.27063,-0.0,-0.0,-0.48468,-8.19344,8.28886,12.95666,8.33954,-10.61186,-15.89095,1.11861,-0.0001,-22.94032,-2.19347,-0.0026,26.54155,3.22401,5.59323,6.21206,-7.55938,-10.46157,35.97242,7.89823,-17.93945,31.39213,-10.74371,20.17912,117.36401,0.00157,-98.1576,130.31161,0.00015,83.11276,2.09556,4.37534,-0.00823,-1.79063,0.92268,0.00096,4.8208,2.35015,-2.47066,-16.92365,3.09776,-1.42469,4.77232,-6.36539,7.03591
2367,-5.11257,-0.0,0.0,-1.39804,0.0,-0.0,-0.28882,-8.17593,8.48146,13.22923,8.50926,-10.51545,-16.30353,1.1271,0.00044,-21.91158,-2.35941,-0.00242,26.84525,3.42635,5.54657,5.8653,-7.30541,-10.73873,35.70939,7.94606,-17.68427,31.35729,-10.66685,20.09617,117.40052,0.0027,-98.38837,130.23561,0.00302,85.44692,3.38096,3.52527,-0.01328,-1.99647,1.62174,-0.0053,4.75145,2.27506,-2.37683,-16.99236,2.99329,-1.36535,5.0333,-6.30683,7.43326
2368,-5.3902,0.0,-0.0,-1.40611,0.0,-0.0,-0.08011,-8.15957,8.66552,13.42173,8.58707,-10.44253,-16.66077,1.09481,0.00033,-20.9068,-2.42221,0.00023,27.12926,3.61948,5.54693,5.53308,-7.11959,-10.89962,35.28985,7.90307,-17.20994,31.33344,-10.54564,20.08356,117.69582,0.00143,-98.54646,130.05092,0.00205,87.27348,4.48487,2.5559,-0.00424,-2.74599,1.7318,-0.00062,4.61466,2.34114,-2.11785,-17.13249,2.95879,-1.10016,5.32434,-6.31405,7.71121
2369,-5.83492,0.0,-0.0,-1.41771,0.0,-0.0,0.13621,-8.29832,8.96235,13.58587,8.44871,-10.49859,-16.91693,1.06789,0.00012,-19.97963,-2.30998,0.00234,27.29506,3.79235,5.49646,5.1503,-6.999,-10.90183,34.76796,7.90395,-16.64893,31.31818,-10.48475,20.26501,117.96801,0.00023,-98.70704,129.80054,-0.00142,87.92233,5.08232,1.93993,0.0044,-3.64469,1.24267,0.0062,4.51643,2.47435,-1.64701,-17.23586,2.9082,-0.61322,5.5125,-6.32444,7.81548
2370,-6.17725,0.0,-0.0,-1.54028,0.0,-0.0,0.2855,-8.45394,9.33929,13.77843,8.24306,-10.62812,-17.11853,1.03458,0.00018,-19.16825,-2.11022,0.0019,27.33347,4.00231,5.3698,4.70062,-6.86541,-10.84562,34.22549,7.98354,-16.16422,31.323,-10.51461,20.67003,118.06217,0.0,-99.03945,129.56352,-0.00227,87.67442,5.31534,1.66747,0.00433,-4.39524,0.47659,0.00676,4.48386,2.59027,-1.11317,-17.27176,2.81821,-0.07425,5.54803,-6.23379,7.77096
2371,-6.21819,0.0,0.0,-1.73855,0.0,-0.0,0.34463,-8.38843,9.60642,13.9852,8.25991,-10.64461,-17.34388,0.99982,0.00022,-18.4528,-1.96516,0.00013,27.31962,4.26637,5.28445,4.22314,-6.68574,-10.9006,33.71784,8.12367,-15.81628,31.36553,-10.58511,21.08001,118.05571,0.00023,-99.31189,129.45825,0.00175,86.7476,5.58842,1.52415,0.00192,-4.7863,-0.0135,0.00414,4.46303,2.67696,-0.75085,-17.29391,2.76457,0.29448,5.49474,-6.03043,7.67057
2372,-6.10752,-0.0,-0.0,-1.92138,-0.0,0.0,0.37943,-8.11391,9.62557,14.10515,8.56392,-10.40058,-17.59453,1.02037,-3e-05,-17.75458,-1.92913,-0.00101,27.3183,4.53922,5.38384,3.76437,-6.49651,-11.17958,33.27916,8.31558,-15.51216,31.47643,-10.65016,21.21311,118.08393,-0.00074,-98.93133,129.57712,0.0076,85.2097,6.33284,1.56114,0.0045,-4.65465,0.1968,0.00559,4.4398,2.77757,-0.6266,-17.31865,2.812,0.44722,5.43382,-5.79554,7.60411
2373,-6.05525,0.0,-0.0,-2.09379,0.0,0.0,0.4539,-7.8683,9.47393,14.08092,8.8894,-9.93526,-17.82025,1.128,-0.00032,-17.04291,-1.95065,-0.00091,27.35374,4.78382,5.65981,3.36661,-6.33317,-11.62529,32.91948,8.52032,-15.12204,31.65315,-10.68962,21.0739,118.22237,-0.00297,-97.82708,129.85515,0.00706,83.69171,7.52114,1.89978,0.00816,-4.10684,0.84238,0.00505,4.45818,2.88884,-0.55366,-17.30209,2.88834,0.55626,5.38387,-5.58988,7.60265
2374,-6.10755,0.0,-0.0,-2.33134,-0.0,-0.0,0.56185,-7.8174,9.38341,14.00111,8.99825,-9.48205,-18.02011,1.26297,-0.00036,-16.40128,-1.95973,-0.00028,27.45569,5.00077,5.92496,3.08323,-6.19049,-12.02587,32.60307,8.66228,-14.66517,31.82538,-10.71201,20.93523,118.50717,-0.00264,-96.70732,130.10434,0.0017,83.00919,8.58359,2.31736,0.00389,-3.5515,0.98005,-0.0002,4.54046,2.93752,-0.38572,-17.22002,2.87137,0.73031,5.34366,-5.39853,7.65027
2375,-6.11996,0.0,-0.0,-2.57876,0.0,0.0,0.62966,-7.88379,9.50275,13.97687,8.99657,-9.2549,-18.24046,1.31345,-9e-05,-15.90888,-1.93914,3e-05,27.64914,5.21464,5.99966,2.93019,-6.04095,-12.22448,32.27254,8.70689,-14.30194,31.91323,-10.77033,21.00003,118.91254,0.00152,-96.33578,130.22414,-0.00117,83.20003,8.98576,2.39742,-0.00085,-3.39406,-0.09088,0.00495,4.64609,2.88242,-0.23913,-17.11263,2.76593,0.84599,5.35075,-5.17646,7.72781
2376,-5.9513,0.0,0.0,-2.65361,0.0,-0.0,0.60823,-7.86045,9.7582,14.00756,9.10983,-9.22621,-18.48762,1.20318,0.00028,-15.50228,-1.90554,0.00013,27.88213,5.46908,5.90222,2.8263,-5.8711,-12.26236,31.91474,8.71117,-14.16606,31.90034,-10.89052,21.24364,119.28085,0.0033,-96.84881,130.30452,-0.00242,83.76298,8.61747,2.04414,0.00122,-3.72841,-1.94695,0.01437,4.71821,2.7834,-0.23271,-17.03874,2.67158,0.81521,5.43698,-4.91761,7.83156
2377,-5.76393,0.0,-0.0,-2.5,0.0,-0.0,0.56062,-7.6449,9.99276,14.04563,9.32861,-9.17865,-18.71669,0.93816,0.00039,-15.04088,-1.85552,0.00041,28.05212,5.79628,5.7799,2.66297,-5.71107,-12.27546,31.56688,8.79339,-14.24921,31.83216,-10.99623,21.51214,119.40511,0.00109,-97.58868,130.48798,-0.00341,84.38171,7.6743,1.54738,0.00372,-4.20872,-3.33027,0.01022,4.74791,2.73746,-0.21643,-17.00816,2.62289,0.81328,5.57398,-4.67429,7.95227
2378,-5.69633,-0.0,-0.0,-2.21687,-0.0,-0.0,0.53372,-7.3216,10.12201,14.06559,9.4738,-8.88681,-18.91908,0.60167,0.00028,-14.48177,-1.78774,0.00051,28.1386,6.17601,5.71463,2.43112,-5.6025,-12.38888,31.2452,9.06453,-14.35778,31.76071,-11.00329,21.65537,119.23473,0.00152,-97.65849,130.78586,-0.0018,84.78815,6.64541,1.16101,0.00251,-4.33824,-3.38868,0.00569,4.75555,2.76725,0.01975,-16.9996,2.56312,1.04365,5.70981,-4.496,8.04811
2379,-5.37514,0.0,0.0,-1.85181,-0.0,-0.0,0.41433,-7.03441,10.11376,14.04172,9.44812,-8.23932,-19.16148,0.31505,3e-05,-13.9236,-1.74205,6e-05,28.23522,6.55521,5.71422,2.21943,-5.53444,-12.69055,30.92679,9.52662,-14.17271,31.70583,-10.94427,21.63181,118.91241,0.00249,-96.8391,131.09224,0.00139,84.63902,6.30472,0.92819,0.00067,-4.00058,-2.39197,0.00742,4.71784,2.79377,0.44328,-17.03433,2.43096,1.44678,5.81989,-4.35722,8.0647
2380,-4.46149,0.0,-0.0,-1.40674,-0.0,0.0,0.09902,-6.86977,9.98503,13.97663,9.283,-7.3585,-19.51344,0.16874,-0.00053,-13.48708,-1.74152,-0.00031,28.43202,6.89441,5.79414,2.10321,-5.4607,-13.11041,30.61385,10.00844,-13.47673,31.66002,-10.89487,21.54519,118.60555,-0.0002,-95.57634,131.33014,0.00186,84.09982,7.11399,0.80559,0.00087,-3.49174,-1.22913,0.00456,4.56647,2.72201,0.84314,-17.18043,2.21632,1.79143,5.90126,-4.18529,7.98672
2381,-3.49162,0.0,0.0,-1.01724,0.0,-0.0,-0.27655,-6.90608,9.88318,13.93998,9.04451,-6.62473,-19.97856,0.1478,-0.00072,-13.19629,-1.73876,-0.00018,28.7128,7.18901,5.90039,2.06183,-5.357,-13.3641,30.34605,10.30105,-12.36793,31.61325,-10.8401,21.55131,118.38319,-0.00271,-94.03973,131.49583,-0.00019,83.92323,8.56219,0.67689,0.00159,-3.09228,-0.54889,-0.00071,4.29034,2.54521,1.07372,-17.45139,1.96677,1.93999,5.9377,-3.95458,7.85494
2382,-3.37684,0.0,0.0,-0.89335,0.0,0.0,-0.46948,-7.20733,10.00503,13.99479,8.79347,-6.38688,-20.52373,0.14186,5e-05,-12.98973,-1.67909,0.0001,28.99386,7.46899,5.8653,2.00729,-5.2197,-13.22827,30.14829,10.37915,-11.21177,31.57104,-10.72746,21.71335,118.21357,-0.00072,-91.92197,131.59666,-0.0014,84.46444,9.47512,0.43341,0.00274,-2.868,-0.46888,-0.00226,4.00821,2.34941,1.15532,-17.73014,1.75469,1.94318,5.89136,-3.70558,7.74474
2383,-4.14089,0.0,-0.0,-1.08422,-0.0,0.0,-0.44717,-7.66661,10.34503,14.12594,8.60501,-6.60703,-21.13969,0.08057,0.0007,-12.81246,-1.57163,0.0002,29.24788,7.75828,5.61866,1.89428,-5.05676,-12.83991,30.02677,10.40195,-10.36775,31.54577,-10.59804,21.95415,117.98512,0.00369,-89.4201,131.63086,-0.00103,85.04631,9.13091,0.20468,0.0002,-2.77048,-0.81444,-0.00078,3.86543,2.21897,1.19322,-17.87103,1.6195,1.93005,5.75122,-3.47824,7.72366
2384,-4.91767,-0.0,0.0,-1.4725,0.0,0.0,-0.40195,-8.06676,10.67593,14.28948,8.54447,-6.93946,-21.82596,0.01885,-0.0,-12.65842,-1.46153,0.00011,29.51664,8.03645,5.32975,1.75451,-4.89611,-12.52568,29.98165,10.50263,-9.94014,31.52881,-10.56151,22.13753,117.59756,0.00086,-87.67641,131.62811,-0.00041,84.82253,7.87011,0.1865,-0.00628,-2.72797,-1.28982,0.00057,3.86908,2.16277,1.24601,-17.86614,1.54776,1.95825,5.56256,-3.27769,7.80451
2385,-5.15204,0.0,-0.0,-1.93644,-0.0,0.0,-0.47458,-8.33801,10.8506,14.47241,8.60553,-7.11283,-22.53821,0.02058,-0.00102,-12.5454,-1.3817,-0.0,29.7966,8.28521,5.20483,1.62002,-4.76065,-12.4069,29.96532,10.64767,-9.74194,31.50515,-10.66968,22.18862,117.11469,-0.00745,-87.65852,131.65099,-2e-05,84.01346,6.54298,0.17208,-0.00462,-2.70836,-1.45855,-0.00027,3.89921,2.12855,1.28878,-17.83512,1.50015,1.98529,5.37351,-3.10258,7.94402
2386,-5.0879,0.0,0.0,-2.395,0.0,-0.0,-0.63989,-8.55373,10.92928,14.66854,8.71946,-7.09213,-23.20901,0.02906,-0.00071,-12.48196,-1.35441,-4e-05,30.02571,8.54578,5.26551,1.49061,-4.64075,-12.3689,29.89219,10.7218,-9.48952,31.50406,-10.89148,22.15922,116.71332,-0.00689,-89.01792,131.72235,-0.0006,83.68587,5.63065,-0.27467,0.00324,-2.78075,-1.03252,-0.00352,3.85263,2.06841,1.28056,-17.88124,1.44732,1.95538,5.19149,-2.95636,8.086
2387,-5.1515,0.0,-0.0,-2.79217,-0.0,0.0,-0.83093,-8.72849,10.95469,14.84075,8.79907,-6.97218,-23.82762,-0.05256,0.00034,-12.44213,-1.38062,-0.0,30.20975,8.87529,5.41176,1.38229,-4.51575,-12.30525,29.73951,10.6942,-9.07441,31.57297,-11.18513,22.15909,116.43141,0.0017,-90.46574,131.77516,-0.00065,84.33331,5.00693,-1.11905,0.00696,-2.98125,-0.34778,-0.00518,3.71345,2.00262,1.21288,-18.02064,1.41126,1.86816,5.0252,-2.82418,8.19165
2388,-5.47384,0.0,0.0,-3.11569,0.0,-0.0,-1.01453,-8.79157,10.83473,14.95212,8.7515,-6.86052,-24.45752,-0.21042,0.00062,-12.36963,-1.41049,0.0001,30.46598,9.25396,5.56771,1.33969,-4.39865,-12.21604,29.57944,10.63668,-8.65941,31.68798,-11.51604,22.20953,116.10033,0.00944,-91.0696,131.71948,-0.00037,85.20267,4.26211,-1.72843,-0.00063,-3.16549,-0.14941,-0.00312,3.53007,2.02158,1.1014,-18.20551,1.47013,1.77165,4.92411,-2.6879,8.23565
2389,-6.00088,-0.0,-0.0,-3.44463,-0.0,0.0,-1.18927,-8.67474,10.53922,15.03271,8.55762,-6.78792,-25.15626,-0.35322,0.00011,-12.2332,-1.39509,0.00012,30.91891,9.58447,5.69074,1.40667,-4.33143,-12.1727,29.507,10.60768,-8.49596,31.75873,-11.82229,22.22967,115.554,0.00821,-91.08214,131.55933,-0.00161,85.27279,3.03448,-1.58046,-0.01673,-3.21545,-0.73357,-0.00078,3.38057,2.18639,1.0007,-18.35782,1.66049,1.73921,4.94419,-2.56327,8.21492
2390,-6.60195,0.0,0.0,-3.90539,-0.0,0.0,-1.40781,-8.35672,10.23926,15.15889,8.35499,-6.68003,-25.92412,-0.45222,5e-05,-12.0561,-1.35892,-8e-05,31.58725,9.81126,5.7511,1.58724,-4.32224,-12.25427,29.58613,10.59332,-8.66459,31.74125,-12.0335,22.17291,114.81035,-0.00467,-91.52273,131.3907,-0.00163,84.47551,1.19564,-0.95209,-0.01646,-3.21949,-1.60427,0.00081,3.31903,2.41959,1.01778,-18.42183,1.87078,1.84148,5.07631,-2.46956,8.18047
2391,-6.96283,-0.0,-0.0,-4.4022,-0.0,-0.0,-1.77732,-7.96115,10.1206,15.34003,8.28038,-6.492,-26.7597,-0.53219,0.00046,-11.85793,-1.32771,-0.00014,32.35774,9.97363,5.76027,1.7744,-4.33301,-12.43358,29.8214,10.56641,-8.99324,31.68004,-12.13074,22.10676,114.05067,-0.0133,-92.87655,131.28679,8e-05,83.62418,-0.92298,-0.68494,0.00945,-3.34142,-2.08359,0.00029,3.30277,2.53786,1.21717,-18.43701,1.90686,2.07045,5.20925,-2.3856,8.17904
2392,-6.86531,0.0,-0.0,-4.63087,0.0,0.0,-2.34727,-7.79648,10.18452,15.5129,8.2251,-6.32726,-27.69946,-0.58101,0.00042,-11.61525,-1.23881,0.00036,33.09648,10.11496,5.74326,1.80343,-4.34011,-12.55564,30.12288,10.54104,-9.16718,31.60515,-12.15742,22.13845,113.47531,-0.00723,-94.4862,131.26205,0.00069,83.45181,-2.37878,-1.24127,0.02018,-3.68777,-2.02552,-0.0018,3.20987,2.42346,1.50144,-18.52457,1.69541,2.292,5.23054,-2.28391,8.15398
2393,-6.58964,-0.0,0.0,-4.52528,-0.0,0.0,-3.01623,-8.11004,10.31686,15.64697,7.95618,-6.32314,-28.75252,-0.56725,-0.00025,-11.3207,-1.04148,0.00087,33.78473,10.237,5.71615,1.65816,-4.35057,-12.47814,30.34348,10.54651,-8.93704,31.46279,-12.15659,22.28429,113.17752,0.00137,-95.46921,131.3273,-0.00012,83.90916,-2.13545,-2.25318,0.00101,-4.1936,-1.78699,-0.0019,2.97963,2.15154,1.66666,-18.74963,1.38169,2.34469,5.17031,-2.17272,8.03218
2394,-6.41131,0.0,-0.0,-4.23217,-0.0,-0.0,-3.67214,-8.78367,10.39165,15.72035,7.51722,-6.45194,-29.84111,-0.48071,-0.00105,-11.01523,-0.81694,0.00059,34.46122,10.3581,5.75413,1.47502,-4.35542,-12.21607,30.40345,10.58702,-8.35499,31.20728,-12.12057,22.44592,113.13497,0.00349,-95.73545,131.47638,-0.00023,84.36437,-0.21516,-3.082,-0.00756,-4.59968,-1.6641,-0.00024,2.70966,1.91643,1.59833,-19.01865,1.18856,2.19418,5.12272,-2.07095,7.87895
2395,-6.0422,0.0,0.0,-3.73549,-0.0,-0.0,-4.35245,-9.38357,10.30964,15.66701,7.2632,-6.49996,-30.85261,-0.347,-0.00104,-10.73099,-0.69607,-0.00013,35.10695,10.53137,5.95008,1.33999,-4.32337,-11.94514,30.33392,10.63894,-7.78115,30.89207,-12.03923,22.51383,113.30687,0.00245,-95.74659,131.64806,0.00043,84.38068,1.98999,-3.47762,0.00116,-4.67565,-1.59345,0.00141,2.56126,1.82569,1.35931,-19.16955,1.19272,1.93861,5.08077,-1.97332,7.8386
2396,-5.158,0.0,-0.0,-2.99488,0.0,-0.0,-5.17142,-9.55215,10.05356,15.48076,7.39171,-6.2597,-31.74405,-0.2402,-0.00018,-10.4729,-0.71156,-0.00053,35.71291,10.79403,6.28582,1.25956,-4.24963,-11.83815,30.18869,10.66007,-7.52596,30.61209,-11.96897,22.45734,113.69271,0.00138,-95.76606,131.77725,0.0005,84.03075,3.04414,-3.50627,0.00425,-4.41306,-1.40779,0.00274,2.55919,1.80907,1.11102,-19.1744,1.26916,1.70187,5.00459,-1.86182,7.95479
2397,-3.90751,-0.0,0.0,-2.15722,0.0,0.0,-6.2071,-9.29304,9.61469,15.25924,7.68188,-5.74782,-32.56582,-0.20017,-0.00014,-10.26017,-0.78527,-0.00041,36.35989,11.13517,6.69927,1.26333,-4.16546,-11.90711,30.00404,10.61148,-7.55461,30.41311,-11.98706,22.33367,114.28544,0.00013,-95.72235,131.84825,0.00022,83.53986,2.74657,-3.19649,-0.00229,-3.99794,-1.17162,0.00215,2.56384,1.74875,1.02606,-19.17017,1.24458,1.60063,4.95114,-1.72751,8.11014
2398,-2.60352,-0.0,0.0,-1.38173,0.0,-0.0,-7.46242,-8.86028,8.95219,15.09435,7.80345,-5.2068,-33.36822,-0.18586,-0.00098,-10.12312,-0.80583,-0.00016,37.10497,11.49833,7.17589,1.37965,-4.13053,-12.01404,29.85018,10.49435,-7.60434,30.29992,-12.08118,22.24052,115.04954,-0.00092,-95.51372,131.88548,0.00027,83.01908,1.95916,-2.61034,-0.00506,-3.62301,-1.07121,0.00032,2.49804,1.63966,1.20245,-19.23326,1.07796,1.72405,4.98425,-1.59648,8.15459
2399,-1.50862,-0.0,0.0,-0.82317,0.0,-0.0,-8.81235,-8.53316,8.23049,15.01811,7.65653,-4.89289,-34.13854,-0.224,-0.00021,-10.0626,-0.68857,-8e-05,37.85059,11.80932,7.57739,1.53795,-4.22648,-11.97103,29.82922,10.34522,-7.48581,30.2833,-12.13809,22.23204,115.95403,-0.00013,-95.15128,131.92056,0.00051,82.62505,1.69002,-2.07533,-0.00193,-3.34102,-1.0992,-0.00042,2.46105,1.57249,1.54788,-19.26564,0.88773,2.01998,5.01984,-1.54299,8.07634
2400,-0.8996,-0.0,0.0,-0.70923,-0.0,0.0,-10.06889,-8.52747,7.80364,15.00968,7.38733,-4.87852,-34.85775,-0.43302,0.00213,-10.03117,-0.42728,1e-05,38.43911,12.03786,7.5971,1.58587,-4.45628,-11.70129,29.99306,10.18105,-7.21675,30.37117,-12.07125,22.28345,116.96237,0.00312,-94.70236,131.96204,0.00034,82.67298,2.36785,-1.98495,-0.00572,-3.14083,-1.08405,-6e-05,2.54392,1.5919,1.82195,-19.17907,0.80435,2.2817,4.88909,-1.59886,7.96658
2401,-0.82706,-0.0,-0.0,-1.04379,-0.0,0.0,-11.17773,-8.86051,7.74162,14.96986,7.26274,-4.98472,-35.53331,-0.78084,0.0025,-9.95773,-0.12939,0.00016,38.85984,12.21449,7.16457,1.45691,-4.69078,-11.3894,30.29694,9.97449,-6.91941,30.54691,-11.92789,22.37373,118.0377,0.00495,-94.15497,132.01146,-0.0003,83.30029,3.65,-2.37163,-0.01076,-3.02899,-0.90837,0.00029,2.71158,1.63187,1.89102,-19.01058,0.81592,2.36064,4.56458,-1.67726,7.84863
2402,-0.95976,0.0,-0.0,-1.43785,0.0,-0.0,-12.25989,-9.24483,7.70448,14.79103,7.46519,-4.93561,-36.17341,-1.03939,-8e-05,-9.82406,0.05089,1e-05,39.26985,12.36184,6.65806,1.27196,-4.81472,-11.32646,30.64618,9.70034,-6.68493,30.80475,-11.8194,22.54147,119.17345,0.00063,-93.30942,132.08289,-0.00078,84.11841,4.84862,-2.83549,-0.00374,-3.00013,-0.54828,-3e-05,2.88597,1.59387,1.87063,-18.8363,0.78817,2.32764,4.21251,-1.67219,7.6634
2403,-0.94483,0.0,-0.0,-1.53066,-0.0,0.0,-13.43061,-9.32278,7.4079,14.51163,7.87458,-4.67645,-36.80568,-1.08437,-0.00222,-9.70853,0.05428,-0.00016,39.80429,12.47674,6.45183,1.20052,-4.84269,-11.54003,30.96693,9.37595,-6.54193,31.15482,-11.78916,22.78351,120.35403,-0.00652,-91.96183,132.16194,-0.00071,84.49916,5.65208,-2.90147,0.00919,-3.08306,-0.04913,-0.00113,2.97693,1.43037,1.9596,-18.74326,0.60336,2.34976,3.98596,-1.56926,7.4047
2404,-0.80282,-0.0,0.0,-1.4026,0.0,0.0,-14.64916,-9.0364,6.9586,14.29733,8.15318,-4.43236,-37.46155,-1.06665,-0.00128,-9.70233,-0.03989,-5e-05,40.42464,12.58976,6.47742,1.27128,-4.85039,-11.7436,31.22701,9.03735,-6.45833,31.51704,-11.81363,22.97875,121.54864,-0.00918,-90.23517,132.20905,-0.00085,84.21463,6.36806,-2.56615,0.01438,-3.30282,0.44662,-0.00132,2.89057,1.15992,2.20949,-18.82496,0.25967,2.48177,3.87337,-1.42178,7.18093
2405,-0.85932,0.0,0.0,-1.36863,0.0,0.0,-15.79981,-8.69502,6.63006,14.23532,8.0965,-4.37152,-38.10735,-1.17929,0.00085,-9.79972,-0.12459,3e-05,40.98655,12.75399,6.43408,1.38197,-4.8655,-11.72261,31.42393,8.70834,-6.36501,31.70545,-11.86732,23.01406,122.76968,-0.00659,-88.53577,132.23244,-0.00074,83.48524,7.36306,-2.54375,0.00156,-3.53616,0.78152,-1e-05,2.6447,0.86896,2.49892,-19.06591,-0.11771,2.64299,3.78356,-1.28409,7.09284
2406,-1.38508,0.0,-0.0,-1.56773,-0.0,-0.0,-16.85538,-8.75712,6.50981,14.26561,7.80157,-4.40146,-38.67354,-1.39791,0.00123,-9.92468,-0.16897,-1e-05,41.4137,12.9864,6.19661,1.43901,-4.85414,-11.57027,31.57919,8.41506,-6.22631,31.66083,-11.90386,22.94281,124.02542,-0.00217,-87.18182,132.29256,0.0006,82.48421,8.5209,-3.59786,-0.01548,-3.68189,1.00153,-0.00021,2.39794,0.68923,2.69677,-19.3095,-0.35787,2.7603,3.669,-1.17474,7.09727
2407,-2.27258,-0.0,-0.0,-1.92278,0.0,0.0,-17.88843,-9.48083,6.48164,14.31685,7.49885,-4.37177,-39.12769,-1.58366,0.00032,-10.02819,-0.19474,-6e-05,41.72575,13.2592,5.83676,1.42409,-4.79991,-11.44439,31.72061,8.21784,-6.07043,31.60146,-11.83952,22.94113,125.25256,0.0022,-86.26241,132.42838,0.00186,81.34976,9.49427,-5.5101,-0.01143,-3.88088,1.38835,-0.0037,2.27535,0.70291,2.80191,-19.43015,-0.38404,2.86305,3.51533,-1.0821,7.08331
2408,-2.92776,-0.0,-0.0,-2.22899,0.0,0.0,-18.97163,-10.55301,6.35259,14.34336,7.28065,-4.23329,-39.45583,-1.68886,-0.00037,-10.09131,-0.21204,-0.0001,41.95234,13.52098,5.47546,1.37332,-4.75922,-11.35456,31.84021,8.19483,-5.93769,31.76879,-11.63898,23.10988,126.41246,0.00548,-85.79798,132.60233,0.00116,80.44709,10.2919,-7.19622,0.00432,-4.22122,2.06422,-0.00648,2.24028,0.85599,2.90733,-19.46288,-0.2808,3.0176,3.32569,-1.00558,7.03025
2409,-2.83757,-0.0,0.0,-2.3094,0.0,-0.0,-20.08314,-11.25645,6.00395,14.28989,7.0382,-4.0004,-39.63921,-1.77002,-0.00049,-10.07633,-0.20535,-6e-05,42.10564,13.72045,5.19997,1.32842,-4.80914,-11.2484,31.90557,8.34266,-5.84753,32.1161,-11.37982,23.36625,127.57112,0.00391,-85.72244,132.70096,-0.00056,79.98622,11.09177,-7.93425,0.01309,-4.40699,2.6552,-0.0055,2.20427,1.00807,3.07607,-19.49526,-0.20189,3.23059,3.15074,-0.97546,7.0007
2410,-2.30132,-0.0,0.0,-2.28784,0.0,0.0,-21.10089,-11.1847,5.52464,14.1709,6.67784,-3.76633,-39.70897,-1.88986,-0.00025,-9.95738,-0.14578,0.00012,42.20122,13.82754,5.01001,1.28176,-4.96984,-11.08997,31.94029,8.49599,-5.84941,32.42201,-11.18056,23.53683,128.79848,-0.00305,-85.76842,132.61368,-0.00197,79.72486,11.40302,-7.90374,0.0055,-4.05234,2.71712,-0.00641,2.16745,1.06461,3.29106,-19.52736,-0.22881,3.45123,3.03139,-1.01384,7.02551
2411,-2.07532,0.0,0.0,-2.46649,-0.0,-0.0,-21.92911,-10.54682,5.06717,14.08511,6.28338,-3.65237,-39.77254,-2.02008,3e-05,-9.77662,-0.02082,0.00026,42.28705,13.85032,4.88334,1.2074,-5.19517,-10.87656,32.02604,8.43423,-6.02466,32.58792,-11.08362,23.52657,130.07851,-0.00344,-85.83888,132.35878,-0.00233,79.4112,10.32772,-7.55967,-0.01217,-3.19953,2.37043,-0.00627,2.15677,1.01399,3.4997,-19.53337,-0.35296,3.62634,2.95122,-1.08236,7.06873
2412,-2.50007,-0.0,0.0,-2.90468,-0.0,0.0,-22.57514,-9.84051,4.66139,14.07672,6.01026,-3.64075,-39.93499,-2.06844,-0.00012,-9.6085,0.13372,0.00018,42.44319,13.83781,4.82915,1.14369,-5.41478,-10.66429,32.20044,8.11256,-6.37923,32.64848,-11.03695,23.40452,131.34117,0.00813,-86.29218,132.09995,-0.0011,79.10315,7.89308,-7.20439,-0.01639,-2.32851,2.05366,-0.0014,2.11334,0.88432,3.67022,-19.57311,-0.53646,3.73686,2.90913,-1.1019,7.08499
2413,-3.33493,0.0,0.0,-3.30548,0.0,-0.0,-23.10818,-9.41394,4.25654,14.06902,5.94811,-3.55791,-40.20657,-1.99638,-0.00055,-9.49367,0.25458,1e-05,42.70764,13.84406,4.84792,1.16501,-5.59311,-10.55406,32.42543,7.72293,-6.83836,32.63069,-10.96139,23.34091,132.49525,0.01317,-87.21822,131.97549,0.00013,78.86773,5.10924,-7.14288,0.00089,-1.90509,1.89599,0.00199,1.95499,0.7467,3.80829,-19.72865,-0.71535,3.81429,2.94672,-1.0424,7.05967
2414,-4.28945,0.0,0.0,-3.38008,-0.0,0.0,-23.57484,-9.27631,3.82931,13.99059,6.09352,-3.27537,-40.50642,-1.86609,-0.00056,-9.44024,0.309,-5e-05,43.01996,13.88774,4.91414,1.28901,-5.75477,-10.60229,32.65387,7.49589,-7.36512,32.56762,-10.81096,23.46756,133.4313,0.00191,-87.87393,131.94571,0.00032,78.60971,2.86669,-7.56838,0.01489,-2.05228,1.78675,0.00188,1.70467,0.68901,3.94291,-19.9759,-0.81869,3.91807,3.06836,-0.95688,7.00356
2415,-5.55466,0.0,0.0,-3.3053,0.0,-0.0,-23.86479,-9.30117,3.44026,13.916,6.32145,-2.89643,-40.75718,-1.79115,-0.0001,-9.44568,0.3249,-4e-05,43.29676,13.96709,4.9435,1.47861,-5.92207,-10.70936,32.86609,7.50812,-7.95066,32.53159,-10.58464,23.79499,134.04092,-0.00761,-87.56265,131.86839,0.00016,78.35813,1.71515,-8.1771,0.01149,-2.56711,1.74201,7e-05,1.46586,0.71189,4.08416,-20.21095,-0.8496,4.05779,3.22454,-0.89205,6.94167
2416,-7.55167,0.0,-0.0,-3.5331,-0.0,0.0,-23.72633,-9.45951,3.19198,13.97928,6.42943,-2.6519,-40.95627,-1.82851,0.00025,-9.49162,0.36842,-0.00011,43.51987,14.07958,4.82552,1.69805,-6.07043,-10.68497,33.06128,7.68866,-8.51025,32.54269,-10.30575,24.21261,134.25975,-0.00382,-86.55193,131.68343,0.00048,78.30314,2.01065,-8.33798,0.01337,-3.06188,1.85468,-0.00031,1.30937,0.72391,4.18742,-20.36462,-0.87657,4.15819,3.37531,-0.82431,6.90095
2417,-9.98539,0.0,0.0,-4.10288,0.0,-0.0,-23.065,-9.7264,3.12024,14.16707,6.34436,-2.61557,-41.13655,-1.93512,0.00025,-9.54861,0.47005,-0.00022,43.66818,14.20041,4.56258,1.8938,-6.19113,-10.46304,33.27377,7.92171,-8.95876,32.54715,-10.01572,24.56182,134.12062,0.0053,-85.59345,131.46303,0.00059,78.48835,3.36663,-7.86258,0.02246,-3.20372,2.10852,0.00181,1.249,0.67022,4.20296,-20.4249,-0.9322,4.15281,3.4758,-0.73175,6.8945
2418,-11.58794,-0.0,-0.0,-4.571,0.0,0.0,-22.14496,-9.96604,3.14094,14.33494,6.23253,-2.66658,-41.2952,-2.04274,5e-05,-9.61544,0.55724,-0.00016,43.66133,14.29183,4.28543,1.98963,-6.30902,-10.1489,33.57872,8.1161,-9.40402,32.52138,-9.78109,24.76322,133.71803,0.01232,-85.07048,131.30121,0.00025,78.78496,4.54681,-7.33714,0.02029,-3.0198,2.32843,0.00324,1.27188,0.58697,4.15107,-20.4039,-0.9904,4.07383,3.44759,-0.64978,6.91923
2419,-11.41785,-0.0,-0.0,-4.65399,0.0,0.0,-21.34984,-10.04322,3.13167,14.42419,6.29986,-2.71642,-41.39645,-2.09707,-7e-05,-9.74194,0.51252,0.00029,43.48606,14.32741,4.12166,1.98953,-6.42139,-9.87197,33.98173,8.23585,-10.0957,32.48543,-9.67089,24.85788,133.06715,0.00967,-85.06185,131.21117,0.00035,79.05579,4.49383,-7.3711,0.0192,-2.80847,2.25968,0.00305,1.33824,0.51677,4.09479,-20.33947,-1.03485,3.99559,3.28473,-0.61572,6.95623
2420,-9.99285,0.0,0.0,-4.49645,-0.0,0.0,-20.80885,-9.9208,3.06874,14.50389,6.54381,-2.78866,-41.41233,-2.04171,0.00012,-9.97517,0.32118,0.00078,43.24751,14.28637,4.11014,1.99082,-6.50439,-9.69634,34.34231,8.30857,-11.13143,32.40735,-9.70179,24.90105,132.05917,-0.01284,-85.83495,131.14433,0.00116,79.196,3.18836,-7.69898,0.01047,-2.67399,1.8301,0.00216,1.39629,0.45119,4.07887,-20.28228,-1.08991,3.95656,3.10946,-0.61025,6.9713
2421,-8.51799,0.0,0.0,-4.32352,0.0,-0.0,-20.33853,-9.65073,3.04871,14.61141,6.7925,-2.88797,-41.33332,-1.88305,0.00041,-10.28839,0.0983,0.00054,43.01759,14.18429,4.17424,2.04732,-6.54974,-9.62604,34.58788,8.37695,-12.31698,32.20026,-9.80706,24.88663,130.60069,-0.0381,-87.53899,131.05682,0.00142,79.10677,1.3589,-7.53455,-0.0135,-2.43176,1.2399,0.00013,1.42538,0.39013,4.14082,-20.25205,-1.16954,3.99159,3.0309,-0.5672,6.943
2422,-7.54015,-0.0,-0.0,-4.20893,0.0,-0.0,-19.68444,-9.36721,3.18628,14.72023,6.93311,-2.95639,-41.159,-1.73533,0.00016,-10.60993,-0.04976,-0.00012,42.77868,14.08459,4.15537,2.14389,-6.56061,-9.61729,34.9365,8.39875,-13.30724,31.85146,-9.8717,24.81352,128.74478,-0.02249,-89.43365,130.91493,-0.00116,78.54137,-0.24585,-6.74526,-0.02049,-1.98327,0.65778,-0.00205,1.42413,0.38405,4.30706,-20.24897,-1.23658,4.14385,3.05188,-0.45247,6.89745
2423,-6.84065,0.0,-0.0,-4.19216,0.0,-0.0,-18.74185,-9.24431,3.521,14.84873,7.02027,-2.99472,-40.89785,-1.70604,-0.00088,-10.91086,-0.13066,-0.00034,42.50744,14.03047,3.94594,2.27803,-6.5467,-9.58115,35.65467,8.25788,-13.85573,31.49025,-9.8013,24.75397,126.63082,0.02593,-90.4428,130.67975,-0.00559,77.28511,-1.21481,-5.97224,-0.00626,-1.47892,0.03866,-0.00293,1.34851,0.44797,4.54208,-20.3176,-1.26397,4.38592,3.126,-0.32019,6.90207
2424,-6.21456,0.0,-0.0,-4.35305,-0.0,0.0,-17.53598,-9.38052,3.98037,15.02533,7.2093,-3.10606,-40.57241,-1.7631,-0.0019,-11.19999,-0.22573,-7e-05,42.18668,14.03372,3.60678,2.44248,-6.49883,-9.40752,36.64058,7.94983,-13.98382,31.27129,-9.57684,24.80084,124.35873,0.04243,-90.6569,130.35893,-0.00551,75.78181,-1.51515,-5.59615,0.00494,-1.15,-0.65317,-0.0011,1.12911,0.49155,4.78284,-20.52964,-1.31233,4.62581,3.20671,-0.22177,7.01217
2425,-5.74765,0.0,0.0,-4.59844,0.0,-0.0,-16.14662,-9.68416,4.3696,15.15479,7.62483,-3.33127,-40.20725,-1.73188,-0.00161,-11.45046,-0.39592,6e-05,41.79771,14.11965,3.37281,2.59727,-6.37165,-9.06917,37.4811,7.67273,-13.91834,31.2289,-9.26972,24.9635,122.02424,0.00689,-91.26467,130.04944,-0.00084,74.83311,-1.4134,-5.34279,0.00638,-1.12721,-1.26129,0.00152,0.77679,0.41721,5.0183,-20.87545,-1.46831,4.81727,3.27224,-0.10156,7.2124
2426,-5.33286,0.0,-0.0,-4.53451,0.0,-0.0,-14.77993,-9.91586,4.45931,15.08801,8.20835,-3.53941,-39.79794,-1.41807,0.0006,-11.6165,-0.63278,-0.00025,41.36783,14.2794,3.49942,2.72382,-6.14416,-8.70538,37.92773,7.62812,-13.89487,31.28017,-8.99922,25.14978,119.78504,-0.0334,-93.02517,129.85732,0.0014,74.62403,-1.34635,-4.88523,0.00185,-1.32695,-1.61757,0.00188,0.40981,0.25623,5.25888,-21.23646,-1.70669,4.98155,3.33876,0.12724,7.40942
2427,-4.52569,0.0,0.0,-3.80256,0.0,0.0,-13.75404,-9.88227,4.16281,14.82206,8.71006,-3.55878,-39.30318,-0.77743,0.00362,-11.72485,-0.89171,-0.00044,40.96849,14.42268,4.02971,2.85721,-5.86181,-8.52923,38.15064,7.77954,-14.05273,31.32794,-8.85899,25.26763,117.81255,-0.03936,-95.62222,129.78484,0.00078,74.95809,-1.63667,-4.25499,-0.00323,-1.57537,-1.79685,0.00148,0.15822,0.14894,5.47073,-21.48237,-1.88455,5.13897,3.42823,0.45901,7.49786
2428,-3.2919,0.0,0.0,-2.63267,-0.0,0.0,-13.20719,-9.63579,3.68197,14.54854,8.9465,-3.39398,-38.68516,-0.01873,0.00415,-11.88604,-1.15722,-4e-05,40.61857,14.47393,4.69374,3.0418,-5.58823,-8.58293,38.4529,7.92392,-14.41654,31.33011,-8.85748,25.31185,116.30062,-0.01451,-98.28852,129.72871,0.00134,75.9052,-2.16366,-3.71582,-0.00294,-1.79891,-2.05723,0.00208,0.06549,0.19541,5.62038,-21.5695,-1.89653,5.2953,3.52734,0.80609,7.45268
2429,-2.43662,0.0,-0.0,-1.83453,0.0,-0.0,-12.90628,-9.51853,3.41501,14.50534,8.98991,-3.25881,-37.94968,0.51713,0.00082,-12.18575,-1.43636,0.00057,40.20581,14.44661,5.06924,3.24449,-5.35975,-8.64945,38.82494,7.97526,-14.87907,31.28836,-8.91009,25.31637,115.5229,0.01535,-100.37057,129.57642,0.00296,77.32098,-2.49115,-3.55005,-0.001,-1.92286,-2.52573,0.00245,0.04083,0.34683,5.76592,-21.58728,-1.80943,5.4865,3.57296,1.08393,7.3324
2430,-2.60699,0.0,0.0,-1.89814,-0.0,0.0,-12.51283,-9.78991,3.53159,14.76252,9.01404,-3.28962,-37.14311,0.67693,-0.0026,-12.59886,-1.71578,0.00079,39.59686,14.38665,4.96675,3.37507,-5.18909,-8.55235,38.91352,8.05282,-15.25511,31.20692,-8.90743,25.27958,115.68872,0.0227,-101.41135,129.29645,0.00151,78.50278,-2.35238,-3.87082,-0.00324,-1.8212,-3.08803,0.00164,-0.09452,0.44096,6.0246,-21.71214,-1.81724,5.76179,3.51825,1.26736,7.20912
2431,-3.30964,0.0,-0.0,-2.43218,-0.0,-0.0,-11.91981,-10.22595,3.7816,15.17668,9.0933,-3.34885,-36.3289,0.60061,-0.00283,-13.0486,-1.96195,0.00053,38.81739,14.34702,4.62448,3.43468,-5.0728,-8.37868,38.42976,8.28021,-15.42755,31.0778,-8.7987,25.18921,116.73437,0.00326,-101.27919,128.96385,-0.00192,78.91555,-1.89692,-4.44865,-0.00505,-1.49098,-3.61162,0.00061,-0.41973,0.34789,6.41108,-22.02374,-2.04611,6.08701,3.41937,1.40039,7.15887
2432,-3.5245,0.0,-0.0,-2.73609,0.0,-0.0,-11.22421,-10.41377,3.8795,15.56547,9.19716,-3.27213,-35.56639,0.49485,-0.00097,-13.50297,-2.13094,3e-05,38.01193,14.38804,4.42843,3.51866,-4.995,-8.26625,37.47787,8.62346,-15.45656,30.8875,-8.61228,25.05543,118.38857,-0.02309,-100.22495,128.72266,-0.00219,78.49384,-1.53686,-4.8256,-0.0034,-1.02579,-4.01166,0.00068,-0.78562,0.09431,6.78386,-22.37831,-2.41911,6.34046,3.37293,1.55698,7.2328
2433,-2.91096,-0.0,0.0,-2.50757,0.0,0.0,-10.48341,-10.28382,3.87109,15.86711,9.26413,-3.12129,-34.90589,0.4544,0.00058,-13.97644,-2.1931,-0.00046,37.29095,14.51468,4.54327,3.66859,-4.93457,-8.20019,36.4577,8.96853,-15.55183,30.62528,-8.4296,24.87945,120.41177,-0.03087,-98.738,128.69232,0.00243,77.24158,-1.58927,-4.80885,-0.00204,-0.46174,-4.12601,0.0026,-0.96823,-0.17821,7.01467,-22.55592,-2.75743,6.45492,3.39718,1.77719,7.35807
2434,-2.04774,0.0,0.0,-1.97681,0.0,0.0,-9.60482,-10.08425,4.05589,16.14862,9.29696,-3.09029,-34.39568,0.45217,0.00078,-14.48435,-2.1808,-0.00059,36.6981,14.65099,4.82012,3.83716,-4.86762,-8.08721,35.71647,9.24728,-15.88679,30.27707,-8.35163,24.65127,122.6686,-0.0043,-97.54419,128.88231,0.00666,75.46483,-2.0252,-4.7492,0.00041,0.10943,-3.86149,0.00369,-0.8985,-0.37836,7.11191,-22.48582,-2.97932,6.47171,3.4362,2.0355,7.37281
2435,-1.68378,0.0,-0.0,-1.63981,0.0,-0.0,-8.4572,-10.0304,4.67258,16.5087,9.37752,-3.29679,-34.06249,0.39293,0.00023,-15.01055,-2.16365,-0.00056,36.23049,14.70301,4.97115,3.96137,-4.7937,-7.89013,35.30911,9.46793,-16.35781,29.82242,-8.44991,24.40803,125.03126,0.02986,-97.16784,129.20071,0.00448,74.02972,-2.52845,-5.10176,0.00211,0.41733,-3.39281,0.00133,-0.65023,-0.51834,7.14236,-22.23903,-3.12069,6.44849,3.4305,2.25716,7.19445
2436,-2.00728,0.0,0.0,-1.76412,0.0,-0.0,-7.02882,-10.14002,5.64331,16.96302,9.52641,-3.66469,-33.88454,0.22109,-9e-05,-15.51008,-2.18541,-0.00069,35.85376,14.64073,4.86817,4.02816,-4.74303,-7.70475,35.03173,9.69275,-16.59832,29.2807,-8.71045,24.26395,127.36771,0.02901,-97.23051,129.50351,-0.00073,73.54599,-2.76331,-5.79447,-0.00207,0.19869,-3.02723,-0.0005,-0.29762,-0.60866,7.17238,-21.887,-3.21572,6.44317,3.37416,2.37864,6.86821
2437,-2.60755,0.0,-0.0,-2.09672,0.0,0.0,-5.4586,-10.29217,6.63243,17.42593,9.66289,-3.97237,-33.80306,-0.01427,-8e-05,-15.97812,-2.27798,-0.00052,35.53223,14.52191,4.66052,4.09918,-4.72401,-7.70622,34.65097,9.95327,-16.38519,28.7493,-9.028,24.32928,129.60318,-0.00082,-96.88117,129.61604,-0.00549,73.54901,-2.73174,-6.18284,-0.00778,-0.51328,-2.94219,0.00099,0.09829,-0.60349,7.29164,-21.48598,-3.25478,6.55614,3.3227,2.41116,6.47861
2438,-2.9355,-0.0,0.0,-2.18716,-0.0,0.0,-3.93767,-10.34157,7.38403,17.80577,9.77042,-4.07268,-33.7582,-0.21787,-5e-05,-16.50239,-2.4794,0.00056,35.2299,14.43157,4.58929,4.25961,-4.70043,-7.93999,34.09621,10.1776,-15.90337,28.3215,-9.27205,24.56498,131.69458,-0.0234,-95.80742,129.41603,-0.01267,73.07179,-2.78215,-5.82366,-0.01204,-1.28101,-3.12732,0.00159,0.43901,-0.47524,7.55465,-21.1312,-3.23224,6.84834,3.32278,2.43105,6.11472
2439,-2.7379,0.0,-0.0,-1.8874,0.0,0.0,-2.59583,-10.19434,7.89153,18.07968,9.947,-4.04924,-33.72117,-0.3185,-7e-05,-17.18006,-2.78043,0.00184,34.91446,14.41083,4.77745,4.53085,-4.6271,-8.24174,33.42943,10.27803,-15.401,27.94269,-9.38017,24.76922,133.61571,-0.02163,-94.42726,128.98918,-0.01522,72.0743,-2.8844,-5.35956,-0.01763,-1.58062,-3.52322,-0.00117,0.63106,-0.27201,7.90814,-20.91888,-3.17312,7.2524,3.35532,2.50978,5.87316
2440,-2.15382,0.0,0.0,-1.3994,-0.0,0.0,-1.47127,-9.8482,8.25461,18.27439,10.21656,-4.11416,-33.69096,-0.28994,-5e-05,-17.99414,-3.09786,0.0019,34.59426,14.44333,5.18189,4.84902,-4.48024,-8.43793,32.69979,10.28003,-14.81021,27.41388,-9.39279,24.7543,135.38429,-0.00537,-93.3782,128.58859,-0.00788,71.66197,-2.33054,-5.93255,-0.0393,-1.34394,-4.1151,-0.00317,0.67008,-0.07108,8.25492,-20.85913,-3.11355,7.64933,3.37395,2.66389,5.78798
2441,-1.4925,0.0,0.0,-0.95956,-0.0,0.0,-0.56905,-9.37786,8.49592,18.42073,10.4274,-4.39138,-33.6478,-0.15212,0.00019,-18.8327,-3.33868,0.00088,34.3133,14.48547,5.68001,5.13633,-4.27387,-8.51469,31.9339,10.27775,-13.97214,26.58951,-9.37674,24.48989,136.98152,0.0088,-93.01634,128.32751,0.00197,72.70875,-0.74471,-7.55559,-0.05523,-0.96901,-4.90221,-0.00119,0.66361,0.08353,8.55211,-20.84755,-3.07873,7.98301,3.36621,2.85378,5.79552
2442,-1.00446,0.0,-0.0,-0.63818,-0.0,0.0,0.09826,-8.88057,8.58413,18.56541,10.40747,-4.85582,-33.52427,0.03079,0.00051,-19.62609,-3.45601,-0.00024,34.08634,14.48128,6.16025,5.37553,-4.08346,-8.51648,31.22593,10.29638,-12.99643,25.52315,-9.35644,24.06508,138.28798,0.01294,-93.35778,128.06424,0.01083,74.90228,1.16818,-9.09551,-0.02781,-0.76142,-5.76154,0.00109,0.75134,0.16785,8.80918,-20.7447,-3.09452,8.25348,3.34686,3.005,5.8238
2443,-0.82541,0.0,0.0,-0.41136,-0.0,-0.0,0.54381,-8.47018,8.63397,18.79648,10.11767,-5.43481,-33.24892,0.14972,0.0002,-20.41546,-3.43698,-0.00123,33.87399,14.36212,6.48394,5.60256,-4.02577,-8.42221,30.71044,10.26712,-12.15475,24.36465,-9.36191,23.58171,139.18874,0.00706,-94.20329,127.68069,0.01069,77.01805,2.42422,-9.9204,0.00358,-0.73819,-6.42349,0.00025,0.94482,0.13762,9.02088,-20.54043,-3.2002,8.43966,3.32098,3.05238,5.8679
2444,-0.93972,-0.0,-0.0,-0.24702,0.0,-0.0,0.82035,-8.26684,8.88885,19.15466,9.64871,-6.05129,-32.83141,0.109,-0.00083,-21.26164,-3.3059,-0.00172,33.66135,14.09198,6.47994,5.84814,-4.14812,-8.27204,30.45838,10.1074,-11.60505,23.15991,-9.47469,23.07852,139.68732,-0.00363,-94.99843,127.27159,0.00062,77.73019,2.86186,-10.56798,0.01013,-0.98516,-6.76318,-0.0015,1.05074,-0.03749,9.13419,-20.43202,-3.40464,8.48104,3.3053,3.00828,5.93822
2445,-1.1847,0.0,0.0,-0.12334,-0.0,-0.0,1.01331,-8.2833,9.3965,19.53958,9.1729,-6.60311,-32.38233,-0.07558,-0.00137,-22.11881,-3.13685,-0.00106,33.51155,13.71992,6.12634,6.09239,-4.3579,-8.27262,30.45234,9.80932,-11.39364,21.80924,-9.772,22.49424,139.86652,-0.00919,-94.89914,126.98173,-0.00573,76.519,2.95488,-11.61105,0.008,-1.67297,-6.9668,-0.00111,0.83486,-0.29471,9.09383,-20.65589,-3.6292,8.34902,3.36369,2.965,5.99607
2446,-1.38849,0.0,0.0,-0.06713,-0.0,-0.0,1.2409,-8.3766,9.85768,19.80241,8.85675,-7.00719,-32.02095,-0.26016,-0.0008,-22.85604,-3.00064,8e-05,33.48347,13.35388,5.69464,6.27628,-4.50904,-8.59649,30.60344,9.47417,-11.56346,20.2007,-10.25104,21.72008,139.7708,-0.00247,-93.39845,126.84498,-0.00378,74.10428,2.95498,-12.49748,0.00836,-2.71248,-7.25397,0.0006,0.30526,-0.49897,8.89969,-21.20061,-3.7481,8.09301,3.55394,3.00421,6.01306
2447,-1.4594,-0.0,0.0,-0.10689,-0.0,0.0,1.56938,-8.40717,9.9138,19.89166,8.71798,-7.26132,-31.76549,-0.28057,0.00013,-23.39758,-2.90558,0.0006,33.538,13.07202,5.5468,6.36438,-4.52743,-9.17073,30.75628,9.2148,-12.13305,18.35828,-10.82853,20.72822,139.40642,0.01124,-90.70262,126.81958,0.00016,71.87664,2.71182,-12.07265,-0.00039,-3.86286,-7.61714,0.00167,-0.22862,-0.57706,8.59738,-21.75185,-3.70989,7.78248,3.8393,3.131,6.04367
2448,-1.38206,0.0,0.0,-0.18268,0.0,-0.0,1.93448,-8.35031,9.54816,19.85834,8.62249,-7.43354,-31.49797,-0.11392,0.00072,-23.78154,-2.8173,0.00042,33.55327,12.83308,5.73172,6.37011,-4.46257,-9.77365,30.73485,9.02322,-13.09068,16.45652,-11.4191,19.60921,138.86404,0.01658,-87.49279,126.8145,0.0023,70.77054,2.01825,-10.03838,-0.02355,-4.99891,-8.05106,0.00459,-0.45862,-0.58089,8.23516,-21.99974,-3.58051,7.44346,4.11054,3.27077,6.16456
2449,-1.30474,0.0,0.0,-0.2061,0.0,-0.0,2.25433,-8.22477,9.111,19.78127,8.45984,-7.60998,-31.03793,0.09371,0.00034,-24.08062,-2.70575,-0.0,33.41435,12.4783,5.92504,6.31247,-4.45649,-10.25267,30.45288,8.82588,-14.41253,14.66461,-12.00195,18.45579,138.33099,0.00896,-84.64429,126.67467,0.00339,70.71262,0.91968,-7.33652,-0.03241,-5.89965,-8.87248,0.00359,-0.36316,-0.60373,7.86115,-21.92234,-3.46439,7.08655,4.30429,3.301,6.37547
2450,-1.53431,-0.0,-0.0,-0.15518,0.0,-0.0,2.55592,-8.07622,8.92254,19.71448,8.22271,-7.86801,-30.30284,0.19751,-0.00101,-24.31362,-2.53866,-0.00036,33.09811,11.88873,5.79922,6.17666,-4.6211,-10.56428,30.02068,8.63092,-15.95339,12.98298,-12.58387,17.2816,137.96184,0.00106,-82.94137,126.29193,0.00178,70.98005,-0.07362,-5.38132,-0.01605,-6.13174,-10.37427,-0.01208,-0.11134,-0.68522,7.53274,-21.687,-3.41945,6.75059,4.44862,3.14513,6.60017
2451,-2.13624,0.0,0.0,-0.02147,-0.0,0.0,2.85347,-7.9973,8.91282,19.6376,7.95182,-8.22139,-29.39224,0.20955,-0.00119,-24.43909,-2.28362,-0.00036,32.69439,11.13179,5.35796,5.94125,-4.92952,-10.73672,29.697,8.49565,-17.4307,11.26537,-13.11667,16.1106,137.78111,0.0008,-82.70795,125.73372,-0.00213,70.93363,-0.24738,-5.17542,-0.01705,-5.62082,-12.29201,-0.02218,0.16144,-0.78788,7.26997,-21.42769,-3.41827,6.468,4.60435,2.85335,6.76199
2452,-2.71446,0.0,0.0,0.19856,0.0,-0.0,3.01707,-8.02904,8.74587,19.44172,7.71086,-8.56515,-28.48031,0.24795,0.00042,-24.40249,-1.96568,-0.0,32.33687,10.39129,4.88072,5.62331,-5.25584,-10.88123,29.66068,8.41224,-18.70903,9.36306,-13.50321,15.02218,137.62094,-0.00152,-83.73528,125.18267,-0.00313,70.45762,0.57406,-6.46834,-0.03455,-4.9574,-14.00301,-0.00866,0.37437,-0.83663,7.00489,-21.22668,-3.36605,6.20314,4.80693,2.54871,6.84573
2453,-2.98804,0.0,-0.0,0.38816,0.0,0.0,2.93341,-8.13203,8.28378,19.01786,7.54713,-8.77671,-27.66644,0.34954,0.00136,-24.15711,-1.66364,0.00025,32.08224,9.79807,4.55497,5.2423,-5.48394,-11.09532,29.8546,8.33239,-19.98906,7.20565,-13.69462,13.93874,137.16606,-0.01249,-85.46741,124.79768,-0.00097,69.70643,1.77931,-7.60382,-0.02021,-4.56348,-14.94633,0.0066,0.45484,-0.81897,6.61562,-21.16098,-3.20629,5.84719,5.0383,2.31847,6.92733
2454,-3.21331,-0.0,0.0,0.40785,0.0,0.0,2.67155,-8.2849,7.71405,18.35146,7.46325,-8.84192,-26.95363,0.41434,0.00041,-23.65985,-1.43082,1e-05,31.87891,9.38955,4.30215,4.76928,-5.54711,-11.34203,30.09443,8.23859,-21.55737,4.80484,-13.72523,12.49921,136.26457,-0.01586,-87.14694,124.62784,-0.00057,68.68418,2.58213,-7.04932,0.00336,-4.04894,-14.8325,0.0121,0.38646,-0.83797,6.02468,-21.25101,-3.00617,5.29009,5.24825,2.19071,7.15587
2455,-3.62417,0.0,-0.0,0.31752,0.0,0.0,2.34498,-8.46653,7.19228,17.51304,7.49032,-8.81434,-26.30394,0.3641,-0.00095,-22.91213,-1.26483,-0.00057,31.67876,9.15682,4.01177,4.18266,-5.42263,-11.53578,30.29001,8.15657,-23.42892,2.26787,-13.6392,10.43961,135.18718,-0.00288,-88.04594,124.53889,-0.00506,67.35018,2.72761,-5.21189,0.00919,-3.07723,-14.06742,0.00894,0.24331,-1.00718,5.2876,-21.4208,-2.89153,4.54167,5.43146,2.16436,7.63617
2456,-4.07326,-0.0,0.0,0.27755,0.0,-0.0,1.98056,-8.58705,6.66301,16.59568,7.68161,-8.7546,-25.67981,0.24692,-0.00136,-22.00161,-1.11687,-0.0006,31.51699,9.04206,3.69501,3.53175,-5.15263,-11.67025,30.50698,8.16718,-25.32534,-0.20437,-13.46955,8.06216,134.40369,0.00671,-87.91208,124.24799,-0.005,66.15955,2.64729,-4.04936,0.00757,-2.44677,-13.77144,0.0166,0.13208,-1.32252,4.57606,-21.55704,-2.9218,3.76311,5.63392,2.21071,8.30585
2457,-4.45426,0.0,-0.0,0.32622,-0.0,-0.0,1.58758,-8.57597,6.03679,15.67789,7.99594,-8.70145,-25.07008,0.16827,-0.00077,-21.05386,-0.91562,7e-05,31.44108,8.93604,3.38957,2.87665,-4.84582,-11.83065,30.82635,8.39536,-26.95051,-2.39901,-13.28007,6.02231,134.13953,0.0035,-87.08461,123.54497,0.01431,66.06563,3.09441,-4.87757,-0.02053,-3.44225,-14.77676,0.07155,0.11637,-1.68659,4.00855,-21.59237,-3.05032,3.10049,5.84504,2.27865,9.00006
2458,-4.8162,0.0,-0.0,0.41098,0.0,0.0,1.17951,-8.47253,5.30257,14.81038,8.31288,-8.59161,-24.48815,0.21278,0.00028,-20.15206,-0.63557,0.00048,31.41633,8.74607,3.1283,2.20712,-4.60403,-12.16066,31.23311,8.88734,-28.22934,-4.17977,-13.13561,4.60046,134.265,-0.00167,-85.99373,122.4757,0.03179,67.28391,4.52345,-7.13662,-0.05562,-5.94054,-16.67446,0.10012,0.16835,-2.02293,3.5236,-21.55598,-3.18344,2.52489,5.96216,2.3427,9.64836
2459,-5.14711,0.0,-0.0,0.49119,0.0,-0.0,0.76137,-8.40782,4.55481,14.00907,8.53102,-8.32148,-23.93346,0.39604,0.00098,-19.31774,-0.30198,0.00068,31.35396,8.43479,2.88861,1.47417,-4.45686,-12.72848,31.69771,9.48986,-29.33267,-5.48399,-13.08133,3.44793,134.51199,-0.00207,-85.04756,121.29696,0.01624,68.52991,6.55663,-9.21859,-0.03953,-8.02111,-18.10855,0.05323,0.1495,-2.32492,2.98534,-21.58887,-3.26482,1.91246,5.92219,2.42122,10.31695
2460,-5.36204,0.0,0.0,0.54112,-0.0,0.0,0.36077,-8.5077,3.96469,13.25163,8.59977,-7.91666,-23.37413,0.64534,0.00091,-18.53673,0.06729,0.00116,31.22004,7.9923,2.51106,0.6776,-4.36995,-13.42762,32.28538,9.95529,-30.53641,-6.24391,-13.18915,2.15659,134.63148,-0.0029,-84.94344,120.25368,-0.0093,68.52658,8.18871,-9.90636,-0.00089,-8.2005,-18.11537,0.02519,-0.10603,-2.6092,2.31029,-21.85717,-3.27901,1.17952,5.79769,2.5312,11.05663
2461,-5.25665,0.0,0.0,0.55487,0.0,-0.0,-0.01362,-8.6995,3.60417,12.49828,8.55953,-7.48388,-22.78797,0.86627,0.00034,-17.80333,0.43274,0.00103,31.08428,7.45085,1.85412,-0.10067,-4.26283,-14.13928,33.06245,10.16998,-32.01356,-6.32794,-13.53735,0.79508,134.43274,-0.00806,-85.92414,119.38082,-0.01355,67.58813,8.83872,-9.03149,0.00666,-7.13305,-17.0291,0.02041,-0.61203,-2.8628,1.39604,-22.37266,-3.17605,0.23586,5.70302,2.67138,11.8389
2462,-4.69624,0.0,-0.0,0.53841,-0.0,0.0,-0.38604,-8.71859,3.38823,11.77086,8.52101,-7.09431,-22.20428,1.01751,-0.00019,-17.18043,0.71132,-0.00025,31.05785,6.89879,0.97642,-0.73179,-4.05092,-14.86951,33.92804,10.20441,-33.73811,-5.6462,-14.14199,-0.36053,133.90305,-0.00554,-86.94383,118.58887,-0.00261,66.81294,8.91978,-7.34584,0.00252,-6.19945,-15.8617,0.00437,-1.18262,-3.05135,0.08237,-22.94346,-2.86478,-1.05426,5.66368,2.83335,12.66749
2463,-4.0181,0.0,0.0,0.4781,0.0,-0.0,-0.74,-8.46686,3.21374,11.18546,8.50632,-6.84064,-21.6772,1.11435,-0.00028,-16.8152,0.86185,-0.00148,31.17966,6.40027,0.05784,-1.11194,-3.74386,-15.62455,34.66511,10.20477,-35.57933,-4.32624,-15.01134,-1.36446,133.28351,0.0027,-86.80303,117.91001,0.00625,66.65288,9.05078,-5.90645,0.00457,-5.64251,-15.06612,-0.00235,-1.63833,-3.15979,-1.64801,-23.37998,-2.32516,-2.70094,5.61312,2.98098,13.63234
2464,-3.78178,0.0,-0.0,0.39353,0.0,0.0,-1.0387,-8.17062,3.02436,10.83057,8.43186,-6.85717,-21.21877,1.1837,-0.00014,-16.87077,0.90562,-0.00138,31.36115,5.94539,-0.75444,-1.21543,-3.46751,-16.31721,35.14559,10.34272,-37.38234,-2.56686,-16.24356,-2.46298,132.83313,0.00228,-85.61576,117.42818,0.00571,66.78712,9.13801,-5.18032,0.00344,-4.90669,-14.42737,0.00375,-2.0089,-3.21928,-3.51207,-23.70824,-1.69159,-4.45305,5.46736,3.05302,14.78344
2465,-4.15266,0.0,0.0,0.39711,0.0,-0.0,-1.30942,-8.06551,2.81496,10.65775,8.31127,-7.18492,-20.78471,1.22385,-0.00017,-17.43757,0.84945,0.0006,31.47229,5.51066,-1.38594,-1.07081,-3.35972,-16.87305,35.41088,10.79789,-38.96851,-0.23555,-17.89755,-3.54863,132.52454,0.00149,-84.21561,116.99834,-0.00322,66.60199,8.61304,-4.71343,-0.00689,-3.73804,-13.86393,0.0059,-2.44575,-3.29864,-5.12869,-24.09137,-1.16925,-5.98274,5.17891,3.00724,16.01051
2466,-4.82606,0.0,-0.0,0.59096,0.0,-0.0,-1.61787,-8.11724,2.6607,10.55126,8.26826,-7.71836,-20.3422,1.22452,-0.0003,-18.49816,0.69905,0.00298,31.47795,5.10191,-1.82788,-0.71255,-3.47769,-17.31473,35.59166,11.64996,-40.19752,3.10573,-19.77116,-4.20078,132.14819,0.00933,-82.73385,116.38701,-0.01371,65.7433,7.34967,-3.85295,-0.02002,-2.36252,-13.64081,-0.00144,-2.95981,-3.43289,-6.3722,-24.55348,-0.83667,-7.18642,4.74898,2.82926,17.13919
2467,-5.4403,0.0,-0.0,0.94121,0.0,0.0,-1.97002,-8.14248,2.64833,10.421,8.27888,-8.3209,-19.92704,1.21221,-0.00017,-19.95544,0.53803,0.00267,31.46135,4.72226,-2.12792,-0.17026,-3.79119,-17.67544,35.79588,12.81002,-41.03817,7.60946,-21.4925,-4.29174,131.72887,0.01214,-80.62681,115.71435,-0.01308,64.60931,5.90883,-2.62789,-0.01352,-1.26322,-13.83666,-0.00581,-3.34786,-3.52632,-7.42892,-24.88955,-0.53581,-8.20176,4.23141,2.50692,18.14243
2468,-5.92782,0.0,-0.0,1.34945,0.0,0.0,-2.28918,-8.07965,2.76037,10.16552,8.12324,-8.86101,-19.59938,1.22545,5e-05,-21.67816,0.48113,-0.00011,31.51783,4.36626,-2.33822,0.52847,-4.2231,-17.91119,36.04022,14.11103,-41.51719,12.809,-22.90081,-4.19653,131.6292,-0.00372,-77.88713,115.42686,-0.0072,64.06051,4.80238,-1.70456,0.00585,-0.97865,-14.02479,-0.00639,-3.41745,-3.41057,-8.52521,-24.89761,-0.02687,-9.17739,3.71588,2.04367,19.17898
2469,-6.34115,0.0,-0.0,1.73615,0.0,0.0,-2.51516,-8.01354,2.86075,9.66968,7.67308,-9.13384,-19.37542,1.25554,6e-05,-23.52823,0.55342,-0.00168,31.66307,4.05747,-2.45103,1.34922,-4.69771,-17.97483,36.28101,15.40175,-41.60112,18.03666,-24.17494,-4.30503,132.09123,-0.01327,-75.49561,115.77105,-0.00657,64.38708,4.03338,-1.48568,0.00761,-1.60361,-13.6707,-0.01282,-3.23319,-3.07946,-9.69904,-24.64112,0.70979,-10.14717,3.2679,1.50273,20.39766
2470,-6.48755,0.0,0.0,1.98131,0.0,0.0,-2.67511,-7.98743,2.78319,8.92872,7.05901,-8.97478,-19.26729,1.27381,-0.00015,-25.39645,0.69839,-0.00101,31.88864,3.82404,-2.41662,2.25772,-5.17525,-17.89791,36.49478,16.54858,-41.16521,22.99229,-25.50961,-4.5772,132.83882,-0.00135,-74.32432,116.4828,-0.00079,64.80596,3.53337,-1.59135,-0.01774,-2.53412,-12.74587,-0.01306,-3.10629,-2.76935,-10.80646,-24.44083,1.40161,-11.06425,2.908,0.99969,21.74101
2471,-6.21357,-0.0,0.0,2.03954,0.0,-0.0,-2.78315,-7.94238,2.50031,8.07963,6.5201,-8.49649,-19.3514,1.29369,-0.00046,-27.24461,0.87903,-0.00037,32.23269,3.63499,-2.24376,3.23811,-5.66375,-17.72858,36.65783,17.45677,-40.16925,27.84205,-26.86581,-4.60275,133.39409,0.00801,-73.97216,116.9844,0.0027,64.34196,3.28891,-1.6037,-0.0433,-3.03096,-11.70823,-0.002,-3.32493,-2.74996,-11.64031,-24.59835,1.72228,-11.83346,2.62624,0.62235,22.98048
2472,-5.8788,0.0,0.0,2.22827,0.0,-0.0,-2.74929,-7.8204,2.2339,7.27158,6.21036,-8.04667,-19.68936,1.32943,-0.00055,-29.0723,1.09867,-0.00072,32.6798,3.42478,-2.04346,4.25054,-6.19897,-17.45725,36.70593,18.12459,-38.90458,32.87454,-28.07181,-3.95503,133.71141,0.00751,-73.46403,116.79868,-0.00698,63.03595,2.6366,-2.07435,-0.00216,-2.91193,-10.90846,0.00494,-3.87722,-3.10277,-12.06973,-25.11365,1.54894,-12.36127,2.34707,0.35945,23.94647
2473,-6.01687,-0.0,-0.0,3.06677,0.0,-0.0,-2.50247,-7.59084,2.24893,6.58266,6.145,-7.90711,-20.196,1.33723,4e-05,-30.8196,1.35965,-0.00115,33.09635,3.15816,-1.92812,5.19779,-6.79671,-17.06112,36.6571,18.62491,-37.89661,38.08035,-29.01457,-2.54585,134.16478,0.00831,-72.89071,115.85435,-0.01097,61.78614,0.37489,-4.08193,0.14426,-2.59184,-10.33962,0.00252,-4.476,-3.68781,-12.18035,-25.69876,1.04359,-12.67612,1.9572,0.11704,24.65971
2474,-6.62813,0.0,0.0,4.58445,0.0,0.0,-2.15136,-7.20462,2.49094,6.04648,6.26592,-8.08363,-20.69375,1.28309,0.00068,-32.37769,1.64902,-0.00085,33.39558,2.81582,-1.88081,6.0105,-7.43855,-16.60491,36.72277,19.03693,-37.42189,43.08354,-29.73273,-0.69065,134.84955,0.01297,-72.96423,114.47506,-0.00315,61.22834,-3.64237,-7.55234,0.23168,-2.58628,-9.95771,-0.00196,-4.85307,-4.26658,-12.27311,-26.06532,0.53753,-12.97188,1.43935,-0.20007,25.23258
2475,-7.14307,0.0,-0.0,6.05052,-0.0,-0.0,-1.91311,-6.68585,2.60541,5.67794,6.53737,-8.35746,-21.09769,1.2264,0.00063,-33.72882,1.93136,0.00036,33.65482,2.36986,-1.77626,6.72437,-8.1037,-16.24839,37.11959,19.38825,-37.26527,47.48109,-30.38778,1.19275,135.32095,0.01436,-73.14567,113.06054,0.00369,61.35532,-7.82917,-10.73011,0.11071,-3.12277,-9.8581,-0.00096,-4.96743,-4.6588,-12.62396,-26.14896,0.29832,-13.43983,0.88654,-0.61632,25.74755
2476,-7.09375,0.0,-0.0,6.67781,0.0,-0.0,-1.87459,-6.24631,2.35458,5.47708,6.9406,-8.50335,-21.45816,1.27369,2e-05,-34.99272,2.15857,0.00166,33.98691,1.80786,-1.53861,7.42211,-8.79409,-16.11385,37.78115,19.62792,-37.01628,51.16108,-31.09048,2.90764,135.19386,0.02296,-72.11304,111.80164,0.00752,62.00327,-10.3039,-11.98034,-0.02833,-4.19296,-10.06679,0.00449,-4.94789,-4.8012,-13.22999,-26.07579,0.38349,-14.05449,0.38798,-1.0955,26.20298
2477,-6.64325,0.0,-0.0,6.47764,0.0,-0.0,-1.90006,-6.16334,1.85968,5.42156,7.38061,-8.46878,-21.83234,1.47596,-0.00057,-36.30609,2.33467,0.00133,34.39652,1.12486,-1.23461,8.14052,-9.54588,-16.1555,38.41309,19.69165,-36.42686,54.25584,-31.73302,4.48932,134.59299,0.02491,-70.03561,110.71156,0.01021,63.10869,-10.40842,-11.40286,-0.03152,-5.62078,-10.41145,0.0068,-4.92564,-4.72009,-13.83653,-25.99825,0.67676,-14.58923,0.00439,-1.6225,26.45928
2478,-6.4504,0.0,0.0,6.32759,0.0,-0.0,-1.76778,-6.51158,1.40727,5.40757,7.64611,-8.36797,-22.2169,1.79195,-0.00065,-37.70942,2.53202,-0.00072,34.83257,0.31702,-1.00365,8.87767,-10.38276,-16.19163,38.80124,19.60501,-35.50756,56.86063,-32.08622,5.97612,133.8835,0.00518,-68.68027,109.82816,0.00759,64.45451,-8.90618,-10.27639,0.00584,-6.92851,-10.63675,0.00359,-4.96672,-4.49709,-14.20564,-26.00578,1.01706,-14.8525,-0.19186,-2.20725,26.31247
2479,-6.9651,-0.0,0.0,7.13545,0.0,-0.0,-1.37689,-7.02416,1.09989,5.27398,7.53832,-8.30471,-22.59609,2.13893,-0.00035,-39.14922,2.77688,-0.00143,35.30369,-0.5698,-0.91727,9.6487,-11.22582,-16.08057,38.90819,19.47081,-34.45766,58.86914,-32.0765,7.23073,133.30061,-0.01265,-69.27494,109.27628,0.00074,65.51653,-7.16396,-9.80937,0.00613,-7.538,-10.62537,0.00112,-5.10949,-4.22151,-14.32945,-26.13881,1.31859,-14.86881,-0.16114,-2.80024,25.71678
2480,-7.82892,0.0,0.0,8.88837,-0.0,-0.0,-0.86151,-7.31667,0.77589,4.99486,7.10954,-8.26533,-22.96135,2.46707,-1e-05,-40.53101,3.00041,-1e-05,35.83655,-1.44842,-0.93461,10.44365,-11.92806,-15.80678,38.75087,19.34795,-33.51351,60.10917,-31.86493,7.97896,132.933,-0.0115,-71.44438,109.12899,-0.0021,65.8527,-5.97157,-10.51802,-0.00821,-7.3562,-10.55551,7e-05,-5.35765,-3.9285,-14.39698,-26.38326,1.61625,-14.82654,0.01529,-3.3063,24.86265
2481,-8.31481,0.0,0.0,10.77178,0.0,-0.0,-0.47079,-7.32102,0.28087,4.73919,6.71342,-8.24562,-23.2991,2.77055,0.00024,-41.75549,3.18839,-8e-05,36.36995,-2.25772,-0.99128,11.15162,-12.41008,-15.35405,38.39965,19.16715,-32.84182,60.58813,-31.6641,8.00389,132.8168,-0.00113,-73.94602,109.28797,-0.00133,65.62196,-5.24322,-12.02854,-0.01357,-6.88861,-10.69402,-0.00173,-5.60341,-3.57291,-14.61464,-26.61238,2.02609,-14.90179,0.14701,-3.67977,24.01217
2482,-8.22503,0.0,0.0,12.17413,-0.0,-0.0,-0.33707,-7.30032,-0.34216,4.62358,6.73475,-8.30546,-23.62345,3.04184,0.00036,-42.76247,3.41441,-0.00196,36.80453,-2.96596,-1.07132,11.63523,-12.68325,-14.69425,38.05884,18.77904,-32.57286,60.52355,-31.58537,7.31635,132.8996,0.00309,-75.68,109.57053,-0.0017,65.33934,-4.80283,-13.33203,-0.00886,-6.59503,-11.00813,-0.0024,-5.64172,-3.11155,-15.08093,-26.61258,2.62357,-15.17135,0.06665,-3.92685,23.32126
2483,-7.95883,-0.0,-0.0,13.3013,0.0,-0.0,-0.37252,-7.37414,-1.01477,4.46959,7.19948,-8.3182,-24.0174,3.25875,0.00015,-43.58529,3.60275,-0.00134,37.15787,-3.53369,-1.17945,11.90058,-12.7666,-14.05485,37.9555,18.10704,-32.81444,60.13209,-31.6394,6.11503,133.00276,0.00102,-76.36507,109.88964,-0.00124,65.10233,-4.67467,-13.64514,-0.00498,-6.3794,-11.16957,-0.00072,-5.34068,-2.62658,-15.75583,-26.25408,3.31743,-15.62816,-0.2337,-4.0429,22.79214
2484,-7.95168,0.0,-0.0,14.71963,0.0,-0.0,-0.35861,-7.37109,-1.77261,3.95747,7.69626,-7.95472,-24.58837,3.42008,-0.00039,-44.34945,3.52723,0.00243,37.56882,-3.93761,-1.2904,12.11659,-12.67993,-13.85531,38.12371,17.25823,-33.5499,59.4823,-31.76667,4.57306,132.98488,-0.0,-76.47942,110.27421,0.00226,64.53396,-4.72157,-13.14189,-0.00315,-5.86893,-10.89526,0.00554,-4.77536,-2.26414,-16.47403,-25.62393,3.91182,-16.17047,-0.61725,-4.02679,22.33041
2485,-8.23007,0.0,-0.0,16.343,-0.0,-0.0,-0.17883,-7.22179,-2.60786,3.08212,7.86257,-7.19772,-25.32735,3.54436,-0.00073,-45.20874,3.18527,0.00475,38.10412,-4.23231,-1.36358,12.45126,-12.53716,-14.14175,38.37163,16.48086,-34.60806,58.60881,-31.86189,2.7698,132.94832,0.00199,-76.48808,110.72678,0.00518,63.45126,-4.87792,-12.67829,0.00279,-4.97147,-10.21724,0.01089,-4.14635,-2.05865,-17.05569,-24.93918,4.31049,-16.64193,-0.96422,-3.96101,21.85865
2486,-8.35677,0.0,0.0,17.25422,-0.0,-0.0,0.04121,-7.1002,-3.33706,2.24147,7.85185,-6.50387,-26.04006,3.62081,-0.00036,-46.26825,2.8663,0.00261,38.65421,-4.5292,-1.40627,12.95366,-12.53831,-14.47356,38.45355,16.00183,-35.77295,57.65686,-31.83976,0.84085,133.14781,0.0034,-76.45055,111.16318,0.00384,62.13215,-5.50412,-12.80548,0.01244,-3.93911,-9.50112,0.00682,-3.59841,-1.94645,-17.48407,-24.34828,4.56723,-17.00352,-1.26645,-3.99283,21.3779
2487,-7.85876,0.0,-0.0,16.79739,0.0,0.0,0.08766,-7.12548,-3.80284,1.71643,8.00854,-6.21927,-26.50872,3.61605,7e-05,-47.5197,2.78021,-0.00108,39.05468,-4.87456,-1.46903,13.56771,-12.78403,-14.514,38.26727,15.86519,-36.82639,56.80185,-31.67954,-0.95122,133.68111,-0.00159,-76.1039,111.50747,0.0006,60.96326,-6.81216,-13.22733,0.0115,-2.97424,-9.15409,-0.00228,-3.1712,-1.89379,-17.88604,-23.87848,4.75867,-17.3618,-1.58629,-4.17809,20.89605
2488,-6.84751,0.0,0.0,15.72037,-0.0,0.0,-0.05957,-7.22739,-4.0596,1.26593,8.22042,-6.23167,-26.71188,3.53598,9e-05,-48.8372,2.90853,-0.00311,39.22997,-5.2045,-1.55623,14.18766,-13.19571,-14.33086,37.9178,15.91819,-37.52066,56.09074,-31.3977,-2.3515,134.34668,-0.00856,-75.0192,111.76114,-0.0015,60.19939,-8.25156,-13.23284,-0.00187,-2.07663,-9.24922,-0.00684,-2.90341,-1.8884,-18.29443,-23.56508,4.90789,-17.74312,-1.98781,-4.42758,20.35254
2489,-5.97437,-0.0,0.0,15.73992,0.0,-0.0,-0.1951,-7.2738,-4.20749,0.4046,8.04779,-6.28533,-26.80204,3.42529,6e-05,-50.0705,3.16941,-0.00318,39.22182,-5.46291,-1.60654,14.7385,-13.66776,-14.09682,37.58255,15.97744,-37.71126,55.42743,-31.0288,-3.28492,134.79405,-0.00499,-73.24261,111.97189,-0.00195,59.95922,-9.00763,-12.45428,-0.00237,-1.32412,-9.4608,-0.00435,-2.89741,-1.88021,-18.56247,-23.52876,5.01001,-17.99185,-2.46525,-4.66494,19.68038
2490,-5.61957,0.0,-0.0,17.68554,-0.0,0.0,-0.15765,-7.16599,-4.23264,-1.00624,7.37392,-6.28782,-26.90886,3.3206,8e-05,-51.14165,3.45715,-0.00105,39.15151,-5.68035,-1.59092,15.24835,-14.16187,-13.88402,37.32591,15.98816,-37.52718,54.69254,-30.6437,-3.87852,134.81815,0.00153,-71.70579,112.1884,-0.00064,60.06355,-8.88408,-11.08437,0.00871,-0.97121,-9.39316,-0.00165,-3.20616,-1.82369,-18.56425,-23.83907,5.06353,-17.97353,-2.91343,-4.92027,18.91208
2491,-5.58227,0.0,-0.0,20.45443,-0.0,0.0,-0.0062,-6.91535,-4.13724,-2.58453,6.59239,-6.26442,-27.05572,3.26043,-8e-05,-52.04296,3.64977,0.00171,39.15122,-5.90686,-1.57279,15.79094,-14.63015,-13.72076,37.11149,15.97711,-37.24546,53.88132,-30.34515,-4.30632,134.55148,-0.00033,-71.27811,112.43391,0.00136,60.12719,-8.25765,-9.67792,0.00985,-1.19386,-9.00019,-0.00231,-3.68655,-1.73497,-18.3854,-24.34264,5.08353,-17.77419,-3.2289,-5.20793,18.16666
2492,-5.65542,0.0,-0.0,21.93306,0.0,-0.0,0.11821,-6.6868,-4.03193,-3.76036,6.22099,-6.23078,-27.20334,3.29732,-0.00032,-52.79346,3.76254,0.00213,39.25861,-6.15037,-1.63892,16.35274,-14.99837,-13.57717,36.96154,15.92151,-36.99742,53.11549,-30.2169,-4.64669,134.30844,-0.00253,-71.70478,112.70104,0.00107,60.1412,-7.35233,-8.87454,-0.00132,-1.90663,-8.6377,-0.00014,-4.06464,-1.66587,-18.27357,-24.73555,5.10874,-17.6447,-3.44313,-5.44297,17.5504
2493,-6.02543,0.0,0.0,21.03694,0.0,0.0,0.20381,-6.63265,-3.99744,-4.25619,6.38103,-6.14736,-27.28143,3.44643,-0.00026,-53.4212,3.95975,0.00014,39.3728,-6.39476,-1.80373,16.83044,-15.25672,-13.34709,36.95193,15.77466,-36.74453,52.49269,-30.24258,-4.90734,134.23517,-0.0019,-72.22217,112.98013,-0.00169,60.49012,-6.14607,-8.88862,-0.01179,-2.73337,-8.63034,0.004,-4.16837,-1.64539,-18.42798,-24.82247,5.18236,-17.78244,-3.68072,-5.54986,17.10466
2494,-6.91185,0.0,0.0,18.86639,-0.0,0.0,0.33921,-6.70762,-3.98086,-4.33101,6.64925,-5.93544,-27.23197,3.67012,0.0001,-53.94669,4.34156,-0.00162,39.38539,-6.6393,-2.01723,17.16889,-15.4748,-12.98454,37.05162,15.56338,-36.52266,51.98294,-30.29457,-5.10356,134.24207,-0.00095,-72.72071,113.27709,-0.00281,61.17732,-4.95121,-9.25995,-0.01209,-3.16796,-8.90181,0.00341,-4.05581,-1.65891,-18.83945,-24.66225,5.31463,-18.17376,-3.97809,-5.55301,16.80411
2495,-8.04708,0.0,0.0,17.5536,-0.0,0.0,0.51862,-6.75076,-3.88463,-4.51416,6.52584,-5.53149,-27.07674,3.93481,0.00028,-54.35826,4.80096,-0.00128,39.32893,-6.91362,-2.2426,17.42113,-15.71537,-12.62013,37.12148,15.355,-36.48257,51.51998,-30.25518,-5.23669,134.24944,0.0,-73.50499,113.58906,-0.0002,61.63395,-4.34582,-9.37113,-0.01851,-3.05899,-9.16247,0.00098,-3.92779,-1.68189,-19.31233,-24.47795,5.45926,-18.62636,-4.23422,-5.5141,16.56844
2496,-8.82371,0.0,0.0,18.15071,-0.0,0.0,0.62009,-6.69061,-3.68069,-5.09741,6.00602,-4.9532,-26.89882,4.23235,9e-05,-54.61031,5.12449,0.00014,39.31258,-7.23852,-2.47783,17.65036,-15.97315,-12.43154,37.07642,15.17201,-36.63245,51.11861,-30.10384,-5.24956,134.28181,-0.00045,-74.5276,113.8919,0.00257,61.50208,-4.3962,-8.96732,-0.04296,-2.85074,-9.28332,0.0,-3.94501,-1.71657,-19.61835,-24.45736,5.53405,-18.92636,-4.36264,-5.46321,16.32386
2497,-8.94268,0.0,0.0,19.90996,0.0,-0.0,0.57108,-6.61749,-3.40739,-5.93389,5.55647,-4.29255,-26.74174,4.54843,-7e-05,-54.67001,5.19672,0.00067,39.36124,-7.57373,-2.71334,17.85735,-16.19087,-12.4099,36.96468,14.98951,-36.72873,50.84692,-29.87324,-5.09539,134.25299,-0.00461,-75.47139,114.16373,0.00201,61.14882,-4.367,-7.95792,-0.05082,-3.00968,-9.29342,-0.00085,-4.11004,-1.77208,-19.63151,-24.61892,5.48668,-18.95828,-4.40339,-5.41639,16.07462
2498,-8.71271,-0.0,-0.0,21.39056,-0.0,-0.0,0.42517,-6.68025,-3.13089,-6.67481,5.54025,-3.62592,-26.57063,4.85327,0.0001,-54.56764,5.06026,0.00015,39.39973,-7.84015,-2.91277,18.01467,-16.31224,-12.39597,36.91573,14.74589,-36.48077,50.75316,-29.6129,-4.83839,133.84666,-0.00582,-76.06836,114.39059,-0.0004,61.21195,-3.13144,-6.09323,0.01393,-3.39355,-9.13143,-0.00095,-4.29968,-1.83348,-19.38011,-24.83673,5.34108,-18.74352,-4.45924,-5.38309,15.8861
2499,-8.62415,0.0,-0.0,21.90829,0.0,-0.0,0.26197,-6.92152,-2.93544,-7.11797,5.84729,-2.98093,-26.33568,5.11074,0.00029,-54.3732,4.81172,-0.00053,39.35794,-7.98745,-3.03803,18.09901,-16.32234,-12.32989,37.02561,14.36012,-35.81077,50.85601,-29.39065,-4.60237,132.82043,0.0059,-76.05859,114.55859,-0.00145,61.86304,-0.01866,-3.24542,0.12411,-3.52366,-8.59913,0.00272,-4.41127,-1.87196,-19.02159,-24.98957,5.17923,-18.42016,-4.57998,-5.33286,15.80759
2500,-8.77093,0.0,0.0,21.71314,0.0,0.0,0.08287,-7.22801,-2.88332,-7.31325,6.15914,-2.40591,-26.03329,5.28067,0.00013,-54.13028,4.53723,-0.00071,39.2411,-8.0143,-3.07686,18.10415,-16.2494,-12.27808,37.23599,13.83949,-34.93299,51.12715,-29.24503,-4.41439,131.39439,0.01785,-75.32767,114.67786,-0.00071,62.61614,4.31628,0.10121,0.14507,-3.24918,-7.64754,0.0069,-4.46307,-1.86585,-18.71708,-25.07705,5.07788,-18.13196,-4.72487,-5.21522,15.82669
2501,-8.93026,-0.0,-0.0,21.28757,0.0,-0.0,-0.13857,-7.45923,-2.95554,-7.41199,6.32685,-2.02572,-25.71011,5.34107,-0.00021,-53.84412,4.35538,1e-05,39.11967,-7.94577,-3.04869,18.06411,-16.14434,-12.23231,37.34999,13.33912,-34.18573,51.47771,-29.14105,-4.17734,130.15952,0.01104,-74.35692,114.78168,0.00053,62.79379,8.16025,2.97368,0.04599,-2.84225,-6.63175,0.00457,-4.54138,-1.81811,-18.4985,-25.18199,5.04559,-17.90981,-4.81675,-5.02865,15.87713
2502,-8.97913,0.0,0.0,21.02653,0.0,-0.0,-0.37087,-7.55742,-3.06512,-7.49806,6.33522,-1.92218,-25.44062,5.30929,-0.00029,-53.53018,4.3645,0.001,39.07495,-7.8113,-2.97658,18.04193,-16.05749,-12.10977,37.23164,13.02327,-33.80248,51.83839,-29.01287,-3.80966,129.57678,0.00281,-74.23005,114.88193,0.00112,62.17432,10.00963,4.59698,-0.03601,-2.63451,-6.06251,3e-05,-4.691,-1.75631,-18.29509,-25.35665,5.03171,-17.69695,-4.82293,-4.82977,15.90158
2503,-8.88595,0.0,0.0,20.9854,-0.0,-0.0,-0.58112,-7.51161,-3.13549,-7.50304,6.19472,-1.97323,-25.28091,5.21756,-8e-05,-53.24375,4.47782,0.00091,39.13424,-7.63026,-2.86343,18.0717,-16.00757,-11.96406,36.94835,12.90095,-33.84378,52.21757,-28.83517,-3.3438,129.63953,0.01077,-75.79896,114.97113,0.00078,61.14612,9.34756,4.8433,-0.01959,-2.76619,-6.11035,0.00011,-4.87866,-1.68246,-18.07413,-25.57141,5.02281,-17.46334,-4.78231,-4.67041,15.92212
2504,-8.63497,0.0,-0.0,20.71547,0.0,0.0,-0.79344,-7.35045,-3.14316,-7.27482,6.02638,-2.00019,-25.21876,5.08618,0.00017,-53.03078,4.49668,9e-05,39.24533,-7.41692,-2.72808,18.11597,-15.9681,-11.96905,36.6777,12.84741,-34.25287,52.63191,-28.62463,-2.88078,129.96469,0.01428,-78.69183,115.04883,0.00017,60.24575,6.72273,4.24653,0.02425,-3.14606,-6.52448,0.00195,-5.03817,-1.53292,-17.90834,-25.754,5.1041,-17.25463,-4.75884,-4.55678,16.00303
2505,-8.39436,0.0,0.0,19.96979,0.0,-0.0,-1.00869,-7.18476,-3.10535,-6.8238,5.98592,-2.05699,-25.18315,4.93736,0.00025,-52.85347,4.40092,-0.00015,39.31632,-7.1932,-2.6224,18.08905,-15.89697,-12.16349,36.53687,12.75571,-34.89712,53.03968,-28.39801,-2.50275,130.13281,0.00552,-81.39078,115.11076,-0.00017,59.69293,3.50596,3.69565,0.01964,-3.50824,-6.93582,0.00154,-5.14975,-1.25506,-17.89531,-25.87601,5.35938,-17.14367,-4.78927,-4.46965,16.14459
2506,-8.4372,-0.0,-0.0,19.19151,-0.0,-0.0,-1.15098,-7.12029,-3.0475,-6.38597,6.09912,-2.38515,-25.10128,4.79245,0.00012,-52.62716,4.3696,0.00054,39.27505,-6.98125,-2.56862,17.9378,-15.78879,-12.38431,36.51405,12.63269,-35.5606,53.38462,-28.16579,-2.22295,130.01938,0.00226,-82.55257,115.14326,-0.0002,59.36962,1.07544,3.68948,-0.00234,-3.57734,-7.13283,0.00056,-5.27242,-0.93202,-18.02201,-25.99586,5.70634,-17.14785,-4.87693,-4.40506,16.28397
2507,-8.81995,0.0,-0.0,18.81819,-0.0,0.0,-1.14706,-7.1222,-2.9616,-6.11958,6.31887,-3.06052,-24.9446,4.63071,-0.0002,-52.34903,4.47142,0.00103,39.12999,-6.78729,-2.54598,17.72691,-15.69342,-12.50996,36.49707,12.54737,-35.98577,53.67532,-27.94445,-1.97784,129.85046,0.00156,-82.04516,115.12817,-0.00015,59.10523,-0.02462,3.82845,-0.00755,-3.29925,-7.16892,0.00021,-5.48449,-0.74136,-18.12779,-26.20318,5.9221,-17.17949,-4.98119,-4.38317,16.39163
2508,-9.24041,0.0,0.0,18.66094,0.0,0.0,-1.01664,-7.03972,-2.82671,-5.93333,6.59082,-3.79654,-24.74534,4.40926,-0.00044,-52.12029,4.48923,0.00054,38.99527,-6.59533,-2.56523,17.61907,-15.64746,-12.69976,36.38851,12.51086,-36.04734,53.97361,-27.75238,-1.69591,129.88368,-0.0041,-80.53764,115.05538,-5e-05,58.88762,-0.02153,3.39758,-0.01178,-2.89305,-7.24881,-0.00043,-5.79586,-0.75116,-18.0351,-26.52435,5.88013,-17.09583,-5.01296,-4.39583,16.48913
2509,-9.28197,-0.0,-0.0,18.29597,0.0,0.0,-0.85693,-6.79949,-2.67259,-5.71817,6.82941,-4.22758,-24.57101,4.14876,-0.00028,-52.02422,4.183,0.00026,38.98373,-6.38993,-2.66919,17.70957,-15.61774,-13.21379,36.23018,12.45292,-35.8811,54.31228,-27.60464,-1.39038,130.08151,-0.00594,-78.89343,114.95486,5e-05,58.7647,0.62053,2.41128,-0.0158,-2.59839,-7.52134,-0.00097,-6.11882,-0.83744,-17.74029,-26.87625,5.69504,-16.84945,-4.92773,-4.38445,16.58694
2510,-8.84433,0.0,-0.0,17.65483,0.0,0.0,-0.74837,-6.52904,-2.54894,-5.53049,6.95126,-4.33933,-24.46407,3.93169,4e-05,-52.04796,3.65915,0.00038,39.07273,-6.19104,-2.82703,17.9269,-15.5757,-13.95911,36.14806,12.32549,-35.72823,54.66378,-27.50174,-1.12973,130.20338,-0.00345,-78.20507,114.88461,-4e-05,58.70425,1.45466,1.6775,-0.00794,-2.47657,-8.02194,-0.00063,-6.33487,-0.83369,-17.43748,-27.12482,5.59116,-16.56365,-4.80274,-4.33077,16.68141
2511,-8.19539,-0.0,-0.0,17.07495,-0.0,0.0,-0.70731,-6.38896,-2.46442,-5.50096,6.91831,-4.40324,-24.41473,3.80262,0.00016,-52.12202,3.25428,0.00015,39.15965,-6.02909,-2.92337,18.14745,-15.54559,-14.53296,36.17619,12.16104,-35.65338,54.95869,-27.41484,-0.93808,130.11659,-0.00493,-79.09758,114.8693,-0.00022,58.72635,2.22151,1.80774,0.00434,-2.52857,-8.67321,0.00067,-6.40262,-0.69378,-17.31442,-27.21045,5.67826,-16.39814,-4.73124,-4.28532,16.7837
2512,-7.61017,-0.0,-0.0,16.93833,-0.0,0.0,-0.73255,-6.37605,-2.40854,-5.70136,6.78109,-4.57559,-24.39585,3.7374,0.0001,-52.17482,3.1127,-0.00013,39.20012,-5.90043,-2.90885,18.30746,-15.52835,-14.75494,36.22255,12.00061,-35.51809,55.12846,-27.29338,-0.78815,129.88025,-0.006,-80.92999,114.87224,-4e-05,58.97108,2.93804,2.63141,0.01151,-2.76157,-9.26851,0.00103,-6.37549,-0.50023,-17.36708,-27.18475,5.87789,-16.3785,-4.70687,-4.24811,16.8666
2513,-7.16878,-0.0,0.0,17.29073,0.0,0.0,-0.83137,-6.4077,-2.36891,-6.07428,6.64953,-4.79673,-24.39745,3.70096,3e-05,-52.167,3.13073,-0.00015,39.20471,-5.79897,-2.85923,18.37455,-15.49141,-14.78456,36.19419,11.826,-35.21957,55.17723,-27.10038,-0.66526,129.62636,-0.00167,-82.43625,114.83427,0.00066,59.46269,3.503,3.4922,0.01274,-3.0598,-9.59156,-0.00057,-6.321,-0.3641,-17.43439,-27.12824,6.02905,-16.39314,-4.68513,-4.15545,16.83331
2514,-6.86236,0.0,0.0,17.83761,-0.0,-0.0,-0.97528,-6.47199,-2.31797,-6.46532,6.53082,-4.97263,-24.41701,3.67317,-0.0,-52.12169,3.22543,-0.0001,39.17037,-5.7461,-2.83377,18.33545,-15.45177,-14.73657,36.0944,11.57877,-34.85509,55.17096,-26.86871,-0.61651,129.43164,0.00253,-82.95325,114.73725,0.00096,59.98695,3.39555,3.78309,0.0172,-3.22031,-9.54326,-0.00112,-6.29637,-0.32241,-17.37677,-27.11122,6.04755,-16.32409,-4.66876,-4.01541,16.64788
2515,-6.63265,0.0,-0.0,18.09683,0.0,0.0,-1.12073,-6.62714,-2.25521,-6.73205,6.32158,-5.05386,-24.43857,3.63771,-1e-05,-52.10085,3.39849,-0.00021,39.08802,-5.74108,-2.7958,18.23254,-15.46165,-14.55924,36.0015,11.21382,-34.62048,55.13605,-26.69654,-0.73215,129.23103,-0.00039,-83.08649,114.60138,2e-05,60.2574,2.21207,3.5361,0.01915,-3.11058,-9.12516,0.0015,-6.40169,-0.32357,-17.21947,-27.23289,5.99055,-16.17666,-4.68215,-3.9109,16.43092
2516,-6.39157,0.0,-0.0,17.66612,0.0,0.0,-1.25822,-6.90663,-2.24468,-6.83678,6.00346,-4.96108,-24.44917,3.58699,-0.0,-52.12455,3.55146,-0.00039,38.97969,-5.7216,-2.71536,18.1364,-15.50411,-14.31159,35.97464,10.74273,-34.59697,55.0448,-26.59791,-1.01253,128.88504,-0.011,-83.97106,114.41397,-0.00177,60.13822,0.28842,3.51017,-0.0022,-2.69552,-8.49109,0.00404,-6.74122,-0.30329,-17.10417,-27.58509,5.96849,-16.06106,-4.72199,-3.86077,16.31152
2517,-6.28681,-0.0,0.0,16.83071,-0.0,0.0,-1.32784,-7.23384,-2.33827,-6.88096,5.70239,-4.59511,-24.47854,3.53108,1e-05,-52.14322,3.49463,-0.00056,38.89275,-5.61522,-2.63382,18.08513,-15.49148,-14.1977,35.99082,10.22988,-34.67935,54.89015,-26.41376,-1.28724,128.38791,-0.01649,-85.64648,114.12669,-0.00243,59.80633,-1.56362,4.2344,-0.02294,-2.06333,-8.00257,0.00148,-7.27362,-0.24966,-17.09168,-28.12077,6.01416,-16.03014,-4.75928,-3.80058,16.26451
2518,-6.69818,0.0,0.0,16.44574,0.0,-0.0,-1.18804,-7.49693,-2.46883,-6.97913,5.58741,-4.0064,-24.59239,3.49414,-4e-05,-52.11467,3.24462,-0.00062,38.86386,-5.43542,-2.58818,18.07293,-15.40012,-14.20401,35.97593,9.73927,-34.69426,54.69207,-26.01587,-1.39483,127.9288,-0.00836,-86.7374,113.74949,-0.00013,59.69326,-2.72602,5.1669,-0.01692,-1.47851,-7.91827,-0.003,-7.77889,-0.20719,-17.09536,-28.62727,6.05516,-16.0184,-4.77461,-3.71047,16.19802
2519,-7.63299,0.0,-0.0,16.82147,0.0,-0.0,-0.80317,-7.67384,-2.48838,-7.09706,5.76951,-3.43418,-24.82471,3.49383,-0.00018,-52.05677,3.07862,-0.00027,38.88942,-5.29238,-2.57177,18.06392,-15.32509,-14.04143,35.88958,9.30026,-34.58307,54.44375,-25.52087,-1.38709,127.67735,0.0,-85.97759,113.37305,0.00252,60.08466,-3.15905,5.35953,-0.00391,-1.20256,-8.03709,-0.00383,-8.05166,-0.22978,-17.03822,-28.90504,6.01371,-15.97278,-4.78071,-3.65719,16.09677
2520,-8.48135,0.0,-0.0,17.50401,0.0,0.0,-0.35096,-7.75997,-2.33525,-7.15044,6.1903,-3.07645,-25.12654,3.5132,-0.00017,-51.98782,3.15992,0.00018,38.92936,-5.27706,-2.60318,18.00853,-15.3473,-13.60424,35.7716,8.92165,-34.4803,54.12088,-25.16029,-1.41409,127.57381,0.0018,-83.87367,113.05803,0.00177,60.70974,-3.47841,4.8154,0.00018,-1.16137,-7.94647,-0.00181,-8.09394,-0.30714,-16.99084,-28.9493,5.92455,-15.95596,-4.8004,-3.68209,15.97675
2521,-8.73963,0.0,-0.0,18.22927,0.0,-0.0,-0.03782,-7.7009,-2.10506,-7.19468,6.59492,-2.89787,-25.39758,3.50947,6e-05,-51.87492,3.33156,0.00018,38.95046,-5.35695,-2.72125,17.88919,-15.42176,-13.16258,35.68818,8.61645,-34.5547,53.73048,-25.01283,-1.48812,127.42052,-0.0028,-82.49877,112.77532,-0.00168,60.92078,-4.44723,4.49872,-0.01166,-0.99499,-7.53506,0.00172,-8.07242,-0.35296,-17.07311,-28.91765,5.91102,-16.04964,-4.82219,-3.73403,15.81068
