PaulMeinheit/Bachelor_Muay_Thai/processed_Data/E1/roundhouse/sliced/JointMoments/sliced1.csv
Unnamed: 0_level_0,R_KNEE_MOMENT,R_KNEE_MOMENT,R_KNEE_MOMENT,L_KNEE_MOMENT,L_KNEE_MOMENT,L_KNEE_MOMENT,R_HIP_MOMENT,R_HIP_MOMENT,R_HIP_MOMENT,L_HIP_MOMENT,L_HIP_MOMENT,L_HIP_MOMENT,R_ANKLE_MOMENT,R_ANKLE_MOMENT,R_ANKLE_MOMENT,L_ANKLE_MOMENT,L_ANKLE_MOMENT,L_ANKLE_MOMENT,WAIST_JOINT_MOMENT,WAIST_JOINT_MOMENT,WAIST_JOINT_MOMENT,NECK_MOMENT,NECK_MOMENT,NECK_MOMENT,L_SHOULDER_MOMENT,L_SHOULDER_MOMENT,L_SHOULDER_MOMENT,R_SHOULDER_MOMENT,R_SHOULDER_MOMENT,R_SHOULDER_MOMENT,L_ELBOW_MOMENT,L_ELBOW_MOMENT,L_ELBOW_MOMENT,R_ELBOW_MOMENT,R_ELBOW_MOMENT,R_ELBOW_MOMENT,L_WRIST_MOMENT,L_WRIST_MOMENT,L_WRIST_MOMENT,R_WRIST_MOMENT,R_WRIST_MOMENT,R_WRIST_MOMENT
ITEM,X,Y,Z,X,Y,Z,X,Y,Z,X,Y,Z,X,Y,Z,X,Y,Z,X,Y,Z,X,Y,Z,X,Y,Z,X,Y,Z,X,Y,Z,X,Y,Z,X,Y,Z,X,Y,Z
1001,-5.80493,-26.99498,-0.9181,-9.75012,7.75283,0.84329,-20.17121,-36.28362,-1.94362,-6.08661,12.22169,6.4603,-10.15687,17.73633,-3.75221,-16.33607,1.48537,-0.64793,3.08807,16.61729,0.7017,5.40902,-8.52673,2.44885,4.51368,-0.69025,0.34332,6.0441,-3.1895,2.83683,0.98755,-1.52156,0.2525,0.42033,-0.04432,0.69083,0.14025,-0.20584,0.11371,-0.07003,-0.2272,0.23803
1002,-5.38838,-26.48613,-1.10135,-10.74374,6.22092,0.29927,-17.01097,-37.79189,-1.51167,-9.43736,10.74789,3.26959,-10.23053,17.94488,-3.91675,-16.33845,1.2325,-0.71836,4.06184,12.45685,-1.25775,6.14802,-10.67668,2.80723,4.72487,0.04201,0.91601,5.51388,-4.49144,1.46123,0.98954,-1.91542,0.21177,0.46253,0.1495,0.6942,0.17936,-0.23016,0.05391,-0.03368,-0.21953,0.27325
1003,-5.34113,-26.88997,-1.0437,-11.4239,6.28159,-0.02389,-15.3893,-37.67833,-0.05198,-14.24003,10.71075,-1.00203,-10.16984,18.13812,-4.08673,-16.19495,1.13123,-0.62999,0.34603,11.91239,-5.76328,-0.9286,-14.63914,3.95952,5.88846,0.28682,0.67341,5.67622,-5.00818,-0.79247,1.18189,-1.8049,-0.04582,1.2381,1.11528,-0.03987,0.29238,-0.13608,-0.07028,0.12583,0.00659,0.05871
1004,-6.33247,-27.41085,-0.94051,-10.81792,7.35318,0.11263,-16.09466,-38.01035,0.79274,-16.79731,10.91641,-2.54147,-10.12412,18.60063,-4.30558,-15.92159,1.19528,-0.52622,-3.59681,11.02922,-7.86161,-0.59612,-20.92836,4.96662,5.8358,0.06486,0.45597,5.48427,-4.29335,-2.29158,1.67244,-1.69181,-0.16274,1.78928,1.90901,-0.78123,0.40879,-0.07529,-0.08391,0.21734,0.19403,-0.16035
1005,-8.40352,-27.91015,-0.87258,-10.30461,7.2393,0.26654,-20.37654,-41.9524,0.4425,-18.8994,9.06781,-1.27439,-10.19833,19.36877,-4.56762,-15.61692,1.23249,-0.60898,-10.23784,3.90868,-6.50834,10.45516,-23.01118,0.71948,4.94741,-0.44774,0.21039,4.84725,-3.58454,-2.65771,1.73743,-1.36224,-0.02795,1.96243,1.96958,-0.87632,0.37644,-0.05472,0.00761,0.22425,0.17777,-0.19145
1006,-10.42208,-28.76063,-0.74214,-10.6246,5.26252,0.03026,-27.96933,-46.54363,0.35234,-19.69041,6.30172,0.32086,-10.28951,19.97122,-4.79654,-15.23037,1.05846,-0.84624,-19.8828,-3.5304,-4.47677,15.07123,-13.99643,-7.34015,4.90792,-1.31559,-0.69976,5.17503,-4.06538,-1.95019,1.04817,-0.55214,0.09994,1.99838,1.48589,-0.46677,0.17564,-0.01037,0.07334,0.22757,0.06372,-0.10136
1007,-11.27495,-29.53978,-0.61083,-10.82549,3.90074,-0.21901,-32.85088,-47.44604,1.00761,-14.87445,6.71611,2.27713,-10.3505,20.16975,-4.9283,-14.69623,0.82346,-0.97928,-20.31194,-2.10533,-1.51962,7.7139,0.33686,-10.55352,5.98029,-2.11139,-1.72732,6.61898,-5.12992,-0.02595,0.38402,0.07371,0.07588,1.75751,0.6663,0.10573,0.00419,0.0207,0.07184,0.2151,-0.02798,0.00056
1008,-11.08071,-29.4486,-0.71481,-10.48145,4.68506,-0.0682,-29.73743,-45.60898,0.88829,-5.97834,9.5295,5.03047,-10.48367,20.30175,-4.99371,-14.10875,0.70118,-0.91895,-4.36483,4.02833,2.24392,4.15049,6.37779,-6.224,7.04921,-1.983,-1.7423,7.10761,-5.03694,1.9298,0.39639,-0.08597,0.01533,1.24232,0.01174,0.61782,0.00607,0.00692,0.04007,0.13102,-0.058,0.0989
1009,-10.68888,-28.54842,-1.02224,-10.74344,5.46358,0.05089,-22.87435,-43.64936,-0.19115,-2.48288,9.96788,5.79913,-10.63653,20.57852,-5.06789,-13.65902,0.56296,-0.85428,10.44247,6.15778,3.16902,14.0432,0.48863,-0.41097,7.20252,-0.8066,-0.66314,5.47704,-3.53409,1.54163,0.69232,-0.70612,0.04694,0.90648,0.51724,0.63183,0.06586,0.01286,-0.00594,0.02108,0.07406,0.14452
1010,-11.32582,-27.64664,-1.14045,-11.6681,4.58195,-0.25758,-22.51674,-41.54053,-0.4429,-8.00738,8.7897,3.67016,-10.63143,20.83623,-5.19834,-13.33981,0.31851,-0.87939,3.7803,7.98583,0.91439,27.82069,-9.47549,3.03479,6.23536,0.50115,0.71813,3.6988,-2.51442,-1.27403,0.66919,-1.31017,0.20667,1.11578,2.14934,-0.00797,0.02814,0.04041,-0.04512,0.01315,0.3593,0.07714
1011,-13.80147,-27.22736,-0.85674,-11.75707,3.65825,-0.56086,-31.92367,-38.40465,0.56051,-14.1209,10.39592,2.3795,-10.51887,21.01053,-5.36718,-12.88246,0.1132,-0.86714,-16.37273,17.08665,-0.66991,28.42438,-15.36189,5.21114,4.82454,0.95543,1.6952,3.85765,-3.10378,-3.25537,0.3797,-1.82702,0.46466,1.38367,3.15384,-0.7209,-0.0404,-0.00362,-0.0322,0.05286,0.50127,-0.0491
1012,-16.81661,-27.52691,-0.4622,-10.84653,3.69417,-0.52453,-41.75462,-35.75072,1.18327,-12.94407,12.61926,3.38849,-10.52933,21.17968,-5.49832,-12.09529,0.04213,-0.76548,-24.50388,27.29027,-0.72231,7.03946,-14.88644,5.66812,4.59029,0.44848,1.71471,5.58549,-4.30446,-1.7712,0.20742,-1.97433,0.63069,0.97021,2.14909,-0.88318,-0.00181,-0.0741,0.00807,-0.0443,0.25445,-0.12469
1013,-18.20247,-28.47171,-0.32706,-9.69199,3.55013,-0.38623,-43.23604,-35.39473,0.56171,-5.69803,9.92007,3.64767,-10.7413,21.33,-5.53945,-11.07774,0.05953,-0.6834,-12.84844,27.00621,-2.31009,-21.68031,-13.11558,3.0052,5.91399,-0.11011,0.9178,7.48188,-4.95113,1.60105,0.39387,-1.49896,0.51959,0.44064,0.13322,-0.50324,0.11139,-0.02476,0.00535,-0.152,-0.18242,-0.1153
1014,-18.0864,-29.0679,-0.42647,-8.07604,2.71263,-0.29882,-39.90895,-36.17568,-0.27428,1.78635,3.5993,2.07283,-11.0565,21.44195,-5.53139,-10.07327,0.07569,-0.67776,1.5535,17.3875,-6.01165,-29.11125,-15.9766,-0.68291,6.81521,0.05174,0.3861,8.2485,-4.80077,2.93217,1.12198,-1.02125,0.23966,0.89628,-0.62836,-0.09882,0.23383,0.08331,-0.01031,0.01894,-0.35035,-0.06957
1015,-18.0988,-28.88845,-0.48033,-5.96914,1.83277,-0.15171,-37.4334,-37.52607,-0.14318,6.20608,0.59574,1.93586,-11.34451,21.48468,-5.53974,-9.17879,-0.00083,-0.66413,7.11657,8.95608,-6.17637,-10.96477,-20.93566,-1.78836,6.26217,0.28917,0.51807,7.46686,-4.30043,1.43304,2.08906,-1.19536,0.06323,1.98395,0.18062,0.12335,0.36088,0.06098,0.03311,0.35799,-0.1917,-0.00366
1016,-18.75811,-28.90021,-0.35118,-4.64299,0.6078,-0.01097,-34.3887,-40.92514,0.91573,8.58955,0.90446,3.91059,-11.50687,21.37884,-5.57479,-8.27994,-0.22405,-0.57335,11.77846,3.27877,-0.19628,9.28782,-18.99926,0.29148,5.81707,-0.34832,0.46258,6.29123,-4.23435,-0.51734,2.34008,-1.62062,0.07376,2.49158,1.17779,0.17114,0.40736,-0.07296,0.08462,0.49399,0.02085,0.04821
1017,-19.67678,-29.15917,-0.17627,-5.30532,-1.62949,-0.12041,-30.15495,-44.30483,1.89353,8.9111,-2.92945,3.29813,-11.55178,21.1854,-5.62964,-7.3033,-0.49145,-0.45268,18.86109,-5.28453,4.33463,18.26058,-9.64471,3.5463,6.14911,-1.29945,-0.25922,5.88033,-4.76805,-1.48219,1.52231,-1.48698,0.0583,2.34541,1.60745,0.01323,0.28951,-0.13774,0.043,0.41565,0.13986,0.02581
1018,-20.63243,-28.7425,-0.15662,-7.71695,-2.92006,-0.43589,-29.54294,-43.48912,1.86879,3.3886,-9.24524,-1.43145,-11.58445,20.9968,-5.72024,-6.37168,-0.50523,-0.33135,15.16063,-11.07978,1.07831,20.69003,-4.30766,6.26807,6.02236,-1.44461,-0.98641,5.76558,-5.03661,-1.10508,0.3808,-0.78316,-0.07869,1.94392,1.18267,-0.0502,0.09379,-0.08995,-0.05573,0.32068,0.05751,0.00425
1019,-21.6872,-27.95876,-0.2938,-9.86675,-0.91287,-0.57709,-35.76214,-38.80296,0.7711,-6.19581,-7.85521,-4.63247,-11.66821,20.7319,-5.8494,-5.55064,-0.1823,-0.17177,-3.33775,-2.86183,-5.96499,17.93368,-7.48285,7.01749,5.59395,-1.00148,-1.16371,5.46568,-4.36287,0.62434,-0.2982,-0.1925,-0.11565,1.04786,0.24048,0.03261,-0.02112,-0.0241,-0.09724,0.169,-0.16222,0.04118
1020,-22.66816,-27.71734,-0.43588,-9.52303,2.26472,-0.37067,-44.52487,-34.20844,-0.59661,-9.72247,1.42413,-1.86503,-11.76212,20.33726,-5.97173,-4.70177,0.05804,-0.00661,-17.88192,15.98487,-9.29669,4.12795,-13.39165,6.08439,6.20777,-0.74879,-0.80115,6.10581,-3.45224,2.97249,-0.36937,-0.26718,0.13706,0.00816,-0.2596,-0.00413,-0.01151,-0.01676,-0.04228,-0.05607,-0.24498,0.05584
1021,-23.02912,-27.82447,-0.50104,-6.51539,2.67293,-0.02256,-48.45823,-32.64186,-0.99098,-0.58151,7.26647,3.54431,-11.81052,19.90153,-6.05947,-3.73595,-0.1111,0.09564,-10.29944,29.40135,-6.85264,-16.02176,-21.46584,5.75192,7.29817,-0.41765,0.11558,8.07894,-3.34823,4.51736,0.00712,-0.99739,0.5135,-0.05306,0.02569,-0.11329,0.07044,-0.08234,0.04964,-0.13761,-0.08553,-0.00683
1022,-23.14091,-27.90808,-0.44198,-2.90523,0.28278,0.26959,-46.99929,-35.06119,0.3832,16.08335,2.45726,5.19658,-11.81088,19.47846,-6.19322,-2.77724,-0.42389,0.17458,13.25159,25.05303,-2.88388,-23.67431,-32.73253,5.54034,6.89783,0.47085,1.27782,9.19141,-4.2943,3.9059,0.56479,-1.70866,0.6695,0.75255,0.48094,-0.11785,0.16175,-0.15187,0.09415,-0.06262,0.07316,-0.0709
1023,-24.54904,-28.30853,-0.18199,-1.45869,-1.65602,0.41073,-47.05098,-39.13256,2.87288,25.83525,-5.94848,2.52099,-11.78309,19.06065,-6.4805,-2.01677,-0.48363,0.3052,25.58703,10.23492,-0.49167,-13.79048,-36.33154,2.94592,5.01602,1.18448,1.9245,8.00836,-6.13544,0.89882,0.97202,-1.7841,0.62975,1.23384,0.84105,-0.21963,0.21911,-0.14908,0.10908,-0.05794,0.05286,-0.07534
1024,-27.09155,-28.95242,0.08111,0.26428,-1.23114,0.12921,-51.43113,-39.47369,4.34499,26.39406,-6.79658,0.48094,-11.76646,18.69858,-6.86441,0.28623,-0.02968,0.13286,18.27521,6.16082,1.13615,-4.05364,-21.9216,-0.7474,4.14585,0.57641,1.64507,6.52099,-8.1845,-2.37293,1.04467,-1.51202,0.72953,1.03473,1.39847,-0.55926,0.23201,-0.12846,0.17915,-0.16039,-0.00684,-0.04371
1025,-27.81351,-28.95587,-0.15892,-2.5463,0.58639,-0.07747,-53.71538,-34.32317,2.947,8.04589,-0.47104,0.37734,-11.80188,18.42859,-7.13407,0.25786,0.17667,0.19949,-12.22757,16.73815,-0.32533,-2.18364,0.49707,-2.75703,5.60734,-1.03784,0.61494,6.26587,-8.47108,-2.74344,0.89528,-1.39144,0.82034,0.61902,1.72804,-0.64801,0.22497,-0.16309,0.23358,-0.23649,0.00073,0.01534
1026,-25.53015,-27.87245,-1.00776,-3.39968,0.50937,-0.13609,-49.14501,-28.68721,-0.52002,0.89571,-1.09036,-1.03265,-11.8773,18.10838,-7.22925,0.28202,0.18593,0.23267,-18.95979,22.05871,-8.32432,-1.26663,9.72557,-2.52541,7.13099,-1.74566,-0.33423,5.70007,-5.78105,-0.05438,0.77602,-1.30096,0.47876,0.30641,1.09854,-0.0936,0.21066,-0.17123,0.1223,-0.22812,-0.00803,0.09673
1027,-23.18573,-26.65728,-1.84292,-2.33617,-1.2967,-0.07154,-41.5705,-29.00609,-3.01472,10.97956,-9.08892,-4.12243,-11.94234,17.55084,-7.35727,0.20041,0.02286,0.22496,5.05926,12.83163,-16.42172,-3.30689,-2.26373,0.7354,5.99067,-0.44846,-0.17,4.16528,-2.24821,2.25323,0.65895,-0.99435,-0.01881,0.45313,0.18645,0.578,0.13564,-0.05572,-0.07843,-0.08611,-0.02273,0.13897
1028,-23.15007,-26.1064,-2.16276,-1.67059,-2.0395,-0.18433,-36.76,-33.83291,-2.98519,21.87693,-12.5192,-5.72037,-11.94877,16.8307,-7.64626,-0.05606,-0.13132,0.11412,29.41655,3.24768,-16.05998,-10.09961,-22.79881,8.15241,3.57023,1.45417,0.90547,4.02275,-0.75016,2.42313,0.70063,-0.75641,-0.12455,1.23761,0.29987,0.60883,0.05945,0.09061,-0.1557,0.21453,0.08311,0.09098
1029,-24.45318,-25.91829,-2.12513,-2.56509,-1.12019,-0.62694,-37.68207,-35.28603,-1.88171,19.30614,-7.53335,-4.85518,-11.90856,16.22015,-7.97881,-0.31091,-0.1946,-0.15445,27.22885,7.66744,-11.06206,-14.14602,-32.30882,16.54966,3.51649,2.05236,1.71408,6.79661,-1.5094,2.68694,0.86896,-0.92801,0.2416,1.72119,1.21333,-0.11225,0.06428,0.10282,-0.05059,0.44748,0.26179,-0.03907
1030,-25.29982,-25.85577,-2.09234,-3.52962,-0.80147,-1.0803,-43.06596,-31.36432,-1.38899,9.21357,-1.45527,-2.84718,-11.91997,15.87327,-8.25418,-0.36873,-0.22474,-0.47071,7.1846,21.49371,-8.3916,-14.18938,-24.91613,19.22787,6.18401,1.36105,1.86136,10.65291,-3.93297,3.92859,0.23431,-1.26054,0.94021,1.02658,1.78191,-1.13108,-0.00684,-0.02369,0.13104,0.35946,0.30892,-0.18637
1031,-24.91682,-25.84046,-2.22595,-2.83274,-2.12947,-1.06949,-46.90239,-27.05582,-1.36339,5.30678,0.16018,-0.31398,-12.05452,15.76081,-8.50927,-0.23407,-0.31511,-0.59618,-3.63803,30.68667,-6.41466,-14.44663,-15.83884,14.8901,7.86584,0.84474,1.69632,12.60649,-7.36459,3.99349,-1.15843,-1.14747,1.44016,0.01196,1.65624,-1.6348,-0.20042,-0.10102,0.20386,0.07126,0.14438,-0.21649
1032,-23.41385,-25.50253,-2.49117,-1.16126,-3.4524,-0.58513,-45.35128,-24.42457,-1.1253,9.44767,-2.65439,1.05811,-12.22571,15.80407,-8.75456,0.00277,-0.44208,-0.4199,2.30394,28.87703,-4.85022,-13.45357,-21.41859,10.59795,5.48229,1.48656,1.44234,11.14866,-8.84743,2.67316,-1.8318,-0.45097,1.07035,-0.24387,1.13786,-1.12598,-0.30142,-0.00663,0.05735,-0.13229,-0.07686,-0.07224
1033,-21.84169,-24.75835,-2.77192,-0.50103,-3.30722,-0.09948,-42.79351,-22.1981,-0.99537,14.39667,-8.20833,-1.27625,-12.31549,15.90168,-8.96047,0.26083,-0.42257,-0.09337,10.02583,19.13826,-9.15307,-7.55844,-33.78491,11.30725,0.88771,2.96953,1.43367,7.37402,-6.47441,1.87864,-1.45435,0.20728,0.18328,-0.01639,0.56658,-0.15208,-0.28662,0.12966,-0.16215,-0.15796,-0.15178,0.1028
1034,-21.44746,-24.08213,-2.98589,-0.4421,-2.14329,0.13309,-44.45853,-22.12843,-1.41885,19.57649,-12.96583,-5.05368,-12.38326,15.97092,-9.1919,0.5044,-0.178,0.13947,12.98746,7.9536,-16.73005,0.14422,-31.21675,13.56848,-1.91066,4.39868,2.11666,4.46396,-3.37549,1.83767,-1.19211,0.23629,-0.13375,0.35022,0.19483,0.43465,-0.36,0.11475,-0.19231,-0.03295,-0.08637,0.15142
1035,-21.71628,-23.91031,-3.16799,1.30265,-1.46024,0.35299,-47.23063,-25.65323,-1.94124,28.65871,-14.45677,-5.41671,-12.54816,16.12069,-9.51247,0.7207,0.06006,0.17246,20.41912,1.04215,-18.47523,0.45105,-14.81898,14.64515,-2.78381,4.93289,2.92693,4.6707,-3.00904,2.37171,-1.30537,-0.05223,0.20275,0.54703,-0.12826,0.40176,-0.47666,-0.01731,-0.02169,0.05939,-0.08243,0.07786
1036,-21.01537,-24.06972,-3.40608,4.36418,-2.19915,0.68521,-46.13957,-28.20617,-2.2339,37.29463,-15.25406,-3.07786,-12.7763,16.62118,-9.8488,0.78818,0.03371,0.06695,32.96479,0.78287,-15.39429,-11.24871,-8.49808,17.21602,-4.16904,4.24355,2.62259,7.26801,-4.35701,3.93937,-1.05626,0.09173,0.22738,0.35908,-0.39363,0.05365,-0.39553,-0.06623,0.08983,0.00289,-0.17993,-0.01136
1037,-19.3262,-23.84748,-3.72284,5.51194,-3.5442,0.78094,-43.66121,-24.55967,-2.81031,37.39401,-16.71056,-2.47179,-12.93332,17.5122,-10.12264,0.57523,-0.182,-0.05628,37.03249,7.80429,-15.89405,-30.72794,-18.79025,21.3061,-5.08234,3.09354,1.31913,9.85142,-5.01747,5.81576,-0.47767,0.59724,-0.33254,0.20348,-0.28001,-0.12387,-0.13545,0.02316,-0.01098,-0.0571,-0.20923,-0.021
1038,-18.36093,-22.7351,-4.06403,3.49486,-4.14341,0.36214,-44.62696,-16.13095,-4.07044,28.97218,-15.93849,-4.82984,-12.96868,18.50245,-10.40517,0.2523,-0.33329,-0.12529,26.31201,20.44001,-21.41872,-48.28332,-27.7034,22.5382,-3.30092,2.65008,0.28394,10.69016,-4.96736,7.5208,-0.40969,0.89753,-0.7857,-0.00708,-0.53986,0.25542,0.00246,0.1253,-0.1973,-0.09121,-0.24333,0.07276
1039,-18.94477,-21.03836,-4.36871,-1.44667,-5.4437,-0.29066,-47.75469,-8.59992,-5.64906,11.42081,-14.98995,-9.08282,-12.95912,19.42892,-10.79678,-2.08311,-0.94045,-0.2311,0.87809,27.86617,-28.13493,-51.44283,-25.34363,20.19325,-2.08067,2.86117,-0.2124,10.39474,-5.15584,9.89907,-1.31974,1.27903,-0.90703,-0.8626,-1.92341,0.88979,-0.19637,0.16574,-0.27989,-0.22692,-0.4644,0.18358
1040,-19.79146,-19.60256,-4.5768,-1.62878,-5.35193,-0.53213,-48.75387,-5.53082,-6.36118,11.03061,-12.97709,-9.81632,-12.9805,20.41169,-11.25006,-2.32601,-0.96816,-0.35629,-3.89777,30.36126,-28.56314,-35.11559,-20.63466,18.8481,-6.56951,2.89041,-0.26115,10.41599,-5.04011,12.70577,-3.07274,2.22547,-0.8613,-2.10612,-3.20125,1.05285,-0.66721,0.18385,-0.19236,-0.40624,-0.65933,0.21787
1041,-19.39058,-19.13846,-4.57666,-1.45595,-4.63815,-0.49836,-46.9964,-7.069,-4.83126,16.45708,-11.11071,-7.56994,-13.02685,21.57064,-11.64934,-2.72793,-1.0226,-0.45047,0.08206,28.03735,-23.58946,-7.90532,-24.79392,20.45504,-13.84869,3.03096,1.44905,10.74247,-3.91324,13.47119,-5.00528,2.81816,0.08652,-2.31819,-2.69647,0.80587,-1.1113,0.1604,0.07143,-0.38916,-0.52389,0.21862
1042,-18.45761,-19.45844,-4.32472,-2.67717,-3.51651,-0.48999,-46.57687,-11.10152,-1.61299,20.13431,-9.22642,-4.57887,-13.09339,22.99826,-12.01466,-3.45283,-1.18985,-0.51304,3.00186,25.09729,-17.49433,14.1926,-35.9455,22.83762,-15.59277,3.94321,5.25419,10.38832,-3.02156,10.90124,-6.10029,2.04638,2.58434,-0.91381,-1.1485,0.9404,-1.26438,0.03459,0.49703,-0.15157,-0.27261,0.28906
1043,-18.94573,-19.20024,-4.10203,-3.44496,-3.18227,-0.38297,-50.52065,-13.1661,0.04842,20.46122,-9.85967,-2.70002,-13.23593,24.84572,-12.47772,-4.08937,-1.44232,-0.57827,1.39796,22.52205,-15.52992,15.80627,-38.62248,26.53447,-11.45973,4.75945,8.02394,9.72226,-3.88121,7.51406,-5.67736,0.9778,4.82655,0.72415,-0.56874,1.58704,-1.15916,-0.06026,0.86539,0.06543,-0.3,0.41542
1044,-20.13098,-17.94276,-4.37512,-1.01571,-3.76375,0.04071,-52.29645,-11.67229,-2.30243,22.9195,-12.24937,-0.74462,-13.50498,27.14591,-13.0531,-4.09551,-1.65675,-0.67032,7.09937,21.85867,-16.37991,-6.76966,-25.81716,34.45639,-11.29829,5.35837,8.27642,10.39079,-5.446,6.23215,-4.29632,0.86506,4.60289,1.54612,-0.85086,1.98762,-1.0358,-0.01986,0.95396,0.1782,-0.43545,0.45486
1045,-19.20629,-16.91688,-5.23674,3.03869,-4.4236,0.45834,-44.04611,-10.01581,-6.9607,28.7627,-13.14032,1.62366,-13.92917,29.7415,-13.63077,-3.62496,-1.82328,-0.79264,27.0905,23.5624,-16.44258,-36.71875,-9.39036,42.77032,-21.21031,7.41589,8.59993,11.46238,-5.1747,7.32999,-3.72152,1.3174,2.65852,1.45361,-1.00457,1.65628,-1.06536,-0.02237,0.88785,0.19529,-0.3395,0.305
1046,-16.46771,-16.00747,-6.23227,4.71839,-6.26417,0.45417,-33.72066,-8.97389,-10.10897,31.42728,-15.23303,0.85339,-14.54287,32.57953,-14.2147,-3.36823,-2.1906,-0.97096,41.53716,24.01088,-19.13177,-45.20429,0.78192,39.71609,-33.3525,8.77346,8.04229,10.28286,-2.95304,9.73284,-4.77671,1.88173,0.09131,0.63504,-1.77364,1.15803,-1.18129,-0.12614,0.70715,0.0849,-0.24013,0.07152
1047,-15.1512,-14.77633,-6.67085,3.10583,-10.58469,0.1737,-36.01016,-9.16127,-9.65529,26.23389,-22.51772,-4.78922,-15.32096,35.79243,-14.94559,-3.60361,-2.86431,-1.20151,27.17085,16.93356,-27.14792,-20.66108,4.96058,24.11613,-35.57986,5.21722,4.27083,7.55566,-1.41348,12.12844,-6.28012,2.11759,-2.30841,0.13155,-3.73065,1.53953,-1.27045,-0.20259,0.39013,0.00714,-0.47699,0.02729
1048,-15.7101,-14.40391,-6.39539,0.64066,-14.54604,-0.08449,-47.14526,-13.05139,-6.57616,18.33945,-29.12268,-10.57319,-16.14559,39.43404,-15.84991,-4.03897,-3.41798,-1.39248,-2.52551,5.69823,-33.24293,13.70974,3.18737,12.86963,-28.20465,-0.3569,1.40821,6.84953,-2.12662,12.28652,-6.37243,1.54049,-2.38786,0.98437,-4.75229,2.68102,-1.22747,-0.22893,0.34416,0.18385,-0.74552,0.26191
1049,-15.72447,-14.69117,-6.15072,-0.50962,-14.32764,-0.31936,-50.15896,-15.88262,-4.18599,15.89862,-27.21448,-11.62627,-16.9807,43.51344,-16.82636,-4.32841,-3.41821,-1.45682,-12.55232,5.40235,-31.6558,27.41727,-3.0035,19.01845,-21.15158,-0.98484,4.02236,8.92852,-3.70876,10.22041,-4.69659,0.79441,0.72069,1.9541,-3.57223,3.18305,-0.9155,-0.18552,0.89235,0.42779,-0.67795,0.51272
1050,-14.77054,-13.54196,-6.60935,-0.14697,-11.33308,-0.48035,-41.78948,-11.26493,-5.19,18.80569,-21.44722,-9.61777,-17.96418,48.24343,-17.84259,-4.29119,-3.16744,-1.42883,3.98968,16.95747,-28.40138,20.55915,-1.33058,35.71809,-17.70725,3.91063,9.67338,10.98646,-4.00027,10.16628,-2.2458,0.74646,5.02021,1.34799,-2.61391,2.60619,-0.36427,-0.01571,1.70683,0.41623,-0.52658,0.56185
1051,-14.75306,-11.18137,-7.27921,0.75763,-9.20692,-0.43797,-35.56475,-5.46095,-8.27072,20.24111,-18.50692,-6.94386,-19.20797,53.83733,-18.94536,-3.91988,-3.28496,-1.41007,20.34013,24.56037,-27.87995,14.82144,18.40013,45.6936,-14.48003,7.16128,11.20406,10.79296,-2.77471,15.17852,0.17016,0.96045,6.19685,0.10794,-4.32252,2.51766,0.18707,0.21211,1.95721,0.23307,-0.72351,0.58123
1052,-15.67125,-9.36089,-7.46475,0.99702,-8.98342,-0.33792,-38.23006,-6.70641,-9.8155,16.32799,-16.84076,-3.40773,-20.62203,60.18275,-20.12607,-3.41927,-3.8423,-1.46814,18.02378,23.56963,-25.91171,17.73937,34.95391,42.96729,-9.5764,6.12727,7.67359,8.68342,-1.41204,21.97524,1.66103,0.66861,3.78572,0.24035,-7.42993,4.07048,0.39123,0.36579,1.51301,0.1976,-1.18357,0.7668
1053,-14.7492,-7.23701,-7.63273,-0.40144,-12.0422,-0.23196,-39.50419,-9.06726,-8.51009,8.18944,-19.8477,-3.60635,-21.99521,66.9451,-21.2912,-3.15558,-4.55557,-1.62855,6.42275,19.04324,-24.03596,17.38551,11.67889,38.05574,-4.75118,8.48273,6.36679,6.27944,-0.84812,23.05231,1.82782,1.32106,3.24157,1.61265,-8.24446,5.55803,0.20008,0.58008,1.27212,0.32493,-1.3481,0.85505
1054,-11.42643,-4.24291,-8.10952,-2.85549,-18.34402,0.11737,-32.52119,-6.6809,-5.31195,-0.66726,-30.11981,-10.35268,-23.22151,73.79178,-22.40615,-3.38845,-5.15897,-1.78879,-1.70989,13.69699,-25.29542,4.89185,-48.70208,39.75999,-5.96518,16.96564,9.99003,5.66792,-1.0028,14.65965,1.25752,4.04088,6.01209,2.62187,-4.84688,4.70292,-0.01793,1.01898,1.62613,0.37517,-0.91143,0.54242
1055,-9.37422,-1.74916,-8.22977,-4.62871,-22.70823,0.65324,-27.5458,-5.38786,-2.12938,-5.29387,-37.68079,-15.58544,-24.39682,80.66892,-23.57542,-3.94964,-5.36511,-1.74536,-7.22999,11.98324,-25.02351,-11.94871,-96.85706,41.42986,-14.00717,21.97346,12.80278,8.01843,-0.76794,2.46644,0.95783,6.10777,7.30459,2.57662,0.90557,2.15516,0.00293,1.48775,1.93909,0.27316,-0.11599,0.05024
1056,-10.93208,0.62172,-7.9765,-4.51741,-22.25666,1.1364,-34.2737,-8.38892,-1.75702,-2.26904,-38.24857,-13.79961,-25.65863,87.76817,-24.89964,-4.30852,-5.22861,-1.5296,-12.45344,13.7166,-24.89435,-19.01204,-85.5514,33.48733,-18.49521,19.33896,11.30767,10.6806,0.60897,-4.2419,2.29142,5.55822,5.42582,1.77161,5.04718,0.33157,0.24358,1.7543,1.75658,0.11142,0.54758,-0.19327
1057,-13.50189,3.71619,-8.06646,-1.5427,-20.14954,1.44957,-44.33023,-11.16127,-4.62317,6.00726,-36.85645,-9.359,-27.02494,94.9752,-26.31252,-4.22842,-5.21891,-1.49071,-11.53537,15.08495,-29.50653,-14.69786,-14.4613,21.4258,-13.7867,17.23096,8.05747,10.34563,1.75433,-4.43745,5.54189,4.77748,3.03654,0.54649,5.50562,-0.49866,0.60816,1.89273,1.2056,-0.01809,0.77161,-0.15742
1058,-14.69127,7.52605,-8.51802,1.71889,-19.17519,1.32745,-46.71987,-9.65684,-7.47448,7.70196,-33.84921,-7.32263,-28.51861,101.91808,-27.64853,-4.40016,-5.58326,-1.81073,-9.68965,18.61034,-33.60783,-7.25391,62.34444,18.72266,-9.0735,16.10205,5.00547,8.85181,1.99119,-4.03491,7.96021,4.21819,0.8493,-0.74053,4.29487,-2.26435,0.84257,1.67394,0.43433,-0.08653,0.75075,-0.2073
1059,-14.89235,11.65437,-8.79542,2.479,-19.48993,0.98696,-42.5706,-7.5413,-7.42344,0.02876,-30.85868,-8.83688,-30.16448,108.32777,-28.7643,-5.34974,-6.09643,-2.21868,-13.03178,17.64153,-33.44798,1.7372,83.05311,28.37848,-11.23792,10.02655,2.988,9.6794,3.14738,-3.50739,7.26775,1.90271,-0.94727,-1.59402,3.98703,-4.93145,0.79341,0.87944,-0.12178,-0.15898,0.73618,-0.49136
1060,-14.67741,15.39902,-8.71166,2.12874,-20.87789,1.17476,-37.70399,-9.48076,-4.65114,-7.87053,-33.75427,-12.57904,-31.8089,113.88243,-29.59634,-6.68977,-6.38574,-2.39809,-17.67953,2.01153,-33.74202,11.83526,41.5695,37.3673,-13.96569,5.14492,2.46761,12.38058,6.22696,-0.37828,5.02125,0.09824,-1.06369,-2.04425,5.13112,-6.61879,0.55619,0.27704,-0.08283,-0.36943,0.75191,-0.8304
1061,-14.79803,18.8064,-8.4403,2.81327,-22.79242,1.94728,-34.94451,-10.46774,-1.42553,-15.90413,-40.14648,-15.8444,-33.30052,118.09447,-30.21185,-8.09122,-6.36329,-2.40767,-27.7904,-13.60493,-36.04702,13.75579,-10.28981,30.65033,-11.0237,8.44702,1.95352,12.92188,8.67996,-0.29183,3.32465,1.68011,-0.14946,-2.43043,6.94581,-6.77836,0.15812,0.446,0.22994,-0.6792,0.93044,-1.08918
1062,-14.74969,21.53977,-8.29093,5.44083,-23.82094,2.50665,-29.62316,-6.65402,-0.0281,-28.0131,-40.49878,-16.5075,-34.67922,120.45215,-30.57931,-9.80361,-6.30239,-2.52428,-42.57991,-10.39204,-34.42153,5.11693,-15.92823,9.82465,-4.41124,11.59823,0.34688,9.69702,7.37481,-10.87908,2.96939,3.63696,-0.21265,-2.68177,8.40762,-6.60872,-0.17033,0.7109,0.35756,-0.83651,1.36971,-1.21176
1063,-12.70123,22.66077,-8.47157,10.48642,-22.40223,2.22712,-15.09991,-4.36096,-0.68874,-35.30668,-30.35757,-13.28475,-35.99215,120.59704,-30.44424,-12.07548,-6.39477,-2.8544,-39.5186,5.51965,-23.11415,-1.72501,26.38579,-10.77333,4.21489,6.35434,-2.44933,6.85337,4.24069,-26.41763,5.2395,2.67202,-2.20259,-2.79322,9.28331,-7.92937,0.10473,0.47884,0.07626,-0.80109,1.84666,-1.35838
1064,-9.27166,22.02315,-8.5097,17.82914,-19.65554,1.62423,4.37007,-9.84127,-1.30014,-27.63425,-16.80412,-6.65847,-37.05136,118.46349,-29.63028,-14.73282,-6.60603,-3.26158,-6.4173,13.53621,-5.14162,2.22647,55.31263,-25.29234,15.53947,2.98871,-8.14981,6.94008,3.34448,-32.38144,9.99044,2.36832,-6.04783,-2.79675,9.00117,-10.70716,0.99106,0.32222,-0.76636,-0.71531,1.9286,-1.6333
1065,-6.84502,19.78704,-7.56817,25.64302,-18.03107,1.57744,16.69684,-21.25643,-0.12037,-17.5616,-8.35913,0.21986,-37.49618,114.08146,-28.2023,-17.53718,-6.82283,-3.58933,24.12984,3.74185,10.28575,13.55753,29.60007,-35.41401,21.15332,12.91388,-15.86483,7.44058,4.68476,-26.29018,12.10962,6.99071,-10.15163,-2.61387,7.28639,-13.07217,1.47303,0.9471,-1.96322,-0.64988,1.4927,-1.81391
1066,-4.96483,16.05154,-5.81364,34.02045,-17.33696,2.06003,20.06828,-32.60002,2.30942,-23.16668,-1.91622,6.10494,-37.0188,107.24136,-26.25697,-20.24347,-7.02968,-3.80075,19.74163,-12.96474,20.73518,24.03772,-11.65291,-35.3194,11.86911,24.16114,-18.09255,6.87924,5.78818,-20.50364,7.38008,12.13495,-11.08435,-2.58736,5.72861,-14.76202,0.68455,1.79907,-2.64282,-0.70408,1.02105,-1.88426
1067,-1.40778,12.08937,-4.50815,44.71355,-15.55972,2.45515,26.22952,-38.08752,4.35593,-43.85694,9.81668,11.96997,-35.49364,97.72474,-23.79576,-22.79372,-7.26227,-3.93175,-5.81097,-20.29718,31.25105,29.35201,-10.08061,-24.10697,-1.63966,23.15135,-13.24747,6.55774,5.43464,-22.39372,0.72812,12.66765,-8.82431,-2.86044,5.37325,-15.99874,-0.6493,1.96244,-2.35345,-0.94549,0.92369,-2.00913
1068,3.3223,9.1881,-4.13611,57.44581,-12.14509,2.60733,42.55586,-35.60279,5.60373,-66.09631,22.42374,15.11331,-32.95816,85.76614,-20.79929,-25.5166,-7.38087,-4.02785,-21.50078,-20.74902,40.8233,31.46399,34.64656,-15.56343,-3.4336,16.55712,-10.24364,6.16765,3.67794,-25.40807,-1.27989,10.91026,-7.65194,-2.86883,5.04956,-14.786,-1.22827,1.57654,-1.68091,-1.18589,1.01057,-2.02841
1069,6.75193,7.11636,-3.74094,70.34011,-9.33721,3.19844,60.64813,-25.81603,6.70826,-79.95569,22.6801,10.62209,-29.5015,72.14587,-17.28314,-28.67336,-7.21857,-4.13032,-24.08062,-28.12874,40.42651,36.07259,80.60748,-19.56375,3.57182,13.99584,-12.68357,3.59332,0.90411,-24.87705,-0.10811,10.01774,-8.50266,-2.38862,3.95788,-10.88807,-1.05424,1.21721,-1.16139,-1.20936,1.03234,-1.79227
1070,8.29029,5.86577,-2.87332,81.85121,-9.01844,4.80212,69.00389,-8.03391,7.41854,-88.04147,10.23381,1.47694,-25.23506,58.02724,-13.39796,-32.08599,-6.72503,-4.19655,-34.28923,-36.31186,30.8419,41.34332,102.18493,-38.28285,9.01775,14.61618,-16.03686,-0.51801,-2.33647,-28.59802,0.41737,9.45358,-8.90679,-1.97282,3.38575,-8.77789,-0.79549,0.98518,-0.80211,-1.11141,1.17356,-1.55223
1071,10.01511,7.37474,-3.33876,92.51337,-9.55963,7.09141,72.73383,16.30616,7.06819,-95.22383,2.1591,-1.35045,-20.36086,44.73037,-9.56738,-35.27274,-5.91003,-4.06102,-51.16532,-24.72696,29.44521,33.88216,106.90874,-73.64163,13.52231,15.09087,-19.89304,-3.97178,-6.27161,-41.26896,0.84252,8.30037,-9.51384,-2.09681,3.4966,-11.1312,-0.50899,0.80465,-0.75745,-1.05553,1.50415,-1.53875
1072,12.16534,12.42052,-6.61911,104.13933,-7.56465,9.30482,84.54019,34.5826,7.55663,-97.7448,8.91496,5.99853,-15.41389,33.24538,-6.42978,-37.86995,-4.94618,-3.63239,-49.06811,-2.17408,47.87085,11.61503,108.07083,-111.53127,19.95861,16.72273,-27.1511,-7.874,-11.22504,-49.64532,2.1339,7.43224,-12.481,-2.65945,1.88081,-12.57882,-0.12674,0.75397,-1.21729,-0.81367,1.53688,-1.37883
1073,11.42541,18.0156,-10.82842,116.48811,-1.14476,10.84311,102.16734,30.40959,11.26094,-89.62123,20.95247,14.01593,-11.1702,23.80618,-4.36461,-39.94235,-4.21548,-3.10216,-20.58086,-7.71472,71.96968,-4.19989,102.19115,-119.6607,22.89255,20.24684,-33.81853,-11.36815,-13.69424,-38.74949,2.4899,7.52043,-15.63912,-2.59911,-1.13502,-7.00779,0.0621,0.82886,-1.71333,-0.01517,1.07293,-0.56824
1074,7.84143,19.8117,-13.34036,126.76628,8.87737,11.56613,114.76598,4.43443,16.09363,-72.99191,25.66102,13.50426,-7.79321,16.00105,-3.17246,-41.78146,-4.02227,-2.75923,16.59964,-54.67019,77.09837,1.6528,82.52056,-88.91228,17.94563,22.0339,-32.93479,-9.08299,-10.23922,-16.41613,0.91998,7.93045,-15.29923,-0.79728,-2.12597,1.61055,-0.07696,0.90295,-1.66959,1.06133,0.63937,0.39502
1075,5.52125,15.95713,-13.39131,133.16405,19.32137,12.14371,114.80593,-20.65656,17.49717,-60.26974,22.59842,6.69917,-4.85805,9.30523,-2.37869,-43.40205,-4.36879,-2.60442,35.17397,-106.52721,57.20486,12.92495,64.46286,-56.45087,10.95412,19.03631,-26.98829,-2.70979,-5.55173,-5.27029,-0.7166,7.7396,-13.11728,1.28946,-0.81919,4.4015,-0.24346,0.90721,-1.41378,1.57701,0.59491,0.5251
1076,3.78497,8.04803,-9.78992,136.35899,27.3271,13.48754,98.26859,-23.33781,16.2188,-67.4755,17.39077,0.75486,-2.61272,3.53782,-1.43526,-44.54773,-5.18076,-2.36727,9.62055,-124.99017,32.28758,3.90396,73.87411,-60.22927,8.78293,12.29715,-23.45975,-2.07674,-7.12726,-15.54977,-1.0955,6.30393,-12.64506,0.84302,0.08163,-0.29242,-0.23147,0.7818,-1.4579,1.13514,0.77548,-0.1392
1077,-1.08372,-0.7055,-1.42902,136.90294,34.18768,15.25494,75.98141,-5.60953,19.76823,-95.64886,13.92334,-1.26737,-1.79412,-0.95132,0.06923,-45.05926,-6.6131,-1.91921,-47.02477,-110.22192,29.31949,-18.19424,107.75974,-92.01433,8.89336,6.54705,-22.32775,-11.4058,-15.06343,-37.60171,-1.1536,4.14717,-12.5876,-2.36674,-0.46921,-6.95054,-0.16662,0.5071,-1.43331,0.30855,0.97878,-0.72088
1078,-4.77388,-10.48146,9.43261,134.98325,43.34188,16.4273,73.45639,6.6846,33.4556,-114.69879,14.2313,0.66043,-0.4912,-5.75571,2.06724,-44.79057,-8.76325,-1.41634,-66.26624,-91.24274,54.13449,-16.49956,130.93752,-115.8928,6.8648,5.22397,-19.99788,-20.33573,-21.23266,-53.91305,-1.44865,2.31045,-10.70673,-4.2671,-0.69295,-10.50919,-0.08493,0.1345,-0.97498,0.14582,1.12976,-0.78366
1079,-6.11029,-10.11212,11.45902,132.12128,55.12558,17.22362,84.69482,15.41101,43.60842,-95.10511,20.06078,6.35955,-0.88087,-5.21524,2.53747,-43.71004,-11.00645,-0.96463,-19.03791,-65.0676,77.03486,12.66454,115.85925,-112.01025,4.13514,7.49131,-19.22652,-16.38426,-18.45623,-51.43883,-1.95879,1.52328,-9.47889,-0.69117,0.5975,-9.76754,-0.02577,-0.16411,-0.71099,1.17559,1.18275,-0.72486
1080,-8.10938,-4.51183,7.24634,127.57143,65.79205,18.43367,88.54748,9.97711,45.34393,-59.05949,27.2464,12.15072,-0.46136,-3.59512,2.10117,-42.46339,-12.36321,-0.41281,39.8371,-56.24855,81.8861,23.5449,68.10138,-82.40636,2.83468,10.22622,-23.17816,-8.36062,-7.93044,-27.92573,-3.25915,2.10123,-11.48225,4.05271,1.52764,-5.13564,-0.23128,-0.18761,-1.22492,2.43797,0.95107,-0.95105
1081,-11.11291,-0.4244,4.15526,118.12984,70.39307,20.03194,73.68318,-0.50331,42.39428,-50.63957,20.37171,10.28148,0.38946,-2.16995,1.59968,-41.93713,-12.66164,0.39618,39.42437,-77.32077,69.7411,6.50215,27.06502,-38.81474,2.75015,9.92636,-27.85798,-11.01843,3.71899,2.28559,-5.05634,2.8849,-14.34424,2.50748,1.14406,1.98455,-0.67799,-0.03942,-1.97938,2.32677,0.35987,-1.05752
1082,-10.92807,-1.9101,6.62871,105.03842,72.01301,21.07608,58.13262,-7.69749,43.89622,-69.01392,-0.06307,0.56872,1.25654,-1.67014,1.54314,-42.15304,-12.21934,1.38669,2.62044,-114.56104,57.46948,12.05677,35.29152,-5.19346,3.48691,6.74956,-28.42764,-14.02672,7.48414,15.56061,-6.07982,2.84714,-14.19219,-0.69288,0.77413,7.56906,-0.96866,0.11136,-1.99593,1.46901,-0.3515,-0.38854
1083,-8.10606,-4.59059,9.77158,90.8994,76.45761,20.99131,53.31501,-1.41649,49.47733,-82.45818,-16.32974,-8.8432,1.71393,-1.68491,1.6918,-42.55805,-11.53909,2.3538,-13.01696,-127.61334,54.23684,42.56439,77.87116,-14.01289,5.08916,4.14889,-26.648,-4.51939,-1.84903,2.79611,-5.64927,1.95861,-10.99049,2.75236,-0.54805,6.73079,-0.7934,0.15109,-1.19618,1.63595,-1.09716,0.49243
1084,-6.11621,-3.79603,6.63949,75.5397,80.39511,20.36234,45.23108,23.496,52.08355,-77.28581,-22.0055,-12.17795,1.70986,-1.66836,1.72027,-42.81134,-11.4579,3.14555,-6.9831,-94.9374,54.37768,31.53524,96.80206,-64.52445,6.42517,3.07885,-25.15247,3.85518,-14.21049,-17.69234,-4.47269,0.97905,-7.54853,7.27632,-3.1051,1.23417,-0.38238,0.08521,-0.38802,2.11298,-1.66753,0.65668
1085,-3.02356,0.75734,-5.0772,60.26822,80.77735,19.93556,21.13548,60.67076,48.40244,-58.90245,-15.17601,-8.0064,1.73534,-1.33359,1.43289,-42.7104,-11.96949,3.86067,-9.47355,-19.427,53.1172,-24.98016,77.15707,-109.4728,6.13216,1.58059,-23.15463,1.38161,-15.98184,-23.95498,-3.74403,0.8046,-5.99375,6.48199,-3.71161,-2.08046,-0.19488,0.03483,-0.19146,1.84596,-1.51058,0.17
1086,2.54041,6.20929,-18.37213,48.31293,79.75078,20.39802,-4.83906,82.19881,39.04946,-32.11466,-0.05334,-0.38876,1.95378,-0.57418,0.87167,-41.9093,-12.04019,4.76664,-13.27918,46.11632,46.14684,-55.35884,57.30339,-109.82634,4.24026,0.72653,-22.16627,1.39082,-10.34768,-13.91897,-4.05402,1.19536,-6.43297,5.05912,-2.34433,-0.20439,-0.34401,-0.01452,-0.46909,1.39423,-1.13241,-0.07686
1087,5.73793,6.96376,-17.97484,39.834,78.81365,21.74902,0.24,61.18494,31.85742,-3.48514,7.95035,4.50978,2.05319,0.22002,0.77531,-40.26632,-11.0277,5.90813,21.28466,32.56879,37.51074,-43.49665,58.40776,-73.81163,2.31847,2.77761,-25.70388,9.41907,-4.8341,4.00554,-5.01967,1.66348,-7.70314,6.33612,-1.1376,5.37226,-0.54107,-0.0305,-0.72698,1.16576,-1.10253,0.52621
1088,3.87737,0.89217,0.1031,29.74186,76.53027,22.32088,41.57443,19.39805,41.686,11.57465,-1.17405,4.77722,1.98598,0.48892,1.74357,-38.39542,-9.55698,6.93164,89.59132,-40.24522,46.78568,-43.5673,58.61374,-40.7652,2.04129,4.56036,-32.00333,14.38695,0.7273,18.46583,-5.59594,2.10313,-8.63953,6.99436,-0.22502,9.70596,-0.45931,0.04592,-0.74961,0.95413,-1.09722,1.16725
1089,-0.47686,-6.4901,18.4006,15.43531,70.80811,20.66635,79.77415,0.40888,65.68842,7.48536,-19.60525,1.71237,1.82196,0.22063,2.88828,-36.73339,-8.73481,7.44002,135.40869,-87.75401,71.82883,-75.64151,43.19797,-40.42957,2.98055,3.37306,-34.84278,8.08294,4.90915,16.63523,-4.89852,2.97545,-8.86631,4.11509,0.54441,7.37542,-0.10182,0.21292,-0.69379,0.63895,-0.75023,0.68365
1090,-3.22787,-8.16024,17.53764,3.40603,64.10411,18.22,82.97343,15.13769,82.62091,3.49893,-26.63137,-2.16932,1.7236,-0.14404,2.82194,-34.41899,-8.63524,7.55585,137.39728,-64.47878,86.09533,-96.9634,26.62441,-60.07252,3.0623,0.9527,-30.97801,-4.97794,4.71445,0.1534,-3.51047,3.93509,-8.46374,-0.68026,0.92884,0.21804,0.1403,0.34084,-0.71948,0.30964,-0.24481,-0.49481
1091,-2.55756,-3.37182,0.90752,-0.60899,59.70859,17.27165,60.90718,38.30194,80.24017,15.08026,-18.50455,-4.89087,1.9562,-0.06805,2.00564,-30.58104,-8.41167,7.67476,124.0295,-11.6826,75.62041,-70.55025,18.48824,-55.84357,1.45278,-2.11258,-21.12546,-11.1441,1.19637,-11.00899,-2.76984,3.80742,-6.84077,-2.76548,0.77415,-3.42667,-0.01219,0.34528,-0.66237,0.14275,-0.07393,-0.88466
1092,-3.40885,1.41885,-18.19498,-2.44578,53.33098,16.65075,28.87615,40.43216,49.11348,24.00576,-20.97819,-6.66916,1.95264,0.51048,1.40251,-26.03142,-7.8467,7.77019,91.52784,-9.53624,29.2136,-15.14943,12.17365,-12.92387,-0.41311,-6.90379,-8.59449,-2.11593,-4.89891,-4.84865,-2.60202,2.65066,-3.89559,0.13695,-0.86968,-0.50603,-0.25923,0.31092,-0.32974,0.19217,-0.46055,-0.26266
1093,-6.99045,4.10338,-40.18933,-8.27165,42.04424,14.35204,-15.9667,23.74499,-14.47824,13.43391,-41.63306,-7.46138,1.20166,1.15634,0.22617,-22.0831,-7.35752,7.67191,12.96999,-58.04808,-54.90192,18.01203,7.24423,30.11948,-0.92028,-10.98086,1.25291,10.69145,-9.11044,8.33788,-1.66112,1.56573,-1.11587,3.82657,-2.915,3.82435,-0.17117,0.21364,0.13647,0.21427,-0.89445,0.245
1094,-5.81101,11.70901,-56.99756,-15.36948,30.90715,11.26624,-59.40764,14.99179,-70.57618,-2.16927,-53.72709,-7.01776,0.47035,1.79951,-1.7307,-18.9772,-7.3153,7.40484,-71.96987,-79.10086,-122.1869,-3.25909,15.88782,28.64532,-0.00706,-9.34121,2.83499,11.64834,-5.18633,12.54843,0.17774,1.76856,-0.82961,3.64471,-2.58341,4.59809,0.21,0.11114,0.2843,0.10064,-0.84356,0.01814
1095,1.45215,20.71538,-37.59064,-18.38867,22.21008,9.0338,-60.47654,21.56718,-55.87319,-0.53283,-49.66228,-8.09314,0.40153,2.16083,-1.68692,-16.26417,-8.2284,6.89544,-70.9825,-53.88734,-96.18517,-64.9969,38.53033,-14.52116,0.84575,-3.27571,-3.73057,3.18049,2.4859,6.00871,1.29636,3.52519,-3.43532,1.14268,-0.44134,2.44305,0.51202,0.22255,-0.09798,0.08759,-0.59686,-0.35761
1096,9.00615,18.40322,26.97879,-15.45162,14.11575,7.90131,-9.71565,26.80934,31.84155,21.20823,-47.72651,-12.65229,0.58592,1.85593,2.34258,-13.62139,-10.36438,6.00952,35.66701,-32.08704,18.2204,-112.65884,50.79392,-53.81061,0.55248,-0.60711,-9.02224,-3.05604,5.26639,-0.78982,1.34382,5.05422,-5.70867,-0.28282,1.06487,0.86686,0.54161,0.46651,-0.56429,0.16825,-0.47019,-0.12486
1097,11.82996,4.31608,88.12217,-9.00057,8.4683,7.63068,47.70929,20.1093,111.04104,46.1882,-48.17859,-16.67442,0.36055,1.16893,7.03537,-11.02037,-13.10724,4.9213,156.78487,-31.82475,114.86663,-101.62721,26.93653,-58.06638,-0.6733,-4.84948,-6.42322,-1.56061,0.43091,-0.37106,1.33498,4.41187,-5.06175,0.1762,0.40475,1.1904,0.45739,0.50914,-0.64423,0.14398,-0.51818,0.46845
1098,10.00817,-8.35383,84.18463,-3.96152,6.55858,7.59877,63.15478,10.7312,116.45061,52.29799,-38.7804,-14.82808,0.40827,0.31479,7.49264,-8.68995,-15.84837,3.91231,182.25203,-28.93717,111.89418,-52.67352,-22.27591,-36.50626,-2.37115,-11.25387,-0.32373,5.7291,-6.60648,7.79517,1.21389,1.96522,-2.6119,1.79952,-1.81003,3.29586,0.37049,0.21014,-0.38195,0.01107,-0.82196,0.84022
1099,5.40518,-2.07483,19.37376,-2.91769,5.15271,6.94039,23.36137,16.37259,91.31866,32.68662,-22.52312,-7.8633,2.05135,0.05705,3.96558,-6.80684,-18.9673,2.97825,77.01547,-3.23045,68.55016,-10.11947,-43.82293,-9.13758,-2.94286,-13.687,3.90144,12.1001,-8.33424,16.30787,1.38836,-0.0741,-0.71178,3.30342,-3.10607,5.82122,0.38104,-0.17646,-0.04547,-0.08556,-1.01868,0.94242
1100,-1.32423,13.99638,-41.29135,-4.00992,2.34983,5.7405,-31.65645,25.16658,90.36992,4.4794,-8.89259,-1.33263,4.89408,0.32102,0.84458,-5.23448,-22.90249,2.01942,-68.0306,24.00689,60.91794,33.37416,-4.21485,20.85395,-2.07135,-12.56185,6.82137,11.54826,-1.53489,15.5955,2.28808,-0.45355,-0.36037,3.43085,-1.67279,6.22061,0.49819,-0.33991,0.14992,-0.01917,-0.70847,0.77565
1101,9.86925,-2.83878,-68.75324,-3.13048,-1.43111,4.87156,-9.43213,0.3382,52.20041,-3.74878,-1.51559,0.42471,9.00967,-2.51112,0.1346,-3.66677,-27.22486,1.08104,-68.40374,4.47379,17.01615,100.02485,58.76247,53.67698,-0.73117,-10.80794,10.50518,4.99995,11.86626,5.41167,3.68008,0.19564,-1.02029,2.03533,2.3408,3.57629,0.63433,-0.25778,0.1478,0.19373,-0.09177,0.11864
1102,58.47354,-46.13286,-119.27827,2.86241,-5.46518,4.98374,102.73775,-42.80264,-107.71614,25.26966,1.3685,-2.19079,16.73525,-8.45422,-3.58969,-1.95915,-31.21728,0.18372,119.26018,-44.54714,-163.9193,148.9446,75.19098,75.09136,1.06913,-8.22909,13.52978,-0.39112,18.62655,-4.11972,5.05704,0.69078,-1.75476,0.82618,4.59076,0.15021,0.71122,-0.11409,0.04278,0.40834,0.01295,-0.73194
1103,44.59646,-5.37042,-236.20509,11.37787,-10.13653,5.25672,50.30093,0.01264,-359.88879,74.41116,-0.92748,-6.15768,19.67635,-0.95154,-14.80759,-0.46351,-34.80557,-0.80866,148.30247,-5.59831,-448.39505,119.60804,29.85805,72.94888,1.12594,-6.37481,14.05332,-0.25175,9.96854,-3.34387,4.79881,0.6279,-1.84513,0.80805,2.50885,-0.83055,0.55102,-0.05756,-0.00137,0.40753,-0.44018,-0.99261
1104,-128.31526,110.42754,-305.00174,17.19841,-16.96961,4.25828,-320.21692,122.78893,-524.99005,105.57084,-11.70002,-9.39794,-1.90181,16.98837,-19.90346,0.49898,-38.23214,-2.01365,-216.67311,114.26257,-630.81787,37.83113,-28.0647,60.57056,-3.0484,-8.03694,13.45879,5.21808,-5.23507,8.41351,2.57966,0.57288,-1.41761,1.62993,-1.08949,1.60937,0.20191,-0.0888,0.0597,0.14419,-0.72748,-0.37902
1105,-203.59935,114.96951,-221.61375,21.39028,-24.84091,2.5463,-466.48572,127.74049,-377.85315,104.94463,-23.78199,-10.05528,-27.19793,16.85851,-21.13531,1.33217,-41.1273,-3.33226,-378.41357,109.4516,-443.43848,-6.99014,-48.52775,57.66333,-8.54069,-10.71843,12.40737,12.9777,-16.5082,22.65854,0.42503,1.01013,-1.21633,2.75105,-3.99718,5.54085,-0.08139,-0.09439,0.11206,-0.15846,-0.73793,0.55456
1106,-134.15147,62.43131,-116.8624,28.80644,-32.22655,1.60465,-319.2471,59.21172,-145.55994,91.57472,-32.1913,-7.59687,-31.32633,12.08055,-20.38497,2.52923,-43.01206,-4.53548,-249.85684,34.66655,-157.8687,16.6947,-21.41613,51.92908,-10.11945,-10.23765,9.72938,15.937,-14.97034,24.50708,-0.22409,1.22928,-1.04274,3.1021,-3.99013,7.04331,-0.2023,-0.00841,0.09954,-0.2372,-0.63625,0.88564
1107,-91.76284,47.31556,-102.47073,38.68589,-40.02736,1.32425,-236.85213,45.0666,-155.42171,85.47607,-46.47121,-5.12011,-20.84425,11.49849,-12.32587,3.8248,-44.14809,-5.48991,-194.58656,13.73612,-173.25389,53.17569,20.78465,28.77496,-6.7481,-7.14574,6.0947,14.03494,4.55918,13.75074,0.22165,0.10519,-0.09314,3.25643,1.49342,6.02761,-0.14633,0.02115,0.09255,-0.05963,-0.2429,0.59416
1108,-66.74413,44.07061,-129.07411,45.44557,-46.56318,0.85876,-202.81471,68.45824,-327.0683,88.26428,-68.53259,-5.63895,-5.60978,8.9022,-5.71577,4.71389,-44.81593,-6.22894,-160.54268,14.18547,-402.62778,52.44246,41.92207,20.16223,-0.61001,-3.61337,3.67585,15.44175,22.35961,16.0586,1.10565,-1.85069,0.87639,5.54016,7.71894,8.68799,0.09441,-0.18805,0.10341,0.05623,0.3861,0.91485
1109,-12.65167,25.38904,-145.03612,47.0213,-47.1474,0.22394,-94.81654,95.60922,-497.05334,90.35751,-82.7925,-7.6728,6.42043,4.23957,-5.16779,5.34514,-44.47259,-6.81826,-10.78538,5.56346,-637.65234,23.31781,52.46758,45.53591,4.75918,-0.54294,3.32188,13.24934,11.28779,37.28726,2.01787,-2.72959,0.11129,7.92336,6.88787,14.95566,0.32353,-0.50063,-0.03212,-0.07867,0.77005,2.1384
1110,27.46199,5.81138,-129.81087,47.03181,-41.47201,-0.06603,6.64451,100.55649,-514.74335,87.36635,-77.33951,-7.31658,11.39164,0.22305,-6.20768,6.19487,-42.69675,-7.30027,124.53512,-5.08246,-671.47717,-30.78911,75.98351,71.25259,3.01048,0.40166,4.29374,5.70046,-11.76387,51.43225,1.51764,-1.53331,-2.30752,6.30679,1.18416,14.70701,0.1305,-0.55577,-0.46709,-0.3237,0.47135,2.26303
1111,25.48584,-2.92552,-67.40221,48.75399,-36.36021,-0.21653,19.65485,56.40757,-279.54901,80.00336,-62.24276,-4.14511,8.45677,-2.19869,-2.79637,7.22638,-40.59185,-7.85946,122.34802,-29.61139,-367.93039,-98.78611,70.94465,76.73595,-5.17223,-1.30147,6.08856,12.75994,-18.85888,48.52647,0.73939,0.10959,-4.66029,0.9701,-7.63451,8.53055,-0.26277,-0.3451,-0.96486,-1.19293,-1.38755,0.79463
1112,7.06255,-2.60969,-0.16535,49.09085,-37.45794,-1.26241,-12.17648,-5.51091,45.85025,62.2214,-56.45444,-1.86218,3.16443,-1.48607,1.83615,7.75077,-39.91588,-8.74176,40.08141,-65.66359,67.86167,-40.16812,0.02505,51.06536,-1.41372,-5.42978,16.28305,6.99604,-29.33869,13.46573,6.74681,-4.71262,-3.42502,-3.29003,-15.42546,7.91132,0.51856,-0.85475,-0.48732,-1.71827,-2.28173,1.50704
1113,-3.56029,0.2715,32.40649,45.81775,-39.74113,-2.90192,-27.99991,-44.99553,254.16412,40.3344,-55.09888,-1.4678,0.90815,0.60713,3.17437,7.21217,-40.74084,-9.85442,-13.17223,-88.84822,359.43109,116.80766,-75.82384,14.87767,5.90854,-9.63353,31.34712,-18.27092,-45.98756,-39.95643,10.06359,-12.52038,5.23714,-3.89866,-9.82497,2.68533,1.27622,-1.66432,1.61396,0.13891,0.09778,1.459
1114,-3.80645,0.08465,39.91479,43.12532,-37.24131,-3.65448,-18.36437,-58.89856,311.07864,32.44231,-42.22537,-0.54424,1.35463,1.32466,2.86939,5.68159,-41.67619,-10.72992,-2.21449,-80.15684,444.3956,238.4942,-112.84241,-14.20546,-4.8403,-4.0421,14.15227,-14.11734,29.37377,-86.04945,3.09301,-2.01294,7.00026,1.08387,13.16248,-13.13453,0.4812,-0.07906,2.31577,2.1624,1.71306,-1.17517
1115,-3.22834,-1.02583,38.34592,45.39647,-33.21548,-3.10224,-9.11142,-52.55003,247.71111,45.58584,-29.22222,-0.19707,1.80984,0.50288,3.14474,3.61478,-41.98024,-11.15816,33.87015,-53.26683,352.13019,206.43054,-98.48462,76.24168,-6.13245,-0.36705,-5.70126,63.42276,102.19614,-11.73919,0.61712,4.79441,1.66039,15.70016,25.12005,-2.68212,-0.02666,0.61562,1.17602,1.84657,1.09999,-1.28152
1116,-5.18322,0.80474,25.93768,52.17471,-31.54098,-2.12637,-8.13586,-26.45529,83.46851,73.144,-40.04022,-4.54685,1.05385,-0.24046,3.08092,1.42172,-42.2009,-11.63248,72.99551,-50.56804,108.63982,81.44255,-59.24733,158.34262,2.49251,-3.27132,2.55074,45.80427,-34.8774,90.20904,3.06148,-3.5095,-0.3649,8.36228,-12.80227,21.56817,0.12476,-0.70038,0.22978,-0.85956,-1.36872,2.2146
1117,-14.98594,13.9086,-3.3843,57.34365,-30.6911,-1.89085,-28.46545,17.24877,-109.13239,90.59706,-63.67716,-10.68915,-1.79083,0.89725,0.22887,-0.95147,-43.19307,-12.70148,70.38915,-61.58573,-176.5547,8.96838,-2.9012,70.68866,0.46244,-1.72072,16.37231,-28.5817,-60.62799,41.98594,3.7663,-7.36701,-0.57441,-3.70182,-15.35771,9.22792,0.10822,-0.97731,-0.2224,-1.08345,-0.92341,1.75083
1118,-33.13033,39.85566,-32.74799,57.8395,-29.33616,-2.27837,-83.71151,64.20358,-206.27986,87.48376,-69.9972,-10.58205,-5.78385,3.55713,-4.09948,-3.64311,-44.91367,-14.11723,-3.36524,-39.13776,-319.26483,-89.29047,55.77274,49.74418,-5.0817,4.10327,23.58706,-10.09449,-27.74082,31.18118,1.06076,-5.56086,0.48295,1.0203,-4.4185,8.717,-0.35612,-0.34026,-0.21607,-0.36073,0.14524,1.51543
1119,-39.29469,52.84983,-37.14586,54.38409,-26.18412,-2.36383,-117.04131,83.55042,-170.03061,78.58002,-56.07671,-4.02917,-6.59568,4.43962,-5.27432,-6.8255,-46.0831,-14.92945,-52.03031,-6.91509,-264.00717,-91.87439,69.56907,70.32941,0.47798,8.1241,24.24073,12.87151,-23.11121,38.37276,-0.63276,-4.68639,1.58317,3.66392,-5.03768,13.41506,-0.61988,-0.05959,-0.04785,-0.49903,-0.14241,2.29073
1120,-25.11138,37.65292,-18.40227,50.02692,-21.79321,-1.86133,-86.48954,60.59785,-67.85218,77.3576,-44.44323,0.81257,-2.84244,2.09399,-1.81564,-10.13677,-45.8579,-14.69522,-5.54244,-19.75024,-113.8508,-16.67015,60.95149,69.52397,11.30202,7.41078,21.12124,11.59056,-19.00703,27.97667,0.1412,-5.82313,2.48082,2.2341,-6.63112,11.6919,-0.47574,-0.34579,0.23312,-0.78161,-0.67209,2.34035
1121,-8.95376,15.67464,4.62055,45.74298,-19.78972,-1.6267,-41.4087,21.93146,23.6328,75.81554,-43.92291,-0.56902,1.06198,-0.87362,3.26663,-13.01941,-45.16156,-14.03458,51.52454,-54.1739,14.79067,22.98745,57.63142,55.62586,12.75767,2.43125,14.53102,7.94867,-12.08884,17.25392,1.68222,-6.57868,3.05754,1.68293,-5.53003,8.5005,-0.21298,-0.70865,0.56613,-0.63083,-0.66435,1.69718
1122,-3.1313,6.40749,7.05394,39.01722,-18.27229,-2.46897,-21.6495,0.13794,38.67418,61.8135,-37.13819,-4.29979,1.86397,-1.4532,4.92824,-15.46602,-45.07769,-13.69026,49.43469,-51.82832,36.28017,12.16505,63.06115,49.39233,2.71131,-4.3503,5.00154,10.22782,-7.43997,14.24364,2.79018,-5.4489,2.66836,2.60313,-3.38829,6.47997,-0.00166,-0.8118,0.74195,-0.2422,-0.32446,0.91013
1123,-5.63205,8.32319,-17.60402,31.0254,-14.60318,-3.83373,-20.77708,1.21757,-30.18122,43.5356,-23.60539,-6.62854,0.39458,0.3392,1.03482,-17.5069,-45.61319,-13.80322,21.68622,-24.27068,-48.88118,-0.6365,69.24733,53.20146,-5.56045,-7.86268,-1.72558,12.05633,-10.56922,16.24117,3.22433,-3.49608,1.51021,3.16879,-2.99987,5.66979,0.09376,-0.71395,0.67558,0.02697,-0.14439,0.54922
1124,-10.19994,13.40968,-38.27122,26.32297,-9.95117,-4.43027,-19.97592,13.49192,-91.65187,37.93056,-19.35227,-7.55285,-1.42096,2.29387,-3.63952,-19.28558,-46.29167,-14.05367,26.45307,-18.196,-123.58305,-6.70433,56.00786,50.99139,-1.40824,-2.96205,1.38311,10.60326,-17.87257,18.70171,2.61364,-2.71525,1.03085,2.9533,-3.94553,5.23662,0.02675,-0.56142,0.47828,0.20001,-0.11087,0.58906
1125,-11.61399,18.86017,-28.07472,26.91352,-5.20161,-3.67608,-16.65837,27.37368,-64.67323,49.20776,-23.43019,-7.54585,-2.22399,2.74582,-3.58353,-21.21684,-46.84988,-14.12667,62.07169,-32.44371,-95.43409,-28.57011,19.45457,35.121,8.58423,8.02936,11.21029,10.17123,-21.0138,19.99314,1.07816,-3.13586,1.73247,3.10077,-4.208,4.94855,-0.12924,-0.37816,0.27212,0.39297,-0.04459,0.67749
1126,-9.19175,22.85546,-6.17688,27.8372,-0.40131,-2.65135,-16.15446,36.14103,9.95477,58.18645,-22.74708,-7.13814,-1.61637,2.03181,-0.41756,-23.5723,-47.11101,-13.91906,78.19422,-36.07919,-16.04359,-52.9524,-18.12816,15.48158,12.10225,15.409,16.98651,10.92017,-16.77889,18.30144,-0.09156,-3.40878,2.51165,3.53502,-3.57245,4.79896,-0.24402,-0.17703,0.11321,0.3995,-0.07719,0.63961
1127,-5.994,18.53155,-2.4833,23.34508,3.77157,-2.69032,-11.35108,30.18667,45.5666,46.69452,-11.55169,-6.22774,-0.30768,0.91062,1.17135,-26.29895,-47.01144,-13.5592,59.50206,-21.85189,22.60163,-33.98567,-38.21681,5.18733,9.07418,14.73082,16.31589,6.70277,-8.87908,10.85967,0.49377,-3.77657,3.13917,2.66667,-3.27855,4.35814,-0.17304,-0.14034,0.12336,0.00118,-0.32193,0.55816
1128,-5.59537,9.271,-13.43404,15.26805,6.68111,-3.55574,-6.36793,15.75563,32.35258,24.11389,4.24016,-4.06606,0.46155,0.07518,0.43874,-29.15419,-46.90377,-13.3181,27.49389,2.91733,17.68937,28.52023,-31.57375,8.20187,7.34913,10.32189,14.00942,-2.3776,-4.86974,1.77985,2.12191,-4.5998,4.17805,0.65994,-4.23073,4.09947,-0.0042,-0.29163,0.37058,-0.52836,-0.62515,0.7114
1129,-5.56172,3.72297,-16.45465,8.26128,9.24672,-4.46085,1.4886,6.85573,25.39352,7.13735,14.51158,-2.58168,0.47216,-0.07508,-0.0934,-31.87361,-47.07349,-13.28709,15.08627,18.55478,23.75077,65.24547,0.66262,18.60687,10.08141,6.72218,12.37363,-4.9304,-6.8418,1.22243,3.40934,-5.15793,5.29024,0.623,-5.42535,5.5122,0.10624,-0.4525,0.68995,-0.6712,-0.87989,1.29511
1130,-2.30301,1.75488,-6.00047,4.17333,12.08071,-5.1144,21.89888,3.35002,42.36652,-0.77466,12.09048,-4.67533,0.39314,0.06333,0.83691,-34.22152,-47.31175,-13.31279,36.31005,-3.46042,44.71849,25.22818,36.21882,22.38343,14.88489,5.74338,11.43233,1.79809,-9.48404,7.89878,4.8544,-5.16948,5.75792,2.75463,-4.96702,6.98204,0.29251,-0.49011,0.81879,-0.2834,-0.94878,1.78125
1131,2.12736,-0.59034,5.69528,3.1121,14.90766,-5.32971,40.5117,-0.85284,51.06085,-3.04165,1.61487,-8.84276,0.40366,-0.0783,2.1668,-36.2675,-47.33791,-13.29651,63.93096,-53.57932,44.13189,-49.49976,45.16182,12.82776,18.53935,6.66536,9.63982,7.66438,-9.72358,11.31053,6.83181,-4.35484,4.79338,3.87556,-3.22699,5.81966,0.63788,-0.29324,0.52853,0.22077,-0.71052,1.50376
1132,3.36157,-2.96239,8.2289,5.57614,17.77985,-4.82328,34.47414,-3.73889,29.87057,3.14558,-3.4601,-10.87727,0.26757,-0.45749,2.59431,-38.40942,-47.25117,-13.34438,68.64297,-80.66446,9.55721,-72.4239,22.63969,-1.2327,19.97025,5.7856,4.6729,7.45481,-11.1636,9.51214,8.09689,-2.42119,1.81089,3.28476,-3.28061,3.43972,0.88838,0.07324,-0.14022,0.30537,-0.62045,0.7297
1133,-1.01539,-1.56515,-0.95679,7.57491,19.50002,-4.3977,6.30712,-0.7758,-9.35805,11.4154,-2.53846,-10.82606,0.03033,-0.56319,1.64871,-41.10705,-47.33778,-13.53248,45.00546,-66.76235,-42.09649,-21.83672,2.67165,-13.24524,20.61299,1.01598,-2.36596,3.89632,-14.91442,6.77474,8.64973,-0.3681,-2.12252,2.58662,-5.44916,2.3085,1.00437,0.27121,-0.6957,0.08634,-0.88334,0.2353
1134,-9.77112,3.99317,-17.04436,4.89167,20.53368,-4.95275,-18.17924,6.03351,-37.0667,8.97503,-0.59653,-10.90797,-0.08248,-0.26204,-0.12854,-44.27517,-47.48226,-13.71692,12.66555,-42.43708,-78.38902,37.85434,13.24011,-19.2769,21.13672,-3.07049,-5.6974,1.53795,-16.69046,5.96242,10.3483,0.1317,-3.77211,2.49407,-6.523,2.65507,1.33159,0.10736,-0.55934,-0.05355,-0.98442,0.2913
1135,-16.42875,7.35182,-26.88299,0.71476,23.31068,-5.89325,-15.10963,9.26735,-29.91874,-3.35446,7.5652,-10.31365,0.08717,-0.06541,-1.16995,-47.27491,-47.35348,-13.7669,1.99939,-29.83944,-67.77479,50.27845,32.44676,-8.34438,18.7443,0.36289,-0.33954,3.6071,-13.75168,8.11575,13.01588,-1.35328,-0.11501,2.97364,-4.85264,3.97172,1.7997,-0.21527,0.35647,-0.03731,-0.68771,0.65673
1136,-13.0638,1.91949,-18.90535,-0.2576,27.21227,-6.33475,21.73561,1.15271,9.13674,-15.89894,24.82628,-7.65053,0.55927,-0.3934,-0.38513,-49.6267,-46.93835,-13.79536,28.44534,-27.52648,-11.60003,26.82379,30.31142,19.79141,11.8018,9.57717,9.95838,8.294,-9.61683,11.6032,14.08175,-3.24142,6.89226,3.83056,-2.59411,5.47199,1.93244,-0.37259,1.43606,0.05669,-0.39673,0.95277
1137,-2.43588,-9.52918,-1.18506,0.62515,29.34617,-6.493,64.92999,-17.06522,43.48471,-23.20613,39.84233,-4.50883,1.01731,-1.01894,1.18039,-51.47625,-46.39316,-13.93325,66.36605,-35.12481,37.65234,3.79695,22.96847,39.52462,5.93203,13.22462,14.02538,9.57959,-8.58219,11.92219,12.45353,-3.50435,10.04858,4.3687,-2.0409,5.60926,1.6618,-0.31284,1.74389,0.17522,-0.41459,0.90025
1138,1.56355,-15.09975,5.38846,0.11153,29.04206,-6.85368,70.5248,-25.39636,44.62154,-25.79819,38.86213,-3.85959,0.97787,-1.38259,1.52657,-53.38062,-45.89219,-14.14389,67.49104,-48.26813,38.80697,-7.61823,41.56531,28.30445,8.77004,5.00331,6.21555,5.48267,-8.49459,7.42771,9.92069,-1.90845,4.84766,4.10585,-2.07525,4.15904,1.37407,-0.18847,0.87003,0.31805,-0.5041,0.60644
1139,-7.36596,-8.79762,-4.86729,-0.97444,28.55439,-7.32549,38.60951,-7.92532,29.55155,-28.57455,26.1375,-6.07111,0.39347,-1.27181,0.36682,-55.66504,-45.70379,-14.37638,27.47363,-51.70367,19.06329,-14.25252,72.56395,-3.88779,20.12673,-7.65007,-7.63138,-0.5366,-6.9647,1.31222,9.27677,0.27699,-5.44066,3.16247,-1.46814,2.27214,1.46015,-0.04346,-0.76831,0.44913,-0.46982,0.33629
1140,-17.61927,0.18348,-15.4915,0.00477,29.51468,-7.64002,18.23825,14.22927,26.79803,-34.93114,19.89305,-8.40484,-0.01593,-0.96817,-0.52474,-58.20653,-46.01884,-14.68349,-3.07641,-47.04499,20.72915,-15.36717,68.80687,-26.9429,30.18621,-12.83146,-16.73618,-4.42325,-7.24505,-2.93234,10.65221,1.7885,-12.83973,2.41276,-1.88717,0.52476,1.80157,0.15661,-2.15992,0.53691,-0.58593,0.09518
1141,-16.88237,-0.70593,-12.78174,3.59723,30.3721,-7.67903,27.72289,5.6135,27.8519,-38.12267,25.71809,-8.87343,0.36678,-0.97731,0.07252,-60.63886,-46.6466,-15.11723,2.33988,-57.23159,27.02657,-4.40771,26.82756,-26.04189,30.21484,-6.61445,-14.61565,-5.00362,-9.59623,-4.67978,11.73455,1.92931,-11.38441,2.46078,-3.53621,-0.81718,1.97671,0.34497,-2.24677,0.5723,-0.87751,-0.20253
1142,-9.10553,-11.4986,-1.93615,6.97179,29.08878,-7.73504,31.32199,-31.64138,11.10511,-33.18419,30.28958,-9.25406,1.07428,-1.50875,1.26479,-62.54555,-47.12082,-15.57193,8.52124,-87.14527,0.20575,13.92536,4.48491,-15.55501,21.31233,4.14071,-4.49738,-4.10543,-9.85521,-4.64245,10.30688,0.96445,-2.84453,2.77693,-3.99649,-0.93486,1.6299,0.39244,-0.92772,0.51854,-0.93095,-0.37636
1143,-4.22635,-20.87124,5.45205,7.1356,27.0662,-8.37305,16.47675,-57.97207,-7.45348,-28.42785,26.24514,-12.20205,1.38962,-2.21767,1.72131,-63.65308,-47.15997,-15.86189,-5.59954,-107.07596,-37.08433,27.2284,33.58394,-13.68418,10.74639,9.26323,3.87679,-3.46019,-8.01419,-3.60898,6.53458,0.07883,4.45832,2.86174,-2.87242,0.1152,0.79741,0.28368,0.57501,0.42396,-0.70313,-0.29216
1144,-2.98766,-20.65237,6.27,3.4957,27.04947,-9.86244,20.02673,-47.9455,4.24457,-37.11178,23.10773,-16.85088,1.50679,-2.65092,1.46515,-64.32104,-46.83585,-15.91782,-10.97452,-93.16701,-29.48922,28.3206,74.98698,-18.07592,4.44467,5.35986,4.56885,-3.10172,-6.30907,-2.7683,3.43274,0.17919,4.74106,2.62951,-1.70545,0.88194,0.12656,0.17504,1.09135,0.38207,-0.48411,-0.14514
1145,-1.32573,-14.78582,4.61139,-2.55445,29.24885,-11.67163,58.11407,-21.69463,39.02366,-59.73785,30.77953,-18.90555,1.88838,-2.85332,1.12452,-65.73637,-46.38889,-15.79756,9.78027,-63.57303,22.56803,16.21085,87.30841,-19.83829,4.4088,-2.28666,0.02328,-2.54704,-6.04344,-2.91874,3.19412,0.95278,0.13306,2.34802,-1.51949,0.35698,0.15219,0.17625,0.64658,0.41935,-0.41117,-0.11906
1146,0.66899,-10.70004,3.55503,-5.40876,32.71027,-12.4655,95.73193,-9.10621,61.9068,-73.1859,48.93688,-14.82222,2.25268,-2.9953,0.84152,-68.70837,-45.90872,-15.65001,42.12846,-43.48371,68.11172,-1.05339,77.61156,-20.95475,9.93155,-5.94575,-4.68405,-0.97948,-7.76415,-2.77474,4.88391,1.51005,-4.00905,2.71431,-2.01379,-0.52282,0.64765,0.25737,-0.17191,0.49482,-0.40548,-0.10807
1147,0.44526,-8.71949,2.46746,-1.03815,35.33594,-11.81588,99.06909,-9.79743,57.24018,-65.33147,65.61022,-7.67289,1.98308,-2.77822,0.46362,-72.49964,-45.12585,-15.65318,58.17825,-33.95798,74.88612,-7.50304,67.8316,-23.21811,16.79739,-3.43012,-7.39568,2.32597,-9.18429,-0.02163,5.97806,1.42201,-5.32571,3.86338,-2.07859,0.24083,0.92698,0.31754,-0.94379,0.57044,-0.38495,0.09241
1148,-1.15333,-6.71659,1.11621,5.3018,34.62025,-10.94558,74.52442,-12.35197,36.37502,-59.81332,68.69203,-4.46561,1.20423,-2.02476,0.09725,-75.69652,-43.60916,-15.75926,32.7193,-32.99418,50.83942,2.18786,64.52515,-21.27301,18.54165,-0.18719,-8.34176,5.87016,-7.26937,4.44976,5.42786,1.07356,-5.30224,4.74346,-1.31491,2.63232,0.70272,0.26606,-1.36112,0.6634,-0.3654,0.40142
1149,0.04084,-6.44021,1.76873,8.25036,32.08691,-10.62633,50.4991,-19.5462,17.8131,-68.28967,62.60002,-5.95926,0.89592,-1.31743,0.12389,-78.07162,-41.35826,-15.70928,-15.35516,-43.91021,21.59487,18.07525,60.67031,-16.07974,14.41963,-0.90022,-8.1236,6.38957,-3.84164,6.01312,4.4506,1.08552,-5.69003,4.38986,-0.50302,3.83731,0.39311,0.18471,-1.26897,0.74939,-0.33246,0.46481
1150,3.60463,-9.80658,4.97094,8.4588,31.82426,-10.67433,41.59267,-37.68683,10.84018,-73.21537,61.01024,-7.66172,1.40281,-1.27153,0.58029,-80.91444,-38.86262,-15.3344,-42.21501,-63.59502,5.73259,33.14369,46.74233,-16.35214,10.81867,-2.66028,-7.05369,2.44692,-4.02755,1.24294,3.92903,1.29205,-5.44593,3.30896,-0.42017,1.66792,0.36523,0.17911,-0.81514,0.73554,-0.22891,0.0781
1151,4.01336,-13.5292,7.42068,8.09856,34.25419,-10.69736,41.16574,-56.66568,12.3627,-64.09485,64.8815,-8.21551,1.74252,-1.51646,0.95599,-84.92407,-36.25994,-14.63953,-36.45849,-80.52077,3.82179,43.3752,31.51642,-24.59629,12.07507,-1.79644,-6.03811,-3.95556,-8.05463,-7.66067,4.14691,1.31935,-3.89563,2.60137,-0.72781,-2.20896,0.63469,0.26323,-0.41022,0.60669,-0.06331,-0.47358
1152,0.10988,-12.73073,6.41689,7.93972,34.9326,-10.18846,39.93537,-58.56617,14.63341,-50.03403,60.46769,-9.47553,1.2049,-1.32906,0.88039,-89.00907,-33.17903,-13.80072,-17.49121,-87.9396,5.0213,36.75197,36.65836,-37.11918,16.36902,-0.31138,-6.94444,-9.16214,-11.27739,-14.53252,5.28238,1.51507,-3.55152,2.69687,-0.72226,-4.0863,1.03209,0.44071,-0.53343,0.47799,0.05564,-0.66162
1153,-4.20846,-8.56057,3.38456,7.96747,31.21524,-9.05182,34.22675,-45.23441,13.01343,-41.82507,44.10228,-11.1936,0.39447,-0.89567,0.49279,-91.70562,-29.59503,-13.12395,-5.84691,-91.24419,1.26862,13.81922,61.77959,-49.19102,20.17246,0.23058,-9.65972,-9.94245,-11.02154,-14.59901,6.4655,2.0303,-5.18719,3.29448,-0.32841,-2.47636,1.23774,0.61931,-1.04091,0.42417,0.05708,-0.35107
1154,-6.51441,-4.81176,0.77028,8.44023,27.12964,-8.16699,27.16185,-31.9116,9.48003,-42.32874,34.38301,-10.60727,0.13306,-0.7558,0.08804,-92.59461,-26.23626,-12.84208,-8.99055,-88.36832,-2.60598,4.41092,77.95209,-52.64477,20.83208,1.63722,-11.0214,-6.53912,-7.83053,-8.80205,6.28643,2.20351,-5.7119,3.21777,0.17273,0.42556,1.00422,0.60616,-1.12679,0.35077,0.05225,0.00089
1155,-5.76746,-2.51674,-0.49361,9.95063,28.16918,-8.46885,30.10081,-24.4064,9.3405,-48.89907,47.20505,-6.65553,0.45158,-0.88262,-0.10747,-92.27908,-23.93335,-12.9486,-16.79211,-67.27641,4.18887,30.70013,64.03254,-41.94029,16.35027,2.93283,-9.05943,-2.92358,-3.96189,-3.73854,4.74657,1.79227,-4.22028,1.69244,0.58923,0.74621,0.46178,0.37063,-0.59722,0.21078,0.20148,-0.15848
1156,-1.29789,-2.09826,-0.11353,12.17373,33.40378,-9.62735,46.45184,-20.65355,13.16627,-55.49982,69.70522,-2.30407,0.90581,-1.06644,-0.02294,-91.72266,-22.8571,-13.22093,-15.06027,-36.36865,19.60408,65.15889,34.27658,-26.40705,8.07042,0.41492,-6.03683,-2.73076,-1.2949,-4.8053,3.2919,1.60895,-3.98552,-0.18118,0.95575,-2.33078,0.03548,0.19238,-0.32963,0.12273,0.45667,-0.74318
1157,4.72961,-4.10842,1.65693,12.83581,38.31264,-10.71646,61.02816,-21.53906,16.30027,-57.58767,79.03685,-1.76805,1.24243,-1.29279,0.21501,-91.55959,-22.30826,-13.24413,-6.03603,-23.81565,28.29468,63.98309,19.68075,-24.58157,2.19735,-5.52351,-5.99911,-6.23022,0.42656,-10.09363,2.26017,2.1301,-6.71439,-0.62783,1.17043,-4.91831,-0.12631,0.27302,-0.91115,0.18096,0.58405,-1.1048
1158,7.78121,-7.41148,3.77576,10.33314,41.1341,-11.46428,56.98876,-30.31328,15.85451,-56.20586,73.42276,-6.24207,1.4338,-1.53346,0.43682,-91.6949,-21.34591,-12.71898,-6.62619,-42.59662,20.56785,32.05616,28.49202,-38.9842,3.72616,-9.62929,-9.56282,-8.45004,0.53712,-13.40322,1.02447,2.64808,-9.48862,1.4852,1.18557,-4.11384,-0.16882,0.40371,-1.65258,0.44237,0.48339,-0.93132
1159,6.44554,-8.61234,4.65295,6.10385,42.64015,-12.21287,37.74413,-37.46869,13.36401,-58.92031,70.86333,-12.29279,1.40238,-1.51901,0.5689,-91.38003,-19.59003,-11.90626,-29.41917,-60.52742,5.03846,12.32305,42.77375,-48.61369,10.21061,-7.96287,-12.47251,-4.24243,-2.57963,-11.15845,1.03532,2.39308,-8.94842,4.88393,1.28668,-1.54724,0.11384,0.34562,-1.53999,0.72433,0.27455,-0.48983
1160,4.50713,-6.02146,3.61725,3.50157,43.98787,-13.17107,24.16574,-28.40261,11.4579,-71.26504,86.68722,-14.59487,1.13358,-1.07457,0.58887,-90.02424,-17.14343,-11.36983,-65.17673,-31.28043,-0.12186,23.77285,48.13137,-37.94795,13.95266,-2.37568,-10.92354,3.17592,-7.47609,-5.9724,3.16452,1.50315,-5.67391,6.28872,1.39383,-0.0355,0.6908,0.16134,-0.67922,0.68469,0.09617,-0.14506
1161,5.10815,-3.86056,2.56076,4.90475,43.66731,-13.62345,27.97758,-13.85281,11.4372,-83.24324,108.75533,-11.79034,0.87896,-0.65221,0.50343,-88.29684,-14.22562,-11.29913,-85.2422,22.97677,10.24575,50.17197,47.27349,-13.88374,9.49848,2.39077,-5.22365,5.55029,-9.6432,-3.28471,5.36595,0.7394,-2.70091,3.97787,1.16391,-0.61914,0.96342,0.06691,-0.00215,0.29626,0.03894,-0.10401
1162,6.99776,-6.342,3.47127,8.65463,38.11656,-12.52396,40.01996,-17.81892,13.4429,-79.51223,106.95714,-7.66687,0.92201,-0.79452,0.44652,-87.471,-11.02076,-11.33781,-70.89273,27.25453,22.93344,70.40026,43.12161,6.98252,0.59514,3.69957,0.76546,0.56623,-6.66989,-4.89498,5.95443,0.58166,-1.67743,-0.25246,0.74862,-2.63787,0.78641,0.16061,0.06448,-0.13704,0.14478,-0.35253
1163,6.64976,-10.65392,5.30172,10.85206,29.76132,-10.31146,44.04643,-39.44074,16.14685,-60.11568,79.79745,-5.40917,1.07361,-1.29912,0.53138,-87.46986,-7.44804,-10.9348,-37.4173,-30.63074,25.35083,76.16149,30.662,12.10465,-3.83664,1.17158,2.55481,-5.2218,-2.74846,-8.48346,4.81889,0.82789,-2.00486,-2.13909,0.93189,-4.27649,0.49867,0.28504,-0.15404,-0.21185,0.34373,-0.5952
1164,4.16311,-11.19431,5.70292,9.4823,25.25488,-8.58859,39.23428,-54.14086,18.29332,-41.55394,57.38307,-4.72883,0.96431,-1.48394,0.65365,-87.0708,-3.5591,-9.89757,-13.45961,-81.22082,21.14867,78.06497,11.2932,2.35426,-1.49819,-2.54955,0.06595,-5.38859,-3.47925,-10.96865,2.96011,0.96946,-2.38373,0.68679,1.88566,-3.38144,0.30742,0.28327,-0.31735,0.19033,0.42817,-0.46807
1165,2.5102,-6.67915,3.88424,5.27627,25.58311,-8.02261,35.55953,-44.06751,18.32828,-41.20807,58.72075,-3.90784,0.59443,-1.01373,0.60541,-85.86795,0.04371,-8.68388,-16.0864,-67.74001,20.28675,87.09981,-3.93189,-10.22158,2.30927,-2.89408,-2.43381,-2.08704,-7.02536,-10.82674,2.0106,0.64607,-2.19708,5.10928,2.45478,-0.22098,0.27151,0.18224,-0.36318,0.62524,0.28928,-0.06175
1166,2.00077,-1.0942,1.25096,0.99762,27.39916,-8.10421,31.93449,-16.39854,13.97062,-58.71309,75.83623,-1.94418,0.22859,-0.31348,0.35134,-84.40305,2.95729,-7.88088,-45.95412,-6.22085,22.36277,86.35754,-6.50572,-17.09546,3.4688,-0.22731,-2.91897,-1.68102,-6.50397,-8.44013,2.29939,0.29896,-2.17152,5.95283,1.84569,2.04216,0.33554,0.1032,-0.37236,0.55812,0.1467,0.10599
1167,2.25577,0.98404,-0.15688,-0.52823,27.93433,-8.12047,21.38085,5.69788,5.89657,-73.02075,85.48104,-0.33283,0.19343,-0.03023,0.14179,-82.81004,5.37143,-7.61944,-81.66778,38.56771,17.02201,60.82434,4.80303,-19.3927,2.50269,0.36972,-3.37155,-4.80478,-1.4775,-5.98858,2.50863,0.76968,-3.10316,2.78831,0.99536,1.26667,0.34002,0.138,-0.43638,0.07904,0.25217,-0.16844
1168,3.47413,-1.06353,0.24327,1.62071,25.66221,-7.67971,6.66038,7.17083,-1.33246,-62.65186,71.31729,-1.59572,0.53188,-0.24126,0.16567,-80.60828,7.45713,-7.61488,-90.32983,23.65274,-1.13976,37.97977,22.80227,-20.4807,1.39606,-2.37334,-4.49481,-6.30172,1.07788,-5.81586,2.16979,1.66527,-4.07626,-0.17019,1.11459,-1.10102,0.25482,0.23037,-0.47799,-0.27449,0.46733,-0.49703
1169,4.40419,-4.18914,1.40241,4.98361,21.90243,-7.04714,-0.08689,-5.03591,-3.07767,-33.58292,45.52789,-5.07074,0.83541,-0.5185,0.30416,-77.82085,9.08841,-7.49758,-63.12998,-24.52787,-19.43677,44.17459,42.1429,-22.94782,1.63136,-4.69292,-4.3306,-3.7986,-1.63273,-7.30461,2.48165,1.48877,-3.58697,-0.23235,1.87914,-2.35305,0.24524,0.20956,-0.32505,-0.22399,0.49843,-0.50882
1170,4.93059,-5.12964,1.98965,6.0251,20.04544,-6.75974,9.34211,-13.86828,0.81201,-14.42882,35.27278,-7.03337,0.91217,-0.55971,0.47316,-75.34994,10.23048,-7.12674,-27.01367,-47.79679,-19.81428,60.7913,66.97909,-30.57438,3.44994,-4.29325,-2.53049,-0.28088,-4.6984,-7.88668,3.65114,0.0079,-1.87288,1.69464,2.35857,-1.76427,0.30824,0.04684,-0.01314,0.10279,0.36855,-0.2938
1171,6.4715,-3.96799,1.83427,4.88888,20.70782,-6.71576,26.04934,-15.8165,6.03843,-18.82741,45.54358,-5.44332,1.03028,-0.50385,0.71309,-73.93335,11.1241,-6.61798,-11.77334,-34.16151,-4.04598,67.49809,85.83265,-39.75639,4.97032,-2.21746,-0.86935,1.02785,-4.25958,-6.90694,3.98754,-1.18616,-0.34705,3.51944,2.43569,-0.52311,0.23367,-0.07841,0.25025,0.43118,0.29567,-0.10299
1172,7.93631,-3.31857,1.69497,3.97865,19.9549,-6.27631,31.62314,-19.29967,8.68961,-36.06689,53.75114,-2.72611,1.2479,-0.66226,0.87931,-73.25648,11.78089,-6.22393,-25.99573,-22.8783,9.48703,73.98214,65.37579,-36.20955,4.51448,0.05639,-0.24177,0.22929,-2.29657,-5.93651,2.6082,-1.10586,0.33838,3.93391,2.42717,0.0699,0.08188,-0.09956,0.33078,0.55166,0.32599,-0.02558
1173,7.13289,-4.21682,1.83043,3.7593,16.81543,-5.54163,22.29498,-23.86206,8.19067,-53.68296,49.73853,-1.70321,1.33958,-1.15742,0.78639,-72.41731,11.96723,-6.06832,-58.45774,-29.30316,11.96378,83.69458,-0.60737,-12.04685,3.38547,1.87651,-0.43539,-1.10749,-1.47902,-5.26925,1.18169,-0.62209,0.11666,2.7655,2.01924,-0.02555,0.21206,-0.14869,0.14831,0.38567,0.28848,-0.01267
1174,4.64463,-5.19999,1.80803,3.42918,15.61055,-5.40195,13.20101,-20.14391,6.00555,-65.30431,49.27319,-1.32824,1.20222,-1.69139,0.49437,-70.97948,11.63427,-6.05957,-83.72753,-23.86427,10.90849,80.04069,-65.21607,21.82789,2.2432,2.82116,-0.56213,-1.95792,-1.48902,-3.53245,1.66203,-0.59726,-1.13013,0.64953,0.73106,-0.18813,0.59574,-0.21646,-0.2278,-0.00247,0.07392,-0.0342
1175,3.1596,1.22074,-0.00799,2.79768,17.47464,-6.04252,15.9807,0.72638,2.02066,-66.9662,58.21747,-0.26966,-0.79213,1.95486,-0.03185,-69.31831,10.9176,-6.15565,-81.97626,13.34444,10.3018,61.08308,-75.71682,43.44786,-1.07624,2.10626,0.74479,-1.03348,-1.67915,-1.37557,3.4355,-0.76414,-2.56983,-1.2231,-0.39803,-0.68557,0.7073,-0.19729,-0.36475,-0.37077,-0.09067,-0.16389
1176,3.33726,2.80819,-0.08595,1.89265,18.71012,-6.72425,23.00201,2.92811,2.76208,-60.80132,61.76852,-0.4715,-1.72939,3.99082,-0.25156,-68.16959,10.11718,-6.36312,-65.8542,20.15149,12.91876,44.45645,-24.69799,34.98915,-5.16621,-0.57706,2.44377,1.88156,-2.40618,-1.40266,4.39964,-0.82503,-2.81948,-1.51912,0.27459,-1.7369,0.3785,-0.09462,-0.10677,-0.41684,0.08889,-0.38366
1177,4.2031,3.62397,0.38768,0.9553,16.96835,-6.92116,20.51432,-7.552,4.99332,-54.68937,53.67802,-3.04893,-2.64168,6.34607,-0.28253,-67.81149,9.53311,-6.59465,-62.1796,-4.50264,10.61997,38.71494,45.8414,0.73706,-6.38359,-3.95201,2.5253,3.98199,-3.76417,-4.41324,3.4719,-0.89636,-1.56017,0.22568,2.36027,-2.29552,-0.0316,-0.02606,0.2192,-0.06318,0.44868,-0.45419
1178,3.14724,6.9638,0.02866,1.24612,13.59037,-6.68846,7.72363,-9.99374,4.25987,-51.96114,45.935,-5.16966,-3.65122,9.00211,-0.30566,-67.67689,9.18258,-6.68771,-74.71911,-18.26217,3.33821,42.22928,72.23175,-27.28078,-5.4356,-4.59378,2.86796,2.71477,-5.0133,-7.70834,1.89155,-1.46059,0.20787,2.31788,3.56665,-1.66416,-0.13243,-0.13967,0.37524,0.33031,0.52606,-0.25911
1179,0.46213,13.9094,-1.58165,2.9268,10.68486,-6.21481,-0.7565,5.70924,0.13737,-49.0221,45.23698,-4.50906,-4.824,12.03887,-0.46486,-67.11237,8.84679,-6.55052,-79.11141,2.28146,-3.21628,55.64228,27.78315,-22.2377,-4.13036,-0.62361,5.26212,0.16428,-4.69474,-7.0049,1.87309,-2.65418,0.77073,2.63537,2.43451,-0.38995,0.20385,-0.36116,0.26447,0.42005,0.22118,0.01802
1180,-0.52811,20.81965,-3.24135,3.57017,8.84098,-5.72023,6.31876,24.90697,-3.49496,-42.30719,44.51845,-2.26787,-5.97464,15.14886,-0.74476,-66.30079,8.25315,-6.37233,-57.40612,31.43691,-5.69274,77.07941,-40.45374,3.29067,-2.53943,4.15263,7.06704,0.25471,-2.61523,-1.80151,3.66678,-3.68052,-0.49585,1.50068,0.10071,0.77947,0.74405,-0.5518,-0.03116,0.29157,-0.14357,0.19607
1181,0.83068,24.27854,-3.85748,1.69423,8.18825,-5.5481,20.5089,30.16678,-3.70088,-33.74361,40.67583,-0.44088,-7.02897,17.95296,-1.10511,-65.91307,7.36277,-6.43113,-26.54938,40.48748,-4.28028,97.75748,-69.13795,19.62633,-1.67431,5.13353,6.33863,2.82343,-1.14839,2.43333,5.36003,-3.88293,-2.10696,0.3667,-0.94802,1.08073,1.04583,-0.70575,-0.18626,0.06908,-0.2382,0.21355
1182,1.69773,25.5635,-3.7182,-1.35249,9.09414,-5.83894,24.28454,20.81687,-0.95555,-32.18697,39.08741,-0.26491,-8.09978,20.59109,-1.50465,-65.95038,6.48253,-6.68362,-23.58711,28.3072,-0.46808,104.97778,-57.93069,19.18044,-2.12585,2.52071,3.98901,4.84213,-2.19959,1.1869,4.80707,-3.0033,-2.21703,-0.09552,0.27162,0.15389,0.74889,-0.70619,0.00047,-0.19309,-0.0228,0.07801
1183,0.2653,28.72578,-3.98557,-3.6793,11.6728,-6.37877,13.20322,12.51461,0.9448,-43.22954,44.183,-1.80793,-9.24553,23.52497,-1.8631,-65.66496,5.96557,-6.82115,-58.03497,19.77511,0.80316,93.57925,-53.84673,10.01968,-1.34716,-1.35541,-1.29106,4.79585,-4.01421,-2.5315,1.5721,0.11424,-1.34401,0.24558,1.82901,-0.85,-0.06448,-0.14849,0.15613,-0.32267,0.1799,-0.07919
1184,-2.30613,35.54153,-5.29572,-4.67697,15.22896,-6.84309,-0.75561,21.59818,-1.82392,-58.84988,55.10622,-3.36455,-10.35603,26.71382,-2.12592,-64.78205,5.93043,-6.65634,-97.73006,42.6539,-4.95113,73.77618,-76.91853,-2.79203,2.12439,-4.70864,-9.10696,2.71374,-3.51658,-3.46,-2.44148,4.68789,-0.82084,1.27675,1.67941,-0.48445,-0.8853,0.87417,-0.05284,-0.18378,0.12603,-0.09407
1185,-3.98049,43.0239,-6.87478,-5.12081,17.40258,-6.8873,-4.16798,43.27848,-7.36761,-64.88864,62.13848,-3.5398,-11.29817,29.51647,-2.31935,-63.94982,6.24346,-6.33642,-106.36153,82.10289,-13.01187,55.3807,-90.70602,-11.72086,4.05393,-4.79294,-11.17694,-0.90841,-0.97509,-1.96511,-4.18057,6.01457,-0.45409,2.05437,0.49384,0.72896,-1.18014,1.33633,-0.29237,0.0298,0.00077,0.00873
1186,-4.73387,46.63374,-7.42443,-5.70889,15.41639,-6.29587,2.8174,55.40249,-9.69503,-56.38335,52.11985,-3.14538,-12.1103,31.49881,-2.52251,-63.73734,6.61604,-6.19393,-80.76431,88.02257,-14.77515,41.00093,-54.79527,-5.44237,-0.3587,0.35997,-0.95435,-3.24696,0.30638,-1.40905,-1.40044,1.06281,-0.16798,1.6031,0.01364,1.03242,-0.57817,0.50766,-0.15602,0.04593,0.02368,0.0504
1187,-6.16918,46.01534,-6.83301,-6.53001,9.8222,-5.39951,7.42183,50.37151,-7.2538,-45.07654,27.06022,-3.90009,-12.89391,32.91353,-2.78259,-63.96682,6.82909,-6.38617,-54.32117,49.14197,-11.17339,38.14269,4.36856,16.66105,-8.14377,7.35986,14.87321,-0.50772,-1.10459,-1.78812,3.696,-7.0322,0.17792,0.41718,0.61787,-0.11046,0.46473,-1.03871,0.34974,-0.07118,0.1241,-0.05533
1188,-8.90659,45.24684,-6.25547,-7.32425,6.03892,-4.96282,1.82939,43.98155,-4.60819,-43.37381,9.07537,-5.66638,-13.69196,34.25564,-3.10177,-64.05444,7.08171,-6.62507,-54.09264,15.81716,-9.56621,55.9256,22.26091,35.64772,-11.08374,9.17658,20.9893,6.11556,-3.23922,-0.67304,6.3621,-11.07858,0.3754,-0.22301,1.13395,-1.26393,1.0063,-1.90872,0.72959,-0.10875,0.08748,-0.15915
1189,-10.92014,47.57815,-6.67766,-7.06023,7.33083,-5.19202,-4.81715,49.12448,-5.43541,-45.50409,12.23309,-6.59281,-14.4585,35.71038,-3.44712,-63.59817,7.63126,-6.54017,-63.19616,25.57479,-11.67334,83.42816,-12.8039,32.08673,-5.19396,3.74513,12.08661,11.23221,-4.31031,1.52389,5.31655,-8.41351,-0.16001,0.36721,0.88885,-1.10267,0.88362,-1.50324,0.52891,-0.00754,-0.10726,-0.10257
1190,-9.90878,51.89985,-7.83648,-5.18653,9.95562,-5.45838,-1.85943,60.08004,-8.42288,-40.83693,24.73577,-5.96608,-15.06817,37.12304,-3.74926,-62.73796,8.27177,-6.17244,-56.53784,55.90553,-14.69437,91.97922,-55.41479,12.49327,3.86352,-2.75743,-0.25554,12.22216,-4.58016,2.20649,2.31298,-3.52599,-0.5261,1.90324,0.64834,-0.11512,0.43158,-0.54265,0.04692,0.21505,-0.25257,0.04684
1191,-7.19452,53.93419,-8.4576,-3.54772,9.89949,-5.25135,4.12411,63.84505,-9.90959,-33.72855,29.03641,-5.2144,-15.45476,38.1613,-3.96354,-61.99952,8.78295,-5.75546,-45.59474,66.68138,-17.94737,74.06293,-70.03827,-0.87114,7.33246,-3.80461,-4.67567,10.91849,-4.55337,0.92519,-0.05408,-0.56398,-0.44732,3.20865,1.15521,0.3667,0.00747,0.16495,-0.26527,0.47567,-0.17779,0.11257
1192,-6.25441,51.00785,-7.73191,-4.965,7.54696,-4.69436,1.33107,56.29876,-8.51179,-34.73977,20.11842,-5.89186,-15.70465,38.61958,-4.10904,-61.726,9.19981,-5.43956,-52.07132,46.74068,-21.75188,51.60587,-60.73506,3.22455,4.1397,0.2524,-1.65514,9.38772,-4.00805,-0.41448,-0.59508,0.11694,-0.53419,3.05853,1.96246,-0.06739,-0.23721,0.41859,-0.3152,0.53003,0.06447,0.04211
1193,-8.33404,46.34008,-6.50917,-8.49169,5.67282,-4.28494,-8.12696,47.78463,-6.67307,-40.01613,8.19357,-6.82438,-16.01072,38.75854,-4.24219,-61.71047,9.40348,-5.306,-65.55355,22.59008,-23.92458,44.07777,-50.30433,18.89451,-0.30018,4.89785,3.4226,7.91404,-3.2391,-0.4607,0.31871,-0.94449,-0.67556,1.83284,1.96928,-0.53799,-0.26566,0.25458,-0.14971,0.27656,0.20403,-0.04922
1194,-10.94617,45.47156,-6.18398,-9.7854,6.3467,-4.42137,-13.15386,50.90442,-6.66928,-36.87057,8.82277,-5.74031,-16.42917,38.99369,-4.37463,-61.5386,9.17012,-5.31954,-61.94324,29.33586,-22.24487,48.84814,-54.25714,31.01852,-2.01719,7.00992,7.17282,6.72407,-3.14834,0.39042,1.85263,-3.11902,-0.47439,1.43077,0.87049,-0.07065,-0.03824,-0.18811,0.12593,0.01205,0.01865,-0.02016
1195,-11.25684,48.57681,-6.79066,-7.91794,8.98254,-4.98092,-11.1984,63.07224,-7.79132,-27.13495,24.96106,-2.90048,-16.86965,39.50488,-4.48672,-61.04424,8.55428,-5.34327,-47.78191,67.2338,-18.68429,53.84334,-72.60944,28.35361,-0.94026,6.2507,7.87876,6.32224,-3.25993,1.21048,2.72428,-4.55871,-0.07426,2.50863,-0.16369,0.99466,0.26957,-0.52544,0.28626,0.02332,-0.26659,0.10085
1196,-9.5689,51.13684,-7.36658,-6.62506,11.76837,-5.44258,-8.41046,70.38699,-8.93605,-24.36158,44.76061,0.03659,-17.36603,40.35695,-4.6031,-60.22889,7.8764,-5.26056,-46.82844,103.57194,-16.3213,54.72686,-90.22045,16.18676,1.06852,4.15123,5.84873,6.41295,-2.01958,1.78263,2.36067,-4.15713,0.06107,3.26037,0.05863,1.37383,0.41241,-0.51681,0.20342,0.16411,-0.20974,0.15313
1197,-8.03786,50.48767,-7.3572,-7.85643,12.37082,-5.42914,-7.55505,66.85017,-9.86639,-30.49753,52.44367,1.53121,-17.97294,41.2939,-4.71556,-59.2276,7.38078,-5.12415,-58.46974,110.78226,-15.38188,51.55429,-86.33408,8.17475,2.79411,2.29046,3.70191,6.4841,-0.02217,2.41081,1.21799,-3.26544,0.20014,2.53178,0.86004,0.90248,0.29625,-0.36765,0.0689,0.19663,0.08261,0.11844
1198,-8.28798,47.03255,-6.6349,-9.10596,8.98778,-5.0627,-9.13706,57.0366,-9.33232,-32.60187,41.15842,0.48478,-18.53847,41.71061,-4.7597,-58.29337,7.02351,-5.09115,-63.05508,87.08302,-14.794,46.03665,-57.95243,7.74891,4.40873,0.83474,2.70292,6.6646,0.01479,2.55588,0.1829,-3.12295,0.61802,1.59989,0.99604,0.45648,0.03491,-0.29367,0.08056,0.18524,0.14032,0.10282
1199,-10.11069,42.47252,-5.37586,-8.39162,2.89617,-4.6615,-13.45442,47.03658,-6.471,-22.79647,17.4252,-2.39345,-18.88773,41.52637,-4.72794,-57.49989,6.48832,-5.19553,-50.71149,48.54845,-15.13745,46.94916,-28.16797,11.18035,5.5091,0.24087,2.22451,7.58421,-2.85444,1.49846,0.04063,-3.0753,0.75885,1.5799,0.66243,0.19567,-0.1837,-0.19142,0.16227,0.26664,-0.08575,0.11234
1200,-11.21862,39.51365,-4.38039,-7.33816,-0.9861,-4.37864,-15.94809,42.13085,-3.72343,-11.21294,-0.69519,-4.00689,-19.06487,41.49983,-4.6711,-56.64477,5.57721,-5.26539,-32.95705,22.16297,-16.31741,57.52999,-24.86769,17.87069,5.23991,1.72193,2.60772,8.65927,-6.05638,0.1861,0.82859,-2.86071,0.34844,1.73436,0.47782,-0.10434,-0.20951,-0.06441,0.19067,0.29581,-0.26798,0.09019
1201,-10.65699,39.87354,-4.35096,-7.86985,1.23708,-4.32099,-14.52206,44.43512,-4.04106,-12.33733,4.70005,-1.95373,-19.32958,42.21601,-4.66494,-55.55917,4.55138,-5.16093,-33.00745,31.9765,-15.43449,66.74463,-49.74069,23.18475,4.17803,4.17383,3.9176,8.06833,-6.49942,-0.04569,1.62966,-3.07791,-0.06248,1.69867,0.30055,-0.01922,-0.00938,-0.12406,0.15463,0.15827,-0.24719,0.05687
1202,-10.47882,42.67221,-5.05269,-9.15022,6.33061,-4.55628,-14.48755,51.89311,-6.75872,-23.29409,26.79042,1.27854,-19.90586,43.35453,-4.76233,-54.23163,3.79396,-5.01411,-54.32026,68.73723,-13.04381,69.41241,-72.3419,17.82161,3.50346,4.43463,4.36284,6.09381,-4.24465,0.55415,1.66101,-3.39307,-0.05696,2.19193,0.03324,0.53855,0.27231,-0.29813,0.0833,0.08071,-0.11986,0.01898
1203,-11.65355,45.07592,-5.58612,-9.64738,8.27628,-4.89417,-18.16294,58.1121,-8.47794,-29.77944,40.77293,1.42802,-20.68803,44.27003,-4.89977,-52.75353,3.41082,-4.94466,-73.11071,94.82597,-12.62605,69.59597,-71.14365,4.97163,3.27668,1.82578,3.14365,5.24445,-2.16819,1.33957,1.0311,-3.05596,0.34652,2.60499,-0.21576,0.77505,0.38389,-0.32394,0.06069,0.12117,-0.03865,-0.05739
1204,-12.37808,45.20957,-5.47675,-9.11423,5.89819,-4.98085,-20.27052,57.02715,-7.60753,-26.01008,35.4779,-1.33906,-21.42106,44.88005,-4.96863,-51.34946,3.20687,-4.86044,-69.42227,88.8826,-14.15643,62.20309,-60.32396,-0.97501,3.51199,-0.86593,1.60592,6.5203,-2.3223,2.12521,0.47241,-2.27899,0.76202,2.05947,-0.49048,0.44775,0.28236,-0.18892,0.11623,0.11153,-0.0645,-0.13583
1205,-11.81643,43.80208,-5.08001,-8.74352,2.33439,-4.62185,-17.40246,49.70395,-6.11786,-18.9949,19.62556,-3.37333,-22.06901,45.51305,-4.96519,-50.2493,3.05699,-4.65911,-49.50023,63.41194,-15.88981,42.21095,-54.90901,4.24377,4.6115,-1.04647,1.08054,8.0962,-3.54098,2.35945,0.60244,-1.95928,0.60005,1.68228,-0.50466,0.22318,0.21187,-0.07744,0.10306,0.18473,-0.12835,-0.11488
1206,-11.49644,42.49131,-4.85816,-9.11166,0.18137,-3.96638,-13.65742,42.45822,-6.17881,-15.60612,5.46617,-2.52772,-22.73408,46.2745,-4.95932,-49.32194,3.07552,-4.40008,-32.78085,40.8535,-17.85275,18.98265,-49.55685,13.67993,5.57368,1.41028,2.04404,7.69294,-3.46227,1.7173,1.18376,-2.63933,-0.09203,2.05779,0.00358,0.37345,0.28373,-0.10158,-0.05512,0.41583,-0.20182,0.06787
1207,-12.48704,41.93451,-4.74158,-8.82634,-0.3523,-3.45471,-13.86997,38.97196,-6.53209,-14.73794,0.20286,-0.01866,-23.42795,47.03872,-4.99789,-48.13468,3.21152,-4.22159,-30.04322,32.48193,-18.11203,4.67579,-38.64012,20.54371,5.38251,3.91248,3.49921,5.04873,-2.03962,0.39214,1.27036,-3.59079,-0.49901,1.77187,0.82911,0.28435,0.32847,-0.19267,-0.21453,0.45159,-0.24526,0.28583
1208,-13.71473,41.08733,-4.28618,-6.58538,0.37538,-3.41356,-15.46779,36.4884,-4.2407,-11.54751,6.71502,1.90992,-24.15769,47.7816,-5.10225,-46.51719,3.16814,-4.10318,-32.72002,38.23478,-12.08933,3.61274,-26.04985,20.6583,4.9305,2.81011,3.08345,2.57996,-1.20039,-1.1067,0.5189,-3.50206,-0.21783,0.76006,1.60251,-0.36513,0.23537,-0.28767,-0.20669,0.23902,-0.10802,0.26904
1209,-13.8739,39.33323,-3.55782,-4.05347,1.88556,-3.65122,-13.98674,33.81908,-0.42445,-6.67786,18.56713,1.85295,-25.05835,48.68968,-5.27033,-44.68807,2.90144,-3.87204,-29.07993,50.91345,-2.74509,13.48116,-21.94836,16.34107,4.53065,-1.29497,0.39252,3.31821,-1.79616,-1.02717,-0.30287,-2.04754,0.14282,0.38068,1.60908,-0.82515,0.05068,-0.34097,-0.05987,0.1168,0.12187,0.00754
1210,-14.29572,38.33875,-3.28153,-5.04259,3.18193,-3.68861,-14.50905,34.91369,0.43443,-8.95036,21.97214,-0.82749,-26.30805,49.96765,-5.51584,-42.95153,2.73739,-3.43239,-30.17908,58.38522,-1.21444,27.94267,-34.10248,14.87329,3.87397,-3.33419,-1.05175,7.63917,-3.12142,1.19648,-0.66664,-0.90809,0.43134,1.04866,0.81744,-0.67393,-0.1633,-0.34863,0.1425,0.23059,0.21467,-0.25107
1211,-15.79409,38.40795,-3.5653,-9.29023,3.6702,-3.4153,-19.06764,36.26322,-1.82195,-19.38916,14.79191,-4.42036,-27.81399,51.50791,-5.83152,-41.43524,2.77616,-2.94934,-41.5047,52.45635,-7.82843,39.07276,-52.82116,17.29944,4.46434,-1.12509,1.32651,11.96685,-4.42153,3.26962,-0.56871,-1.81288,1.16211,2.15565,0.07485,-0.23701,-0.20765,-0.34595,0.33343,0.43313,0.10337,-0.30246
1212,-16.17473,38.44925,-3.94824,-11.34023,2.80933,-3.10763,-17.65885,33.15581,-3.75416,-24.22829,6.20128,-5.8237,-29.23296,53.02786,-6.13316,-40.00818,2.73886,-2.71172,-40.02281,38.95116,-12.92777,42.74539,-61.64032,19.68228,6.56209,2.80104,5.56189,12.31604,-5.25844,3.62578,0.39067,-4.34639,1.92041,2.62711,-0.44992,0.4487,0.13352,-0.32166,0.39093,0.44337,-0.2165,-0.03963
1213,-15.49095,38.61757,-4.25603,-8.75744,0.01062,-2.89238,-10.36144,31.32363,-4.65044,-15.65264,-2.51743,-5.04646,-30.4365,54.41388,-6.38787,-38.45947,2.52348,-2.74836,-18.81277,27.40855,-16.10492,42.30154,-60.06977,19.69937,6.66556,6.08351,8.03997,8.76745,-5.36499,2.83208,2.03923,-6.24614,1.62368,1.82275,-0.88405,1.19956,0.56781,-0.21011,0.24897,0.12887,-0.56491,0.37634
1214,-16.38654,39.03362,-4.42188,-5.55772,-3.85492,-2.70811,-9.23629,34.6626,-5.42611,-3.84479,-14.73061,-4.7499,-31.57727,55.81134,-6.65501,-36.76315,2.24498,-2.84319,-1.84945,19.52156,-21.86089,42.01641,-57.62136,15.9298,2.9663,7.5224,6.8856,5.15317,-4.80107,1.47393,2.9053,-5.50717,0.20681,0.97152,-0.59433,1.32748,0.53693,-0.03673,-0.0046,-0.16114,-0.56399,0.5411
1215,-18.61825,38.70846,-4.26919,-5.19458,-5.80281,-2.60664,-15.75658,35.98458,-4.92777,-0.27941,-20.94675,-4.82664,-32.77768,57.43164,-6.9858,-35.10827,1.93963,-2.84067,-3.94946,18.25724,-23.80274,38.66264,-57.24201,12.11191,-0.20327,5.61151,3.40238,5.08364,-3.64228,0.6553,2.54618,-3.49782,-1.03935,1.4604,0.52394,0.76428,0.21069,-0.1115,-0.12069,0.00044,-0.15219,0.31418
1216,-19.75767,37.26636,-3.88812,-6.13128,-3.69683,-2.6625,-20.90491,30.03106,-2.41075,-3.86942,-8.40495,-2.41575,-34.0117,59.26554,-7.38174,-33.61831,1.62161,-2.73347,-16.3818,31.66212,-13.62586,30.66143,-53.38866,12.26628,0.85473,1.13846,0.45393,7.76854,-2.11857,1.27862,1.5901,-2.32764,-0.91168,2.38405,1.50468,0.07104,0.01115,-0.45544,0.05068,0.42094,0.33575,-0.05044
1217,-20.42673,36.05005,-3.6946,-6.6423,0.30955,-2.72262,-23.36731,21.80464,-0.20198,-11.01884,13.62829,1.97966,-35.22501,61.15481,-7.80618,-32.2223,1.33563,-2.57849,-32.59148,52.32988,1.40204,31.38262,-41.47785,8.54819,4.02935,-2.64623,-0.97803,8.39744,-1.41945,1.52142,0.30304,-1.2722,0.15668,2.20907,1.6723,-0.45725,-0.11499,-0.51385,0.27827,0.50102,0.55625,-0.28469
1218,-22.9386,36.21156,-3.85841,-7.83525,1.96411,-2.57883,-27.73133,16.67261,-0.24419,-21.61011,22.13004,4.05287,-36.34615,62.95473,-8.18069,-30.88162,1.07976,-2.41535,-51.86312,56.44392,7.19925,43.75472,-25.95323,-3.92781,7.05686,-4.1892,-1.62112,5.39058,-2.53152,-0.06691,-0.6245,-0.08804,0.75418,1.32673,1.12427,-0.64339,-0.1099,-0.11557,0.18322,0.13035,0.35942,-0.26887
1219,-25.96123,36.38763,-3.97537,-9.81394,0.91038,-2.2572,-30.37418,13.86295,-1.05576,-29.18123,14.27917,2.76669,-37.23903,64.49221,-8.42189,-29.63037,0.88028,-2.21616,-58.33981,41.93135,3.02092,38.73439,-15.83646,-12.35539,9.02761,-3.80105,-1.36956,2.64818,-4.26088,-1.73664,-0.99028,0.05253,0.74038,1.12219,0.44224,-0.38042,0.0227,0.27017,-0.13823,-0.17192,-0.06403,-0.06812
1220,-26.59947,35.0998,-3.71303,-10.7745,0.17234,-1.98153,-25.95609,12.82102,-0.60723,-25.8019,6.05684,1.2038,-37.8833,65.77895,-8.52834,-28.44199,0.78931,-1.99441,-38.58803,33.39562,-2.20241,5.43677,-18.03355,-5.45518,8.32713,-1.82791,0.32543,2.19791,-4.60824,-1.66132,-0.64418,-1.36324,0.72878,1.34464,-0.07203,0.07838,0.13867,0.2242,-0.23971,-0.18673,-0.38201,0.12242
1221,-25.83613,33.65876,-3.31678,-9.87072,0.29433,-1.98562,-20.5057,14.44145,0.87861,-15.59612,3.79725,0.17117,-38.46537,67.12091,-8.59317,-27.26175,0.72787,-1.89029,-11.61815,39.62109,-4.8831,-19.88231,-31.04309,8.60458,5.84328,-0.05895,2.27511,3.39993,-3.88717,-0.08508,0.3753,-3.37229,0.84903,1.32838,-0.66408,0.42731,0.20419,-0.15672,-0.02375,-0.07465,-0.53889,0.18477
1222,-26.17374,34.2131,-3.27774,-7.55922,-0.63891,-2.32197,-20.48129,17.45389,1.65285,-7.6088,2.1526,-2.05912,-39.1528,68.73286,-8.70184,-26.11615,0.5516,-1.96771,-1.12077,46.23899,-7.05638,-12.8705,-39.85358,15.59153,5.31373,-0.96836,2.15692,6.22864,-3.27064,1.80644,0.84583,-3.93556,0.97869,1.25971,-0.9712,0.33264,0.15949,-0.41262,0.20162,0.0491,-0.52133,0.08714
1223,-27.55849,36.20273,-3.75769,-5.02776,-2.49514,-2.66177,-21.88963,19.21577,0.31256,-3.69223,-0.42061,-4.55118,-39.994,70.47323,-8.91297,-25.13164,0.27595,-2.04349,-2.39111,45.23331,-9.48503,5.95366,-34.11675,14.77398,7.64182,-3.44071,0.42054,8.99348,-2.13828,3.17031,0.50299,-2.99454,1.13613,1.23202,-0.458,-0.06142,0.08433,-0.44043,0.30861,0.09122,-0.24311,-0.07255
1224,-28.44665,36.99309,-4.36773,-4.18879,-3.28943,-2.55321,-20.54552,17.9451,-2.37412,-3.00296,-1.18672,-4.44769,-40.88453,72.05467,-9.21175,-24.39647,0.05904,-1.9134,-3.90203,40.75969,-10.51193,12.13452,-26.20623,14.95589,9.05192,-3.57304,0.13605,9.03732,-0.51427,3.53833,0.26576,-2.38983,1.46785,1.17553,0.3474,-0.07651,0.10008,-0.43608,0.40252,0.06409,0.08345,-0.09301
1225,-28.48846,35.81106,-4.59346,-6.02935,-2.43094,-2.00256,-20.18625,14.05816,-3.83536,-6.94931,0.18121,-1.67011,-41.57461,73.37527,-9.4536,-23.78383,0.00029,-1.63131,-8.90296,37.6049,-8.66655,10.87106,-30.55585,17.05106,7.1436,-0.96284,1.58321,7.18044,-0.60663,2.8978,0.65825,-2.68315,1.48087,0.91783,0.64375,0.29703,0.20497,-0.39282,0.39058,0.04719,0.1331,0.06497
1226,-29.33065,34.3519,-4.3469,-9.27061,-0.93411,-1.45143,-25.93808,8.81944,-2.82122,-14.89802,2.29141,1.25788,-41.97345,74.57924,-9.55095,-23.05438,0.05935,-1.40745,-22.59104,36.78117,-4.81026,19.30443,-38.40428,12.28189,4.28618,1.0426,1.89253,5.87677,-2.7101,1.66555,1.18594,-2.64227,0.53929,0.61858,0.48366,0.39667,0.26903,-0.14909,0.08356,0.06259,-0.0202,0.1744
1227,-31.58795,33.88951,-3.98076,-12.12948,-0.66568,-1.26738,-34.29136,3.04891,-0.80199,-23.40632,2.04504,1.97232,-42.17874,75.7403,-9.55254,-22.19396,0.06663,-1.38416,-39.00757,33.31885,-2.14628,32.70965,-36.23367,0.63201,3.22894,0.96599,0.4614,5.1966,-4.22815,0.65028,1.37363,-1.99203,-0.7787,0.77387,0.07647,0.24724,0.24247,0.14998,-0.33137,0.07567,-0.15356,0.10995
1228,-33.34821,33.70933,-3.75143,-13.55752,-2.40052,-1.4441,-36.41947,-2.43235,0.57263,-26.587,-2.78273,-0.11225,-42.20184,76.67815,-9.5054,-21.3992,-0.0419,-1.48809,-43.34139,22.97252,-3.06588,30.51604,-30.52169,-5.63076,4.02735,-0.04695,-0.39416,5.00498,-4.11144,0.57597,1.68183,-2.15975,-1.21847,1.51363,-0.46198,0.3746,0.31864,0.10207,-0.42362,0.11429,-0.26224,0.03382
1229,-33.49958,33.10622,-3.6111,-12.24011,-4.1752,-1.73339,-31.59773,-5.2004,1.21238,-17.29413,-8.18819,-3.39008,-41.98525,77.32426,-9.41576,-20.73679,-0.07936,-1.49801,-25.88331,14.30233,-7.45673,15.29478,-34.18144,-2.34532,5.34748,-0.92063,0.25261,6.11505,-3.42032,1.16741,1.70401,-2.96496,-0.34689,2.2905,-0.48747,0.6145,0.36191,-0.19239,-0.13218,0.23532,-0.2985,0.05534
1230,-33.99393,32.62793,-3.44201,-8.09797,-3.93272,-1.95401,-30.11745,-3.37065,1.69379,0.76547,-7.56949,-5.36569,-41.62431,77.87879,-9.33768,-20.09511,0.05105,-1.35033,-2.20468,19.9047,-12.53061,12.25241,-47.12522,2.0598,6.62379,-1.04574,1.04004,7.49987,-2.71586,1.41044,0.79498,-2.84853,0.84034,2.58016,0.35092,0.57033,0.11615,-0.23061,0.14477,0.35256,-0.15877,0.11115
1231,-36.08017,33.08389,-3.3231,-4.39778,-2.59051,-2.04591,-36.004,1.63971,1.81625,11.36645,-1.80038,-4.8447,-41.38743,78.57137,-9.31538,-19.36149,0.09201,-1.23731,4.17975,36.85188,-14.11369,24.63141,-57.10228,3.15831,7.55479,-0.5543,0.87681,7.33294,-2.00625,0.98427,0.05621,-1.9806,1.08088,2.50019,1.29676,0.40958,-0.13922,0.02868,0.12552,0.34154,0.06318,0.13042
1232,-36.94712,34.08604,-3.42109,-4.91883,-2.15909,-1.99711,-37.33876,4.71708,1.04488,4.58386,2.24536,-2.7877,-41.40194,79.38621,-9.24564,-18.5789,-0.22301,-1.31891,-2.85386,48.17847,-10.17997,29.4864,-51.35961,4.99666,6.82124,-0.39447,0.11754,6.35353,-1.74729,0.63932,0.46637,-1.48261,0.38853,2.17234,1.43651,0.29852,-0.1001,0.18803,-0.03219,0.22933,0.1618,0.08948
1233,-34.46242,34.09448,-3.58499,-9.2356,-2.19646,-1.82884,-27.65492,1.04564,0.24961,-12.1626,3.04478,-0.86904,-41.43668,79.95998,-9.0081,-17.9403,-0.68265,-1.46805,-7.76142,44.51804,-3.1613,19.46487,-32.39902,8.83185,4.79553,-0.99324,-0.50691,6.26058,-2.2509,0.63076,1.38193,-1.56408,-0.30437,1.61774,0.97825,-0.0121,0.13673,0.02857,-0.07164,0.15102,0.10777,-0.0166
1234,-31.70062,33.08025,-3.55239,-13.35401,-1.79986,-1.55778,-19.57331,-6.7647,0.70449,-24.61841,1.00624,-0.2172,-41.27504,80.07755,-8.71,-17.49332,-0.86025,-1.48786,-12.71468,29.93176,1.04928,9.18882,-17.89088,10.17404,4.52576,-1.78265,-0.70878,6.69095,-2.91839,0.45938,1.59389,-1.8621,-0.23326,1.16868,0.72553,-0.47511,0.33017,-0.31055,0.04561,0.15782,0.06268,-0.13565
1235,-32.21666,32.92407,-3.42443,-14.55014,-1.711,-1.23188,-23.01504,-10.34379,1.79119,-26.71609,-3.84987,-0.34418,-41.00911,79.92081,-8.55525,-17.04967,-0.67294,-1.36726,-22.67741,17.1319,0.62087,7.70924,-18.772,6.87967,6.57938,-2.00794,-0.54379,7.55342,-3.23242,0.47377,0.94677,-2.04559,0.42413,1.37773,0.87501,-0.50994,0.36669,-0.51192,0.16553,0.25404,0.08098,-0.14148
1236,-34.85778,33.80202,-3.37726,-13.4969,-2.08192,-1.04827,-30.88749,-7.03902,2.18669,-23.16178,-4.88942,0.01228,-40.70436,79.49138,-8.53825,-16.50701,-0.36051,-1.18086,-30.58241,20.29912,0.86535,11.03771,-27.54087,1.85699,7.6669,-1.67225,-0.23994,9.62808,-3.4937,1.17869,0.46122,-2.01153,0.77469,2.12438,1.12114,-0.03385,0.2945,-0.40024,0.13705,0.41719,0.05914,-0.00042
1237,-36.32493,33.68942,-3.33423,-11.85366,-2.0027,-1.20026,-33.81924,-3.23328,1.90262,-19.43274,2.82982,0.4856,-40.26793,78.64291,-8.4798,-15.96778,-0.1922,-1.00228,-29.88274,37.49919,4.41569,14.80178,-32.38933,-1.41423,6.32229,-1.32869,-0.08937,10.88979,-3.82194,1.55153,0.8644,-1.97895,0.38849,2.33146,1.16106,0.21779,0.22758,-0.14073,-0.00833,0.44771,-0.05451,0.12405
1238,-35.83725,32.08812,-3.22924,-10.35659,-1.63653,-1.54124,-32.49325,-3.14996,1.42957,-15.05506,10.82191,-0.18141,-39.72831,77.61194,-8.28949,-15.49404,-0.27902,-0.92376,-22.10783,50.75333,5.37739,19.43715,-31.52608,-0.44854,4.07327,-0.6567,0.08758,8.27348,-3.55465,1.0098,1.66543,-2.02434,-0.21832,1.19187,0.525,0.00475,0.1945,-0.01343,-0.08393,0.12986,-0.23557,0.12318
1239,-35.00027,30.89131,-3.14097,-9.98927,-2.52155,-1.69428,-32.10459,-3.31918,0.73802,-9.41342,6.45919,-1.82856,-39.20364,76.77999,-8.00394,-15.09391,-0.55246,-1.01268,-12.61454,47.62244,-1.89026,24.81956,-29.82147,5.02893,1.89803,1.09148,0.74663,3.54767,-2.611,0.21507,2.12488,-1.88599,-0.46766,-0.44444,-0.31899,-0.30753,0.16652,-0.0539,-0.0053,-0.33311,-0.31152,0.03945
1240,-34.68927,30.7902,-3.06784,-9.91213,-4.81954,-1.48727,-32.93167,-3.54813,0.16258,-1.81308,-9.12358,-2.70208,-38.67196,76.14613,-7.67689,-14.64339,-0.80997,-1.16925,-0.15728,29.81374,-12.1422,26.05302,-29.68444,10.7037,0.4768,2.94575,1.73469,1.59905,-2.1594,-1.2555,2.19343,-1.75831,-0.27832,-0.54236,0.42142,-0.85461,0.16764,-0.12119,0.12082,-0.38701,0.00188,-0.15664
1241,-34.43274,30.12386,-2.88656,-9.34125,-6.20289,-0.98542,-31.70522,-10.0338,0.67815,2.43774,-19.46266,-0.79872,-38.02415,75.34367,-7.37322,-14.12021,-0.81622,-1.13582,9.88323,9.37143,-11.52969,21.40687,-32.17811,11.6398,1.99728,2.50596,1.92554,3.76898,-2.83557,-2.77369,1.96906,-2.11358,0.17162,1.42407,2.06295,-1.26899,0.23302,-0.16179,0.14354,0.10459,0.39916,-0.35769
1242,-34.19193,28.30153,-2.60897,-10.24012,-4.79385,-0.4408,-30.38882,-20.06833,2.2055,-6.43939,-12.57763,3.28216,-37.30589,74.16353,-7.1601,-13.78565,-0.51713,-0.836,-1.47266,4.302,2.54812,15.7683,-35.55397,5.44004,7.57568,-0.88757,0.08787,6.93319,-3.30436,-2.0982,1.03139,-2.32036,0.54002,3.16581,2.19759,-0.805,0.26896,-0.16229,-0.00414,0.51937,0.33638,-0.3041
1243,-34.43952,26.77086,-2.44184,-12.97565,-1.70671,-0.32202,-34.23357,-20.24953,2.85019,-22.44426,3.30415,5.04793,-36.71461,72.81001,-7.03133,-13.64349,-0.15061,-0.5758,-32.14917,23.84047,11.15582,10.1702,-31.65931,-7.8719,13.35648,-4.67054,-3.2333,8.14442,-1.95026,0.8617,-0.21489,-1.48184,0.2329,3.07703,0.98568,0.41926,0.21258,-0.12051,-0.24611,0.43633,-0.01786,0.02959
1244,-34.71522,26.13773,-2.48998,-15.0734,0.12131,-0.88666,-39.73455,-8.4412,1.44262,-28.03454,11.80983,1.44979,-36.30873,71.52512,-6.90672,-13.35482,-0.10495,-0.6812,-49.04263,52.59205,0.4953,2.78736,-15.65636,-21.08481,13.60633,-5.77074,-5.23322,7.31992,0.04904,2.94347,-0.38268,-0.39905,-0.65705,2.42863,0.54604,1.41034,0.15408,-0.13474,-0.34976,0.24791,-0.11291,0.34242
1245,-34.19774,25.08144,-2.54903,-14.55709,-0.53617,-1.64126,-36.97466,-1.99503,-0.10281,-18.57329,9.06596,-3.7858,-35.92113,70.27396,-6.74421,-12.7817,-0.48072,-0.99826,-31.27161,60.8294,-13.73278,0.9731,-2.40882,-19.89753,8.23682,-3.32602,-3.40392,6.27231,-0.13884,2.0233,0.42077,-0.52453,-0.76039,2.53638,1.25569,1.40776,0.08783,-0.22142,-0.1381,0.37535,0.07847,0.35966
1246,-33.33594,23.11385,-2.41024,-12.7006,-1.85118,-1.62497,-25.70863,-11.89996,0.47202,-6.76019,2.01168,-4.80853,-35.42513,69.00113,-6.57301,-12.20455,-0.81856,-1.00966,1.36425,38.5311,-11.03908,10.79805,-13.09305,0.40073,2.74273,1.25018,1.25713,6.14255,-2.38394,-0.12875,1.21584,-1.81525,0.41872,1.89518,1.65689,0.3245,0.06822,-0.20497,0.19026,0.37492,0.20018,0.10537
1247,-32.72428,22.06948,-2.21433,-11.73127,-2.08412,-0.6313,-15.69457,-26.03552,2.20151,-2.67869,-4.95238,-1.46923,-34.86748,67.90114,-6.37392,-11.85234,-0.67571,-0.5474,20.2748,7.48698,2.69851,23.24075,-47.31081,24.72337,1.01016,4.51726,4.63771,6.86637,-3.92193,0.2616,2.11507,-2.99362,1.35325,-0.10837,-0.03916,-0.58399,0.301,-0.04186,0.26918,-0.09329,-0.16713,-0.093
1248,-32.81916,22.82918,-2.11384,-11.51431,-2.16061,0.26218,-15.79485,-30.1915,3.20436,-3.95663,-10.35191,1.46015,-34.36706,67.09756,-6.13878,-11.65145,-0.32478,-0.09851,17.16087,-7.14905,9.42771,25.42062,-80.2831,32.56124,2.61553,3.01774,3.32122,8.01749,-3.74168,3.26653,2.54267,-2.61434,0.86199,-0.94498,-3.1506,-0.16914,0.53336,0.11087,0.0625,-0.43031,-0.93385,-0.04531
1249,-33.97153,23.60965,-2.02825,-11.99168,-2.48563,0.08725,-27.48236,-23.94331,3.28799,-8.30318,-9.0837,0.84533,-33.94439,66.35732,-5.94766,-11.54522,-0.25483,-0.13022,-6.08866,3.30819,3.6133,16.61198,-78.34647,16.35068,6.31861,-2.28347,-1.61447,7.91961,-2.88259,3.98907,1.80419,-0.91396,-0.36196,0.32229,-3.58332,0.52812,0.41616,0.07484,-0.12749,-0.21895,-1.1016,0.04945
1250,-35.44099,22.95835,-1.94531,-13.63771,-0.77909,-0.67401,-42.60979,-12.17428,2.51941,-16.02376,3.72513,-0.904,-33.53924,65.48699,-5.86401,-11.46745,-0.38674,-0.47747,-38.13007,36.38938,-7.01529,9.49972,-33.02298,-11.91149,10.56189,-5.35905,-4.41999,5.64034,-2.19994,0.87475,0.79083,-0.46705,-0.57124,2.27366,-0.29588,0.68173,0.14095,-0.2123,-0.02704,0.32763,-0.33446,0.09857
1251,-35.88094,21.41945,-1.98069,-15.3372,2.00768,-0.97827,-47.35749,-3.40629,0.78311,-22.23826,16.8494,-0.38287,-33.19244,64.74724,-5.8388,-11.28846,-0.44284,-0.71103,-52.41084,66.16566,-11.8782,16.06853,16.79599,-28.53102,10.97062,-2.28266,-1.97913,3.33123,-2.12077,-2.38184,0.45994,-1.79298,0.33246,3.52859,2.80883,0.58588,-0.01686,-0.42483,0.16713,0.78567,0.40836,0.13156
1252,-35.17028,19.67444,-2.03171,-14.85573,1.48686,-0.66139,-37.8701,-8.38605,-0.59344,-19.97915,12.24194,1.31015,-32.95859,64.42021,-5.75659,-10.91876,-0.43631,-0.68357,-34.2943,56.84418,-7.24619,29.8608,26.63387,-19.45658,5.57549,3.20759,1.97686,2.86262,-2.68392,-3.86434,1.12932,-2.58757,0.56973,2.35665,3.50016,-0.33372,0.06401,-0.2658,0.10924,0.56482,0.55151,0.01013
1253,-34.54716,18.27972,-1.86003,-13.09381,-1.92649,-0.28387,-27.74346,-21.85334,0.01172,-13.25192,-4.97884,1.29854,-32.70892,64.25586,-5.55771,-10.50968,-0.47694,-0.52533,-9.58402,20.47293,-0.05777,29.36589,0.66102,1.9304,-0.41991,4.83873,2.65828,3.75083,-2.61042,-2.86445,1.86807,-1.48647,-0.31249,0.03236,2.16914,-1.24137,0.20616,0.10518,-0.12077,-0.07514,0.23522,-0.14287
1254,-34.92913,18.17443,-1.55546,-12.60968,-3.82611,-0.25656,-29.16194,-25.79221,1.81548,-8.56381,-13.99627,-0.58379,-32.35596,63.82751,-5.33901,-10.30847,-0.6022,-0.41375,-5.31853,4.83703,0.15055,8.25992,-23.58008,10.0632,-0.7237,1.36979,-0.1647,4.29358,-0.37281,-0.62709,1.56549,0.32032,-1.0143,-0.81969,1.47947,-1.25934,0.17265,0.3346,-0.22907,-0.42771,0.23114,-0.20415
1255,-35.55724,19.13843,-1.44816,-13.04326,-2.40261,-0.32699,-34.89246,-19.85835,2.83059,-5.39381,-7.62363,-1.57938,-32.03325,63.16723,-5.23524,-10.23574,-0.69269,-0.3274,-9.71465,19.24706,-3.48489,-5.60465,-33.35706,3.28323,3.75575,-2.71383,-2.69686,4.8335,1.82396,0.84822,0.8119,0.82186,-0.68118,0.06455,2.18165,-0.65234,0.08965,0.264,-0.11783,-0.34408,0.60914,-0.16952
1256,-35.01919,19.31112,-1.57767,-13.14985,-0.58201,-0.32884,-32.96025,-19.81147,2.97723,-5.11582,2.44549,-0.87753,-31.80614,62.56594,-5.24075,-10.04464,-0.69511,-0.2439,-6.3792,29.89781,-1.97102,8.91583,-38.12028,-0.56814,6.9565,-2.68092,-1.78589,6.26946,0.46474,1.1177,0.78464,-0.40205,0.28294,0.91107,2.04972,0.02161,0.16151,0.03769,0.0807,-0.16913,0.52741,-0.02908
1257,-33.62011,17.36378,-1.69773,-12.49954,-0.32348,-0.40939,-26.5842,-28.49252,3.20398,-8.37132,7.20774,-0.05974,-31.57315,62.13734,-5.28042,-9.63718,-0.65865,-0.23384,-1.77419,23.67858,2.80316,27.79544,-36.67173,1.71045,6.71717,0.63026,1.12735,7.45957,-2.91639,0.78608,1.19116,-1.96652,1.05017,0.6124,0.58529,0.26613,0.2574,-0.11919,0.19109,-0.13391,-0.10791,0.12613
1258,-33.38501,14.86401,-1.72326,-11.96148,-0.67332,-0.43464,-24.86409,-33.78142,2.8574,-10.9754,5.45727,-0.17398,-31.34272,61.94592,-5.31776,-9.25684,-0.59011,-0.2557,-2.60054,15.77871,2.43102,22.8344,-27.30354,0.42922,5.8293,2.43971,2.33412,7.6075,-4.178,0.48477,1.02217,-2.56656,1.15398,0.30955,-0.39088,0.0483,0.1534,-0.16425,0.15529,-0.04892,-0.53149,0.13911
1259,-34.77758,14.31403,-1.73184,-11.83076,-0.91035,-0.18721,-27.30735,-30.34169,1.46403,-8.02864,-1.21496,-0.7048,-31.19863,61.9415,-5.31566,-9.08822,-0.47643,-0.1849,0.04721,14.66791,-1.98885,5.78946,-21.99235,-2.14658,5.48327,1.21084,1.01816,7.33781,-2.85442,0.17358,0.47231,-2.18066,0.58587,0.95548,0.04118,-0.3765,-0.05411,-0.17369,0.02762,0.15656,-0.3892,-0.03271
1260,-35.65223,15.63429,-1.72198,-11.64845,-1.63139,0.07829,-28.17182,-24.80349,0.61534,-2.72807,-8.60455,-1.16241,-31.09919,61.90053,-5.22149,-9.00296,-0.37796,-0.05225,7.52426,15.51333,-2.77221,-0.60294,-27.28187,3.02267,4.84538,-0.40883,-0.71263,7.25901,-1.75415,-0.19514,0.67178,-1.55217,-0.3282,2.10282,0.79464,-0.46061,-0.0408,-0.14981,-0.12359,0.32242,-0.12392,-0.17424
1261,-35.31059,16.47466,-1.59684,-11.68822,-2.72089,0.01351,-29.03391,-23.9533,1.54855,-1.66735,-10.77173,-1.08139,-31.01338,61.87116,-5.06949,-8.91903,-0.39068,-0.04366,6.07981,15.76761,0.81975,2.54509,-31.01443,10.84649,4.57069,-0.67351,-1.43054,6.35923,-2.10295,-0.97287,1.63732,-1.12624,-0.96827,2.44554,1.32111,-0.21827,0.22624,-0.05881,-0.2219,0.27961,0.03361,-0.1389
1262,-35.50352,15.68398,-1.36019,-12.2318,-2.41135,-0.19719,-35.16013,-26.47491,3.09449,-5.24328,-3.13439,0.8192,-30.9395,62.02608,-4.95803,-8.88438,-0.50681,-0.20876,-10.41823,22.36044,4.03012,9.57054,-23.73058,7.96433,5.37296,-0.28863,-1.32988,3.69812,-2.35579,-2.11548,2.22698,-0.91538,-0.87385,1.8603,1.96894,-0.02445,0.41438,0.03109,-0.17898,0.15445,0.25197,-0.03063
1263,-36.49167,14.47431,-1.25579,-13.19882,-0.58453,-0.29283,-41.72907,-26.74476,3.06195,-10.48063,8.72213,3.23308,-30.81473,62.13344,-4.92957,-8.85522,-0.64316,-0.39822,-27.98192,35.80504,3.04309,21.19118,-13.95071,-6.02125,6.30702,-0.07151,-0.94733,1.09406,-1.43269,-2.38957,1.8785,-0.88235,-0.28926,1.39133,2.32325,0.11778,0.32154,0.0311,-0.03073,0.1613,0.45258,0.02781
1264,-36.6527,13.5664,-1.43689,-14.28482,0.86433,-0.32027,-40.5,-24.36621,1.23486,-14.14365,13.39985,2.75315,-30.6914,61.91511,-4.96462,-8.71599,-0.70243,-0.45752,-30.16959,44.39248,-2.84692,27.20177,-11.85267,-17.69829,6.66741,-0.04066,-0.56236,1.53411,-0.23573,-1.34691,1.09323,-1.0862,0.22157,1.01623,2.12202,-0.02818,0.10905,-0.04549,0.07102,0.15125,0.49666,-0.02296
1265,-35.74994,12.80214,-1.66775,-14.71657,1.10228,-0.29876,-35.55322,-23.59714,0.05218,-14.24805,8.75559,-0.34441,-30.72888,61.56839,-5.00766,-8.43928,-0.63344,-0.35941,-22.06397,40.67251,-8.90499,17.48371,-16.56407,-15.5873,6.28062,-0.28776,-0.25309,5.51683,0.03018,0.51849,0.47804,-1.3515,0.48842,0.36807,1.47649,-0.42059,-0.01526,-0.09625,0.07288,-0.01889,0.32036,-0.09791
