PaulMeinheit/Bachelor_Muay_Thai/processed_Data/E1/roundhouse/sliced/JointMoments/sliced6.csv
Unnamed: 0_level_0,R_KNEE_MOMENT,R_KNEE_MOMENT,R_KNEE_MOMENT,L_KNEE_MOMENT,L_KNEE_MOMENT,L_KNEE_MOMENT,R_HIP_MOMENT,R_HIP_MOMENT,R_HIP_MOMENT,L_HIP_MOMENT,L_HIP_MOMENT,L_HIP_MOMENT,R_ANKLE_MOMENT,R_ANKLE_MOMENT,R_ANKLE_MOMENT,L_ANKLE_MOMENT,L_ANKLE_MOMENT,L_ANKLE_MOMENT,WAIST_JOINT_MOMENT,WAIST_JOINT_MOMENT,WAIST_JOINT_MOMENT,NECK_MOMENT,NECK_MOMENT,NECK_MOMENT,L_SHOULDER_MOMENT,L_SHOULDER_MOMENT,L_SHOULDER_MOMENT,R_SHOULDER_MOMENT,R_SHOULDER_MOMENT,R_SHOULDER_MOMENT,L_ELBOW_MOMENT,L_ELBOW_MOMENT,L_ELBOW_MOMENT,R_ELBOW_MOMENT,R_ELBOW_MOMENT,R_ELBOW_MOMENT,L_WRIST_MOMENT,L_WRIST_MOMENT,L_WRIST_MOMENT,R_WRIST_MOMENT,R_WRIST_MOMENT,R_WRIST_MOMENT
ITEM,X,Y,Z,X,Y,Z,X,Y,Z,X,Y,Z,X,Y,Z,X,Y,Z,X,Y,Z,X,Y,Z,X,Y,Z,X,Y,Z,X,Y,Z,X,Y,Z,X,Y,Z,X,Y,Z
2547,-21.20967,-13.76536,2.1098,-10.90963,2.19045,1.11399,-25.1596,-34.85458,4.69464,-11.21193,6.96463,0.77,-16.31647,32.30465,-2.45645,-9.52008,-1.00986,1.07013,-15.9167,21.46428,0.11827,-5.2724,25.28283,-12.77889,9.42672,2.37644,-0.3386,5.06824,-5.79594,-1.78881,0.87269,-0.76617,0.21743,2.06797,1.19583,-0.05744,0.18167,0.06309,-0.06785,0.19562,-0.04493,0.0872
2548,-21.52999,-16.37347,1.9676,-10.69795,3.83979,1.47462,-21.60637,-45.7859,3.42745,-9.49424,13.19545,3.2114,-16.24125,31.29915,-2.42857,-9.04208,-0.94993,1.25171,-7.19593,17.85496,3.96187,-4.07777,3.21705,-6.80179,8.82975,1.02266,-0.51415,3.7501,-2.54472,-0.61117,1.3798,-1.00205,0.17901,1.45665,0.6431,-0.03073,0.30478,-0.06328,0.01566,0.06231,-0.06873,0.02269
2549,-22.01247,-17.87156,1.8641,-10.58098,4.88679,1.85036,-24.61733,-54.60212,2.67584,-9.29799,14.61759,4.93475,-16.27955,30.68822,-2.33753,-8.85713,-0.81063,1.39839,-11.55905,10.71818,5.64343,6.32781,-24.1837,6.55344,6.09134,-0.08459,-0.3719,4.45496,1.63064,0.87922,1.91029,-1.23293,-0.03048,0.46247,0.60846,-0.54626,0.3502,-0.09976,0.00419,0.00338,0.06535,-0.13172
2550,-23.07259,-16.91698,1.81927,-11.37072,4.1721,1.84663,-31.12263,-52.69227,2.94028,-12.56712,8.198,3.71163,-16.28285,30.02495,-2.27914,-8.59642,-0.67433,1.40472,-24.83508,7.86672,2.96773,20.23035,-25.16693,10.96429,3.3745,-0.0701,-0.14089,5.21476,2.70613,0.75464,2.0835,-1.21609,-0.35567,0.32962,1.29507,-1.08638,0.27647,-0.02423,-0.10276,0.05985,0.28369,-0.2695
2551,-24.60682,-15.24186,1.90792,-12.78304,1.15086,1.32326,-35.12578,-45.71588,4.47147,-17.14664,-3.19268,0.56362,-16.12117,28.97557,-2.3473,-7.98979,-0.72164,1.21826,-33.7518,5.46141,0.17564,25.14922,3.56149,3.75591,2.23969,0.89069,0.49019,6.13336,-0.41253,-0.72014,1.97637,-1.43732,-0.29002,1.39692,2.10984,-1.0608,0.15858,0.01931,-0.13566,0.21721,0.38435,-0.25112
2552,-25.98544,-15.06985,2.01291,-12.64077,-2.57272,0.66136,-36.19807,-42.09706,5.99131,-16.41799,-11.98525,-1.6499,-15.86471,27.72556,-2.50931,-7.18614,-0.95535,0.94396,-32.08434,0.90475,-0.59446,13.45818,28.68965,-4.73401,3.08341,1.06314,0.81625,9.05503,-5.16645,-1.38203,1.60457,-1.65089,0.12504,2.23261,2.07334,-0.53467,0.06396,-0.00558,-0.04905,0.32301,0.18143,-0.02937
2553,-26.32644,-17.19304,1.88719,-9.59213,-4.4448,0.35698,-36.28379,-44.95255,5.52834,-5.90176,-14.35684,-2.48888,-15.63372,26.65462,-2.64396,-6.50982,-1.14367,0.78829,-19.17849,-4.09299,-2.91846,0.52231,18.0222,-5.49032,5.00743,-0.29425,-0.20035,12.56515,-8.20664,-0.39356,1.09891,-1.03831,0.17534,1.79157,1.01442,0.13372,0.05905,-0.00063,0.00681,0.22942,-0.24895,0.2903
2554,-25.79527,-20.54447,1.58252,-6.71474,-3.19337,0.48982,-35.26091,-51.86938,3.37544,4.79058,-10.91682,-3.21099,-15.44516,25.92052,-2.70028,-6.1332,-1.05249,0.87843,-4.59543,-6.07088,-6.80278,8.16861,-17.12249,1.70049,6.35443,-1.18791,-1.37959,12.6616,-7.54491,0.90603,0.97665,-0.24033,-0.12343,1.00086,0.06131,0.62649,0.17104,0.00338,0.00304,0.02218,-0.50381,0.46568
2555,-25.738,-23.03138,1.44306,-7.89605,-0.30948,0.68251,-33.50974,-56.84845,2.19205,1.93363,-4.34003,-3.87132,-15.2645,25.47538,-2.75707,-5.99441,-0.75962,1.09087,-4.84069,-3.24877,-7.08954,32.03756,-34.16753,7.51931,6.2352,0.20778,-0.89128,8.38528,-3.6314,0.80211,1.41763,-0.47395,-0.11002,1.36673,0.49189,0.54877,0.30203,-0.07022,0.0407,-0.02061,-0.26765,0.2902
2556,-26.89141,-23.58847,1.64027,-11.27309,1.38929,0.70384,-35.05619,-55.52763,3.59112,-9.21671,0.53138,-3.41797,-15.0056,25.12626,-2.87194,-5.84268,-0.58767,1.19224,-21.54735,1.42506,-3.42161,45.87656,-16.88403,3.3705,5.14091,2.33957,0.51442,3.2466,0.983,-0.40492,1.89611,-1.31465,0.11468,2.74919,1.79808,0.00041,0.33872,-0.13277,0.06496,0.22618,0.21336,-0.10553
2557,-28.19322,-22.95754,1.91035,-11.52666,1.23176,0.94582,-40.63906,-50.89804,5.79041,-10.5788,0.75214,-0.75656,-14.64517,24.71499,-2.95521,-5.51322,-0.59504,1.21361,-33.47935,4.70731,0.17896,36.50196,3.77855,-5.58983,4.12429,1.61687,0.52631,0.9286,3.70314,-0.61266,1.88221,-1.50725,-0.04087,3.29861,2.13508,-0.34591,0.30315,-0.10858,-0.02757,0.48132,0.41986,-0.33475
2558,-28.70461,-22.02887,1.91345,-7.78076,1.22618,1.77389,-45.15282,-48.88606,5.9922,1.84078,0.30896,4.44242,-14.38795,24.29696,-2.92489,-5.13582,-0.53191,1.3508,-23.91661,10.01369,3.20973,14.9373,-1.19135,-7.55506,3.76863,-2.27227,-0.99253,1.75571,3.66643,0.923,1.37958,-1.01125,-0.35519,2.17716,0.94607,-0.10878,0.27303,-0.09142,-0.11251,0.43876,0.21368,-0.21739
2559,-28.56271,-20.73403,1.62169,-4.76773,2.36332,2.57551,-45.79169,-48.72368,4.08863,14.16503,3.20076,9.32933,-14.4157,23.92558,-2.84184,-4.97756,-0.36933,1.49957,-4.2694,19.9992,5.18181,-4.16367,-15.70853,-2.35045,4.00078,-4.49225,-1.78852,3.2996,1.72349,1.79254,0.88551,-0.70822,-0.26401,0.79339,-0.05887,0.08461,0.27054,-0.12308,-0.07205,0.19633,-0.0274,-0.04251
2560,-28.13122,-19.66716,1.34301,-5.48628,2.78084,2.36249,-45.90031,-47.21587,2.94971,15.42472,4.634,8.56731,-14.57663,23.4657,-2.83011,-4.9813,-0.34067,1.39922,1.81042,24.1572,2.67012,-12.75167,-12.97351,0.6419,4.62071,-2.02971,-0.96373,3.7922,-0.55792,0.1855,0.74099,-0.80745,0.02754,0.61354,0.49361,-0.4019,0.24,-0.1017,-0.02406,0.07419,0.03415,-0.11874
2561,-28.01426,-20.70357,1.42596,-7.80867,1.03315,1.18366,-48.52377,-48.18945,4.84024,7.24273,0.25526,1.63633,-14.60242,22.86536,-2.96566,-4.75699,-0.53413,1.10749,-12.89248,12.04975,-2.20422,-2.79737,-3.93893,-0.96918,5.29933,1.61544,0.23246,3.9362,-1.83991,-1.45365,1.02495,-1.08297,0.15812,1.35062,1.38028,-0.77034,0.17944,-0.03389,-0.02244,0.16397,0.20047,-0.24694
2562,-28.60774,-23.54025,1.71066,-9.4811,-1.95153,-0.04945,-50.05544,-53.1522,7.48574,-3.39248,-6.07298,-5.28676,-14.54623,22.40627,-3.19318,-4.28506,-0.8084,0.85851,-32.13861,-5.5274,-3.78696,23.85648,-8.30999,-2.21673,5.03523,2.61044,0.98721,4.79826,-1.87141,-0.46916,1.74694,-1.4919,0.26286,2.15283,1.05522,0.03796,0.17666,-0.02611,0.04596,0.32653,0.11113,-0.07888
2563,-28.90676,-24.94572,1.58586,-10.77478,-3.5544,-0.52052,-45.0127,-53.92651,6.51194,-9.7617,-7.52615,-6.52308,-14.67749,22.35434,-3.34881,-4.01224,-0.89744,0.79272,-34.65128,-6.01921,-2.38241,40.36434,-16.38322,-1.17838,3.71661,1.62413,1.30722,5.79323,-1.50977,1.73189,2.32496,-1.70497,0.4275,2.34087,0.09368,1.34375,0.23581,-0.0646,0.16547,0.33512,-0.19415,0.30406
2564,-27.63939,-24.42019,0.92755,-10.51125,-2.01553,-0.01167,-35.9211,-49.82206,2.23779,-4.22767,-2.05546,-2.42994,-15.04152,22.52991,-3.36519,-4.00213,-0.68246,0.91077,-13.68591,10.62657,-1.53813,25.40369,-15.13804,-0.41532,3.28649,0.52056,0.81427,6.09754,-1.14809,2.38689,1.83211,-1.21495,0.42799,1.76967,-0.03131,1.56945,0.23748,-0.05246,0.17088,0.13077,-0.34554,0.47964
2565,-25.84673,-24.27806,0.3716,-7.45977,0.30048,0.76166,-33.41181,-48.94093,-0.53329,10.63359,2.93481,1.75016,-15.45827,22.68498,-3.34261,-3.92181,-0.4519,0.99592,9.96397,21.27622,-2.20038,0.18089,-9.54693,-1.30069,4.75724,-0.27076,-0.49912,6.04263,-0.1519,1.3807,0.54705,-0.29186,0.13918,1.37887,0.85177,0.48644,0.14956,0.02632,0.01133,0.00768,-0.13898,0.21521
2566,-25.79629,-25.78805,0.41118,-4.51522,0.4497,1.03411,-42.91645,-53.25772,0.60615,18.78576,0.82854,2.89531,-15.81141,22.86418,-3.434,-3.76713,-0.493,0.87499,7.17053,14.41109,-2.79311,-3.14343,-4.45492,-1.31042,6.27975,-0.62229,-1.51697,6.15261,0.80574,-0.01947,-0.03173,0.10907,-0.27494,1.47627,1.84283,-0.93885,0.09728,0.0886,-0.17562,0.0899,0.25446,-0.27789
2567,-27.32809,-27.98944,0.75372,-4.4894,-0.42178,1.00701,-54.86478,-57.24585,3.21318,14.65547,-4.4017,2.63924,-16.05404,23.09034,-3.66978,-3.67391,-0.65963,0.74111,-14.75668,2.14376,-2.57172,12.68271,-0.10332,1.88432,6.40243,-0.16232,-1.37861,6.71817,-0.86773,-1.64495,0.8587,-0.39807,-0.5854,1.43924,2.36374,-1.77001,0.18749,0.06867,-0.24664,0.18559,0.47708,-0.54367
2568,-28.02943,-28.95298,0.79099,-6.18957,0.27043,1.20273,-55.43895,-56.99785,4.0516,8.21606,-4.71091,3.11926,-16.14565,23.20205,-3.91984,-3.51626,-0.63974,0.86117,-23.19197,0.42743,-1.28948,22.65295,2.80867,6.11555,6.17048,0.67811,-0.53297,7.65995,-5.17594,-3.01658,2.20991,-1.26435,-0.5808,1.17903,2.1806,-1.47419,0.35308,-0.02653,-0.17192,0.21503,0.30918,-0.32615
2569,-27.05678,-27.99303,0.44445,-7.67602,1.80923,1.38513,-45.9542,-53.47915,3.08188,3.7825,0.66943,4.02513,-16.18814,23.24958,-4.06196,-3.32128,-0.48539,1.06958,-15.42304,10.88849,1.1321,14.82267,4.93064,7.21767,6.54394,0.54638,-0.07006,8.26326,-7.397,-2.38137,2.49083,-1.70518,-0.20211,0.93715,1.37332,-0.35854,0.41732,-0.14101,-0.01565,0.20674,-0.053,0.12766
2570,-26.2385,-26.64473,0.21016,-8.21857,1.56007,1.0082,-41.80588,-49.84077,2.86944,-0.75638,5.40121,3.90377,-16.34819,23.41392,-4.12696,-3.26196,-0.51235,0.98957,-16.1731,21.64251,2.69323,-2.7909,2.69434,5.00618,6.61162,-0.70257,-0.26735,7.99247,-4.30216,0.69085,1.47271,-1.44524,0.32138,0.95771,0.45288,0.72935,0.3134,-0.19936,0.12505,0.18754,-0.2334,0.3776
2571,-26.86234,-27.26003,0.33032,-6.87961,-0.67131,0.27785,-49.74069,-50.39601,4.36822,0.51581,4.28158,2.15097,-16.61816,23.48711,-4.24804,-3.13195,-0.71855,0.64358,-26.42727,19.17628,1.12743,-15.21214,-6.76214,2.91963,5.41211,-1.24948,-0.28418,7.30172,0.6965,3.58727,0.35078,-0.90845,0.67731,1.14722,0.00527,1.0378,0.15363,-0.15261,0.18456,0.14548,-0.13058,0.26814
2572,-27.43122,-29.82422,0.39431,-3.28071,-2.22089,-0.02659,-57.76661,-56.20404,5.41847,14.34545,0.17966,0.35787,-16.85359,23.2597,-4.45691,-2.65928,-0.77732,0.41656,-20.80293,6.41446,-1.71984,-10.96486,-16.49987,1.2286,3.88124,-0.17465,0.21205,7.0067,2.13454,3.41248,0.20504,-0.59851,0.64145,1.27849,0.32736,0.41101,0.06119,-0.01744,0.14078,0.08546,0.04927,-0.00911
2573,-26.40605,-32.03961,0.03339,7.7401,-0.78207,0.08389,-54.30515,-62.1374,4.20919,44.69351,1.19616,1.10468,-16.95704,23.02967,-4.64846,0.87566,-0.01851,-0.11406,19.37204,3.19708,-1.95454,6.67558,-18.01719,-3.06592,3.44886,1.18427,0.58197,6.89517,-0.81426,0.16925,0.78501,-0.67825,0.28031,1.51858,1.30059,-0.52864,0.02167,0.09108,0.03716,0.07729,0.12375,-0.18626
2574,-25.15784,-32.63369,-0.50791,5.89737,0.48498,0.29989,-44.78595,-63.26125,1.49203,40.92767,4.28262,2.79821,-16.92364,23.13323,-4.76678,0.84886,0.12738,-0.00248,28.16895,8.57549,-0.29587,19.68792,-9.80181,-8.19187,4.11088,1.56754,0.54484,5.77783,-4.06551,-2.70237,1.27649,-1.10146,-0.05155,1.64235,1.87352,-0.74485,0.019,0.0446,-0.03283,0.06381,0.02049,-0.10082
2575,-26.01108,-32.36805,-0.75887,1.11368,0.32527,0.17453,-41.72834,-61.6899,-0.63641,24.15558,2.89092,3.49361,-16.81064,23.4634,-4.89344,0.48594,0.1152,0.01052,14.6218,11.09288,-0.52843,18.14819,-1.3763,-8.13123,5.6079,0.85826,0.14654,3.69924,-3.5131,-1.69811,1.53564,-1.58208,-0.16552,1.16076,1.03188,0.14453,0.15584,-0.10889,-0.04496,-0.04188,-0.21309,0.19214
2576,-28.5425,-31.95435,-0.64996,-1.72561,0.04706,0.23236,-47.22508,-60.9482,-0.69501,14.20236,-0.95896,3.70686,-16.7223,23.69791,-5.1053,0.23789,0.08638,0.05698,-1.44597,9.33181,-0.67731,9.53253,-5.56098,-1.48771,7.47659,-0.43671,-0.67366,3.12214,0.18012,2.06669,1.60546,-1.62625,-0.19668,0.76836,-0.24605,1.17181,0.36871,-0.18251,-0.06216,-0.02586,-0.33627,0.39439
2577,-29.99636,-31.01373,-0.51849,-0.92163,0.98648,0.61766,-53.56466,-59.00938,0.88791,17.06614,-0.92856,4.5386,-16.75788,23.75599,-5.32532,0.36509,0.16471,0.18292,-5.96002,13.21309,1.77053,3.45656,-16.32363,6.67012,7.25059,-0.69933,-1.12227,5.58613,2.25384,3.95244,1.46984,-1.10547,-0.34725,1.23434,-0.17419,1.10077,0.40407,-0.08538,-0.12066,0.23753,-0.17686,0.28258
2578,-29.05351,-30.33208,-0.5594,1.89674,1.28541,0.75431,-55.54216,-56.84408,2.54458,27.02894,-0.11474,4.28297,-16.91757,23.85499,-5.4294,0.66448,0.17016,0.17643,1.8451,16.08267,2.19497,0.57881,-17.09386,9.28965,4.15919,0.81548,-0.22217,8.5666,0.07147,2.07014,1.19679,-0.64899,-0.38082,1.82182,1.00166,0.14865,0.20529,0.06454,-0.13842,0.4087,0.0877,0.0137
2579,-27.18587,-31.14416,-0.63043,4.82496,-0.90785,0.24907,-54.65545,-58.36096,3.41899,37.14949,-3.18984,1.33749,-17.08867,24.1339,-5.42608,0.8431,-0.10287,-0.08086,13.96217,8.12111,-3.26131,0.25696,-11.38216,2.31293,2.57511,1.34525,0.76034,8.40227,-2.89574,-0.36541,0.59171,-0.67391,0.12267,2.13331,1.48925,-0.21272,-0.01779,0.11614,-0.03354,0.33391,0.17275,-0.11332
2580,-26.3895,-33.04817,-0.62093,6.09827,-3.0948,-0.34444,-54.15525,-62.07093,3.45745,39.03402,-4.05564,-1.22626,-17.20701,24.44207,-5.45155,0.80768,-0.36303,-0.28535,14.48462,0.7616,-8.21923,7.49239,-12.22333,-8.4524,5.00798,-1.38178,-0.10312,4.86085,-2.08862,-0.67172,-0.3271,-0.77876,0.84295,2.52518,1.06595,0.19822,-0.10447,0.05718,0.1105,0.24276,0.16486,-0.14317
2581,-27.07565,-34.78698,-0.6264,4.27793,-1.60432,-0.16489,-54.17717,-65.04755,2.51712,32.21901,2.93434,1.05654,-17.38606,24.70691,-5.59094,0.51403,-0.16076,-0.06975,4.168,7.05542,-4.26527,17.29428,-13.15349,-10.57792,7.52738,-5.00316,-2.04959,1.97148,0.65564,-0.35008,-0.79244,-0.75975,0.97071,2.6045,1.0862,0.1073,-0.04827,-0.0851,0.15584,0.23038,0.25704,-0.24746
2582,-28.11796,-35.79414,-0.71547,-0.56021,1.8537,0.47472,-53.66748,-68.40211,1.07931,24.21295,9.81609,5.77758,-17.73793,25.08539,-5.79224,0.00829,0.32126,0.39919,-1.87609,16.9816,5.16526,12.08791,-2.07137,-2.39077,7.35822,-5.76611,-3.06537,4.05408,0.06723,-0.90252,-0.11393,-0.75447,0.27199,1.79744,1.7658,-0.65676,0.14324,-0.21258,0.0541,0.18815,0.27363,-0.2601
2583,-28.2307,-35.98264,-0.83916,-5.44026,3.22273,0.58431,-54.1374,-70.58559,0.53994,18.26528,9.06968,6.7815,-18.17177,25.6497,-5.96472,-0.36115,0.5581,0.63636,-4.5189,18.1432,8.99142,-7.45239,10.85199,4.84245,6.1018,-2.25579,-2.0564,10.0308,-3.96889,-1.06331,1.17502,-0.68828,-0.52591,0.35128,1.95751,-1.0151,0.35354,-0.13893,-0.11237,0.01115,0.00436,0.00737
2584,-27.23756,-35.23499,-0.96399,-7.02905,1.34569,-0.05099,-56.02034,-65.60293,1.23422,12.99429,2.69521,2.75684,-18.4857,26.30539,-6.06545,-0.3424,0.33012,0.42444,-12.26813,14.3476,2.40477,-17.63093,3.88055,4.99746,4.84838,3.60473,1.0247,14.35298,-6.67254,-0.05581,2.0006,-0.90661,-0.50431,-0.52271,1.46448,-0.6006,0.39477,0.07334,-0.15523,-0.16848,-0.29386,0.31688
2585,-26.31007,-34.25426,-1.05705,-5.10762,-0.15902,-0.49962,-56.50378,-55.43489,1.78517,9.57993,0.74104,0.20225,-18.56359,26.96419,-6.11804,-0.08966,0.00096,0.08125,-19.48397,18.00035,-4.78119,-9.09368,-20.76837,2.38063,3.84702,6.71736,3.74864,13.73751,-5.53772,0.93084,1.91507,-1.56548,0.21732,0.2184,1.09945,-0.0036,0.26859,0.13892,-0.02072,-0.05913,-0.27111,0.34214
2586,-26.41267,-33.95299,-1.07426,-1.85633,1.01764,-0.24702,-53.46078,-50.09848,1.14277,12.71844,6.39673,2.81824,-18.40696,27.62154,-6.16236,0.16497,-0.04141,-0.04648,-13.97508,27.17729,-3.5632,3.5559,-30.18166,0.39818,4.31163,4.023,3.26755,9.61927,-2.64688,0.53351,1.05437,-2.03503,0.82241,1.70687,1.31557,0.03922,0.11715,-0.05471,0.15174,0.28993,0.02996,0.08638
2587,-27.18233,-34.23042,-1.00367,1.00276,2.06245,0.15746,-48.98324,-54.16265,0.10889,22.92279,9.558,5.18862,-18.10565,28.27024,-6.20991,0.3809,0.09613,-0.01648,2.69964,24.96497,0.54037,9.61636,-6.34501,-2.71648,6.36444,-1.09886,0.41362,5.06334,-0.69713,-0.89353,0.20396,-1.89762,0.82786,2.42272,1.70726,-0.40118,0.063,-0.30886,0.21164,0.53384,0.30882,-0.18979
2588,-27.97427,-34.40024,-0.83781,3.27468,1.03632,0.34229,-48.75714,-61.62488,0.13705,33.03828,4.55445,3.41529,-17.88356,28.91133,-6.26165,0.5708,0.16792,-0.00461,13.67764,9.8769,-0.21929,8.81935,21.48493,-5.81376,7.22321,-3.38301,-1.31859,2.59003,-0.51258,-1.59961,-0.03463,-1.59589,0.5157,2.06328,1.54733,-0.56112,0.0316,-0.40148,0.17307,0.4566,0.35127,-0.2685
2589,-28.48455,-34.67692,-0.63576,4.88994,-0.3244,0.45763,-54.72968,-65.75346,1.18897,35.49858,-2.09797,0.84487,-17.96658,29.6067,-6.33273,0.67657,0.12246,-0.05365,8.02983,-1.62566,-4.06231,2.77839,18.83416,-2.98474,4.6201,-1.73316,-0.16067,3.30519,-1.62822,-1.3283,0.41466,-1.79333,0.34072,1.17927,1.13639,-0.505,-0.03578,-0.34139,0.13939,0.1538,0.23743,-0.22214
2590,-28.28745,-35.18927,-0.56402,5.17046,-0.64159,0.46454,-59.93271,-65.66264,1.96059,30.83341,-3.15548,0.86618,-18.26644,30.36458,-6.42607,0.6939,0.03285,-0.1367,-3.71579,0.53007,-4.58606,-5.65325,-6.63879,5.87714,1.26771,1.02543,2.05648,5.74354,-2.8708,-1.13944,1.24993,-2.29183,0.32352,0.51225,1.15876,-0.70554,0.02246,-0.24739,0.12542,-0.05798,0.12678,-0.18347
2591,-27.50669,-34.87067,-0.64639,4.20789,-0.41741,0.24265,-58.84389,-62.89293,2.05961,27.0706,0.86421,2.05972,-18.42819,31.07183,-6.51915,0.71951,0.04403,-0.17109,-5.77128,10.79806,-1.27524,-10.62617,-24.14829,11.60539,2.23155,1.86362,2.48166,7.31573,-3.40624,-1.11473,1.52187,-2.2251,0.4195,0.48487,1.30077,-0.81112,0.21045,-0.14182,0.10262,-0.00392,0.0125,-0.09629
2592,-27.17903,-33.36685,-0.67477,3.50962,-0.79121,0.03563,-56.55009,-59.05822,2.23821,29.12226,2.34353,0.89216,-18.3073,31.67887,-6.59569,0.78858,0.1217,-0.1038,-0.53764,14.07061,-1.98914,-3.03116,-21.78738,9.35407,6.82226,0.92042,1.02022,7.79404,-3.35056,-0.45597,0.93185,-1.38364,0.53614,0.90829,0.98392,-0.41325,0.27455,0.03367,0.0508,0.16621,-0.1214,0.04949
2593,-27.50867,-32.24289,-0.56377,3.45424,-2.22702,0.08142,-57.56895,-57.04354,2.60309,30.06704,-4.02292,-3.33161,-18.15313,32.32183,-6.65537,0.7839,0.02955,0.00074,-2.53865,1.62203,-10.0295,13.81355,-10.22257,5.76181,8.66439,0.74466,0.06816,8.97605,-2.83995,1.17281,0.61452,-0.60229,0.34604,1.49157,0.48931,0.19018,0.1461,0.22898,-0.04022,0.27058,-0.16038,0.12134
2594,-27.71807,-32.46792,-0.42885,3.42055,-3.06124,0.30961,-59.42145,-58.34285,2.71348,24.48234,-10.04844,-5.45414,-18.23652,33.13128,-6.69711,0.69118,-0.17844,0.0705,-13.68904,-10.62273,-14.26481,18.99469,-2.25307,4.50711,6.50731,0.92181,-0.04517,10.64036,-1.84584,2.70165,0.96489,-0.46893,-0.12795,2.09328,0.60902,0.56646,0.05263,0.25506,-0.12388,0.30811,-0.01135,0.09058
2595,-27.49259,-32.62695,-0.3762,4.02173,-1.00468,0.56002,-60.40496,-60.5089,2.65973,22.19515,-2.6234,0.17712,-18.52706,34.00985,-6.72384,0.67106,-0.16421,0.09648,-17.96272,0.77988,-4.46662,6.01335,-4.77465,-0.82261,6.03871,-1.67755,-1.66681,10.16719,-0.89744,2.46016,0.91756,-0.41262,-0.45192,2.57718,1.43905,0.66255,0.15446,0.09415,-0.158,0.34489,0.22937,0.05903
2596,-26.7406,-31.14119,-0.52253,5.90275,2.32676,0.68212,-59.42009,-59.2892,2.51358,31.64496,12.23583,8.2385,-18.82319,34.76333,-6.76352,0.80862,0.07523,0.05297,-3.65318,26.15996,8.07536,-4.50169,-18.59464,-7.05024,7.36209,-4.2887,-3.31505,7.75173,-0.90979,0.7773,0.38914,-0.22598,-0.40551,2.3979,2.02603,0.44375,0.32127,-0.03796,-0.15009,0.31426,0.33165,0.0419
2597,-25.27597,-28.79998,-0.91235,6.96433,2.92006,0.48279,-54.35104,-52.93253,1.85121,39.01124,14.87846,7.07693,-18.98647,35.37922,-6.83607,0.95137,0.22804,-0.06902,12.57453,33.58138,4.32977,2.02811,-33.02539,2.56958,3.71695,0.49921,0.32297,7.43729,-1.87278,0.35411,0.95019,-1.0299,-0.15029,1.14785,1.5385,-0.10268,0.37874,-0.04166,-0.09237,0.15958,0.17954,0.00916
2598,-24.14482,-27.55256,-1.32006,5.36609,0.54494,0.13271,-48.50547,-46.40585,0.16548,32.59563,3.01773,-1.73527,-19.03959,36.07351,-6.92862,0.90666,0.20552,-0.16407,11.52625,18.20612,-11.68801,10.88597,-30.9732,21.96083,-2.65078,9.14847,7.0231,9.21299,-2.33317,1.94964,2.52565,-2.73398,0.18537,-0.34374,0.43677,-0.6074,0.3565,-0.0352,0.02623,-0.01053,-0.07344,-0.01667
2599,-25.04409,-28.46549,-1.35592,4.07962,-1.38877,0.33812,-48.98336,-49.69764,-2.05175,29.19049,-5.41208,-3.42114,-19.08951,37.02355,-7.01474,0.79026,0.15599,-0.10453,7.31568,3.97821,-16.45558,4.00231,-12.14532,17.68293,0.1622,7.68602,6.58345,7.41138,-1.09073,2.38334,2.39844,-3.05083,0.6459,-0.54261,0.03994,-0.6584,0.29583,-0.11223,0.16467,-0.05032,-0.12814,-0.05533
2600,-27.43151,-30.79427,-0.83635,5.38688,-0.93394,1.1052,-56.32222,-63.63007,-2.43079,38.51718,-0.76286,5.51006,-19.11279,38.09039,-7.05358,0.84837,0.2037,0.09224,11.16037,3.47767,-2.35638,-8.50287,1.91279,-14.02008,12.51541,-4.98593,-2.44617,1.6813,0.64363,0.07989,-0.07934,-1.18478,0.97991,0.94861,0.7092,-0.1122,0.15208,-0.19107,0.2277,0.09478,0.05457,-0.082
2601,-28.66989,-31.39996,-0.10522,6.17902,-0.15723,1.31667,-62.77649,-70.27464,0.742,40.15673,4.00636,9.06247,-18.97767,38.98203,-7.01199,1.03857,0.2699,0.23073,4.14871,7.42396,8.561,-6.9377,-4.32086,-31.92913,18.73652,-12.38792,-8.34125,-0.5307,0.39816,-1.86214,-1.78394,0.42143,0.83273,2.70606,1.40064,0.71214,-0.03145,-0.18403,0.1791,0.29852,0.19725,-0.01264
2602,-27.71487,-29.25887,0.28711,4.16519,0.50993,0.54373,-62.31094,-59.51401,5.20045,23.40252,1.23315,0.10964,-18.71714,39.55204,-6.97055,1.10441,0.34663,0.22931,-19.68595,9.56147,1.41259,2.04875,-20.18786,-15.06502,11.56752,-6.92836,-5.00294,4.53206,-2.13881,-1.01751,-0.9664,0.24765,0.30902,3.10606,1.44716,0.99638,-0.12219,-0.09997,0.07048,0.35197,0.16,0.07281
2603,-26.92077,-26.44355,0.19998,1.99948,2.25463,-0.1684,-58.77038,-45.3583,6.76044,10.08662,1.12226,-6.58347,-18.58235,39.99456,-7.05167,0.95008,0.42165,0.18782,-33.87196,15.41057,-8.40664,-3.90721,-22.94502,6.91984,2.98077,-0.64923,-0.62867,11.31226,-4.35125,1.0233,0.23636,-0.25577,-0.08026,2.21716,1.26557,0.42812,-0.08124,-0.01382,-0.01133,0.26016,0.06757,0.04258
2604,-27.88294,-24.98119,-0.13347,3.82896,2.64467,0.20384,-56.81591,-44.43291,4.30133,22.73057,7.13514,-0.51028,-18.70184,40.56307,-7.22374,0.87676,0.29295,0.1314,-14.67873,22.35572,-5.2402,-22.75371,-5.48661,7.34959,3.43399,-2.21727,-1.28271,12.6026,-3.96723,1.83043,0.25658,-0.35373,-0.01377,1.5241,1.26039,-0.1681,0.0468,-0.02461,-0.0097,0.26773,0.06366,-0.02599
2605,-28.57231,-26.0462,-0.47605,8.37895,0.59292,1.13289,-52.86219,-56.28223,0.67024,47.21603,10.23257,8.4513,-18.93315,41.18514,-7.34802,1.00557,0.08031,0.04197,22.5053,19.20356,2.86938,-28.54001,13.18709,-1.31215,7.63453,-4.61754,-2.22135,8.92986,-2.17068,1.16251,0.28193,-0.9721,0.20343,1.42535,1.31987,-0.20658,0.15759,-0.08899,0.00908,0.37179,0.11139,-0.00862
2606,-27.32695,-27.58111,-0.67129,9.21039,-2.29918,1.29258,-45.32677,-63.29068,-0.80095,51.88383,2.30155,6.01892,-19.08554,41.73175,-7.33017,0.89503,-0.05453,-0.07301,39.06493,7.85142,-0.7113,-5.96444,9.97505,0.60659,7.17551,-0.83793,0.54984,6.21827,-1.58683,0.57381,1.43016,-1.99218,0.03835,1.07973,1.13262,-0.04804,0.21169,-0.06468,-0.05234,0.30179,0.0601,0.06513
2607,-26.41185,-27.19955,-0.44181,4.36759,-3.80491,0.46153,-43.67184,-58.13518,1.10647,33.60418,-9.30302,-4.24897,-19.06733,42.08928,-7.24706,0.42166,-0.145,-0.17013,19.55035,0.24794,-12.35757,27.9868,-10.29948,9.78158,3.32872,4.78863,3.7077,7.37514,-2.47776,0.69754,2.85799,-2.23766,-0.38379,0.58327,1.06989,-0.17311,0.28263,0.05615,-0.13373,0.10064,-0.00869,0.06026
2608,-28.08,-25.35437,0.21353,-0.40011,-3.11487,-0.24671,-52.19285,-52.23217,4.61301,19.7537,-10.31094,-6.88867,-18.91726,42.13576,-7.21621,0.09697,-0.2493,-0.20632,-6.8258,2.33443,-12.986,40.39979,-21.77682,12.6909,1.76143,5.66181,3.79126,9.40989,-2.7063,1.04585,2.9384,-1.51556,-0.37745,0.72976,1.47412,-0.37653,0.33533,0.15174,-0.09956,0.06954,0.0643,-0.02171
2609,-30.1782,-23.44381,0.67957,0.2334,-1.63862,0.04953,-58.67701,-53.161,6.16588,28.93233,-0.16613,2.03521,-18.77868,41.96851,-7.18129,0.22599,-0.32371,-0.16584,-2.07209,11.93937,1.42226,19.83194,-14.07948,4.46562,4.01567,1.99162,1.6325,7.74422,-1.0727,0.90727,1.30542,-0.65396,0.19233,1.33567,1.84184,-0.23427,0.23316,0.16651,0.01492,0.22601,0.20205,-0.04992
2610,-29.56847,-22.83313,0.56578,3.15515,-0.45796,0.64891,-54.85577,-57.87472,4.76658,42.27271,9.63796,10.62999,-18.68496,41.76828,-7.05083,0.46906,-0.20717,-0.05902,17.19313,20.26604,14.27187,-12.10516,-2.53728,-7.11987,7.48806,-1.4505,0.07771,2.98053,0.41675,-0.09253,-0.60872,-0.57638,0.76921,1.37843,1.52919,0.06969,0.01197,0.07876,0.08319,0.25896,0.19693,-0.00449
2611,-26.81406,-23.49263,0.22304,1.81544,0.95785,0.32436,-47.59808,-60.91109,2.92628,31.96315,12.04928,8.74303,-18.53872,41.69422,-6.88121,0.3934,0.15512,0.02906,6.63587,20.44349,12.19035,-24.6331,-0.23459,-10.34236,8.64049,-2.00887,-0.14369,1.1361,-0.78309,-0.71253,-1.01362,-0.89729,0.68932,0.8096,0.52694,0.22965,-0.09235,-0.05698,0.06104,0.09485,-0.00115,0.0359
2612,-24.98524,-23.97379,0.12379,-3.83435,1.84402,-0.86976,-44.4836,-59.65086,2.70884,5.24634,6.22915,-2.40023,-18.38683,41.81632,-6.83489,0.00265,0.48424,0.0018,-27.83073,10.89735,-3.03529,-11.94028,-0.96682,-3.45395,6.96907,-1.29179,-0.53323,5.46495,-3.78755,0.40747,0.26763,-0.61535,0.03897,0.71506,-0.27584,0.33525,0.05548,-0.09572,0.01073,0.03749,-0.19112,0.04719
2613,-24.86155,-23.54334,0.20776,-7.43209,-1.08108,-1.71951,-43.88822,-54.75386,3.30754,-6.02568,-7.95819,-15.24195,-18.36641,41.94779,-6.94457,-0.29858,0.29602,-0.12735,-39.89604,-6.15671,-22.39427,1.20347,-0.23191,3.98526,5.10471,-0.87951,-0.93812,11.55744,-5.1151,2.04448,1.61712,-0.12467,-0.28741,1.40222,0.31444,0.3082,0.28146,-0.04646,0.03911,0.22404,-0.10089,0.03579
2614,-24.36178,-22.59794,0.10965,-4.65224,-5.63178,-1.27205,-39.68746,-50.61629,2.83713,10.91256,-17.99115,-17.57135,-18.44843,41.8825,-7.01931,-0.136,-0.24628,-0.19397,-9.54028,-14.40845,-28.971,-4.17081,-7.08488,4.87706,4.72752,-0.08453,0.24794,12.87007,-3.37807,2.24605,1.91827,-0.52079,0.08845,1.62913,1.8679,-0.08759,0.37124,-0.04598,0.14241,0.3386,0.19993,-0.00401
2615,-22.78482,-21.51727,-0.15134,0.98693,-5.26922,-0.01611,-31.34402,-51.67804,1.40348,33.21267,-9.03136,-4.63781,-18.45105,41.62169,-6.93405,0.3445,-0.3975,-0.08837,30.86494,-0.57851,-11.97745,-17.90896,-20.89427,1.68112,5.35033,1.20596,2.56159,8.8697,-1.06377,0.88803,1.41882,-1.76407,0.60694,0.47547,2.66183,-0.74332,0.27954,-0.10783,0.17588,0.0565,0.34586,-0.0683
2616,-21.71575,-20.29701,-0.1549,2.06917,-0.99302,0.45191,-27.71943,-53.91806,1.29108,29.80374,6.81399,7.28096,-18.21611,41.2709,-6.79897,0.51671,-0.0844,0.04884,30.22836,18.45498,8.22978,-20.11591,-21.43809,-1.03457,6.23901,1.64254,3.23158,5.63584,-0.91865,-0.52873,0.62849,-2.23946,0.50016,-0.37998,2.33693,-0.94594,0.07939,-0.05542,-0.00204,-0.26578,0.18786,-0.07711
2617,-21.54586,-19.98647,0.29895,-2.33103,1.53042,-0.40438,-33.99713,-52.63496,3.79745,1.85319,8.18751,2.14982,-17.71704,40.90275,-6.74931,0.12735,0.20403,0.06876,-16.19088,16.80506,5.48913,-8.95753,0.84486,-0.71002,7.31913,0.67631,1.29958,7.33223,-2.55099,-0.15404,-0.03093,-1.10974,-0.15874,0.8869,1.57426,-0.10809,-0.05853,0.1458,-0.26428,-0.04896,-0.11442,0.05008
2618,-21.43408,-20.94667,0.87772,-5.12211,0.20513,-1.28887,-41.57465,-50.96828,6.79655,-15.55153,-4.09436,-12.24001,-17.15817,40.63169,-6.80573,-0.30721,0.19391,-0.0004,-50.26241,-3.91508,-12.94939,-0.99549,23.56392,3.8307,8.51842,-0.96818,-1.12526,10.48301,-3.60545,2.0828,-0.08932,0.39808,-0.51126,2.40427,0.58115,0.88552,0.03087,0.2821,-0.29835,0.41113,-0.31064,0.1959
2619,-21.0914,-20.61185,0.94729,-1.94087,-3.64149,-1.03142,-40.16703,-50.40572,6.75104,1.52929,-14.33287,-17.16422,-16.89493,40.66225,-6.93345,-0.29085,-0.13652,-0.08774,-24.51326,-17.05146,-21.13352,-3.4386,20.27451,10.58937,8.74822,-2.06154,-1.76281,9.82804,-3.06694,3.73274,0.29851,0.8038,-0.11901,1.55053,-0.31859,0.7248,0.21556,0.21992,-0.05636,0.38194,-0.28175,0.16414
2620,-19.81425,-18.44027,0.28776,2.24042,-5.31267,0.01782,-31.32613,-50.28507,3.30183,31.27195,-10.79281,-6.16773,-17.05908,40.95303,-7.09615,-0.03596,-0.4035,-0.08234,29.00411,-7.14969,-8.72355,-3.11489,-3.0572,14.51175,6.86889,-1.63598,-0.44739,6.06755,-2.03809,2.60186,0.60336,0.03411,0.4769,-0.36581,-0.19863,-0.21605,0.22136,0.04246,0.18342,-0.03755,-0.07109,-0.0068
2621,-17.05908,-17.07441,-0.53508,1.66624,-3.9076,0.70997,-24.4385,-49.90577,-0.29157,40.65123,-0.96166,7.66894,-17.41515,41.2709,-7.22608,0.07515,-0.37976,0.02532,50.16599,11.09149,7.65721,5.26789,-21.04053,11.63547,4.53696,-0.28539,1.17713,3.88866,-1.72305,0.0312,0.69261,-0.97017,0.6184,-0.87472,0.96491,-0.73614,0.08621,-0.13554,0.22329,-0.24657,0.1682,-0.11235
2622,-14.15785,-18.04354,-0.68268,-1.32724,-2.87046,0.61038,-26.22295,-48.92232,-0.74687,32.49377,2.74916,11.1827,-17.64921,41.58689,-7.2582,0.12197,-0.23829,0.12416,34.35891,21.12388,10.78723,5.51211,-23.14727,3.17483,4.88307,0.57199,1.80701,4.95811,-1.98169,-1.07181,0.70748,-1.45063,0.31786,-0.39296,1.96607,-0.82809,0.09249,-0.22083,0.10991,-0.15739,0.27209,-0.11628
2623,-13.09888,-20.27976,0.11681,-1.40219,-1.72237,0.34828,-37.12828,-48.62928,2.54559,27.36233,5.13279,8.23692,-17.66436,41.94975,-7.23931,0.30316,-0.00546,0.1902,11.50668,26.01325,6.42709,-8.98815,-15.65055,-4.66875,7.47675,0.6537,1.56897,6.98222,-2.06696,-0.58003,0.72105,-1.26654,-0.03864,-0.24838,2.35249,-1.08563,0.28819,-0.12776,-0.04391,-0.03275,0.29439,-0.12945
2624,-13.06171,-21.17156,1.00497,1.0549,0.16967,0.23647,-46.63189,-47.17754,6.39732,28.25481,11.28593,6.405,-17.6202,42.36396,-7.26001,0.44051,0.16708,0.17921,-0.17167,30.93532,5.24572,-19.64597,-7.76296,-6.44087,8.96766,0.36189,1.10125,7.7524,-1.7912,-0.00439,0.59644,-0.72054,-0.12724,-0.19931,2.43433,-1.23156,0.4123,0.0749,-0.12831,0.03747,0.35922,-0.16535
2625,-11.63099,-20.01745,0.93172,1.76934,0.32672,-0.06362,-41.34677,-44.64597,6.52902,26.9546,12.85382,4.24425,-17.83273,42.95417,-7.36661,0.23227,0.02277,0.0218,5.36681,28.65402,4.49833,-15.9537,-6.56805,-3.26623,8.21557,-0.16641,0.55927,7.11959,-1.45071,0.94234,0.11169,-0.07156,0.06388,0.38144,1.75899,-0.58253,0.29015,0.2374,-0.10709,0.09601,0.31801,-0.12014
2626,-9.05197,-18.40783,0.05616,-1.28207,-2.85354,-0.78324,-25.55336,-43.02349,2.759,17.41509,-0.28154,-4.51023,-18.46063,43.84522,-7.55147,-0.30953,-0.36298,-0.21217,14.34951,10.72665,-6.52027,-15.26387,-8.57353,1.62728,6.43338,-0.46083,0.33612,6.38988,-1.45113,2.84844,-0.3357,0.21437,0.29652,0.82366,0.22009,0.37801,0.04593,0.25881,-0.03934,0.0882,0.0351,0.0032
2627,-6.75913,-17.38153,-0.67873,-5.7451,-7.09905,-1.63713,-14.78408,-39.92285,-0.76916,0.77438,-21.25583,-17.62394,-19.25753,44.95214,-7.7237,-0.74794,-0.66676,-0.36206,6.45107,-11.15252,-25.51078,-27.92947,0.03849,8.28354,4.65731,0.05902,1.15538,6.52611,-2.08797,3.91434,0.2298,-0.50925,0.40645,0.02216,-0.73608,0.29913,-0.05007,0.0971,0.03751,-0.06895,-0.23086,0.05324
2628,-5.17638,-17.3385,-0.65021,-6.92132,-8.04476,-1.82674,-16.02474,-36.53958,-0.52807,-7.00584,-27.30325,-20.9521,-19.92285,46.14902,-7.8376,-0.58506,-0.65263,-0.34612,-7.39136,-13.01354,-31.59326,-34.34768,18.93579,13.50252,3.99822,0.81768,2.23536,6.81347,-3.11743,2.03548,1.541,-1.58324,0.31143,-1.29872,-0.00618,-0.75777,0.1034,-0.09665,0.07594,-0.21957,-0.20332,0.00426
2629,-3.99819,-18.36348,-0.06846,-3.30543,-4.46284,-0.95513,-23.07149,-38.16691,2.37843,7.53423,-10.34795,-8.54393,-20.43658,47.43375,-7.97476,0.05445,-0.3475,-0.1969,0.00844,7.4462,-15.70395,-21.36761,26.60473,10.4841,5.01118,0.80013,2.02474,6.3715,-3.62409,-1.57803,1.78216,-1.55102,0.05705,-1.2297,1.67092,-1.24806,0.26668,-0.09026,0.00953,-0.14123,0.0205,-0.02053
2630,-2.68807,-19.33673,0.2788,0.72961,-0.76511,0.10307,-26.07718,-42.95629,3.97909,30.66705,7.29297,4.48258,-20.92584,48.81342,-8.22204,0.43408,-0.05502,-0.03062,24.88026,23.58469,1.00365,-6.20057,10.50005,0.98041,6.14698,0.33874,0.89339,6.21703,-3.10144,-3.35007,0.4674,-0.47602,-0.11846,0.36132,2.91814,-0.54175,0.19676,0.0818,-0.10814,0.07544,0.21288,0.01764
2631,-1.28076,-19.45118,0.05638,0.72168,-1.38596,0.28711,-22.4876,-45.99445,2.66178,38.17373,4.36001,3.52575,-21.5228,50.24226,-8.57749,0.10917,-0.04426,0.02113,38.87856,15.04407,-1.0605,-5.39046,-15.00617,-4.40141,5.88745,0.73778,0.59773,7.5403,-2.23636,-1.79795,-0.82659,0.39022,-0.08014,1.59523,3.16134,0.36713,-0.01509,0.21215,-0.15866,0.16218,0.27836,0.06075
2632,-0.09315,-18.88356,-0.30675,-2.45064,-4.12003,-0.24591,-16.60992,-46.78483,0.70944,27.38489,-8.94372,-4.77631,-22.2723,51.7632,-8.93333,-0.58314,-0.21576,-0.05065,33.07597,-2.51658,-11.33284,-13.11127,-27.48125,0.06835,4.80608,2.30156,1.88975,8.581,-1.5815,1.00075,-1.06637,0.33899,0.14961,0.99703,2.55552,0.33126,-0.1596,0.19868,-0.10239,-0.00113,0.21231,0.05093
2633,0.62098,-17.9107,-0.31302,-5.09966,-4.18692,-0.69497,-13.45064,-46.62367,0.93334,14.12256,-10.52984,-6.70291,-23.12249,53.46169,-9.22833,-0.95301,-0.31228,-0.13003,22.2185,-2.18689,-10.34458,-17.45574,-21.07138,8.1185,3.68533,3.48606,3.24641,6.51548,-0.91393,2.12474,-0.66854,-0.1982,0.35554,-1.01148,1.50003,-0.73135,-0.17212,0.09607,-0.0156,-0.32193,0.07151,-0.04935
2634,0.79084,-16.53402,-0.06766,-4.97154,-1.75742,-0.73541,-14.50173,-43.91418,2.8187,11.03614,0.28244,-1.98119,-24.06205,55.34933,-9.55191,-0.61923,-0.24203,-0.12228,20.0755,16.63204,-0.43387,-15.63771,-11.10507,9.43953,2.67955,2.74267,2.71416,2.54618,-0.59253,0.49967,-0.48897,-0.44815,0.24721,-2.63254,0.79561,-1.87265,-0.11036,0.00076,-0.01414,-0.5549,0.03346,-0.2049
2635,1.04102,-14.88751,-0.05838,-2.51477,-0.96988,-0.55664,-17.89611,-37.05544,3.6556,17.99353,5.92258,0.13481,-25.07747,57.35775,-9.9765,0.15792,-0.14906,-0.05223,25.92694,31.33722,1.26849,-12.72825,-14.252,4.61233,2.34527,1.12662,1.05484,1.12999,-1.27337,-2.04304,-0.85061,-0.30151,-0.11258,-2.66526,1.05135,-2.23593,-0.04601,-0.02704,-0.12479,-0.5024,0.19983,-0.30669
2636,1.78254,-14.04176,-0.30064,0.14906,-2.83581,-0.31858,-21.24792,-30.71458,2.65024,25.87358,-0.4848,-2.8905,-26.08628,59.33582,-10.50374,0.75455,-0.12445,0.01221,28.19848,27.655,-7.98077,-15.59392,-25.54433,6.39826,2.04482,1.31049,0.87387,4.08766,-2.54139,-2.10938,-1.14146,-0.18153,-0.34244,-1.78561,1.51348,-1.95673,-0.01345,0.01607,-0.23527,-0.22787,0.32723,-0.26871
2637,2.87519,-14.3556,-0.58383,0.98805,-4.08341,-0.05481,-20.81411,-29.78599,0.80905,27.81685,-7.66192,-4.85128,-27.0937,61.29372,-11.13317,0.7649,-0.01929,0.0485,24.75357,17.58767,-13.61765,-23.68442,-24.79154,18.96639,-0.63922,3.63106,2.25999,7.90731,-3.21703,0.76893,-0.78164,0.05796,-0.36706,-1.49564,1.22201,-1.69639,-0.03367,0.10589,-0.23897,-0.02321,0.18743,-0.12197
2638,4.71603,-14.42137,-1.02474,-0.72692,-3.88856,-0.05583,-14.99896,-32.40992,-0.65651,26.01789,-6.89956,-2.97284,-28.1399,63.42294,-11.79041,0.23171,0.07019,0.0284,26.47881,18.21358,-8.61833,-27.21613,-11.43441,28.41885,-6.58648,5.77267,2.98553,7.46442,-2.65497,2.95002,-0.51516,0.89546,-0.38345,-2.24194,0.42026,-1.6503,-0.18553,0.20508,-0.16162,-0.14319,-0.04939,0.00262
2639,7.00934,-13.59437,-1.47666,-1.6745,-4.59766,-0.30567,-10.57991,-35.52405,-0.48519,23.40663,-3.79725,-2.14942,-29.15245,65.73273,-12.40433,-1.45822,-0.84426,-0.15163,30.58513,21.4584,-3.88516,-23.19915,-11.5366,24.16759,-13.26646,6.43507,2.6866,3.1997,-1.52369,2.69397,-1.48292,1.91576,-0.34341,-3.06784,-0.42337,-1.58219,-0.52056,0.25006,-0.09494,-0.47758,-0.16574,-0.0069
2640,8.08745,-12.55562,-1.62647,-0.32604,-5.27303,-0.52872,-13.48886,-37.54005,0.45869,30.47484,-2.6541,-5.0599,-30.08881,68.19875,-13.0589,-1.93058,-1.2957,-0.31094,39.07482,19.70153,-9.47451,-20.1888,-35.03503,13.1149,-16.73399,5.838,2.59813,2.22775,-1.10816,3.43254,-3.54698,2.11663,-0.02263,-2.97703,-1.14081,-1.51743,-0.92498,0.15763,-0.07251,-0.62505,-0.22169,-0.13565
2641,7.25754,-11.5492,-1.64829,2.75077,-4.98516,-0.28632,-19.46676,-35.2517,-0.35644,36.81618,-7.10246,-9.51853,-30.99433,70.91969,-13.86811,-1.92326,-1.62796,-0.40356,41.39008,12.65612,-23.91396,-22.22767,-55.71428,6.46888,-16.02433,4.0777,2.82202,7.93073,-1.61682,7.67401,-5.34264,1.17938,0.58947,-2.65005,-1.50856,-1.92188,-1.19337,-0.1275,-0.02028,-0.57215,-0.32269,-0.29986
2642,5.65936,-10.7717,-1.66377,4.96284,-4.2007,0.01743,-22.92477,-26.96758,-2.44833,36.12716,-10.46903,-10.14463,-31.91169,73.76636,-14.81915,-1.95997,-2.0634,-0.5528,36.55602,16.65971,-32.94016,-22.68637,-50.99331,9.13126,-15.97359,2.34238,3.2194,14.69937,-1.97297,12.57117,-5.86481,-0.05299,1.15941,-3.24497,-1.31518,-2.86908,-1.29636,-0.52394,0.14107,-0.63608,-0.36294,-0.42863
2643,4.7232,-10.3527,-1.5341,5.95094,-4.25062,0.00502,-24.93121,-16.72761,-2.81788,31.38742,-8.83132,-6.77895,-32.93624,76.53028,-15.80965,-2.24556,-2.63587,-0.82486,27.45972,32.60553,-29.75219,-15.12176,-31.19423,21.20496,-21.0754,2.5077,4.08978,16.93165,-1.68429,15.62846,-6.01574,-0.21426,1.3998,-4.31692,-1.39238,-3.44315,-1.48769,-0.78934,0.3693,-0.77843,-0.36133,-0.40563
2644,5.09268,-9.76567,-1.46912,7.51511,-5.17693,-0.10346,-29.37626,-9.0919,-1.16238,32.45556,-4.21036,-2.47945,-34.20951,79.2593,-16.78325,-2.4133,-3.02912,-1.12584,21.34185,51.14526,-20.84311,-4.5321,-13.9487,36.36503,-26.84189,3.49896,4.01681,15.2993,-1.37537,19.48827,-7.08638,1.44331,1.16906,-4.90543,-3.55643,-2.6002,-1.86914,-0.63069,0.45785,-0.77559,-0.68008,-0.11011
2645,6.35774,-8.12803,-2.02357,8.2272,-6.30142,-0.26208,-36.51747,-2.21337,-0.66321,34.43179,-0.44691,0.79861,-35.72957,82.02986,-17.76558,-2.67219,-3.32442,-1.40256,12.73338,68.18597,-14.90648,-2.91849,-2.82857,45.53825,-25.90104,2.41182,2.45959,13.10808,-1.3948,25.7706,-8.11107,3.30193,0.93973,-4.85222,-7.31618,-0.4838,-2.05244,-0.15691,0.32552,-0.72283,-1.32836,0.34499
2646,6.93874,-6.05525,-2.96006,5.82821,-7.84405,-0.64163,-43.35948,2.62593,-2.84484,26.98278,-3.39389,0.00779,-37.35107,84.81,-18.82253,-3.62134,-3.95831,-1.72381,-4.43208,69.4898,-17.11718,-9.23942,-4.24197,49.63934,-21.16757,-0.04669,2.96466,12.18867,-1.61162,31.16596,-8.14209,2.87474,2.23065,-3.83611,-9.99953,2.18989,-1.86647,0.0228,0.32637,-0.68904,-1.8572,0.75508
2647,5.5229,-5.9293,-3.08314,3.65666,-10.21055,-0.87975,-47.43174,-2.32343,-5.24502,19.69126,-16.50709,-7.28137,-39.00581,87.70988,-19.99837,-4.82176,-4.90858,-2.08751,-14.08636,38.41106,-28.09465,-7.94196,-22.62708,56.69405,-22.75841,-0.14171,5.95873,13.04478,-2.0839,33.13211,-8.55154,1.72105,4.02681,-1.2242,-10.51167,5.24455,-1.7888,-0.22404,0.62261,-0.39154,-2.08427,1.15106
2648,2.60426,-7.61278,-2.19075,5.55941,-12.76404,-0.60914,-48.11753,-11.47677,-5.84146,24.95218,-33.05759,-16.88378,-40.76973,90.98199,-21.23907,-5.20058,-5.71322,-2.39915,-3.08746,-2.15836,-41.5769,2.66033,-34.95278,67.37132,-33.76594,2.76991,6.63114,15.51662,-2.53756,32.62338,-9.74533,2.4028,2.59884,3.11762,-9.42947,8.83888,-1.98625,-0.40177,0.80156,0.43645,-2.08056,1.67903
2649,-0.27146,-8.62024,-1.33804,9.04,-14.64028,-0.27377,-47.15897,-9.37146,-5.5326,33.0425,-41.28282,-21.25772,-42.72175,94.55595,-22.45353,-4.64331,-6.13699,-2.62897,11.03668,-8.05916,-48.73556,3.54354,-15.39306,71.41122,-45.4437,5.22074,4.66981,17.41685,-2.00977,29.64776,-10.04707,3.06678,-0.95559,8.49035,-6.70479,12.72989,-2.05167,-0.39629,0.80677,1.61789,-1.68774,2.24874
2650,-2.457,-8.30312,-1.07548,9.92187,-16.15959,-0.42871,-47.27691,2.64036,-5.53544,27.89935,-38.38202,-18.9629,-44.8896,97.91843,-23.64326,-4.09284,-6.41655,-2.84797,4.66628,22.02753,-47.17568,-8.84667,17.03779,57.62517,-45.39008,3.43438,3.61617,16.16904,-0.01649,22.30069,-7.64704,1.69395,-1.93252,12.72763,-1.9044,15.38773,-1.59657,-0.40741,1.12371,2.44201,-0.77149,2.44379
2651,-4.36714,-7.20157,-1.28763,9.14015,-17.96178,-0.83753,-47.86935,8.6447,-5.66433,12.52014,-31.5282,-14.59114,-47.28041,100.67043,-24.83397,-4.21206,-6.90432,-3.12822,-16.57244,47.43549,-40.77696,-8.01367,13.24104,31.64647,-33.12048,-2.49502,3.51689,11.89442,2.34242,13.19385,-3.35567,-0.04424,-0.32583,13.36292,2.91499,15.49581,-0.78497,-0.2989,1.6893,2.28153,0.20829,2.05643
2652,-6.14798,-4.83228,-2.00402,9.70004,-19.5982,-1.00323,-45.48953,5.80544,-5.35464,2.06524,-26.12478,-10.59085,-49.84727,102.92372,-25.95205,-4.8419,-7.68025,-3.43729,-29.21482,49.57894,-32.34991,23.04405,-36.41519,15.95394,-20.51305,-6.76735,3.55,8.2627,3.57284,9.37536,-0.56609,-0.32525,1.00729,10.83509,4.92285,14.29202,-0.26928,0.06155,1.90636,1.49092,0.7806,1.57569
2653,-7.57538,-2.02689,-2.76979,12.09511,-20.44994,-0.80427,-39.35084,5.65593,-4.24572,2.39862,-21.75023,-5.10865,-52.40575,104.88172,-26.88923,-5.68894,-8.5634,-3.70422,-24.97864,49.0284,-21.41578,61.38059,-82.38605,24.61851,-11.54367,-2.29153,5.96521,10.71785,4.2617,12.34354,1.15461,0.61647,3.11847,7.3957,5.00989,12.68361,-0.03621,0.50226,1.85687,0.8447,1.05773,1.57732
2654,-8.94449,-1.31051,-2.52208,15.62595,-21.15353,-0.34596,-33.04474,10.54467,-2.15326,5.7081,-18.94753,1.67478,-54.62958,106.27936,-27.56034,-6.78709,-9.3838,-3.97381,-17.35356,56.20721,-8.79957,74.05362,-82.80768,50.47863,-2.35869,14.81811,13.52575,18.50507,6.52816,15.81663,6.3251,3.73168,9.29737,3.87176,5.80849,8.83718,0.69548,1.20888,2.36963,0.4857,1.26854,1.63014
2655,-10.5963,-3.26015,-1.0458,20.16419,-22.29796,0.16039,-29.15602,9.54849,0.62777,3.60701,-21.02432,4.26348,-56.23925,106.433,-27.85048,-8.23295,-10.0966,-4.34144,-19.00181,50.21643,0.07767,59.81722,-49.15821,72.79909,-1.08675,35.02912,20.88857,22.5565,10.39885,14.98894,12.9691,9.25811,14.87424,0.63114,7.57299,2.86019,1.70939,2.39059,3.0778,0.24103,1.51732,1.00782
2656,-11.3678,-5.7886,0.39065,25.28869,-23.21129,0.48666,-22.85431,-2.898,3.15534,-2.74382,-31.28716,-3.88063,-57.09206,104.67632,-27.59033,-10.09012,-10.68723,-4.76463,-21.3879,10.35944,-3.65177,40.6003,-10.49365,73.46594,-14.53541,35.58128,19.02581,18.04356,13.15965,10.67364,14.21947,10.92367,12.06629,-1.22099,9.19687,-0.95993,1.89687,2.99064,2.71889,0.01643,1.81657,0.14337
2657,-10.63512,-6.21323,0.54744,30.51873,-23.85659,0.79224,-11.65525,-14.93976,3.72677,-5.61221,-50.55094,-22.09766,-57.11928,100.82362,-26.67903,-12.36076,-11.17147,-5.12169,-9.90982,-51.01661,-25.00034,23.43612,26.71947,50.74788,-26.08081,15.21041,10.75424,10.30894,13.30293,1.57022,11.3927,6.22271,4.76401,-2.00622,11.12492,-1.56513,1.2781,2.3239,1.64444,-0.23565,2.28744,-0.4386
2658,-9.85286,-3.68023,-0.30014,36.70367,-24.66671,1.38255,-4.10683,-10.30325,0.98633,-1.93459,-69.41811,-37.59261,-56.24405,95.19227,-25.15252,-14.88471,-11.65683,-5.41365,8.83774,-89.494,-52.61125,1.5861,55.89961,14.47344,-17.90817,-3.82472,3.00309,5.44487,11.4359,-14.50365,11.03198,0.97549,-0.68665,-3.13961,13.35914,-2.97432,0.85571,1.10807,0.69215,-0.54359,2.83763,-1.02609
2659,-10.03977,-0.4005,-0.79842,45.60733,-23.82919,1.99549,-5.62336,7.91799,-2.97405,0.66507,-69.77592,-35.17752,-54.28332,87.97027,-23.09842,-17.47252,-12.17652,-5.69273,14.26928,-74.2821,-60.57228,-13.62827,59.43814,-18.79515,0.52865,-7.2477,-2.28187,3.48525,8.20379,-30.99654,13.19048,-0.50786,-3.66364,-4.5739,13.8334,-6.59051,1.0111,0.11824,-0.02088,-0.8535,2.91118,-1.67547
2660,-10.29024,1.19273,-0.25645,57.25643,-19.91415,2.19567,-6.41044,23.04119,-3.67385,-8.66038,-46.46931,-14.75867,-50.94516,78.96474,-20.54925,-20.16559,-12.60933,-5.89487,1.26011,-22.72994,-35.10592,-2.89203,49.55177,-33.92522,7.76528,1.7886,-4.72865,0.81671,3.21929,-38.1548,13.56032,2.65372,-4.70449,-4.95742,10.65918,-9.24247,1.39924,0.04228,-0.63259,-0.98196,2.13785,-1.89446
2661,-9.38122,0.88561,0.86263,69.95363,-15.3649,2.24065,4.09395,29.42144,-0.26827,-31.39441,-18.02801,7.00791,-46.15981,68.22884,-17.50534,-23.41332,-12.9205,-5.95673,-18.67936,21.88427,5.71075,27.42302,56.81322,-33.08324,0.25697,14.187,-4.81788,-3.21855,-2.7224,-37.18153,10.28065,9.63295,-4.41551,-4.19638,5.17637,-10.51269,1.30616,1.23543,-1.37447,-0.90007,0.89103,-1.86186
2662,-6.68985,0.50431,1.37384,81.52183,-12.07412,2.46191,22.70673,35.26283,2.99884,-59.47739,-4.24119,14.95044,-40.36839,56.68061,-14.06812,-27.90143,-13.23066,-5.9845,-39.00717,35.24646,31.92529,50.53401,81.25935,-32.09145,-6.27517,23.41709,-5.50501,-6.39056,-7.55366,-35.61956,5.71731,16.57605,-4.61419,-3.43382,0.45166,-12.2738,0.31588,2.77945,-2.05443,-0.84898,-0.14426,-1.99016
2663,-1.81417,3.20763,-0.51436,90.68204,-8.2564,2.62009,40.79528,47.15414,2.71283,-80.73995,-4.59039,10.45838,-34.1529,45.83402,-10.5851,-33.64541,-13.70257,-6.13511,-55.02533,27.6121,35.61282,46.86484,101.47259,-41.98787,2.76435,25.98356,-10.243,-7.9628,-10.30176,-36.64559,4.56864,18.95675,-7.51976,-3.47861,-1.82958,-14.26025,-0.6938,3.2107,-2.18392,-1.01656,-0.61724,-2.16239
2664,4.29929,10.43827,-5.6409,99.19723,-2.6527,2.84781,54.51782,61.02914,0.73243,-84.31832,-7.38598,5.7543,-27.82827,36.68929,-7.61746,-39.55942,-14.34731,-6.35683,-55.77967,18.10348,32.4022,26.25545,106.29494,-53.41033,21.93829,24.19581,-17.9921,-9.13172,-11.06843,-37.76422,7.23645,16.69085,-12.53031,-4.49539,-1.8866,-15.05172,-0.69726,2.3948,-1.88808,-1.51463,-0.62163,-2.22424
2665,8.55116,18.76346,-11.84817,109.6386,2.94961,3.99394,63.96257,66.09087,1.27951,-69.07314,-9.83395,6.2787,-21.6618,28.93814,-5.55276,-44.66483,-14.94017,-6.43294,-35.13835,3.64896,34.2059,14.46503,95.03753,-50.77469,34.3582,23.74299,-23.68799,-10.39044,-10.35142,-35.07003,8.97744,13.37057,-15.77905,-5.62011,-0.82854,-13.32187,-0.19091,1.43956,-1.54844,-2.17351,-0.25748,-2.05305
2666,8.8667,22.89203,-15.79995,121.26821,7.72781,6.05561,71.72931,54.55299,5.60605,-44.0275,-15.30431,6.36157,-15.99511,21.6427,-4.27618,-49.02045,-15.37233,-6.26312,3.31573,-31.98804,36.14593,11.90085,72.6701,-46.24213,35.78754,26.08331,-25.47325,-9.89947,-8.97497,-30.6833,7.88598,11.63329,-15.80131,-5.91691,0.83415,-9.74044,0.09052,1.08598,-1.28449,-2.49525,0.48326,-1.53156
2667,6.53644,19.90893,-15.39059,130.3176,14.0129,7.64468,78.58442,26.51906,11.70269,-26.72682,-17.96216,2.58217,-11.04602,14.46421,-3.32359,-53.02507,-15.84982,-5.95451,37.65237,-85.30792,33.18596,-2.29065,56.43968,-63.49001,35.00423,25.79515,-26.43515,-7.64818,-9.48467,-31.13517,6.65513,10.682,-15.84068,-5.54776,2.28219,-7.14911,0.33675,1.08392,-1.37925,-2.23281,1.23279,-0.87875
2668,3.50749,11.65983,-10.70634,134.7744,22.64917,8.09947,79.186,-3.46287,16.05028,-33.39061,-11.02419,-0.32707,-7.00288,8.03263,-2.31374,-56.49782,-16.5252,-5.65875,35.35184,-125.93696,30.18381,-29.26129,64.87336,-94.6381,36.86379,21.02344,-29.34991,-7.51882,-14.1442,-36.47083,6.50854,9.33974,-18.38968,-5.26438,1.72716,-6.97048,0.65216,1.00394,-1.92535,-1.71178,1.48134,-0.50442
2669,0.5537,4.02633,-5.01532,135.84073,31.17211,8.35847,72.97997,-13.03151,17.0543,-56.28666,-1.91165,0.34932,-4.17327,3.24994,-1.22219,-58.81592,-17.18073,-5.41288,1.62796,-129.52802,31.45118,-46.57864,91.80588,-115.48655,39.13125,18.85544,-34.74007,-10.67095,-20.20882,-40.34486,5.97022,7.8867,-22.24738,-5.27913,-0.46676,-7.79394,0.76275,0.75163,-2.50012,-1.32754,1.35283,-0.49111
2670,-1.66674,0.74393,-1.93845,133.57155,36.86111,9.24461,71.62852,0.78688,18.63013,-70.08399,-3.9135,-0.32732,-2.68567,0.3753,-0.23631,-59.53675,-17.65316,-5.15152,-17.45596,-109.57893,35.14624,-40.46865,114.73412,-119.02454,38.13224,21.68743,-39.75491,-12.34745,-22.73991,-40.08082,4.22173,5.95819,-24.30285,-4.73899,-1.35847,-8.02925,0.64312,0.32647,-2.61463,-0.96786,1.33413,-0.6568
2671,-1.16093,-2.10396,-0.55644,127.79383,41.03441,10.29191,89.4406,10.12562,27.07959,-61.14948,-11.86427,-3.67877,-0.32815,-3.1247,0.82234,-58.62526,-18.07264,-4.75173,14.95123,-99.72332,43.98586,-19.71502,129.91682,-103.90631,30.56652,20.63951,-37.94721,-8.89312,-21.15237,-37.19293,1.84508,3.64042,-22.28277,-2.54426,0.24147,-7.12215,0.4351,-0.04349,-2.23209,-0.29178,1.48496,-0.8271
2672,0.06113,-0.84597,-2.05316,119.95656,45.86745,11.01158,109.22867,6.59309,34.11297,-42.36762,-10.26579,-3.69619,-0.48388,-2.26725,0.78711,-56.60289,-18.64336,-4.13551,67.53815,-97.2001,51.10852,-1.59985,145.24998,-64.5909,17.07902,9.47798,-26.14962,-3.49723,-18.17191,-30.33374,-0.23606,2.36929,-16.63316,0.96395,1.9047,-4.15308,0.17525,-0.04302,-1.72167,0.65839,1.43718,-0.8376
2673,-4.71153,-1.9719,3.10562,111.48544,49.04185,11.83727,106.17719,-31.17054,38.59263,-34.51939,-1.30007,1.27176,-0.09174,-1.58571,0.84535,-54.30259,-19.39431,-3.36063,88.286,-131.20734,53.34233,-3.32053,151.27815,-23.68089,6.42693,-2.21322,-13.59195,-1.11956,-15.54294,-18.80816,-1.35977,2.58182,-11.41982,3.42792,1.32114,0.98341,-0.05719,0.19492,-1.50945,1.37169,0.92093,-0.49812
2674,-10.96418,-6.80034,15.02637,103.56744,49.27512,12.95636,77.39404,-72.61117,38.16384,-37.85401,5.62304,6.55631,0.67252,-1.6182,1.43454,-52.16033,-20.02378,-2.55844,63.98125,-170.43599,46.99664,-31.46008,137.42722,-30.30836,6.75151,0.2662,-14.72183,-3.10241,-15.29926,-11.55993,-2.32875,3.55019,-11.13823,2.95714,-0.07956,4.63416,-0.21778,0.34763,-1.67426,1.44649,0.37617,0.02007
2675,-8.55993,-9.87635,20.04492,95.46724,50.56002,13.71919,54.28741,-65.88716,36.68148,-41.26305,12.96347,9.62701,1.71013,-1.94612,1.9965,-50.15803,-20.28135,-1.82785,36.80498,-150.24867,46.39032,-64.3336,115.98111,-86.24226,13.35604,13.78887,-27.91212,-9.76076,-19.20946,-17.49931,-4.16129,4.50554,-14.46152,0.3005,-0.31557,2.62173,-0.35986,0.33025,-1.83942,1.03037,0.50032,-0.01933
2676,-1.94511,-8.52021,15.28038,83.53802,53.28532,13.81633,47.38529,-20.54806,39.49098,-46.08008,16.95542,9.87206,2.29604,-2.06843,2.20036,-48.402,-20.48736,-1.19349,24.15478,-90.74548,55.74548,-68.7767,108.3811,-120.32624,14.01312,20.3627,-33.97998,-17.46627,-22.82963,-29.91959,-5.74496,4.84281,-15.13351,-1.45515,0.49313,-3.50898,-0.47708,0.22818,-1.58338,0.8051,1.25225,-1.07994
2677,-2.38351,-6.95485,12.61924,67.20351,53.26867,13.67277,39.93597,8.49158,42.34189,-56.35722,7.08502,6.75829,1.9375,-2.19289,2.492,-47.06332,-20.99462,-0.60765,8.90478,-67.11683,57.03202,-41.19556,109.01062,-89.86171,7.78463,14.09732,-26.60556,-18.14258,-19.68858,-33.21111,-5.9135,3.93443,-12.11672,0.08121,1.32928,-7.53763,-0.5262,0.09407,-1.06905,1.20311,1.73612,-2.39713
2678,-5.82225,-6.20808,11.07587,51.62426,50.38659,13.83927,27.30631,17.9935,41.01183,-58.80033,-8.51239,3.07494,1.5449,-2.42546,2.69301,-46.04279,-21.73258,-0.02061,-3.44663,-66.33192,48.97311,-9.99243,87.58145,-47.13619,4.53351,7.64748,-21.72148,-11.85447,-11.58868,-23.64522,-6.03093,2.24629,-10.25846,3.81005,1.72218,-5.47866,-0.57901,0.01594,-0.82217,2.02559,1.34702,-2.66731
2679,-3.56959,-2.58446,1.24807,41.39462,48.59175,14.71001,10.50758,36.991,38.48666,-34.54012,-8.72395,3.45944,1.73609,-2.29371,2.27227,-44.96282,-22.50294,0.57867,4.96464,-28.52847,45.91198,1.88571,43.3532,-46.5502,7.14175,9.3527,-26.3938,-5.93469,-6.22647,-13.36905,-6.64828,2.37409,-10.40845,7.35625,1.72118,-0.45649,-0.64508,0.22773,-0.84253,2.94125,0.38713,-1.7749
2680,1.26256,2.87572,-11.0096,35.73642,50.54502,16.3348,1.28586,54.32015,37.97332,8.91334,9.99734,8.11843,1.91243,-1.55118,1.48342,-43.16386,-22.86664,1.3322,43.6045,24.67884,50.1379,-9.92597,21.52846,-67.44532,9.61631,13.40738,-30.49116,-1.56317,-7.4096,-11.8335,-6.27268,5.27293,-10.19111,10.08575,0.80901,1.53178,-0.61337,0.65083,-0.80208,3.61241,-0.60129,-0.86912
2681,1.34251,3.0766,-9.25872,28.81543,53.19628,17.81696,21.76674,41.49329,41.69493,36.88245,23.35902,11.07888,1.77786,-0.69801,1.29938,-40.38369,-22.37217,2.41497,103.95315,20.62264,54.21423,-39.94541,49.36472,-68.98135,8.5416,13.1251,-28.23903,2.88093,-11.34055,-14.26686,-5.00746,8.19198,-9.44179,11.68106,-0.93681,0.45972,-0.5126,0.90304,-0.66234,3.75171,-1.3295,-0.46806
2682,-3.80353,-4.84453,9.12256,15.81481,49.48292,17.50756,63.37817,6.44081,48.57503,29.13963,8.6779,7.0401,1.67339,-0.35456,2.31936,-37.32318,-21.37774,3.60035,148.22375,-46.81786,50.55692,-68.77375,89.6905,-47.71117,6.1298,8.02854,-23.43731,3.78091,-10.03112,-11.42352,-4.0324,8.80704,-8.82921,10.36285,-1.35439,1.09591,-0.40627,0.82936,-0.53088,3.17497,-1.53982,-0.04942
2683,-7.72324,-14.68314,28.32077,2.05347,37.64594,15.55222,91.38802,-19.82513,53.06964,8.89912,-25.83945,-1.6794,1.81833,-0.48187,3.8738,-34.53106,-20.75709,4.40226,152.42984,-113.05127,39.013,-66.46624,85.75571,-19.14833,4.21493,-0.16286,-19.30428,1.0389,-0.74752,-1.96059,-3.67333,7.19914,-8.20529,6.779,0.65415,4.56466,-0.27294,0.5122,-0.42597,2.21716,-1.31866,0.5105
2684,-5.3307,-17.20031,32.13615,-4.04979,29.07102,14.47044,87.18239,-20.65494,52.16963,6.03156,-41.53666,-5.20535,2.14167,-0.47494,4.69295,-31.62331,-20.50034,4.79605,130.02591,-114.60962,32.40992,-35.34686,30.0893,6.43238,2.28872,-7.73245,-16.65386,3.8025,8.42747,9.70334,-3.99257,5.0489,-7.58316,5.6778,2.22187,8.24893,-0.20904,0.22989,-0.37279,1.55829,-1.34477,0.89105
2685,-0.44168,-8.4005,15.48313,-6.86097,33.91653,15.14813,47.73589,-2.07032,41.40952,10.6795,-16.75907,1.16884,2.12438,0.08246,3.96038,-28.33065,-19.81509,5.20238,81.53167,-48.69746,28.99796,-24.13319,-30.22479,11.25783,0.77721,-10.67406,-17.98219,12.02223,7.3358,15.35433,-4.78863,4.18587,-7.54186,7.81277,0.28473,9.26161,-0.28987,0.27951,-0.44659,1.30679,-1.82712,0.90468
2686,0.75663,7.40526,-13.90254,-15.60764,44.56335,15.32534,-10.64932,19.2316,16.49498,2.19965,18.02692,7.15208,1.34049,0.95021,1.76906,-25.06231,-18.43149,5.76204,14.67971,20.81383,5.53771,-58.791,-47.76944,-16.21205,0.94588,-9.28657,-22.34556,13.46288,-1.9035,9.43804,-4.4233,5.08214,-7.92212,8.58387,-3.4047,6.86264,-0.24225,0.62165,-0.58998,1.19496,-2.28947,0.61537
2687,-1.98792,19.7044,-36.68497,-27.39548,39.99903,12.3156,-45.4882,30.03886,-12.39752,-9.38509,1.62901,-3.16364,0.18349,1.54891,-0.80452,-22.1524,-17.56152,5.95956,-15.48278,8.46002,-43.85246,-96.36802,-16.21753,-51.67584,2.53545,-6.03767,-21.83669,3.48613,-5.82087,-1.58213,-1.26788,6.69281,-7.83963,5.31177,-3.80718,3.48768,0.19646,0.95856,-0.6588,0.94206,-2.11776,0.33992
2688,-5.2164,18.59405,-38.09569,-28.83676,18.01503,7.79305,-32.93881,28.32457,-21.13835,4.06475,-58.96761,-24.06454,-0.54126,1.44582,-2.23514,-19.0872,-18.15321,5.49926,29.61613,-68.37613,-79.31738,-83.03783,30.98797,-58.54839,4.48605,-2.44207,-10.76063,-8.92248,3.85544,-6.1783,3.76163,7.44247,-6.55013,0.34272,1.36422,2.05038,0.89244,1.06117,-0.52211,0.51584,-0.97819,0.25695
2689,-3.18602,6.74336,-16.75532,-21.83215,4.45202,6.09656,7.2029,21.21924,17.13137,21.96357,-76.66425,-28.99126,-0.29822,0.80251,-1.02881,-15.82859,-19.14609,4.93427,85.9159,-86.44372,-34.45468,-31.66326,46.33586,-34.57781,6.52271,-0.13504,5.32118,-9.03145,15.43962,1.06802,8.18303,6.45716,-3.89498,-0.74567,6.65301,3.95083,1.57066,0.85519,-0.09225,0.28321,0.18457,0.4812
2690,3.91318,-4.12828,13.67201,-18.94243,5.16445,6.69188,36.56172,12.2443,85.38315,10.23186,-45.8533,-15.7684,0.54222,0.08106,2.12859,-13.0894,-20.06945,4.53276,77.41557,-41.35999,71.62594,-0.04004,13.10285,-13.67967,6.68729,-1.79647,12.53433,1.91276,13.08144,11.40345,8.9617,4.14096,-1.36337,2.09118,5.16578,6.28575,1.81838,0.43464,0.36778,0.26982,0.15588,0.70483
2691,7.39645,-1.2452,24.63449,-17.983,5.61707,6.94612,25.42373,7.93766,118.42659,-8.27017,-23.73678,-4.06085,1.18529,0.3035,3.7563,-10.87013,-21.37325,4.01698,13.12503,-7.79098,126.81051,-9.3299,-28.89953,-12.43808,3.04012,-6.45943,4.62516,5.61258,7.64888,11.86403,5.61526,2.70238,-1.17094,2.10223,1.50275,4.65319,1.48937,0.24035,0.34021,0.11451,-0.42188,0.24652
2692,0.75429,26.88354,17.33143,-10.83777,2.99408,7.00067,-33.34958,25.80628,94.63376,-3.46613,-15.60204,-0.88657,0.90899,3.35691,4.42939,-8.61692,-22.92322,3.25155,-74.64217,24.96615,86.48009,-28.60525,-32.91755,-7.05983,-1.80261,-9.65254,-7.37018,0.23101,12.74303,6.6421,1.71505,2.92958,-2.67791,-1.10737,3.2707,1.65621,0.92098,0.34072,-0.09677,-0.19454,-0.34427,-0.42943
2693,-12.63223,55.20969,32.06168,1.53147,1.11389,7.43909,-95.39819,51.56934,59.38017,21.09106,-2.76803,-0.56144,-0.05139,6.74359,10.53513,-6.09491,-24.66218,2.2463,-127.00459,66.89726,16.28673,-30.14232,-1.26939,15.05633,-3.21655,-8.98266,-9.27831,-0.20058,9.76902,6.74669,0.6999,2.98437,-3.26774,-1.3022,4.32757,2.20886,0.51876,0.28497,-0.26839,-0.3341,-0.23473,-0.27479
2694,4.25033,8.26687,52.24775,9.87011,-1.97548,7.04879,-20.84692,13.73809,60.13419,39.63581,5.52124,1.18889,4.05313,0.76681,20.34403,-3.99824,-26.99071,0.9763,4.16906,25.02795,7.89536,-25.47198,40.23159,30.85634,-0.59124,-5.91937,-1.79544,5.4198,-8.86417,11.52774,2.25034,1.88183,-2.43703,1.27795,-0.82618,4.96619,0.43896,-0.06796,0.00288,-0.38785,-0.67012,0.45802
2695,63.37504,-67.29636,-39.90053,13.32963,-7.24685,5.81724,172.85031,-59.6557,20.20735,49.40963,2.38282,4.05551,15.37027,-7.09215,16.07312,-2.71018,-29.85551,-0.46756,272.45413,-78.63921,-3.95532,-29.46973,72.25074,32.18817,1.97419,-4.1088,5.21126,12.4954,-13.09992,18.78776,3.65174,0.43098,-1.2806,2.76269,-3.57453,7.88626,0.53814,-0.42746,0.33275,-0.47736,-0.71394,0.99752
2696,-2.25935,10.49757,-251.73839,18.38013,-14.64064,4.24112,26.14472,16.33453,-255.04599,67.59915,-4.67498,4.29015,5.0023,-0.26221,-5.16829,-1.47955,-32.87962,-1.88853,131.97864,-9.6133,-283.12961,-11.39238,68.18224,40.7335,1.26788,-5.74773,8.78475,18.64599,8.32807,24.26987,3.60275,-0.50941,-0.52468,2.97425,1.70244,9.55675,0.63351,-0.55334,0.40809,-0.34201,0.02754,1.04845
2697,-175.83531,116.03095,-336.09351,22.31915,-24.67466,1.56219,-399.94662,145.06889,-522.68829,79.54047,-16.57617,-1.51836,-22.96764,-2.5047,-33.19011,0.11645,-35.89526,-3.12471,-349.77725,135.0076,-588.91223,48.59152,12.62643,71.58289,-1.65246,-9.45373,12.54109,20.75731,23.88056,24.99816,2.82988,-0.91405,-0.34574,3.63918,6.9711,9.35384,0.57408,-0.49619,0.25955,0.03098,0.61002,0.87046
2698,-207.38004,113.76334,-293.03186,27.77057,-31.83971,-0.71771,-484.45078,160.41624,-547.71118,82.82433,-27.45828,-8.46873,-30.93364,0.87683,-49.47553,2.22925,-38.44778,-4.34152,-456.66833,152.15714,-645.18677,102.84039,-56.00542,99.02179,-3.86407,-12.45193,17.05976,14.04782,13.99954,18.40751,2.36696,-1.29901,-0.38394,3.78043,4.67245,7.01827,0.36254,-0.46877,0.16648,0.23827,0.28076,0.70991
2699,-144.3405,84.08235,-237.57484,36.25514,-35.23669,-1.73095,-318.47321,120.85541,-440.96439,84.90689,-35.34259,-10.29939,-20.01423,7.99864,-30.90869,4.43712,-40.22779,-5.69626,-286.599,101.13435,-548.30396,90.89568,-73.90582,96.10566,-3.70562,-12.72852,19.30233,5.00991,-2.00142,10.20055,2.61705,-1.68101,-0.49112,2.5747,-0.61384,4.24112,0.20934,-0.50726,0.21177,0.10751,-0.47521,0.51877
2700,-50.09203,34.73095,-116.64746,40.28118,-38.32709,-2.45199,-109.36124,36.6325,-187.57883,77.9895,-43.26473,-7.7058,-0.58208,4.43387,-1.92022,5.90449,-41.44021,-6.78368,-70.26562,0.10919,-258.121,21.06489,-16.12814,69.85311,-1.25855,-10.01487,18.10063,4.24862,-3.67311,9.16005,3.11052,-1.97726,-0.72587,1.88512,-1.23572,3.46114,0.21494,-0.49508,0.19461,-0.04507,-0.64616,0.35584
2701,17.90339,-1.04372,-50.04255,38.59974,-41.48291,-3.37011,-3.79035,2.73166,-106.99632,61.82332,-48.24548,-5.00906,10.12802,-1.63405,6.8671,6.60235,-42.65277,-7.48364,36.69461,-42.48955,-145.60716,-38.63032,82.564,37.77412,1.57315,-5.93842,14.70534,8.52008,4.0139,12.07971,2.5589,-2.38189,-0.6554,2.59483,1.92638,4.22214,0.17272,-0.40379,0.02473,0.02345,-0.18331,0.33743
2702,26.8765,-4.81003,-73.3905,37.12595,-43.78716,-4.5281,-7.92875,39.96799,-220.05025,49.0129,-50.47049,-5.43386,8.3187,-2.86561,0.09786,7.00979,-44.09837,-8.33463,33.7139,-7.70114,-261.17902,-37.10861,149.51785,14.77681,3.81043,-2.59661,11.96553,9.43449,7.04696,12.38531,1.45029,-2.7233,-0.32882,3.44908,3.54881,4.73035,0.04572,-0.28134,-0.14303,0.20586,0.2179,0.34212
2703,8.38292,2.65888,-80.73719,39.21818,-45.12949,-5.88661,-34.74566,72.63586,-263.31088,48.94031,-56.41925,-9.24395,2.35356,-1.79597,-3.94597,7.30273,-45.34628,-9.70723,12.39048,13.29618,-326.46362,2.37393,124.11121,8.60227,5.67377,-2.44154,13.42457,7.37296,6.58608,9.65818,1.83908,-3.40135,-0.0437,3.62563,2.99916,4.45657,0.11769,-0.33036,-0.05317,0.33207,0.29262,0.25748
2704,-15.65899,11.55347,-54.23799,44.70903,-45.10034,-6.90611,-73.83009,67.84688,-193.32703,60.64724,-64.9711,-13.41102,-1.87022,-1.23596,-2.09461,7.48251,-45.81876,-11.28543,-24.85928,-7.26936,-275.51263,21.37292,28.81951,14.27674,4.18252,-5.3632,16.96951,8.33474,12.32962,7.41986,2.65073,-3.84518,0.46059,3.90173,3.59047,4.48057,0.27306,-0.50285,0.27685,0.37543,0.38414,0.28027
2705,-26.32712,14.37104,-18.54004,50.96297,-44.79674,-7.37635,-86.97361,28.46747,-62.21552,73.8907,-69.41533,-14.84479,-3.04213,-0.98915,0.71955,7.39487,-45.57395,-12.55248,-29.08311,-55.93449,-121.84013,22.96161,-46.50148,29.90041,0.42057,-7.72698,17.67853,11.60346,17.39427,8.61369,2.53333,-3.56535,0.92344,4.19584,4.49796,5.52565,0.30916,-0.60919,0.51376,0.29433,0.53473,0.57116
2706,-28.57976,13.43506,15.4277,53.78597,-45.41174,-7.69907,-81.57318,-25.93472,94.59092,78.57349,-65.91393,-12.75115,-3.03581,-0.24523,1.70435,6.6392,-45.12734,-13.39763,-7.94294,-106.22742,112.14304,41.05698,-52.52859,61.17131,-0.91598,-7.74182,16.10601,14.25866,8.72298,16.23517,2.04517,-3.49309,0.8478,3.89125,2.67087,7.83492,0.23402,-0.65165,0.48559,0.06392,0.47742,1.09334
2707,-31.07772,14.72717,35.47114,51.34315,-45.31413,-8.05417,-76.36443,-62.59415,203.18901,74.83137,-59.05745,-9.37538,-3.24713,0.73018,1.02027,4.89702,-44.75556,-14.01916,12.28778,-134.66824,294.25351,54.94717,-19.41471,92.49117,0.72374,-7.04821,16.62113,16.76022,-7.70261,26.18062,1.64979,-4.38136,0.71316,3.16244,-0.92151,9.94959,0.09446,-0.68766,0.37231,-0.21967,0.14671,1.55449
2708,-16.78967,8.42913,18.21713,49.32895,-43.85559,-8.13266,-14.9255,-58.49846,160.20995,79.40922,-59.77805,-8.88137,-1.5225,1.12861,-0.6901,2.44244,-44.60588,-14.62442,103.64203,-142.29163,238.61031,22.20994,8.3853,95.39787,2.01406,-6.86214,19.29184,19.3687,-16.56747,30.53009,0.85944,-5.64628,1.49305,2.71332,-3.03058,10.04346,-0.07158,-0.75877,0.42028,-0.38975,-0.23248,1.564
2709,4.05698,-2.37416,-26.0578,50.60177,-41.92645,-7.67764,63.48425,-14.70977,-15.48515,93.43934,-66.07861,-11.53726,1.29914,1.08415,-2.66855,-0.47592,-44.58066,-15.00981,208.33173,-115.98515,-27.6301,-36.65074,11.78162,72.82489,0.37148,-7.16066,20.79328,21.1098,-15.31413,29.98368,-0.28498,-6.04356,2.75585,3.44677,-2.62767,9.15557,-0.19861,-0.86025,0.59996,-0.2453,-0.33663,1.20259
2710,-5.77098,10.39586,-35.686,49.90852,-38.05607,-6.66532,30.52087,42.98227,-134.75554,93.90385,-62.3958,-12.43344,-0.47983,1.58082,-2.5467,-3.68054,-44.08633,-14.74137,149.81668,-38.56353,-213.61148,-60.37937,-9.91531,51.69073,-2.78162,-8.09643,21.22535,19.62351,-11.1617,28.10077,-0.42547,-5.74229,2.79704,4.76839,-1.65131,8.87444,-0.15962,-0.98153,0.65033,0.09483,-0.19365,0.95503
2711,-32.96434,43.00409,-2.39114,44.77299,-32.52699,-5.645,-72.76074,80.26904,-108.54476,75.59017,-51.86378,-10.21081,-5.73861,3.04295,-0.25757,-6.51327,-43.03429,-14.09052,-13.89776,38.85035,-181.3493,-32.63421,-29.08668,42.63514,-3.18982,-7.73874,20.70786,13.34426,-7.61198,23.13778,0.70752,-5.16546,1.21121,4.71963,-1.79112,8.46735,0.00514,-0.95336,0.44017,0.23439,-0.10342,1.00365
2712,-38.11561,54.76783,12.58472,39.44499,-27.47403,-5.08499,-107.45151,77.83739,-43.03395,59.05261,-48.79748,-8.58323,-6.96018,3.51708,1.26305,-8.51153,-41.97641,-13.76473,-83.77718,47.51507,-85.44979,14.3197,-20.53156,41.51519,1.7637,-4.03013,16.98771,5.682,-5.56789,16.13097,1.40203,-4.49007,-0.03577,3.05026,-2.95078,7.71121,0.05124,-0.7219,0.22326,0.03184,-0.19629,1.26482
2713,-23.98604,37.45149,-8.6253,38.05318,-23.0642,-4.60413,-67.24497,48.70764,-18.34226,59.79873,-47.20744,-8.8042,-3.41551,1.85851,0.97363,-10.01839,-41.14793,-13.81505,-36.52257,8.63231,-45.87439,52.10762,-8.39267,43.5703,8.08089,0.69131,10.21622,2.50937,-4.17091,11.6953,0.26341,-4.08409,0.85317,1.75844,-3.69218,7.47208,-0.15858,-0.5234,0.29093,-0.24677,-0.33349,1.57925
2714,-15.0954,20.36261,-33.77851,36.98484,-20.47915,-4.2853,-34.46646,24.72545,-23.01456,68.36225,-39.20404,-8.93541,-0.40517,0.25506,-0.2156,-11.70522,-40.53551,-13.84387,17.27413,-12.39975,-45.86079,64.28168,-16.78674,43.81685,9.20873,2.21011,4.177,4.93166,-2.93983,11.1651,-1.45896,-3.80834,2.64692,2.06212,-2.74888,7.1753,-0.41598,-0.47146,0.51528,-0.24037,-0.27766,1.55625
2715,-16.47627,18.60023,-42.26088,31.2808,-20.40375,-4.55331,-39.1062,20.62032,-37.58665,70.20054,-36.15091,-8.26468,-0.09551,0.33443,-1.25423,-13.53841,-40.04397,-13.74484,29.0306,-12.53865,-61.56454,43.32947,-17.70659,43.22143,4.80816,-0.01746,3.02597,10.15671,-4.79676,13.89898,-1.2257,-3.32698,2.61267,3.14809,-1.16002,6.2892,-0.36703,-0.42974,0.54936,0.03473,-0.02423,1.06419
2716,-17.96217,21.27019,-35.88864,23.71574,-18.6358,-4.7596,-49.89544,25.38658,-50.95249,64.20901,-42.49266,-7.24861,-0.99692,0.92858,-1.47534,-14.91873,-39.3896,-13.56389,29.4064,-24.805,-83.04029,9.25624,10.09784,45.14446,-1.16755,-2.76115,6.23878,15.92251,-9.54642,18.14444,0.9364,-2.27082,0.32172,4.05783,-0.93825,5.69122,-0.03638,-0.25193,0.29787,0.27146,0.1228,0.54756
2717,-13.8154,19.05329,-20.87976,20.14074,-12.64033,-4.11836,-42.37871,24.1977,-38.67415,59.04089,-42.89722,-6.33261,-1.40419,0.93061,-0.65661,-15.79414,-38.66185,-13.24921,43.20099,-42.19441,-73.11746,-10.873,36.02868,43.10518,-5.30798,-3.78163,7.66087,19.3651,-12.81386,20.32392,2.3162,-0.9555,-1.82047,4.74066,-2.1869,5.87434,0.16691,-0.05691,-0.01667,0.39627,-0.00712,0.45219
2718,-5.09817,13.65931,-2.47046,19.61327,-6.71571,-3.34494,-19.65304,14.62462,6.06389,58.75464,-27.55565,-6.28933,-0.61805,0.54748,0.55037,-16.765,-38.40686,-12.81898,68.59728,-36.56774,-15.56461,-22.87202,32.48055,28.21808,-4.39146,-3.43282,3.09357,17.89424,-12.02345,18.16864,1.47942,-0.73458,-1.75871,4.97939,-3.18473,5.88336,0.07956,-0.09943,-0.15491,0.48704,-0.21015,0.65517
2719,3.01773,10.41755,10.26903,17.16384,-4.18369,-3.46597,1.46441,5.99021,48.18179,55.97544,-5.01452,-7.07806,0.75295,0.30915,1.09603,-18.05128,-38.73573,-12.44568,85.53819,-8.83221,41.40531,-37.32767,9.13121,9.69161,1.11215,-2.52661,-2.97634,11.73709,-9.55138,13.24942,-0.21996,-1.92416,-0.00933,3.94331,-3.48555,5.13793,-0.08194,-0.33993,-0.06412,0.33407,-0.37879,0.81489
2720,4.44428,12.176,9.08808,10.53784,-3.70645,-4.42784,8.10936,5.88606,57.93084,36.75772,5.94812,-7.85073,1.38337,0.41871,0.80994,-19.37984,-39.2338,-12.2791,65.36287,7.13563,52.44282,-31.20294,-8.94759,10.76424,5.17296,-1.05066,-3.49455,5.13935,-8.94533,9.51361,-1.21608,-2.8105,1.50967,2.09073,-3.81114,4.46066,-0.22341,-0.42531,0.12947,-0.13199,-0.53162,0.83147
2721,-1.10868,14.86545,-2.74468,3.99288,-3.35071,-5.13998,2.5042,10.05963,42.06877,8.88144,-2.65938,-7.79256,0.89728,0.56775,0.35846,-20.52102,-39.7206,-12.38338,19.05191,-10.5639,28.36598,4.40456,3.51609,34.86774,5.32152,1.53214,0.99287,3.41273,-10.25774,9.39368,-0.76312,-2.24823,1.27083,1.27918,-4.01857,4.53602,-0.28432,-0.18559,0.17074,-0.45352,-0.54499,0.78973
2722,-7.51514,11.87611,-12.81554,3.83894,-2.38248,-4.69747,-5.51373,9.27819,17.51129,1.82752,-17.03313,-6.33958,0.13387,0.17262,0.28207,-21.55204,-40.51328,-12.83446,-1.01712,-41.97287,-0.0946,27.50132,50.13085,52.88622,6.1066,4.82365,4.02046,6.54797,-11.05697,11.04843,0.86106,-1.31274,-0.23412,1.99702,-3.88121,4.83771,-0.14353,0.05103,0.02751,-0.35441,-0.48732,0.78743
2723,-10.08969,5.18689,-14.56182,7.35882,0.08977,-3.834,-12.53711,3.90759,-2.95967,16.59459,-17.79635,-4.28401,-0.28698,-0.60913,0.53821,-22.83054,-41.83528,-13.56832,15.14748,-50.33821,-15.2465,10.52164,92.52035,39.90482,9.2325,6.44417,1.67599,9.89835,-9.20487,10.8939,2.05714,-0.88785,-1.17927,3.05955,-3.32163,4.59096,0.04422,-0.0326,-0.01391,-0.06105,-0.49833,0.78255
2724,-10.39264,2.25311,-13.16999,8.06391,4.08876,-3.76037,-17.43911,1.71864,-10.3325,27.45132,-4.70481,-3.8009,-0.38741,-0.94735,0.70031,-24.37374,-43.49393,-14.37232,30.87354,-32.88818,-20.20186,-15.44169,80.10638,11.56482,10.23188,4.70839,-1.89288,10.48813,-6.81212,8.93173,1.95026,-1.02414,-0.82897,3.59677,-2.8039,4.12852,0.06103,-0.30808,0.175,0.1252,-0.52847,0.7381
2725,-12.46991,3.20969,-15.12008,4.76747,8.17891,-4.52123,-14.98303,2.41018,-10.59067,20.29362,8.1688,-5.8465,-0.22869,-0.71948,0.45571,-25.97132,-45.25828,-15.02482,24.16835,-21.28758,-35.46957,-15.98744,13.56404,2.55384,7.05172,2.28624,0.80584,9.52714,-6.80522,7.67914,1.90814,-2.28218,0.14683,3.86116,-2.6769,4.04973,0.06668,-0.50507,0.34987,0.17553,-0.44377,0.67667
2726,-17.07027,1.77936,-18.87128,-0.32478,10.33715,-5.48865,-4.53462,-2.49098,-18.28757,2.15126,11.59511,-8.77809,0.04689,-0.63304,-0.26667,-27.71774,-47.12349,-15.46838,6.94443,-35.40203,-66.22066,-2.22571,-45.14247,15.66123,3.58765,2.47013,7.20535,8.1587,-7.28789,6.99733,3.10419,-3.72167,0.59901,3.94414,-2.42892,3.9076,0.28754,-0.45931,0.27738,0.18397,-0.26181,0.57166
2727,-20.06374,-1.94939,-18.97451,-3.9601,9.94938,-6.00176,5.1026,-11.57006,-29.24383,-9.47814,7.10402,-9.4735,0.09085,-0.91759,-1.00464,-29.75486,-49.1619,-15.92877,3.01415,-57.4274,-82.73439,-1.75692,-44.76069,22.55308,3.06039,3.10614,6.36185,5.08225,-5.37566,4.59119,4.60028,-2.55251,-0.67461,3.22564,-1.9657,2.92788,0.60125,-0.14336,-0.03155,0.12443,-0.23465,0.37433
2728,-17.64792,-1.5481,-15.20869,-5.30283,11.15953,-5.77237,5.93538,-12.30414,-28.42653,-12.12316,8.73644,-6.40811,-0.11812,-0.94639,-1.01195,-32.11517,-51.24827,-16.52653,7.29428,-51.07587,-64.01052,-12.80774,-2.79038,11.93732,4.73378,1.2654,-2.601,1.70248,-2.98554,1.65295,5.14449,0.83946,-3.3124,2.31072,-1.79881,1.84152,0.75611,0.18462,-0.39824,0.08018,-0.41487,0.25145
2729,-14.28935,3.72625,-13.43663,-5.9391,15.95886,-5.35639,-2.77074,-1.1984,-16.75002,-16.16822,20.12207,-3.20737,-0.35435,-0.3943,-0.50624,-34.66689,-53.27475,-17.20884,-3.97113,-18.99077,-35.07068,-8.68958,25.60103,1.05705,7.16253,-0.53004,-9.13474,2.07907,-4.64524,1.67438,4.97682,2.58369,-5.00451,2.65198,-2.44899,1.9254,0.72659,0.23515,-0.59689,0.19205,-0.62684,0.39348
2730,-16.66481,8.0955,-15.63538,-6.88703,18.84424,-5.64231,-12.41331,12.4347,0.14162,-21.47736,23.52289,-4.71381,-0.57117,0.07376,-0.21339,-37.2179,-55.46517,-18.08143,-24.11284,-3.52962,-21.38725,19.00727,22.54645,0.39497,9.87313,1.09646,-8.26752,6.25573,-9.14602,4.36068,4.95771,1.50069,-4.46238,4.1865,-3.52737,2.92376,0.6488,0.10554,-0.54836,0.39712,-0.78433,0.66216
2731,-20.4439,6.71261,-14.82602,-8.55962,17.67233,-6.60583,-4.71721,16.89136,24.43146,-21.78741,15.9031,-8.87902,-0.54353,-0.36095,0.15553,-39.72775,-57.90438,-19.16602,-17.5096,-19.35405,-7.51204,44.30253,20.27546,-2.04134,12.47643,4.85163,-5.40317,8.168,-12.17097,5.46122,5.22527,0.42128,-3.22552,5.12372,-4.46347,3.34244,0.62989,0.14313,-0.44276,0.49612,-0.97133,0.75684
2732,-16.29778,0.62572,-6.81225,-11.23803,16.2592,-7.63214,32.73387,6.45428,53.675,-19.77754,11.90152,-10.62931,0.1305,-1.51075,1.18494,-42.08043,-60.30672,-20.26849,32.10859,-49.92004,25.6634,46.83235,40.42368,-13.61913,13.92404,6.90986,-5.49575,2.95326,-12.264,2.28769,5.4998,1.11968,-3.22504,4.12783,-4.82499,2.28335,0.66057,0.39666,-0.47636,0.40919,-1.15841,0.54571
2733,-6.01186,-3.7994,1.29851,-14.81871,18.72695,-8.26195,82.65996,-11.73,72.11508,-23.36776,22.57419,-8.19561,1.15575,-2.33964,2.16502,-44.06003,-62.32293,-21.15212,92.00176,-73.40156,61.54295,35.66997,65.16265,-19.79392,13.75764,5.68415,-6.97819,-5.50282,-9.24021,-2.46206,5.61523,1.89243,-3.85557,2.12709,-3.72671,0.75185,0.631,0.50905,-0.53229,0.26571,-1.05874,0.19519
2734,-0.34751,-1.56481,1.14868,-17.00008,24.59307,-8.34572,105.93634,-20.40119,66.51192,-30.52392,42.94479,-4.01294,1.44306,-2.10551,1.89001,-45.66681,-63.96694,-21.87008,114.07957,-73.43298,70.83061,22.10296,70.61216,-7.46227,12.93,2.98733,-6.11674,-8.39581,-5.34076,-3.96745,5.59848,0.64977,-3.06713,1.56173,-1.78162,0.38347,0.58532,0.24864,-0.37426,0.26686,-0.6835,-0.0171
2735,-4.93326,3.95597,-4.6652,-17.59231,27.52176,-8.75314,83.76807,-13.64237,42.1525,-40.91707,53.19172,-3.34247,0.57075,-1.18413,0.70978,-47.46997,-65.61167,-22.71849,74.37507,-58.58894,47.31199,7.39307,47.42601,12.52028,11.09753,1.4335,-1.98895,-3.70772,-6.50592,-2.21997,5.44456,-1.89988,-0.59822,3.38794,-1.7676,0.73162,0.67137,-0.14996,-0.02479,0.48036,-0.56033,-0.10154
2736,-16.67037,4.55476,-6.44711,-19.05308,24.04015,-10.11804,35.31097,-8.18102,14.70343,-57.00661,46.56403,-6.84154,-0.47322,-0.76905,0.23409,-49.9327,-67.34764,-23.77369,-7.5888,-52.12077,7.44672,2.56553,1.91271,21.05928,7.06273,1.74347,3.11644,2.09732,-13.53753,-0.99041,5.41593,-3.59467,1.60605,5.73952,-4.0961,0.34129,0.89547,-0.35663,0.27177,0.74194,-0.83828,-0.18047
2737,-26.89507,-1.56515,-0.4898,-21.71995,19.32165,-11.62215,0.85037,-18.8494,0.43041,-71.17146,40.04982,-9.02697,-0.54193,-1.50223,1.15064,-52.54556,-68.7991,-24.7957,-71.10011,-60.25776,-20.4278,21.49439,-31.24407,13.76174,4.04905,2.2789,4.64796,3.24445,-16.49448,-0.80596,5.6463,-3.3358,1.69874,5.7484,-4.68335,0.09931,1.05122,-0.29685,0.29621,0.71949,-0.90807,-0.07437
2738,-26.03567,-6.8078,6.05306,-23.43451,20.67724,-12.12416,5.9496,-31.22202,6.87781,-75.61485,48.17577,-7.54923,0.31813,-2.56236,2.32241,-54.34711,-69.48206,-25.435,-72.55467,-62.77045,-16.24781,55.26554,-11.90998,-1.95972,7.40823,0.90238,-0.82761,-0.16079,-11.30595,-0.48967,5.60984,-1.18939,-0.76762,3.319,-2.36544,1.06226,0.94167,-0.02126,-0.07669,0.4187,-0.58432,0.23321
2739,-14.35044,-5.32607,5.52908,-22.88909,26.67646,-11.7451,34.30955,-22.54066,22.77579,-72.87696,60.81969,-6.55101,1.04802,-2.80066,2.38052,-54.97188,-69.30318,-25.67907,-35.2283,-46.49443,6.9183,75.11653,48.9951,-17.36374,15.62204,-1.41792,-9.52559,-4.19418,-5.40622,-1.08315,5.13457,1.51246,-4.18788,1.72054,-0.47281,1.89647,0.67929,0.34156,-0.67056,0.32185,-0.34714,0.37943
2740,-2.24898,-0.01391,-0.1453,-20.4825,30.9486,-11.21309,55.43312,0.77881,31.70442,-63.79966,66.19722,-7.23844,1.05206,-2.14225,1.47109,-54.72983,-68.54079,-25.82786,2.41069,-22.50749,22.63787,59.54316,94.50638,-28.20433,21.75446,-0.73553,-13.86553,-4.7534,-2.65234,-2.15503,4.85796,2.88715,-5.8698,3.0538,-0.14224,2.02167,0.5653,0.60014,-1.06012,0.68782,-0.3451,0.28409
2741,3.0801,3.11892,-3.95649,-18.15362,32.15598,-10.74665,64.37273,7.62731,29.81627,-49.09142,68.48721,-6.15978,0.85862,-1.41912,0.66118,-54.03545,-67.28628,-25.91198,33.23845,-17.11974,22.15144,22.45071,90.75074,-39.63456,22.68433,3.79642,-11.76742,-2.74666,-5.21761,-4.39844,5.07138,2.35354,-4.71687,5.86292,-1.16322,0.49364,0.6987,0.63388,-0.97222,1.22867,-0.46603,-0.09971
2742,2.9404,1.25622,-2.30433,-20.57174,32.2846,-10.77954,67.75394,-17.28178,22.37294,-47.00802,68.95129,-4.27374,1.02507,-1.25914,0.52859,-53.13342,-65.45738,-25.67459,40.41711,-51.16359,10.79655,5.59755,57.22903,-52.69608,19.68315,7.71861,-6.70159,-3.77658,-13.81444,-10.49833,5.33966,0.80644,-2.07752,7.49643,-3.09958,-3.74688,0.89534,0.45906,-0.52018,1.54055,-0.60131,-0.86793
2743,1.75223,-2.41931,1.49323,-28.24505,33.90887,-11.40608,64.0136,-45.80041,15.96897,-68.73982,68.64655,-4.2183,1.40207,-1.40107,0.82624,-51.8571,-63.17864,-25.14192,6.48075,-92.57286,0.55809,26.47186,26.03824,-52.68853,14.94179,7.34135,-2.61206,-8.5017,-19.47334,-16.19302,5.25451,-0.52639,-0.10212,7.1118,-3.6754,-6.88404,0.92899,0.21145,-0.09626,1.48751,-0.55096,-1.40384
2744,1.95743,-2.92874,2.27381,-33.5872,37.68899,-11.93481,55.4556,-44.84826,14.12337,-94.73997,75.1265,-4.98828,1.61567,-1.30719,1.07632,-49.7287,-60.59761,-24.7661,-41.15821,-90.02312,1.35793,55.19215,10.51752,-34.10548,11.63284,3.76611,-1.59966,-11.13023,-14.95427,-14.6085,4.69343,-0.93428,0.17756,5.80381,-2.00693,-4.97425,0.75286,0.03532,0.03266,1.21401,-0.31765,-1.15645
2745,4.16218,-1.1526,0.64917,-31.30893,39.5645,-12.16958,53.94567,-27.34435,16.58227,-104.31799,86.30997,-5.3877,1.62643,-0.95981,1.14957,-46.72595,-57.43692,-24.77074,-60.46537,-57.10442,12.34525,59.43584,14.08596,-16.81111,11.31359,-0.01271,-3.28164,-9.78251,-7.03522,-9.00121,3.90616,-0.40181,-0.89255,4.29022,-0.22583,-1.46321,0.55523,0.00291,-0.1107,0.92482,-0.09253,-0.71334
2746,7.0648,-0.89401,0.07961,-25.8304,37.07164,-12.33596,62.02816,-22.85892,20.44642,-101.8942,92.41402,-5.04027,1.62124,-0.67064,1.14641,-43.49674,-53.22713,-24.63464,-50.83167,-40.00505,25.35867,45.92522,30.76097,-16.43631,12.04921,-1.60859,-5.18477,-8.04612,-4.08674,-6.61469,3.40611,0.43386,-2.15134,2.33571,0.3218,-1.0433,0.50588,0.10385,-0.35632,0.67981,0.07915,-0.66636
2747,8.34296,-1.00763,-0.16,-24.32793,34.73267,-12.11501,69.14137,-26.85168,21.24709,-100.78253,92.69709,-3.44291,1.70309,-0.57187,1.07685,-40.64084,-47.98973,-23.66253,-40.54004,-39.22257,31.35638,39.55785,42.13599,-25.17236,13.17703,0.40576,-5.35422,-7.17847,-4.3402,-6.53711,3.2794,0.68548,-2.22575,0.49649,0.30144,-2.0076,0.51742,0.24841,-0.48875,0.41375,0.18962,-0.62682
2748,8.42019,2.1384,-3.10305,-26.4502,36.58742,-11.06188,72.6254,-17.25732,16.81495,-97.35581,89.39258,-1.55108,1.85029,-0.59942,0.88117,-38.06409,-42.27256,-21.93385,-30.42309,-29.22801,25.72481,41.71949,36.17754,-32.55819,16.14276,4.73183,-4.3773,-4.39488,-4.32945,-5.2669,3.12714,0.22874,-1.01517,0.8275,0.41755,-1.59712,0.46386,0.33733,-0.42323,0.19414,0.17706,-0.301
2749,9.1134,6.52338,-7.32659,-27.77914,39.92896,-9.731,79.05602,3.15601,10.23237,-82.10396,79.39216,-1.67232,1.91692,-0.90463,0.58538,-35.30194,-36.77691,-20.21284,-2.25676,-14.02619,12.29011,34.28242,22.85253,-38.60215,18.5118,7.4839,-3.46157,-0.46447,-4.65734,-4.32622,2.79975,-0.27282,0.11156,3.58649,0.96116,-0.68905,0.3898,0.30475,-0.24726,0.21004,0.11543,-0.03567
2750,8.32606,5.43266,-7.32472,-27.07786,41.02485,-9.15734,83.3709,7.86419,7.28274,-62.2198,66.39296,-4.27458,1.64053,-1.88606,0.31607,-32.20777,-32.03284,-19.13265,28.26177,-20.45728,1.43424,19.00668,20.97246,-42.42382,15.73404,6.39179,-2.64368,-2.51475,-5.1994,-5.87625,2.90048,-0.34147,0.1051,4.93964,1.43674,-0.33243,0.41361,0.19317,-0.10461,0.38717,0.14714,-0.07616
2751,2.19605,-1.7376,-1.823,-25.96022,39.03168,-9.7317,68.87763,-12.36259,9.27434,-57.05924,59.51965,-7.66836,0.87825,-3.19244,0.10568,-29.13892,-28.11641,-18.7242,15.08385,-53.04517,-0.52306,19.09987,30.05314,-36.84788,8.86411,3.16672,-1.68254,-11.161,-4.85155,-8.75558,3.9086,-0.14327,-0.69395,2.06124,1.03057,-1.04393,0.56491,0.13578,-0.09417,0.30629,0.30278,-0.41818
2752,-5.72828,-8.00471,3.9244,-26.30604,36.00428,-10.68448,39.65226,-33.93539,12.10709,-74.23743,63.0852,-8.89634,0.00938,-3.62829,-0.03994,-26.40812,-24.54865,-18.39252,-46.45605,-75.78689,5.57726,39.81221,30.60169,-19.94833,3.08024,0.90863,-0.63146,-15.84488,-4.57598,-11.30882,5.14375,-0.20739,-1.22778,-2.54732,0.46311,-3.89857,0.74128,0.13134,-0.13654,-0.24259,0.53192,-1.01537
2753,-8.20032,-1.95552,3.26343,-28.80871,34.31883,-11.00071,20.0363,-23.64817,9.94766,-99.57712,71.30639,-7.02749,-3.84227,3.513,-1.03381,-23.94196,-20.89205,-17.51119,-105.28493,-46.4669,11.39303,55.23904,17.57479,-4.34606,1.04229,0.50203,-0.27894,-11.15453,-5.44188,-13.00927,5.20767,-0.31194,-1.35867,-4.60612,1.04229,-7.59248,0.73977,0.11984,-0.17056,-0.78277,0.73352,-1.51964
2754,-2.78977,2.02336,1.26369,-32.31876,34.0417,-10.59278,30.14572,-15.15732,10.03615,-113.61942,74.40163,-5.00483,-4.94988,7.57789,-1.40285,-21.70851,-17.3569,-16.09791,-109.72308,-17.64485,19.21475,42.50558,10.20329,-4.51664,2.39783,0.74257,-1.56496,-4.08405,-6.20424,-12.78497,3.56603,0.32394,-1.77767,-3.01555,2.20327,-8.39842,0.48967,0.16935,-0.29803,-0.72679,0.74894,-1.44475
2755,4.20534,5.76402,-1.05744,-34.09846,33.71581,-9.93167,50.46934,-15.98064,10.40626,-107.41798,69.68668,-4.71084,-6.04512,11.72726,-1.93783,-19.79103,-14.45075,-14.71096,-73.42313,-8.48161,21.26945,15.40159,20.53811,-15.86794,6.27904,0.86617,-3.46304,-1.6026,-5.46342,-9.56452,1.77016,1.15075,-2.23157,-0.37586,2.20959,-5.21306,0.31441,0.29707,-0.49851,-0.21182,0.48909,-0.8012
2756,9.09081,6.41297,-1.78098,-33.79081,32.22386,-9.37755,61.24287,-31.35008,9.83007,-89.88333,60.97484,-4.55854,-7.45284,15.90409,-2.66688,-18.17737,-12.28877,-13.71511,-34.87667,-25.23008,17.68756,10.8281,35.66379,-18.90267,10.30649,1.01154,-3.19732,-2.18425,-3.6045,-4.76013,2.07209,0.38111,-1.48142,0.42778,0.91289,-1.38191,0.53726,0.2932,-0.47491,0.14134,0.13591,-0.1293
2757,10.49602,3.23021,-0.48477,-33.38957,30.23404,-8.94061,59.62699,-53.99549,8.94276,-77.73005,54.6256,-2.88073,-9.52784,20.43106,-3.58412,-16.82806,-10.65175,-12.9968,-19.63231,-51.91147,15.48171,41.7778,34.86077,-6.41794,10.67914,1.32098,-0.01937,-1.87282,-1.4925,-1.17342,4.58367,-2.11181,0.39895,-0.37618,-0.10261,0.11665,0.91369,0.04498,-0.09833,0.10927,-0.01753,0.1195
2758,8.40028,1.66893,0.71625,-33.21493,27.86065,-8.77449,50.04711,-64.67536,8.20208,-75.82932,51.98452,-1.49632,-12.26402,25.79549,-4.75695,-15.81219,-9.56686,-12.4649,-27.9543,-63.64412,15.61983,79.65865,11.60778,7.81869,6.40923,2.31725,3.44676,-0.35008,0.02258,0.0843,6.7796,-4.04419,1.6688,-0.12111,0.1062,0.18816,0.91768,-0.21224,0.28096,-0.00597,0.05056,0.04316
2759,5.00053,7.76395,-0.50864,-32.45391,24.54746,-9.02837,36.48888,-51.0485,6.55788,-76.47058,48.40923,-2.89761,-15.16253,32.29944,-6.09654,-15.26353,-9.00543,-12.11527,-44.63823,-49.78276,11.84245,89.40624,-15.65849,9.22705,1.22499,4.08097,4.53185,0.40824,-0.37573,-0.90359,5.86255,-3.70753,1.57664,2.30184,1.08771,0.57535,0.39182,-0.26932,0.37944,0.05281,0.15445,-0.04439
2760,1.68779,18.17209,-2.98969,-31.33648,21.19277,-9.31816,20.35625,-26.89318,4.29993,-73.25404,41.67548,-5.84324,-17.86555,39.43103,-7.42484,-15.03055,-8.53677,-11.7856,-59.02479,-25.05701,3.3107,69.35272,-20.26352,-1.41131,-0.23815,5.01362,3.26436,-1.62736,-2.54401,-3.7517,2.05407,-1.94706,1.19146,4.64177,1.87389,0.98754,-0.24628,-0.23297,0.35432,0.17672,0.18877,-0.08122
2761,-2.48039,25.23813,-4.22351,-31.09175,19.03519,-9.26211,1.33517,-11.93828,2.57498,-69.39661,35.16678,-7.21146,-20.45076,46.42613,-8.72877,-14.62374,-7.95565,-11.3285,-74.67217,-3.94819,-4.66797,48.85854,-3.22202,-14.30201,2.41039,3.96851,1.38322,-7.24297,-4.26991,-7.17119,-1.18332,-0.54642,1.19852,4.38739,1.82113,0.51494,-0.41112,-0.1926,0.32617,0.15002,0.16217,-0.16622
2762,-7.2089,26.82918,-3.92523,-32.19124,19.07496,-8.67804,-15.55089,-7.7013,1.42985,-70.19908,36.23051,-4.84131,-23.03685,53.03791,-10.06336,-13.84911,-7.40998,-10.66471,-91.9978,21.85534,-6.14931,50.71476,6.63303,-20.63733,4.9325,1.69379,0.22902,-13.50336,-3.9644,-9.14119,-1.19711,-0.25344,1.0649,1.77006,1.07954,-0.68849,-0.02795,-0.12355,0.22306,-0.05079,0.12734,-0.31206
2763,-11.3814,26.90034,-3.53226,-33.1716,19.71144,-7.79757,-25.98723,-1.99542,0.00518,-71.53618,42.49028,-0.42712,-25.62266,59.3703,-11.39589,-13.06384,-6.96101,-9.82144,-100.84665,58.93204,-2.74082,63.59206,-6.36178,-14.23513,4.33331,-0.52413,0.04501,-13.86096,-2.36208,-8.18545,1.08296,-0.88905,0.49701,-1.50144,0.48437,-1.99434,0.3997,-0.0972,0.0907,-0.3608,0.1689,-0.44153
2764,-14.14052,29.1684,-4.03209,-32.78422,16.28093,-7.46179,-30.47091,12.43439,-2.33909,-67.00709,38.41071,0.58022,-28.15572,65.41843,-12.5545,-12.66674,-6.6179,-8.99976,-94.60953,89.44717,-3.65312,60.54681,-27.88074,3.80979,1.71198,-1.7315,0.37707,-5.08066,-1.53229,-5.25096,3.10047,-1.71293,-0.12264,-3.90621,0.9734,-3.05494,0.46974,-0.15779,0.03898,-0.64871,0.35451,-0.47882
2765,-14.27253,31.48438,-4.79854,-31.91514,8.5602,-7.91906,-30.27428,26.02008,-4.15033,-61.81051,23.26479,-2.86787,-30.54799,70.8651,-13.39024,-12.87437,-6.51918,-8.35396,-85.33035,96.75415,-9.3735,37.31924,-41.7122,21.74919,-0.36678,-1.36456,0.59114,6.53443,-2.20244,-2.09661,3.71109,-1.74765,-0.56271,-4.10783,1.84082,-2.94405,0.31986,-0.12539,0.01182,-0.65172,0.48656,-0.31796
2766,-12.01977,29.34302,-4.69184,-30.34845,2.47386,-8.18049,-27.08097,23.93453,-2.93977,-59.40929,15.25014,-5.18336,-32.71576,75.42503,-14.01497,-13.47985,-6.63438,-7.82779,-82.33074,87.02747,-10.48934,13.12641,-47.83143,28.14524,-1.03027,0.20299,0.34322,11.1425,-2.676,1.31927,3.29736,-0.68761,-0.91848,-2.23249,0.95795,-0.88773,0.2204,0.10799,-0.06832,-0.3404,0.22469,0.0533
2767,-10.48432,22.63301,-3.6659,-26.24893,1.68857,-7.34015,-20.44231,5.24642,0.7873,-49.11913,19.86328,-2.89542,-34.64438,79.18217,-14.71943,-13.73909,-6.54317,-7.19357,-63.69292,72.47633,-3.64815,0.02976,-45.15452,21.86596,-1.3644,1.87545,0.00106,7.73028,-2.15639,3.22257,2.57287,0.54618,-1.17397,0.13412,-0.79504,1.30282,0.18517,0.29451,-0.12859,0.03143,-0.18865,0.32451
2768,-13.08434,15.89348,-2.72554,-20.6198,2.69256,-5.82496,-11.11536,-13.66187,3.18524,-27.79444,20.87602,0.17233,-36.3513,82.26556,-15.6502,-13.2082,-6.01048,-6.30009,-16.75104,57.34195,3.0628,-2.32752,-28.04987,9.4445,-1.54034,2.70698,0.24824,3.05216,-2.29846,0.294,1.965,0.50284,-1.05717,1.31573,-0.35987,1.01205,0.14381,0.13152,-0.07786,0.16494,-0.21015,0.20271
2769,-19.3946,11.94944,-2.40872,-16.23884,0.69123,-4.61404,-8.5977,-19.18862,2.45559,-11.43499,7.43251,-0.7552,-37.75969,84.39651,-16.64034,-12.1946,-5.34058,-5.24894,19.69233,41.43658,1.31649,7.26824,-8.11339,-0.81527,0.18714,2.0462,0.73178,1.67132,-3.60051,-5.01778,1.57651,-1.12943,-0.5856,0.67165,1.82735,-1.16941,0.14853,-0.33595,0.01951,-0.01861,0.0596,-0.11965
2770,-25.62468,9.84698,-2.45057,-14.2041,-4.5251,-4.09691,-22.17992,-13.49517,0.5238,-12.26307,-12.61891,-5.17465,-38.71352,85.25541,-17.37579,-11.19061,-4.90291,-4.23773,5.26755,27.99278,-8.83047,24.7452,-9.43828,-3.17415,3.5837,0.43503,0.74747,3.4658,-3.83505,-5.75808,0.96142,-2.94279,-0.07821,-0.61025,2.52307,-2.27754,0.08947,-0.71373,0.04541,-0.21678,0.11462,-0.2136
2771,-29.24587,7.63563,-2.43697,-13.89868,-9.04622,-3.84649,-45.7247,-6.68818,-0.41768,-21.53054,-24.42278,-8.6192,-39.04514,84.97183,-17.70465,-10.45893,-4.61618,-3.31227,-39.71128,26.16858,-19.28066,34.66479,-34.32026,1.79565,5.3364,-0.10238,1.35747,6.12808,-1.67281,-0.62869,0.13113,-3.8879,0.51153,-0.8999,1.00412,-1.20222,-0.19703,-0.69605,0.05426,-0.17445,-0.10784,-0.01277
2772,-31.22665,4.22279,-2.11652,-13.9502,-10.30007,-3.44789,-63.73325,-6.08887,0.16175,-23.33682,-24.18641,-8.93784,-38.63353,83.88523,-17.74708,-9.94121,-4.20767,-2.51186,-63.56786,34.97916,-22.96682,27.09631,-54.3439,9.08788,4.19582,1.35375,3.71283,6.94557,0.93108,4.32711,0.75419,-4.54777,1.19091,-0.07134,-0.57571,0.36233,-0.31335,-0.39353,0.1647,-0.00076,-0.25129,0.14627
2773,-33.57284,-0.04015,-1.61733,-13.89586,-10.03294,-3.14242,-69.28185,-12.51675,1.5948,-16.06034,-21.31665,-8.79883,-37.56704,82.10328,-17.74474,-9.39787,-3.68764,-1.97454,-51.90308,38.3935,-21.2943,10.09004,-46.76362,13.72429,2.26217,2.81836,6.01533,5.32144,1.67438,4.53784,3.01178,-5.05661,1.5938,0.80019,-0.79215,0.6779,0.08186,-0.15621,0.37842,0.09057,-0.14104,0.02876
2774,-36.12048,-3.75149,-1.46658,-13.69088,-10.40195,-3.1299,-67.92777,-20.84186,2.59304,-7.50584,-22.45907,-10.73228,-36.17632,79.58494,-17.82034,-8.732,-3.20492,-1.62518,-30.78893,30.4467,-21.08391,2.06574,-24.16208,10.90465,0.79427,2.14856,4.65619,3.1339,0.87498,2.06234,3.56072,-3.29883,1.19982,1.23563,-0.33105,0.19271,0.38702,-0.01908,0.44069,0.09273,0.02372,-0.17937
2775,-37.03723,-6.16291,-2.04245,-12.33606,-10.74607,-2.96789,-66.05911,-25.26883,1.75384,0.11997,-23.35076,-12.17463,-34.77052,76.57062,-17.90616,-7.96906,-2.81312,-1.20037,-19.25705,25.29066,-25.16746,12.85605,-15.48673,1.09472,0.36742,0.55846,-0.11107,2.48398,-0.12092,0.6502,1.22784,0.77938,-0.09578,1.46313,-0.04271,0.12929,0.23868,0.23652,0.07283,0.08863,0.06405,-0.19539
2776,-35.57043,-7.89987,-3.13766,-11.05097,-8.91431,-2.07925,-62.52694,-25.64804,-1.21055,2.19236,-15.86764,-7.87253,-33.37711,73.53717,-17.87317,-7.1372,-2.45683,-0.6131,-18.63012,36.59668,-26.13154,33.46705,-32.13486,-5.56705,1.44232,0.62057,-2.91089,4.14045,-0.80623,0.8183,-0.92103,2.80448,-1.18439,1.02567,0.41559,0.17981,0.06823,0.4051,-0.41805,-0.03328,0.1021,-0.07467
2777,-33.55499,-9.62735,-4.08469,-11.82707,-5.15809,-0.67086,-58.05286,-26.93965,-4.25193,-6.33386,-2.59086,0.99511,-31.84554,70.64987,-17.67669,-6.19304,-2.03289,-0.04202,-28.76614,53.16819,-17.74718,48.49117,-59.68657,-0.90814,2.9939,1.87008,-0.8307,7.31723,-1.12135,1.28682,-0.48777,0.2553,-0.92447,0.05323,1.46435,-0.34695,0.14244,0.08518,-0.40526,-0.24227,0.28182,-0.0204
2778,-33.7963,-10.78751,-4.30369,-13.39463,-3.71284,0.11611,-60.52969,-32.71748,-4.0875,-16.05576,-1.6536,3.98652,-30.16186,67.66032,-17.3747,-5.13137,-1.59893,0.29834,-43.96547,41.39337,-8.22416,40.43943,-66.65047,14.81029,4.1038,2.32144,3.48948,10.54505,-1.71269,1.74416,1.27659,-4.26917,0.57099,-0.19936,2.1887,-0.71527,0.30251,-0.54789,0.12529,-0.26089,0.35491,0.02019
2779,-36.01475,-9.75356,-4.04125,-12.18438,-7.31486,-0.50088,-68.58595,-39.05762,-0.00867,-9.44972,-22.52399,-5.37908,-28.46626,64.32184,-17.00407,-4.01635,-1.35732,0.38626,-40.77019,-7.77044,-8.63105,-0.93309,-29.60002,36.7077,3.88492,1.86469,5.9503,12.73533,-3.76707,2.06199,2.3101,-6.51914,1.81311,0.18486,1.7052,-0.36821,0.34443,-0.85644,0.56793,-0.10932,0.06595,0.15928
2780,-36.46934,-6.18471,-4.20868,-7.88752,-11.54339,-1.66895,-69.2614,-38.27699,4.28171,10.31938,-42.06051,-17.1342,-26.78727,60.69694,-16.52651,-2.95215,-1.27823,0.39557,-12.5582,-46.43472,-14.66455,-45.06794,24.9507,50.43165,2.59075,1.24293,4.69171,12.44116,-6.15871,1.50789,2.19501,-5.0191,1.46797,0.07491,0.73717,-0.08275,0.20108,-0.5846,0.5093,-0.05841,-0.29436,0.26038
2781,-34.29116,-3.00543,-5.06625,2.05536,-8.45967,-2.18095,-62.49311,-31.45606,4.29254,30.37301,-29.27396,-15.90276,-25.12081,57.19778,-16.00979,0.76996,-0.39701,-0.16414,16.22694,-24.81348,-14.77912,-42.42039,38.94901,38.10763,2.7063,0.28548,0.97033,8.37531,-5.33987,0.7752,1.09755,-1.85865,0.06657,-0.37255,0.09552,-0.14838,-0.07526,-0.07718,0.07522,-0.15768,-0.32735,0.17216
2782,-31.75914,-2.28267,-6.23477,-1.92802,-2.6748,-0.90075,-55.82239,-25.39348,-0.80608,11.80371,-0.97569,-3.06963,-23.62903,54.35371,-15.58255,0.35198,-0.16603,-0.05232,-6.66895,25.3161,-9.50261,1.00413,5.29023,5.49633,4.50922,-0.9478,-2.14033,3.17648,-1.20578,1.15882,-0.10983,0.20673,-0.94441,0.0572,-0.26096,0.07692,-0.20952,0.20409,-0.31054,-0.18539,-0.11615,-0.00889
2783,-30.33208,-2.50261,-7.2906,-3.95324,-1.43768,-0.27543,-49.9398,-23.92756,-6.96635,-0.34987,4.96811,3.91959,-22.50407,52.23868,-15.27117,0.06116,-0.13404,-0.15274,-19.80893,40.93529,-11.74383,31.91626,-26.03666,-16.72154,5.47894,-1.43108,-2.08038,2.16572,1.20997,1.53619,-0.616,0.03114,-0.58827,1.76584,-0.03137,0.49677,-0.0973,0.09397,-0.27961,0.059,0.06075,-0.11766
2784,-30.14012,-1.66105,-7.87969,-1.72715,-4.64094,-0.76818,-45.82768,-26.42902,-9.42948,4.88264,-12.37301,-0.18629,-21.73725,50.45223,-15.00654,0.04692,-0.29151,-0.38686,-8.04125,14.89876,-19.54503,29.12822,-26.27151,-11.59178,5.22294,-1.11895,0.13162,6.50169,-0.86105,0.99479,-0.70896,-1.1481,0.73638,3.28734,0.88315,0.43479,0.04116,-0.12471,0.07445,0.41898,0.10324,-0.10327
2785,-29.73231,0.60874,-8.08607,0.5555,-5.09099,-1.0713,-42.96528,-27.46743,-8.14929,13.7684,-19.62097,-4.45915,-21.07781,48.72016,-14.67217,-0.00853,-0.34788,-0.50534,7.8348,-1.21633,-20.31723,10.5147,-15.90148,7.03341,4.93149,-0.47128,1.73705,11.79924,-3.88626,1.67668,-0.38049,-1.79957,1.48849,2.75467,1.34351,0.05431,0.12151,-0.14305,0.29799,0.498,-0.00918,0.03008
2786,-28.91205,3.07386,-8.13885,0.7277,-1.54223,-0.712,-41.30249,-23.91082,-6.16586,17.76991,-6.41505,-2.78155,-20.32285,47.04848,-14.29347,-0.16139,-0.24913,-0.45005,13.46334,13.72679,-13.78007,-11.21397,-18.54201,19.22151,4.03781,1.10958,2.60268,13.19298,-3.79348,4.24321,0.28994,-2.20403,1.11025,0.76382,0.63825,0.04622,0.10758,-0.0567,0.22711,0.24836,-0.20696,0.20622
2787,-29.3498,4.45823,-8.03138,-0.2501,0.65193,-0.40008,-43.25916,-18.44771,-4.74125,17.10526,5.38393,-0.60305,-19.53543,45.5606,-14.0361,-0.20284,-0.14194,-0.25527,7.75269,31.15248,-9.7919,-23.36972,-26.65794,18.47529,2.43564,3.03924,2.98888,9.44878,-1.20936,5.10157,0.63051,-2.247,0.30225,0.03806,-0.13442,0.42603,-0.02124,0.02985,0.03246,0.09256,-0.2484,0.24119
2788,-31.08212,4.62271,-7.76059,-1.38842,-0.54881,-0.33758,-48.09607,-16.28568,-3.17031,10.873,2.70468,-1.66478,-18.89738,44.42554,-13.93945,-0.01049,-0.06368,0.09294,-6.96687,29.61352,-9.01873,-9.70997,-24.27097,10.87807,2.27704,2.79747,1.98209,3.67245,0.33574,1.99397,0.30272,-1.4442,-0.06142,1.17293,0.16025,0.48612,-0.08805,0.07475,-0.06872,0.18238,-0.02213,0.06102
2789,-31.9605,4.9515,-7.67541,-1.93761,-0.75798,0.2903,-51.28254,-17.36449,-2.39309,1.99347,-2.46369,-1.39259,-18.50319,43.84676,-13.8451,0.33111,0.15954,0.56185,-22.38003,21.88855,-5.31817,18.2727,-17.55936,5.58603,4.61182,-0.20173,-0.03892,0.81118,-1.04769,-1.75233,-0.36756,-0.53646,0.32796,1.85162,0.8334,-0.01142,0.03266,-0.0709,0.0359,0.20142,0.18311,-0.13367
2790,-31.50293,6.50305,-7.9964,-0.0193,2.78028,1.60232,-52.46944,-15.6475,-4.07578,3.03845,2.27013,3.81275,-18.33105,43.83025,-13.66021,0.73786,0.51466,0.88391,-23.84297,28.24652,-0.74204,30.48448,-22.41922,5.05449,7.37802,-2.93853,-1.00135,3.27782,-3.93988,-1.88684,-0.73587,-0.77114,0.97745,1.17615,0.70571,-0.34294,0.22993,-0.41198,0.24281,0.08259,0.03869,-0.10559
2791,-31.05225,8.08076,-8.38575,4.40496,6.61502,2.3815,-53.32215,-11.0469,-6.8458,17.62247,12.1734,9.60253,-18.28022,44.06142,-13.45974,1.10761,0.66022,0.76808,-7.34845,45.04306,-0.88148,17.82191,-34.33195,6.07478,7.49007,-2.34894,0.1784,8.52611,-5.5335,1.1525,0.01029,-2.19512,0.97852,0.56608,0.0781,-0.12868,0.40017,-0.65296,0.29851,0.04914,-0.29242,0.07584
2792,-31.20929,7.89102,-8.4825,8.0176,6.41606,1.7917,-51.27536,-12.25864,-8.06729,32.03494,13.17235,9.13471,-18.31148,44.28569,-13.35839,1.20057,0.45149,0.30928,16.69693,45.88588,-5.77948,-9.05005,-33.96146,7.96004,4.07623,0.9003,2.19938,11.60098,-4.54271,3.8276,1.35494,-3.20763,0.24724,0.68197,-0.05303,0.11825,0.39893,-0.5432,0.15555,0.13058,-0.35097,0.14453
2793,-31.92036,6.76903,-8.37412,9.41087,1.635,0.15459,-46.10371,-19.72716,-7.41348,37.35189,-0.56773,1.22952,-18.41977,44.47557,-13.39678,1.03129,0.01934,-0.20741,36.51902,20.18772,-13.29016,-30.97322,-15.58518,12.08061,0.28331,3.11038,2.97372,10.55151,-2.27698,4.04538,1.80192,-2.76315,-0.34739,0.73108,0.55921,-0.1036,0.15641,-0.20482,0.00844,0.17974,-0.01647,0.02853
2794,-32.37595,7.33568,-8.29453,9.72788,-3.95305,-1.57378,-42.23277,-20.85719,-5.77003,36.08068,-15.47099,-7.90177,-18.43167,44.56903,-13.46977,0.91198,-0.4311,-0.58536,42.59206,-2.11109,-19.19221,-25.44537,7.65752,16.06928,-0.0838,2.16053,1.80623,7.93119,-0.77746,2.74705,1.26685,-1.51577,-0.39754,0.25629,1.31506,-0.65613,-0.0742,0.10036,-0.05304,0.11414,0.34462,-0.11259
2795,-31.93108,8.96558,-8.17585,9.87276,-4.90673,-2.12277,-42.57933,-12.15418,-3.56873,34.25424,-12.46691,-9.74912,-18.24547,44.5626,-13.463,1.03331,-0.54371,-0.58141,36.59514,10.28912,-16.37251,3.43942,17.56295,15.58386,2.73103,0.19385,0.3041,6.70808,-0.60634,1.66765,0.7491,-0.63793,-0.17305,0.11636,1.62761,-0.96607,-0.04876,0.2505,-0.06411,0.02709,0.39323,-0.1561
2796,-32.09902,8.62729,-7.88568,8.8213,0.15817,-0.69201,-47.85531,-4.53188,-2.20853,33.39792,7.14821,-1.2555,-18.12103,44.82489,-13.41919,1.11269,-0.10671,-0.05215,27.55086,47.08305,-4.20457,21.94996,0.8583,9.99778,5.6365,0.16185,0.3677,6.73847,-1.15571,1.10618,0.74022,-0.73574,0.09329,1.01051,1.42749,-0.64456,0.15304,0.23397,-0.03395,0.01064,0.15945,-0.10791
2797,-33.79636,6.18569,-7.61348,6.23478,6.60125,1.81781,-55.37378,-5.20489,-3.44275,30.53537,23.57917,11.22596,-18.25015,45.60725,-13.37594,0.91985,0.51251,0.6643,19.11548,73.17973,7.39417,12.19331,-35.61795,3.69026,6.66279,1.65864,1.58763,6.40522,-1.9386,0.78257,0.66807,-1.33996,0.34779,1.70949,0.92673,-0.05845,0.22302,0.11512,0.02294,-0.06456,-0.10447,-0.01851
2798,-34.81676,4.04924,-7.57489,4.7845,8.06547,3.04966,-58.27692,-11.95972,-6.1511,27.01109,21.46712,16.31268,-18.44762,46.4856,-13.23562,0.76493,0.67077,0.93437,14.86724,65.93781,7.94274,-9.36307,-59.04911,2.81956,6.0852,2.10608,2.10973,6.31132,-2.9711,1.19754,0.03526,-1.7141,0.47084,1.00755,0.29191,0.18522,0.0307,-0.0211,0.04483,-0.21737,-0.25875,0.06868
2799,-33.55957,4.35828,-7.68765,-4.36403,-1.34413,0.70016,-53.27234,-17.20533,-7.34396,7.38536,-4.23644,6.49798,-18.61367,47.03799,-12.96842,-2.53028,-0.49123,0.01341,-3.24703,25.62123,-5.78723,-20.19543,-45.37768,9.14329,5.02925,0.59267,1.20398,7.66158,-4.29154,2.25008,-0.37049,-1.78089,0.25516,-0.16508,-0.27896,0.05177,-0.14272,-0.1345,0.00138,-0.24135,-0.37372,0.11734
2800,-31.29904,6.32287,-7.73141,-5.52044,-7.25347,-1.53279,-45.08545,-16.64288,-6.22142,4.35456,-19.57094,-4.19002,-18.85067,47.30733,-12.70835,-2.93366,-0.89968,-0.63993,-0.01163,3.77862,-16.36158,-12.61503,-14.34929,16.64441,4.34279,-1.35366,-0.13424,8.19928,-4.79233,2.39466,0.30021,-1.87895,-0.23576,-0.69567,-0.28693,-0.20205,0.01809,-0.2295,-0.06639,-0.1901,-0.38755,0.11571
2801,-30.27703,6.77214,-7.53047,-7.21818,-8.4527,-2.57256,-43.17253,-14.41723,-4.48299,2.60575,-17.56211,-7.50468,-19.09034,47.31568,-12.5416,-3.26619,-0.99389,-1.03452,-0.2149,10.4188,-16.82751,8.49582,-5.51119,17.90402,4.17489,-2.08651,-0.55544,5.30223,-2.94446,0.90752,1.4134,-2.2713,-0.58237,-0.61526,0.66697,-0.38603,0.39026,-0.33294,-0.09622,-0.25345,-0.06527,0.07534
2802,-30.36223,4.20214,-7.0548,-8.85278,-5.88525,-2.21116,-49.23722,-16.75525,-3.4084,0.87134,-4.41042,-3.15562,-19.17052,47.12529,-12.33159,-3.4724,-0.97115,-1.14057,-7.67703,29.7493,-9.217,28.4301,-22.59817,12.9085,3.97506,-1.24998,0.22973,1.37223,0.21289,-0.60176,1.71187,-2.68189,-0.5052,-0.00777,1.85888,-0.30216,0.53359,-0.38597,-0.07127,-0.28598,0.44486,0.01411
2803,-30.13392,0.46572,-6.43168,-9.505,-2.39823,-1.22009,-54.92841,-23.59093,-2.64793,0.82658,7.77568,2.77314,-19.21623,47.07687,-11.96493,-3.70515,-0.92219,-1.00834,-12.27443,40.74805,-0.14149,31.60741,-31.79561,6.21118,3.82369,0.20306,1.1888,0.97349,1.20027,-0.47696,0.87545,-2.37885,-0.09938,1.0792,1.88213,0.09178,0.24134,-0.26757,-0.01419,-0.0806,0.55211,-0.02543
2804,-29.76028,-1.79701,-5.85525,-8.27819,-0.36615,-0.52894,-54.66691,-29.26228,-1.77648,5.5465,11.63682,4.88026,-19.41485,47.21978,-11.54149,-3.78362,-0.90978,-0.77609,-3.94233,38.4136,3.61432,15.92699,-17.65274,0.42759,4.78207,0.99303,1.18331,4.65812,-1.46372,0.79997,-0.27028,-1.12408,0.33032,2.02114,0.59316,0.52904,-0.18232,0.02141,0.03323,0.22896,0.03464,0.0177
2805,-29.99993,-2.0545,-5.42074,-6.28779,-1.82168,-0.87121,-51.89071,-29.05393,-1.24836,10.72428,3.71834,1.09423,-19.68879,47.26732,-11.15112,-3.51758,-1.06034,-0.70872,7.18946,27.46378,-3.14049,-9.1779,-5.41502,-1.66349,6.71653,1.06606,0.70329,8.96083,-5.15118,1.78198,-0.75689,-0.0624,0.56143,2.17317,-0.5672,0.62219,-0.31306,0.25516,0.04763,0.40932,-0.57586,0.10939
2806,-30.18398,-1.15981,-5.15809,-6.15132,-5.6286,-1.84166,-50.32338,-22.21736,-1.84352,9.55616,-11.19125,-5.21974,-19.93565,47.26963,-10.72463,-3.37202,-1.1911,-0.835,6.91246,17.74225,-16.80456,-30.77864,-20.0569,3.07159,7.78563,1.06162,0.98319,10.79072,-6.17317,2.14929,-0.47734,-0.48057,0.59141,1.22993,-0.43509,0.10944,-0.1039,0.22019,0.03327,0.35414,-0.6345,0.1161
2807,-29.22071,-0.38835,-5.05853,-8.32714,-7.04824,-2.07671,-47.366,-15.29029,-3.62056,3.95659,-17.9265,-6.75644,-20.19103,47.42821,-10.20622,-3.78099,-0.96709,-0.9101,1.81353,18.62255,-23.16593,-33.34753,-46.55157,11.55276,6.94195,0.89497,1.49725,10.66888,-4.10046,2.62878,-0.01299,-1.54018,0.399,0.13144,0.59065,-0.60117,0.16913,0.06503,-0.03093,0.22173,-0.17646,0.00158
2808,-27.69949,-1.29572,-4.89399,-10.83318,-4.52634,-1.26812,-41.40442,-18.05077,-5.06517,-1.57977,-10.1568,-1.96074,-20.45079,47.58678,-9.68656,-4.39367,-0.54526,-0.84053,1.69135,24.04115,-14.53626,-14.88555,-45.31166,15.86262,5.45747,0.23173,1.00648,9.97541,-2.02071,2.88441,0.23322,-1.61049,0.0597,0.05572,1.29839,-0.8376,0.26956,0.01287,-0.1117,0.14318,0.24171,-0.12134
2809,-27.14051,-3.84885,-4.37229,-11.34962,-2.40893,-0.6585,-36.80811,-29.42155,-4.27342,-4.84241,-2.66036,1.53853,-20.65293,47.51868,-9.26843,-4.50843,-0.42239,-0.75239,4.19068,18.84324,-2.57726,3.23164,-10.64662,12.71035,5.4078,-0.60485,0.23834,7.75555,-2.3507,1.5951,0.15542,-1.17416,0.04505,0.67524,1.07498,-0.43677,0.17856,-0.03702,-0.06574,-0.00095,0.25791,-0.12324
2810,-27.58675,-5.65502,-3.58499,-9.35871,-4.15937,-1.0909,-36.20771,-37.21353,-1.51424,-2.49365,-9.50858,-1.75491,-20.82224,47.38508,-8.90444,-4.00854,-0.69614,-0.73822,9.59641,2.92967,-1.33899,3.04364,14.23421,7.12116,6.5658,-1.03878,0.70325,4.21538,-4.0692,-0.73567,-0.26546,-1.66511,0.65032,1.08109,0.53026,0.26281,0.01393,-0.23448,0.15036,-0.19254,0.01922,0.02497
2811,-27.54698,-5.30147,-2.90417,-7.34344,-7.77724,-2.03049,-36.57148,-35.15704,1.01315,3.93795,-22.32479,-7.64158,-21.00216,47.48061,-8.47783,-3.53622,-1.01666,-0.8088,18.44673,-7.79003,-7.81539,-7.25036,-0.23185,4.51149,6.57172,-0.98399,1.76715,2.48617,-4.49623,-1.54551,-0.35392,-2.61754,1.20024,0.85547,0.48942,0.6564,-0.03338,-0.41261,0.33712,-0.25158,-0.11888,0.1962
2812,-26.3474,-4.37863,-2.49394,-7.85589,-9.41542,-2.68357,-37.07838,-26.43019,1.85989,5.42903,-23.35863,-9.6879,-21.15745,47.73611,-7.99881,-3.57455,-1.17191,-0.98484,17.20507,1.49417,-13.09712,-10.73478,-30.31499,1.7463,4.9471,-0.84625,1.64735,4.0125,-2.55671,0.23235,0.47939,-2.52264,0.91951,0.37905,0.80555,0.38607,0.10761,-0.31778,0.30127,-0.13639,-0.05822,0.19661
