PaulMeinheit/Bachelor_Muay_Thai/processed_Data/E1/roundhouse/sliced/JointMoments/sliced6.csv
Unnamed: 0_level_0,R_KNEE_MOMENT,R_KNEE_MOMENT,R_KNEE_MOMENT,L_KNEE_MOMENT,L_KNEE_MOMENT,L_KNEE_MOMENT,R_HIP_MOMENT,R_HIP_MOMENT,R_HIP_MOMENT,L_HIP_MOMENT,L_HIP_MOMENT,L_HIP_MOMENT,R_ANKLE_MOMENT,R_ANKLE_MOMENT,R_ANKLE_MOMENT,L_ANKLE_MOMENT,L_ANKLE_MOMENT,L_ANKLE_MOMENT,WAIST_JOINT_MOMENT,WAIST_JOINT_MOMENT,WAIST_JOINT_MOMENT,NECK_MOMENT,NECK_MOMENT,NECK_MOMENT,L_SHOULDER_MOMENT,L_SHOULDER_MOMENT,L_SHOULDER_MOMENT,R_SHOULDER_MOMENT,R_SHOULDER_MOMENT,R_SHOULDER_MOMENT,L_ELBOW_MOMENT,L_ELBOW_MOMENT,L_ELBOW_MOMENT,R_ELBOW_MOMENT,R_ELBOW_MOMENT,R_ELBOW_MOMENT,L_WRIST_MOMENT,L_WRIST_MOMENT,L_WRIST_MOMENT,R_WRIST_MOMENT,R_WRIST_MOMENT,R_WRIST_MOMENT
ITEM,X,Y,Z,X,Y,Z,X,Y,Z,X,Y,Z,X,Y,Z,X,Y,Z,X,Y,Z,X,Y,Z,X,Y,Z,X,Y,Z,X,Y,Z,X,Y,Z,X,Y,Z,X,Y,Z
3568,-11.17515,-11.94769,-0.75166,-11.48716,2.06818,0.69317,-17.038,-40.30738,-0.26591,-5.47098,1.45544,3.85637,-23.37139,43.66823,-3.76133,-9.41751,5.86697,0.9961,9.83497,5.14375,1.16503,-18.22981,-27.51262,-0.16018,6.99303,-0.97021,-0.82841,7.5401,-3.68234,1.61953,-0.54166,-1.14191,0.12607,1.26209,0.17413,0.75246,-0.07703,-0.03142,-0.13875,0.10119,-0.25635,0.25363
3569,-13.19917,-9.90432,-0.82875,-10.83348,1.35461,0.43609,-23.97371,-32.38513,-0.45799,-7.40416,-1.7088,2.22162,-23.81148,44.53786,-4.00645,-9.17395,5.51288,0.7873,-1.0225,9.47832,-4.06997,-12.1494,-27.18547,1.52056,7.77811,-0.73957,-0.17832,10.00714,-3.50128,1.30327,-0.91264,-1.18721,0.82892,2.07695,0.96996,-0.15082,-0.02628,-0.00117,-0.01339,0.33899,0.01041,-0.07591
3570,-15.69024,-8.26724,-0.72234,-10.20623,1.78792,0.29448,-29.36639,-28.09893,0.57501,-6.856,-0.48825,1.74358,-24.10654,45.24609,-4.3333,-8.93719,5.14544,0.59242,-4.04243,18.03145,-3.2626,13.22594,-24.41242,0.71851,6.9957,-0.44057,0.24261,10.23877,-3.65452,-0.05792,-0.1942,-1.44735,0.77469,2.45436,1.78789,-0.88888,0.11197,-0.07279,0.0508,0.39099,0.26247,-0.31818
3571,-16.95154,-7.9822,-0.7208,-10.37866,3.36628,0.29916,-29.22968,-29.75816,1.41113,-4.88048,8.81893,4.32822,-24.41422,46.0331,-4.68267,-8.70399,4.66838,0.43787,2.2111,32.09536,3.94475,24.56797,-13.4464,-5.71602,6.12682,-0.96555,-0.62879,7.09727,-4.02651,-1.58877,0.77248,-1.29682,0.08562,1.97893,1.77502,-0.72585,0.13024,-0.13726,0.02959,0.11968,0.24,-0.24462
3572,-17.57007,-7.89218,-0.86537,-11.15891,4.41762,0.21627,-28.8378,-31.08688,1.15907,-6.15536,17.46636,6.50514,-24.82575,47.30748,-4.97781,-8.51561,4.09589,0.28016,2.9951,43.42183,7.82575,11.57169,-4.10283,-12.20755,6.39146,-2.02942,-1.76156,3.33167,-3.93137,-1.89398,1.22006,-0.98043,-0.3211,0.91618,1.00779,-0.01727,0.0361,-0.07061,-0.0037,-0.227,-0.01762,0.03406
3573,-19.14125,-7.68118,-0.85062,-11.1559,3.59889,-0.00808,-34.10009,-31.74616,0.75272,-9.9401,13.58868,4.27565,-25.31562,49.04195,-5.21989,-8.30693,3.56984,0.10884,-8.81285,34.8144,2.9643,-10.14311,-7.20225,-10.61788,8.03812,-2.66285,-1.95177,3.24777,-3.64004,-0.24195,1.34692,-1.03697,-0.10098,0.15986,0.1309,0.54762,0.0878,0.09864,-0.0301,-0.30216,-0.32356,0.27719
3574,-21.05677,-7.83626,-0.6724,-9.77351,1.95147,-0.17266,-41.09244,-33.68587,1.4002,-10.00152,1.32672,-0.3528,-25.78627,50.57948,-5.48973,-7.89424,3.16274,-0.02145,-20.13947,13.27085,-4.47673,-21.64896,-19.62185,-0.61155,9.61006,-1.90832,-1.13474,6.90299,-3.78562,1.93018,1.5232,-1.3628,0.22949,0.48017,-0.18759,0.68102,0.30647,0.19064,-0.05214,-0.04501,-0.46004,0.329
3575,-21.76989,-8.24471,-0.66385,-9.09513,1.12635,-0.22156,-42.1097,-36.27238,2.44759,-4.86698,-6.07503,-2.62897,-26.1772,51.56505,-5.81362,-7.41321,2.74251,-0.13573,-16.1729,1.28479,-7.4779,-15.47746,-30.35361,9.38512,9.28616,0.07605,-0.15164,9.93488,-3.96433,2.32748,1.82388,-1.43752,0.08566,1.54867,0.41864,0.37573,0.46912,0.09325,-0.05816,0.27751,-0.27724,0.1777
3576,-21.59674,-8.37685,-0.88548,-10.09381,0.95475,-0.38221,-37.09885,-39.32374,2.48185,1.47839,-4.1619,-1.37665,-26.47054,52.38206,-6.10409,-7.05078,2.15562,-0.33676,0.38256,3.75658,-5.27765,2.62825,-26.5479,11.07348,7.85078,1.41885,0.07425,9.51789,-3.72898,0.33374,2.17023,-1.22443,-0.36533,2.37721,1.71999,-0.2654,0.52235,-0.10205,-0.03395,0.41917,0.1329,-0.07188
3577,-21.95358,-8.24479,-1.04061,-10.56728,0.53535,-0.74562,-32.22243,-41.94553,1.55103,6.52816,2.0739,1.08902,-26.66292,53.39302,-6.28551,-6.60559,1.51075,-0.58712,15.68849,12.49207,-0.84338,17.13931,-8.2672,5.00738,7.00899,1.03817,-0.26768,7.18244,-3.54347,-2.31282,2.22261,-1.10558,-0.48232,2.29596,2.92249,-0.92814,0.51047,-0.20956,0.01331,0.33561,0.47942,-0.25292
3578,-23.36911,-8.1533,-0.95142,-9.15671,-0.08656,-1.01667,-31.49746,-41.65081,0.67914,9.50085,7.06882,3.00872,-26.8464,54.52816,-6.40227,-5.90667,1.04143,-0.70445,20.49838,22.65846,2.90542,15.82939,3.90807,-0.95788,6.8487,0.32678,-0.11241,5.90246,-3.62661,-2.88501,1.97196,-1.31869,-0.16012,1.67161,3.03312,-1.00518,0.45877,-0.16967,0.04094,0.20655,0.51163,-0.22768
3579,-25.36175,-7.86753,-0.73355,-7.22221,-1.12955,-0.98993,-34.98909,-38.77934,0.41527,9.06152,6.81601,3.89648,-27.16703,55.5991,-6.54255,-5.1567,0.72711,-0.63304,13.93033,27.14814,4.19293,1.61297,-1.99883,-1.22299,6.82896,0.45704,0.74494,6.86319,-3.6414,-0.6083,1.6618,-1.75746,0.24575,1.46014,1.83576,-0.34161,0.36441,-0.10958,0.05374,0.25278,0.25336,-0.05828
3580,-26.86559,-6.82684,-0.58088,-5.94626,-3.33138,-0.91607,-41.42017,-35.22591,0.84461,7.49966,-0.47751,2.7578,-27.61395,56.51576,-6.69718,-4.53758,0.34191,-0.53916,3.1344,19.70874,0.85456,-15.51243,-11.79455,2.19201,6.93243,0.4323,1.17955,8.48788,-3.61057,2.02839,1.32218,-2.06629,0.51498,1.85621,0.32566,0.36278,0.20477,-0.13601,0.09918,0.39986,-0.06145,0.04965
3581,-26.8136,-4.97617,-0.60035,-5.26448,-6.11982,-1.12377,-47.83428,-30.3317,1.78513,8.79347,-10.97446,-1.18658,-28.00825,57.25623,-6.78006,-3.9556,-0.15862,-0.57784,-2.78232,8.68253,-7.6296,-25.27639,-14.15088,4.51646,7.57283,-0.73209,0.26859,8.62162,-3.64045,2.65437,1.1621,-1.9363,0.49595,2.16859,-0.38699,0.61114,0.08739,-0.18532,0.14082,0.39892,-0.26768,0.0706
3582,-25.69146,-3.39123,-0.70723,-5.06176,-7.9007,-1.5166,-50.50609,-26.09772,2.72178,11.48285,-17.83115,-6.11874,-28.21856,57.80893,-6.80413,-3.30509,-0.56194,-0.68623,-3.04133,4.8931,-15.46139,-15.87401,-17.12155,5.17367,8.66227,-1.83453,-1.1195,7.73165,-3.61879,1.80909,1.50868,-1.5167,0.14239,1.8086,0.08412,0.46235,0.17404,-0.1487,0.09596,0.21711,-0.26085,0.10112
3583,-25.33804,-3.31689,-0.70853,-4.88279,-7.82577,-1.60093,-48.19094,-28.11724,3.09533,11.41866,-18.43853,-8.40527,-28.2233,58.19125,-6.89299,-2.60218,-0.70442,-0.65997,-2.0689,5.11696,-15.20516,7.79502,-24.69345,5.5514,9.33199,-1.26472,-1.43925,8.10002,-3.88057,1.27609,2.25087,-1.19521,-0.33834,1.02493,1.19893,0.01133,0.42629,0.00786,-0.04613,0.06931,-0.02394,0.09317
3584,-26.50817,-4.24678,-0.58791,-3.95719,-5.89681,-1.04409,-42.93394,-35.08792,2.8293,8.87144,-14.62164,-6.4574,-28.03268,58.44479,-7.0986,-1.91027,-0.60724,-0.37811,-0.16814,4.71298,-7.43299,13.56024,-28.61571,4.41539,9.0535,0.22793,-0.9717,9.9244,-4.40701,2.35048,2.54163,-0.81497,-0.65823,0.38484,1.40593,-0.39028,0.55802,0.24328,-0.21217,0.07416,0.1533,0.00014
3585,-27.86017,-4.17296,-0.54805,3.24614,0.80761,0.56764,-38.03761,-38.04955,2.41538,21.74551,-1.68817,0.84648,-27.71036,58.63304,-7.32501,0.70599,0.07887,0.40379,21.92053,17.77126,3.49401,-14.41672,-26.10545,0.62932,8.47028,0.76211,-0.94548,10.18171,-4.01751,4.12561,1.64702,-0.1865,-0.56712,0.00486,0.20513,-0.43485,0.37744,0.40495,-0.2831,0.07637,0.05339,-0.10452
3586,-27.99879,-2.53372,-0.67369,5.31556,4.18734,1.21369,-36.63416,-33.68142,2.33688,28.91439,7.39776,5.60106,-27.39013,58.86914,-7.46396,0.78624,0.33909,0.69064,35.27966,32.25274,6.57751,-44.06736,-23.28975,-3.95391,8.71516,0.38751,-1.01483,6.90702,-2.40321,3.49237,0.16203,0.03277,0.00415,0.38753,-0.65863,-0.18657,0.06487,0.32699,-0.18251,0.07384,-0.12242,-0.13385
3587,-27.47242,-1.08895,-0.73905,5.28171,4.83153,1.2291,-41.54907,-27.22364,2.73926,30.24345,11.33502,7.33982,-27.11841,59.20578,-7.51859,0.77649,0.36755,0.68967,31.59548,41.99652,4.35241,-44.70805,-20.03249,-5.86126,9.90547,0.39903,-0.45484,2.6681,-1.04304,-0.12866,-0.4979,-0.53814,0.56456,1.48303,0.22317,0.03228,-0.03631,0.07673,-0.01502,0.16287,-0.0824,-0.08423
3588,-27.42691,-0.91443,-0.58925,2.44174,2.13372,0.71756,-50.12822,-23.27555,3.2935,19.61904,6.27254,5.19189,-26.77619,59.55437,-7.55782,0.66375,0.16396,0.42378,5.00837,39.68782,0.01368,-26.86469,-9.03129,-3.34807,10.34104,0.79038,-0.14197,1.72635,-1.29736,-3.01959,0.0994,-1.00106,0.38129,2.41615,1.86977,0.19359,0.14195,-0.07074,-0.00126,0.29637,0.12277,0.02217
3589,-27.50453,-1.22622,-0.49756,-0.0364,-1.01948,0.18051,-52.35052,-24.26187,3.21617,11.34697,-2.86447,1.00828,-26.28593,59.76511,-7.65516,0.50571,-0.0566,0.13416,-10.75652,29.39492,-3.26221,-11.82721,5.15004,1.17428,8.67432,0.58084,-0.77021,4.23303,-2.7912,-2.77036,1.03418,-0.75633,-0.38017,2.52392,2.68034,0.35035,0.32074,-0.01031,-0.14349,0.31475,0.2659,0.12028
3590,-27.0218,-1.41237,-0.71546,1.00964,-2.2859,-0.07008,-45.54981,-30.65755,2.48343,18.06504,-9.52211,-3.28789,-25.76922,59.69097,-7.87845,0.41066,-0.1504,-0.00268,5.41822,14.49189,-6.44744,-3.31806,4.94094,3.02151,6.75417,-0.28376,-1.3073,6.28693,-4.10921,-1.20639,1.39072,-0.50805,-0.63961,1.69013,2.31504,0.22923,0.2599,0.07929,-0.17352,0.11728,0.22894,0.11488
3591,-26.55032,-1.18356,-1.11151,3.74711,-2.27279,-0.12632,-39.46816,-35.93256,1.86574,29.82257,-11.90815,-6.3749,-25.42644,59.36775,-8.23026,0.40418,-0.14718,-0.01866,27.84163,2.92144,-11.11464,2.4808,-14.22823,1.59479,6.80788,-0.63325,-0.81564,5.80954,-4.71091,-0.21693,0.84193,-0.55391,0.07212,0.53187,1.036,-0.0347,-0.03074,0.12181,0.00386,-0.11471,-0.04929,0.06455
3592,-26.79065,0.13978,-1.55236,4.38556,-2.11251,-0.13571,-38.83587,-33.18596,1.1049,31.61576,-10.31673,-6.23619,-25.30415,59.06461,-8.63348,0.43542,-0.075,-0.00973,32.03296,6.15727,-12.83666,3.69425,-35.81169,1.88332,7.17296,0.35769,0.31527,4.59332,-4.81338,0.22487,-0.55877,-0.27848,0.99985,-0.09627,-0.21814,-0.17729,-0.40719,0.20451,0.16134,-0.11925,-0.3387,0.04062
3593,-27.00995,2.16005,-2.05771,2.97876,-1.5121,-0.06821,-38.2627,-26.67552,-0.26178,25.47648,-4.83544,-2.19796,-25.17019,58.85423,-9.00282,0.49676,0.00687,-0.00507,26.98672,20.52775,-7.33107,-5.19029,-45.79274,5.84709,5.35366,1.75639,1.4187,4.44483,-3.9562,0.40783,-1.74759,-0.0378,1.25991,-0.01347,-0.07542,-0.49436,-0.58207,0.19408,0.14946,0.05433,-0.20013,-0.0613
3594,-25.76059,3.10714,-2.51201,1.85593,-0.71138,-0.01486,-35.00645,-25.66028,-0.78702,20.81014,0.83876,1.71893,-24.69946,58.42075,-9.29784,0.53485,-0.05696,-0.01657,25.23218,28.10858,0.21225,-21.8219,-42.6482,7.80423,3.03752,1.91379,1.48601,4.83349,-1.96855,0.72082,-1.20281,-0.40926,0.54717,0.23946,1.11609,-0.96172,-0.26709,0.00679,-0.00334,0.14467,0.26502,-0.23354
3595,-23.40743,2.18062,-2.71711,1.81761,-1.06587,-0.1714,-32.45583,-30.34383,0.71792,20.95249,0.79462,0.60778,-23.87156,57.57294,-9.57155,0.45385,-0.27048,-0.06998,26.11219,21.36495,1.07443,-32.69299,-27.03836,4.06222,3.19916,0.57366,-0.21457,4.35563,-0.38613,1.45445,0.54771,-0.64242,-0.60788,-0.25716,1.60649,-1.0345,0.32982,-0.1325,-0.20171,-0.04239,0.45833,-0.24047
3596,-22.0475,1.41257,-2.87269,1.84767,-2.42062,-0.47257,-31.98353,-31.11399,1.99433,23.87843,-4.97767,-4.40251,-23.05947,56.71909,-9.92872,0.29369,-0.45356,-0.18672,28.34977,12.99211,-6.57204,-28.9853,-6.13971,0.40332,4.46227,-0.81342,-1.80355,2.56965,-0.54817,1.54474,1.09655,-0.36546,-0.9185,-1.68948,1.17285,-0.77099,0.55811,-0.13801,-0.23936,-0.43986,0.23328,-0.03606
3597,-22.88955,2.65655,-3.26037,1.39499,-2.73175,-0.64916,-33.24259,-24.46093,0.87303,26.63659,-8.64133,-7.0169,-22.64536,56.39376,-10.41568,0.2399,-0.50978,-0.35252,30.11025,15.83076,-15.14037,-17.05141,3.38242,3.55039,3.52253,-0.61475,-1.01249,0.62041,-1.70146,-0.22455,-0.15946,-0.08655,-0.10027,-2.46429,1.14954,-0.63127,0.19122,-0.0461,-0.09218,-0.63984,0.03157,0.13653
3598,-24.44922,4.07562,-3.66055,0.65766,-1.76782,-0.67564,-36.73001,-19.58631,-0.69486,24.93698,-6.45037,-4.98034,-22.59931,56.49659,-10.95087,0.30829,-0.52116,-0.52098,22.96206,22.90946,-16.02468,-8.55664,-3.46682,12.07681,1.25245,1.18382,1.51121,0.30124,-2.49297,-2.97295,-1.49832,-0.16217,0.77844,-1.33998,2.19575,-0.7818,-0.31509,0.11449,0.00779,-0.3605,0.20305,0.08408
3599,-24.40318,3.4084,-3.84911,-0.82351,-1.95513,-0.7711,-40.10418,-22.27393,-0.64215,15.63,-5.76883,-3.20708,-22.59439,56.52689,-11.42215,0.23408,-0.5564,-0.63854,4.95977,20.38326,-11.19621,-9.38773,-14.00902,18.49706,1.11995,2.76512,2.92361,1.8597,-2.69184,-4.50482,-1.8342,-0.27327,0.88099,-0.08114,3.69939,-1.47769,-0.51819,0.22256,-0.04132,-0.00698,0.63522,-0.17015
3600,-22.28493,2.06331,-4.15376,-2.65122,-3.72861,-0.8865,-39.16069,-25.7729,-0.47883,4.55098,-10.6736,-4.60913,-22.37969,56.23493,-11.80981,-0.07957,-0.50733,-0.63169,-8.93401,12.49829,-9.00425,-16.46106,-21.59337,18.11962,2.94141,2.69424,1.99344,3.31582,-2.35377,-3.10928,-1.47671,-0.12359,0.39945,-0.87248,3.8681,-2.44718,-0.38836,0.12825,-0.09871,-0.08744,0.80433,-0.42202
3601,-19.41596,2.76972,-4.92327,-2.98363,-4.79916,-0.81601,-34.04821,-22.8418,-1.79028,2.82416,-14.49301,-6.5786,-21.94542,55.72532,-12.17403,-0.35309,-0.3277,-0.47615,-4.10666,12.82555,-12.21212,-21.62168,-28.52451,15.4725,2.51891,2.03922,1.46199,3.44576,-1.60754,0.73497,-1.0659,-0.29074,0.23124,-2.98236,1.86798,-2.76266,-0.19637,-0.15159,0.00127,-0.50556,0.4144,-0.45919
3602,-17.80014,4.75295,-5.76714,-1.36341,-4.27093,-0.63287,-30.65972,-16.79344,-3.09075,14.22314,-12.71044,-7.33544,-21.5011,55.18871,-12.63756,-0.34471,-0.21122,-0.26242,15.56639,19.88948,-17.42393,-19.63879,-31.20518,18.65237,-2.61105,2.88949,4.23787,3.89001,-2.04318,3.88291,-1.00274,-1.17106,0.8968,-3.98454,-0.25724,-2.14314,-0.22769,-0.36976,0.22977,-0.79575,-0.15147,-0.27462
3603,-18.17671,5.3586,-6.14487,0.08404,-3.6461,-0.53172,-31.90602,-15.14458,-2.78088,29.00947,-10.07731,-7.94415,-21.26679,54.80958,-13.26001,-0.16855,-0.29828,-0.11339,33.12218,20.96463,-20.86656,-15.18269,-24.71861,27.40989,-9.60935,4.9606,8.23707,5.64346,-4.78843,3.58404,-1.07625,-1.7671,1.6669,-3.02513,-0.39256,-1.34656,-0.41159,-0.3045,0.37317,-0.69207,-0.37915,-0.06104
3604,-18.65602,4.52373,-6.31077,-0.51634,-3.55892,-0.46848,-31.52938,-19.37697,-2.16283,33.62148,-10.15618,-7.91423,-21.25633,54.7795,-13.90997,-0.03613,-0.37159,-0.04264,38.85299,14.2263,-19.69203,-21.23016,-14.43956,31.72689,-13.81131,6.01326,8.91961,6.89138,-7.37721,0.75845,-1.44047,-0.78476,1.67184,-1.29918,0.99549,-1.14351,-0.57508,-0.00753,0.32387,-0.28042,-0.19124,-0.00019
3605,-17.05187,4.27209,-6.84084,-2.76518,-3.07973,-0.35604,-24.67836,-22.72906,-3.20254,24.02053,-8.88288,-4.89404,-21.29,55.0994,-14.39354,0.01696,-0.22516,-0.00463,34.06745,15.10682,-13.8076,-38.2301,-15.41018,24.0126,-13.12876,5.3344,6.15507,5.95524,-6.03571,-1.1801,-2.59088,1.02595,1.24855,-0.68102,2.44435,-1.7348,-0.73626,0.23341,0.19009,0.01925,0.23323,-0.15123
3606,-14.04783,5.23474,-7.63028,-4.45665,-2.37633,-0.28643,-18.04844,-19.44232,-5.17854,9.66642,-4.20875,-0.01737,-21.25695,55.53254,-14.70188,0.07463,-0.06381,0.00922,22.92659,31.2665,-8.18155,-44.13934,-34.92768,8.67977,-9.58499,4.23951,3.44729,3.33686,-1.14501,-0.22093,-3.6777,1.82103,0.86851,-1.89361,2.83441,-2.45298,-0.84233,0.19641,0.09029,-0.17048,0.60486,-0.37257
3607,-12.35603,5.73831,-8.01137,-3.53016,-2.43565,-0.24495,-19.89601,-15.31454,-5.60791,6.11685,-2.17521,1.47172,-21.30552,55.87764,-15.03522,0.19718,-0.08122,0.02869,15.66278,42.0199,-8.1139,-30.06137,-52.08407,0.45946,-8.83745,4.09393,2.70612,0.96818,2.68278,2.68249,-3.64063,1.63914,0.35825,-3.90685,1.72651,-2.34409,-0.83274,-0.01976,0.09254,-0.71165,0.61314,-0.4063
3608,-12.84125,4.48116,-7.75601,-0.77668,-3.27626,-0.10975,-26.51448,-18.17647,-4.13211,17.96026,-7.74102,-2.72456,-21.61575,56.10977,-15.52647,0.32282,-0.16331,0.08079,23.6803,27.75717,-13.35015,-19.41614,-41.00606,11.09366,-14.06824,5.23129,4.61569,0.88158,2.41838,5.78181,-3.39993,1.30111,0.42933,-5.25,-0.16195,-1.40889,-0.90122,-0.21827,0.32194,-1.09763,0.25119,-0.19535
3609,-13.27104,2.67035,-7.4697,0.90766,-4.14143,0.04296,-29.65543,-22.16176,-3.20439,33.54042,-16.41067,-8.32725,-22.09625,56.30474,-16.04588,0.32061,-0.19806,0.11652,41.43591,6.38902,-20.57194,-28.0298,-15.88337,29.57807,-19.35745,6.00449,7.18854,3.70659,-0.23442,8.09469,-3.58257,0.97333,1.35482,-4.75234,-1.43664,-0.37336,-0.99624,-0.29565,0.62606,-0.92121,-0.11181,0.04497
3610,-11.60333,2.32292,-7.78264,0.30709,-3.90883,0.02996,-30.49274,-16.36956,-4.51036,40.31555,-18.63585,-9.81944,-22.52252,56.57098,-16.40268,0.16638,-0.18527,0.08493,48.54958,10.08417,-26.92573,-42.84308,-9.97715,30.36099,-15.72022,3.79463,5.25131,7.70654,-2.09894,9.25881,-3.29882,1.05401,1.37299,-2.69547,-1.42706,0.2415,-0.77893,-0.15548,0.49178,-0.32474,-0.17353,0.12925
3611,-8.49123,3.9246,-8.65903,-1.54498,-1.54577,-0.17944,-33.18788,-2.70821,-7.07285,33.64127,-9.64004,-6.06415,-22.88543,57.08318,-16.6343,-0.03076,-0.09545,0.02515,32.46753,39.48748,-27.98219,-47.23735,-22.91235,11.33806,-4.90158,-0.16636,-0.89594,10.43953,-2.62741,9.56458,-2.66362,1.75564,-0.17613,-1.12482,-0.77709,0.42946,-0.40404,0.19678,-0.17299,0.09149,-0.07945,0.146
3612,-6.00325,6.06897,-9.57302,-2.93223,1.90957,-0.39448,-35.05059,6.69423,-8.97175,17.80094,3.44497,-1.07285,-23.41614,58.02879,-16.9626,-0.07265,0.05661,0.02338,4.51806,64.09353,-22.81356,-39.87164,-32.85581,1.24171,-0.20977,-0.52674,-3.02117,11.40124,-2.92403,10.00261,-2.98671,2.36602,-0.98005,-1.71358,-0.37706,0.30647,-0.44765,0.41627,-0.54537,-0.08005,-0.08243,0.23035
3613,-4.58752,6.92484,-10.12438,-2.00921,3.04466,-0.34221,-31.26556,6.33939,-9.59607,9.23072,6.70799,-0.21176,-24.23948,59.46607,-17.46891,0.20662,0.15041,0.08354,-4.24268,62.91241,-19.7526,-29.56921,-33.9286,19.19825,-10.1473,4.69447,2.90795,12.01362,-2.79593,12.36257,-4.89194,2.698,0.65977,-3.94803,-0.93159,0.36742,-1.12338,0.30249,0.09773,-0.63952,-0.25639,0.39027
3614,-3.20891,6.52084,-10.3849,1.08534,1.64969,-0.03377,-22.94658,3.69059,-9.7255,19.87959,1.37573,-1.86383,-25.19614,61.32114,-18.01503,0.61344,0.26627,0.1289,20.81366,54.61658,-21.68209,-24.52745,-34.4191,49.99007,-26.33169,10.48268,10.13693,13.84898,-1.50951,18.60861,-7.19357,3.3748,2.76738,-5.81757,-3.25994,1.97897,-1.85145,0.19062,1.09978,-1.03083,-0.66355,0.68459
3615,-2.39383,6.31339,-10.48365,2.86011,1.37046,0.13366,-17.36391,6.30828,-10.06183,36.78376,1.52772,0.22701,-26.11371,63.58018,-18.5474,0.65767,0.53138,0.10322,51.72239,65.23833,-20.45939,-26.97024,-37.64435,69.63824,-34.09826,12.06294,11.92937,17.23236,-0.5386,26.88778,-7.70253,3.85123,2.86854,-5.9556,-6.579,5.21312,-1.82584,0.23615,1.36281,-0.95979,-1.14587,1.05184
3616,-3.82407,6.55281,-10.26425,2.11082,2.02788,0.15552,-20.28443,10.72517,-10.70799,43.41299,3.53803,4.02525,-27.04704,66.41374,-19.21026,0.44017,0.59748,0.03294,58.62025,78.58237,-17.66829,-30.5,-34.83006,72.04984,-30.93265,11.34331,10.70535,20.57029,-2.63335,30.18936,-6.72513,3.46534,2.3331,-3.87112,-8.23567,7.70662,-1.24609,0.2392,1.0059,-0.52445,-1.32308,1.21414
3617,-6.44901,6.49315,-9.84596,2.24298,-0.09636,0.43956,-27.44099,10.55399,-11.51196,42.86708,-7.90262,1.18931,-28.10913,69.8707,-20.07188,0.53825,0.10173,-0.03108,49.66524,64.13344,-24.90533,-22.43772,-16.06099,64.5611,-26.65573,11.8814,11.29214,20.28313,-6.26807,25.46951,-6.27724,3.02469,3.4037,0.10644,-7.70315,8.62722,-0.92874,0.18953,0.98237,0.0621,-1.24271,1.22398
3618,-7.68162,6.79512,-9.74794,2.16626,-13.81608,-0.21674,-30.14405,6.74597,-11.63862,31.91145,-40.80927,-13.61845,-29.33343,73.64419,-21.02477,-1.20025,-3.34698,-1.45863,31.41422,14.70715,-45.3081,2.00317,9.25987,56.12013,-28.22474,12.27846,12.53202,14.22922,-5.99949,20.11784,-5.93895,2.77551,4.30929,4.52011,-7.72088,10.84822,-0.90952,0.22649,1.43378,0.63389,-1.38869,1.60417
3619,-7.5646,9.1185,-10.14823,0.70887,-15.52989,-0.64377,-26.28914,4.5567,-10.12938,22.63384,-43.2852,-18.80359,-30.81501,77.56625,-21.97947,-1.93326,-3.81425,-1.76905,24.51458,2.25473,-47.15358,27.81538,12.78507,53.80152,-33.845,10.23174,11.2542,6.55554,-0.72892,21.93348,-4.98027,1.99363,2.4235,8.08433,-9.52238,15.81657,-0.8222,0.31924,1.60002,1.14228,-1.8533,2.44346
3620,-7.7389,12.6887,-10.54482,-1.21931,-13.86052,-1.26553,-20.26207,4.57989,-7.15256,17.19103,-29.74888,-14.86966,-32.68655,81.84077,-22.95274,-2.79691,-3.77781,-2.01939,29.96082,15.73389,-33.60274,37.72409,-16.39933,56.76932,-36.74557,7.21586,8.14917,6.15418,3.9825,28.11904,-4.69987,0.9125,-0.58261,11.7109,-10.55741,20.22821,-0.79747,0.37469,1.22981,1.80447,-2.14662,3.08358
3621,-8.67402,14.15595,-10.29614,-2.49195,-13.66719,-1.57339,-19.54535,1.7284,-4.12453,15.39381,-20.05166,-8.92526,-34.91543,86.50285,-23.99008,-3.47799,-3.94369,-2.30179,33.68668,30.02368,-20.86818,31.54957,-49.60364,54.59508,-28.22285,4.65307,5.19697,16.0007,3.84798,31.05424,-3.92988,0.16945,-1.4351,15.80398,-8.40286,20.50641,-0.79361,0.38088,0.79223,2.58998,-1.85394,3.01928
3622,-9.50245,12.55599,-9.63008,-3.90084,-16.97852,-1.52825,-28.06721,-3.50385,-3.62883,7.67936,-23.4616,-8.15199,-37.31695,91.34435,-25.07647,-4.08907,-4.569,-2.66783,9.61413,34.85361,-22.77091,18.4301,-59.55934,43.37392,-9.98818,3.47886,3.86528,28.09293,1.2689,29.638,0.10172,0.13556,0.23339,18.33728,-4.36029,17.88854,-0.34841,0.46946,0.73141,3.01995,-1.162,2.54888
3623,-9.75719,12.16373,-9.72167,-4.24249,-21.36341,-1.2603,-37.55127,-0.197,-7.523,-2.39532,-31.99311,-10.37558,-39.73945,96.28452,-26.14358,-4.72557,-5.34648,-3.05023,-26.40438,45.15195,-35.20824,4.96855,-51.62446,31.75406,3.09659,5.90589,5.12732,31.72492,1.30978,28.58735,5.85283,1.20147,2.46574,17.91661,-1.65452,16.54336,0.52581,0.89205,1.04004,2.85767,-0.59593,2.29237
3624,-10.46893,16.23085,-10.82197,-1.63015,-23.27672,-0.97836,-34.73182,12.17513,-12.49564,-0.81876,-35.07477,-10.04461,-42.12843,101.15398,-27.16642,-5.56039,-5.89214,-3.37116,-28.36579,59.78756,-41.79937,-2.07125,-30.4964,24.74095,3.85539,10.87389,7.21952,23.44893,4.22359,27.84034,9.98904,2.52174,3.14779,15.12007,-1.13799,16.98023,1.31556,1.48187,1.18393,2.29721,-0.3301,2.27407
3625,-11.95713,22.02012,-11.72382,2.49791,-22.13691,-0.92658,-17.62627,17.88829,-12.13111,11.67691,-32.46791,-7.74533,-44.47074,105.54688,-28.1175,-6.97656,-6.06882,-3.63046,11.73694,54.02142,-34.0065,3.07592,9.11941,20.1876,-1.40963,14.96103,7.83716,11.04352,4.76916,19.73878,11.65404,2.80411,1.92289,11.66305,0.02123,14.6295,1.65761,1.73197,0.83945,1.70905,0.00555,1.87514
3626,-13.34367,24.97107,-11.38262,4.06076,-20.95479,-1.02493,-1.29606,9.27468,-5.58258,16.01432,-31.46369,-8.14002,-46.7941,109.2245,-28.90614,-9.23056,-6.00619,-3.86518,45.69358,24.04344,-21.74815,11.13749,42.63841,20.3699,-7.34592,18.00727,7.20978,5.52967,1.25539,2.70813,10.97978,2.73823,0.39103,8.63778,4.07364,7.13299,1.46691,1.61654,0.3518,1.33649,0.73046,0.82819
3627,-14.46651,24.67881,-10.15754,1.91564,-23.09166,-0.81681,-0.65269,-4.30374,0.66914,0.6299,-37.61638,-12.93476,-49.12461,112.25351,-29.45324,-12.07705,-5.93364,-4.12247,31.53001,-7.22778,-20.40195,7.71458,28.51531,28.15357,-12.42387,19.14517,5.84728,8.0816,-0.96556,-11.01274,7.91055,3.03466,-0.24325,5.9703,8.56566,-0.82446,0.77804,1.38386,0.1579,1.12055,1.54525,-0.2194
3628,-14.68764,23.72379,-9.32565,0.63857,-28.485,-0.07934,-7.21972,-15.31988,1.54965,-20.28109,-50.22356,-19.43998,-51.33531,114.58714,-29.72118,-14.99498,-5.97691,-4.46827,-6.49918,-31.2859,-30.63501,4.02251,-23.54279,34.42328,-11.23542,14.73804,2.92712,10.91447,0.77361,-12.84171,4.86504,1.98113,-0.50896,3.31537,9.91612,-4.42003,0.08375,0.85202,0.23873,0.75362,1.8822,-0.67755
3629,-13.22002,23.46279,-9.31397,5.05115,-33.38161,0.71182,-3.99397,-23.44299,-0.89059,-25.29202,-61.87257,-23.5185,-53.11853,115.78821,-29.68134,-17.76649,-6.13562,-4.90424,-16.57299,-53.19875,-39.49782,23.96501,-55.98916,30.24214,-3.13169,6.1039,-0.7672,11.37545,2.61569,-11.50711,4.77875,-0.85255,-1.14736,0.36513,9.30534,-6.36781,0.1237,-0.05165,0.27189,0.04201,1.76705,-1.07962
3630,-10.34067,23.63893,-9.46591,13.97584,-34.67813,0.89171,10.92427,-25.83029,-2.1729,-16.44598,-62.37508,-22.00928,-54.15459,115.25326,-29.24642,-20.62721,-6.42956,-5.33454,8.55016,-61.95694,-36.02704,56.13941,-40.45395,21.44671,3.72541,-2.11955,-3.06412,14.09759,3.03921,-16.3482,7.18746,-3.08736,-2.26162,-2.90512,10.3006,-11.27917,0.95239,-0.75988,0.00161,-0.80854,1.83503,-2.05858
3631,-5.33048,23.02956,-9.45847,22.01271,-32.34945,0.26378,34.52264,-20.60113,-1.65395,-15.42538,-45.73082,-14.12113,-54.20917,112.45783,-28.23803,-23.9868,-6.73899,-5.65928,40.24677,-41.32927,-18.36771,63.40211,-1.85999,12.9164,8.32321,-2.73148,-5.676,18.47151,3.1415,-24.08076,10.77529,-1.28932,-4.7342,-5.72569,11.99919,-17.24362,1.93834,-0.55886,-0.87406,-1.40999,2.12259,-2.98041
3632,2.49451,20.81399,-9.52021,25.97528,-27.7843,-0.8691,63.91535,-11.60885,-1.30859,-34.4139,-16.60624,-2.85636,-53.09036,107.28806,-26.53375,-28.16849,-6.66677,-5.84605,55.44383,1.79116,6.53164,38.65183,28.67437,-2.72602,14.08242,7.88321,-11.83746,18.10216,0.73178,-30.30761,13.37361,5.34988,-9.08493,-6.96059,11.44943,-19.43857,2.21779,0.59591,-2.23228,-1.55078,2.0725,-2.94998
3633,11.37223,18.04044,-9.6995,27.78444,-23.09142,-1.81429,89.57145,-2.05572,-1.70778,-66.89095,10.30579,6.39573,-50.56288,100.08401,-24.17606,-33.07794,-6.06897,-5.92881,45.0677,40.82895,28.24852,5.34165,43.64489,-28.94539,19.25722,19.08476,-18.59848,10.04004,-5.82943,-35.02247,12.29997,11.97519,-12.77323,-7.01671,7.89437,-17.68193,1.37456,1.83172,-3.05029,-1.51763,1.38519,-2.28656
3634,17.95254,17.05669,-9.88417,32.19743,-20.582,-1.85993,98.55529,13.53714,-3.16849,-96.28546,21.34079,10.17453,-46.4605,91.13754,-21.29335,-37.87153,-5.31839,-5.9523,11.97446,60.83622,38.27826,-16.88426,48.9599,-53.13385,19.21519,20.03611,-19.86717,-1.42386,-11.79777,-36.90379,7.46638,14.05909,-12.76073,-7.31763,3.07097,-16.29044,-0.12553,2.30313,-2.68683,-1.77935,0.47447,-2.05487
3635,20.87465,19.13612,-10.30924,42.34356,-20.85688,-0.88419,85.72463,42.15321,-7.27784,-106.6888,14.57049,8.79581,-40.91368,80.75948,-18.02035,-41.80161,-4.66209,-5.95745,-28.25034,68.06815,31.74852,-11.66046,51.01929,-58.26152,11.15264,13.58047,-14.32506,-9.60715,-10.98918,-33.69284,1.05859,12.30361,-9.11512,-7.88382,0.49568,-16.89029,-1.46391,1.99755,-1.6388,-2.30143,0.27389,-2.47211
3636,21.9297,22.40367,-11.04917,55.83337,-22.21132,0.54619,62.09171,73.96629,-12.73183,-98.04485,1.69127,6.07528,-34.41143,69.73936,-14.64114,-45.40047,-3.87823,-5.96706,-58.11325,68.43661,15.89604,24.00942,55.46854,-47.04294,0.95294,8.37599,-7.61236,-13.43071,-5.98481,-27.47462,-3.31679,9.70731,-5.12806,-7.88227,0.16339,-17.55162,-1.98742,1.41793,-0.75605,-2.74889,0.71028,-3.01149
3637,23.3708,23.66465,-11.68539,67.10815,-22.27013,1.83132,50.70332,84.05381,-13.92063,-86.12678,-2.69907,6.42803,-27.58401,58.91339,-11.61148,-49.72563,-2.6638,-5.86737,-64.861,53.37293,10.47982,56.73791,68.18188,-41.82884,-0.63208,7.73094,-6.9513,-15.93722,-5.45651,-23.76709,-2.98164,8.09042,-4.68426,-7.08483,-1.09808,-16.27056,-1.53998,0.98929,-0.52779,-2.82657,0.73578,-3.05669
3638,24.96455,21.89806,-11.89914,73.86041,-21.06055,3.11965,63.42749,60.48812,-7.86745,-82.18709,-0.53456,7.80539,-21.06254,48.4521,-9.25771,-55.03372,-1.04913,-5.52127,-46.24085,7.99192,21.58851,54.30097,89.66007,-53.25964,9.39535,8.47177,-13.6768,-17.33468,-12.5841,-25.90522,1.22925,7.20464,-8.78172,-5.96014,-3.29487,-12.83127,-0.52743,0.78699,-0.92715,-2.39948,0.16861,-2.29003
3639,25.47001,18.30065,-11.93049,78.3624,-19.66741,4.77325,87.76963,21.68723,0.99862,-82.37942,-4.59687,4.69808,-15.2487,38.10287,-7.49569,-60.6776,0.59566,-5.00349,-15.72436,-59.33904,32.33492,34.29844,112.20244,-68.63974,23.64624,9.64356,-23.9968,-15.78138,-22.03736,-31.67324,5.86323,6.4543,-15.0609,-5.22172,-4.12446,-9.59097,0.45577,0.69755,-1.65949,-1.76529,-0.23617,-1.22163
3640,24.24572,14.5634,-12.13929,82.61467,-15.45933,6.27667,101.66131,-0.84268,6.03424,-80.29747,-11.15364,-0.58379,-10.23665,28.02745,-6.02686,-65.73107,1.83233,-4.5034,4.27166,-103.92287,30.46504,28.79965,121.36063,-75.81829,31.42205,14.50697,-32.67166,-12.95409,-26.79544,-33.92035,7.29708,5.88713,-19.0355,-4.72312,-3.51421,-7.42307,0.91434,0.56338,-2.17881,-1.09122,0.0507,-0.49648
3641,19.03724,10.88462,-10.8525,84.8669,-4.84433,6.87503,93.69336,3.1098,7.08853,-78.57016,-4.64873,-0.60094,-6.46894,18.93489,-4.55749,-69.64851,2.33479,-4.11302,-0.40388,-94.77278,24.75761,30.06688,106.70587,-83.69105,28.974,23.83235,-36.90276,-11.67148,-24.83665,-28.62331,5.06459,6.05451,-18.44587,-3.93287,-2.74317,-4.99942,0.73938,0.42867,-2.12907,-0.31603,0.79399,-0.32621
3642,11.35063,4.6741,-5.41123,83.22412,9.45903,7.0225,80.09891,10.71745,11.02992,-79.89543,10.98882,4.17773,-4.19402,11.32303,-2.82561,-72.44329,1.91395,-3.83554,-9.45278,-67.36377,28.64609,14.31538,82.11697,-103.23158,21.72567,30.18222,-36.60504,-12.53863,-22.36005,-22.90198,2.006,6.29236,-15.63765,-3.55244,-2.7004,-3.07764,0.2719,0.42608,-1.75029,0.18094,1.2506,-0.60255
3643,5.39235,-4.94107,4.30653,78.85318,22.99254,7.64325,79.57242,-2.16335,21.75329,-79.01585,20.53466,7.4665,-2.9349,5.21566,-0.94416,-74.42414,0.81084,-3.51429,3.34704,-73.00136,40.92583,-12.19681,76.82673,-121.62029,15.41123,25.35991,-31.30763,-16.25733,-26.21661,-25.5469,0.23032,5.31112,-12.94812,-4.44491,-3.50014,-3.3771,-0.09205,0.50905,-1.32815,0.10448,1.09976,-0.9806
3644,-0.91049,-12.69262,14.95656,72.74496,35.67224,8.81594,79.74559,-27.58583,33.22589,-74.37037,23.61675,7.63388,-2.29029,0.77766,0.69007,-75.78518,-0.4046,-2.88646,21.11262,-102.68811,48.95132,-24.87218,95.73926,-119.34447,10.87162,13.22784,-22.36226,-20.12242,-32.56025,-34.60154,-0.49943,3.96482,-10.5092,-4.65506,-3.21905,-5.72608,-0.21974,0.56458,-0.93158,-0.00724,0.95484,-1.27311
3645,-13.13786,-17.28369,25.06256,64.19521,46.14028,10.24999,61.89262,-48.79005,41.28927,-72.56325,23.66103,6.11667,-1.04849,-5.40258,2.82042,-76.36557,-1.53709,-1.97825,13.83618,-126.98324,49.44962,-15.77757,111.29182,-90.45421,6.13183,4.49729,-12.9772,-20.15292,-32.15167,-38.8448,-1.11578,4.03031,-7.75145,-1.747,-1.19461,-6.89728,-0.21739,0.53194,-0.49684,0.62992,1.14362,-1.48326
3646,-18.01682,-12.4595,24.28985,54.5187,51.68034,11.74826,33.56208,-32.22397,39.59838,-73.39907,18.41972,3.17291,-0.67701,-4.3948,2.91252,-75.89047,-2.67681,-1.08303,-13.81069,-103.12151,41.09171,9.11173,100.61308,-43.05417,1.10091,2.59959,-6.6318,-17.73315,-20.98778,-28.35314,-1.77876,5.14788,-5.74983,2.82238,1.21265,-2.25424,-0.23668,0.44384,-0.22077,2.00534,1.09414,-1.2008
3647,-16.70328,-7.63577,18.62238,46.6201,55.0211,13.18904,23.83686,-3.92213,41.89716,-69.94707,10.85303,-0.92409,0.1595,-3.05928,2.66279,-74.48883,-3.54818,-0.23852,-19.47644,-70.55246,44.45284,42.29908,77.04846,-7.68078,-0.84349,3.4332,-7.78779,-13.56626,-6.68776,-11.43461,-2.59119,5.21721,-7.08494,6.38849,3.41413,4.75412,-0.40738,0.36863,-0.52785,3.22282,0.68024,-0.57178
3648,-8.48865,-4.46549,10.35133,38.0567,58.63234,14.36169,45.34006,25.31068,48.7596,-68.59862,0.73855,-6.18542,1.21578,-1.9595,2.16162,-72.90257,-3.92209,0.75311,7.80385,-54.38937,58.20982,64.05221,71.89275,-21.63951,3.18082,4.48183,-19.34048,-6.04947,-4.40641,-8.58316,-4.10956,3.40692,-12.10474,9.00124,3.6351,4.58973,-0.72021,0.32102,-1.33891,3.78499,0.27436,-0.68366
3649,-5.05383,-3.11567,7.1335,24.02728,59.10792,14.90711,60.23677,38.65958,50.50135,-77.29079,-18.82905,-11.78974,1.41397,-1.37253,1.92876,-71.74567,-4.2243,1.87201,21.16547,-72.9604,59.12186,46.04112,84.87206,-73.9295,9.82727,6.33825,-35.41552,1.24225,-14.48778,-19.37613,-6.14739,1.32508,-17.11687,10.66319,0.63058,-1.73047,-0.99199,0.25974,-2.04716,3.89251,-0.17728,-1.34714
3650,-10.51824,-4.2786,11.29806,8.00809,56.9831,15.10927,42.4299,30.09247,41.50457,-80.47592,-37.21017,-13.30177,0.68498,-1.4753,2.20809,-70.49171,-4.83368,2.98237,5.93355,-99.14696,38.99209,-9.22464,77.86747,-107.20145,12.20346,7.52922,-41.94804,4.59136,-18.84904,-22.46021,-7.0439,0.74622,-17.50895,10.53749,-1.97613,-3.96409,-1.02789,0.1557,-2.09922,3.62512,-0.69995,-1.14439
3651,-11.5391,-4.83498,10.18851,-1.79031,57.85826,16.043,9.8217,28.92895,31.81807,-59.33401,-35.70346,-8.17068,0.70612,-1.85765,2.36877,-67.99312,-5.67199,4.08336,-3.42613,-76.03445,23.5761,-53.61419,36.6752,-93.94468,9.03212,5.10345,-32.956,6.47805,-10.51885,-11.21394,-5.81131,1.4997,-13.29186,9.90575,-1.16159,0.74875,-0.79854,0.0781,-1.52948,3.14455,-1.10469,0.06774
3652,-1.04756,-0.49845,-3.96006,-4.40556,61.42821,17.84658,-14.55206,49.97143,30.89523,-21.89095,-19.52583,-1.21222,1.99782,-1.59324,1.80098,-63.8388,-6.65899,5.11277,9.29312,-12.60527,28.84855,-46.47948,9.62882,-64.60201,5.40928,-0.36249,-19.66277,7.5093,-3.43233,-1.92658,-4.14187,2.55963,-9.2376,9.6218,0.31458,5.59024,-0.52344,0.15605,-0.88916,2.66905,-1.38929,1.09239
3653,9.79828,4.25351,-13.74831,-7.43459,63.32091,18.90658,-9.30422,53.99869,34.10172,1.67438,-6.6694,2.00185,3.12712,-0.6254,1.20151,-58.53998,-7.46721,6.03837,40.12725,10.83236,38.791,-8.37084,41.6186,-52.39446,4.93232,-4.41239,-16.18844,2.80926,-5.09722,-4.98963,-4.05214,3.28415,-8.5118,7.83496,0.16349,6.08691,-0.40499,0.33819,-0.57912,2.06485,-1.41567,1.39666
3654,10.05964,1.52806,0.65542,-15.77207,61.60628,18.2503,37.7765,17.95397,39.74898,-3.80103,-8.01961,0.79295,3.24029,0.16999,1.89254,-52.64272,-7.52329,7.00797,90.24078,-40.40643,43.00804,3.00053,94.07384,-49.84879,5.94877,-3.2765,-22.38678,-6.96658,-3.63191,-8.87047,-4.96963,3.5582,-9.33959,4.05401,0.94307,5.3164,-0.39449,0.46204,-0.52757,1.29911,-1.0318,1.4854
3655,2.07815,-6.24067,25.08626,-26.16605,53.91135,16.39553,100.76078,-12.38338,60.4464,-19.84284,-29.61793,-3.81284,2.6872,0.44822,3.46808,-46.42886,-7.07574,7.85674,148.66841,-108.00879,59.55804,-30.76366,88.55493,-38.07057,5.80353,0.76722,-28.61109,-9.57475,5.57474,-0.90338,-5.49853,3.25638,-9.32236,1.84758,3.16848,6.60415,-0.4073,0.47139,-0.57927,0.77243,-0.73623,1.61904
3656,-4.66776,-10.33421,31.02457,-35.80852,40.69479,13.45166,125.01787,2.78787,92.31872,-29.77896,-57.38213,-9.03855,1.99867,0.56731,4.24184,-40.43911,-7.12175,8.07179,164.1049,-122.15022,89.94202,-66.50929,24.68015,-23.65862,4.36408,1.50327,-29.34337,0.21302,7.71304,11.14615,-5.62831,2.62351,-8.65636,3.09086,2.89807,7.9734,-0.43325,0.45589,-0.69985,0.61623,-0.95004,1.43228
3657,-4.3805,-5.83157,11.70618,-45.5959,28.79664,9.74281,82.39725,40.72788,100.08554,-41.33727,-63.67198,-10.54956,1.67438,0.87265,3.56521,-35.24669,-8.16734,7.52983,91.91216,-77.46108,94.10938,-68.76868,-15.73583,-17.13523,2.94195,-2.48527,-25.66162,9.23931,0.82418,15.08875,-5.23258,3.1273,-8.61318,4.06267,0.69291,7.0076,-0.34613,0.60986,-0.82846,0.40526,-1.04573,0.83859
3658,0.27866,5.23365,-19.6793,-53.99614,20.55512,6.47537,5.66249,58.55346,56.89565,-58.57767,-52.70842,-9.05139,1.87861,1.46891,2.00982,-30.80376,-10.01495,6.70422,-28.82759,-32.41602,38.75665,-52.09189,3.29029,-13.00437,2.12147,-7.34426,-19.65155,9.2641,-1.77177,12.4637,-3.65112,4.72773,-8.95742,2.41835,0.25959,4.52787,-0.02975,0.8152,-0.82387,0.03194,-0.55336,0.15559
3659,4.53133,16.8145,-44.06472,-55.61333,11.75824,4.50243,-46.28298,53.63111,-4.13427,-62.46084,-47.64243,-9.03797,2.14494,2.16458,0.34182,-26.7445,-12.23842,6.10025,-103.3084,-16.48064,-32.69101,-39.96983,25.42839,-10.18346,1.60822,-10.15671,-10.86971,4.6434,1.24837,7.90166,-1.08601,4.82396,-7.42508,-0.02656,1.2812,1.75296,0.41651,0.63321,-0.50314,-0.17161,0.05943,-0.42278
3660,6.7232,22.39409,-40.23042,-46.61398,2.91926,4.28659,-46.5051,49.43423,-12.35753,-37.32333,-43.8557,-10.40684,1.81615,2.43605,-0.33992,-22.76288,-14.43088,5.83822,-82.8068,3.35137,-29.96496,-30.10273,-1.1276,-14.08648,1.20817,-11.15135,-0.6955,0.66902,3.60011,4.10446,1.15777,2.57783,-3.52161,-0.91597,1.844,0.57811,0.78962,0.10031,0.04839,-0.08607,0.15797,-0.43755
3661,7.10239,18.98994,-3.52019,-31.90275,-1.28806,5.4585,-11.26514,48.12541,42.19723,-1.38156,-27.62356,-9.69497,0.90937,2.1163,0.83274,-18.8695,-16.41134,5.71211,-3.38094,35.1212,48.9332,-17.42535,-46.43952,-22.22837,0.46414,-11.56345,5.11031,0.47681,3.88857,4.74062,1.73093,0.52718,-0.27307,0.23613,1.69284,2.80595,0.93173,-0.17305,0.38503,-0.00946,-0.2405,0.47323
3662,5.35756,5.9818,37.43516,-22.96158,-2.2334,6.1889,31.20443,29.79799,76.46152,13.88593,-11.92288,-7.24727,-0.03566,1.38863,2.51662,-15.45117,-18.43856,5.4076,76.14159,30.03635,84.72504,-17.87716,-45.74028,-33.47796,-1.13872,-11.74522,2.14776,3.60601,3.18603,9.07726,0.49991,0.91671,-0.29263,1.81583,1.39754,6.34983,0.78949,0.13749,0.20842,-0.13816,-0.5388,1.53436
3663,4.02137,-15.97353,45.00071,-23.92618,-4.36519,5.37751,68.2095,-5.07002,35.22545,4.73199,-8.80615,-5.14521,0.11085,0.00797,2.60944,-12.59127,-20.8658,4.71817,134.75041,-19.47947,14.84125,-40.68211,3.50735,-54.70947,-2.9028,-11.4096,-7.87408,5.50416,1.67032,10.33235,-1.14285,2.91136,-2.58274,2.10832,1.1298,6.91531,0.48886,0.62652,-0.2183,-0.24964,-0.43564,1.55659
3664,6.27382,-21.46202,15.52177,-27.59902,-6.97948,4.05785,67.99649,-13.33922,-6.69918,-12.60691,-2.50781,-1.94116,1.74176,-0.30064,2.64613,-9.98917,-23.72458,3.63829,123.61675,-28.1118,-45.36708,-57.66553,44.38578,-75.4642,-3.40116,-10.73905,-16.67362,4.3788,-2.0234,6.28498,-1.39968,3.60797,-3.90578,1.55084,0.36614,4.03032,0.28504,0.59716,-0.34189,-0.12383,-0.17322,0.62705
3665,1.25427,10.62545,-1.93575,-26.47207,-9.35688,3.17946,-4.54271,23.691,71.23146,-29.41499,14.60611,2.76326,3.18554,1.58041,7.02194,-7.54685,-27.01223,2.31101,-13.86935,42.98407,56.03089,-32.12319,56.24839,-62.89822,-2.15007,-10.33857,-15.0535,2.63347,-7.40193,2.43137,0.47785,1.91067,-3.45637,1.43296,-1.00987,1.35839,0.42433,-0.02785,-0.14926,0.10026,-0.09878,-0.11833
3666,-3.35305,20.2012,13.81233,-20.72639,-15.08994,2.12279,-64.07552,32.05864,236.27396,-42.19895,21.67425,4.70831,5.89634,-0.35612,12.99645,-5.38534,-30.76798,0.99444,-150.70248,76.2989,261.1597,24.57948,74.03008,-11.07141,-0.84415,-10.01873,-4.43423,2.23238,-8.65572,3.47607,2.94205,0.42831,-4.07613,1.57236,-1.17713,1.56656,0.77176,-0.44575,-0.26411,0.106,-0.03227,-0.04453
3667,34.65535,-33.09745,-20.11449,-14.19447,-26.46993,0.02677,29.99969,-29.49566,240.77292,-40.26857,3.19006,0.57801,13.84796,-7.09318,9.83457,-3.44615,-34.76596,-0.14151,-63.01631,-9.98734,259.47867,57.85401,105.89444,37.2496,-0.68657,-8.54836,4.79855,4.19059,-3.68439,8.73842,4.25693,1.21505,-6.36562,1.55481,0.38803,3.58349,0.99452,-0.19991,-0.72689,-0.07474,0.22459,0.37586
3668,67.14238,-43.95943,-140.65112,-6.38829,-39.59977,-2.58229,133.69537,-43.92705,-57.96643,-10.33553,-26.00432,-6.72349,20.55526,-4.23145,-1.37364,-1.36704,-38.53668,-1.21724,117.21418,-73.27396,-110.68324,43.59755,112.47783,48.72614,0.6763,-5.28358,7.67331,8.04286,3.16501,14.40061,5.17222,2.29273,-7.39146,1.70122,1.91591,5.0311,1.12754,0.13194,-0.85995,-0.12181,0.33735,0.52223
3669,-10.36769,30.80766,-249.93626,3.15528,-48.52816,-4.43582,-29.75957,38.14474,-421.36118,36.98927,-43.4414,-10.29385,10.00662,8.46307,-11.08989,0.82754,-41.72042,-2.36165,34.09152,-16.84327,-536.71564,22.36259,76.55177,39.14124,4.2295,-1.61299,7.11481,10.35726,6.88415,15.64593,6.12324,1.56047,-6.12193,1.94476,2.08913,4.6579,1.1638,0.0436,-0.47168,0.0307,0.00974,0.42507
3670,-120.42396,84.60852,-285.80792,13.9707,-51.78425,-5.00524,-294.87607,99.40749,-558.68085,75.03765,-41.67065,-6.41699,-8.5773,17.05776,-17.1356,2.89152,-44.1954,-3.58269,-197.16171,51.42735,-662.19855,36.11189,25.32303,34.87415,6.77469,-0.62686,7.3612,7.92583,5.22895,10.48137,5.99347,-0.93968,-3.28026,1.78354,0.9003,3.01522,0.97423,-0.47296,0.13894,0.13061,-0.55945,0.44467
3671,-141.2218,78.44203,-245.52734,28.25659,-53.00719,-5.08051,-353.44019,82.26529,-416.89825,92.42435,-29.92858,0.65074,-15.29494,17.80406,-16.00013,4.95774,-45.90066,-4.90788,-263.15573,55.63457,-463.84299,71.02024,-20.04727,38.44021,4.01939,-5.27721,11.4856,2.49099,0.97666,3.3016,4.07953,-4.25711,0.72376,1.23436,-0.57666,1.94769,0.60335,-1.18541,0.68977,0.01217,-1.001,0.58465
3672,-97.71265,47.85022,-155.9127,41.91809,-56.38107,-5.79124,-237.02386,29.62457,-184.18922,88.74692,-25.7077,3.68338,-9.5974,11.1881,-9.20937,6.81586,-46.93978,-6.14259,-180.33253,16.11388,-202.25157,81.86515,-53.61638,43.65195,-4.38536,-13.72308,20.36258,-0.99462,-1.34861,0.4474,1.42573,-6.758,4.24503,0.75013,-0.7759,2.41024,0.2508,-1.63937,0.89466,-0.20153,-0.89242,0.53407
3673,-52.35899,22.73011,-90.19896,49.90587,-62.50663,-7.16218,-129.72551,10.06793,-133.80412,83.45143,-38.99294,1.39037,-3.74523,3.76344,-3.47911,8.26492,-47.65938,-7.02898,-88.7081,-13.39774,-178.52325,46.65407,-52.89368,49.9236,-10.96185,-17.99298,29.07808,-0.07893,-0.75834,3.54421,0.19936,-7.27427,4.8056,0.71635,0.58204,3.6395,0.13532,-1.56218,0.64797,-0.29196,-0.11446,0.31419
3674,-46.54597,20.61886,-93.0151,52.09279,-68.97525,-8.644,-154.59581,49.01278,-333.57562,87.46122,-64.87386,-3.86081,-7.03696,3.64097,-2.74922,9.55375,-48.23017,-7.58834,-107.35568,-1.29139,-425.75296,0.2454,-8.21834,58.38342,-6.62524,-13.20239,29.33655,3.29327,-0.77621,8.95457,1.79939,-6.30644,1.65164,1.2603,1.17569,4.49903,0.35893,-1.14525,0.11788,-0.18758,0.47929,0.19533
3675,-62.37872,32.32419,-117.96702,49.6085,-73.00029,-10.01549,-223.85574,93.61304,-512.21527,81.30503,-87.03873,-10.02642,-12.28437,8.72168,-5.9991,10.91291,-48.39217,-8.08272,-189.67953,21.21701,-620.06781,-4.27692,31.77799,67.66156,5.25673,-4.67276,20.96045,5.50919,-3.18197,11.56714,4.58728,-4.88699,-2.54561,1.94836,-0.19848,4.38027,0.62307,-0.71236,-0.28736,0.01227,0.30102,0.28027
3676,-50.64071,31.72698,-99.95158,42.91674,-72.91665,-11.23206,-195.71126,86.45276,-423.9313,52.30447,-92.89609,-14.86274,-9.91996,10.35104,-8.69788,12.18829,-47.81181,-8.72258,-200.49289,9.54768,-495.90195,29.17899,21.37337,71.15186,13.00941,0.18187,12.5722,5.80624,-4.70751,10.84422,5.7424,-3.90599,-4.3846,2.27556,-1.42856,4.04171,0.53447,-0.49631,-0.23805,0.0983,-0.14634,0.52979
3677,-15.03555,16.60646,-56.09342,33.91058,-68.11204,-12.07209,-92.96474,42.44907,-192.9843,15.90212,-85.08748,-17.38789,-1.87692,7.30978,-6.17202,13.01549,-46.62741,-9.53207,-131.92722,-26.87143,-216.69746,39.10062,0.57171,53.06341,12.09441,-0.04435,8.91625,5.42832,-3.49522,9.14739,4.45212,-3.96345,-3.15998,1.99816,-1.16264,3.97604,0.12178,-0.60566,0.13745,-0.02498,-0.3977,0.60606
3678,10.67937,1.74437,-28.6525,28.70176,-61.81995,-12.65229,0.5053,3.06066,-17.31593,-0.98725,-79.09319,-19.48343,4.86403,1.95539,-0.87475,13.28839,-45.77059,-10.59393,-38.44061,-66.78869,-26.13008,-9.8035,34.19355,11.71161,6.7974,-2.75312,8.56433,4.8615,-1.43101,7.76871,2.12148,-4.94674,-0.55037,1.27182,-0.29917,3.75833,-0.21345,-0.88879,0.41899,-0.22933,-0.30557,0.36757
3679,22.68603,-8.00795,-13.10562,32.51297,-59.38022,-13.27682,62.0805,-17.25149,81.99782,15.67369,-83.75935,-22.07603,7.38356,-2.562,3.08964,13.06508,-46.24478,-12.00593,67.07848,-106.3516,64.73479,-68.66628,100.47461,-16.61578,2.22119,-5.34962,10.05338,4.52738,-0.71062,7.86536,0.61593,-6.14044,1.40425,0.7783,-0.27505,3.73286,-0.17271,-1.07055,0.407,-0.3566,-0.06758,0.24282
3680,31.91046,-15.90245,9.58984,43.1325,-60.72054,-13.53253,96.79662,-25.79988,145.41223,57.95818,-90.56289,-22.29535,7.98086,-4.73662,5.75678,12.20481,-47.97204,-13.5535,178.61525,-138.77046,135.11394,-57.79039,128.3492,7.95269,-0.46737,-6.46597,12.45804,4.5369,-2.09477,9.63625,0.31893,-6.63209,1.88476,0.9323,-1.3804,4.46371,0.04543,-1.08643,0.28587,-0.39368,-0.06936,0.50259
3681,33.14619,-20.25999,34.36609,53.60575,-60.13495,-12.66089,92.90958,-30.56875,167.60677,102.71873,-87.26012,-17.65388,7.37028,-4.70729,7.07098,10.48311,-49.89302,-14.80451,250.47855,-151.34804,188.05037,30.37464,95.02296,76.318,-2.98559,-5.65626,14.7861,4.5855,-6.26386,12.65365,-0.10241,-5.76594,1.59473,1.52392,-2.92783,5.90238,-0.07588,-0.93349,0.29032,-0.40049,-0.25017,1.00749
3682,14.23686,-12.69338,39.94552,58.82792,-55.78254,-11.08766,31.01947,-29.20777,119.03828,125.564,-75.32999,-10.93983,4.39161,-2.99732,5.91496,7.93659,-51.35192,-15.61963,214.46854,-133.77571,159.72511,119.70937,20.6545,135.827,-4.94612,-4.05335,17.40765,4.8297,-11.33016,15.78847,-1.30056,-4.91884,1.49349,2.121,-4.04992,7.2076,-0.63083,-0.7584,0.43112,-0.38205,-0.39011,1.38864
3683,-10.47305,1.9841,29.1814,58.36134,-51.63363,-10.14612,-46.5106,-19.73507,19.80781,122.69886,-63.24894,-6.86944,0.7743,-1.01782,3.43072,4.94243,-52.68961,-16.28761,112.07355,-95.64104,46.19144,133.92157,-50.49935,141.55287,-5.19937,-2.82866,18.32215,5.76479,-13.49379,17.44643,-2.06602,-4.84834,1.44153,2.39255,-4.09197,7.24654,-1.05279,-0.71188,0.54286,-0.31173,-0.45159,1.29134
3684,-20.71352,11.55904,9.26103,54.12834,-50.7364,-10.38877,-72.21624,-1.95996,-88.47701,111.04895,-55.66402,-6.54187,-1.03084,0.43888,0.30042,1.93226,-54.44187,-17.03015,61.59188,-59.76548,-100.64326,62.44421,-49.12854,92.96077,-5.6568,-1.62739,13.05083,7.59005,-14.31047,18.80865,-1.57057,-3.24127,1.1085,2.29414,-3.96966,6.26763,-0.91033,-0.55502,0.52119,-0.26816,-0.53651,0.81715
3685,-23.89223,18.33356,-12.71824,47.2716,-51.83719,-11.10958,-60.07277,15.81172,-138.36937,100.75942,-54.65511,-8.10859,-2.0349,1.46851,-2.47447,-0.94415,-56.47985,-17.59336,66.14212,-43.92526,-182.90953,-28.49187,38.5692,36.80914,-6.91026,-0.60479,4.58356,9.90658,-16.86062,21.98253,-0.52388,-0.17575,0.7049,2.22885,-4.72471,5.94286,-0.45744,-0.21412,0.41586,-0.31766,-0.66969,0.49429
3686,-27.87581,24.73951,-19.06924,38.892,-51.06915,-11.2297,-56.36734,19.00697,-76.15018,90.0468,-57.86325,-9.81619,-3.05181,1.83482,-2.81665,-3.80218,-58.13311,-17.56709,55.66352,-49.84796,-121.20557,-46.45603,117.96465,23.87389,-5.85459,0.01531,1.21772,10.67365,-18.61316,23.69503,0.65069,1.12211,0.20341,2.38419,-5.70792,6.60164,-0.07084,0.06082,0.2806,-0.38429,-0.76802,0.58082
3687,-28.00072,27.08378,-15.48318,31.535,-48.29785,-10.65464,-63.14362,16.40871,14.77808,80.36665,-66.47173,-12.10662,-3.30145,1.60749,-1.88075,-6.63463,-59.16048,-17.06231,23.52545,-65.18367,-16.96171,22.00231,100.45575,50.16341,-0.80055,0.59788,3.38447,8.37766,-15.19757,19.51548,1.60224,-0.17707,-0.10238,2.42836,-5.38848,6.83638,0.13084,0.13645,0.17634,-0.35709,-0.7155,0.83368
3688,-26.54507,28.71141,-18.8118,26.67883,-47.11825,-10.15231,-73.87225,26.9849,19.65746,71.63303,-81.75946,-15.21802,-3.28637,1.56265,-2.26462,-9.17632,-59.83797,-16.58201,-12.30654,-75.42444,-16.10402,92.73825,23.07715,69.42338,4.56033,1.33293,5.05013,4.817,-7.72305,12.08768,1.30796,-1.33396,0.18029,2.16894,-3.24155,6.07312,0.06502,0.15829,0.14126,-0.21095,-0.45781,1.0687
3689,-27.12634,32.0104,-23.94438,23.67833,-48.2201,-10.04445,-81.75845,44.01158,-36.0428,59.53431,-91.27945,-16.71674,-3.76674,2.20806,-3.75672,-11.11297,-60.37419,-16.43245,-38.39053,-72.30799,-83.94108,88.28028,-7.37093,58.64623,4.49239,2.12905,4.62949,2.71066,-3.25058,8.1791,-0.34041,-0.73841,0.58598,1.72584,-0.90023,5.09424,-0.297,0.20421,0.14304,-0.05698,-0.15765,1.33282
3690,-23.73148,29.76168,-20.05403,19.87731,-47.57457,-10.06012,-66.60997,45.0134,-56.20375,43.30962,-80.49472,-14.78055,-3.62784,2.88619,-3.99748,-12.49875,-60.94362,-16.54632,-32.69775,-59.55263,-100.58807,16.20145,47.50385,37.89278,-0.58018,2.61159,4.51938,3.09754,-6.83538,10.85642,-1.24111,-0.18285,0.31676,1.35698,-0.63068,4.57372,-0.57918,0.08015,0.10977,-0.06215,-0.08549,1.41615
3691,-15.91756,21.04264,-11.03031,13.8865,-43.29785,-10.08047,-34.33335,30.01327,-21.0165,28.69561,-58.40998,-11.68614,-2.3298,2.41675,-1.79196,-13.57414,-61.71237,-16.7122,-1.47122,-48.96234,-51.84787,-43.47829,116.52026,34.51973,-3.16632,3.03972,5.57362,6.17711,-14.25702,17.50203,0.38475,-1.10903,-0.52771,1.5943,-2.24046,4.60909,-0.36784,-0.18094,-0.01544,-0.14963,-0.1726,0.93146
3692,-10.49007,13.25183,-11.25616,7.12348,-38.85686,-10.2325,-7.74458,17.63567,5.9335,18.17942,-44.21381,-10.08965,-0.99775,0.87214,0.90044,-14.49019,-62.67752,-16.80638,28.98153,-45.47594,-20.16596,-28.7943,114.84748,47.10753,0.36535,4.42418,7.00846,10.57738,-18.54076,22.85819,2.81989,-2.18475,-0.98158,2.79186,-4.09589,5.08105,0.06362,-0.22013,-0.15113,-0.07589,-0.195,0.1518
3693,-9.7544,9.34836,-22.09891,1.49779,-34.99191,-10.2551,3.6925,14.87678,-12.40135,8.43021,-32.68389,-8.22746,-0.43299,-0.45115,1.89975,-15.43921,-63.54865,-16.82048,41.79463,-33.38087,-39.50745,32.72004,45.68859,49.97616,5.17972,6.14754,6.61754,12.58892,-17.02602,22.24862,3.4657,-1.53038,-0.85811,4.37159,-5.17177,5.90341,0.18485,0.08286,-0.19427,0.15052,-0.30388,-0.07132
3694,-10.82765,8.9701,-26.62682,-1.10717,-30.59368,-9.92865,1.62266,16.96292,-37.68193,3.16602,-17.5188,-6.03057,-0.54604,-0.47297,1.47829,-16.54795,-63.97817,-16.84552,40.10599,-9.98136,-60.52008,78.33183,-22.5511,31.45465,7.33102,6.09407,3.73056,9.07939,-10.83205,14.34708,2.60003,0.09338,-0.77655,4.6879,-4.67698,6.11829,-0.01459,0.33183,-0.12816,0.28347,-0.44618,0.49854
3695,-11.0612,11.60941,-19.92113,-1.085,-27.78901,-9.74214,-9.94306,19.95579,-32.4815,6.95738,-12.95307,-8.19425,-0.76767,0.5917,0.40963,-17.9221,-63.97423,-16.89515,31.471,-0.41127,-54.21626,78.50195,-31.04138,3.63748,7.78985,4.67754,1.23963,2.01628,-6.61456,4.58794,2.16141,0.61109,-0.84365,3.21894,-4.41233,5.08032,-0.16706,0.18843,0.01332,0.10472,-0.72236,1.13989
3696,-9.87212,13.19715,-12.82312,-0.49923,-27.90096,-9.91212,-19.78465,19.73884,-4.03712,13.9505,-25.16578,-14.91162,-0.66192,1.357,-0.66683,-19.67849,-63.91581,-16.9156,22.64263,-19.62748,-35.81846,22.77878,45.43896,-24.36925,7.34265,3.67025,0.45846,-1.02432,-4.14055,1.37815,3.35533,0.08936,-1.12518,1.66902,-3.63519,4.39293,0.01018,-0.06608,0.05205,-0.17302,-0.83495,1.32918
3697,-7.2022,10.35311,-7.82867,0.78667,-29.93653,-9.88217,-13.2519,13.51705,29.27823,17.95907,-42.40932,-19.84211,-0.35712,1.0982,-0.69277,-21.7732,-64.26994,-17.06272,27.95996,-55.15234,-8.16835,-66.7466,154.82397,-45.83448,5.80363,2.05431,-0.52862,2.13909,-0.61657,5.5317,5.1716,-0.18956,-1.64126,1.28669,-1.09197,5.04601,0.39752,-0.05772,-0.11634,-0.21528,-0.4022,1.25417
3698,-3.71203,4.73951,-3.68658,3.53695,-30.84253,-9.11883,7.58822,4.34799,48.91824,18.24991,-46.6101,-18.09986,-0.02723,0.34593,0.08394,-24.0574,-65.07726,-17.47336,46.6886,-74.42015,24.62443,-104.91993,176.92828,-38.09827,4.80315,-1.58777,-2.73624,5.53371,0.19327,10.038,6.15383,0.02956,-2.09127,1.79835,0.45532,5.84824,0.74696,0.1094,-0.33233,-0.07118,-0.05553,1.19624
3699,-1.8506,-0.09124,-3.79259,3.72571,-27.56429,-8.23898,26.77715,-1.62554,46.97018,9.52699,-33.35079,-12.37809,0.27796,-0.21984,0.40167,-26.59709,-65.95502,-17.84317,53.71611,-62.58551,43.8213,-39.10788,71.95178,11.70291,5.24317,-5.61346,-5.56683,6.21881,-5.43375,12.13311,6.18932,0.77694,-2.7727,2.80273,-1.14216,5.91905,0.87771,0.24851,-0.46793,0.07917,-0.28643,1.09797
3700,-2.87232,-0.44557,-6.33958,-1.22601,-21.55313,-8.02057,32.68175,0.52149,37.82183,-5.94076,-24.0624,-9.22565,0.3039,-0.34107,0.3951,-29.42812,-66.71593,-17.87378,40.9657,-50.77478,43.3774,73.29887,-63.47224,73.934,6.16734,-7.44173,-8.12126,6.21767,-13.99316,13.03467,6.07053,2.03041,-4.21959,3.70601,-4.25805,4.83925,0.73964,0.38459,-0.60159,0.1441,-0.75901,0.64296
3701,-5.24139,3.51043,-7.15117,-5.91438,-17.49109,-7.99199,21.39804,6.74077,25.27369,-12.42822,-35.32725,-10.13556,-0.12516,-0.04859,0.88692,-32.24389,-67.5846,-17.86348,24.0628,-69.2874,20.46526,153.35336,-136.59334,103.86282,7.38131,-5.87393,-8.19587,4.70208,-16.35424,9.84524,6.86272,2.44303,-5.13237,3.37362,-5.37651,2.53225,0.6144,0.45557,-0.69154,0.10985,-0.89028,-0.08316
3702,-6.48932,4.46779,-6.6015,-6.57743,-15.11397,-7.59836,4.70291,3.61253,2.70666,-9.81644,-45.61901,-10.50066,-0.52796,0.19942,1.64284,-34.9235,-68.63618,-18.15565,11.88633,-96.59463,-20.64314,171.32896,-138.00485,85.2563,9.09275,-1.18376,-3.98003,-0.75593,-10.45614,0.65064,8.87863,0.80554,-3.30102,1.90238,-3.9826,0.16343,0.82524,0.26627,-0.4498,0.05753,-0.67963,-0.47567
3703,-6.9667,0.72138,-7.41668,-5.02748,-9.33651,-6.996,-5.37313,-7.68805,-19.30537,-10.14677,-26.91213,-7.23957,-0.21448,0.00773,1.75745,-37.66088,-69.47272,-18.58803,-0.26158,-88.19139,-56.08783,121.08008,-81.11728,36.0585,10.36719,4.54869,1.98731,-6.28013,-3.45806,-7.38562,11.23115,-1.55034,0.48382,0.78465,-2.11633,-0.67488,1.30828,-0.08216,0.10675,0.06744,-0.38723,-0.26667
3704,-11.04375,-0.0726,-13.94648,-2.71439,0.10104,-6.36099,-17.5488,-9.79194,-33.12304,-11.97848,7.80324,-3.40598,0.57373,-0.43406,0.5474,-40.48841,-69.7182,-18.83702,-17.57835,-45.89932,-77.54501,24.5758,12.25535,-9.5745,10.81992,8.67249,5.53661,-5.74624,-2.14619,-6.32345,13.22041,-2.66134,3.2557,1.08341,-1.40728,0.36141,1.78431,-0.27111,0.55854,0.10951,-0.17926,0.16528
3705,-20.74226,4.3191,-26.15742,-0.56561,7.55728,-5.71951,-34.87521,1.75953,-40.11328,-9.36792,21.26834,-3.23884,0.72878,-0.74202,-1.6286,-43.24432,-69.42879,-18.80935,-30.43973,-21.29073,-89.58327,-60.26334,95.70281,-28.24954,11.56979,10.05024,5.80066,0.06339,-6.15297,1.28618,14.76608,-2.35306,3.92924,2.61063,-2.05841,2.09825,2.07223,-0.20391,0.6821,0.24311,-0.26483,0.33932
3706,-28.47756,8.21436,-33.13816,1.02677,10.27211,-4.9038,-30.24366,15.55437,-24.45233,-5.90908,3.19781,-5.50189,-0.07022,-0.69735,-3.07124,-45.67509,-68.89073,-18.69141,-12.72335,-41.05639,-67.52657,-88.61076,134.91414,-20.8216,13.05513,7.89441,3.68893,5.93662,-9.18447,8.07298,15.03691,-1.24676,2.79325,4.2547,-2.7628,3.66953,2.07451,0.01343,0.49583,0.53141,-0.56898,0.27394
3707,-21.26451,7.59147,-22.74372,2.12299,11.87173,-4.11852,23.07887,20.44248,27.31936,-11.19305,-19.98589,-6.83268,-0.43795,-0.37598,-1.98504,-47.68677,-68.32066,-18.66315,46.56509,-77.37912,9.97461,-58.31087,126.96498,-2.55767,15.52497,2.06949,0.32318,8.83452,-7.76713,10.66297,13.15299,0.00194,0.37081,5.18212,-2.7287,4.85472,1.79618,0.21399,0.09619,0.84582,-0.8065,0.26006
3708,-1.68681,2.91302,-2.16967,2.68721,15.73668,-4.10707,95.9417,10.23855,79.19254,-24.82189,-23.67065,-8.55042,0.43774,-0.10608,0.88385,-49.45893,-67.81028,-18.72174,110.26385,-100.73907,88.97308,0.92053,91.54234,9.49077,19.76752,-4.45749,-2.69587,8.55503,-6.2849,9.23107,10.39308,0.69078,-2.17125,5.39335,-2.81904,4.63025,1.43036,0.24958,-0.3209,0.95139,-0.85977,0.2431
3709,8.95193,-2.10546,8.10136,4.21981,21.80231,-4.83328,119.67716,-9.45426,80.88683,-34.73881,-7.4288,-12.76395,1.28947,-0.0207,2.613,-50.97391,-67.32068,-18.82196,118.78876,-103.74689,93.07414,44.31364,59.8637,6.62379,23.23572,-7.5119,-4.55908,6.17125,-8.3719,5.85831,8.69017,0.58414,-4.00683,4.96591,-3.30058,3.03518,1.14454,0.09693,-0.64019,0.73171,-0.76833,0.21014
3710,1.54449,-4.72844,3.37832,6.15511,29.02868,-5.81925,78.49529,-23.20388,41.16316,-42.7317,15.17759,-16.89048,1.13031,-0.29054,2.11164,-52.08235,-66.87206,-18.92776,56.66997,-89.17812,33.69027,42.11784,47.18941,-7.12339,21.1911,-5.62724,-5.05808,2.71386,-10.79712,2.69751,7.30072,0.00063,-4.5513,3.89976,-3.29792,1.96762,0.84269,-0.13632,-0.8017,0.33812,-0.62167,0.36685
3711,-11.55486,-6.23691,-4.36621,6.27619,35.11341,-6.77733,21.78241,-23.40432,6.36555,-55.86359,30.91566,-17.00106,0.5272,-1.16135,0.8889,-52.82024,-66.7421,-19.05348,-26.7078,-67.81423,-19.84146,8.59589,42.14722,-22.99919,14.97621,-0.74959,-3.65488,-1.50336,-10.98475,-1.44539,4.64896,-0.5107,-2.8812,2.70456,-2.73708,1.00625,0.44908,-0.25611,-0.60171,0.07629,-0.4715,0.36328
3712,-17.38239,-7.06276,-6.53933,6.85479,39.73145,-7.00886,-5.22398,-14.24709,0.83066,-62.51938,40.93307,-12.30581,0.29929,-2.10019,0.34915,-53.12159,-66.88402,-19.17622,-64.68003,-45.02875,-28.56262,-10.10237,35.78892,-32.98362,11.22057,3.54184,-0.86197,-5.09491,-10.32454,-7.35769,2.35601,-0.36162,0.36719,2.25356,-2.22526,-1.41122,0.25052,-0.10273,-0.00152,0.17134,-0.34455,-0.13799
3713,-13.63767,-7.07674,-3.40846,8.88783,44.09291,-6.72513,8.20574,-9.00712,16.0646,-57.80254,50.57407,-6.88285,0.67572,-2.36353,0.6497,-53.12231,-66.849,-19.17636,-39.56701,-32.27732,-3.79063,16.4874,35.22961,-30.8105,11.39017,4.70084,1.24149,-5.63098,-10.07416,-11.47252,2.9823,0.40692,2.52468,3.16183,-2.12292,-3.71048,0.52888,0.21294,0.49755,0.59257,-0.34494,-0.63377
3714,-4.80154,-6.78907,1.35431,9.67016,47.27202,-6.93628,45.00333,-14.67422,33.84111,-54.75479,56.9661,-4.60904,1.44347,-2.08106,1.31489,-53.35864,-66.51739,-19.11377,10.12066,-39.40487,26.3985,62.88739,41.17076,-19.36357,11.35543,2.94618,1.17996,-3.21639,-9.44495,-10.70265,6.03053,0.9845,1.84029,4.79352,-2.1348,-3.39406,1.12097,0.37493,0.36856,1.00425,-0.43111,-0.60542
3715,2.61876,-5.2493,3.69776,10.23843,48.78145,-7.47204,76.4001,-19.94414,43.99614,-58.34422,59.3156,-4.32495,2.10511,-1.82804,1.70702,-54.02185,-66.09264,-19.23095,42.49882,-47.95252,46.77916,68.50447,41.4114,-10.92314,9.86195,-1.21321,-0.83734,0.2947,-8.75865,-5.99158,8.49944,1.01343,-1.29223,6.3067,-2.06029,-0.58734,1.46721,0.27005,-0.20096,1.17183,-0.48699,-0.19657
3716,2.13127,-2.99671,1.95562,14.00195,48.8316,-7.54878,79.29053,-17.359,40.97681,-62.79488,59.18616,-4.74194,2.03408,-1.8241,1.36616,-54.65851,-65.65734,-19.61782,37.67678,-45.19742,47.03639,20.36639,36.6095,-11.9041,10.6461,-7.36657,-3.52434,3.62544,-8.84351,0.01277,9.32174,1.01999,-5.34081,7.1709,-1.93025,2.903,1.41469,0.11652,-0.64295,1.08513,-0.48472,0.26466
3717,-5.99967,-2.29121,-0.96738,20.76115,48.17076,-7.17497,54.25811,-14.39613,26.94174,-66.78468,57.82475,-7.24468,1.14472,-1.82669,0.56388,-55.02138,-65.03997,-20.02175,-0.5597,-42.82459,25.7634,-21.58145,38.55059,-15.61886,14.92672,-11.89394,-5.68,5.30187,-8.25852,4.75995,9.36016,1.34191,-8.44775,6.60628,-1.6865,5.53807,1.29932,0.11979,-0.90198,0.76439,-0.44995,0.61781
3718,-13.33431,-2.95828,-1.64621,27.01316,48.14873,-6.87144,28.03919,-16.30605,15.31683,-74.08702,57.94668,-12.05865,0.15684,-1.53292,0.02757,-55.72726,-64.07684,-20.08457,-43.58244,-48.76406,3.38324,-8.78214,44.17929,-15.11939,18.1806,-10.07962,-6.4866,4.08825,-6.3434,5.006,9.19374,1.64867,-8.81547,4.94875,-1.36239,5.61897,1.35908,0.24841,-1.16611,0.42958,-0.38894,0.63872
3719,-15.27951,-3.42624,-0.53823,29.79119,48.81867,-6.79935,17.26904,-20.15708,11.68242,-81.2203,61.73808,-15.3625,-0.30444,-1.1425,-0.00774,-57.53262,-62.93552,-19.75662,-66.49527,-55.37651,-5.69093,34.9294,41.78578,-15.63204,16.78002,-2.97089,-5.39644,0.06198,-5.24947,-1.82022,8.64943,1.61402,-5.98417,3.94983,-0.84107,2.07962,1.41957,0.37281,-1.1685,0.43611,-0.21941,0.12014
3720,-14.46685,-2.14043,-0.42371,29.30484,49.17513,-6.68234,10.53754,-17.14242,8.1161,-74.98961,68.34372,-12.71045,-0.25225,-1.02324,0.12967,-60.1507,-62.02429,-19.37264,-67.16499,-45.56303,-10.76351,59.51558,33.29409,-24.64311,12.12006,3.86938,-2.51716,-5.40251,-6.41171,-12.75575,7.07518,1.15742,-1.2756,4.34869,0.03934,-2.73806,1.12363,0.35775,-0.58438,0.7511,0.0535,-0.6034
3721,-10.61935,0.99344,-1.84855,28.0782,49.94876,-6.4334,6.06533,-5.21061,3.34479,-52.74892,76.15475,-5.32019,0.24313,-1.03797,0.28523,-62.39533,-61.30962,-19.16431,-46.23729,-15.98642,-15.59475,49.78092,32.2932,-36.75698,8.5592,7.12857,0.63719,-9.12664,-7.83558,-19.11835,4.92793,0.38783,2.9537,4.91023,0.8137,-4.5912,0.61042,0.18007,0.22474,0.97385,0.22501,-0.86826
3722,-0.93103,1.7402,-1.58321,26.89368,51.21757,-6.40575,24.99719,-4.66783,6.69009,-34.81235,82.34269,0.82858,1.26279,-1.08236,0.62412,-63.88251,-60.45211,-19.0583,-4.4065,-0.42539,-5.37858,26.61026,42.15044,-38.38265,8.5891,5.97531,1.66013,-7.13058,-7.18346,-15.19903,3.74083,-0.22634,3.88623,4.78833,0.92261,-2.6076,0.36386,-0.00782,0.5257,0.92863,0.19839,-0.5681
3723,10.6042,-3.01554,2.22039,26.23904,50.19958,-6.41635,67.09449,-30.96959,18.79494,-36.71331,82.62151,2.94981,2.43196,-1.40484,1.09781,-65.36075,-59.56141,-19.08016,39.82656,-27.65995,22.98391,17.82029,45.26832,-26.09892,11.32317,0.84417,-0.21805,0.68789,-5.47682,-5.13057,4.18287,-0.08245,0.64223,4.85718,0.72,0.1786,0.49898,-0.04028,0.16472,0.83612,0.11464,-0.17398
3724,16.53783,-9.14963,6.31988,28.07144,46.12894,-5.89036,97.35587,-62.66943,27.0484,-47.86047,77.33495,2.8761,3.07168,-1.87132,1.36796,-67.09064,-58.9602,-19.34559,59.25061,-72.11323,45.17098,28.58592,26.55069,-13.4574,14.43071,-4.6887,-3.04174,8.17673,-4.76201,1.85474,4.91193,0.74574,-3.732,5.4997,0.86163,1.16719,0.64309,0.07797,-0.32306,0.85124,0.09979,-0.01919
3725,15.80542,-10.32605,6.68351,31.42058,42.87792,-5.28673,89.1697,-65.81264,23.10055,-50.15667,72.69039,1.5326,3.00413,-1.87961,1.29342,-68.4762,-58.54393,-19.66605,45.38758,-86.82598,37.81134,36.38397,0.82135,-14.96336,14.99819,-6.15985,-4.57065,8.77597,-4.57822,0.95619,4.4268,1.50279,-5.59545,5.52008,1.36809,0.23666,0.5568,0.23044,-0.54243,0.83566,0.18739,-0.13524
3726,12.78055,-6.57547,4.04946,31.79729,44.0718,-5.6894,54.83157,-39.61599,13.28625,-43.34495,74.37437,-1.60003,2.5528,-1.29679,1.10647,-69.37717,-57.97003,-19.6658,11.9792,-63.14351,10.1616,24.42267,-6.80322,-27.5709,11.48915,-2.99417,-4.45019,3.05127,-3.5134,-4.97196,3.21111,1.64337,-4.63497,4.36158,1.96875,-1.52724,0.45276,0.32911,-0.58072,0.65419,0.40646,-0.46197
3727,11.14753,-3.65025,2.44679,28.15592,47.33639,-6.80409,32.83995,-14.38206,10.41273,-39.00335,79.03931,-5.14648,2.058,-0.76513,1.0539,-70.28452,-57.21246,-19.30573,-11.07062,-33.5793,-4.42966,4.26232,4.69682,-36.73154,6.40479,1.57327,-3.80952,-3.06304,-2.22321,-10.28699,2.50649,1.16425,-3.00511,2.77506,2.45128,-3.10444,0.50719,0.32255,-0.68337,0.33653,0.63714,-0.78217
3728,10.32106,-3.92232,2.82225,24.75786,47.93547,-7.27439,39.2869,-7.57526,15.74439,-41.5761,79.84378,-6.425,1.5871,-0.75447,1.03228,-71.11794,-56.35724,-18.85949,-9.51332,-21.47985,6.31956,-3.59254,22.33584,-37.53431,4.46668,4.75671,-3.42563,-5.46008,-3.23137,-13.16585,2.74931,0.35229,-1.89591,1.80145,2.78113,-4.04466,0.63274,0.20991,-0.84178,0.07967,0.6415,-0.806
3729,9.30873,-4.67146,2.90286,22.28945,44.89891,-7.24146,54.21808,-11.2962,18.85583,-53.08256,78.79507,-4.79744,1.23496,-0.99197,0.90783,-71.2734,-55.40222,-18.55489,-8.1583,-19.4319,22.59794,3.52609,38.1149,-35.34687,7.31297,6.19003,-2.78033,-3.58986,-6.60414,-14.06663,3.98411,-0.38178,-0.65168,2.2275,3.14685,-3.97837,0.78693,0.08921,-0.71231,0.09653,0.4203,-0.5114
3730,9.58406,-3.3512,1.22335,18.4423,41.59676,-7.71776,58.19022,-12.42128,13.98337,-68.1984,86.19458,-0.24077,1.23544,-0.91248,0.80811,-70.58815,-54.36665,-18.42988,-22.88699,-5.95584,27.69442,17.05104,42.5488,-30.73668,11.24948,5.79355,-1.54839,0.69573,-8.23547,-12.10731,5.43432,-0.64235,0.73842,3.80144,3.56959,-2.72422,0.9137,0.04129,-0.2096,0.33572,0.30184,-0.23468
3731,10.58132,-0.78059,-0.97144,14.54249,40.86507,-8.48784,49.74107,-7.12231,5.87846,-73.09275,102.70989,5.70251,1.50812,-0.48575,0.8341,-69.60709,-53.25321,-18.32602,-39.3082,21.76251,23.43313,38.95065,29.62142,-20.79516,11.57202,3.41637,-0.75719,2.77169,-5.75371,-8.68725,5.33603,-0.30029,0.91941,4.9984,3.77133,-1.1519,0.79493,0.04736,0.18956,0.52975,0.49936,-0.23666
3732,10.12793,0.21372,-1.45478,13.1234,39.58625,-8.62422,36.51935,-0.9233,1.52536,-64.06567,108.20905,7.20304,1.75365,-0.26931,0.89833,-68.99736,-52.27839,-18.1608,-45.49876,33.10807,13.76557,74.43073,9.88579,-8.53321,8.15589,0.9193,-1.21482,-0.89911,-1.99556,-7.14617,3.6488,0.33977,-0.37159,4.47186,3.16282,-0.08154,0.4582,0.08199,0.1367,0.50707,0.6812,-0.30697
3733,9.12923,-1.41272,-0.20936,13.46534,35.2786,-8.12958,31.54099,-0.04244,2.69032,-50.50395,92.8269,2.2767,1.85779,-0.60386,0.89714,-68.8638,-51.73732,-18.02264,-36.82755,14.26482,3.25762,99.16309,0.43444,-0.04294,4.0749,0.01688,-2.21226,-6.25675,-0.05797,-6.8083,2.03787,0.87785,-1.8711,2.79088,1.7801,0.49215,0.10271,0.12608,-0.14872,0.38127,0.52092,-0.1793
3734,8.80145,-4.82247,1.58014,12.51881,31.44946,-7.87556,40.28527,-8.91756,7.10714,-41.73011,74.57208,-3.05194,1.76527,-1.34223,0.7915,-68.61967,-51.43456,-17.93267,-15.5833,-11.99897,1.48292,74.34492,5.62181,3.19465,1.29654,-0.27572,-2.5292,-5.75549,0.51888,-4.78853,1.91364,1.2582,-2.64279,1.49248,1.07463,0.27292,-0.10497,0.18672,-0.29156,0.28346,0.34712,-0.06958
3735,7.8063,-8.98618,3.48798,7.93667,30.95372,-8.46051,50.88872,-27.39998,12.03113,-41.77518,71.33304,-3.47275,1.41001,-2.15615,0.54362,-67.7356,-50.80721,-17.78137,0.34875,-28.05634,10.99597,10.8765,13.35266,2.78253,1.24526,0.19259,-1.117,-0.02121,1.00736,-1.97599,3.91357,0.86625,-1.58797,0.77111,1.81083,-0.91454,0.09185,0.19303,-0.06791,0.05121,0.50621,-0.27584
3736,5.62347,-12.64705,5.07872,1.69815,33.36124,-9.47888,51.86414,-46.10012,14.98855,-48.70016,86.47852,1.13167,0.89735,-2.7152,0.17404,-66.40402,-49.44674,-17.45367,-2.444,-28.38716,23.68092,-32.20237,14.75472,-4.22362,5.79501,2.71276,1.33237,3.41677,0.39594,-1.75271,7.00855,-0.85839,1.25483,0.0101,2.72674,-2.08177,0.70501,0.06938,0.36062,-0.36515,0.68053,-0.55522
3737,3.3164,-14.53576,5.8461,-1.81106,36.01032,-10.08451,44.24047,-55.70589,15.16707,-59.65215,109.51459,6.24618,0.39768,-2.75443,-0.15714,-65.13583,-47.27576,-16.94683,-23.83127,-16.19349,30.66718,-22.66897,17.19926,-20.7483,12.27098,4.86581,1.68628,1.49634,-2.41232,-4.69458,8.58213,-2.25357,2.55415,-0.72116,2.6201,-2.2674,1.24015,0.00031,0.40948,-0.60415,0.47064,-0.48925
3738,1.58203,-14.59437,6.07951,-2.08048,35.77512,-10.0684,32.1791,-59.05962,14.94206,-73.32494,119.88178,5.72453,0.04748,-2.2628,-0.25437,-64.04526,-44.25711,-16.30758,-59.60503,-13.79698,28.54603,18.71196,25.53004,-36.01113,12.28045,3.28126,-1.09789,-1.42503,-5.54524,-7.59169,6.88641,-1.21522,0.00162,-0.93895,1.99901,-1.78323,1.17397,0.14437,-0.14111,-0.46715,0.11756,-0.18658
3739,0.96712,-7.42948,4.26348,-1.83964,32.34269,-9.65464,19.44551,-52.32922,13.57974,-80.89616,107.01546,-0.18057,-2.74868,3.07382,-0.5459,-62.86417,-40.45269,-15.58327,-89.97421,-21.51364,16.90421,53.85404,29.73482,-35.71808,3.27883,-0.58056,-3.60472,-0.8806,-6.63148,-8.39476,3.09802,1.22456,-3.45253,-0.1368,2.23213,-1.41801,0.57335,0.29078,-0.67388,-0.12612,0.12759,-0.05445
3740,3.8263,-5.33695,3.74799,-2.59597,27.65326,-8.94863,16.88653,-53.44006,14.38724,-73.41415,82.27998,-4.60094,-3.51127,5.73827,-0.58544,-61.60406,-36.33316,-14.79945,-84.3379,-43.62766,8.9457,61.96966,20.38144,-22.474,-5.76591,-1.97622,-2.89259,2.68268,-5.81934,-7.99022,0.11272,2.12661,-3.87633,1.44229,3.52319,-1.42718,-0.01975,0.19321,-0.61783,0.16517,0.46718,-0.17237
3741,7.94882,-2.79118,2.51675,-4.21213,24.83904,-8.03816,24.31945,-47.60183,12.01831,-59.63842,67.90227,-3.17175,-4.38396,8.63725,-0.8183,-60.6535,-32.25821,-13.77481,-54.74375,-39.38718,7.02492,54.32614,2.99599,-9.80867,-6.64787,0.65054,-0.54096,5.42945,-4.1313,-6.62898,-0.5013,0.99018,-1.87957,2.32803,4.15088,-1.42019,-0.25183,0.0017,-0.25571,0.20685,0.60806,-0.28909
3742,11.03108,0.57381,0.8562,-6.70249,24.4917,-7.1117,33.20534,-36.53212,7.01636,-55.78835,69.66594,1.45482,-5.68129,12.09717,-1.3271,-60.06273,-28.2417,-12.3954,-37.54435,-12.57652,9.52315,52.00878,-7.60021,-5.71783,-1.41879,3.28307,0.33006,4.49204,-2.26157,-4.2821,0.3246,-0.11518,-0.42796,1.72955,3.01958,-1.03971,-0.20041,-0.00183,-0.08621,0.00363,0.36916,-0.25706
3743,11.04138,5.23177,-0.94655,-9.37459,24.04375,-6.21623,35.02748,-25.22197,1.48005,-60.61674,72.51758,4.98746,-7.57428,16.34324,-2.1172,-59.43928,-24.30712,-10.96089,-41.24007,7.82802,10.36087,53.68012,-4.04408,-9.23651,3.55437,1.69223,-0.79068,1.07954,-1.33281,-3.00516,0.83963,-0.12286,-0.27269,0.88427,1.63758,-0.50984,-0.07666,0.08832,-0.07317,-0.16981,0.15788,-0.16708
3744,6.51233,11.2099,-2.42715,-10.27747,21.95314,-5.27254,26.39297,-16.98052,-1.70103,-59.42915,64.30037,5.87999,-9.95257,21.23561,-3.16262,-58.64668,-20.52149,-9.85016,-47.57341,4.7481,7.98966,50.02083,-0.58017,-13.03576,4.96336,-2.81253,-2.07488,-1.7749,-1.76952,-3.74372,0.84047,0.06764,-0.36195,1.18541,1.33296,-0.01459,0.08691,-0.00232,0.0135,-0.05602,0.21257,-0.10679
3745,-0.39643,17.83044,-3.22894,-9.1005,17.9429,-4.42129,11.7939,-10.98315,-0.25945,-49.89749,46.65648,3.31784,-12.37433,26.55814,-4.32503,-57.73429,-16.90207,-9.06843,-49.62684,-12.66791,4.67865,48.1583,-17.9398,-9.90485,2.72556,-5.16302,-1.55766,-3.28051,-2.81539,-4.72354,1.77186,-0.54582,-0.31863,2.04765,1.17181,0.44289,0.38495,-0.27447,0.16037,0.19275,0.24551,-0.06285
3746,-4.47445,24.01167,-3.67756,-8.02339,13.47919,-3.86145,2.06203,-3.68476,3.78729,-43.34218,31.40947,-1.38455,-14.47013,32.23152,-5.40928,-56.34505,-13.45399,-8.26544,-52.52606,-18.34396,2.16266,58.06516,-46.0507,-2.1745,-1.6345,-3.10907,1.04477,-4.01064,-3.5559,-4.62169,3.92038,-1.70137,-0.46486,2.3677,0.37177,0.76372,0.65303,-0.46996,0.24812,0.28188,0.0285,-0.00749
3747,-5.39761,28.87194,-4.19194,-9.74407,11.60658,-3.58824,-2.66094,7.82232,5.39092,-47.76979,28.88807,-4.14776,-16.40969,38.09598,-6.44456,-54.30968,-10.36311,-7.20897,-65.42378,4.9761,-0.03911,68.33113,-52.58599,0.65715,-4.8757,0.42508,3.39676,-3.09686,-3.13142,-3.59697,5.20857,-2.14676,-0.78289,2.64677,-0.01145,0.97149,0.54728,-0.33882,0.21744,0.27706,-0.20903,0.06344
3748,-6.48458,32.3261,-4.86422,-14.55466,12.02813,-3.41555,-9.26256,22.31709,2.36467,-58.27475,32.73685,-3.3624,-18.47136,43.92585,-7.5735,-52.03947,-8.03732,-6.18398,-86.78754,39.57469,-4.40726,57.39022,-31.42034,-4.60201,-3.90914,1.5271,2.59302,0.5786,-1.76835,-2.77463,3.88316,-1.0575,-1.00698,3.43729,1.24495,0.88742,0.06439,0.0966,0.0641,0.35774,-0.10883,0.07759
3749,-8.06618,34.32193,-5.45741,-18.39541,12.0599,-2.98402,-15.4688,32.606,-2.20065,-59.62228,30.26394,-0.22782,-20.63745,49.65646,-8.78059,-49.51077,-6.62195,-5.50251,-92.97693,53.46152,-9.92725,27.58693,-7.35677,-8.22147,0.0308,0.03179,-0.2199,6.40281,-1.38223,-3.04653,0.94306,0.22468,-0.69991,3.7272,3.33852,0.15914,-0.41931,0.3937,-0.08044,0.45842,0.26786,-0.02235
3750,-8.72738,34.76435,-5.68571,-17.86175,12.18521,-2.16685,-15.5605,33.74093,-4.27372,-46.90486,24.9666,4.27863,-22.81407,55.21259,-9.95256,-46.48568,-5.72245,-4.98213,-72.39837,47.68834,-10.47943,3.60567,2.55185,1.99411,1.23357,-1.36734,-0.65964,11.15722,-2.77388,-3.356,-0.92275,-0.4096,0.13203,2.07008,3.85601,-0.96611,-0.56701,0.12869,-0.05024,0.33785,0.43945,-0.14307
3751,-7.99893,34.76659,-5.7913,-15.68534,13.0916,-1.51825,-9.80034,28.75728,-3.23175,-36.9174,24.53632,6.66891,-24.97157,60.31792,-10.98786,-43.43741,-4.98666,-4.44074,-49.08754,42.60589,-5.3367,-0.04561,3.76859,23.46887,-3.94783,-1.27254,2.29806,11.40627,-4.21719,-2.06206,-0.19399,-2.22806,0.40905,-1.02771,1.79668,-1.53556,-0.36753,-0.46246,0.11378,-0.05066,0.13176,-0.11543
3752,-7.06168,36.14355,-6.35328,-15.56102,14.10122,-1.60671,-4.80167,23.5846,-1.51285,-42.3896,27.23482,3.41174,-27.1876,64.74059,-11.91228,-40.84444,-4.44072,-4.00626,-47.83021,44.84341,-2.4563,10.92119,4.991,38.44367,-10.89727,-0.19253,5.26292,8.41881,-4.65427,-0.15987,2.08535,-2.91158,-0.37345,-3.06246,-0.75879,-1.14531,-0.02646,-0.76614,0.21798,-0.38454,-0.35671,0.07298
3753,-7.06812,39.42591,-7.70386,-16.79295,15.25538,-2.17391,-3.54757,24.13877,-2.82764,-52.7147,30.04571,-2.3126,-29.5026,68.52306,-12.82385,-38.51262,-4.21613,-3.80178,-57.3241,55.47587,-7.67064,25.02809,-1.68527,35.66573,-10.91124,1.1305,5.29851,6.38947,-4.67664,0.18789,4.2098,-2.39212,-1.35633,-2.65469,-1.3465,-0.48875,0.38923,-0.59951,0.14678,-0.40931,-0.57306,0.22015
3754,-7.53131,42.95406,-9.48663,-18.33119,15.54711,-2.64544,-0.02282,32.48162,-8.69584,-55.34009,31.64013,-4.54774,-31.74406,71.81061,-13.69428,-36.15078,-4.326,-3.78785,-52.20097,75.16795,-17.68104,32.1988,-36.73398,24.65544,-2.70595,1.73629,2.72085,6.37112,-3.67105,-0.16789,4.98909,-1.94518,-1.53562,-0.62595,-0.18624,-0.04187,0.73396,-0.2745,0.01196,-0.18816,-0.40675,0.19116
3755,-7.74131,44.16434,-10.66282,-20.85908,15.07605,-2.79834,8.65608,40.84699,-14.64933,-53.28302,35.89952,-1.16592,-33.64568,74.51065,-14.42241,-33.94841,-4.4666,-3.74409,-33.43382,99.67568,-21.27933,28.44246,-96.53026,21.95484,4.85883,1.31926,0.4166,7.05659,-0.86982,0.4747,3.69197,-1.79539,-0.71613,1.31617,1.39717,0.17329,0.61574,-0.08416,0.01575,0.05233,-0.00992,0.06426
3756,-8.39024,42.51554,-10.58221,-24.07076,14.41484,-2.82636,15.05344,39.00475,-14.41005,-54.17602,42.88878,3.88844,-35.08281,76.46833,-15.04716,-32.21167,-4.42072,-3.62703,-22.85969,114.174,-12.50127,25.65991,-131.45885,28.19823,4.18493,1.13107,0.77718,8.40215,1.54117,1.19544,1.03293,-1.61715,0.34576,2.06656,2.87692,0.04507,-0.00943,-0.07516,0.1391,0.17021,0.38326,-0.02004
3757,-10.85994,38.62569,-9.44429,-24.99199,11.92572,-3.04664,10.78871,24.51922,-7.90886,-54.27763,41.88963,4.87215,-36.0685,77.78302,-15.72229,-30.66531,-4.4338,-3.7835,-27.25407,98.81789,-0.73268,35.47265,-99.6445,26.85556,-0.85029,1.3699,2.11289,10.30585,1.10774,1.03971,-1.24986,-1.1768,0.82224,1.56279,3.46264,-0.34461,-0.60239,-0.10316,0.18587,0.14527,0.47257,-0.00734
3758,-15.18374,34.65826,-8.30058,-21.63415,7.42624,-3.50258,-3.41619,9.34573,-2.0453,-45.71765,29.10496,1.07125,-36.55624,78.76584,-16.43254,-28.80043,-4.68596,-4.33847,-34.89188,63.14483,-0.29226,43.83371,-30.44922,8.85472,-1.44523,0.26503,0.62651,11.44269,-0.81757,0.96344,-1.94904,-0.13696,0.53702,0.48334,2.63479,-0.72203,-0.62465,-0.0028,0.05977,0.01322,0.22272,0.01757
3759,-19.9087,33.50491,-8.11176,-16.66133,3.09604,-3.9106,-19.53064,6.56447,-1.88796,-30.57253,14.28714,-3.19081,-36.47388,79.54705,-16.96666,-26.68755,-4.95995,-4.86271,-36.22018,41.35156,-11.66233,31.31092,13.80932,-11.07166,3.3473,-2.08035,-2.68178,11.29084,-1.53606,1.47887,-0.93634,0.43543,0.02315,-0.24061,1.48094,-1.02981,-0.07962,0.02815,-0.09761,-0.12116,-0.00683,-0.05581
3760,-23.14345,34.78186,-8.65024,-14.58195,0.37853,-4.01013,-29.5844,12.214,-5.22785,-19.11691,6.57901,-3.91376,-35.85426,79.91629,-17.16243,-24.8704,-4.9599,-4.93257,-31.87874,46.04979,-20.8825,8.53199,18.02648,-13.08127,7.03733,-2.64512,-2.6669,10.27288,-1.09952,1.80654,0.82872,-1.19616,-0.06598,-0.02575,0.98132,-1.10191,0.48878,-0.28354,-0.07168,-0.09232,-0.04497,-0.15974
3761,-24.58648,35.42958,-8.95327,-16.56941,-0.40141,-3.83825,-34.54247,12.91058,-6.72308,-19.55279,6.81531,-1.55351,-34.86427,79.66309,-17.09436,-23.72009,-4.59688,-4.62373,-34.34168,57.33342,-18.39158,1.20876,4.04526,2.64651,4.98301,0.04453,1.71373,8.3376,-0.63062,1.98554,1.9943,-3.72283,0.15084,0.96787,0.46384,-0.53029,0.55441,-0.6,0.09604,0.17831,-0.10283,-0.13831
3762,-25.98731,34.14609,-8.59497,-19.25224,0.0524,-3.65597,-42.17422,5.29252,-4.23315,-26.82873,10.30248,0.5391,-33.79981,78.92045,-17.02879,-23.04236,-4.07351,-4.31987,-49.52573,56.04808,-9.70817,16.7088,-22.03371,19.21314,-0.48631,3.45743,5.76663,5.76392,0.12138,2.79374,2.16899,-4.29062,0.12417,1.68236,-0.58466,0.4165,0.22663,-0.48398,0.17855,0.43457,-0.24165,-0.01458
3763,-27.53257,32.84093,-8.2403,-19.53848,-0.26165,-3.74953,-50.72787,-0.71465,-0.671,-29.09399,11.71974,0.30603,-32.94114,78.00806,-17.12844,-22.37737,-3.73165,-4.24925,-61.16557,47.28703,-4.99742,41.24922,-57.98433,23.03169,-3.20829,4.30213,5.71925,4.39235,1.03389,3.67987,2.07034,-2.84966,-0.2182,1.51805,-1.06097,0.91069,0.0219,-0.10986,0.12294,0.3714,-0.24743,0.06825
3764,-27.1899,32.86708,-8.63855,-18.37458,-2.97953,-4.21553,-50.03938,1.01901,0.1753,-24.99955,7.43622,-2.18522,-32.39736,77.02724,-17.32372,-21.51067,-3.66817,-4.35911,-55.24861,40.89468,-7.11053,52.84638,-79.41398,15.01757,-1.06054,2.38642,3.04546,5.47232,0.65803,3.13089,2.25835,-1.69646,-0.40897,1.10803,-0.00987,0.6559,0.1111,0.06349,0.09102,0.08129,-0.04156,0.06784
3765,-24.57267,32.85502,-9.58485,-17.39891,-6.73766,-4.67667,-40.27624,4.1121,-2.17055,-19.598,-1.72103,-4.80663,-32.03461,75.91647,-17.44934,-20.41293,-3.60072,-4.46418,-37.93654,34.51797,-12.27036,39.68803,-65.85643,4.99324,2.03739,-0.20648,1.18843,7.3504,-1.48358,1.22703,2.24099,-1.9339,-0.02491,1.00645,1.47207,0.18329,0.20341,-0.09698,0.19909,-0.11825,0.13283,0.07053
3766,-21.95464,31.83084,-10.36427,-17.14651,-7.95907,-4.61337,-32.03534,4.18905,-5.65524,-17.19874,-7.68493,-4.38027,-31.54484,74.75411,-17.37387,-19.22059,-3.26543,-4.41511,-25.58329,31.28826,-15.21319,16.28967,-29.28379,-0.99697,3.0876,-2.28061,0.53109,7.67233,-3.66658,-0.11021,1.31305,-2.45363,0.67596,1.09273,1.69168,0.13963,0.08882,-0.33865,0.33102,-0.09206,0.07906,0.1195
3767,-21.46581,30.70928,-10.57757,-17.93146,-5.8203,-4.14528,-29.97167,6.49628,-8.11657,-20.52727,-4.67456,-1.33329,-30.78121,73.65689,-17.11306,-18.23735,-2.76097,-4.2271,-26.14928,40.98297,-14.30229,7.40969,-2.14565,-3.39073,3.82324,-3.31483,-0.43879,6.30519,-3.89749,0.14449,-0.13318,-2.10128,0.90034,1.28289,0.73697,0.47456,-0.08417,-0.36378,0.25319,0.03552,-0.04407,0.11883
3768,-23.21194,30.28244,-10.34709,-19.06326,-4.11305,-3.97063,-30.84487,14.32561,-8.62681,-24.92661,-1.58793,-1.12537,-29.96264,72.54279,-16.84408,-17.55501,-2.34589,-4.02136,-30.74654,54.61095,-15.70582,13.80693,-7.06924,0.74002,5.24635,-1.74841,-0.74803,4.79757,-2.16205,1.3281,-1.05902,-1.31864,0.39997,1.36383,-0.25316,0.62479,-0.13005,-0.1502,-0.04487,0.07102,-0.09098,0.01886
3769,-24.81718,30.27279,-10.17433,-19.26544,-6.33684,-4.40688,-29.45999,21.46583,-8.28935,-22.38014,-10.28879,-6.13055,-29.39575,71.33572,-16.65202,-16.92437,-2.14618,-3.89785,-23.15417,51.27045,-23.72569,17.01737,-34.1473,17.39503,4.86171,2.71877,1.82752,5.16771,-0.05485,3.05038,-0.81932,-1.63374,-0.14419,0.78804,-0.74602,0.32945,-0.04771,-0.03468,-0.24904,-0.00766,-0.1348,-0.06426
3770,-24.22799,29.57805,-10.30581,-18.33202,-10.54907,-4.8817,-24.41193,18.48777,-8.48172,-15.30164,-24.20698,-10.22968,-29.16624,70.14684,-16.45352,-16.13865,-2.09398,-3.86162,-4.74427,30.15386,-29.05761,12.37669,-50.06254,38.53072,2.10462,6.70989,5.73412,8.3761,0.83558,4.98937,0.46281,-3.25243,-0.21076,-0.40261,-0.56935,-0.28281,0.10315,-0.21769,-0.15041,-0.08616,-0.13662,-0.06732
3771,-23.29393,27.45401,-10.31181,-16.83643,-11.9911,-4.70935,-23.39643,5.59341,-8.40651,-12.31025,-26.92945,-7.82082,-29.08678,68.99123,-16.22034,-15.25184,-2.0115,-3.80344,1.62312,12.77438,-22.58243,8.63941,-40.73071,43.29886,0.84007,6.66727,6.7437,12.29158,-0.41773,5.2874,1.69588,-4.20606,-0.02529,-0.94986,0.42296,-0.90486,0.24079,-0.37928,0.04917,-0.05655,0.0157,-0.07233
3772,-24.37038,25.02444,-9.88611,-15.61678,-10.03344,-4.15377,-31.36553,-4.01493,-6.98501,-13.50904,-17.85827,-2.87765,-28.82239,67.71355,-15.99184,-14.4299,-1.81293,-3.6258,-12.16204,15.20212,-12.42256,4.31965,-26.44053,26.15393,3.62099,3.21965,3.9694,13.01885,-3.34474,2.73971,1.69858,-3.30442,0.13691,-0.06738,1.57913,-1.03953,0.24489,-0.23869,0.102,0.08831,0.1568,-0.06982
3773,-26.52094,23.72105,-9.32164,-15.14679,-7.09644,-3.76023,-40.71547,-2.57927,-5.10203,-11.40022,-8.31278,-1.37536,-28.24798,66.34444,-15.75116,-13.70596,-1.48048,-3.29042,-24.38038,30.54274,-9.79395,-3.84513,-24.25343,5.73185,7.20281,-0.06252,0.59918,9.58558,-5.53657,-0.16475,0.57389,-1.53086,0.28043,1.05566,1.60017,-0.37496,0.06505,0.02597,0.04844,0.16693,-0.0175,0.07432
3774,-28.33841,23.11029,-8.84985,-15.49864,-4.93244,-3.57314,-45.59737,0.60541,-3.91494,-5.32593,-5.33917,-3.2914,-27.59439,65.14459,-15.43487,-13.02413,-1.07452,-2.88701,-22.5748,36.77357,-13.50171,-2.36062,-27.15827,0.64208,7.55553,-0.93982,-0.48842,5.79153,-4.83585,-0.14304,-0.38926,-0.59029,0.41143,1.46336,0.40004,0.73302,-0.10715,0.08192,0.03626,0.10577,-0.41798,0.31039
3775,-29.78243,21.98828,-8.40096,-16.58446,-3.9779,-3.41966,-48.90261,-4.28541,-3.41566,-2.71847,-8.15501,-5.64475,-27.10789,64.10673,-14.99628,-12.41133,-0.72016,-2.56422,-19.98313,24.58961,-16.69388,15.55105,-30.14705,11.61574,5.66004,-0.11435,0.47243,5.52595,-2.48908,2.24498,-0.36971,-1.04557,0.44073,1.54278,-0.67474,1.39391,-0.05366,-0.11042,0.0694,0.05044,-0.62699,0.39371
3776,-30.34861,20.86418,-8.07633,-17.10029,-3.55354,-3.19093,-49.91412,-11.43165,-3.52329,-4.97382,-11.28491,-6.59822,-26.80782,62.88441,-14.45243,-11.82465,-0.4808,-2.35884,-21.40022,12.11097,-16.18669,31.22904,-44.00672,26.7511,4.50327,0.89242,1.6963,7.85868,-1.8202,3.44341,0.39303,-2.07699,0.2778,1.22202,-0.59942,0.82545,0.15986,-0.32854,0.07755,0.01375,-0.44231,0.20204
3777,-29.63156,20.77734,-7.99027,-16.02226,-2.86869,-2.89677,-45.4767,-10.09553,-4.15009,-7.15043,-10.63544,-6.12751,-26.59229,61.34067,-13.89554,-11.12661,-0.35478,-2.21532,-17.84064,19.40149,-13.86313,29.41958,-63.56491,30.73878,4.40204,1.47513,2.17567,8.77591,-3.47788,1.4028,1.31466,-2.64751,-0.03932,0.61032,0.50578,-0.63265,0.31823,-0.39027,0.05354,-0.00337,-0.01754,-0.14501
3778,-28.66859,20.72612,-7.89452,-14.50373,-1.35639,-2.50531,-40.0305,-1.86882,-4.66911,-8.76435,-4.30111,-4.1486,-26.37364,59.73375,-13.40784,-10.31436,-0.25195,-2.04505,-12.86557,43.03358,-11.99859,15.39644,-56.34776,15.89263,4.49031,1.41512,1.73128,6.96267,-4.70943,-1.57286,1.8753,-2.30326,-0.34917,1.03789,1.61869,-1.3034,0.3522,-0.23995,0.00013,0.20657,0.31669,-0.33827
3779,-28.3671,19.32719,-7.56341,-14.17477,0.36903,-2.06631,-38.95865,3.58511,-4.67197,-12.74244,5.64216,-0.84457,-26.09471,58.32162,-12.97105,-9.55884,-0.09898,-1.8174,-17.12041,63.10608,-10.38269,0.64643,-15.98757,-4.81545,4.91771,0.99672,1.09974,5.28563,-3.60397,-1.28964,1.59577,-1.52451,-0.38209,2.21396,1.5929,-0.18609,0.29421,0.02686,-0.07462,0.49336,0.28405,-0.11613
3780,-28.79566,17.00479,-7.04332,-13.85818,-0.10237,-1.87198,-40.88398,0.98106,-4.09537,-12.79767,7.88825,1.00586,-25.76251,57.1225,-12.5228,-8.90978,-0.02311,-1.62418,-20.90673,60.44609,-9.92682,-5.4506,11.6196,-8.57002,5.59128,1.15144,1.51599,6.36321,-1.43578,2.38877,0.43798,-1.23243,0.01286,1.72696,0.7831,1.21318,0.13885,0.17936,-0.10249,0.31264,0.04578,0.29843
3781,-29.88329,14.8179,-6.44432,-11.69114,-3.55766,-2.04795,-42.4801,-7.12897,-3.15929,-1.96392,-6.59135,-1.75732,-25.4539,55.9937,-12.03174,-8.22751,-0.1194,-1.52576,-9.53088,32.49682,-13.84321,-2.28876,-7.13465,7.4512,5.71197,1.90333,2.69254,9.39567,-0.63062,5.13286,-0.73133,-1.55312,0.53011,0.02273,0.5072,1.15422,-0.04167,0.09751,-0.04165,-0.14451,-0.08189,0.44579
3782,-31.08309,13.04387,-5.91512,-9.91966,-5.79644,-2.09089,-42.706,-13.47739,-2.89257,6.46767,-22.50055,-6.17651,-25.21988,54.71998,-11.50118,-7.51036,-0.15654,-1.39876,1.07118,6.49388,-19.30674,-1.00742,-43.36685,23.18122,5.42847,2.05935,3.03664,11.06734,-1.52138,4.64769,-0.95641,-1.7755,0.7424,-0.22159,0.47605,0.2753,-0.08766,-0.07223,0.0531,-0.17306,-0.18533,0.26246
3783,-31.64246,11.4397,-5.59437,-11.25327,-3.07143,-1.49706,-41.52109,-14.15551,-4.09349,-1.24962,-17.58275,-5.56019,-25.0563,53.23222,-10.97058,-6.86935,0.05221,-1.11012,-7.81335,11.47894,-18.13675,-4.80665,-52.80657,22.17511,6.04568,1.05699,2.02319,9.23923,-2.24015,2.41785,-0.30852,-1.48693,0.63103,0.94786,0.08656,-0.29562,0.04938,-0.11451,0.09911,0.19449,-0.27299,-0.02849
3784,-31.77135,9.6003,-5.33072,-13.3232,0.80332,-0.74895,-40.91853,-12.94036,-5.47997,-12.84657,-1.05565,-0.99673,-24.88976,51.65637,-10.48055,-6.25204,0.27085,-0.7573,-22.11666,34.01682,-12.06021,-4.98745,-31.68197,8.05213,8.01172,-0.37364,0.54187,5.89074,-2.15473,0.74571,0.45531,-1.00333,0.37813,1.36191,-0.37632,-0.46976,0.25744,0.00724,0.04964,0.32611,-0.26604,-0.19465
3785,-32.2243,7.63118,-4.83473,-12.57331,0.12002,-0.67644,-44.4626,-12.50704,-4.93523,-12.45894,1.44997,-0.3164,-24.55145,49.99131,-10.02137,-5.49621,0.2528,-0.52133,-26.03264,41.94753,-11.6206,-1.59626,-3.66104,-4.50593,9.32366,-1.17202,-0.37503,4.90879,-2.4252,0.05202,0.79223,-0.83667,0.02674,0.51923,-0.0625,-0.7458,0.35431,0.13133,-0.07652,0.04459,-0.15445,-0.20118
3786,-32.88063,6.14215,-4.14631,-9.95693,-3.20096,-0.99236,-50.05559,-11.4236,-2.60511,-5.69506,-9.64768,-4.41324,-23.99697,48.20474,-9.55764,-4.63375,0.19844,-0.34852,-24.81354,33.48115,-16.81479,-0.13341,6.09906,-5.02156,7.618,-0.76806,-0.04302,6.19382,-3.06142,-0.57103,0.73431,-1.36178,-0.30319,-0.3491,1.18504,-1.25989,0.24611,0.04082,-0.15575,-0.30132,0.07837,-0.18245
3787,-33.42288,4.82546,-3.48865,-8.97634,-3.61389,-0.79317,-51.55778,-12.58613,-0.2892,-4.246,-13.81689,-5.9911,-23.50382,46.55484,-9.10629,-3.95634,0.31992,-0.10521,-23.34425,26.17226,-15.93798,4.83694,-13.40718,4.89376,4.14738,0.34289,1.37879,6.54586,-3.02308,-1.21315,0.61689,-2.46965,-0.31381,-0.24177,2.23877,-1.39852,0.04086,-0.28482,-0.06649,-0.37206,0.31647,-0.18252
3788,-34.00305,3.3194,-2.93607,-9.96048,-1.0503,-0.12125,-49.18561,-17.98324,1.23354,-6.30825,-5.9398,-2.50559,-23.31099,45.29194,-8.6841,-3.55796,0.39987,0.13059,-18.68861,26.44693,-6.52572,14.12525,-39.19653,14.47364,2.718,0.72485,2.27695,5.96883,-2.55565,-1.12661,0.42563,-3.0398,0.06739,0.58255,2.3822,-0.8876,-0.09722,-0.52951,0.11805,-0.15486,0.41933,-0.1388
3789,-34.39289,2.08345,-2.4911,-3.73074,-0.0247,0.02518,-47.6263,-23.30944,2.10835,7.31269,-1.51046,0.09,-23.27392,44.32514,-8.24611,0.01407,-0.17688,0.00286,2.18129,26.52918,-0.67785,12.53657,-39.23425,16.08815,4.67831,-0.52259,1.24007,6.49283,-2.58692,0.29191,0.12969,-2.21307,0.47805,1.18282,1.60613,0.02447,-0.04686,-0.40625,0.19485,0.11197,0.29815,0.01149
3790,-33.92745,1.23269,-2.2223,-2.70742,-2.00673,-0.35035,-45.32639,-26.17029,2.02291,10.93281,-8.01523,-2.20561,-23.13975,43.41816,-7.76889,0.11877,-0.38112,-0.14916,9.37494,18.70686,-4.48069,-2.49641,-23.43425,11.96129,7.53121,-2.15664,-0.5347,7.36867,-2.87574,2.47938,-0.18599,-0.86027,0.63845,1.49446,0.07536,1.19181,0.12417,-0.03077,0.09704,0.30053,-0.08204,0.26202
3791,-32.40804,0.20364,-2.11997,-1.43655,-3.91902,-0.6564,-38.70552,-26.81082,1.0254,12.21058,-14.80923,-4.55216,-22.8657,42.3038,-7.30428,0.28595,-0.39007,-0.252,17.17291,13.72042,-8.97769,-8.24404,-25.57744,7.88659,8.30775,-1.97984,-0.69922,7.23584,-2.73564,3.63122,-0.56834,-0.36592,0.60556,2.05567,-1.16704,2.00771,0.13475,0.25935,-0.04105,0.43722,-0.52939,0.44919
3792,-30.89763,-1.20748,-1.96699,-0.34691,-3.52827,-0.58263,-33.81041,-23.82604,0.52059,10.57502,-12.03093,-3.44369,-22.55924,40.88448,-6.92395,0.45074,-0.28412,-0.23189,18.48528,21.83677,-7.66622,8.01157,-44.55864,5.54726,6.89055,-0.32566,0.70064,7.15289,-2.38451,2.52805,-0.42687,-1.15081,0.36113,2.60843,-0.76221,1.4637,0.00403,0.18935,-0.07631,0.47359,-0.64813,0.34049
3793,-30.7914,-2.4269,-1.60929,1.21593,-2.08418,-0.33967,-37.82684,-20.06579,1.52157,11.07562,-5.27356,-1.16213,-22.27843,39.55014,-6.64047,0.61873,-0.2452,-0.0993,12.41818,32.03566,-4.46017,26.56429,-50.03937,3.25563,5.38276,0.33973,1.56044,7.66902,-2.34488,0.35364,0.59429,-2.42208,-0.0387,2.25679,0.71131,-0.15138,0.03036,-0.18868,-0.00818,0.29144,-0.35574,-0.00703
3794,-31.94543,-2.76409,-1.21533,3.27231,-1.5847,-0.17602,-46.16816,-21.92238,3.03054,17.64515,-3.43067,-0.16884,-21.91952,38.65142,-6.39185,0.74657,-0.28878,0.04275,10.33407,27.6002,-3.30151,22.24139,-29.29114,0.9738,5.0127,-0.4743,1.2768,7.25289,-2.48344,-1.21864,1.15817,-2.95306,-0.08667,0.89582,1.77357,-1.52715,0.1411,-0.48887,0.08947,-0.03526,0.07402,-0.30608
3795,-32.81303,-2.44518,-1.0412,5.81711,-1.83345,-0.17467,-49.20108,-27.98628,3.33332,27.78883,-4.80652,0.17106,-21.38419,37.94993,-6.12144,0.88188,-0.29882,0.07741,18.11429,15.72802,-3.33542,-2.80095,1.49317,0.48804,5.66213,-1.20445,0.93844,5.28871,-2.30657,-1.6941,0.46129,-2.4957,0.41748,-0.34689,1.92338,-1.84264,0.13171,-0.45624,0.16428,-0.24184,0.37116,-0.38832
3796,-31.93654,-2.122,-1.12944,8.77684,-1.87991,-0.36533,-42.70126,-29.47619,1.70591,34.71949,-4.45369,0.26309,-20.78404,37.17966,-5.78173,1.0899,-0.26121,-0.01347,31.5571,16.04575,-4.70734,-22.83483,18.14178,0.98372,6.98365,-1.39463,0.78569,3.78455,-1.90805,-1.19732,-0.33497,-1.79907,0.90381,-0.29347,1.52222,-1.19118,0.09954,-0.22533,0.17368,-0.16417,0.43215,-0.28628
3797,-29.63667,-1.89825,-1.26658,10.9868,-1.99078,-0.64014,-31.29414,-24.30699,-0.76235,35.54566,-3.93505,-0.59944,-20.30519,36.49514,-5.35374,1.27772,-0.25416,-0.12861,45.17807,28.15304,-7.99148,-16.49891,7.44118,0.11983,8.11977,-1.56689,0.49656,4.94078,-1.86546,-0.15745,-0.42177,-1.51354,0.95514,1.04819,1.21285,-0.23214,0.11088,-0.06428,0.13383,0.16894,0.31856,-0.11681
3798,-28.36954,-1.50035,-1.12378,-1.84453,-1.33963,0.02804,-26.4528,-19.7467,-1.50507,8.48651,-4.01348,-1.61206,-19.96084,36.04354,-4.93974,-3.34441,0.4266,0.38108,22.01103,35.42727,-8.71362,10.50552,-23.67854,-0.47957,7.97517,-1.34774,0.40558,7.95872,-2.48642,1.05874,-0.11402,-1.62109,0.67416,2.15569,0.98314,0.50872,0.09914,-0.06299,0.08747,0.46232,0.066,0.07757
3799,-29.22555,-0.95602,-0.62928,-6.0064,-1.96486,0.08249,-33.20945,-20.48617,0.67932,0.00916,-8.2546,-3.37008,-19.58093,35.64523,-4.65067,-4.21417,0.50946,0.39351,5.33199,26.7067,-8.10621,29.63437,-48.96154,2.02649,6.71328,-0.3372,0.62391,9.86895,-3.57189,1.67851,0.3728,-1.63522,0.2348,1.89567,0.63608,0.76418,0.1203,-0.11804,0.03188,0.41094,-0.23434,0.24213
3800,-29.96679,-0.94753,-0.12042,-10.27629,-1.59779,0.20551,-42.73481,-24.2678,3.76929,-6.40455,-9.43126,-4.02992,-19.09479,35.09681,-4.44974,-5.15037,0.56145,0.39391,-14.63019,15.4552,-6.37077,22.86929,-47.11741,4.16111,5.65314,0.32544,0.30919,8.46409,-4.30102,0.72968,0.88822,-1.13422,-0.17313,0.98681,0.40268,0.40106,0.21304,-0.10048,-0.0288,0.09051,-0.37381,0.22475
3801,-28.72978,-1.49933,0.03423,-12.57389,-0.48578,0.30483,-45.19011,-27.6571,4.9424,-6.05276,-7.17534,-3.0109,-18.71835,34.5381,-4.24872,-5.97353,0.65523,0.34214,-18.00352,12.14935,-6.03379,2.58449,-27.75129,0.81016,5.31383,-0.59316,-0.90732,4.47909,-3.58483,-0.74776,0.93913,-0.32755,-0.27387,0.35401,0.15538,-0.1922,0.22291,-0.0033,-0.04258,-0.22331,-0.33483,0.04314
3802,-26.20756,-1.61572,-0.18696,-13.86365,0.05002,0.37634,-39.29348,-30.17518,3.73601,-2.8707,-6.04107,-1.38383,-18.62753,34.21223,-4.03107,-6.71464,0.91161,0.27122,-6.49082,11.16053,-6.52805,-8.11843,-14.33624,-3.78149,5.38549,-2.24153,-1.79749,1.89829,-1.4421,-0.41884,0.39002,-0.13308,-0.03059,-0.10997,-0.1136,-0.42574,0.0799,0.04997,-0.00487,-0.35379,-0.20625,-0.07244
3803,-24.09618,-1.23305,-0.42543,-16.22366,-0.60287,0.36736,-30.77105,-32.30918,2.25128,-6.80583,-8.14132,-1.08691,-18.60425,33.98314,-3.8293,-7.50859,1.25774,0.22602,-1.7989,4.90155,-5.67401,-0.28766,-12.53876,-1.31064,5.59494,-2.68261,-1.15846,3.85952,0.14529,1.55304,-0.06638,-1.06032,0.19439,-0.33196,0.17538,-0.23256,-0.03435,-0.03953,0.01443,-0.22483,-0.02675,-0.01135
3804,-23.43724,-1.16968,-0.34921,-18.58847,-0.84568,0.38307,-26.45951,-32.07352,2.18478,-16.61912,-7.68486,-1.10956,-18.32796,33.58885,-3.65791,-8.30847,1.54376,0.27639,-12.34081,3.8445,-1.63464,15.30103,-11.94225,6.73104,5.3225,-1.29665,0.55677,7.82744,-0.81559,2.3176,0.13714,-2.23764,0.16539,-0.02078,0.94224,-0.02191,0.0073,-0.19612,0.00705,0.02722,0.07885,0.10267
3805,-24.10823,-1.2835,-0.0295,-18.11604,0.92831,0.64229,-28.15151,-27.09646,2.7771,-19.63199,-0.38483,0.96068,-17.88121,33.19823,-3.4904,-8.95584,1.74751,0.46223,-20.39114,21.07223,3.56145,19.53368,-7.79646,10.93353,4.50746,0.81798,2.10057,8.56361,-3.34851,0.1416,0.51165,-2.54087,0.14274,0.70136,1.63926,-0.18853,0.09555,-0.27129,0.03244,0.18785,0.0873,0.0804
3806,-25.02257,-1.07825,0.27268,-15.11485,3.29339,0.96026,-32.50541,-20.29725,2.99555,-13.1921,7.28353,3.36417,-17.57998,33.09072,-3.30829,-9.44881,1.87801,0.66601,-15.49055,44.26516,4.1181,7.51177,-9.07974,6.76285,4.6364,1.99927,2.41779,5.01727,-4.28479,-2.62946,0.47586,-1.87948,0.25953,1.64676,1.64546,-0.34834,0.14161,-0.19051,0.05798,0.28043,0.02481,-0.0466
3807,-24.87376,-1.00324,0.44485,-12.57545,3.79247,0.92451,-33.89303,-18.53763,3.16281,-8.90352,7.63251,2.66198,-17.4896,33.15583,-3.12069,-9.93949,1.91179,0.7111,-9.7662,47.74564,-0.66578,-5.81238,-19.01443,-1.1887,6.38064,1.24316,1.08634,1.20495,-2.35816,-2.82307,0.33378,-0.85152,0.26862,2.27232,1.07644,-0.09713,0.18579,0.01462,0.01588,0.34689,-0.02645,-0.10654
3808,-23.33809,-1.63566,0.4786,-12.42334,2.94856,0.69874,-28.82099,-23.15183,3.0581,-13.23225,3.42249,0.38518,-17.49048,33.24766,-2.93555,-10.63313,1.96887,0.62947,-10.80729,30.26969,-4.566,-5.28034,-24.81156,-4.66109,7.76421,-0.72323,-0.81214,1.79711,-0.39209,-0.70144,0.35924,-0.13035,0.16244,1.88192,0.76242,0.14574,0.19536,0.19947,-0.03614,0.25289,0.0261,-0.0621
3809,-21.4456,-3.04481,0.44503,-13.75557,2.71157,0.68995,-21.2678,-29.01531,2.10275,-18.78984,2.00873,0.37643,-17.55171,33.39049,-2.75587,-11.54816,2.17091,0.57426,-11.25382,14.68241,-3.62806,8.57164,-18.10119,-0.93181,7.05795,-1.97708,-1.48981,6.19329,-1.2698,1.02469,0.41214,-0.22198,0.13344,0.84238,0.84979,-0.02461,0.11806,0.18214,-0.01186,-0.00467,0.10418,-0.02221
3810,-20.35975,-4.76348,0.53221,-14.9253,3.07031,0.7404,-18.79594,-32.3125,1.46291,-19.34285,4.97984,2.05276,-17.67111,33.44086,-2.5934,-12.45249,2.40737,0.55973,-9.78874,13.77337,0.08312,24.05907,-8.45678,3.36597,5.45254,-1.70823,-0.61175,8.40415,-3.51192,0.72711,0.54483,-1.13973,0.15697,0.31338,0.81853,-0.25678,0.04283,-0.07141,0.06882,-0.19187,0.09144,-0.03682
3811,-20.1779,-5.68433,0.76962,-15.28831,2.8236,0.51773,-22.33036,-32.71517,2.36139,-16.37673,7.67974,2.08043,-17.7961,33.22052,-2.47881,-13.18221,2.54076,0.53445,-10.62618,18.60847,2.05032,31.21898,-9.43876,1.58925,4.72622,-0.93766,0.21443,5.87187,-4.07695,-0.53745,0.89793,-1.95941,-0.04612,0.72581,0.6475,0.006,0.07766,-0.30694,0.07377,-0.13474,0.0321,-0.00685
3812,-20.25456,-4.92558,0.91473,-14.77298,1.6236,0.18549,-26.04471,-30.56932,3.62743,-11.33614,5.39626,0.19855,-17.88023,32.86203,-2.41723,-13.80125,2.5858,0.52077,-9.26994,17.85482,0.04126,25.97763,-20.89029,-3.31144,4.57547,-0.70076,-0.35019,3.09918,-2.93392,-0.51496,1.05995,-1.58724,-0.53697,1.10021,0.47962,0.67357,0.14005,-0.23115,-0.07984,-0.00071,-0.04834,0.15167
3813,-20.17489,-3.19598,0.87052,-13.72324,0.50173,0.1699,-25.65819,-26.71637,3.58589,-5.43463,-0.33303,-0.76451,-17.89492,32.62918,-2.34363,-14.40283,2.64324,0.57257,-0.98996,13.80547,-3.17709,10.67591,-29.34777,-4.97699,4.45756,-0.9805,-1.51744,3.68455,-1.75881,1.05963,0.60771,-0.40016,-0.77107,0.72762,0.21734,1.0431,0.11268,0.04783,-0.23063,0.00708,-0.19201,0.31457
3814,-20.143,-2.80357,0.91796,-12.54376,1.05272,0.58359,-23.03321,-24.73669,2.87592,-2.28574,-2.5171,0.47349,-17.82982,32.53933,-2.21061,-14.94702,2.88231,0.73478,6.7518,14.44023,-3.57627,-3.244,-25.03075,-2.16807,5.05476,-1.21932,-1.39212,5.5696,-1.06503,1.90998,0.02923,-0.12878,-0.23034,0.36198,0.21805,0.57519,0.07448,0.113,-0.13661,0.00585,-0.25493,0.24643
3815,-19.77843,-4.77087,1.21127,-12.0722,2.83991,0.98593,-21.24282,-27.6115,3.06037,-5.83193,1.2295,1.80095,-17.68062,32.37277,-2.03016,-15.44265,3.30753,0.93717,2.96084,18.47987,-1.2093,-1.98185,-13.74147,2.95146,6.18755,-0.82298,0.25625,5.50637,-0.74232,0.86743,-0.08711,-1.20379,0.57108,0.37418,0.50076,-0.45632,0.08323,-0.09651,0.10277,0.06764,-0.11129,-0.06263
3816,-18.7152,-6.89796,1.48361,-12.71482,3.55403,0.95309,-20.69874,-31.82459,3.91641,-13.50784,5.59809,1.86007,-17.52816,32.09108,-1.86563,-15.98015,3.58563,0.98885,-8.64248,20.09753,1.39244,15.01856,-6.3795,6.57881,6.66056,0.1897,1.58545,3.87747,-1.04852,-1.2051,0.31295,-2.17254,0.58178,0.47785,0.98857,-1.35925,0.1127,-0.22718,0.13939,0.09449,0.15933,-0.37093
3817,-17.87668,-6.82758,1.51032,-14.33459,2.29641,0.58772,-20.98525,-31.57988,4.2198,-19.82707,5.71525,1.55277,-17.50276,31.92734,-1.79019,-16.63177,3.46743,0.8115,-17.20509,18.63107,2.11717,30.20756,-5.72829,5.1232,6.35389,0.73412,1.47942,3.96883,-1.88395,-2.58284,0.70838,-2.18196,0.00347,1.0055,1.89288,-1.48149,0.12919,-0.15585,-0.01776,0.15299,0.35136,-0.41647
3818,-17.68519,-5.75199,1.43012,-16.02585,1.1539,0.25912,-21.49429,-28.44827,4.03655,-23.3557,5.3106,1.42246,-17.56032,31.88911,-1.79637,-17.28438,3.2047,0.59675,-21.68308,17.82139,0.41845,25.83311,-7.16144,0.26204,5.9896,-0.0371,0.52268,6.85049,-2.5293,-1.57149,0.58332,-1.64583,-0.11815,1.65867,2.50209,-0.58051,0.09399,-0.07157,-0.05945,0.24947,0.28397,-0.11667
3819,-16.75083,-6.19548,1.4104,-16.52555,1.76577,0.07324,-19.42978,-28.28123,3.95922,-25.5527,9.35784,0.79713,-17.50867,31.69866,-1.775,-17.6786,3.14433,0.52905,-24.44517,18.71387,-2.20617,7.68428,-6.01634,-2.65839,6.02068,-1.16339,-0.56045,9.23728,-2.72011,1.33967,0.48088,-0.99075,0.0757,1.29928,1.64793,0.7638,0.097,-0.04606,0.01656,0.17718,-0.03195,0.31773
3820,-15.07832,-7.70475,1.44336,-15.33919,2.76436,0.01342,-15.12217,-32.16455,3.72718,-24.27273,12.4521,-0.40767,-17.33282,31.35864,-1.65728,-17.79156,3.32023,0.60022,-20.4113,15.57785,-3.77546,2.37358,-3.95462,-2.96005,6.43081,-1.19487,-1.30519,8.31966,-2.6951,2.77536,0.88447,-0.41669,-0.12796,0.62451,0.25754,1.34094,0.18993,-0.01651,0.00411,0.05434,-0.27657,0.45978
3821,-14.8912,-8.05793,1.55311,-13.26115,2.39855,0.21775,-15.70007,-36.07315,3.44755,-16.93553,6.15099,-1.45836,-17.16625,31.10094,-1.50853,-17.9278,3.59585,0.77252,-10.14225,4.36775,-4.34526,20.71083,-8.86316,-3.69011,6.6029,-0.46515,-1.23672,4.80184,-2.35935,1.02701,1.15866,-0.29196,-0.40729,0.8518,-0.15525,0.65048,0.25489,0.00011,-0.06409,0.09184,-0.26874,0.1681
3822,-16.32388,-6.99297,1.75504,-11.90628,2.09703,0.85099,-23.53521,-35.20903,3.80163,-8.62911,-3.25905,-0.86118,-17.00702,30.86836,-1.4064,-18.27104,3.90188,1.06359,-5.26556,-2.73844,-3.86547,36.08786,-22.34096,-4.92645,5.9968,-0.25998,-0.41876,0.75326,-1.55674,-1.55391,0.69671,-0.72716,-0.11458,1.37283,0.07317,-0.28943,0.19647,-0.03304,-0.03391,0.13831,-0.17632,-0.17959
3823,-16.77319,-5.97371,1.85982,-11.58306,3.36741,1.61839,-28.30984,-29.93404,4.20949,-4.41492,-4.61635,1.75981,-16.82495,30.52552,-1.34747,-18.62957,4.16024,1.34778,-5.05443,3.08953,-1.69127,22.81505,-31.64996,-4.30102,5.46693,-0.66567,0.46196,-1.26253,-1.01497,-2.72047,0.17692,-1.40358,0.43944,1.35365,0.55843,-0.52793,0.1101,-0.07978,0.06767,0.01745,-0.10783,-0.21939
3824,-15.20279,-5.65214,1.71995,-11.65621,4.78893,1.92772,-22.41433,-26.23375,3.71452,-5.73605,0.80139,4.32502,-16.67332,30.15303,-1.30524,-18.79717,4.24754,1.39717,-3.08412,10.335,1.86446,-4.14534,-26.70939,-0.96733,5.82119,-1.11441,0.63489,0.84082,-1.63813,-1.83511,0.34139,-1.85061,0.56373,0.78049,0.9106,-0.14005,0.08006,-0.08366,0.11301,-0.19977,-0.12084,0.01214
3825,-13.40625,-5.4342,1.51842,-12.06622,5.03509,1.6597,-14.06152,-25.74141,3.01246,-12.17838,6.96539,5.1802,-16.51431,29.72333,-1.26526,-18.83636,4.16635,1.23164,-4.76209,14.22777,5.12443,-12.28284,-11.73663,2.17623,6.05725,-1.62551,-0.14091,5.92788,-3.17151,0.22592,0.7356,-1.74699,0.20573,0.35839,0.71577,0.31776,0.04765,-0.0596,0.06629,-0.25194,-0.21766,0.21899
3826,-12.87025,-5.35986,1.49651,-12.74292,4.62406,1.22579,-13.81919,-26.10067,3.05721,-18.1251,11.3313,4.57977,-16.28331,29.09711,-1.21414,-18.90154,4.05135,1.09255,-11.51175,20.76971,5.36705,6.16395,1.76063,2.10571,5.43433,-1.90842,-0.93725,9.59773,-4.22371,1.2773,0.70258,-1.39696,-0.17088,0.60801,0.5305,0.31376,0.00842,-0.08665,-0.01308,-0.05544,-0.24926,0.19776
3827,-12.89896,-6.10279,1.60626,-13.0248,4.02827,0.97926,-19.43231,-28.03965,3.35583,-17.77761,10.6561,2.84248,-16.01205,28.3753,-1.13101,-19.02633,4.01968,1.1038,-14.90065,22.66717,1.31475,29.89553,0.71231,1.21499,5.08207,-1.25782,-0.66967,9.23608,-3.70654,0.66169,0.45192,-1.33757,-0.25257,1.02989,0.77609,-0.18322,0.07871,-0.16453,-0.0663,0.12983,-0.14171,0.00937
3828,-12.47199,-7.32849,1.71949,-12.4111,3.37065,1.04024,-22.22477,-31.77172,3.43493,-13.15743,4.31025,0.84869,-15.70438,27.74701,-1.01704,-19.14249,4.10976,1.2248,-12.25635,11.20327,-3.01556,36.34261,-17.67041,4.25782,5.39822,0.18817,0.51586,7.25042,-2.38803,0.07817,0.47726,-1.52414,-0.08009,0.90934,0.91414,-0.61366,0.24989,-0.19304,-0.06296,0.08113,-0.0868,-0.11277
3829,-11.94735,-7.82334,1.85513,-11.3266,3.51448,1.41044,-19.908,-33.08664,3.81457,-10.52265,-0.19484,0.87456,-15.3482,27.23637,-0.90721,-19.17881,4.26433,1.38901,-9.10675,-1.08814,-1.91208,25.51337,-35.2224,8.73396,5.16014,1.51228,1.60599,6.86696,-1.505,0.71491,0.86366,-1.51457,0.0941,0.43504,0.71662,-0.5637,0.34019,-0.10477,-0.01049,-0.05864,-0.14454,-0.05682
3830,-12.00392,-7.47136,2.02304,-11.34447,4.72408,1.80025,-17.60553,-30.02809,4.4875,-14.68113,2.65891,2.75959,-15.0294,26.7562,-0.82524,-19.16071,4.38426,1.51042,-14.08847,-0.18848,2.46158,11.4812,-32.97078,5.98281,4.34838,1.70158,1.52777,7.94283,-0.86656,1.46752,1.24303,-1.06862,0.04427,0.62861,1.09976,-0.3102,0.26326,0.06172,0.02149,0.03574,0.00014,7e-05
3831,-12.29788,-7.62226,2.1233,-12.44956,5.59079,1.81711,-19.07178,-26.89416,4.56156,-22.61156,7.58355,3.22006,-14.81441,26.15999,-0.76769,-19.1309,4.46008,1.545,-26.96236,6.87293,2.52035,4.04595,-15.93026,-4.49846,4.18791,0.38321,0.04652,8.527,-0.21331,1.05835,1.16268,-0.40322,-0.17515,1.94755,2.27707,-0.14325,0.12895,0.18618,-0.01891,0.4063,0.38464,-0.0654
3832,-11.47019,-8.63489,2.03939,-12.25989,4.98722,1.52325,-19.36052,-26.58936,3.70693,-23.59064,7.80998,1.58588,-14.61888,25.39046,-0.69882,-19.09413,4.5014,1.5432,-28.6611,9.39351,-2.16937,4.1985,-2.10498,-11.96286,5.07332,-1.38717,-1.47205,7.90515,-0.19815,0.07611,0.78458,-0.21022,-0.28224,3.18349,2.93054,-0.01309,0.07763,0.14575,-0.06486,0.68175,0.58845,-0.13581
