PaulMeinheit/Bachelor_Muay_Thai/processed_Data/E1/roundhouse/sliced/JointMoments/sliced1.csv
Unnamed: 0_level_0,R_KNEE_MOMENT,R_KNEE_MOMENT,R_KNEE_MOMENT,L_KNEE_MOMENT,L_KNEE_MOMENT,L_KNEE_MOMENT,R_HIP_MOMENT,R_HIP_MOMENT,R_HIP_MOMENT,L_HIP_MOMENT,L_HIP_MOMENT,L_HIP_MOMENT,R_ANKLE_MOMENT,R_ANKLE_MOMENT,R_ANKLE_MOMENT,L_ANKLE_MOMENT,L_ANKLE_MOMENT,L_ANKLE_MOMENT,WAIST_JOINT_MOMENT,WAIST_JOINT_MOMENT,WAIST_JOINT_MOMENT,NECK_MOMENT,NECK_MOMENT,NECK_MOMENT,L_SHOULDER_MOMENT,L_SHOULDER_MOMENT,L_SHOULDER_MOMENT,R_SHOULDER_MOMENT,R_SHOULDER_MOMENT,R_SHOULDER_MOMENT,L_ELBOW_MOMENT,L_ELBOW_MOMENT,L_ELBOW_MOMENT,R_ELBOW_MOMENT,R_ELBOW_MOMENT,R_ELBOW_MOMENT,L_WRIST_MOMENT,L_WRIST_MOMENT,L_WRIST_MOMENT,R_WRIST_MOMENT,R_WRIST_MOMENT,R_WRIST_MOMENT
ITEM,X,Y,Z,X,Y,Z,X,Y,Z,X,Y,Z,X,Y,Z,X,Y,Z,X,Y,Z,X,Y,Z,X,Y,Z,X,Y,Z,X,Y,Z,X,Y,Z,X,Y,Z,X,Y,Z
915,-9.75056,-13.25526,2.0039,-14.0086,5.77228,-0.31481,-25.39563,-31.64038,3.30759,-21.19252,13.34347,0.1946,-11.80241,26.42999,-0.91616,-16.90128,-0.36052,-1.33632,-24.87914,17.41062,-1.39424,-3.59586,10.63798,-4.52462,5.92044,0.52051,1.193,1.97311,-3.31037,-1.86704,0.65532,-2.21588,0.11382,0.95112,0.8342,0.0616,0.2101,-0.22241,-0.0377,-0.09016,-0.05871,0.0509
916,-8.88423,-13.47038,1.93514,-14.15674,2.98621,-0.51089,-17.73125,-28.76694,2.16718,-16.8114,1.97996,-1.30808,-11.83976,26.49943,-0.75379,-17.06898,-0.52532,-1.41803,-9.97427,7.18835,-4.76717,-2.9157,-5.34739,5.53002,5.50165,1.5016,1.75701,5.37625,-3.85897,-0.66991,0.47256,-1.89277,0.32856,1.26439,1.34348,-0.04325,0.22893,-0.08653,-0.03409,0.05252,0.02904,0.04553
917,-6.76421,-13.98431,1.70998,-12.07945,1.83627,-0.24777,-9.78347,-27.6114,1.20786,-10.3535,-4.1972,-0.76596,-11.98259,26.49326,-0.6228,-16.99414,-0.62915,-1.47996,8.03254,0.94767,-5.46009,15.36628,-31.64256,8.64148,4.87127,1.02501,1.34169,8.28309,-4.28251,0.85503,0.59494,-1.33941,0.45374,1.2547,1.31252,-0.09857,0.16746,0.00018,0.05198,0.06892,-0.01368,0.04622
918,-5.96575,-14.66435,1.72836,-9.32291,2.59974,0.05054,-10.27398,-30.09297,2.25917,-5.81224,-0.51774,0.66599,-12.04155,26.1799,-0.63611,-16.80611,-0.66901,-1.5303,12.02834,1.19242,-2.3466,30.64397,-44.55092,4.09679,5.21371,0.18163,0.50613,8.46684,-4.24008,0.72624,1.0856,-0.97493,0.30786,1.43397,1.45949,-0.15147,0.09687,0.04715,0.10599,0.12833,0.03235,0.02356
919,-6.9059,-14.3562,1.92924,-9.37558,3.71298,-0.10054,-16.08956,-31.11887,4.30034,-8.08103,7.38546,1.21066,-11.91867,25.66373,-0.73148,-16.78839,-0.74727,-1.56503,1.45961,8.822,1.68683,26.39653,-29.57413,-1.26963,6.07078,-0.45718,-0.20311,6.79142,-3.79083,-0.65834,1.41613,-0.91513,0.03663,2.11021,1.82611,-0.14871,0.0922,0.03181,0.08213,0.31267,0.2132,-0.04696
920,-8.15918,-12.73225,1.93198,-11.69076,4.44174,-0.37857,-18.94405,-26.98746,4.70119,-13.24406,12.99927,1.84635,-11.72287,25.26361,-0.80625,-16.90261,-0.78754,-1.55877,-6.36322,22.23344,4.17354,12.09813,0.86348,-2.21749,5.77902,-0.85217,-0.60864,4.95339,-2.97662,-0.94757,1.55939,-0.9791,-0.27873,2.34407,1.38433,0.0249,0.21636,-0.021,-0.00272,0.35802,0.23011,-0.09619
921,-8.49699,-11.46986,1.67894,-13.3625,4.80907,-0.37706,-17.24878,-21.67274,2.82749,-17.54012,13.38946,2.62768,-11.55513,25.08311,-0.79458,-16.94227,-0.69521,-1.53462,-7.52942,31.061,2.70509,4.12331,13.423,0.2992,4.32974,-0.5626,-0.28281,3.7956,-2.0742,0.53777,1.65755,-1.22985,-0.46607,1.60448,-0.05563,0.31215,0.38487,-0.04401,-0.09505,0.12338,-0.06575,-0.06551
922,-8.24268,-12.45775,1.54895,-13.24381,5.26145,-0.10087,-15.93927,-22.46761,0.76733,-21.29438,11.00629,2.43417,-11.40446,24.94684,-0.69216,-16.79218,-0.5165,-1.47285,-12.09328,26.57701,-1.87876,5.55704,-4.14138,2.06667,3.67297,0.17328,0.58469,4.10823,-2.12416,1.879,1.34867,-1.5607,-0.27219,0.73021,-0.93975,0.43267,0.37612,-0.01642,-0.12192,-0.11624,-0.37442,0.02343
923,-8.16246,-14.82112,1.74589,-12.40096,5.8912,0.16587,-17.0201,-29.44227,0.58227,-24.11273,10.22153,1.47519,-11.26135,24.6909,-0.57216,-16.52414,-0.37431,-1.34834,-20.40619,14.82054,-4.18652,10.85221,-26.44621,-0.0008,4.79877,-0.01234,0.66133,5.90954,-3.40056,1.24295,0.7119,-1.46407,0.08953,0.6678,0.10208,0.09851,0.18329,0.04162,-0.07938,-0.05208,-0.28596,0.06798
924,-8.2735,-15.92821,2.02774,-12.00522,5.66933,0.13364,-19.29243,-35.11013,2.17421,-24.75355,9.58676,0.20792,-11.17676,24.36214,-0.5251,-16.35232,-0.33876,-1.25717,-25.61997,5.92562,-2.52,15.67575,-29.31245,-4.79729,6.31124,-1.44266,-0.43765,7.23384,-4.47625,-0.84882,0.48163,-0.9639,0.20561,1.61931,2.00076,-0.37272,0.05211,0.08134,-0.01868,0.27645,0.10492,-0.00117
925,-8.60355,-15.2798,2.17261,-12.09544,4.04753,-0.15049,-22.89641,-35.14243,3.95524,-23.00963,4.88851,-1.29682,-11.17892,24.10096,-0.5661,-16.4132,-0.37194,-1.29598,-26.26393,1.45618,-1.13613,16.69742,-17.29192,-6.67451,6.61906,-2.41205,-1.17513,6.44516,-4.40405,-2.23803,0.78271,-0.78265,0.13664,2.48207,2.59778,-0.38902,0.09315,0.03415,0.03638,0.44095,0.29965,-0.07247
926,-9.14515,-14.55068,2.20108,-12.2619,2.85095,-0.28101,-25.20077,-31.52093,4.49629,-19.71124,0.08102,-1.72419,-11.1928,23.8842,-0.60976,-16.57202,-0.36077,-1.3603,-21.77161,2.71774,-1.21862,9.84788,-7.83039,-1.59862,5.90317,-1.67498,-0.56347,5.3885,-4.0084,-1.19678,0.82453,-1.11315,0.1688,2.08882,1.43072,0.09509,0.14656,-0.09408,0.06984,0.209,0.06686,-0.00215
927,-9.39842,-14.72975,2.19324,-11.9993,3.82599,-0.02899,-22.20287,-27.33587,3.83503,-14.81979,2.42074,-0.0087,-11.14624,23.57636,-0.58029,-16.55737,-0.27669,-1.29135,-9.97257,12.33117,-0.25742,-2.96558,-8.03738,6.53453,5.15136,-0.22421,0.40839,6.48388,-3.6519,1.72102,0.39368,-1.40285,0.24414,0.85237,0.10503,0.45245,0.11809,-0.20922,0.0632,-0.13652,-0.23367,0.11997
928,-8.84274,-15.45393,2.20289,-11.30838,5.56178,0.2818,-15.76712,-25.48865,3.33591,-9.77645,9.51178,2.34353,-11.0723,23.21033,-0.47966,-16.33762,-0.25428,-1.15888,4.39331,22.90329,1.77938,-8.33007,-11.68822,9.91755,4.64547,0.39992,0.6225,8.03701,-2.67151,3.70532,0.29439,-1.33736,0.15601,0.22038,-0.04909,0.31493,0.11399,-0.22202,0.03393,-0.21726,-0.20887,0.11596
929,-7.94264,-16.04363,2.25628,-10.75844,5.67305,0.31628,-12.48603,-27.89894,3.64518,-8.8265,12.52141,3.26049,-11.02953,22.96173,-0.35453,-16.10848,-0.34037,-1.12206,9.33621,22.44354,2.77289,3.53795,-11.84771,6.3956,4.3023,0.03848,0.21439,7.18751,-1.83809,2.39112,0.8649,-1.1004,-0.06079,0.92,0.71432,-0.03421,0.1878,-0.10223,-0.00383,0.02142,0.0295,-0.01521
930,-7.93621,-16.12719,2.31854,-10.7075,4.26755,0.18257,-16.54894,-31.79418,3.87676,-14.01326,8.32968,2.05388,-11.00829,22.84689,-0.2701,-15.96755,-0.37386,-1.15619,-3.13578,11.17877,0.26581,21.38778,-8.17599,0.78524,4.47595,-0.48043,-0.12091,4.86198,-2.64465,-0.76717,1.456,-1.00524,-0.20644,1.95502,1.21717,-0.20146,0.25731,0.06498,-0.05285,0.27703,0.09839,-0.11485
931,-8.83295,-16.07822,2.34082,-10.87059,3.38204,0.13975,-23.9483,-33.09188,3.54093,-20.25759,2.13905,-0.64529,-10.95419,22.63227,-0.26323,-15.84633,-0.25233,-1.11695,-22.86292,0.65251,-5.58729,26.7937,-2.87428,-3.28213,5.07713,-0.74221,-0.1908,3.77551,-4.18443,-2.06413,1.49412,-1.07054,-0.16886,1.95802,0.83708,-0.07863,0.24038,0.1177,-0.06482,0.25316,-0.09182,-0.07168
932,-9.15093,-16.6769,2.31904,-11.09884,4.12772,0.23394,-25.30946,-32.41407,3.21322,-20.12925,0.54667,-2.52533,-10.87196,22.17927,-0.29418,-15.75824,-0.10608,-0.99024,-26.40605,0.29157,-8.92497,19.4099,-0.80028,-5.82968,5.21485,-0.8249,-0.24053,4.41617,-4.29997,-0.8454,1.29621,-1.04332,-0.06177,1.2644,0.42157,0.12025,0.17687,0.02817,0.0025,0.06143,-0.21651,0.03358
933,-8.43488,-17.80975,2.25898,-11.80633,5.59671,0.30276,-18.5489,-31.96438,2.88848,-15.31502,4.49347,-1.61941,-10.82861,21.70624,-0.29323,-15.81986,-0.09571,-0.93539,-10.38804,9.12686,-5.65409,13.87465,-8.61114,-5.4129,4.98171,-0.4685,-0.06077,5.55839,-3.02606,0.52033,1.28091,-1.00072,0.03113,1.15677,0.77562,0.17257,0.15261,-0.06098,0.08459,0.02217,-0.07459,0.05817
934,-7.88331,-18.42566,2.19392,-12.52751,6.40455,0.3021,-12.36136,-31.40886,2.02252,-13.9036,8.76029,0.81305,-10.79918,21.46789,-0.21916,-15.96975,-0.14723,-1.0327,1.71075,16.69939,-0.62857,16.22577,-22.84431,-1.37722,5.59586,0.16098,0.40174,6.335,-2.34866,0.75109,1.20827,-1.18638,0.1213,1.43677,1.3155,0.0566,0.1787,-0.05353,0.07121,0.08832,0.0944,0.0156
935,-8.42673,-18.00949,2.24068,-11.92902,5.8823,0.33796,-13.86464,-30.62384,1.29801,-15.49187,8.5236,2.39506,-10.6833,21.38355,-0.10266,-16.00486,-0.11824,-1.16284,-1.36069,15.09316,0.84229,15.94247,-30.78547,1.64927,6.68964,0.00948,0.31985,6.25324,-3.23536,0.17005,0.75442,-1.31981,0.09283,1.22079,1.24987,-0.04445,0.1965,-0.0016,-0.05157,0.0318,0.01069,0.02672
936,-9.53252,-17.16542,2.47914,-10.88055,4.41459,0.28805,-20.2312,-30.20173,2.26991,-15.49661,6.04515,2.51572,-10.46692,21.15677,-0.02939,-15.91596,-0.05729,-1.17127,-9.06421,10.99348,0.69729,4.8543,-27.66566,0.51283,6.38246,-0.91734,-0.45378,5.26712,-4.52567,-1.01911,0.41555,-1.12854,-0.14792,1.11878,0.96382,0.0086,0.20596,0.00316,-0.1625,0.00458,-0.1761,0.07832
937,-10.13771,-17.22223,2.82879,-11.28231,3.50802,0.03309,-24.42031,-31.30682,4.92087,-15.36366,7.71093,2.05326,-10.23146,20.61453,-0.04077,-15.81903,-0.04933,-1.04254,-13.80119,13.43857,3.05753,-5.1752,-19.59949,-0.72185,4.90061,-1.21534,-0.69286,4.5959,-4.5995,-1.9826,0.83719,-1.03079,-0.32448,1.78214,1.16081,0.02261,0.26328,-0.03908,-0.13506,0.21005,-0.09107,0.02604
938,-10.05246,-18.62104,3.04417,-12.05961,4.02716,-0.12307,-23.25043,-35.21803,6.77604,-15.66016,12.71848,1.91742,-10.09753,19.98543,-0.10149,-15.74251,-0.05378,-0.91318,-13.03762,16.2921,6.80496,1.67367,-12.21615,1.96854,4.35695,-0.40368,0.07776,5.44475,-3.37221,-0.97189,1.57841,-1.20078,-0.14505,2.05675,1.33972,-0.1777,0.32089,-0.0238,-0.00811,0.39027,0.21467,-0.12879
939,-9.79055,-19.93078,2.93673,-11.45347,4.81858,0.01791,-19.42414,-38.26683,5.85253,-14.33383,13.22213,1.76041,-10.13732,19.67598,-0.14698,-15.72559,-0.07585,-0.9305,-6.39697,12.88909,6.23197,18.12734,-7.69893,5.46521,5.11014,0.36539,0.73736,6.94365,-2.39696,1.62005,1.83468,-1.21426,0.16986,1.07406,0.70341,-0.36254,0.29635,0.05565,0.08819,0.25945,0.28569,-0.19974
940,-9.68649,-19.83034,2.68384,-10.25641,4.50231,0.15523,-18.61427,-35.18768,3.69815,-13.60937,7.2923,0.41457,-10.27336,19.67047,-0.13086,-15.77522,-0.18897,-1.07077,-4.308,9.39638,-0.58671,25.4356,-7.65819,4.38879,5.64743,-0.09477,0.52698,7.67398,-2.99716,2.99015,1.51819,-1.19225,0.31024,0.0751,-0.17526,-0.24085,0.20182,0.01208,0.13112,0.01012,-0.03628,-0.08214
941,-9.57385,-18.63452,2.574,-10.32314,3.86195,0.09333,-22.17089,-28.7581,3.02542,-16.77136,1.92414,-1.55757,-10.39391,19.65596,-0.06493,-15.83673,-0.28465,-1.16605,-14.7919,10.19565,-7.45273,20.95319,-9.83743,-0.21648,5.25019,-1.40915,-0.15703,7.37274,-4.39561,1.99029,1.12967,-1.44298,0.2066,-0.00916,-0.20522,-0.02391,0.12351,-0.18497,0.13734,-0.13541,-0.3699,0.08973
942,-8.91136,-17.80704,2.57877,-11.4539,4.22067,0.04276,-24.4052,-26.94834,3.75376,-20.51178,2.47537,-1.68243,-10.48511,19.54693,0.00433,-15.85516,-0.22409,-1.16032,-24.62484,10.61906,-7.34752,13.4209,-10.37211,-2.54332,4.46768,-1.71884,-0.33484,5.7762,-4.58041,-0.11076,0.79671,-1.62965,0.05698,0.44079,0.63955,0.00669,0.06568,-0.28785,0.0913,-0.17004,-0.30229,0.12858
943,-7.73519,-18.25842,2.52747,-11.76893,5.2612,0.17519,-21.2975,-30.85734,3.97148,-19.91463,7.84126,0.94204,-10.53903,19.40818,0.05006,-15.80041,-0.10894,-1.13244,-19.7523,10.1599,-1.01368,7.44345,-10.34696,-1.59442,4.29197,-0.46383,0.26829,3.29551,-3.38,-1.99094,0.48163,-1.49429,0.05962,1.11137,1.5678,-0.01685,0.02314,-0.17807,0.01418,-0.06219,0.06955,0.04378
944,-7.27358,-19.73863,2.49832,-10.86333,6.11477,0.37488,-17.44051,-35.79211,3.27773,-15.83391,14.64552,4.35266,-10.49936,19.23906,0.06435,-15.72728,-0.09812,-1.1057,-8.05476,13.25592,5.27659,7.01009,-11.3949,-1.92778,5.24529,0.35932,0.5086,1.86662,-2.67142,-2.80652,0.61582,-1.26448,0.03154,1.53638,1.84364,0.01054,0.09374,-0.01604,-0.05455,0.1059,0.27462,-0.01606
945,-8.38462,-21.15436,2.65928,-10.14257,6.3615,0.41941,-18.504,-38.98047,2.86529,-12.45245,18.91017,5.75173,-10.36674,19.0854,0.05196,-15.70962,-0.14447,-1.05573,-3.46633,17.80876,7.27385,14.08552,-11.24957,-3.94582,6.46669,-0.32602,-0.05936,2.43359,-3.14132,-2.30051,1.20434,-1.25048,-0.12475,1.27633,1.38565,-0.06377,0.26383,0.02342,-0.08038,0.13917,0.14013,-0.01381
946,-9.88553,-21.23325,2.86631,-10.42099,5.44934,0.16421,-21.99451,-38.62609,3.24412,-11.984,15.54024,3.31432,-10.23605,18.96738,0.02736,-15.72777,-0.13868,-1.03901,-6.14445,15.77737,3.97288,18.96678,-9.52565,-3.03405,6.81617,-1.05694,-0.63343,4.11889,-3.45158,-0.73764,1.61064,-1.21699,-0.27449,0.99773,0.61267,-0.08872,0.38468,-0.0186,-0.07365,0.1061,-0.08416,-0.01035
947,-9.7538,-20.1298,2.7957,-11.08685,3.29294,-0.27059,-21.62796,-33.5729,3.51835,-12.74139,3.86655,-1.61175,-10.20004,18.78332,0.00366,-15.72773,-0.14561,-1.14313,-7.02113,5.84514,-3.40899,14.03263,-9.55216,1.11256,6.31204,-0.91813,-0.82653,6.28995,-2.80716,1.30688,1.43637,-0.83211,-0.30426,1.5583,0.17569,0.19284,0.35502,-0.02238,-0.05967,0.25226,-0.12384,-0.01387
948,-8.2736,-19.15996,2.47044,-11.20454,1.6167,-0.44275,-18.17268,-27.24545,3.05646,-11.89604,-6.59446,-4.1452,-10.2783,18.57547,-0.02832,-15.70476,-0.23019,-1.30209,-3.22088,-0.81454,-9.03941,8.36099,-13.5334,3.98603,5.29791,-0.58099,-0.63086,8.25535,-1.93719,2.74073,0.94141,-0.54447,-0.15276,2.40066,0.47449,0.48983,0.20425,-0.00329,-0.02385,0.51919,0.05433,-0.01195
949,-7.75774,-19.25373,2.32479,-10.55617,2.28885,-0.10386,-18.16278,-26.66457,2.8046,-10.06787,-5.63279,-1.79605,-10.39104,18.49404,-0.07874,-15.69176,-0.28268,-1.32659,-1.46456,2.96381,-7.09612,10.09961,-19.92341,3.33496,4.25019,-0.27046,0.26165,8.31906,-1.8217,2.28312,0.70666,-1.04766,0.17619,2.34525,1.20882,0.33015,0.08128,-0.03163,0.04432,0.57164,0.26922,-0.0282
950,-8.85039,-20.45219,2.59166,-9.82936,4.99004,0.48354,-22.73812,-34.01933,3.84396,-10.86975,4.85417,2.14282,-10.42905,18.49414,-0.12468,-15.71028,-0.16893,-1.12902,-6.61623,9.40256,0.13699,13.83069,-20.53408,0.40425,4.21633,0.18053,1.51065,6.09269,-2.9836,-0.24188,1.01149,-2.08734,0.50325,1.43846,1.78985,-0.17751,0.11443,-0.08119,0.10604,0.30213,0.32362,-0.05494
951,-9.84655,-22.00315,2.9745,-10.09248,7.32497,0.80031,-26.37204,-41.95507,5.46898,-16.09363,13.86751,3.48843,-10.36683,18.42801,-0.13454,-15.75686,0.0227,-0.8842,-16.07817,10.26412,5.01984,13.85242,-8.91865,-2.09056,5.04228,0.18101,1.80139,3.75052,-4.82343,-2.71526,1.46934,-2.55947,0.52641,0.5766,1.71108,-0.47054,0.24515,-0.09039,0.10452,-0.07367,0.13791,-0.0333
952,-9.55233,-22.8709,3.05001,-11.44019,7.0085,0.53264,-24.82929,-42.39312,5.70258,-21.61967,13.46919,1.92554,-10.25859,18.31855,-0.1034,-15.82744,0.0308,-0.88738,-21.54228,6.67199,3.52735,12.54139,2.59672,-1.67909,5.50761,-0.62262,0.5675,2.93579,-5.17384,-2.39159,1.46618,-1.85594,0.1734,-0.0022,0.79914,-0.32197,0.3102,-0.05585,0.02659,-0.34246,-0.16914,0.03352
953,-8.56831,-22.34698,2.72054,-12.28368,4.73258,0.02876,-18.85394,-36.28923,3.67185,-20.42877,6.93245,0.63251,-10.17192,18.30182,-0.05661,-15.85499,-0.15375,-1.14051,-13.75349,5.029,-0.68667,14.07179,-2.95838,0.58831,5.96657,-1.36379,-0.92158,2.60652,-2.88708,0.14142,1.01801,-0.79311,-0.18779,-0.16404,-0.3422,0.04971,0.2656,-0.02454,-0.0558,-0.34165,-0.33048,0.06381
954,-8.04906,-20.65133,2.31122,-12.34441,3.34006,-0.23101,-13.70202,-30.69967,1.38707,-15.49571,4.45233,1.61364,-10.11769,18.24585,-0.03849,-15.79412,-0.27614,-1.33632,-1.3058,10.27492,-1.29789,17.42641,-16.7491,0.51866,7.09852,-1.42271,-1.32671,2.21276,-0.51472,1.32993,0.65399,-0.50568,-0.21301,0.60478,-0.47254,0.31839,0.18599,-0.04006,-0.06337,-0.01743,-0.19877,0.02125
955,-8.53396,-19.09925,2.21093,-12.7552,3.92024,-0.25975,-15.18622,-30.18886,1.44868,-15.61826,8.89534,2.87619,-10.06878,17.85555,-0.08629,-15.68225,-0.25269,-1.30507,-4.02074,17.25846,1.38348,18.01823,-17.60652,-3.51178,7.52623,-1.37543,-1.08628,3.63969,-1.30522,0.39968,0.69747,-0.78153,-0.11433,1.81802,0.52059,0.39816,0.14922,-0.05928,-0.03459,0.34314,-0.01719,0.01031
956,-9.15863,-18.83087,2.35221,-13.23116,4.99949,-0.24211,-21.02872,-32.44474,3.03023,-19.82591,11.99199,1.77588,-10.02902,17.29118,-0.14774,-15.61277,-0.18614,-1.18686,-18.2758,16.01474,0.63498,14.16122,-8.67719,-7.51802,6.08418,-1.24453,-0.79563,6.8255,-4.27664,-0.17471,1.01237,-0.92735,-0.17568,2.12673,1.27931,0.40657,0.17687,-0.02823,-0.04322,0.35449,-0.06885,0.10467
957,-9.05283,-19.88603,2.46742,-12.18719,5.46674,-0.10596,-24.07203,-33.25135,3.66823,-19.84183,9.62288,-0.30298,-10.03176,17.0188,-0.14591,-15.63036,-0.09836,-1.1438,-22.2136,9.57228,-3.98253,8.44367,-11.94891,-5.74936,4.15759,-0.06728,0.14184,8.13979,-5.33476,0.15352,1.2788,-1.18229,-0.23743,1.44512,1.3841,0.24109,0.24439,-0.00598,-0.07809,0.07588,-0.12273,0.1446
958,-8.63241,-21.7299,2.59091,-9.35591,5.58909,0.19726,-23.14174,-33.33814,3.5421,-13.18689,7.76024,-0.27235,-10.04276,17.08626,-0.09378,-15.62681,-1e-05,-1.15544,-10.82333,9.12358,-4.84167,4.39642,-29.15856,2.24389,3.57411,1.62958,1.53051,6.08721,-3.0814,0.04065,1.27831,-1.7142,-0.0944,0.78886,1.62338,-0.25423,0.303,-0.05014,-0.08204,-0.10389,0.13912,-0.00672
959,-8.59904,-23.02736,2.82582,-7.62952,5.37243,0.30846,-22.82862,-34.52443,4.30935,-7.93273,9.18102,1.01606,-9.97846,17.14266,-0.04599,-15.56263,-0.01146,-1.1557,-2.42864,14.26749,-0.29972,3.98397,-35.56686,9.50874,4.17623,1.75018,1.80355,4.27916,-0.84866,-0.37735,1.0748,-1.83632,0.14415,0.53868,2.10555,-0.82114,0.29025,-0.1022,-0.01886,-0.03297,0.45093,-0.18411
960,-9.15258,-22.58952,3.05603,-9.20307,4.6559,0.04022,-25.95406,-35.8293,5.89621,-10.84275,9.41224,0.92782,-9.87456,16.99328,-0.02968,-15.55107,-0.14407,-1.15126,-9.79633,14.79261,3.1202,6.36537,-18.18995,8.63313,4.93935,-0.16515,0.45157,5.86353,-2.04945,-0.47805,0.92336,-1.26049,0.24725,0.78465,2.24651,-0.97288,0.18636,-0.08902,0.07421,0.18462,0.37487,-0.18035
961,-9.5214,-21.22117,3.04754,-11.99467,3.85016,-0.22794,-27.67798,-36.09476,6.53266,-16.68163,5.71951,-0.14304,-9.86604,16.76945,-0.04132,-15.65048,-0.22233,-1.16386,-18.6384,7.78253,1.97126,8.83742,5.54192,0.13642,5.51067,-2.17175,-1.0978,8.4736,-5.47779,-0.9798,0.88453,-0.67999,0.16583,1.53183,1.97368,-0.70506,0.0545,-0.045,0.11716,0.3582,0.03151,-0.07498
962,-8.72882,-20.88937,2.71575,-12.78958,3.38873,-0.17528,-21.83046,-36.02506,5.1724,-17.07138,1.78967,-0.02293,-9.98036,16.59706,-0.0814,-15.74596,-0.16317,-1.17765,-11.02476,1.05751,-0.14475,13.97574,14.41987,-7.78246,5.5641,-2.57075,-1.34892,8.10599,-7.17164,-1.78476,0.8292,-0.75633,0.08359,2.15887,1.36191,-0.23705,-0.0173,-0.05557,0.09828,0.33388,-0.20053,-0.0152
963,-7.5784,-21.82178,2.31666,-11.87122,3.66969,-0.00475,-13.09289,-35.59135,3.04585,-14.77993,3.42403,1.34022,-10.07744,16.39708,-0.15318,-15.74605,-0.07519,-1.16212,1.49705,3.44894,0.22313,26.34853,5.72832,-7.62946,4.9357,-1.51365,-0.42515,5.51336,-5.67616,-0.97824,0.84681,-1.25536,0.07428,1.82986,0.28459,0.32691,0.02492,-0.09113,0.04942,0.14474,-0.28188,0.04176
964,-8.02316,-22.2169,2.20747,-11.6237,5.11237,0.02324,-13.27563,-33.1026,2.05744,-17.30189,10.81764,2.10767,-10.05527,16.11701,-0.22051,-15.71384,-0.03043,-1.11788,-4.80798,15.37021,0.70526,36.06549,-13.71614,-0.55842,4.86477,-0.11707,0.51951,4.56463,-3.12342,1.66443,1.09478,-1.58968,0.04716,0.81092,-0.71182,0.65287,0.16415,-0.08119,-0.00369,-0.00326,-0.33076,0.1145
965,-9.6769,-21.50146,2.3417,-12.48577,6.77077,-0.02537,-22.01036,-30.9486,2.03878,-23.21974,16.02398,1.54565,-10.00153,15.91652,-0.21272,-15.72668,0.01292,-1.10301,-24.83361,23.29121,-1.32214,24.69309,-32.94636,4.74556,6.0425,0.73724,0.86856,5.13373,-1.72712,3.01507,1.41504,-1.66708,-0.00145,0.23419,-0.70555,0.41896,0.31916,-0.07034,-0.03134,-0.02255,-0.28723,0.09558
966,-10.06725,-21.30056,2.38003,-12.38831,6.87479,0.07658,-25.13965,-33.70887,1.58249,-23.05993,12.97831,1.31642,-10.04422,15.93277,-0.13202,-15.71142,0.06091,-1.1541,-27.16374,15.70756,-2.40963,-2.83334,-33.97165,2.269,6.67396,0.63492,0.76632,3.74663,-1.65065,0.34976,1.48607,-1.66767,0.01786,0.41394,0.64984,-0.35891,0.39327,-0.11354,-0.01242,-0.05129,0.01735,-0.07023
967,-8.56669,-22.38173,2.28297,-10.1678,5.51394,0.35538,-18.39812,-37.73175,1.12588,-13.25419,6.25018,2.50871,-10.1412,15.98392,-0.07331,-15.54144,0.07332,-1.19499,-3.25779,3.98806,-0.32685,-15.82044,-12.38502,-3.53685,5.53857,-0.36644,0.23666,1.23828,-2.26306,-3.98866,1.31152,-1.423,0.05316,0.58605,2.54761,-1.32081,0.34104,-0.12786,0.02645,-0.18534,0.46514,-0.26401
968,-7.13894,-23.52529,2.32138,-8.18623,4.10287,0.43996,-14.24394,-36.83913,2.3627,-4.52888,3.04757,3.05177,-10.17097,15.76608,-0.09839,-15.32506,0.04188,-1.15643,14.54506,3.03531,1.06332,1.12591,8.98048,-3.95196,4.41317,-1.38688,-0.71593,2.17795,-3.08069,-4.57484,1.2536,-0.76924,-0.10849,0.19121,3.30762,-1.77766,0.2277,-0.01858,0.01315,-0.30875,0.60038,-0.28988
969,-7.34698,-23.99308,2.61112,-8.649,3.69873,0.18634,-20.16946,-34.37463,5.04829,-6.78249,5.28633,1.96966,-10.11317,15.27982,-0.16378,-15.24349,0.00333,-1.08,3.24381,8.76762,0.80505,26.38577,9.72252,2.17508,5.11592,-1.1152,-1.07814,6.47646,-3.73202,-0.59198,1.27492,-0.38019,-0.31469,-0.40294,2.25853,-1.25098,0.14676,0.09078,-0.04683,-0.28861,0.23132,-0.07972
970,-8.59945,-23.79215,2.91016,-10.39566,4.34786,-0.09903,-27.52331,-34.20135,6.83386,-14.77666,9.49021,0.80323,-9.98578,14.83373,-0.18144,-15.27439,0.00234,-1.05642,-17.65402,12.75305,1.16044,30.59358,-3.35286,7.65548,6.72483,0.32339,0.14108,8.89512,-4.25712,2.92416,0.82595,-1.07525,-0.01807,-0.29234,0.58611,0.00975,0.10287,-0.00644,-0.03611,-0.14319,-0.28045,0.22918
971,-9.66214,-23.13741,2.93239,-11.23685,4.84223,-0.25217,-26.55107,-34.90334,6.0572,-18.05179,9.33798,-0.429,-9.82606,14.67607,-0.14978,-15.31064,0.06264,-1.13281,-20.8613,11.44502,0.50224,14.77107,-16.00137,6.39706,7.14644,0.66351,1.24009,7.63733,-4.86104,2.66705,0.14161,-1.91285,0.52559,0.88657,-0.20815,1.1339,0.10222,-0.17104,0.03362,0.0444,-0.47834,0.39489
972,-9.97732,-22.88517,2.67286,-10.89677,4.24846,-0.34718,-20.02169,-36.44407,3.44986,-16.16532,2.97764,-2.73238,-9.74225,14.79469,-0.14445,-15.36508,0.15399,-1.25048,-9.76386,2.49413,-3.99925,2.48824,-24.3056,0.54575,5.66266,-1.25233,-0.17951,6.48541,-5.25055,0.73557,0.31975,-1.14146,0.30917,2.23354,0.22712,1.23989,0.19093,-0.05538,-0.00305,0.20503,-0.29159,0.28818
973,-9.6518,-23.2477,2.38277,-10.85737,4.02139,-0.30097,-16.64367,-37.6185,1.40638,-17.85906,-0.34957,-3.94971,-9.7855,14.9351,-0.19172,-15.46797,0.24929,-1.24059,-7.61129,-3.17879,-8.04698,0.58904,-25.17801,-1.97579,3.75783,-2.97432,-2.40374,7.60343,-4.97879,0.18956,1.40536,0.38747,-0.47429,2.52468,0.97108,0.40747,0.29771,0.22739,-0.09932,0.26146,-0.02244,0.03474
974,-8.80946,-23.52044,2.25564,-11.65331,5.88335,0.05184,-16.87108,-34.44512,1.38915,-25.27072,8.23698,-0.77536,-9.88449,14.82836,-0.24369,-15.48623,0.36642,-1.01647,-17.89497,11.54969,-3.94063,-2.47095,-17.27385,2.39329,3.32103,-1.99708,-1.70839,9.04006,-4.27878,0.85258,1.93517,0.08964,-0.47149,1.93235,1.36407,-0.43241,0.2387,0.17465,-0.01181,0.22411,0.12234,-0.14064
975,-7.49152,-24.00695,2.25454,-11.63811,7.78686,0.51747,-15.9178,-29.88751,2.50386,-26.52951,18.74124,4.45487,-10.01363,14.55831,-0.26275,-15.34758,0.43108,-0.78405,-18.7373,32.71705,4.66715,-1.43515,-9.90417,6.7715,4.44479,0.34671,1.20241,8.9335,-3.69459,1.05554,1.53158,-1.97174,0.27116,1.58427,1.57156,-0.60967,0.12352,-0.23533,0.18246,0.20054,0.18444,-0.14838
976,-6.16817,-25.26864,2.29511,-9.98847,6.72493,0.67191,-15.53964,-32.63659,3.41299,-14.96505,15.10174,5.74178,-10.19019,14.44719,-0.24674,-15.25776,0.33119,-0.81006,-3.78636,26.43755,6.15861,17.40368,-9.65333,2.15944,5.75439,1.1548,2.13264,7.31792,-3.11724,0.47888,1.08185,-2.90292,0.38764,2.0457,1.49442,-0.21037,0.17055,-0.41624,0.13249,0.29824,0.17622,-0.08182
977,-5.80323,-26.16642,2.36089,-8.778,4.30908,0.45135,-19.6171,-41.6883,3.9537,-3.64906,2.89292,2.69266,-10.31923,14.49183,-0.23373,-15.35596,0.19171,-1.025,4.7032,-2.64246,0.43229,34.05611,-11.61987,-7.79945,6.61309,-0.07396,0.2199,5.32079,-2.40454,-0.3139,0.73035,-1.68265,-0.16611,2.86148,1.01623,0.14021,0.24782,-0.1466,-0.12492,0.4821,0.09142,-0.09012
978,-6.93326,-25.09118,2.4065,-9.8164,4.078,0.17925,-24.85498,-44.65976,4.25115,-6.30762,-0.10017,0.25631,-10.28256,14.3969,-0.27909,-15.46626,0.25337,-1.12319,-6.13896,-13.71868,-3.06245,19.11467,-13.31979,-9.94449,7.41569,-1.32871,-1.36418,4.80907,-2.52279,-0.90951,0.64848,-0.46206,-0.35423,3.314,0.7137,0.06881,0.24481,0.13773,-0.21002,0.58694,0.00786,-0.1586
979,-8.4002,-23.27033,2.40595,-11.22832,5.67557,0.11323,-25.25496,-37.78182,4.24679,-16.7113,7.34634,0.39179,-10.10346,14.07414,-0.36145,-15.38173,0.4696,-0.99699,-19.68149,4.10008,-2.43229,-9.91702,-16.28765,-2.1258,7.37121,-1.02107,-0.87729,6.4933,-4.11492,-1.03695,0.97769,-0.45904,-0.0259,3.24361,1.01827,-0.06953,0.21014,0.1684,-0.06155,0.53685,-0.03352,-0.1173
980,-8.60558,-23.63843,2.39544,-10.76695,6.44713,0.19105,-20.50454,-32.88435,4.00938,-21.7346,12.90896,0.85843,-9.92945,13.73156,-0.42287,-15.23685,0.61409,-0.83596,-18.48074,19.56423,-2.01428,-15.41031,-16.38756,4.26142,5.93003,-0.00051,0.21106,8.17969,-5.59005,-0.31134,1.20798,-0.81039,0.21327,2.63575,1.27238,0.17745,0.18468,0.08127,0.06307,0.37039,-0.07286,0.07568
981,-7.67681,-25.77364,2.33695,-9.36233,6.25665,0.26049,-15.06204,-36.28772,3.49506,-19.67413,13.28976,0.96801,-9.85663,13.60637,-0.45758,-15.29186,0.66572,-0.81515,-6.66724,16.99265,-1.40198,0.32479,-10.40546,3.32603,4.61888,0.27757,0.48374,7.83625,-5.24046,1.15807,1.00852,-0.92141,0.17695,1.72427,0.7668,0.70513,0.1613,0.01112,0.0536,0.20414,-0.14789,0.26385
982,-7.00135,-26.42533,2.18237,-8.73716,6.07736,0.23627,-13.71277,-39.35243,2.62439,-16.78777,12.41652,1.32978,-9.84651,13.73932,-0.47961,-15.49289,0.65311,-0.93215,-0.6133,10.52075,0.0132,12.44992,-4.72338,0.75798,4.27535,-0.11963,0.33536,6.5902,-3.80955,2.32694,0.83216,-1.09647,0.09656,1.29549,-0.02315,1.03408,0.12011,-0.03429,0.01646,0.16603,-0.21638,0.29533
983,-7.21406,-25.03375,1.96962,-8.89699,5.70144,0.21623,-16.61787,-36.66375,1.42454,-16.04824,9.70754,1.50874,-9.877,13.9857,-0.50726,-15.63233,0.5466,-1.06409,-5.70423,7.1162,-0.92403,16.47935,-5.8045,1.91572,3.96653,-0.25047,0.52687,6.20596,-3.04683,1.87794,1.21977,-1.53697,0.01426,1.71658,0.04155,0.73473,0.11418,-0.07971,0.02259,0.21783,-0.14753,0.14131
984,-7.64469,-24.15032,1.78665,-8.68022,5.44358,0.47894,-18.83831,-34.15352,0.29871,-13.41643,5.46382,2.19122,-9.98977,14.13484,-0.57621,-15.64623,0.47474,-1.05742,-7.36715,3.88442,-3.22975,18.60622,-10.30971,4.94025,3.89004,0.17694,1.06173,5.9927,-3.25033,-0.38163,1.74464,-2.06768,-0.03763,2.36534,1.09417,-0.08723,0.19025,-0.15047,0.04111,0.21488,0.08017,-0.09835
985,-7.34912,-24.61226,1.70975,-8.23662,5.82589,0.83623,-17.9462,-35.81387,0.48543,-9.41303,4.52088,3.49043,-10.11742,13.99657,-0.68197,-15.58314,0.57556,-0.89307,-0.65075,4.70643,-2.4536,17.04395,-10.48417,4.66152,5.37167,0.19553,1.21583,4.63314,-3.58181,-2.81881,1.50877,-2.32583,0.1437,2.46119,1.96328,-0.74811,0.2516,-0.22753,0.05809,0.13475,0.27533,-0.25461
986,-6.28133,-24.93038,1.76818,-8.93789,6.19219,0.68248,-17.25847,-38.9101,2.8238,-12.66123,8.53213,2.7824,-10.12495,13.59251,-0.78535,-15.49187,0.76394,-0.72509,-3.70036,10.83913,0.98667,12.34247,-5.49265,-0.7432,7.54131,-0.86315,0.47144,3.11643,-3.56141,-3.1486,0.56953,-1.97985,0.46611,1.93908,1.65806,-0.6377,0.18492,-0.22947,0.07669,0.07946,0.22599,-0.20224
987,-5.06185,-24.84094,1.85675,-10.50089,6.63086,0.1015,-18.34025,-41.01492,5.703,-23.02463,15.22949,0.03675,-10.00205,13.23088,-0.87982,-15.40967,0.89783,-0.68111,-20.75247,16.89366,3.42357,10.47374,-4.09469,-7.33525,7.8623,-1.85569,-0.57525,3.31608,-3.1853,-0.61135,0.04006,-1.19776,0.44052,1.23973,0.35976,0.18275,0.07843,-0.10988,0.04164,0.07489,-0.06275,0.02719
988,-4.16516,-25.10909,1.72467,-11.53455,8.32836,-0.14182,-17.41932,-41.36124,6.08032,-29.82557,22.60949,-0.48701,-9.86739,13.26268,-1.0027,-15.45214,0.99507,-0.72171,-30.74149,21.5281,4.25364,10.01347,-11.91742,-10.36745,5.9721,-1.69846,-1.136,5.18813,-2.66704,2.65232,0.51392,-0.52763,-0.10422,0.9295,-0.68436,0.93597,0.09174,0.06861,-0.08347,0.10166,-0.27574,0.20848
989,-3.88063,-25.54612,1.31027,-11.06667,10.24624,0.29595,-12.97524,-39.51814,3.46547,-27.04713,25.46401,2.30874,-9.81327,13.72634,-1.18531,-15.64579,1.13308,-0.71767,-21.38576,22.24632,4.02709,7.35027,-22.13292,-8.47899,3.96619,-1.18347,-1.27011,7.2116,-2.80026,3.69326,1.36149,-0.29853,-0.67253,1.40947,-0.55607,1.03316,0.20801,0.16148,-0.19059,0.20672,-0.18023,0.17978
990,-4.39769,-25.23249,0.91395,-9.522,9.44462,0.92047,-9.96048,-36.17248,0.78812,-19.51246,17.28149,4.08058,-9.81343,14.32651,-1.39716,-15.87683,1.24614,-0.63846,-5.96437,12.38003,1.51131,8.57565,-26.32105,-2.3011,3.58538,-1.04589,-0.94636,8.08531,-4.12435,2.0546,1.73595,-0.63729,-0.63501,2.14225,0.31092,0.62969,0.28253,0.06209,-0.12734,0.30438,0.03757,0.047
991,-5.59756,-24.06943,0.79959,-8.36613,6.22068,1.18258,-13.05914,-33.61734,0.35553,-12.55586,2.91149,2.97202,-9.82604,14.80495,-1.59572,-16.07358,1.25217,-0.57165,1.5868,-3.47905,-2.54574,16.50882,-22.12031,4.66229,4.71671,-0.65164,0.09731,7.39551,-5.64539,-0.66875,1.35447,-1.31634,0.03732,2.27531,1.22457,0.04566,0.22238,-0.12074,0.06398,0.23759,0.15426,-0.04504
992,-6.47982,-24.10413,0.88311,-8.5476,4.67484,1.03663,-19.58213,-34.89106,1.51689,-7.23423,-1.71735,2.22062,-9.83856,15.0069,-1.79792,-16.21864,1.25162,-0.56336,2.74251,-7.54145,-3.98474,18.08094,-9.18324,6.79395,6.06997,0.27587,1.20076,5.75889,-5.91672,-2.58629,0.78495,-1.68371,0.65166,1.86044,1.73246,-0.39787,0.13992,-0.15938,0.1726,0.08184,0.13517,-0.06098
993,-5.83718,-26.34674,0.83925,-9.77901,6.62225,0.68146,-22.13807,-38.96983,2.30628,-7.04911,9.11327,3.17907,-9.82076,14.88058,-2.02979,-16.28119,1.3849,-0.56807,0.56973,7.51954,-1.28379,5.8382,4.63223,3.50734,6.74974,1.02436,1.43436,4.72826,-4.9389,-2.45568,0.79882,-1.45813,0.65431,1.58136,1.48457,-0.39693,0.1971,-0.02966,0.11505,0.06766,0.00318,-0.01817
994,-3.96724,-28.18926,0.43411,-10.38942,9.53546,0.52001,-17.37495,-41.45595,1.4319,-13.09898,21.83809,3.9987,-9.77229,14.76734,-2.25403,-16.2697,1.63541,-0.52469,-2.75847,24.49534,2.11359,-2.81176,3.64056,0.28932,6.64444,0.99447,0.75847,5.60277,-3.80204,-0.74777,1.3147,-0.97704,0.20225,1.73269,1.00234,-0.20271,0.31493,0.09073,0.00651,0.24428,-0.08777,0.0055
995,-2.57962,-27.38206,-0.11419,-10.06418,9.84547,0.65279,-10.67419,-40.90985,-0.25677,-20.79675,20.77226,2.88435,-9.7303,15.11448,-2.42165,-16.36276,1.73836,-0.49726,-6.106,21.11812,1.48885,7.07973,-11.93962,0.55032,5.75871,0.13899,-0.15162,7.34936,-3.32199,0.86806,1.75619,-0.76155,-0.23238,1.81845,0.93059,-0.16294,0.32616,0.07091,-0.03452,0.37136,-0.03078,-0.01255
996,-2.7061,-25.82613,-0.30068,-9.13424,7.67044,0.84929,-9.30066,-40.10233,-0.3895,-23.2808,10.12226,1.01145,-9.69885,15.79522,-2.5618,-16.4877,1.57059,-0.52192,-8.74802,2.19781,-1.8724,22.05981,-23.04162,1.44262,4.64229,-0.87359,-0.61065,7.4006,-3.65119,0.99117,1.74064,-0.93009,-0.36053,1.509,0.98646,-0.11952,0.22453,-0.0162,-0.02441,0.27188,0.0384,-0.00246
997,-3.66363,-26.2191,-0.0597,-9.28571,6.17026,0.81906,-12.52113,-40.727,1.33593,-22.99284,5.08615,0.19953,-9.66743,16.36004,-2.73818,-16.49581,1.40395,-0.52783,-12.55698,-8.4774,-3.18631,22.87416,-21.1081,-0.27628,4.82811,-1.09354,-0.54068,5.63633,-4.21389,-0.48686,1.15767,-1.01843,-0.20225,1.28517,1.05424,-0.14095,0.10569,-0.0019,-0.04927,0.09176,0.07614,-0.01826
998,-4.90077,-28.10254,0.17693,-10.95006,7.20525,0.71332,-17.20127,-41.14615,2.49073,-23.36392,9.49739,1.24039,-9.69248,16.71616,-2.9964,-16.43366,1.50019,-0.47258,-17.70411,-1.4098,-1.80443,10.46098,-14.34169,-2.80187,6.69954,-0.7728,-0.61012,4.67495,-4.08773,-1.57902,0.43502,-0.661,-0.02192,1.39693,1.24953,-0.42567,0.05731,0.11396,-0.10862,0.00814,0.14456,-0.12786
999,-5.90996,-29.07685,0.02065,-11.49621,9.23811,0.88826,-21.37456,-39.04395,1.43206,-18.93789,14.74632,3.92247,-9.80676,17.05732,-3.29373,-16.36332,1.71743,-0.42326,-16.08766,12.38235,-0.52528,-1.1103,-9.27836,-2.54781,7.80887,-0.88263,-0.99851,5.57893,-3.17323,-0.37264,0.27168,-0.29127,0.01448,1.4271,1.16268,-0.51236,0.08755,0.14197,-0.09937,0.00744,0.14312,-0.17425
1000,-6.13684,-28.31683,-0.46315,-10.32189,9.47474,1.08036,-22.50789,-36.27984,-0.6997,-10.2211,14.74629,6.3784,-9.98117,17.4255,-3.55225,-16.32343,1.72434,-0.49191,-5.93089,19.03319,0.11372,-1.53235,-7.4323,0.32649,6.37299,-1.1299,-0.72266,6.47604,-2.56547,1.96205,0.67667,-0.66639,0.091,1.03965,0.55656,0.02829,0.12698,-0.01801,0.01927,-0.00532,-0.02662,-0.00424
1001,-5.80493,-26.99498,-0.9181,-9.75012,7.75283,0.84329,-20.17121,-36.28362,-1.94362,-6.08661,12.22169,6.4603,-10.15687,17.73633,-3.75221,-16.33607,1.48537,-0.64793,3.08807,16.61729,0.7017,5.40902,-8.52673,2.44885,4.51368,-0.69025,0.34332,6.0441,-3.1895,2.83683,0.98755,-1.52156,0.2525,0.42033,-0.04432,0.69083,0.14025,-0.20584,0.11371,-0.07003,-0.2272,0.23803
1002,-5.38838,-26.48613,-1.10135,-10.74374,6.22092,0.29927,-17.01097,-37.79189,-1.51167,-9.43736,10.74789,3.26959,-10.23053,17.94488,-3.91675,-16.33845,1.2325,-0.71836,4.06184,12.45685,-1.25775,6.14802,-10.67668,2.80723,4.72487,0.04201,0.91601,5.51388,-4.49144,1.46123,0.98954,-1.91542,0.21177,0.46253,0.1495,0.6942,0.17936,-0.23016,0.05391,-0.03368,-0.21953,0.27325
1003,-5.34113,-26.88997,-1.0437,-11.4239,6.28159,-0.02389,-15.3893,-37.67833,-0.05198,-14.24003,10.71075,-1.00203,-10.16984,18.13812,-4.08673,-16.19495,1.13123,-0.62999,0.34603,11.91239,-5.76328,-0.9286,-14.63914,3.95952,5.88846,0.28682,0.67341,5.67622,-5.00818,-0.79247,1.18189,-1.8049,-0.04582,1.2381,1.11528,-0.03987,0.29238,-0.13608,-0.07028,0.12583,0.00659,0.05871
1004,-6.33247,-27.41085,-0.94051,-10.81792,7.35318,0.11263,-16.09466,-38.01035,0.79274,-16.79731,10.91641,-2.54147,-10.12412,18.60063,-4.30558,-15.92159,1.19528,-0.52622,-3.59681,11.02922,-7.86161,-0.59612,-20.92836,4.96662,5.8358,0.06486,0.45597,5.48427,-4.29335,-2.29158,1.67244,-1.69181,-0.16274,1.78928,1.90901,-0.78123,0.40879,-0.07529,-0.08391,0.21734,0.19403,-0.16035
1005,-8.40352,-27.91015,-0.87258,-10.30461,7.2393,0.26654,-20.37654,-41.9524,0.4425,-18.8994,9.06781,-1.27439,-10.19833,19.36877,-4.56762,-15.61692,1.23249,-0.60898,-10.23784,3.90868,-6.50834,10.45516,-23.01118,0.71948,4.94741,-0.44774,0.21039,4.84725,-3.58454,-2.65771,1.73743,-1.36224,-0.02795,1.96243,1.96958,-0.87632,0.37644,-0.05472,0.00761,0.22425,0.17777,-0.19145
1006,-10.42208,-28.76063,-0.74214,-10.6246,5.26252,0.03026,-27.96933,-46.54363,0.35234,-19.69041,6.30172,0.32086,-10.28951,19.97122,-4.79654,-15.23037,1.05846,-0.84624,-19.8828,-3.5304,-4.47677,15.07123,-13.99643,-7.34015,4.90792,-1.31559,-0.69976,5.17503,-4.06538,-1.95019,1.04817,-0.55214,0.09994,1.99838,1.48589,-0.46677,0.17564,-0.01037,0.07334,0.22757,0.06372,-0.10136
1007,-11.27495,-29.53978,-0.61083,-10.82549,3.90074,-0.21901,-32.85088,-47.44604,1.00761,-14.87445,6.71611,2.27713,-10.3505,20.16975,-4.9283,-14.69623,0.82346,-0.97928,-20.31194,-2.10533,-1.51962,7.7139,0.33686,-10.55352,5.98029,-2.11139,-1.72732,6.61898,-5.12992,-0.02595,0.38402,0.07371,0.07588,1.75751,0.6663,0.10573,0.00419,0.0207,0.07184,0.2151,-0.02798,0.00056
1008,-11.08071,-29.4486,-0.71481,-10.48145,4.68506,-0.0682,-29.73743,-45.60898,0.88829,-5.97834,9.5295,5.03047,-10.48367,20.30175,-4.99371,-14.10875,0.70118,-0.91895,-4.36483,4.02833,2.24392,4.15049,6.37779,-6.224,7.04921,-1.983,-1.7423,7.10761,-5.03694,1.9298,0.39639,-0.08597,0.01533,1.24232,0.01174,0.61782,0.00607,0.00692,0.04007,0.13102,-0.058,0.0989
1009,-10.68888,-28.54842,-1.02224,-10.74344,5.46358,0.05089,-22.87435,-43.64936,-0.19115,-2.48288,9.96788,5.79913,-10.63653,20.57852,-5.06789,-13.65902,0.56296,-0.85428,10.44247,6.15778,3.16902,14.0432,0.48863,-0.41097,7.20252,-0.8066,-0.66314,5.47704,-3.53409,1.54163,0.69232,-0.70612,0.04694,0.90648,0.51724,0.63183,0.06586,0.01286,-0.00594,0.02108,0.07406,0.14452
1010,-11.32582,-27.64664,-1.14045,-11.6681,4.58195,-0.25758,-22.51674,-41.54053,-0.4429,-8.00738,8.7897,3.67016,-10.63143,20.83623,-5.19834,-13.33981,0.31851,-0.87939,3.7803,7.98583,0.91439,27.82069,-9.47549,3.03479,6.23536,0.50115,0.71813,3.6988,-2.51442,-1.27403,0.66919,-1.31017,0.20667,1.11578,2.14934,-0.00797,0.02814,0.04041,-0.04512,0.01315,0.3593,0.07714
1011,-13.80147,-27.22736,-0.85674,-11.75707,3.65825,-0.56086,-31.92367,-38.40465,0.56051,-14.1209,10.39592,2.3795,-10.51887,21.01053,-5.36718,-12.88246,0.1132,-0.86714,-16.37273,17.08665,-0.66991,28.42438,-15.36189,5.21114,4.82454,0.95543,1.6952,3.85765,-3.10378,-3.25537,0.3797,-1.82702,0.46466,1.38367,3.15384,-0.7209,-0.0404,-0.00362,-0.0322,0.05286,0.50127,-0.0491
1012,-16.81661,-27.52691,-0.4622,-10.84653,3.69417,-0.52453,-41.75462,-35.75072,1.18327,-12.94407,12.61926,3.38849,-10.52933,21.17968,-5.49832,-12.09529,0.04213,-0.76548,-24.50388,27.29027,-0.72231,7.03946,-14.88644,5.66812,4.59029,0.44848,1.71471,5.58549,-4.30446,-1.7712,0.20742,-1.97433,0.63069,0.97021,2.14909,-0.88318,-0.00181,-0.0741,0.00807,-0.0443,0.25445,-0.12469
1013,-18.20247,-28.47171,-0.32706,-9.69199,3.55013,-0.38623,-43.23604,-35.39473,0.56171,-5.69803,9.92007,3.64767,-10.7413,21.33,-5.53945,-11.07774,0.05953,-0.6834,-12.84844,27.00621,-2.31009,-21.68031,-13.11558,3.0052,5.91399,-0.11011,0.9178,7.48188,-4.95113,1.60105,0.39387,-1.49896,0.51959,0.44064,0.13322,-0.50324,0.11139,-0.02476,0.00535,-0.152,-0.18242,-0.1153
1014,-18.0864,-29.0679,-0.42647,-8.07604,2.71263,-0.29882,-39.90895,-36.17568,-0.27428,1.78635,3.5993,2.07283,-11.0565,21.44195,-5.53139,-10.07327,0.07569,-0.67776,1.5535,17.3875,-6.01165,-29.11125,-15.9766,-0.68291,6.81521,0.05174,0.3861,8.2485,-4.80077,2.93217,1.12198,-1.02125,0.23966,0.89628,-0.62836,-0.09882,0.23383,0.08331,-0.01031,0.01894,-0.35035,-0.06957
1015,-18.0988,-28.88845,-0.48033,-5.96914,1.83277,-0.15171,-37.4334,-37.52607,-0.14318,6.20608,0.59574,1.93586,-11.34451,21.48468,-5.53974,-9.17879,-0.00083,-0.66413,7.11657,8.95608,-6.17637,-10.96477,-20.93566,-1.78836,6.26217,0.28917,0.51807,7.46686,-4.30043,1.43304,2.08906,-1.19536,0.06323,1.98395,0.18062,0.12335,0.36088,0.06098,0.03311,0.35799,-0.1917,-0.00366
1016,-18.75811,-28.90021,-0.35118,-4.64299,0.6078,-0.01097,-34.3887,-40.92514,0.91573,8.58955,0.90446,3.91059,-11.50687,21.37884,-5.57479,-8.27994,-0.22405,-0.57335,11.77846,3.27877,-0.19628,9.28782,-18.99926,0.29148,5.81707,-0.34832,0.46258,6.29123,-4.23435,-0.51734,2.34008,-1.62062,0.07376,2.49158,1.17779,0.17114,0.40736,-0.07296,0.08462,0.49399,0.02085,0.04821
1017,-19.67678,-29.15917,-0.17627,-5.30532,-1.62949,-0.12041,-30.15495,-44.30483,1.89353,8.9111,-2.92945,3.29813,-11.55178,21.1854,-5.62964,-7.3033,-0.49145,-0.45268,18.86109,-5.28453,4.33463,18.26058,-9.64471,3.5463,6.14911,-1.29945,-0.25922,5.88033,-4.76805,-1.48219,1.52231,-1.48698,0.0583,2.34541,1.60745,0.01323,0.28951,-0.13774,0.043,0.41565,0.13986,0.02581
1018,-20.63243,-28.7425,-0.15662,-7.71695,-2.92006,-0.43589,-29.54294,-43.48912,1.86879,3.3886,-9.24524,-1.43145,-11.58445,20.9968,-5.72024,-6.37168,-0.50523,-0.33135,15.16063,-11.07978,1.07831,20.69003,-4.30766,6.26807,6.02236,-1.44461,-0.98641,5.76558,-5.03661,-1.10508,0.3808,-0.78316,-0.07869,1.94392,1.18267,-0.0502,0.09379,-0.08995,-0.05573,0.32068,0.05751,0.00425
1019,-21.6872,-27.95876,-0.2938,-9.86675,-0.91287,-0.57709,-35.76214,-38.80296,0.7711,-6.19581,-7.85521,-4.63247,-11.66821,20.7319,-5.8494,-5.55064,-0.1823,-0.17177,-3.33775,-2.86183,-5.96499,17.93368,-7.48285,7.01749,5.59395,-1.00148,-1.16371,5.46568,-4.36287,0.62434,-0.2982,-0.1925,-0.11565,1.04786,0.24048,0.03261,-0.02112,-0.0241,-0.09724,0.169,-0.16222,0.04118
1020,-22.66816,-27.71734,-0.43588,-9.52303,2.26472,-0.37067,-44.52487,-34.20844,-0.59661,-9.72247,1.42413,-1.86503,-11.76212,20.33726,-5.97173,-4.70177,0.05804,-0.00661,-17.88192,15.98487,-9.29669,4.12795,-13.39165,6.08439,6.20777,-0.74879,-0.80115,6.10581,-3.45224,2.97249,-0.36937,-0.26718,0.13706,0.00816,-0.2596,-0.00413,-0.01151,-0.01676,-0.04228,-0.05607,-0.24498,0.05584
1021,-23.02912,-27.82447,-0.50104,-6.51539,2.67293,-0.02256,-48.45823,-32.64186,-0.99098,-0.58151,7.26647,3.54431,-11.81052,19.90153,-6.05947,-3.73595,-0.1111,0.09564,-10.29944,29.40135,-6.85264,-16.02176,-21.46584,5.75192,7.29817,-0.41765,0.11558,8.07894,-3.34823,4.51736,0.00712,-0.99739,0.5135,-0.05306,0.02569,-0.11329,0.07044,-0.08234,0.04964,-0.13761,-0.08553,-0.00683
1022,-23.14091,-27.90808,-0.44198,-2.90523,0.28278,0.26959,-46.99929,-35.06119,0.3832,16.08335,2.45726,5.19658,-11.81088,19.47846,-6.19322,-2.77724,-0.42389,0.17458,13.25159,25.05303,-2.88388,-23.67431,-32.73253,5.54034,6.89783,0.47085,1.27782,9.19141,-4.2943,3.9059,0.56479,-1.70866,0.6695,0.75255,0.48094,-0.11785,0.16175,-0.15187,0.09415,-0.06262,0.07316,-0.0709
1023,-24.54904,-28.30853,-0.18199,-1.45869,-1.65602,0.41073,-47.05098,-39.13256,2.87288,25.83525,-5.94848,2.52099,-11.78309,19.06065,-6.4805,-2.01677,-0.48363,0.3052,25.58703,10.23492,-0.49167,-13.79048,-36.33154,2.94592,5.01602,1.18448,1.9245,8.00836,-6.13544,0.89882,0.97202,-1.7841,0.62975,1.23384,0.84105,-0.21963,0.21911,-0.14908,0.10908,-0.05794,0.05286,-0.07534
1024,-27.09155,-28.95242,0.08111,0.26428,-1.23114,0.12921,-51.43113,-39.47369,4.34499,26.39406,-6.79658,0.48094,-11.76646,18.69858,-6.86441,0.28623,-0.02968,0.13286,18.27521,6.16082,1.13615,-4.05364,-21.9216,-0.7474,4.14585,0.57641,1.64507,6.52099,-8.1845,-2.37293,1.04467,-1.51202,0.72953,1.03473,1.39847,-0.55926,0.23201,-0.12846,0.17915,-0.16039,-0.00684,-0.04371
1025,-27.81351,-28.95587,-0.15892,-2.5463,0.58639,-0.07747,-53.71538,-34.32317,2.947,8.04589,-0.47104,0.37734,-11.80188,18.42859,-7.13407,0.25786,0.17667,0.19949,-12.22757,16.73815,-0.32533,-2.18364,0.49707,-2.75703,5.60734,-1.03784,0.61494,6.26587,-8.47108,-2.74344,0.89528,-1.39144,0.82034,0.61902,1.72804,-0.64801,0.22497,-0.16309,0.23358,-0.23649,0.00073,0.01534
1026,-25.53015,-27.87245,-1.00776,-3.39968,0.50937,-0.13609,-49.14501,-28.68721,-0.52002,0.89571,-1.09036,-1.03265,-11.8773,18.10838,-7.22925,0.28202,0.18593,0.23267,-18.95979,22.05871,-8.32432,-1.26663,9.72557,-2.52541,7.13099,-1.74566,-0.33423,5.70007,-5.78105,-0.05438,0.77602,-1.30096,0.47876,0.30641,1.09854,-0.0936,0.21066,-0.17123,0.1223,-0.22812,-0.00803,0.09673
1027,-23.18573,-26.65728,-1.84292,-2.33617,-1.2967,-0.07154,-41.5705,-29.00609,-3.01472,10.97956,-9.08892,-4.12243,-11.94234,17.55084,-7.35727,0.20041,0.02286,0.22496,5.05926,12.83163,-16.42172,-3.30689,-2.26373,0.7354,5.99067,-0.44846,-0.17,4.16528,-2.24821,2.25323,0.65895,-0.99435,-0.01881,0.45313,0.18645,0.578,0.13564,-0.05572,-0.07843,-0.08611,-0.02273,0.13897
1028,-23.15007,-26.1064,-2.16276,-1.67059,-2.0395,-0.18433,-36.76,-33.83291,-2.98519,21.87693,-12.5192,-5.72037,-11.94877,16.8307,-7.64626,-0.05606,-0.13132,0.11412,29.41655,3.24768,-16.05998,-10.09961,-22.79881,8.15241,3.57023,1.45417,0.90547,4.02275,-0.75016,2.42313,0.70063,-0.75641,-0.12455,1.23761,0.29987,0.60883,0.05945,0.09061,-0.1557,0.21453,0.08311,0.09098
1029,-24.45318,-25.91829,-2.12513,-2.56509,-1.12019,-0.62694,-37.68207,-35.28603,-1.88171,19.30614,-7.53335,-4.85518,-11.90856,16.22015,-7.97881,-0.31091,-0.1946,-0.15445,27.22885,7.66744,-11.06206,-14.14602,-32.30882,16.54966,3.51649,2.05236,1.71408,6.79661,-1.5094,2.68694,0.86896,-0.92801,0.2416,1.72119,1.21333,-0.11225,0.06428,0.10282,-0.05059,0.44748,0.26179,-0.03907
1030,-25.29982,-25.85577,-2.09234,-3.52962,-0.80147,-1.0803,-43.06596,-31.36432,-1.38899,9.21357,-1.45527,-2.84718,-11.91997,15.87327,-8.25418,-0.36873,-0.22474,-0.47071,7.1846,21.49371,-8.3916,-14.18938,-24.91613,19.22787,6.18401,1.36105,1.86136,10.65291,-3.93297,3.92859,0.23431,-1.26054,0.94021,1.02658,1.78191,-1.13108,-0.00684,-0.02369,0.13104,0.35946,0.30892,-0.18637
1031,-24.91682,-25.84046,-2.22595,-2.83274,-2.12947,-1.06949,-46.90239,-27.05582,-1.36339,5.30678,0.16018,-0.31398,-12.05452,15.76081,-8.50927,-0.23407,-0.31511,-0.59618,-3.63803,30.68667,-6.41466,-14.44663,-15.83884,14.8901,7.86584,0.84474,1.69632,12.60649,-7.36459,3.99349,-1.15843,-1.14747,1.44016,0.01196,1.65624,-1.6348,-0.20042,-0.10102,0.20386,0.07126,0.14438,-0.21649
1032,-23.41385,-25.50253,-2.49117,-1.16126,-3.4524,-0.58513,-45.35128,-24.42457,-1.1253,9.44767,-2.65439,1.05811,-12.22571,15.80407,-8.75456,0.00277,-0.44208,-0.4199,2.30394,28.87703,-4.85022,-13.45357,-21.41859,10.59795,5.48229,1.48656,1.44234,11.14866,-8.84743,2.67316,-1.8318,-0.45097,1.07035,-0.24387,1.13786,-1.12598,-0.30142,-0.00663,0.05735,-0.13229,-0.07686,-0.07224
1033,-21.84169,-24.75835,-2.77192,-0.50103,-3.30722,-0.09948,-42.79351,-22.1981,-0.99537,14.39667,-8.20833,-1.27625,-12.31549,15.90168,-8.96047,0.26083,-0.42257,-0.09337,10.02583,19.13826,-9.15307,-7.55844,-33.78491,11.30725,0.88771,2.96953,1.43367,7.37402,-6.47441,1.87864,-1.45435,0.20728,0.18328,-0.01639,0.56658,-0.15208,-0.28662,0.12966,-0.16215,-0.15796,-0.15178,0.1028
1034,-21.44746,-24.08213,-2.98589,-0.4421,-2.14329,0.13309,-44.45853,-22.12843,-1.41885,19.57649,-12.96583,-5.05368,-12.38326,15.97092,-9.1919,0.5044,-0.178,0.13947,12.98746,7.9536,-16.73005,0.14422,-31.21675,13.56848,-1.91066,4.39868,2.11666,4.46396,-3.37549,1.83767,-1.19211,0.23629,-0.13375,0.35022,0.19483,0.43465,-0.36,0.11475,-0.19231,-0.03295,-0.08637,0.15142
1035,-21.71628,-23.91031,-3.16799,1.30265,-1.46024,0.35299,-47.23063,-25.65323,-1.94124,28.65871,-14.45677,-5.41671,-12.54816,16.12069,-9.51247,0.7207,0.06006,0.17246,20.41912,1.04215,-18.47523,0.45105,-14.81898,14.64515,-2.78381,4.93289,2.92693,4.6707,-3.00904,2.37171,-1.30537,-0.05223,0.20275,0.54703,-0.12826,0.40176,-0.47666,-0.01731,-0.02169,0.05939,-0.08243,0.07786
1036,-21.01537,-24.06972,-3.40608,4.36418,-2.19915,0.68521,-46.13957,-28.20617,-2.2339,37.29463,-15.25406,-3.07786,-12.7763,16.62118,-9.8488,0.78818,0.03371,0.06695,32.96479,0.78287,-15.39429,-11.24871,-8.49808,17.21602,-4.16904,4.24355,2.62259,7.26801,-4.35701,3.93937,-1.05626,0.09173,0.22738,0.35908,-0.39363,0.05365,-0.39553,-0.06623,0.08983,0.00289,-0.17993,-0.01136
1037,-19.3262,-23.84748,-3.72284,5.51194,-3.5442,0.78094,-43.66121,-24.55967,-2.81031,37.39401,-16.71056,-2.47179,-12.93332,17.5122,-10.12264,0.57523,-0.182,-0.05628,37.03249,7.80429,-15.89405,-30.72794,-18.79025,21.3061,-5.08234,3.09354,1.31913,9.85142,-5.01747,5.81576,-0.47767,0.59724,-0.33254,0.20348,-0.28001,-0.12387,-0.13545,0.02316,-0.01098,-0.0571,-0.20923,-0.021
1038,-18.36093,-22.7351,-4.06403,3.49486,-4.14341,0.36214,-44.62696,-16.13095,-4.07044,28.97218,-15.93849,-4.82984,-12.96868,18.50245,-10.40517,0.2523,-0.33329,-0.12529,26.31201,20.44001,-21.41872,-48.28332,-27.7034,22.5382,-3.30092,2.65008,0.28394,10.69016,-4.96736,7.5208,-0.40969,0.89753,-0.7857,-0.00708,-0.53986,0.25542,0.00246,0.1253,-0.1973,-0.09121,-0.24333,0.07276
1039,-18.94477,-21.03836,-4.36871,-1.44667,-5.4437,-0.29066,-47.75469,-8.59992,-5.64906,11.42081,-14.98995,-9.08282,-12.95912,19.42892,-10.79678,-2.08311,-0.94045,-0.2311,0.87809,27.86617,-28.13493,-51.44283,-25.34363,20.19325,-2.08067,2.86117,-0.2124,10.39474,-5.15584,9.89907,-1.31974,1.27903,-0.90703,-0.8626,-1.92341,0.88979,-0.19637,0.16574,-0.27989,-0.22692,-0.4644,0.18358
1040,-19.79146,-19.60256,-4.5768,-1.62878,-5.35193,-0.53213,-48.75387,-5.53082,-6.36118,11.03061,-12.97709,-9.81632,-12.9805,20.41169,-11.25006,-2.32601,-0.96816,-0.35629,-3.89777,30.36126,-28.56314,-35.11559,-20.63466,18.8481,-6.56951,2.89041,-0.26115,10.41599,-5.04011,12.70577,-3.07274,2.22547,-0.8613,-2.10612,-3.20125,1.05285,-0.66721,0.18385,-0.19236,-0.40624,-0.65933,0.21787
1041,-19.39058,-19.13846,-4.57666,-1.45595,-4.63815,-0.49836,-46.9964,-7.069,-4.83126,16.45708,-11.11071,-7.56994,-13.02685,21.57064,-11.64934,-2.72793,-1.0226,-0.45047,0.08206,28.03735,-23.58946,-7.90532,-24.79392,20.45504,-13.84869,3.03096,1.44905,10.74247,-3.91324,13.47119,-5.00528,2.81816,0.08652,-2.31819,-2.69647,0.80587,-1.1113,0.1604,0.07143,-0.38916,-0.52389,0.21862
1042,-18.45761,-19.45844,-4.32472,-2.67717,-3.51651,-0.48999,-46.57687,-11.10152,-1.61299,20.13431,-9.22642,-4.57887,-13.09339,22.99826,-12.01466,-3.45283,-1.18985,-0.51304,3.00186,25.09729,-17.49433,14.1926,-35.9455,22.83762,-15.59277,3.94321,5.25419,10.38832,-3.02156,10.90124,-6.10029,2.04638,2.58434,-0.91381,-1.1485,0.9404,-1.26438,0.03459,0.49703,-0.15157,-0.27261,0.28906
1043,-18.94573,-19.20024,-4.10203,-3.44496,-3.18227,-0.38297,-50.52065,-13.1661,0.04842,20.46122,-9.85967,-2.70002,-13.23593,24.84572,-12.47772,-4.08937,-1.44232,-0.57827,1.39796,22.52205,-15.52992,15.80627,-38.62248,26.53447,-11.45973,4.75945,8.02394,9.72226,-3.88121,7.51406,-5.67736,0.9778,4.82655,0.72415,-0.56874,1.58704,-1.15916,-0.06026,0.86539,0.06543,-0.3,0.41542
1044,-20.13098,-17.94276,-4.37512,-1.01571,-3.76375,0.04071,-52.29645,-11.67229,-2.30243,22.9195,-12.24937,-0.74462,-13.50498,27.14591,-13.0531,-4.09551,-1.65675,-0.67032,7.09937,21.85867,-16.37991,-6.76966,-25.81716,34.45639,-11.29829,5.35837,8.27642,10.39079,-5.446,6.23215,-4.29632,0.86506,4.60289,1.54612,-0.85086,1.98762,-1.0358,-0.01986,0.95396,0.1782,-0.43545,0.45486
1045,-19.20629,-16.91688,-5.23674,3.03869,-4.4236,0.45834,-44.04611,-10.01581,-6.9607,28.7627,-13.14032,1.62366,-13.92917,29.7415,-13.63077,-3.62496,-1.82328,-0.79264,27.0905,23.5624,-16.44258,-36.71875,-9.39036,42.77032,-21.21031,7.41589,8.59993,11.46238,-5.1747,7.32999,-3.72152,1.3174,2.65852,1.45361,-1.00457,1.65628,-1.06536,-0.02237,0.88785,0.19529,-0.3395,0.305
1046,-16.46771,-16.00747,-6.23227,4.71839,-6.26417,0.45417,-33.72066,-8.97389,-10.10897,31.42728,-15.23303,0.85339,-14.54287,32.57953,-14.2147,-3.36823,-2.1906,-0.97096,41.53716,24.01088,-19.13177,-45.20429,0.78192,39.71609,-33.3525,8.77346,8.04229,10.28286,-2.95304,9.73284,-4.77671,1.88173,0.09131,0.63504,-1.77364,1.15803,-1.18129,-0.12614,0.70715,0.0849,-0.24013,0.07152
1047,-15.1512,-14.77633,-6.67085,3.10583,-10.58469,0.1737,-36.01016,-9.16127,-9.65529,26.23389,-22.51772,-4.78922,-15.32096,35.79243,-14.94559,-3.60361,-2.86431,-1.20151,27.17085,16.93356,-27.14792,-20.66108,4.96058,24.11613,-35.57986,5.21722,4.27083,7.55566,-1.41348,12.12844,-6.28012,2.11759,-2.30841,0.13155,-3.73065,1.53953,-1.27045,-0.20259,0.39013,0.00714,-0.47699,0.02729
1048,-15.7101,-14.40391,-6.39539,0.64066,-14.54604,-0.08449,-47.14526,-13.05139,-6.57616,18.33945,-29.12268,-10.57319,-16.14559,39.43404,-15.84991,-4.03897,-3.41798,-1.39248,-2.52551,5.69823,-33.24293,13.70974,3.18737,12.86963,-28.20465,-0.3569,1.40821,6.84953,-2.12662,12.28652,-6.37243,1.54049,-2.38786,0.98437,-4.75229,2.68102,-1.22747,-0.22893,0.34416,0.18385,-0.74552,0.26191
1049,-15.72447,-14.69117,-6.15072,-0.50962,-14.32764,-0.31936,-50.15896,-15.88262,-4.18599,15.89862,-27.21448,-11.62627,-16.9807,43.51344,-16.82636,-4.32841,-3.41821,-1.45682,-12.55232,5.40235,-31.6558,27.41727,-3.0035,19.01845,-21.15158,-0.98484,4.02236,8.92852,-3.70876,10.22041,-4.69659,0.79441,0.72069,1.9541,-3.57223,3.18305,-0.9155,-0.18552,0.89235,0.42779,-0.67795,0.51272
1050,-14.77054,-13.54196,-6.60935,-0.14697,-11.33308,-0.48035,-41.78948,-11.26493,-5.19,18.80569,-21.44722,-9.61777,-17.96418,48.24343,-17.84259,-4.29119,-3.16744,-1.42883,3.98968,16.95747,-28.40138,20.55915,-1.33058,35.71809,-17.70725,3.91063,9.67338,10.98646,-4.00027,10.16628,-2.2458,0.74646,5.02021,1.34799,-2.61391,2.60619,-0.36427,-0.01571,1.70683,0.41623,-0.52658,0.56185
1051,-14.75306,-11.18137,-7.27921,0.75763,-9.20692,-0.43797,-35.56475,-5.46095,-8.27072,20.24111,-18.50692,-6.94386,-19.20797,53.83733,-18.94536,-3.91988,-3.28496,-1.41007,20.34013,24.56037,-27.87995,14.82144,18.40013,45.6936,-14.48003,7.16128,11.20406,10.79296,-2.77471,15.17852,0.17016,0.96045,6.19685,0.10794,-4.32252,2.51766,0.18707,0.21211,1.95721,0.23307,-0.72351,0.58123
1052,-15.67125,-9.36089,-7.46475,0.99702,-8.98342,-0.33792,-38.23006,-6.70641,-9.8155,16.32799,-16.84076,-3.40773,-20.62203,60.18275,-20.12607,-3.41927,-3.8423,-1.46814,18.02378,23.56963,-25.91171,17.73937,34.95391,42.96729,-9.5764,6.12727,7.67359,8.68342,-1.41204,21.97524,1.66103,0.66861,3.78572,0.24035,-7.42993,4.07048,0.39123,0.36579,1.51301,0.1976,-1.18357,0.7668
1053,-14.7492,-7.23701,-7.63273,-0.40144,-12.0422,-0.23196,-39.50419,-9.06726,-8.51009,8.18944,-19.8477,-3.60635,-21.99521,66.9451,-21.2912,-3.15558,-4.55557,-1.62855,6.42275,19.04324,-24.03596,17.38551,11.67889,38.05574,-4.75118,8.48273,6.36679,6.27944,-0.84812,23.05231,1.82782,1.32106,3.24157,1.61265,-8.24446,5.55803,0.20008,0.58008,1.27212,0.32493,-1.3481,0.85505
1054,-11.42643,-4.24291,-8.10952,-2.85549,-18.34402,0.11737,-32.52119,-6.6809,-5.31195,-0.66726,-30.11981,-10.35268,-23.22151,73.79178,-22.40615,-3.38845,-5.15897,-1.78879,-1.70989,13.69699,-25.29542,4.89185,-48.70208,39.75999,-5.96518,16.96564,9.99003,5.66792,-1.0028,14.65965,1.25752,4.04088,6.01209,2.62187,-4.84688,4.70292,-0.01793,1.01898,1.62613,0.37517,-0.91143,0.54242
1055,-9.37422,-1.74916,-8.22977,-4.62871,-22.70823,0.65324,-27.5458,-5.38786,-2.12938,-5.29387,-37.68079,-15.58544,-24.39682,80.66892,-23.57542,-3.94964,-5.36511,-1.74536,-7.22999,11.98324,-25.02351,-11.94871,-96.85706,41.42986,-14.00717,21.97346,12.80278,8.01843,-0.76794,2.46644,0.95783,6.10777,7.30459,2.57662,0.90557,2.15516,0.00293,1.48775,1.93909,0.27316,-0.11599,0.05024
1056,-10.93208,0.62172,-7.9765,-4.51741,-22.25666,1.1364,-34.2737,-8.38892,-1.75702,-2.26904,-38.24857,-13.79961,-25.65863,87.76817,-24.89964,-4.30852,-5.22861,-1.5296,-12.45344,13.7166,-24.89435,-19.01204,-85.5514,33.48733,-18.49521,19.33896,11.30767,10.6806,0.60897,-4.2419,2.29142,5.55822,5.42582,1.77161,5.04718,0.33157,0.24358,1.7543,1.75658,0.11142,0.54758,-0.19327
1057,-13.50189,3.71619,-8.06646,-1.5427,-20.14954,1.44957,-44.33023,-11.16127,-4.62317,6.00726,-36.85645,-9.359,-27.02494,94.9752,-26.31252,-4.22842,-5.21891,-1.49071,-11.53537,15.08495,-29.50653,-14.69786,-14.4613,21.4258,-13.7867,17.23096,8.05747,10.34563,1.75433,-4.43745,5.54189,4.77748,3.03654,0.54649,5.50562,-0.49866,0.60816,1.89273,1.2056,-0.01809,0.77161,-0.15742
1058,-14.69127,7.52605,-8.51802,1.71889,-19.17519,1.32745,-46.71987,-9.65684,-7.47448,7.70196,-33.84921,-7.32263,-28.51861,101.91808,-27.64853,-4.40016,-5.58326,-1.81073,-9.68965,18.61034,-33.60783,-7.25391,62.34444,18.72266,-9.0735,16.10205,5.00547,8.85181,1.99119,-4.03491,7.96021,4.21819,0.8493,-0.74053,4.29487,-2.26435,0.84257,1.67394,0.43433,-0.08653,0.75075,-0.2073
1059,-14.89235,11.65437,-8.79542,2.479,-19.48993,0.98696,-42.5706,-7.5413,-7.42344,0.02876,-30.85868,-8.83688,-30.16448,108.32777,-28.7643,-5.34974,-6.09643,-2.21868,-13.03178,17.64153,-33.44798,1.7372,83.05311,28.37848,-11.23792,10.02655,2.988,9.6794,3.14738,-3.50739,7.26775,1.90271,-0.94727,-1.59402,3.98703,-4.93145,0.79341,0.87944,-0.12178,-0.15898,0.73618,-0.49136
1060,-14.67741,15.39902,-8.71166,2.12874,-20.87789,1.17476,-37.70399,-9.48076,-4.65114,-7.87053,-33.75427,-12.57904,-31.8089,113.88243,-29.59634,-6.68977,-6.38574,-2.39809,-17.67953,2.01153,-33.74202,11.83526,41.5695,37.3673,-13.96569,5.14492,2.46761,12.38058,6.22696,-0.37828,5.02125,0.09824,-1.06369,-2.04425,5.13112,-6.61879,0.55619,0.27704,-0.08283,-0.36943,0.75191,-0.8304
1061,-14.79803,18.8064,-8.4403,2.81327,-22.79242,1.94728,-34.94451,-10.46774,-1.42553,-15.90413,-40.14648,-15.8444,-33.30052,118.09447,-30.21185,-8.09122,-6.36329,-2.40767,-27.7904,-13.60493,-36.04702,13.75579,-10.28981,30.65033,-11.0237,8.44702,1.95352,12.92188,8.67996,-0.29183,3.32465,1.68011,-0.14946,-2.43043,6.94581,-6.77836,0.15812,0.446,0.22994,-0.6792,0.93044,-1.08918
1062,-14.74969,21.53977,-8.29093,5.44083,-23.82094,2.50665,-29.62316,-6.65402,-0.0281,-28.0131,-40.49878,-16.5075,-34.67922,120.45215,-30.57931,-9.80361,-6.30239,-2.52428,-42.57991,-10.39204,-34.42153,5.11693,-15.92823,9.82465,-4.41124,11.59823,0.34688,9.69702,7.37481,-10.87908,2.96939,3.63696,-0.21265,-2.68177,8.40762,-6.60872,-0.17033,0.7109,0.35756,-0.83651,1.36971,-1.21176
1063,-12.70123,22.66077,-8.47157,10.48642,-22.40223,2.22712,-15.09991,-4.36096,-0.68874,-35.30668,-30.35757,-13.28475,-35.99215,120.59704,-30.44424,-12.07548,-6.39477,-2.8544,-39.5186,5.51965,-23.11415,-1.72501,26.38579,-10.77333,4.21489,6.35434,-2.44933,6.85337,4.24069,-26.41763,5.2395,2.67202,-2.20259,-2.79322,9.28331,-7.92937,0.10473,0.47884,0.07626,-0.80109,1.84666,-1.35838
1064,-9.27166,22.02315,-8.5097,17.82914,-19.65554,1.62423,4.37007,-9.84127,-1.30014,-27.63425,-16.80412,-6.65847,-37.05136,118.46349,-29.63028,-14.73282,-6.60603,-3.26158,-6.4173,13.53621,-5.14162,2.22647,55.31263,-25.29234,15.53947,2.98871,-8.14981,6.94008,3.34448,-32.38144,9.99044,2.36832,-6.04783,-2.79675,9.00117,-10.70716,0.99106,0.32222,-0.76636,-0.71531,1.9286,-1.6333
1065,-6.84502,19.78704,-7.56817,25.64302,-18.03107,1.57744,16.69684,-21.25643,-0.12037,-17.5616,-8.35913,0.21986,-37.49618,114.08146,-28.2023,-17.53718,-6.82283,-3.58933,24.12984,3.74185,10.28575,13.55753,29.60007,-35.41401,21.15332,12.91388,-15.86483,7.44058,4.68476,-26.29018,12.10962,6.99071,-10.15163,-2.61387,7.28639,-13.07217,1.47303,0.9471,-1.96322,-0.64988,1.4927,-1.81391
1066,-4.96483,16.05154,-5.81364,34.02045,-17.33696,2.06003,20.06828,-32.60002,2.30942,-23.16668,-1.91622,6.10494,-37.0188,107.24136,-26.25697,-20.24347,-7.02968,-3.80075,19.74163,-12.96474,20.73518,24.03772,-11.65291,-35.3194,11.86911,24.16114,-18.09255,6.87924,5.78818,-20.50364,7.38008,12.13495,-11.08435,-2.58736,5.72861,-14.76202,0.68455,1.79907,-2.64282,-0.70408,1.02105,-1.88426
1067,-1.40778,12.08937,-4.50815,44.71355,-15.55972,2.45515,26.22952,-38.08752,4.35593,-43.85694,9.81668,11.96997,-35.49364,97.72474,-23.79576,-22.79372,-7.26227,-3.93175,-5.81097,-20.29718,31.25105,29.35201,-10.08061,-24.10697,-1.63966,23.15135,-13.24747,6.55774,5.43464,-22.39372,0.72812,12.66765,-8.82431,-2.86044,5.37325,-15.99874,-0.6493,1.96244,-2.35345,-0.94549,0.92369,-2.00913
1068,3.3223,9.1881,-4.13611,57.44581,-12.14509,2.60733,42.55586,-35.60279,5.60373,-66.09631,22.42374,15.11331,-32.95816,85.76614,-20.79929,-25.5166,-7.38087,-4.02785,-21.50078,-20.74902,40.8233,31.46399,34.64656,-15.56343,-3.4336,16.55712,-10.24364,6.16765,3.67794,-25.40807,-1.27989,10.91026,-7.65194,-2.86883,5.04956,-14.786,-1.22827,1.57654,-1.68091,-1.18589,1.01057,-2.02841
1069,6.75193,7.11636,-3.74094,70.34011,-9.33721,3.19844,60.64813,-25.81603,6.70826,-79.95569,22.6801,10.62209,-29.5015,72.14587,-17.28314,-28.67336,-7.21857,-4.13032,-24.08062,-28.12874,40.42651,36.07259,80.60748,-19.56375,3.57182,13.99584,-12.68357,3.59332,0.90411,-24.87705,-0.10811,10.01774,-8.50266,-2.38862,3.95788,-10.88807,-1.05424,1.21721,-1.16139,-1.20936,1.03234,-1.79227
1070,8.29029,5.86577,-2.87332,81.85121,-9.01844,4.80212,69.00389,-8.03391,7.41854,-88.04147,10.23381,1.47694,-25.23506,58.02724,-13.39796,-32.08599,-6.72503,-4.19655,-34.28923,-36.31186,30.8419,41.34332,102.18493,-38.28285,9.01775,14.61618,-16.03686,-0.51801,-2.33647,-28.59802,0.41737,9.45358,-8.90679,-1.97282,3.38575,-8.77789,-0.79549,0.98518,-0.80211,-1.11141,1.17356,-1.55223
1071,10.01511,7.37474,-3.33876,92.51337,-9.55963,7.09141,72.73383,16.30616,7.06819,-95.22383,2.1591,-1.35045,-20.36086,44.73037,-9.56738,-35.27274,-5.91003,-4.06102,-51.16532,-24.72696,29.44521,33.88216,106.90874,-73.64163,13.52231,15.09087,-19.89304,-3.97178,-6.27161,-41.26896,0.84252,8.30037,-9.51384,-2.09681,3.4966,-11.1312,-0.50899,0.80465,-0.75745,-1.05553,1.50415,-1.53875
1072,12.16534,12.42052,-6.61911,104.13933,-7.56465,9.30482,84.54019,34.5826,7.55663,-97.7448,8.91496,5.99853,-15.41389,33.24538,-6.42978,-37.86995,-4.94618,-3.63239,-49.06811,-2.17408,47.87085,11.61503,108.07083,-111.53127,19.95861,16.72273,-27.1511,-7.874,-11.22504,-49.64532,2.1339,7.43224,-12.481,-2.65945,1.88081,-12.57882,-0.12674,0.75397,-1.21729,-0.81367,1.53688,-1.37883
1073,11.42541,18.0156,-10.82842,116.48811,-1.14476,10.84311,102.16734,30.40959,11.26094,-89.62123,20.95247,14.01593,-11.1702,23.80618,-4.36461,-39.94235,-4.21548,-3.10216,-20.58086,-7.71472,71.96968,-4.19989,102.19115,-119.6607,22.89255,20.24684,-33.81853,-11.36815,-13.69424,-38.74949,2.4899,7.52043,-15.63912,-2.59911,-1.13502,-7.00779,0.0621,0.82886,-1.71333,-0.01517,1.07293,-0.56824
1074,7.84143,19.8117,-13.34036,126.76628,8.87737,11.56613,114.76598,4.43443,16.09363,-72.99191,25.66102,13.50426,-7.79321,16.00105,-3.17246,-41.78146,-4.02227,-2.75923,16.59964,-54.67019,77.09837,1.6528,82.52056,-88.91228,17.94563,22.0339,-32.93479,-9.08299,-10.23922,-16.41613,0.91998,7.93045,-15.29923,-0.79728,-2.12597,1.61055,-0.07696,0.90295,-1.66959,1.06133,0.63937,0.39502
1075,5.52125,15.95713,-13.39131,133.16405,19.32137,12.14371,114.80593,-20.65656,17.49717,-60.26974,22.59842,6.69917,-4.85805,9.30523,-2.37869,-43.40205,-4.36879,-2.60442,35.17397,-106.52721,57.20486,12.92495,64.46286,-56.45087,10.95412,19.03631,-26.98829,-2.70979,-5.55173,-5.27029,-0.7166,7.7396,-13.11728,1.28946,-0.81919,4.4015,-0.24346,0.90721,-1.41378,1.57701,0.59491,0.5251
1076,3.78497,8.04803,-9.78992,136.35899,27.3271,13.48754,98.26859,-23.33781,16.2188,-67.4755,17.39077,0.75486,-2.61272,3.53782,-1.43526,-44.54773,-5.18076,-2.36727,9.62055,-124.99017,32.28758,3.90396,73.87411,-60.22927,8.78293,12.29715,-23.45975,-2.07674,-7.12726,-15.54977,-1.0955,6.30393,-12.64506,0.84302,0.08163,-0.29242,-0.23147,0.7818,-1.4579,1.13514,0.77548,-0.1392
1077,-1.08372,-0.7055,-1.42902,136.90294,34.18768,15.25494,75.98141,-5.60953,19.76823,-95.64886,13.92334,-1.26737,-1.79412,-0.95132,0.06923,-45.05926,-6.6131,-1.91921,-47.02477,-110.22192,29.31949,-18.19424,107.75974,-92.01433,8.89336,6.54705,-22.32775,-11.4058,-15.06343,-37.60171,-1.1536,4.14717,-12.5876,-2.36674,-0.46921,-6.95054,-0.16662,0.5071,-1.43331,0.30855,0.97878,-0.72088
1078,-4.77388,-10.48146,9.43261,134.98325,43.34188,16.4273,73.45639,6.6846,33.4556,-114.69879,14.2313,0.66043,-0.4912,-5.75571,2.06724,-44.79057,-8.76325,-1.41634,-66.26624,-91.24274,54.13449,-16.49956,130.93752,-115.8928,6.8648,5.22397,-19.99788,-20.33573,-21.23266,-53.91305,-1.44865,2.31045,-10.70673,-4.2671,-0.69295,-10.50919,-0.08493,0.1345,-0.97498,0.14582,1.12976,-0.78366
1079,-6.11029,-10.11212,11.45902,132.12128,55.12558,17.22362,84.69482,15.41101,43.60842,-95.10511,20.06078,6.35955,-0.88087,-5.21524,2.53747,-43.71004,-11.00645,-0.96463,-19.03791,-65.0676,77.03486,12.66454,115.85925,-112.01025,4.13514,7.49131,-19.22652,-16.38426,-18.45623,-51.43883,-1.95879,1.52328,-9.47889,-0.69117,0.5975,-9.76754,-0.02577,-0.16411,-0.71099,1.17559,1.18275,-0.72486
1080,-8.10938,-4.51183,7.24634,127.57143,65.79205,18.43367,88.54748,9.97711,45.34393,-59.05949,27.2464,12.15072,-0.46136,-3.59512,2.10117,-42.46339,-12.36321,-0.41281,39.8371,-56.24855,81.8861,23.5449,68.10138,-82.40636,2.83468,10.22622,-23.17816,-8.36062,-7.93044,-27.92573,-3.25915,2.10123,-11.48225,4.05271,1.52764,-5.13564,-0.23128,-0.18761,-1.22492,2.43797,0.95107,-0.95105
1081,-11.11291,-0.4244,4.15526,118.12984,70.39307,20.03194,73.68318,-0.50331,42.39428,-50.63957,20.37171,10.28148,0.38946,-2.16995,1.59968,-41.93713,-12.66164,0.39618,39.42437,-77.32077,69.7411,6.50215,27.06502,-38.81474,2.75015,9.92636,-27.85798,-11.01843,3.71899,2.28559,-5.05634,2.8849,-14.34424,2.50748,1.14406,1.98455,-0.67799,-0.03942,-1.97938,2.32677,0.35987,-1.05752
1082,-10.92807,-1.9101,6.62871,105.03842,72.01301,21.07608,58.13262,-7.69749,43.89622,-69.01392,-0.06307,0.56872,1.25654,-1.67014,1.54314,-42.15304,-12.21934,1.38669,2.62044,-114.56104,57.46948,12.05677,35.29152,-5.19346,3.48691,6.74956,-28.42764,-14.02672,7.48414,15.56061,-6.07982,2.84714,-14.19219,-0.69288,0.77413,7.56906,-0.96866,0.11136,-1.99593,1.46901,-0.3515,-0.38854
1083,-8.10606,-4.59059,9.77158,90.8994,76.45761,20.99131,53.31501,-1.41649,49.47733,-82.45818,-16.32974,-8.8432,1.71393,-1.68491,1.6918,-42.55805,-11.53909,2.3538,-13.01696,-127.61334,54.23684,42.56439,77.87116,-14.01289,5.08916,4.14889,-26.648,-4.51939,-1.84903,2.79611,-5.64927,1.95861,-10.99049,2.75236,-0.54805,6.73079,-0.7934,0.15109,-1.19618,1.63595,-1.09716,0.49243
1084,-6.11621,-3.79603,6.63949,75.5397,80.39511,20.36234,45.23108,23.496,52.08355,-77.28581,-22.0055,-12.17795,1.70986,-1.66836,1.72027,-42.81134,-11.4579,3.14555,-6.9831,-94.9374,54.37768,31.53524,96.80206,-64.52445,6.42517,3.07885,-25.15247,3.85518,-14.21049,-17.69234,-4.47269,0.97905,-7.54853,7.27632,-3.1051,1.23417,-0.38238,0.08521,-0.38802,2.11298,-1.66753,0.65668
1085,-3.02356,0.75734,-5.0772,60.26822,80.77735,19.93556,21.13548,60.67076,48.40244,-58.90245,-15.17601,-8.0064,1.73534,-1.33359,1.43289,-42.7104,-11.96949,3.86067,-9.47355,-19.427,53.1172,-24.98016,77.15707,-109.4728,6.13216,1.58059,-23.15463,1.38161,-15.98184,-23.95498,-3.74403,0.8046,-5.99375,6.48199,-3.71161,-2.08046,-0.19488,0.03483,-0.19146,1.84596,-1.51058,0.17
1086,2.54041,6.20929,-18.37213,48.31293,79.75078,20.39802,-4.83906,82.19881,39.04946,-32.11466,-0.05334,-0.38876,1.95378,-0.57418,0.87167,-41.9093,-12.04019,4.76664,-13.27918,46.11632,46.14684,-55.35884,57.30339,-109.82634,4.24026,0.72653,-22.16627,1.39082,-10.34768,-13.91897,-4.05402,1.19536,-6.43297,5.05912,-2.34433,-0.20439,-0.34401,-0.01452,-0.46909,1.39423,-1.13241,-0.07686
1087,5.73793,6.96376,-17.97484,39.834,78.81365,21.74902,0.24,61.18494,31.85742,-3.48514,7.95035,4.50978,2.05319,0.22002,0.77531,-40.26632,-11.0277,5.90813,21.28466,32.56879,37.51074,-43.49665,58.40776,-73.81163,2.31847,2.77761,-25.70388,9.41907,-4.8341,4.00554,-5.01967,1.66348,-7.70314,6.33612,-1.1376,5.37226,-0.54107,-0.0305,-0.72698,1.16576,-1.10253,0.52621
1088,3.87737,0.89217,0.1031,29.74186,76.53027,22.32088,41.57443,19.39805,41.686,11.57465,-1.17405,4.77722,1.98598,0.48892,1.74357,-38.39542,-9.55698,6.93164,89.59132,-40.24522,46.78568,-43.5673,58.61374,-40.7652,2.04129,4.56036,-32.00333,14.38695,0.7273,18.46583,-5.59594,2.10313,-8.63953,6.99436,-0.22502,9.70596,-0.45931,0.04592,-0.74961,0.95413,-1.09722,1.16725
1089,-0.47686,-6.4901,18.4006,15.43531,70.80811,20.66635,79.77415,0.40888,65.68842,7.48536,-19.60525,1.71237,1.82196,0.22063,2.88828,-36.73339,-8.73481,7.44002,135.40869,-87.75401,71.82883,-75.64151,43.19797,-40.42957,2.98055,3.37306,-34.84278,8.08294,4.90915,16.63523,-4.89852,2.97545,-8.86631,4.11509,0.54441,7.37542,-0.10182,0.21292,-0.69379,0.63895,-0.75023,0.68365
1090,-3.22787,-8.16024,17.53764,3.40603,64.10411,18.22,82.97343,15.13769,82.62091,3.49893,-26.63137,-2.16932,1.7236,-0.14404,2.82194,-34.41899,-8.63524,7.55585,137.39728,-64.47878,86.09533,-96.9634,26.62441,-60.07252,3.0623,0.9527,-30.97801,-4.97794,4.71445,0.1534,-3.51047,3.93509,-8.46374,-0.68026,0.92884,0.21804,0.1403,0.34084,-0.71948,0.30964,-0.24481,-0.49481
1091,-2.55756,-3.37182,0.90752,-0.60899,59.70859,17.27165,60.90718,38.30194,80.24017,15.08026,-18.50455,-4.89087,1.9562,-0.06805,2.00564,-30.58104,-8.41167,7.67476,124.0295,-11.6826,75.62041,-70.55025,18.48824,-55.84357,1.45278,-2.11258,-21.12546,-11.1441,1.19637,-11.00899,-2.76984,3.80742,-6.84077,-2.76548,0.77415,-3.42667,-0.01219,0.34528,-0.66237,0.14275,-0.07393,-0.88466
1092,-3.40885,1.41885,-18.19498,-2.44578,53.33098,16.65075,28.87615,40.43216,49.11348,24.00576,-20.97819,-6.66916,1.95264,0.51048,1.40251,-26.03142,-7.8467,7.77019,91.52784,-9.53624,29.2136,-15.14943,12.17365,-12.92387,-0.41311,-6.90379,-8.59449,-2.11593,-4.89891,-4.84865,-2.60202,2.65066,-3.89559,0.13695,-0.86968,-0.50603,-0.25923,0.31092,-0.32974,0.19217,-0.46055,-0.26266
1093,-6.99045,4.10338,-40.18933,-8.27165,42.04424,14.35204,-15.9667,23.74499,-14.47824,13.43391,-41.63306,-7.46138,1.20166,1.15634,0.22617,-22.0831,-7.35752,7.67191,12.96999,-58.04808,-54.90192,18.01203,7.24423,30.11948,-0.92028,-10.98086,1.25291,10.69145,-9.11044,8.33788,-1.66112,1.56573,-1.11587,3.82657,-2.915,3.82435,-0.17117,0.21364,0.13647,0.21427,-0.89445,0.245
1094,-5.81101,11.70901,-56.99756,-15.36948,30.90715,11.26624,-59.40764,14.99179,-70.57618,-2.16927,-53.72709,-7.01776,0.47035,1.79951,-1.7307,-18.9772,-7.3153,7.40484,-71.96987,-79.10086,-122.1869,-3.25909,15.88782,28.64532,-0.00706,-9.34121,2.83499,11.64834,-5.18633,12.54843,0.17774,1.76856,-0.82961,3.64471,-2.58341,4.59809,0.21,0.11114,0.2843,0.10064,-0.84356,0.01814
1095,1.45215,20.71538,-37.59064,-18.38867,22.21008,9.0338,-60.47654,21.56718,-55.87319,-0.53283,-49.66228,-8.09314,0.40153,2.16083,-1.68692,-16.26417,-8.2284,6.89544,-70.9825,-53.88734,-96.18517,-64.9969,38.53033,-14.52116,0.84575,-3.27571,-3.73057,3.18049,2.4859,6.00871,1.29636,3.52519,-3.43532,1.14268,-0.44134,2.44305,0.51202,0.22255,-0.09798,0.08759,-0.59686,-0.35761
1096,9.00615,18.40322,26.97879,-15.45162,14.11575,7.90131,-9.71565,26.80934,31.84155,21.20823,-47.72651,-12.65229,0.58592,1.85593,2.34258,-13.62139,-10.36438,6.00952,35.66701,-32.08704,18.2204,-112.65884,50.79392,-53.81061,0.55248,-0.60711,-9.02224,-3.05604,5.26639,-0.78982,1.34382,5.05422,-5.70867,-0.28282,1.06487,0.86686,0.54161,0.46651,-0.56429,0.16825,-0.47019,-0.12486
1097,11.82996,4.31608,88.12217,-9.00057,8.4683,7.63068,47.70929,20.1093,111.04104,46.1882,-48.17859,-16.67442,0.36055,1.16893,7.03537,-11.02037,-13.10724,4.9213,156.78487,-31.82475,114.86663,-101.62721,26.93653,-58.06638,-0.6733,-4.84948,-6.42322,-1.56061,0.43091,-0.37106,1.33498,4.41187,-5.06175,0.1762,0.40475,1.1904,0.45739,0.50914,-0.64423,0.14398,-0.51818,0.46845
1098,10.00817,-8.35383,84.18463,-3.96152,6.55858,7.59877,63.15478,10.7312,116.45061,52.29799,-38.7804,-14.82808,0.40827,0.31479,7.49264,-8.68995,-15.84837,3.91231,182.25203,-28.93717,111.89418,-52.67352,-22.27591,-36.50626,-2.37115,-11.25387,-0.32373,5.7291,-6.60648,7.79517,1.21389,1.96522,-2.6119,1.79952,-1.81003,3.29586,0.37049,0.21014,-0.38195,0.01107,-0.82196,0.84022
1099,5.40518,-2.07483,19.37376,-2.91769,5.15271,6.94039,23.36137,16.37259,91.31866,32.68662,-22.52312,-7.8633,2.05135,0.05705,3.96558,-6.80684,-18.9673,2.97825,77.01547,-3.23045,68.55016,-10.11947,-43.82293,-9.13758,-2.94286,-13.687,3.90144,12.1001,-8.33424,16.30787,1.38836,-0.0741,-0.71178,3.30342,-3.10607,5.82122,0.38104,-0.17646,-0.04547,-0.08556,-1.01868,0.94242
1100,-1.32423,13.99638,-41.29135,-4.00992,2.34983,5.7405,-31.65645,25.16658,90.36992,4.4794,-8.89259,-1.33263,4.89408,0.32102,0.84458,-5.23448,-22.90249,2.01942,-68.0306,24.00689,60.91794,33.37416,-4.21485,20.85395,-2.07135,-12.56185,6.82137,11.54826,-1.53489,15.5955,2.28808,-0.45355,-0.36037,3.43085,-1.67279,6.22061,0.49819,-0.33991,0.14992,-0.01917,-0.70847,0.77565
1101,9.86925,-2.83878,-68.75324,-3.13048,-1.43111,4.87156,-9.43213,0.3382,52.20041,-3.74878,-1.51559,0.42471,9.00967,-2.51112,0.1346,-3.66677,-27.22486,1.08104,-68.40374,4.47379,17.01615,100.02485,58.76247,53.67698,-0.73117,-10.80794,10.50518,4.99995,11.86626,5.41167,3.68008,0.19564,-1.02029,2.03533,2.3408,3.57629,0.63433,-0.25778,0.1478,0.19373,-0.09177,0.11864
1102,58.47354,-46.13286,-119.27827,2.86241,-5.46518,4.98374,102.73775,-42.80264,-107.71614,25.26966,1.3685,-2.19079,16.73525,-8.45422,-3.58969,-1.95915,-31.21728,0.18372,119.26018,-44.54714,-163.9193,148.9446,75.19098,75.09136,1.06913,-8.22909,13.52978,-0.39112,18.62655,-4.11972,5.05704,0.69078,-1.75476,0.82618,4.59076,0.15021,0.71122,-0.11409,0.04278,0.40834,0.01295,-0.73194
1103,44.59646,-5.37042,-236.20509,11.37787,-10.13653,5.25672,50.30093,0.01264,-359.88879,74.41116,-0.92748,-6.15768,19.67635,-0.95154,-14.80759,-0.46351,-34.80557,-0.80866,148.30247,-5.59831,-448.39505,119.60804,29.85805,72.94888,1.12594,-6.37481,14.05332,-0.25175,9.96854,-3.34387,4.79881,0.6279,-1.84513,0.80805,2.50885,-0.83055,0.55102,-0.05756,-0.00137,0.40753,-0.44018,-0.99261
1104,-128.31526,110.42754,-305.00174,17.19841,-16.96961,4.25828,-320.21692,122.78893,-524.99005,105.57084,-11.70002,-9.39794,-1.90181,16.98837,-19.90346,0.49898,-38.23214,-2.01365,-216.67311,114.26257,-630.81787,37.83113,-28.0647,60.57056,-3.0484,-8.03694,13.45879,5.21808,-5.23507,8.41351,2.57966,0.57288,-1.41761,1.62993,-1.08949,1.60937,0.20191,-0.0888,0.0597,0.14419,-0.72748,-0.37902
1105,-203.59935,114.96951,-221.61375,21.39028,-24.84091,2.5463,-466.48572,127.74049,-377.85315,104.94463,-23.78199,-10.05528,-27.19793,16.85851,-21.13531,1.33217,-41.1273,-3.33226,-378.41357,109.4516,-443.43848,-6.99014,-48.52775,57.66333,-8.54069,-10.71843,12.40737,12.9777,-16.5082,22.65854,0.42503,1.01013,-1.21633,2.75105,-3.99718,5.54085,-0.08139,-0.09439,0.11206,-0.15846,-0.73793,0.55456
1106,-134.15147,62.43131,-116.8624,28.80644,-32.22655,1.60465,-319.2471,59.21172,-145.55994,91.57472,-32.1913,-7.59687,-31.32633,12.08055,-20.38497,2.52923,-43.01206,-4.53548,-249.85684,34.66655,-157.8687,16.6947,-21.41613,51.92908,-10.11945,-10.23765,9.72938,15.937,-14.97034,24.50708,-0.22409,1.22928,-1.04274,3.1021,-3.99013,7.04331,-0.2023,-0.00841,0.09954,-0.2372,-0.63625,0.88564
1107,-91.76284,47.31556,-102.47073,38.68589,-40.02736,1.32425,-236.85213,45.0666,-155.42171,85.47607,-46.47121,-5.12011,-20.84425,11.49849,-12.32587,3.8248,-44.14809,-5.48991,-194.58656,13.73612,-173.25389,53.17569,20.78465,28.77496,-6.7481,-7.14574,6.0947,14.03494,4.55918,13.75074,0.22165,0.10519,-0.09314,3.25643,1.49342,6.02761,-0.14633,0.02115,0.09255,-0.05963,-0.2429,0.59416
1108,-66.74413,44.07061,-129.07411,45.44557,-46.56318,0.85876,-202.81471,68.45824,-327.0683,88.26428,-68.53259,-5.63895,-5.60978,8.9022,-5.71577,4.71389,-44.81593,-6.22894,-160.54268,14.18547,-402.62778,52.44246,41.92207,20.16223,-0.61001,-3.61337,3.67585,15.44175,22.35961,16.0586,1.10565,-1.85069,0.87639,5.54016,7.71894,8.68799,0.09441,-0.18805,0.10341,0.05623,0.3861,0.91485
1109,-12.65167,25.38904,-145.03612,47.0213,-47.1474,0.22394,-94.81654,95.60922,-497.05334,90.35751,-82.7925,-7.6728,6.42043,4.23957,-5.16779,5.34514,-44.47259,-6.81826,-10.78538,5.56346,-637.65234,23.31781,52.46758,45.53591,4.75918,-0.54294,3.32188,13.24934,11.28779,37.28726,2.01787,-2.72959,0.11129,7.92336,6.88787,14.95566,0.32353,-0.50063,-0.03212,-0.07867,0.77005,2.1384
1110,27.46199,5.81138,-129.81087,47.03181,-41.47201,-0.06603,6.64451,100.55649,-514.74335,87.36635,-77.33951,-7.31658,11.39164,0.22305,-6.20768,6.19487,-42.69675,-7.30027,124.53512,-5.08246,-671.47717,-30.78911,75.98351,71.25259,3.01048,0.40166,4.29374,5.70046,-11.76387,51.43225,1.51764,-1.53331,-2.30752,6.30679,1.18416,14.70701,0.1305,-0.55577,-0.46709,-0.3237,0.47135,2.26303
1111,25.48584,-2.92552,-67.40221,48.75399,-36.36021,-0.21653,19.65485,56.40757,-279.54901,80.00336,-62.24276,-4.14511,8.45677,-2.19869,-2.79637,7.22638,-40.59185,-7.85946,122.34802,-29.61139,-367.93039,-98.78611,70.94465,76.73595,-5.17223,-1.30147,6.08856,12.75994,-18.85888,48.52647,0.73939,0.10959,-4.66029,0.9701,-7.63451,8.53055,-0.26277,-0.3451,-0.96486,-1.19293,-1.38755,0.79463
1112,7.06255,-2.60969,-0.16535,49.09085,-37.45794,-1.26241,-12.17648,-5.51091,45.85025,62.2214,-56.45444,-1.86218,3.16443,-1.48607,1.83615,7.75077,-39.91588,-8.74176,40.08141,-65.66359,67.86167,-40.16812,0.02505,51.06536,-1.41372,-5.42978,16.28305,6.99604,-29.33869,13.46573,6.74681,-4.71262,-3.42502,-3.29003,-15.42546,7.91132,0.51856,-0.85475,-0.48732,-1.71827,-2.28173,1.50704
1113,-3.56029,0.2715,32.40649,45.81775,-39.74113,-2.90192,-27.99991,-44.99553,254.16412,40.3344,-55.09888,-1.4678,0.90815,0.60713,3.17437,7.21217,-40.74084,-9.85442,-13.17223,-88.84822,359.43109,116.80766,-75.82384,14.87767,5.90854,-9.63353,31.34712,-18.27092,-45.98756,-39.95643,10.06359,-12.52038,5.23714,-3.89866,-9.82497,2.68533,1.27622,-1.66432,1.61396,0.13891,0.09778,1.459
1114,-3.80645,0.08465,39.91479,43.12532,-37.24131,-3.65448,-18.36437,-58.89856,311.07864,32.44231,-42.22537,-0.54424,1.35463,1.32466,2.86939,5.68159,-41.67619,-10.72992,-2.21449,-80.15684,444.3956,238.4942,-112.84241,-14.20546,-4.8403,-4.0421,14.15227,-14.11734,29.37377,-86.04945,3.09301,-2.01294,7.00026,1.08387,13.16248,-13.13453,0.4812,-0.07906,2.31577,2.1624,1.71306,-1.17517
1115,-3.22834,-1.02583,38.34592,45.39647,-33.21548,-3.10224,-9.11142,-52.55003,247.71111,45.58584,-29.22222,-0.19707,1.80984,0.50288,3.14474,3.61478,-41.98024,-11.15816,33.87015,-53.26683,352.13019,206.43054,-98.48462,76.24168,-6.13245,-0.36705,-5.70126,63.42276,102.19614,-11.73919,0.61712,4.79441,1.66039,15.70016,25.12005,-2.68212,-0.02666,0.61562,1.17602,1.84657,1.09999,-1.28152
1116,-5.18322,0.80474,25.93768,52.17471,-31.54098,-2.12637,-8.13586,-26.45529,83.46851,73.144,-40.04022,-4.54685,1.05385,-0.24046,3.08092,1.42172,-42.2009,-11.63248,72.99551,-50.56804,108.63982,81.44255,-59.24733,158.34262,2.49251,-3.27132,2.55074,45.80427,-34.8774,90.20904,3.06148,-3.5095,-0.3649,8.36228,-12.80227,21.56817,0.12476,-0.70038,0.22978,-0.85956,-1.36872,2.2146
1117,-14.98594,13.9086,-3.3843,57.34365,-30.6911,-1.89085,-28.46545,17.24877,-109.13239,90.59706,-63.67716,-10.68915,-1.79083,0.89725,0.22887,-0.95147,-43.19307,-12.70148,70.38915,-61.58573,-176.5547,8.96838,-2.9012,70.68866,0.46244,-1.72072,16.37231,-28.5817,-60.62799,41.98594,3.7663,-7.36701,-0.57441,-3.70182,-15.35771,9.22792,0.10822,-0.97731,-0.2224,-1.08345,-0.92341,1.75083
1118,-33.13033,39.85566,-32.74799,57.8395,-29.33616,-2.27837,-83.71151,64.20358,-206.27986,87.48376,-69.9972,-10.58205,-5.78385,3.55713,-4.09948,-3.64311,-44.91367,-14.11723,-3.36524,-39.13776,-319.26483,-89.29047,55.77274,49.74418,-5.0817,4.10327,23.58706,-10.09449,-27.74082,31.18118,1.06076,-5.56086,0.48295,1.0203,-4.4185,8.717,-0.35612,-0.34026,-0.21607,-0.36073,0.14524,1.51543
1119,-39.29469,52.84983,-37.14586,54.38409,-26.18412,-2.36383,-117.04131,83.55042,-170.03061,78.58002,-56.07671,-4.02917,-6.59568,4.43962,-5.27432,-6.8255,-46.0831,-14.92945,-52.03031,-6.91509,-264.00717,-91.87439,69.56907,70.32941,0.47798,8.1241,24.24073,12.87151,-23.11121,38.37276,-0.63276,-4.68639,1.58317,3.66392,-5.03768,13.41506,-0.61988,-0.05959,-0.04785,-0.49903,-0.14241,2.29073
1120,-25.11138,37.65292,-18.40227,50.02692,-21.79321,-1.86133,-86.48954,60.59785,-67.85218,77.3576,-44.44323,0.81257,-2.84244,2.09399,-1.81564,-10.13677,-45.8579,-14.69522,-5.54244,-19.75024,-113.8508,-16.67015,60.95149,69.52397,11.30202,7.41078,21.12124,11.59056,-19.00703,27.97667,0.1412,-5.82313,2.48082,2.2341,-6.63112,11.6919,-0.47574,-0.34579,0.23312,-0.78161,-0.67209,2.34035
1121,-8.95376,15.67464,4.62055,45.74298,-19.78972,-1.6267,-41.4087,21.93146,23.6328,75.81554,-43.92291,-0.56902,1.06198,-0.87362,3.26663,-13.01941,-45.16156,-14.03458,51.52454,-54.1739,14.79067,22.98745,57.63142,55.62586,12.75767,2.43125,14.53102,7.94867,-12.08884,17.25392,1.68222,-6.57868,3.05754,1.68293,-5.53003,8.5005,-0.21298,-0.70865,0.56613,-0.63083,-0.66435,1.69718
1122,-3.1313,6.40749,7.05394,39.01722,-18.27229,-2.46897,-21.6495,0.13794,38.67418,61.8135,-37.13819,-4.29979,1.86397,-1.4532,4.92824,-15.46602,-45.07769,-13.69026,49.43469,-51.82832,36.28017,12.16505,63.06115,49.39233,2.71131,-4.3503,5.00154,10.22782,-7.43997,14.24364,2.79018,-5.4489,2.66836,2.60313,-3.38829,6.47997,-0.00166,-0.8118,0.74195,-0.2422,-0.32446,0.91013
1123,-5.63205,8.32319,-17.60402,31.0254,-14.60318,-3.83373,-20.77708,1.21757,-30.18122,43.5356,-23.60539,-6.62854,0.39458,0.3392,1.03482,-17.5069,-45.61319,-13.80322,21.68622,-24.27068,-48.88118,-0.6365,69.24733,53.20146,-5.56045,-7.86268,-1.72558,12.05633,-10.56922,16.24117,3.22433,-3.49608,1.51021,3.16879,-2.99987,5.66979,0.09376,-0.71395,0.67558,0.02697,-0.14439,0.54922
1124,-10.19994,13.40968,-38.27122,26.32297,-9.95117,-4.43027,-19.97592,13.49192,-91.65187,37.93056,-19.35227,-7.55285,-1.42096,2.29387,-3.63952,-19.28558,-46.29167,-14.05367,26.45307,-18.196,-123.58305,-6.70433,56.00786,50.99139,-1.40824,-2.96205,1.38311,10.60326,-17.87257,18.70171,2.61364,-2.71525,1.03085,2.9533,-3.94553,5.23662,0.02675,-0.56142,0.47828,0.20001,-0.11087,0.58906
1125,-11.61399,18.86017,-28.07472,26.91352,-5.20161,-3.67608,-16.65837,27.37368,-64.67323,49.20776,-23.43019,-7.54585,-2.22399,2.74582,-3.58353,-21.21684,-46.84988,-14.12667,62.07169,-32.44371,-95.43409,-28.57011,19.45457,35.121,8.58423,8.02936,11.21029,10.17123,-21.0138,19.99314,1.07816,-3.13586,1.73247,3.10077,-4.208,4.94855,-0.12924,-0.37816,0.27212,0.39297,-0.04459,0.67749
1126,-9.19175,22.85546,-6.17688,27.8372,-0.40131,-2.65135,-16.15446,36.14103,9.95477,58.18645,-22.74708,-7.13814,-1.61637,2.03181,-0.41756,-23.5723,-47.11101,-13.91906,78.19422,-36.07919,-16.04359,-52.9524,-18.12816,15.48158,12.10225,15.409,16.98651,10.92017,-16.77889,18.30144,-0.09156,-3.40878,2.51165,3.53502,-3.57245,4.79896,-0.24402,-0.17703,0.11321,0.3995,-0.07719,0.63961
1127,-5.994,18.53155,-2.4833,23.34508,3.77157,-2.69032,-11.35108,30.18667,45.5666,46.69452,-11.55169,-6.22774,-0.30768,0.91062,1.17135,-26.29895,-47.01144,-13.5592,59.50206,-21.85189,22.60163,-33.98567,-38.21681,5.18733,9.07418,14.73082,16.31589,6.70277,-8.87908,10.85967,0.49377,-3.77657,3.13917,2.66667,-3.27855,4.35814,-0.17304,-0.14034,0.12336,0.00118,-0.32193,0.55816
1128,-5.59537,9.271,-13.43404,15.26805,6.68111,-3.55574,-6.36793,15.75563,32.35258,24.11389,4.24016,-4.06606,0.46155,0.07518,0.43874,-29.15419,-46.90377,-13.3181,27.49389,2.91733,17.68937,28.52023,-31.57375,8.20187,7.34913,10.32189,14.00942,-2.3776,-4.86974,1.77985,2.12191,-4.5998,4.17805,0.65994,-4.23073,4.09947,-0.0042,-0.29163,0.37058,-0.52836,-0.62515,0.7114
1129,-5.56172,3.72297,-16.45465,8.26128,9.24672,-4.46085,1.4886,6.85573,25.39352,7.13735,14.51158,-2.58168,0.47216,-0.07508,-0.0934,-31.87361,-47.07349,-13.28709,15.08627,18.55478,23.75077,65.24547,0.66262,18.60687,10.08141,6.72218,12.37363,-4.9304,-6.8418,1.22243,3.40934,-5.15793,5.29024,0.623,-5.42535,5.5122,0.10624,-0.4525,0.68995,-0.6712,-0.87989,1.29511
1130,-2.30301,1.75488,-6.00047,4.17333,12.08071,-5.1144,21.89888,3.35002,42.36652,-0.77466,12.09048,-4.67533,0.39314,0.06333,0.83691,-34.22152,-47.31175,-13.31279,36.31005,-3.46042,44.71849,25.22818,36.21882,22.38343,14.88489,5.74338,11.43233,1.79809,-9.48404,7.89878,4.8544,-5.16948,5.75792,2.75463,-4.96702,6.98204,0.29251,-0.49011,0.81879,-0.2834,-0.94878,1.78125
1131,2.12736,-0.59034,5.69528,3.1121,14.90766,-5.32971,40.5117,-0.85284,51.06085,-3.04165,1.61487,-8.84276,0.40366,-0.0783,2.1668,-36.2675,-47.33791,-13.29651,63.93096,-53.57932,44.13189,-49.49976,45.16182,12.82776,18.53935,6.66536,9.63982,7.66438,-9.72358,11.31053,6.83181,-4.35484,4.79338,3.87556,-3.22699,5.81966,0.63788,-0.29324,0.52853,0.22077,-0.71052,1.50376
1132,3.36157,-2.96239,8.2289,5.57614,17.77985,-4.82328,34.47414,-3.73889,29.87057,3.14558,-3.4601,-10.87727,0.26757,-0.45749,2.59431,-38.40942,-47.25117,-13.34438,68.64297,-80.66446,9.55721,-72.4239,22.63969,-1.2327,19.97025,5.7856,4.6729,7.45481,-11.1636,9.51214,8.09689,-2.42119,1.81089,3.28476,-3.28061,3.43972,0.88838,0.07324,-0.14022,0.30537,-0.62045,0.7297
1133,-1.01539,-1.56515,-0.95679,7.57491,19.50002,-4.3977,6.30712,-0.7758,-9.35805,11.4154,-2.53846,-10.82606,0.03033,-0.56319,1.64871,-41.10705,-47.33778,-13.53248,45.00546,-66.76235,-42.09649,-21.83672,2.67165,-13.24524,20.61299,1.01598,-2.36596,3.89632,-14.91442,6.77474,8.64973,-0.3681,-2.12252,2.58662,-5.44916,2.3085,1.00437,0.27121,-0.6957,0.08634,-0.88334,0.2353
1134,-9.77112,3.99317,-17.04436,4.89167,20.53368,-4.95275,-18.17924,6.03351,-37.0667,8.97503,-0.59653,-10.90797,-0.08248,-0.26204,-0.12854,-44.27517,-47.48226,-13.71692,12.66555,-42.43708,-78.38902,37.85434,13.24011,-19.2769,21.13672,-3.07049,-5.6974,1.53795,-16.69046,5.96242,10.3483,0.1317,-3.77211,2.49407,-6.523,2.65507,1.33159,0.10736,-0.55934,-0.05355,-0.98442,0.2913
1135,-16.42875,7.35182,-26.88299,0.71476,23.31068,-5.89325,-15.10963,9.26735,-29.91874,-3.35446,7.5652,-10.31365,0.08717,-0.06541,-1.16995,-47.27491,-47.35348,-13.7669,1.99939,-29.83944,-67.77479,50.27845,32.44676,-8.34438,18.7443,0.36289,-0.33954,3.6071,-13.75168,8.11575,13.01588,-1.35328,-0.11501,2.97364,-4.85264,3.97172,1.7997,-0.21527,0.35647,-0.03731,-0.68771,0.65673
1136,-13.0638,1.91949,-18.90535,-0.2576,27.21227,-6.33475,21.73561,1.15271,9.13674,-15.89894,24.82628,-7.65053,0.55927,-0.3934,-0.38513,-49.6267,-46.93835,-13.79536,28.44534,-27.52648,-11.60003,26.82379,30.31142,19.79141,11.8018,9.57717,9.95838,8.294,-9.61683,11.6032,14.08175,-3.24142,6.89226,3.83056,-2.59411,5.47199,1.93244,-0.37259,1.43606,0.05669,-0.39673,0.95277
1137,-2.43588,-9.52918,-1.18506,0.62515,29.34617,-6.493,64.92999,-17.06522,43.48471,-23.20613,39.84233,-4.50883,1.01731,-1.01894,1.18039,-51.47625,-46.39316,-13.93325,66.36605,-35.12481,37.65234,3.79695,22.96847,39.52462,5.93203,13.22462,14.02538,9.57959,-8.58219,11.92219,12.45353,-3.50435,10.04858,4.3687,-2.0409,5.60926,1.6618,-0.31284,1.74389,0.17522,-0.41459,0.90025
1138,1.56355,-15.09975,5.38846,0.11153,29.04206,-6.85368,70.5248,-25.39636,44.62154,-25.79819,38.86213,-3.85959,0.97787,-1.38259,1.52657,-53.38062,-45.89219,-14.14389,67.49104,-48.26813,38.80697,-7.61823,41.56531,28.30445,8.77004,5.00331,6.21555,5.48267,-8.49459,7.42771,9.92069,-1.90845,4.84766,4.10585,-2.07525,4.15904,1.37407,-0.18847,0.87003,0.31805,-0.5041,0.60644
1139,-7.36596,-8.79762,-4.86729,-0.97444,28.55439,-7.32549,38.60951,-7.92532,29.55155,-28.57455,26.1375,-6.07111,0.39347,-1.27181,0.36682,-55.66504,-45.70379,-14.37638,27.47363,-51.70367,19.06329,-14.25252,72.56395,-3.88779,20.12673,-7.65007,-7.63138,-0.5366,-6.9647,1.31222,9.27677,0.27699,-5.44066,3.16247,-1.46814,2.27214,1.46015,-0.04346,-0.76831,0.44913,-0.46982,0.33629
1140,-17.61927,0.18348,-15.4915,0.00477,29.51468,-7.64002,18.23825,14.22927,26.79803,-34.93114,19.89305,-8.40484,-0.01593,-0.96817,-0.52474,-58.20653,-46.01884,-14.68349,-3.07641,-47.04499,20.72915,-15.36717,68.80687,-26.9429,30.18621,-12.83146,-16.73618,-4.42325,-7.24505,-2.93234,10.65221,1.7885,-12.83973,2.41276,-1.88717,0.52476,1.80157,0.15661,-2.15992,0.53691,-0.58593,0.09518
1141,-16.88237,-0.70593,-12.78174,3.59723,30.3721,-7.67903,27.72289,5.6135,27.8519,-38.12267,25.71809,-8.87343,0.36678,-0.97731,0.07252,-60.63886,-46.6466,-15.11723,2.33988,-57.23159,27.02657,-4.40771,26.82756,-26.04189,30.21484,-6.61445,-14.61565,-5.00362,-9.59623,-4.67978,11.73455,1.92931,-11.38441,2.46078,-3.53621,-0.81718,1.97671,0.34497,-2.24677,0.5723,-0.87751,-0.20253
1142,-9.10553,-11.4986,-1.93615,6.97179,29.08878,-7.73504,31.32199,-31.64138,11.10511,-33.18419,30.28958,-9.25406,1.07428,-1.50875,1.26479,-62.54555,-47.12082,-15.57193,8.52124,-87.14527,0.20575,13.92536,4.48491,-15.55501,21.31233,4.14071,-4.49738,-4.10543,-9.85521,-4.64245,10.30688,0.96445,-2.84453,2.77693,-3.99649,-0.93486,1.6299,0.39244,-0.92772,0.51854,-0.93095,-0.37636
1143,-4.22635,-20.87124,5.45205,7.1356,27.0662,-8.37305,16.47675,-57.97207,-7.45348,-28.42785,26.24514,-12.20205,1.38962,-2.21767,1.72131,-63.65308,-47.15997,-15.86189,-5.59954,-107.07596,-37.08433,27.2284,33.58394,-13.68418,10.74639,9.26323,3.87679,-3.46019,-8.01419,-3.60898,6.53458,0.07883,4.45832,2.86174,-2.87242,0.1152,0.79741,0.28368,0.57501,0.42396,-0.70313,-0.29216
1144,-2.98766,-20.65237,6.27,3.4957,27.04947,-9.86244,20.02673,-47.9455,4.24457,-37.11178,23.10773,-16.85088,1.50679,-2.65092,1.46515,-64.32104,-46.83585,-15.91782,-10.97452,-93.16701,-29.48922,28.3206,74.98698,-18.07592,4.44467,5.35986,4.56885,-3.10172,-6.30907,-2.7683,3.43274,0.17919,4.74106,2.62951,-1.70545,0.88194,0.12656,0.17504,1.09135,0.38207,-0.48411,-0.14514
1145,-1.32573,-14.78582,4.61139,-2.55445,29.24885,-11.67163,58.11407,-21.69463,39.02366,-59.73785,30.77953,-18.90555,1.88838,-2.85332,1.12452,-65.73637,-46.38889,-15.79756,9.78027,-63.57303,22.56803,16.21085,87.30841,-19.83829,4.4088,-2.28666,0.02328,-2.54704,-6.04344,-2.91874,3.19412,0.95278,0.13306,2.34802,-1.51949,0.35698,0.15219,0.17625,0.64658,0.41935,-0.41117,-0.11906
1146,0.66899,-10.70004,3.55503,-5.40876,32.71027,-12.4655,95.73193,-9.10621,61.9068,-73.1859,48.93688,-14.82222,2.25268,-2.9953,0.84152,-68.70837,-45.90872,-15.65001,42.12846,-43.48371,68.11172,-1.05339,77.61156,-20.95475,9.93155,-5.94575,-4.68405,-0.97948,-7.76415,-2.77474,4.88391,1.51005,-4.00905,2.71431,-2.01379,-0.52282,0.64765,0.25737,-0.17191,0.49482,-0.40548,-0.10807
1147,0.44526,-8.71949,2.46746,-1.03815,35.33594,-11.81588,99.06909,-9.79743,57.24018,-65.33147,65.61022,-7.67289,1.98308,-2.77822,0.46362,-72.49964,-45.12585,-15.65318,58.17825,-33.95798,74.88612,-7.50304,67.8316,-23.21811,16.79739,-3.43012,-7.39568,2.32597,-9.18429,-0.02163,5.97806,1.42201,-5.32571,3.86338,-2.07859,0.24083,0.92698,0.31754,-0.94379,0.57044,-0.38495,0.09241
1148,-1.15333,-6.71659,1.11621,5.3018,34.62025,-10.94558,74.52442,-12.35197,36.37502,-59.81332,68.69203,-4.46561,1.20423,-2.02476,0.09725,-75.69652,-43.60916,-15.75926,32.7193,-32.99418,50.83942,2.18786,64.52515,-21.27301,18.54165,-0.18719,-8.34176,5.87016,-7.26937,4.44976,5.42786,1.07356,-5.30224,4.74346,-1.31491,2.63232,0.70272,0.26606,-1.36112,0.6634,-0.3654,0.40142
1149,0.04084,-6.44021,1.76873,8.25036,32.08691,-10.62633,50.4991,-19.5462,17.8131,-68.28967,62.60002,-5.95926,0.89592,-1.31743,0.12389,-78.07162,-41.35826,-15.70928,-15.35516,-43.91021,21.59487,18.07525,60.67031,-16.07974,14.41963,-0.90022,-8.1236,6.38957,-3.84164,6.01312,4.4506,1.08552,-5.69003,4.38986,-0.50302,3.83731,0.39311,0.18471,-1.26897,0.74939,-0.33246,0.46481
1150,3.60463,-9.80658,4.97094,8.4588,31.82426,-10.67433,41.59267,-37.68683,10.84018,-73.21537,61.01024,-7.66172,1.40281,-1.27153,0.58029,-80.91444,-38.86262,-15.3344,-42.21501,-63.59502,5.73259,33.14369,46.74233,-16.35214,10.81867,-2.66028,-7.05369,2.44692,-4.02755,1.24294,3.92903,1.29205,-5.44593,3.30896,-0.42017,1.66792,0.36523,0.17911,-0.81514,0.73554,-0.22891,0.0781
1151,4.01336,-13.5292,7.42068,8.09856,34.25419,-10.69736,41.16574,-56.66568,12.3627,-64.09485,64.8815,-8.21551,1.74252,-1.51646,0.95599,-84.92407,-36.25994,-14.63953,-36.45849,-80.52077,3.82179,43.3752,31.51642,-24.59629,12.07507,-1.79644,-6.03811,-3.95556,-8.05463,-7.66067,4.14691,1.31935,-3.89563,2.60137,-0.72781,-2.20896,0.63469,0.26323,-0.41022,0.60669,-0.06331,-0.47358
1152,0.10988,-12.73073,6.41689,7.93972,34.9326,-10.18846,39.93537,-58.56617,14.63341,-50.03403,60.46769,-9.47553,1.2049,-1.32906,0.88039,-89.00907,-33.17903,-13.80072,-17.49121,-87.9396,5.0213,36.75197,36.65836,-37.11918,16.36902,-0.31138,-6.94444,-9.16214,-11.27739,-14.53252,5.28238,1.51507,-3.55152,2.69687,-0.72226,-4.0863,1.03209,0.44071,-0.53343,0.47799,0.05564,-0.66162
1153,-4.20846,-8.56057,3.38456,7.96747,31.21524,-9.05182,34.22675,-45.23441,13.01343,-41.82507,44.10228,-11.1936,0.39447,-0.89567,0.49279,-91.70562,-29.59503,-13.12395,-5.84691,-91.24419,1.26862,13.81922,61.77959,-49.19102,20.17246,0.23058,-9.65972,-9.94245,-11.02154,-14.59901,6.4655,2.0303,-5.18719,3.29448,-0.32841,-2.47636,1.23774,0.61931,-1.04091,0.42417,0.05708,-0.35107
1154,-6.51441,-4.81176,0.77028,8.44023,27.12964,-8.16699,27.16185,-31.9116,9.48003,-42.32874,34.38301,-10.60727,0.13306,-0.7558,0.08804,-92.59461,-26.23626,-12.84208,-8.99055,-88.36832,-2.60598,4.41092,77.95209,-52.64477,20.83208,1.63722,-11.0214,-6.53912,-7.83053,-8.80205,6.28643,2.20351,-5.7119,3.21777,0.17273,0.42556,1.00422,0.60616,-1.12679,0.35077,0.05225,0.00089
1155,-5.76746,-2.51674,-0.49361,9.95063,28.16918,-8.46885,30.10081,-24.4064,9.3405,-48.89907,47.20505,-6.65553,0.45158,-0.88262,-0.10747,-92.27908,-23.93335,-12.9486,-16.79211,-67.27641,4.18887,30.70013,64.03254,-41.94029,16.35027,2.93283,-9.05943,-2.92358,-3.96189,-3.73854,4.74657,1.79227,-4.22028,1.69244,0.58923,0.74621,0.46178,0.37063,-0.59722,0.21078,0.20148,-0.15848
1156,-1.29789,-2.09826,-0.11353,12.17373,33.40378,-9.62735,46.45184,-20.65355,13.16627,-55.49982,69.70522,-2.30407,0.90581,-1.06644,-0.02294,-91.72266,-22.8571,-13.22093,-15.06027,-36.36865,19.60408,65.15889,34.27658,-26.40705,8.07042,0.41492,-6.03683,-2.73076,-1.2949,-4.8053,3.2919,1.60895,-3.98552,-0.18118,0.95575,-2.33078,0.03548,0.19238,-0.32963,0.12273,0.45667,-0.74318
1157,4.72961,-4.10842,1.65693,12.83581,38.31264,-10.71646,61.02816,-21.53906,16.30027,-57.58767,79.03685,-1.76805,1.24243,-1.29279,0.21501,-91.55959,-22.30826,-13.24413,-6.03603,-23.81565,28.29468,63.98309,19.68075,-24.58157,2.19735,-5.52351,-5.99911,-6.23022,0.42656,-10.09363,2.26017,2.1301,-6.71439,-0.62783,1.17043,-4.91831,-0.12631,0.27302,-0.91115,0.18096,0.58405,-1.1048
1158,7.78121,-7.41148,3.77576,10.33314,41.1341,-11.46428,56.98876,-30.31328,15.85451,-56.20586,73.42276,-6.24207,1.4338,-1.53346,0.43682,-91.6949,-21.34591,-12.71898,-6.62619,-42.59662,20.56785,32.05616,28.49202,-38.9842,3.72616,-9.62929,-9.56282,-8.45004,0.53712,-13.40322,1.02447,2.64808,-9.48862,1.4852,1.18557,-4.11384,-0.16882,0.40371,-1.65258,0.44237,0.48339,-0.93132
1159,6.44554,-8.61234,4.65295,6.10385,42.64015,-12.21287,37.74413,-37.46869,13.36401,-58.92031,70.86333,-12.29279,1.40238,-1.51901,0.5689,-91.38003,-19.59003,-11.90626,-29.41917,-60.52742,5.03846,12.32305,42.77375,-48.61369,10.21061,-7.96287,-12.47251,-4.24243,-2.57963,-11.15845,1.03532,2.39308,-8.94842,4.88393,1.28668,-1.54724,0.11384,0.34562,-1.53999,0.72433,0.27455,-0.48983
1160,4.50713,-6.02146,3.61725,3.50157,43.98787,-13.17107,24.16574,-28.40261,11.4579,-71.26504,86.68722,-14.59487,1.13358,-1.07457,0.58887,-90.02424,-17.14343,-11.36983,-65.17673,-31.28043,-0.12186,23.77285,48.13137,-37.94795,13.95266,-2.37568,-10.92354,3.17592,-7.47609,-5.9724,3.16452,1.50315,-5.67391,6.28872,1.39383,-0.0355,0.6908,0.16134,-0.67922,0.68469,0.09617,-0.14506
1161,5.10815,-3.86056,2.56076,4.90475,43.66731,-13.62345,27.97758,-13.85281,11.4372,-83.24324,108.75533,-11.79034,0.87896,-0.65221,0.50343,-88.29684,-14.22562,-11.29913,-85.2422,22.97677,10.24575,50.17197,47.27349,-13.88374,9.49848,2.39077,-5.22365,5.55029,-9.6432,-3.28471,5.36595,0.7394,-2.70091,3.97787,1.16391,-0.61914,0.96342,0.06691,-0.00215,0.29626,0.03894,-0.10401
1162,6.99776,-6.342,3.47127,8.65463,38.11656,-12.52396,40.01996,-17.81892,13.4429,-79.51223,106.95714,-7.66687,0.92201,-0.79452,0.44652,-87.471,-11.02076,-11.33781,-70.89273,27.25453,22.93344,70.40026,43.12161,6.98252,0.59514,3.69957,0.76546,0.56623,-6.66989,-4.89498,5.95443,0.58166,-1.67743,-0.25246,0.74862,-2.63787,0.78641,0.16061,0.06448,-0.13704,0.14478,-0.35253
1163,6.64976,-10.65392,5.30172,10.85206,29.76132,-10.31146,44.04643,-39.44074,16.14685,-60.11568,79.79745,-5.40917,1.07361,-1.29912,0.53138,-87.46986,-7.44804,-10.9348,-37.4173,-30.63074,25.35083,76.16149,30.662,12.10465,-3.83664,1.17158,2.55481,-5.2218,-2.74846,-8.48346,4.81889,0.82789,-2.00486,-2.13909,0.93189,-4.27649,0.49867,0.28504,-0.15404,-0.21185,0.34373,-0.5952
1164,4.16311,-11.19431,5.70292,9.4823,25.25488,-8.58859,39.23428,-54.14086,18.29332,-41.55394,57.38307,-4.72883,0.96431,-1.48394,0.65365,-87.0708,-3.5591,-9.89757,-13.45961,-81.22082,21.14867,78.06497,11.2932,2.35426,-1.49819,-2.54955,0.06595,-5.38859,-3.47925,-10.96865,2.96011,0.96946,-2.38373,0.68679,1.88566,-3.38144,0.30742,0.28327,-0.31735,0.19033,0.42817,-0.46807
1165,2.5102,-6.67915,3.88424,5.27627,25.58311,-8.02261,35.55953,-44.06751,18.32828,-41.20807,58.72075,-3.90784,0.59443,-1.01373,0.60541,-85.86795,0.04371,-8.68388,-16.0864,-67.74001,20.28675,87.09981,-3.93189,-10.22158,2.30927,-2.89408,-2.43381,-2.08704,-7.02536,-10.82674,2.0106,0.64607,-2.19708,5.10928,2.45478,-0.22098,0.27151,0.18224,-0.36318,0.62524,0.28928,-0.06175
1166,2.00077,-1.0942,1.25096,0.99762,27.39916,-8.10421,31.93449,-16.39854,13.97062,-58.71309,75.83623,-1.94418,0.22859,-0.31348,0.35134,-84.40305,2.95729,-7.88088,-45.95412,-6.22085,22.36277,86.35754,-6.50572,-17.09546,3.4688,-0.22731,-2.91897,-1.68102,-6.50397,-8.44013,2.29939,0.29896,-2.17152,5.95283,1.84569,2.04216,0.33554,0.1032,-0.37236,0.55812,0.1467,0.10599
1167,2.25577,0.98404,-0.15688,-0.52823,27.93433,-8.12047,21.38085,5.69788,5.89657,-73.02075,85.48104,-0.33283,0.19343,-0.03023,0.14179,-82.81004,5.37143,-7.61944,-81.66778,38.56771,17.02201,60.82434,4.80303,-19.3927,2.50269,0.36972,-3.37155,-4.80478,-1.4775,-5.98858,2.50863,0.76968,-3.10316,2.78831,0.99536,1.26667,0.34002,0.138,-0.43638,0.07904,0.25217,-0.16844
1168,3.47413,-1.06353,0.24327,1.62071,25.66221,-7.67971,6.66038,7.17083,-1.33246,-62.65186,71.31729,-1.59572,0.53188,-0.24126,0.16567,-80.60828,7.45713,-7.61488,-90.32983,23.65274,-1.13976,37.97977,22.80227,-20.4807,1.39606,-2.37334,-4.49481,-6.30172,1.07788,-5.81586,2.16979,1.66527,-4.07626,-0.17019,1.11459,-1.10102,0.25482,0.23037,-0.47799,-0.27449,0.46733,-0.49703
1169,4.40419,-4.18914,1.40241,4.98361,21.90243,-7.04714,-0.08689,-5.03591,-3.07767,-33.58292,45.52789,-5.07074,0.83541,-0.5185,0.30416,-77.82085,9.08841,-7.49758,-63.12998,-24.52787,-19.43677,44.17459,42.1429,-22.94782,1.63136,-4.69292,-4.3306,-3.7986,-1.63273,-7.30461,2.48165,1.48877,-3.58697,-0.23235,1.87914,-2.35305,0.24524,0.20956,-0.32505,-0.22399,0.49843,-0.50882
1170,4.93059,-5.12964,1.98965,6.0251,20.04544,-6.75974,9.34211,-13.86828,0.81201,-14.42882,35.27278,-7.03337,0.91217,-0.55971,0.47316,-75.34994,10.23048,-7.12674,-27.01367,-47.79679,-19.81428,60.7913,66.97909,-30.57438,3.44994,-4.29325,-2.53049,-0.28088,-4.6984,-7.88668,3.65114,0.0079,-1.87288,1.69464,2.35857,-1.76427,0.30824,0.04684,-0.01314,0.10279,0.36855,-0.2938
