PaulMeinheit/Bachelor_Muay_Thai/processed_Data/E1/roundhouse/sliced/JointMoments/sliced0.csv
Unnamed: 0_level_0,R_KNEE_MOMENT,R_KNEE_MOMENT,R_KNEE_MOMENT,L_KNEE_MOMENT,L_KNEE_MOMENT,L_KNEE_MOMENT,R_HIP_MOMENT,R_HIP_MOMENT,R_HIP_MOMENT,L_HIP_MOMENT,L_HIP_MOMENT,L_HIP_MOMENT,R_ANKLE_MOMENT,R_ANKLE_MOMENT,R_ANKLE_MOMENT,L_ANKLE_MOMENT,L_ANKLE_MOMENT,L_ANKLE_MOMENT,WAIST_JOINT_MOMENT,WAIST_JOINT_MOMENT,WAIST_JOINT_MOMENT,NECK_MOMENT,NECK_MOMENT,NECK_MOMENT,L_SHOULDER_MOMENT,L_SHOULDER_MOMENT,L_SHOULDER_MOMENT,R_SHOULDER_MOMENT,R_SHOULDER_MOMENT,R_SHOULDER_MOMENT,L_ELBOW_MOMENT,L_ELBOW_MOMENT,L_ELBOW_MOMENT,R_ELBOW_MOMENT,R_ELBOW_MOMENT,R_ELBOW_MOMENT,L_WRIST_MOMENT,L_WRIST_MOMENT,L_WRIST_MOMENT,R_WRIST_MOMENT,R_WRIST_MOMENT,R_WRIST_MOMENT
ITEM,X,Y,Z,X,Y,Z,X,Y,Z,X,Y,Z,X,Y,Z,X,Y,Z,X,Y,Z,X,Y,Z,X,Y,Z,X,Y,Z,X,Y,Z,X,Y,Z,X,Y,Z,X,Y,Z
445,-6.75943,-24.41308,4.50092,-5.18118,-2.51272,-0.92923,-9.04805,-43.17859,4.85737,11.79315,-4.93728,-1.68061,-16.99594,24.73806,1.12683,-9.85644,-0.95912,-0.81239,33.86988,7.17983,-5.37544,8.03178,20.76118,-13.85755,6.49689,-1.75843,-1.83029,-2.77424,-2.68246,-1.83467,2.88843,-0.86718,-1.06312,2.77461,-0.10194,-0.59522,0.38318,0.02251,-0.2517,0.28734,-0.03325,-0.15387
446,-8.26063,-23.90217,4.67909,-5.76505,-1.22188,-0.62432,-19.84806,-44.63377,5.43802,9.20625,-5.62097,-0.78055,-16.99895,24.76376,1.08943,-9.79548,-0.89774,-0.77824,17.46855,1.68654,-6.04706,2.72742,-4.18118,-10.74765,6.62897,-2.4647,-2.4287,1.21414,-2.41956,-0.5656,2.89482,-0.75327,-1.63577,3.9421,-0.334,0.006,0.30588,0.0654,-0.36003,0.41135,-0.1479,0.03215
447,-10.17161,-25.19342,5.44491,-8.99283,-0.40772,-0.65311,-30.72681,-53.36544,8.84812,-6.99202,-2.86469,-1.50674,-16.68481,24.49355,1.10284,-9.74125,-0.8864,-0.72312,-19.17605,-7.88645,-1.7151,10.05085,-25.13962,2.65847,3.16688,-0.87539,-0.95548,6.82117,-1.94459,1.76542,2.89851,-0.8788,-0.87668,4.38471,-0.33824,1.00292,0.2275,0.04072,-0.10698,0.52163,-0.20263,0.28007
448,-10.45659,-26.59394,6.04307,-11.13308,-0.94311,-0.84214,-31.86029,-58.8871,11.87504,-19.27855,-1.74755,-3.09752,-16.34281,24.12613,1.17113,-9.75413,-0.93195,-0.66602,-38.20351,-12.70612,3.03542,16.60327,-24.99508,14.48519,-0.9844,2.47456,1.67054,8.08986,-2.66642,2.00502,2.95546,-1.2446,0.84302,3.76605,-0.18455,0.61441,0.26556,-0.04044,0.28057,0.49873,-0.13594,0.1869
449,-9.47766,-26.19767,5.90268,-10.53154,-1.52155,-0.80013,-23.24349,-54.59776,11.2514,-16.69465,-2.42203,-2.60176,-16.23883,23.97607,1.19567,-9.88987,-0.96139,-0.63812,-22.65054,-6.07319,4.728,5.10396,-4.66845,13.42288,-1.46038,4.50464,2.87221,4.25365,-4.0745,-0.06869,2.95918,-1.56564,1.90127,2.8611,-0.07274,-0.87331,0.36964,-0.1079,0.395,0.35255,-0.02321,-0.16015
450,-8.88243,-24.74817,5.37168,-9.2544,-1.69447,-0.62521,-14.82846,-46.06016,8.24043,-7.34584,-2.97971,-0.21253,-16.28112,23.92794,1.13906,-10.04541,-0.98577,-0.68784,2.42432,5.53043,3.38185,-9.56453,16.05105,2.66509,1.62917,3.29036,1.70432,0.01306,-4.8138,-1.77692,2.91275,-1.61827,1.36643,2.46408,-0.0428,-1.6578,0.4299,-0.11781,0.14764,0.15835,0.04787,-0.32273
451,-9.37655,-24.30721,5.13234,-9.03196,-2.02081,-0.58541,-14.62365,-42.97351,6.37619,-3.55535,-3.09529,1.08284,-16.24707,23.68168,1.06567,-10.03245,-1.0214,-0.7416,7.37905,10.77833,1.21253,-10.70571,20.69024,-6.09759,4.57197,0.59042,0.05356,-0.34484,-4.8904,-1.68389,2.93782,-1.48664,0.32322,2.6918,-0.08091,-1.40766,0.42591,-0.08714,-0.09212,0.02615,0.05082,-0.2386
452,-9.83164,-25.05166,5.21028,-9.3361,-2.18143,-0.6402,-18.22319,-46.10312,6.42362,-6.07599,-1.70146,0.54891,-16.10148,23.22334,1.03403,-9.86093,-1.04987,-0.67155,-2.11695,10.80454,0.55002,-8.14973,15.34081,-8.10651,5.66546,-1.13198,-0.48408,2.14076,-4.28283,-0.76078,3.12184,-1.34609,-0.01231,2.8525,-0.20754,-1.01146,0.42345,-0.04345,-0.07161,0.02573,0.00125,-0.18891
453,-9.11045,-26.18786,5.28217,-9.19266,-1.84498,-0.66745,-18.27061,-50.70487,7.11115,-8.049,1.62196,0.02328,-15.93798,22.73456,1.02706,-9.68854,-1.10064,-0.53537,-4.58296,10.7746,1.97293,-8.30313,11.88024,-6.90616,5.76364,-1.58915,-0.61657,2.32566,-2.22591,-0.23642,3.40331,-1.23119,-0.15749,2.46537,-0.36389,-0.43459,0.44602,0.00455,-0.01946,0.14156,-0.08348,-0.21194
454,-8.23254,-27.08611,5.3751,-8.75442,-1.77062,-0.64908,-17.38959,-54.84619,8.12976,-6.25045,2.25135,-0.13681,-15.81791,22.43183,1.01155,-9.64664,-1.15856,-0.47933,0.68272,4.79964,2.98995,1.67495,7.76006,-5.64287,5.00736,-1.17227,-1.12422,-2.37168,0.72343,-0.44628,3.47826,-1.11694,-0.79438,2.05486,-0.39249,0.7234,0.42198,0.03902,-0.14893,0.34381,-0.16889,-0.10694
455,-8.95704,-27.33541,5.68513,-8.30846,-2.35953,-0.54583,-21.67421,-58.3937,9.69728,-1.60303,-4.25059,-1.36113,-15.74906,22.4258,0.97802,-9.71526,-1.11857,-0.48465,2.23598,-12.34619,0.59667,21.31586,-0.93555,-5.10707,3.9242,0.02306,-1.37014,-7.05654,2.10193,-0.87657,3.14952,-1.04649,-1.12907,2.17045,-0.21498,1.6405,0.32217,0.03203,-0.24577,0.52995,-0.18519,0.12464
456,-10.61748,-27.17045,6.04117,-8.13841,-3.16356,-0.4138,-28.35236,-59.33559,10.87436,2.07154,-14.25026,-3.87532,-15.72755,22.54033,0.93509,-9.8307,-1.01786,-0.47487,-2.24167,-29.81563,-4.43588,25.6002,-6.62118,-5.49208,4.84176,0.88153,-0.93687,-4.50365,0.16535,-0.58209,2.86452,-1.13544,-0.37746,2.67579,0.00856,1.21815,0.2831,-0.01552,-0.07913,0.53081,-0.10994,0.26433
457,-10.687,-27.03253,5.99564,-8.55394,-3.0074,-0.33734,-28.63564,-55.43814,10.01001,-0.1588,-15.95007,-4.60383,-15.74742,22.47909,0.92905,-10.04275,-0.98932,-0.42553,-6.74579,-26.63651,-6.18929,5.24062,-4.1043,-5.3101,7.26279,0.05865,-0.45212,3.96479,-3.33302,0.6005,3.01374,-1.35953,0.57097,3.43479,0.02067,0.04802,0.39079,-0.07265,0.16461,0.42508,-0.04396,0.22178
458,-8.59636,-26.88206,5.46384,-8.97604,-0.83326,-0.23099,-20.03231,-47.79266,6.98313,-7.23483,-2.58342,-0.63592,-15.7636,22.11943,0.9791,-10.34741,-1.0113,-0.30023,-5.1736,3.97733,-0.12908,-15.04664,0.22307,-2.92621,7.13214,-1.79654,-0.27869,9.0069,-5.05493,1.32887,3.29957,-1.56305,0.54787,4.09891,-0.22273,-0.55439,0.5152,-0.11871,0.19993,0.4142,-0.08446,0.08855
459,-7.08724,-26.58958,4.99177,-8.81165,1.82596,-0.04617,-11.64239,-41.75778,4.33944,-12.3444,13.55095,4.83081,-15.75301,21.5621,0.98067,-10.61723,-1.01565,-0.13183,-0.13433,35.54548,8.47751,-16.62726,3.40288,-0.00482,4.28508,-2.59453,0.02868,6.95027,-4.63703,0.7146,3.3715,-1.69995,0.11523,3.82645,-0.4805,-0.6591,0.52649,-0.14293,0.0873,0.386,-0.15198,-0.03007
460,-8.34993,-26.15161,5.08064,-8.4774,1.7698,0.0893,-14.03719,-41.92268,4.82287,-11.91952,13.72156,5.459,-15.76867,21.03428,0.84215,-10.7834,-1.04927,-0.0437,-2.2736,34.23544,9.58733,-11.27847,9.7012,1.66959,3.23604,-1.11641,0.70599,4.59925,-4.51386,0.07439,3.34278,-1.80817,0.51757,2.43976,-0.43895,-1.05042,0.49282,-0.12573,0.03435,0.09958,-0.08059,-0.06348
461,-9.93165,-25.88987,5.43059,-8.10866,-0.99487,0.13689,-22.49476,-47.05809,7.6263,-7.9488,-0.79567,1.11017,-15.82297,20.7638,0.67693,-10.91685,-1.13745,-0.04636,-9.65875,3.85332,2.66233,-12.29389,14.94741,3.25077,4.87912,1.40066,0.84912,6.87858,-5.78185,0.38014,3.44,-1.75016,1.03502,1.15018,-0.1158,-1.87228,0.52645,-0.05271,-0.03277,-0.2866,0.11914,-0.0757
462,-8.22801,-26.68312,5.43166,-7.36046,-2.80501,0.225,-22.51615,-52.72684,9.25025,-3.66285,-11.04767,-1.95797,-15.85002,20.8041,0.63511,-11.17479,-1.21678,-0.02909,-6.97598,-20.67332,-2.80094,-12.12111,12.10974,3.73183,5.56717,2.37206,-0.56946,8.3465,-5.43457,0.97717,3.55772,-1.3393,-0.11773,1.24625,0.08529,-1.62935,0.56719,0.05037,-0.29672,-0.30322,0.18338,-0.06301
463,-4.51589,-28.35599,5.07375,-6.96668,-1.75427,0.35925,-12.59097,-54.29739,8.13612,-1.97106,-7.68827,-0.69121,-15.75376,20.97372,0.66508,-11.60481,-1.25739,0.05454,6.47111,-17.2954,-2.03467,-2.08477,5.45183,0.1421,4.05191,1.71839,-2.22994,3.04207,-1.10289,0.96499,3.48014,-0.88432,-1.95302,2.36544,-0.05302,0.57585,0.49123,0.11096,-0.53912,0.15353,-0.02206,0.05158
464,-3.26213,-29.25117,4.88175,-8.22059,0.17255,0.38708,-5.74208,-50.39909,6.2151,-5.1153,0.8076,1.54091,-15.45661,21.10633,0.61534,-12.05701,-1.28345,0.16745,12.80712,3.18072,0.5042,11.13711,-0.81296,-4.16869,2.26824,1.81666,-1.38894,-4.40562,3.64167,0.18965,3.21292,-0.9671,-1.44066,3.27444,-0.30736,2.59604,0.3305,0.06622,-0.31011,0.65859,-0.26901,0.13786
465,-5.77927,-28.46561,5.12356,-10.22075,0.86973,0.31042,-9.80331,-45.57999,5.77637,-12.04818,5.69762,1.97115,-15.02252,21.22276,0.44888,-12.37523,-1.30732,0.27104,1.25483,17.29642,1.90712,19.69257,-6.89621,-4.00977,1.84403,2.63752,1.63714,-6.17998,4.32899,-0.43762,2.98004,-1.54417,1.40767,3.5776,-0.37489,2.63269,0.23614,-0.05541,0.30976,0.8012,-0.31371,0.13249
466,-8.56166,-26.89714,5.47433,-10.48126,0.62677,0.308,-17.55708,-44.67073,6.94095,-17.46114,7.19562,1.73763,-14.60324,21.34618,0.28876,-12.59556,-1.32707,0.34955,-15.98999,16.53084,4.48797,23.94683,-5.92053,-3.20478,3.44458,1.5027,3.12634,-3.32243,0.99858,-0.802,2.92122,-1.91915,3.11531,3.14169,-0.2214,0.98734,0.24965,-0.13897,0.67324,0.48113,-0.13486,0.0358
467,-8.47427,-25.91317,5.63799,-8.55078,-0.17646,0.40522,-20.60675,-46.92504,8.81268,-15.65479,4.27647,0.67161,-14.27729,21.43047,0.25114,-12.91897,-1.37213,0.38145,-20.36827,4.78988,5.90259,21.74849,4.64539,-6.65056,6.69991,-1.66584,1.26626,-0.9503,-3.11145,-1.2949,2.97669,-1.76859,1.92398,2.27776,-0.11272,-0.98194,0.28234,-0.12676,0.44164,0.01995,0.07037,-0.16269
468,-6.79445,-26.33313,5.73248,-6.43594,-1.56734,0.51838,-22.20241,-50.51232,10.54505,-7.75003,-5.03556,-2.66886,-14.12498,21.49343,0.25014,-13.48219,-1.42721,0.39126,-13.72572,-14.39407,0.57609,7.61572,13.23507,-10.15072,9.68271,-3.84008,-1.6976,0.23584,-5.12203,-1.20177,3.0734,-1.45545,-0.33159,1.87862,-0.22725,-1.71321,0.31791,-0.07915,-0.05718,-0.15075,0.09704,-0.29765
469,-6.015,-27.41156,5.74439,-5.83858,-2.06124,0.66477,-26.11967,-54.17374,10.67044,-2.33393,-12.61228,-5.35775,-14.27419,21.68292,0.13121,-14.14103,-1.42199,0.45016,-10.35312,-29.09383,-6.80053,-10.86547,11.67992,-8.35391,10.03862,-3.26239,-3.08311,1.61775,-5.30834,-0.38937,3.09976,-1.24404,-1.53867,2.26091,-0.45574,-1.25581,0.4081,-0.04941,-0.38409,0.02601,-0.02381,-0.25415
470,-5.54983,-26.87458,5.34204,-6.65118,-0.59195,0.79558,-26.65248,-52.04299,8.48532,-5.3732,-8.26263,-3.26656,-14.62904,22.08149,-0.04214,-14.58885,-1.39774,0.53376,-12.72565,-18.80309,-6.34417,-14.5442,4.40501,-3.25153,7.18987,-0.6477,-2.50116,3.04929,-5.04679,0.22454,2.91684,-1.00887,-1.46505,3.16253,-0.63684,-0.68597,0.49483,-0.01522,-0.41001,0.35682,-0.14827,-0.09305
471,-4.11483,-24.66758,4.69094,-7.4421,1.54189,0.81027,-21.06816,-42.64112,6.13065,-11.88015,5.31182,2.3826,-14.87916,22.46143,-0.13371,-14.74109,-1.446,0.56501,-14.155,14.11892,1.4155,-1.49301,-1.06141,0.22439,3.24624,2.44751,-0.82659,3.78278,-3.36696,0.39261,2.61786,-0.82238,-0.58254,3.80001,-0.62978,-0.08768,0.47312,0.01765,-0.18576,0.5961,-0.20121,0.11158
472,-2.50776,-23.09307,4.33238,-7.21353,2.12637,0.80706,-14.23171,-34.93409,5.61933,-13.1592,13.88728,6.42834,-14.91592,22.66152,-0.1815,-14.86387,-1.57307,0.5313,-9.24313,35.78407,6.91548,5.91792,-0.90056,1.14044,1.25777,4.06076,1.10969,4.29079,-0.18414,0.58538,2.46457,-1.05877,0.86747,3.74112,-0.43902,0.68958,0.35692,-0.02027,0.18925,0.63277,-0.18748,0.26628
473,-1.91205,-23.02365,4.30242,-6.51889,0.80524,0.98992,-9.48199,-35.78894,5.80803,-9.26456,8.67741,6.04041,-14.9291,22.94965,-0.30272,-15.23431,-1.68563,0.51012,1.44849,23.60105,5.24168,-2.87126,3.45636,1.92161,2.18686,2.70868,2.16056,5.40939,1.12096,1.11549,2.66548,-1.67826,1.96882,3.64503,-0.30116,1.14468,0.26181,-0.13034,0.47217,0.56062,-0.1553,0.27949
474,-1.96619,-23.51692,4.25895,-6.38772,-0.56473,1.28838,-6.7821,-42.03392,4.99574,-7.49722,-2.6261,2.99972,-15.02763,23.58683,-0.50656,-15.82079,-1.68454,0.57973,9.10076,-4.57477,0.65037,-9.18515,5.65901,2.8044,3.98405,-0.38113,1.32748,5.91948,-1.23812,1.51778,3.0515,-1.97722,1.43293,3.86245,-0.36228,0.82181,0.24515,-0.1866,0.39971,0.45377,-0.12798,0.11396
475,-1.38249,-23.61665,4.08922,-6.84119,-0.70404,1.36802,-5.98701,-46.01071,3.86007,-10.34315,-7.42947,0.40517,-15.05091,24.4174,-0.68196,-16.40111,-1.63879,0.67141,7.20112,-17.58336,-1.81848,0.33018,0.51782,2.41354,3.83153,-1.71123,-0.46421,3.85393,-3.92128,1.05337,3.07686,-1.50591,-0.30469,3.77626,-0.44806,0.08102,0.24677,-0.10279,0.05241,0.32019,-0.0924,-0.13769
476,-0.52687,-22.89066,4.05359,-5.94326,0.09309,1.2058,-8.64555,-43.87268,4.39867,-10.07602,-3.61095,-0.20968,-14.8922,25.16679,-0.78975,-16.77019,-1.66956,0.69122,2.40091,-8.21483,-1.6467,12.70722,-8.95349,2.3865,1.37412,0.37725,-0.94732,0.20787,-3.57969,0.022,2.55722,-0.81304,-1.14783,3.26014,-0.39542,-0.20685,0.21592,0.02667,-0.18209,0.24534,-0.06492,-0.2399
477,-1.42024,-21.65151,4.4805,-3.29792,0.63208,1.04862,-16.90129,-40.20842,7.56901,-4.5042,1.28285,-0.10563,-14.71589,25.7854,-0.939,-16.9843,-1.80547,0.64502,-3.26896,3.08509,-0.43598,13.87441,-14.5299,4.79499,-0.51427,3.20527,0.3707,-1.85042,-1.67511,-0.5561,1.9375,-0.6662,-0.1884,2.94101,-0.35584,0.1021,0.19611,0.06313,-0.10831,0.29352,-0.08524,-0.10164
478,-3.50364,-20.2797,5.07883,-1.98936,0.32049,0.89592,-26.87989,-39.51658,11.47398,-4.05485,2.71473,-1.26096,-14.68229,26.39377,-1.14827,-17.29572,-2.0114,0.56924,-17.41282,1.74051,0.23538,7.95693,-12.31762,6.82964,0.94031,2.9425,1.38982,-1.2742,-1.33121,-0.47896,1.68756,-0.98452,1.05885,2.9372,-0.46351,0.21797,0.23337,0.01549,0.03683,0.36255,-0.12682,0.05759
479,-3.97704,-19.71741,5.20522,-3.61669,0.65976,0.73237,-30.2951,-40.91667,12.42662,-13.13558,4.99957,-1.84327,-14.84394,27.11699,-1.34999,-17.78952,-2.09856,0.54662,-34.78088,-2.02574,1.11159,3.89789,-4.54329,3.76533,4.64949,-0.24858,0.4854,0.18529,-2.70122,-0.27073,1.95056,-1.18435,0.87607,2.82173,-0.5614,-0.21832,0.30507,-0.01083,-0.03272,0.31988,-0.11599,0.03381
480,-1.8077,-20.32118,4.61191,-5.95345,2.38129,0.75412,-24.11168,-40.78487,9.04119,-22.62171,10.53077,1.10691,-15.22833,28.0191,-1.55451,-18.37325,-1.94954,0.60221,-38.75166,5.37749,3.32475,3.34953,6.09624,-4.08315,7.16014,-2.55073,-1.31633,1.36061,-4.0685,-0.23701,2.66604,-1.1538,-0.42545,2.81301,-0.6302,-0.77703,0.36188,0.01338,-0.22337,0.25088,-0.08829,-0.11067
481,2.12505,-19.90895,3.41324,-6.31889,3.31391,0.97878,-11.37016,-35.00216,3.92231,-24.03405,14.03263,5.59842,-15.6862,29.03158,-1.76421,-18.94117,-1.8269,0.59999,-23.41148,21.77718,4.81517,5.57755,17.03739,-11.31255,7.24248,-2.09827,-2.12088,2.37123,-4.79531,-0.38589,3.34098,-1.15799,-1.23574,3.36734,-0.87255,-1.15069,0.3336,0.02664,-0.24247,0.32714,-0.14612,-0.23345
482,5.46722,-17.26892,2.15661,-4.6784,1.60248,1.19387,1.99381,-26.20789,0.49149,-18.04857,10.31678,6.71034,-15.96233,30.03871,-1.99092,-19.44806,-1.96016,0.46582,1.9531,30.88808,3.26374,10.32667,21.71625,-12.92303,6.13259,-0.73634,-1.51741,2.8329,-5.26695,-0.52579,3.20052,-1.18352,-0.8146,4.01478,-1.16637,-1.31961,0.19625,-9e-05,-0.04687,0.49468,-0.25322,-0.28544
483,6.43558,-14.67019,1.56301,-2.55671,-1.45666,1.29097,10.57555,-23.50867,-0.25665,-10.2939,1.40856,3.22735,-15.94003,31.15079,-2.25912,-19.879,-2.16406,0.31615,24.4423,20.39775,-0.2704,13.27462,13.74994,-8.30566,4.59255,0.06453,-0.32691,1.94256,-4.73585,-0.21956,2.32788,-1.0897,0.17821,3.83308,-0.99672,-0.81299,0.09143,-0.03792,0.16405,0.50296,-0.24139,-0.16209
484,5.31837,-14.52142,1.93088,-1.06078,-3.21829,1.29093,9.85207,-30.4989,1.23736,-6.59398,-5.27901,-1.12753,-15.73764,32.58878,-2.57242,-20.3191,-2.23627,0.24553,30.05212,-1.70682,-2.65122,9.20125,-1.27153,-1.65995,3.09682,0.9181,0.59171,-0.03266,-2.08237,0.45274,1.70881,-1.01246,0.83597,2.87108,-0.25672,0.58738,0.15569,-0.06725,0.24723,0.27482,-0.06014,0.18546
485,3.77688,-15.90617,2.81257,-0.52849,-2.66822,1.27744,-0.06934,-39.2915,4.01504,-9.2559,-4.68266,-1.81667,-15.53845,34.34726,-2.88809,-21.00041,-2.26572,0.21261,12.34044,-15.37152,-1.30348,1.40583,-9.02136,2.56239,2.70274,1.9554,0.57851,-1.21633,0.41218,0.5484,1.88836,-1.07708,0.66841,2.40244,0.1924,1.43992,0.32265,-0.08275,0.16888,0.11151,0.06689,0.41184
486,3.40952,-16.15714,3.38024,0.10143,-0.97688,1.4149,-12.39289,-39.72181,6.17539,-14.39859,0.29955,1.58234,-15.42734,36.20827,-3.13235,-21.99526,-2.37334,0.17272,-16.12425,-12.59986,2.06264,-2.56675,-4.95631,4.37598,3.24869,2.08939,-0.37882,-0.31842,-0.55591,-0.14526,2.38603,-1.1067,-0.24969,2.93584,-0.34144,0.541,0.43132,-0.0706,-0.04715,0.23142,-0.06337,0.1928
487,4.74162,-14.5449,3.19076,1.8757,0.5535,1.69405,-19.21357,-31.32361,6.10287,-17.38355,3.67384,4.78715,-15.42437,37.99546,-3.30512,-23.12519,-2.48835,0.16728,-34.59038,-2.33866,2.00604,-0.60971,1.9155,5.5158,2.9719,0.83762,-1.23649,1.12271,-3.37347,-0.56698,2.4422,-0.95545,-1.14005,3.24052,-1.10993,-0.79993,0.39506,-0.03202,-0.26517,0.38366,-0.27014,-0.17218
488,7.33232,-12.65526,2.46371,3.55079,2.05379,1.75803,-16.88458,-23.00189,4.09061,-19.72364,5.62211,4.50016,-15.47733,39.62444,-3.48673,-24.28977,-2.51776,0.21226,-35.54713,6.66042,-2.24623,5.38134,0.88258,5.75175,0.93091,-0.93352,-0.98818,1.25227,-4.13845,-0.27282,2.1051,-0.81671,-1.26254,2.9457,-1.09477,-0.91819,0.28557,-0.00443,-0.31094,0.41201,-0.29243,-0.25203
489,9.44226,-11.83093,1.85147,4.63136,3.53899,1.45049,-9.49424,-21.61879,2.04161,-22.18161,9.74664,2.48403,-15.46372,41.00535,-3.74209,-25.47092,-2.55798,0.19537,-26.65722,13.87498,-5.10317,11.90468,-11.60599,4.74211,-1.70285,-1.70328,0.05969,0.98389,-3.27184,-0.06559,1.89877,-0.84766,-0.78707,3.1217,-0.65682,-0.51475,0.20002,-0.0098,-0.17054,0.48052,-0.20161,-0.19587
490,8.7819,-11.43526,1.89037,6.9958,3.98339,1.16191,-5.75413,-23.79994,1.72184,-20.84684,15.03588,2.08649,-15.33796,42.0989,-4.05867,-26.66417,-2.75127,0.03029,-18.26292,21.31371,-3.13806,15.78413,-26.07157,2.67119,-2.71998,-0.50241,0.73216,1.5514,-2.86083,-0.09517,1.8226,-0.83611,-0.3742,3.80122,-0.5252,-0.40645,0.10735,-0.00286,-0.02626,0.56186,-0.16159,-0.18306
491,6.14954,-10.20387,2.35157,11.04718,2.81776,1.29666,-8.02551,-23.25816,3.08526,-15.5699,16.04762,2.92806,-15.18738,42.95803,-4.32926,-28.00741,-3.01706,-0.18277,-14.70228,24.03861,-0.13957,18.88887,-25.95907,-0.84415,-0.75693,2.11137,0.46429,1.62776,-2.45128,0.01538,1.7564,-0.64459,-0.25143,3.87178,-0.61684,-0.06923,0.00983,0.06846,-0.02646,0.46046,-0.14818,-0.02168
492,6.0146,-8.50789,2.38024,14.69024,1.06888,1.81155,-8.05689,-21.45848,4.08441,-11.02156,11.20799,3.05154,-15.10286,43.64276,-4.42622,-29.62925,-3.09844,-0.27332,-10.63717,14.40925,-0.24407,22.15101,-8.49859,-4.79614,3.2293,4.14945,-0.11113,-0.08201,-1.18519,-0.02854,1.87512,-0.57859,-0.0293,3.07254,-0.65033,0.57635,0.01387,0.14349,-0.06832,0.24205,-0.1281,0.27001
493,10.44219,-7.42579,1.60156,16.26539,0.75955,2.31004,-0.27326,-21.75208,3.21602,-11.94675,7.96722,3.38242,-15.06003,44.16861,-4.34347,-31.52138,-2.88287,-0.18678,-4.87544,0.54312,-1.00959,19.92691,11.14474,-7.88523,6.47208,3.46151,-0.18198,-2.74918,0.5219,-0.5445,2.07785,-0.93135,0.57439,2.07571,-0.54534,0.94508,0.13367,0.09181,0.03119,0.11613,-0.13805,0.3296
494,15.76183,-6.78556,0.669,16.70959,2.67704,2.45402,8.39639,-20.60702,1.71257,-18.47738,12.98549,5.08716,-14.92315,44.47309,-4.20993,-33.62584,-2.57687,-0.03421,-7.14644,1.08921,0.66789,11.95762,19.10368,-10.42314,7.21006,0.20048,0.08371,-4.03503,0.94529,-1.02642,2.12175,-1.47957,1.07803,1.82013,-0.47188,0.69531,0.26967,-0.06902,0.18902,0.1607,-0.18845,0.0551
495,17.30006,-6.10495,0.43944,18.13631,5.27027,2.33997,9.31493,-15.40147,1.463,-23.76292,20.70172,6.23947,-14.60421,44.42744,-4.16349,-35.84274,-2.42652,0.03102,-17.64425,15.51667,2.04408,7.83114,11.58744,-10.31966,6.11592,-2.29087,0.11467,-2.03899,-0.84438,-0.59246,2.11957,-1.72488,0.93036,2.92091,-0.65831,0.24788,0.35381,-0.15722,0.17466,0.33502,-0.25224,-0.19626
496,14.74733,-5.03687,0.85131,21.27045,6.4256,2.38323,2.91181,-9.67586,2.03293,-21.37675,20.91937,4.96,-14.11362,43.90823,-4.17175,-38.04573,-2.45458,-0.04374,-24.19221,23.60049,-1.08124,14.38994,-7.46388,-3.34015,4.5947,-1.28498,0.13097,1.61288,-3.00649,0.73932,2.36956,-1.60134,0.49227,4.26755,-0.8064,0.30516,0.41479,-0.09773,0.0408,0.42934,-0.22584,-0.11646
497,11.77446,-2.99455,1.03372,25.20228,5.95853,2.80559,-2.87708,-6.3182,1.60839,-14.81573,14.18756,2.95537,-13.42322,42.81224,-4.03081,-40.20339,-2.53846,-0.1619,-22.40331,15.62661,-6.59078,28.26743,-23.55296,8.68072,3.1181,1.50276,0.33103,3.8817,-4.04032,2.08419,2.80661,-1.39018,0.1842,4.46356,-0.59438,0.73068,0.45554,-0.00252,-0.01245,0.34799,-0.08429,0.16663
498,11.21678,-0.32768,0.58306,28.72335,6.03351,3.39815,-0.73042,-4.35832,0.09684,-13.51663,11.22708,3.44621,-12.46879,41.07912,-3.65625,-42.34458,-2.50628,-0.12474,-18.87343,4.37243,-7.02072,39.56198,-21.08999,17.63294,1.19653,2.64373,0.24332,4.17356,-4.8927,2.82974,2.88225,-1.13785,-0.29876,3.82037,-0.35348,0.8004,0.37917,0.02655,-0.01217,0.30046,0.00054,0.31186
499,11.8916,1.30067,0.21082,30.7448,8.07376,3.74755,6.02206,-2.58185,-0.24734,-22.03858,18.05708,6.34073,-11.26422,38.70726,-3.20978,-44.4844,-2.32888,0.11271,-23.75734,5.23611,-0.50295,41.16753,-6.57603,18.42483,-1.71869,2.0249,-0.19005,2.73275,-5.68185,2.58756,2.3207,-0.73136,-1.16129,3.12277,-0.47631,0.37386,0.1815,0.02405,-0.12563,0.36707,-0.09011,0.20685
500,10.91588,1.68723,0.51896,31.23871,10.67273,3.69406,6.03264,-0.62961,1.37392,-34.21228,29.25237,8.61795,-9.94623,35.84022,-2.82686,-46.65391,-2.18976,0.33245,-41.46751,17.2592,5.01948,37.65847,-3.38727,12.91339,-4.80489,2.07996,-0.4032,-0.17052,-4.55167,1.11204,1.56672,-0.24607,-1.93025,2.42904,-0.76032,-0.0535,0.01907,0.06903,-0.357,0.34639,-0.22258,0.00543
501,8.148,2.52728,0.90853,32.25012,12.5763,3.51062,-2.68948,1.02544,2.06731,-37.17449,38.09596,9.87317,-8.71943,32.79057,-2.46241,-48.8749,-2.15411,0.37354,-57.64229,29.70735,4.08764,35.78582,-15.74701,5.86427,-5.34199,3.35928,-0.13216,-1.90133,-1.73544,-0.69404,1.50058,-0.13956,-1.90229,2.09174,-0.88835,-0.22204,0.0617,0.12997,-0.46481,0.21065,-0.24408,-0.1379
502,6.24186,4.29749,0.58835,35.2785,14.02238,3.56591,-8.50512,1.20538,-0.12963,-26.52411,42.38378,11.56266,-7.69477,29.74504,-2.05303,-51.15582,-2.08162,0.30206,-52.41216,34.30199,0.85129,35.10736,-22.70508,-0.91812,-2.00328,3.88178,0.22225,-1.52163,0.32637,-1.75394,2.18117,-0.65847,-0.98879,2.34112,-0.86344,-0.30846,0.24452,0.10104,-0.27846,0.13244,-0.18741,-0.20424
503,6.17835,5.7238,-0.06535,38.61905,14.42405,3.97461,-6.11223,0.39944,-2.32974,-13.70009,39.52768,11.64881,-6.7847,26.52015,-1.62488,-53.47176,-1.86378,0.23853,-34.42273,25.97461,-1.31728,39.30847,-14.60192,-7.10632,2.29488,2.57271,0.30114,-2.39472,0.42147,-2.10074,2.70962,-1.38203,0.05183,2.63009,-0.84988,-0.33064,0.33945,-0.03117,0.0406,0.18054,-0.16675,-0.15573
504,5.90069,5.94432,-0.13484,39.11036,13.60655,4.46459,-3.13366,1.33773,-1.16281,-12.66845,30.5568,7.90754,-5.84146,22.87785,-1.24789,-55.66962,-1.54219,0.24652,-31.30917,9.92321,-3.68082,55.76822,-5.61613,-9.58414,3.41925,0.48427,0.21598,-5.59453,-0.59047,-1.98952,2.79468,-1.80808,0.32218,2.62945,-0.87009,-0.0729,0.29199,-0.16037,0.22373,0.2917,-0.21571,0.02227
505,4.08909,5.96266,0.26329,36.48851,13.5101,4.71086,-2.64956,6.87557,1.69398,-23.37951,23.49097,3.44159,-4.87404,19.04499,-0.96003,-57.50384,-1.3204,0.32302,-45.70494,2.52004,-5.32799,76.6421,-5.10962,-7.52914,0.74182,-1.33174,0.02544,-8.42977,-0.91229,-1.74945,2.96733,-1.80086,-0.49102,2.44863,-0.78213,0.34979,0.22497,-0.18436,0.16769,0.37451,-0.28429,0.13076
506,1.88378,7.43588,0.19003,34.41328,15.36238,4.81592,-0.95092,16.76078,2.20289,-33.65415,23.23377,2.45793,-4.02851,15.56983,-0.74794,-58.84401,-1.36938,0.40675,-57.52449,9.65634,-4.90506,82.37234,-6.62879,-3.91307,-2.60864,-2.08051,-0.09318,-8.80408,0.17997,-1.78461,3.49496,-1.59354,-1.57565,2.24409,-0.5786,0.60825,0.25982,-0.10381,-0.01007,0.3794,-0.31776,0.05205
507,0.25022,8.99203,-0.28188,35.36268,18.12067,4.9723,-1.15817,22.687,0.35324,-34.66403,28.54221,5.18163,-3.35451,12.59246,-0.58011,-59.77924,-1.60526,0.4349,-60.84602,18.57479,-3.27457,68.21356,-8.14347,1.79984,-3.41151,-0.33201,0.67707,-5.98379,0.78362,-1.59403,3.87905,-1.53963,-1.20965,2.41671,-0.54633,0.57582,0.3759,-0.00808,-0.00134,0.3459,-0.29835,-0.01989
508,-1.24867,8.10233,-0.26425,36.50208,20.08232,5.01074,-8.50479,17.42662,-0.73448,-30.09696,36.20388,8.83637,-2.73778,9.8341,-0.4136,-60.57471,-1.80457,0.40127,-65.90839,18.66133,-1.81469,50.58167,-14.95198,10.15168,-1.53583,3.59046,2.45707,-1.81135,-0.15299,-0.65732,3.58144,-1.6831,0.99172,2.98972,-0.63748,0.53422,0.45082,0.02289,0.35115,0.31685,-0.21513,0.07386
509,-2.67892,5.43063,0.24397,34.68721,20.31061,4.86778,-16.48886,6.4756,-0.24824,-27.3157,40.50433,10.35225,-2.11208,7.19901,-0.24498,-61.45691,-1.80481,0.36739,-71.88543,10.56876,-2.57605,47.25632,-22.27096,13.76834,0.51052,6.02289,3.50694,-0.85066,-0.96853,0.0056,2.92644,-1.80651,2.71094,3.2774,-0.53023,0.58124,0.45756,-0.02243,0.66046,0.29526,-0.11265,0.15359
510,-3.00995,4.06288,0.27041,31.49442,19.11182,4.76203,-13.73429,1.28693,-0.31423,-29.40807,39.0686,9.37859,-1.55541,4.92263,-0.12552,-62.39878,-1.67017,0.33757,-69.87539,2.45581,-4.96265,60.80769,-19.85402,7.32449,0.84832,4.11202,2.26278,-3.38322,-1.40066,-0.22675,2.51174,-1.7304,1.73998,3.08459,-0.48216,0.316,0.43151,-0.0951,0.41641,0.32957,-0.11633,0.05136
511,-1.70116,5.53883,-0.69147,29.93521,18.42744,4.67116,-0.85729,5.39667,-2.12366,-36.14215,39.73746,9.15541,-1.1421,3.20648,-0.09374,-63.17682,-1.62918,0.25309,-63.66037,5.77301,-3.67336,76.19615,-9.75157,-1.60848,0.16182,-0.12022,-0.17408,-3.81065,-3.10243,-0.11226,2.21903,-1.42427,-0.76009,2.82813,-0.89078,-0.34565,0.3226,-0.11761,-0.19195,0.40292,-0.23499,-0.08456
512,1.39544,4.3235,-1.50859,30.2473,19.84391,4.44883,11.63408,6.35547,-3.28348,-42.86168,47.45161,11.16175,0.25552,-0.33821,-0.01097,-63.61309,-1.75314,0.1655,-61.30137,11.88741,3.39393,78.62436,-3.12675,-2.77411,3e-05,-2.28226,-1.22769,-0.1639,-5.52606,0.94961,2.17816,-1.32946,-1.88241,2.61203,-1.40944,-0.86637,0.2134,-0.09449,-0.48261,0.39013,-0.30649,-0.08931
513,2.27157,6.13538,-2.04964,30.64297,21.59521,4.28478,9.67538,13.32291,-3.39407,-44.75374,52.42155,11.71082,0.21659,-0.21703,-0.11203,-63.78112,-1.89254,0.17455,-67.67638,24.47153,4.89228,74.69897,-5.62527,3.01732,-0.52194,-1.17441,-0.33812,3.21181,-6.46729,1.78588,2.59892,-1.65325,-1.22262,2.65122,-1.58782,-0.86197,0.21076,-0.09729,-0.26332,0.31071,-0.26326,0.00633
514,0.16632,5.85088,-1.5716,30.41515,21.08366,4.44495,-3.60715,15.3481,-1.83266,-42.64001,46.34962,8.50544,0.07476,-0.20703,-0.29024,-63.91946,-1.87248,0.25345,-79.88546,19.72739,-1.15332,80.9025,-10.8432,5.7925,-2.61514,0.21836,0.66068,2.69648,-4.92327,1.38104,3.16112,-2.0004,-0.80171,3.04907,-1.40307,-0.35917,0.30467,-0.16476,0.04514,0.29529,-0.2163,0.09261
515,-3.85349,4.91222,-0.81393,30.30748,19.46141,4.74784,-16.32488,12.07055,-0.67167,-40.07805,38.64685,5.8574,-0.20083,-0.18357,-0.54505,-64.16132,-1.68134,0.29162,-90.23351,6.24825,-6.35679,95.83265,-10.19789,-0.07669,-4.21546,-0.01386,0.52551,-0.84115,-1.94995,0.17813,3.66134,-2.13072,-1.38215,3.22706,-1.01873,0.36054,0.49155,-0.25039,0.1069,0.34154,-0.25132,0.10005
516,-6.82598,4.34887,-0.53653,30.24094,19.34654,4.78881,-18.15805,6.05038,-1.06503,-39.52195,41.66465,8.18764,-0.47848,-0.12522,-0.785,-64.45434,-1.52449,0.22477,-91.24398,2.43231,-2.92017,102.41639,-8.49423,-6.50196,-3.3764,0.45332,0.32359,-3.89006,-0.01565,-0.62948,3.7438,-2.02493,-1.36614,2.78947,-0.70761,0.7353,0.62332,-0.23191,0.04696,0.36994,-0.32103,0.03772
517,-6.75315,3.88681,-0.72461,29.40128,20.41132,4.55734,-9.87741,2.22927,-2.15921,-41.6894,51.47028,12.91853,-0.58698,-0.11568,-0.86296,-64.7376,-1.51696,0.11511,-83.01722,13.32125,4.70046,92.80663,-13.74982,-3.83601,-1.03073,3.08885,1.0994,-3.92008,-0.31951,-0.45483,3.2502,-1.77192,0.12679,2.18508,-0.64008,0.54576,0.53801,-0.06773,0.04754,0.36495,-0.32719,0.00917
518,-4.57495,3.88414,-0.96547,28.4735,20.41443,4.463,-2.33774,4.41591,-2.6311,-44.42661,54.35796,14.04643,-0.43807,-0.13983,-0.68369,-65.06504,-1.50198,0.0777,-74.75784,25.34851,6.14336,75.66551,-17.14763,3.15412,1.3627,4.95067,1.99301,-2.11847,-1.63382,0.19912,2.76013,-1.66457,1.72845,1.72528,-0.65893,0.16674,0.32907,0.09635,0.08097,0.26399,-0.20205,0.06858
519,-2.81626,4.93144,-0.98868,29.092,18.80843,4.80803,-4.54445,10.11917,-2.11621,-43.74415,45.35913,10.39119,-0.11185,-0.08134,-0.34055,-65.43504,-1.3397,0.13666,-75.50922,22.16835,-0.87467,64.80237,-8.22104,4.46164,2.69564,3.39185,1.98455,-1.65353,-2.79473,0.5483,2.75075,-1.81675,2.00567,1.38396,-0.71343,-0.16702,0.20106,0.10387,0.1573,0.05865,-0.03075,0.10467
520,-2.18022,6.08975,-0.82214,30.88746,17.3518,5.40536,-10.92591,12.64367,-1.16381,-40.27167,33.54903,6.73047,0.18235,0.09219,-0.02874,-65.70087,-1.08767,0.23344,-81.98112,5.27694,-7.0625,67.03733,1.82837,0.94869,2.29972,-0.11271,1.25944,-3.29207,-3.52065,0.37107,3.17279,-2.00258,1.00258,1.4477,-0.93632,-0.41451,0.28605,-0.02588,0.26273,-0.03292,-0.015,0.03438
521,-1.55955,6.37323,-0.66914,32.12962,17.4075,5.79013,-10.45923,11.34774,-0.39187,-38.63235,29.83547,6.72281,0.29708,0.21031,0.19369,-65.77353,-0.90168,0.29853,-83.5683,-5.90169,-4.86925,76.23788,-2.21236,0.18038,0.54878,-2.0964,0.71269,-4.53201,-3.32131,0.09303,3.44124,-1.95655,-0.09946,2.13546,-1.11677,-0.32063,0.47426,-0.14683,0.28082,0.14802,-0.16669,-0.02663
522,-0.39334,5.98829,-0.59266,32.50913,18.7719,5.70422,-3.39267,10.89497,0.04452,-39.6288,36.12012,9.08142,0.27778,0.07216,0.43499,-65.77357,-0.88481,0.29466,-77.02746,1.25089,2.21642,82.54393,-12.71833,2.95316,-1.64706,-1.49588,0.50495,-3.06291,-2.61634,0.31404,3.19306,-1.70611,-0.78023,3.07418,-0.9897,0.0677,0.54627,-0.17863,0.116,0.45732,-0.27536,0.03791
523,0.75843,4.56976,-0.27774,33.27948,21.02453,5.31425,1.20068,9.69817,0.5247,-39.99603,47.87869,11.70012,0.29279,-0.27055,0.7554,-65.79449,-1.00907,0.24726,-69.76991,16.21484,8.01429,85.2392,-13.69943,4.46256,-3.14358,-0.23092,0.13295,-0.01002,-3.0361,0.96929,2.94444,-1.64599,-1.41435,3.40373,-0.81272,0.02515,0.48432,-0.18191,-0.16319,0.59336,-0.22221,0.10469
524,1.45353,1.85744,0.35935,34.53907,23.41549,4.98537,0.06679,3.93339,0.97639,-41.20346,58.83385,14.17418,0.42656,-0.49637,1.03313,-65.76494,-1.23626,0.1797,-71.43737,21.71772,10.54746,87.02384,-6.9885,3.8736,-2.87729,0.43321,0.03699,1.35213,-4.67298,1.3676,3.25592,-2.08293,-1.45365,2.78979,-0.925,-0.63718,0.41629,-0.2081,-0.2479,0.43649,-0.10752,0.03849
525,2.39701,-0.22941,0.55539,35.00863,23.83203,4.97986,0.74635,-1.10033,0.37602,-45.69526,60.88068,15.19091,0.57606,-0.36972,1.06179,-65.61954,-1.62845,0.05179,-76.98042,14.89262,8.48837,86.82281,-5.06151,2.96539,-0.99889,1.28145,1.00916,-0.52262,-5.05397,0.91746,3.91968,-2.71693,-0.04744,2.13394,-1.20966,-0.90828,0.41787,-0.204,0.04121,0.20519,-0.11385,-0.06404
526,3.44377,-0.5248,0.04572,34.49881,21.49818,5.25508,5.90505,0.11626,-0.7747,-47.11694,51.23042,12.83084,0.58513,-0.21835,0.76633,-65.38694,-2.05574,-0.09352,-72.73025,4.41302,1.82799,85.75721,-11.08798,0.74095,0.8319,2.58865,2.12203,-4.14298,-2.56495,-0.53676,4.16931,-2.75888,1.62241,2.18853,-1.39953,-0.29146,0.45561,-0.11103,0.36307,0.12753,-0.29428,-0.13636
527,2.10349,-1.21607,0.07548,33.67395,19.03179,5.49584,3.17947,1.04959,0.14417,-41.28703,39.52528,8.56581,0.39727,-0.58795,0.29673,-65.10591,-2.09029,-0.08934,-67.26239,-4.20574,-4.07065,88.19667,-17.6702,-2.67009,1.58784,2.97513,1.73529,-6.59082,0.79841,-2.00023,3.73015,-2.01467,1.58737,2.47589,-1.25492,0.46365,0.48594,0.0094,0.30208,0.16833,-0.42831,-0.17419
528,-0.5576,-0.59396,0.67121,33.29416,18.69293,5.55949,-9.8957,-0.05207,2.23472,-35.51339,36.99664,6.89809,-0.77333,2.62405,-0.22855,-64.65708,-1.62357,0.08412,-73.37754,-2.22823,-4.60245,92.00726,-18.00535,-3.33726,1.6502,1.92664,0.22166,-6.11596,1.222,-1.94296,2.99177,-1.18137,0.19278,2.41564,-0.90051,0.47168,0.44564,0.05591,-0.00056,0.23268,-0.33677,-0.12436
529,-2.65715,-3.65801,1.76148,33.4398,19.71371,5.54784,-19.63624,-12.02786,3.73585,-37.50719,42.72878,9.34812,-1.18974,4.08697,-0.48133,-63.89355,-1.1314,0.23923,-87.79848,-7.35471,2.32165,90.47666,-12.44143,-0.56695,1.29052,0.66039,-0.63853,-3.91639,-2.26154,-0.54107,2.54351,-0.96454,-0.72368,2.01462,-0.91444,-0.43646,0.32854,0.01084,-0.11279,0.27976,-0.17375,-0.04336
530,-0.51556,-4.6075,1.58115,34.17653,20.2138,5.55331,-11.35569,-18.45607,2.23565,-41.6714,47.52293,12.55688,-1.40429,6.38854,-0.51887,-62.83995,-1.05935,0.23037,-84.43295,-9.03293,8.82447,85.17419,-6.82657,0.56633,0.79722,0.03821,-0.45557,-2.39755,-5.70979,0.50651,2.75419,-1.476,-0.71282,1.92579,-1.36136,-1.25601,0.27265,-0.10425,-0.0139,0.34783,-0.17083,0.00905
531,2.40624,-1.60073,0.6286,35.28656,19.9016,5.52018,0.08247,-11.4512,0.40835,-40.72423,47.60454,13.31938,-1.57575,9.07912,-0.56249,-61.70593,-1.26142,0.12286,-71.08514,-0.89701,9.31782,81.76161,-3.88881,-1.78327,0.55221,0.04391,-0.3652,-2.25564,-5.11356,0.47688,3.29725,-2.18588,-0.78215,2.36551,-1.42275,-0.88217,0.34364,-0.23611,-0.06501,0.41513,-0.24984,0.06067
532,2.25337,4.46661,-0.15429,35.44601,19.69351,5.35187,-2.10065,5.34377,0.35047,-38.28291,46.46344,12.04459,-1.93932,11.79156,-0.81024,-60.62098,-1.28342,0.07292,-71.18449,16.67501,4.23611,75.49508,-0.56406,-2.0348,0.48543,0.70577,-0.50133,-1.96459,-2.1413,0.1877,3.49105,-2.43944,-0.94472,2.76322,-0.92369,0.13081,0.43931,-0.28194,-0.26584,0.37412,-0.24902,0.03811
533,0.19121,9.58663,-0.5589,34.49702,19.7997,5.15608,-10.51045,17.3117,0.81655,-37.9034,46.33114,10.90988,-2.52928,14.49217,-1.25073,-59.41602,-0.95097,0.13919,-78.3972,30.0132,-0.88516,63.90621,3.51591,1.40101,0.88317,1.33911,-0.10554,-0.85876,-0.6289,0.21756,3.21587,-2.04714,-0.38851,2.76839,-0.57194,0.57144,0.499,-0.18942,-0.25521,0.23353,-0.19953,-0.09642
534,-0.67204,9.81677,-0.63713,33.93243,19.62634,5.12923,-10.40921,13.04353,0.29062,-37.68886,45.50133,10.49371,-3.20254,17.18913,-1.76031,-57.86587,-0.48495,0.2801,-73.24421,26.11069,-1.78368,61.22074,2.86654,1.66299,1.57124,0.91927,0.44364,-0.66211,-1.03794,0.24558,2.82111,-1.28436,0.31713,2.6936,-0.66359,0.41387,0.48832,-0.02353,-0.02188,0.15706,-0.17613,-0.14547
535,0.9678,5.90923,-0.51639,33.77211,18.9236,5.20435,-1.81772,-0.6926,-0.88639,-38.41772,43.12604,9.87866,-3.72235,19.81725,-2.1911,-56.02313,-0.20324,0.42602,-59.78223,13.26596,-0.19186,73.56432,-6.0848,-2.70623,1.28643,0.01937,0.40275,-2.11662,-1.73796,0.14228,2.84877,-0.86112,0.09727,2.82539,-0.8696,0.3549,0.39715,0.06768,0.12881,0.21082,-0.17061,0.03874
536,3.29284,3.26132,-0.48023,32.47832,18.63386,5.13065,3.03873,-6.31682,-1.66283,-42.80917,42.80791,9.78397,-3.9823,22.38902,-2.47576,-54.1135,-0.16014,0.54271,-57.311,14.17178,1.00062,84.22595,-18.96149,-4.61003,0.4255,-0.32003,0.06439,-3.82805,-1.81215,0.18241,3.43386,-1.25687,-0.5599,2.70071,-0.76658,0.5785,0.30857,0.00103,0.13458,0.23171,-0.09165,0.32503
537,3.50187,4.55056,-0.47297,30.23451,19.3713,4.90229,-2.06731,-0.56872,-1.1098,-48.37158,46.11334,11.27681,-4.16189,24.89743,-2.71779,-52.23334,-0.18573,0.63173,-69.14942,29.81847,3.03985,83.6506,-26.59369,-1.34038,0.84796,-0.03772,0.04312,-4.76567,-1.55106,0.35186,3.76437,-1.88845,-0.43358,1.98981,-0.33248,0.68585,0.25462,-0.11303,0.14603,0.13064,0.07249,0.46378
538,1.97323,6.61253,-0.26184,28.80066,19.23135,4.81937,-8.35183,3.20608,0.85904,-49.03866,45.65276,12.01106,-4.47851,27.23948,-3.04204,-50.37395,-0.21224,0.6593,-76.5724,33.86503,6.40619,79.00105,-24.12992,2.78644,2.0481,0.70652,0.25511,-4.5405,-2.37353,0.35207,3.54455,-1.96358,0.23944,1.60286,-0.352,0.15076,0.26935,-0.11883,0.15596,0.09247,0.06927,0.25673
539,1.30121,6.46159,0.02151,28.6227,16.36239,5.0103,-7.07666,-1.50867,3.00032,-42.15696,36.05683,9.61596,-4.90896,29.37976,-3.42001,-48.54916,-0.24681,0.60613,-65.92448,16.05196,7.32085,70.76612,-14.77415,3.37415,2.17083,1.5183,0.01532,-3.00262,-4.93374,-0.17689,3.60233,-1.5793,0.08778,2.35418,-1.51437,-1.22766,0.42129,-0.03639,0.03861,0.25373,-0.30095,-0.31288
540,1.75593,5.25458,0.12383,28.12267,12.55456,5.16476,-3.20326,-5.98075,3.78547,-33.06484,24.97205,6.03795,-5.29867,31.40482,-3.76679,-46.73169,-0.21617,0.54801,-49.30501,0.16192,3.25559,57.29422,-3.5655,-1.70868,1.65348,1.51471,-0.88172,-1.41522,-6.6735,-1.16708,4.06035,-1.25213,-1.03826,3.39505,-2.80369,-2.48039,0.59506,0.01096,-0.17103,0.45345,-0.71884,-0.83582
541,1.42904,4.75021,0.09845,25.94331,11.10168,4.98909,-4.15102,-3.59108,2.66959,-31.22768,22.52482,4.65656,-5.60331,33.42715,-4.09653,-44.81384,-0.15138,0.56545,-46.20351,4.98472,-2.32613,49.68804,4.89839,-10.34116,1.90283,0.41684,-1.78841,-1.29956,-4.51767,-1.69997,4.11466,-1.12366,-2.00501,3.83558,-2.54351,-1.89522,0.60636,-0.00949,-0.32689,0.56937,-0.71912,-0.70153
542,0.37528,4.06861,0.11406,23.22989,12.89113,4.65382,-6.72857,-0.24402,0.4901,-36.76513,29.03476,6.74868,-5.85522,35.50698,-4.4422,-42.67834,-0.21657,0.65985,-51.99055,21.02519,-3.39874,53.68782,3.19213,-13.59024,2.77289,-0.23866,-1.78938,-2.37532,0.09742,-1.16637,3.61038,-1.18342,-1.7751,3.22889,-0.82989,0.25571,0.49134,-0.04362,-0.33458,0.50336,-0.29366,0.00915
543,0.2056,2.39708,0.20464,22.05114,15.94999,4.48106,-6.58218,-2.68293,-0.75736,-38.54247,37.47084,10.83873,-6.06249,37.49518,-4.74634,-40.3931,-0.41542,0.77781,-48.50977,31.96417,1.27146,58.26348,-11.63373,-5.12514,3.1601,0.72453,-0.77026,-2.49486,1.96332,-0.02473,3.02983,-1.40459,-0.4878,2.32695,0.33333,1.63687,0.41331,-0.06127,-0.22454,0.33481,0.05915,0.55757
544,0.42252,1.41794,0.3392,21.6176,17.24854,4.47133,-7.59945,-8.59604,0.2259,-32.40832,39.11914,12.69684,-6.2642,39.0773,-4.95782,-38.32203,-0.6102,0.82907,-38.62045,29.871,5.78745,54.72758,-25.00251,7.00727,2.46913,2.07895,0.44092,-0.92495,-0.70058,0.9396,2.64681,-1.57852,0.71818,2.28122,-0.05517,1.18747,0.42602,-0.07357,-0.07613,0.25236,0.04149,0.53007
545,-0.06376,1.88952,0.43803,18.89743,15.3465,4.35644,-10.41084,-13.34171,2.04735,-28.91742,30.20891,9.26375,-6.48598,40.197,-5.1091,-36.73007,-0.77391,0.74856,-37.96188,15.20423,4.27662,46.69553,-20.43464,10.06455,1.39928,2.68947,1.26382,0.17888,-3.74351,1.12319,2.58489,-1.60569,1.34181,2.60555,-0.85051,0.10443,0.4675,-0.07748,0.12426,0.18708,-0.1067,0.13825
546,-0.31329,2.10687,0.38717,13.12579,11.94947,3.93971,-8.49018,-15.32839,2.47752,-37.01137,18.61109,3.37159,-6.65355,41.1296,-5.24587,-35.37835,-0.90283,0.59944,-47.41265,1.80296,-1.23757,42.03123,-6.64675,3.89863,1.47055,2.79954,1.57615,-0.62549,-3.66004,0.46509,3.0259,-1.63912,1.64483,2.64406,-1.10287,-0.28731,0.49831,-0.05506,0.36061,0.08469,-0.18031,-0.19068
547,0.11942,0.76885,0.40549,7.59666,9.96538,3.36016,-4.18488,-16.13332,2.13789,-49.72704,16.42506,0.87869,-6.687,42.0331,-5.37108,-33.85862,-0.89814,0.514,-59.26997,3.45802,-3.11337,45.40295,-4.1957,-2.67611,2.73749,2.17617,1.02785,-2.51693,-2.01764,-0.59529,3.7849,-1.64804,1.25371,2.48022,-1.08235,-0.25918,0.52069,-0.01922,0.42563,0.05521,-0.21027,-0.27785
548,-0.63949,-0.97065,0.81752,5.85249,9.65686,3.02394,-8.29464,-18.14516,2.93217,-51.56656,21.91712,3.16867,-6.65612,42.91554,-5.48527,-32.14015,-0.84001,0.47853,-66.43578,12.40769,0.60846,53.78484,-15.75442,-5.15137,3.14961,0.51835,-0.40532,-3.97654,-1.3808,-1.43859,4.18361,-1.39433,-0.30877,2.53067,-1.08295,-0.46022,0.50286,0.00195,0.16758,0.22064,-0.23559,-0.19301
549,-2.80049,-0.99826,1.23563,7.0792,9.32101,3.10299,-18.32056,-19.40721,3.84815,-38.91651,22.91089,6.36908,-6.68577,43.83045,-5.57937,-30.53422,-0.95547,0.39018,-59.34626,14.38033,3.56298,55.75501,-25.88146,-4.85561,1.54915,-1.22361,-1.98825,-4.25972,-1.30622,-1.56469,3.69794,-0.86093,-2.38299,2.84618,-0.90221,-0.49212,0.38129,0.00407,-0.29522,0.48145,-0.23818,-0.04819
550,-3.56306,0.25616,1.07766,8.01836,9.73644,3.3066,-20.58912,-16.81885,3.00783,-25.22619,20.4492,8.39289,-6.78616,44.66133,-5.61781,-29.26565,-1.13479,0.34077,-39.78427,14.98729,3.53345,44.75459,-23.64609,-2.38905,-0.15929,-1.82349,-2.94191,-2.9522,-1.42407,-0.83186,2.6507,-0.436,-3.62419,3.19903,-0.73301,-0.08641,0.19931,-0.01639,-0.68712,0.60593,-0.26322,0.02233
551,-1.73933,0.48971,0.58618,6.89099,11.69044,3.22767,-12.63112,-11.1866,1.46453,-21.74984,23.28454,9.39773,-6.91684,45.19581,-5.59424,-28.23993,-1.12724,0.45495,-22.53243,26.61617,3.59218,30.71126,-13.94553,2.50113,0.69438,-0.87593,-2.70407,0.04054,-3.03229,0.58378,1.84205,-0.58455,-2.93584,3.50235,-0.97152,0.23624,0.11431,-0.0638,-0.73195,0.52041,-0.32483,0.01116
552,0.45923,-1.16864,0.42398,4.31442,12.37588,2.8012,-5.18572,-7.64496,1.39609,-23.30319,26.87195,7.86877,-7.09666,45.4375,-5.5613,-27.14982,-0.96501,0.59914,-13.81216,40.04498,2.84783,29.36943,-6.22185,5.39779,4.06769,0.9921,-1.15453,2.68712,-4.8869,1.73054,1.61454,-1.21924,-0.3783,3.85227,-1.29319,0.38119,0.20049,-0.09844,-0.35248,0.36326,-0.32267,0.06562
553,1.09865,-3.85257,0.72831,1.27662,9.30207,2.30288,-5.78878,-11.72417,2.71927,-23.11716,20.89791,3.07454,-7.31594,45.50564,-5.53938,-25.8626,-0.82306,0.56813,-13.03399,33.82208,-1.23732,44.7533,-3.11584,1.07214,7.02708,2.3966,0.65544,1.43739,-3.89109,1.04893,1.8729,-1.65202,2.17275,3.99888,-1.1946,0.4769,0.35798,-0.05977,0.1829,0.27491,-0.22774,0.14302
554,0.48378,-6.36204,1.14665,-2.24819,4.8804,2.01823,-12.01016,-21.80858,3.66986,-25.98813,8.84615,-1.00601,-7.46306,45.47903,-5.46555,-24.55404,-0.78611,0.41685,-24.39699,9.46764,-5.25048,61.02257,-2.95431,-6.49528,6.9724,2.17812,1.15433,-2.9287,-0.64344,-0.92229,2.52415,-1.40759,2.4914,3.62907,-0.77003,0.55208,0.45669,0.04386,0.46106,0.27937,-0.13714,0.15883
555,-1.18952,-7.99738,1.53489,-4.40534,3.86834,2.13765,-19.24049,-30.1681,3.5991,-32.45905,4.72935,0.66952,-7.48476,45.29245,-5.33507,-23.23626,-0.80138,0.40469,-43.35048,-7.2475,-2.84021,53.6925,-3.13763,-8.90603,4.85411,0.40587,0.13928,-3.82357,0.08602,-1.44456,3.32684,-0.86941,0.68206,3.25321,-0.68265,0.40745,0.50295,0.12046,0.32766,0.32546,-0.1588,0.12007
556,-3.61066,-8.43024,1.79719,-4.24796,6.60766,2.38562,-23.80943,-30.69507,2.85882,-35.44676,12.14184,5.97994,-7.46562,44.72123,-5.21824,-21.8764,-0.80425,0.58036,-53.78155,0.19317,3.86126,22.46766,-1.89115,-5.65904,3.27149,-1.30969,-0.94252,1.41052,-3.32766,0.26714,3.4558,-0.65677,-0.94483,3.11385,-1.06926,-0.22419,0.49154,0.09904,0.01231,0.28811,-0.22962,-0.02952
557,-4.90569,-8.3501,1.67938,-4.74735,8.84521,2.1896,-22.80667,-24.58996,1.58497,-33.11699,19.46486,7.62206,-7.54447,43.60325,-5.13146,-20.67076,-0.80066,0.71943,-46.86042,20.79191,5.18967,0.83885,-2.80735,-2.19651,2.09488,-1.09436,-0.72843,6.33831,-6.29909,1.64987,2.41504,-0.89694,-0.83626,2.97176,-1.31853,-0.96641,0.32439,-0.01071,-0.15968,0.21814,-0.24017,-0.22713
558,-3.68582,-9.39234,1.28304,-6.9454,7.48989,1.63073,-17.13201,-19.28373,0.61953,-26.86129,15.45572,3.15356,-7.76867,42.00716,-5.00561,-19.64481,-0.85351,0.68489,-26.29852,30.1999,-1.73143,13.86243,-8.78792,-0.64295,-0.19001,0.74684,0.45385,4.68932,-4.41437,0.65014,1.42127,-1.48486,0.07343,2.9743,-1.11374,-0.92797,0.13421,-0.16622,-0.12909,0.34103,-0.24823,-0.23826
559,-1.38991,-12.14216,1.17016,-9.28064,3.44148,1.20182,-12.04296,-21.27144,1.59253,-21.24863,0.94547,-4.01652,-8.03094,40.12266,-4.7762,-18.63773,-1.01863,0.55766,-8.37462,15.39652,-10.12264,42.89494,-12.67752,0.11175,-2.03824,1.86769,0.99859,-1.61532,0.60601,-1.5499,1.66785,-2.08789,0.15668,2.95967,-0.74926,0.01518,0.12978,-0.2785,-0.10974,0.56044,-0.32125,-0.05304
560,-0.83881,-15.58059,1.6438,-10.11297,0.74351,1.13975,-12.93555,-30.0239,4.25152,-20.19375,-10.93308,-8.53063,-8.22324,38.08178,-4.47621,-17.47729,-1.12866,0.51622,-7.87773,-8.98269,-13.04348,51.79384,-9.32814,1.36836,-0.07136,1.08425,0.34447,-5.61512,2.69697,-2.46737,2.52247,-2.24833,-0.25146,2.6564,-0.65981,0.61821,0.22546,-0.24326,-0.15692,0.56158,-0.36793,0.0499
561,-2.70173,-18.41992,2.29162,-9.20459,2.24414,1.34861,-19.30977,-38.21935,5.84287,-22.52166,-8.33391,-6.47442,-8.34096,35.90498,-4.18029,-16.17788,-0.94668,0.62029,-21.29437,-15.59649,-9.35632,32.66861,-7.92563,5.10807,5.03587,-0.26922,-0.43569,-2.83239,0.28791,-0.67498,2.91165,-1.82415,0.04436,2.25906,-0.52843,0.71724,0.25407,-0.05492,-0.10377,0.26361,-0.2028,0.07215
562,-5.0692,-20.32863,2.61295,-8.1531,5.7719,1.53531,-25.264,-39.8036,4.91182,-24.91248,4.88651,0.84236,-8.4041,33.51142,-3.8969,-14.97184,-0.65042,0.71264,-32.68348,1.27738,-2.00632,8.41782,-17.18241,10.11101,8.40291,-0.2237,-0.26932,4.20478,-2.5732,2.56994,2.70377,-1.22242,1.05088,2.52207,-0.11619,1.26198,0.24136,0.13112,0.1225,-0.01928,0.07415,0.23528
563,-6.36993,-22.08597,2.67702,-8.73424,7.22838,1.42395,-27.77919,-37.1466,3.25161,-25.51708,14.90372,7.05554,-8.45261,30.85257,-3.60317,-14.04571,-0.59767,0.66653,-33.8777,21.31144,4.20082,-0.31217,-27.67484,9.91385,7.44021,1.3402,0.81956,8.14043,-1.94157,4.39372,2.323,-1.13373,2.04695,3.49233,0.19451,2.53639,0.26787,0.12697,0.40142,0.00061,0.1601,0.57946
564,-6.41309,-24.78198,2.78287,-10.81449,5.73916,1.01295,-27.95685,-36.59862,2.94935,-23.65923,14.69051,7.04185,-8.57453,28.04998,-3.31281,-13.38683,-0.72467,0.59519,-27.55423,26.87307,4.97046,8.14157,-25.47828,1.74222,3.99846,2.29492,1.36568,5.35994,1.09222,3.2952,2.11576,-1.43397,1.83421,4.23267,0.014,3.33031,0.31376,-0.01733,0.38761,0.25949,-0.02612,0.798
565,-5.33302,-28.43716,2.95073,-12.07512,3.37632,0.6055,-25.06483,-38.84076,4.15271,-18.20484,9.81569,2.87567,-8.77398,25.25385,-3.05197,-12.76989,-0.77689,0.6355,-15.10971,22.6923,2.42455,24.93935,-15.0903,-5.76165,0.89747,1.60678,0.54262,-0.32127,1.19235,0.03073,2.13005,-1.42729,0.24862,4.21157,-0.73277,1.73198,0.34281,-0.1009,0.00439,0.52036,-0.28715,0.46651
566,-4.12733,-31.79343,3.08341,-11.34038,1.85912,0.42542,-19.16647,-39.39334,5.72903,-12.08324,7.62452,0.04163,-8.92084,22.51011,-2.84825,-12.03069,-0.79315,0.70375,-1.17271,21.1646,2.14756,38.06905,-8.88026,-3.4372,-0.64584,1.05376,-0.42603,-3.35854,-3.42571,-3.13627,2.37059,-1.12878,-1.1113,3.85581,-1.69072,-1.81702,0.40198,-0.07792,-0.30338,0.63377,-0.44226,-0.3024
567,-4.36342,-34.16217,3.18663,-10.75578,1.29366,0.38597,-15.9969,-38.09267,5.96252,-12.0657,6.3576,-0.20661,-8.91087,19.8744,-2.6942,-11.36602,-0.89399,0.63236,1.98691,19.45053,2.80465,38.66634,-7.6407,5.06416,-1.44633,2.31022,-0.31973,-1.82381,-8.999,-3.85526,2.60626,-0.96184,-1.1807,3.74069,-2.3041,-4.34957,0.43612,-0.04028,-0.23473,0.58782,-0.46789,-0.85462
568,-6.44093,-36.53784,3.39035,-11.65125,1.91594,0.45364,-23.0433,-41.01,4.43354,-16.52101,3.10911,0.71588,-8.80403,17.40476,-2.54788,-10.97968,-0.91807,0.48716,-10.23673,9.94219,-0.12149,28.26795,-6.93416,8.48625,-1.73759,3.77396,0.50365,2.13858,-11.66546,-1.73498,2.4312,-1.00844,-0.38671,3.84576,-2.22983,-3.95127,0.3152,-0.03385,0.02625,0.43476,-0.38553,-0.74598
569,-8.07472,-38.85883,3.60703,-13.19173,3.28031,0.53577,-34.61664,-47.60925,3.25261,-19.16503,0.31914,1.25039,-8.67295,15.06486,-2.33841,-10.8114,-0.77362,0.46063,-25.02008,0.52681,-5.0072,12.4162,-3.68818,0.68404,0.51419,2.59552,1.00075,4.07949,-10.311,0.46526,2.05375,-1.26677,0.62589,4.01722,-1.71769,-1.93116,0.11902,-0.04988,0.24089,0.33108,-0.27233,-0.27636
570,-6.53702,-39.70799,3.55567,-14.56184,3.21056,0.33382,-34.30355,-48.75307,4.20876,-19.75101,-0.70627,-0.46383,-8.47149,12.76288,-2.00392,-10.70104,-0.7072,0.5346,-25.02492,2.53651,-7.0652,-4.63483,1.65803,-10.70751,5.00822,-0.20704,0.9289,1.94094,-5.50945,0.28292,2.09099,-1.82247,1.47061,3.77348,-1.12472,-0.4229,0.04348,-0.09061,0.33559,0.31242,-0.17942,-0.0082
571,-3.56419,-40.15178,3.43127,-13.5318,1.6554,0.08317,-22.8585,-44.24284,6.15329,-17.285,-0.16049,-3.07174,-8.20085,10.4547,-1.636,-10.35225,-0.76513,0.58392,-10.8626,10.16089,-4.73773,-9.64988,0.19337,-10.90599,6.90661,-0.94102,0.47495,-0.15131,-0.31814,-0.6275,2.64108,-2.30435,1.26069,3.05981,-0.63073,0.31991,0.14836,-0.12926,0.1833,0.30417,-0.11871,-0.00942
572,-3.17125,-41.48644,3.54955,-10.80579,0.95084,0.13917,-18.27032,-41.22882,6.63414,-14.22887,1.11985,-4.0326,-7.9403,8.36695,-1.40704,-9.85728,-0.69331,0.5948,-5.88279,11.33423,-1.7219,7.54257,-11.11662,1.06553,4.34448,0.56035,-0.50529,2.00644,1.23735,0.45796,2.98,-2.0183,-0.36272,2.79948,-0.43737,1.06137,0.30042,-0.10239,-0.25084,0.34374,-0.13175,0.00364
573,-5.71645,-43.49859,3.82059,-10.1432,1.92412,0.3736,-26.82001,-43.72593,5.21065,-14.18698,1.69474,-2.77769,-7.73864,6.83292,-1.40355,-9.65822,-0.48688,0.61953,-17.38034,4.70194,-1.3651,27.38585,-18.56366,10.30615,2.27519,0.99746,-1.63625,6.1238,-0.97683,2.93872,2.48799,-1.07629,-1.7495,3.51716,-0.58806,1.98227,0.35667,-0.02449,-0.57969,0.47159,-0.21458,0.15771
574,-7.74922,-45.81122,3.88329,-11.63011,3.56809,0.61486,-36.23985,-49.76368,3.34212,-13.4066,2.45887,0.17898,-7.60267,5.78871,-1.54818,-9.75915,-0.33754,0.69494,-23.01608,0.05132,-2.74209,22.78466,-13.25289,8.56979,4.24152,-0.49995,-1.88992,8.0247,-3.97781,4.27165,1.36873,-0.30965,-1.21457,4.61675,-0.89597,2.40342,0.27634,0.03318,-0.41177,0.56837,-0.27876,0.35788
575,-6.81064,-47.46186,3.49988,-13.04021,4.75271,0.74059,-36.17225,-53.0957,1.99247,-10.47511,4.62014,3.05917,-7.53705,4.79692,-1.64813,-9.84872,-0.26166,0.78454,-13.34951,5.24672,-4.01331,5.07003,-6.38961,3.30956,7.14362,-1.37428,-1.12865,7.16679,-5.82003,3.49638,0.53342,-0.13302,0.38944,5.2327,-1.13904,1.82357,0.12566,0.06441,0.01807,0.50274,-0.25898,0.50271
576,-4.03705,-47.74374,2.86334,-13.45592,4.81968,0.72219,-28.23216,-51.2891,1.15402,-8.2564,5.9865,4.30802,-7.56278,3.70054,-1.61495,-9.78098,-0.20078,0.80099,-0.08609,13.68517,-3.52485,6.42374,-9.20591,2.74586,6.89348,-0.07907,-0.2382,5.25277,-6.58196,1.60382,1.05942,-0.42031,1.03368,5.23066,-1.25361,0.58991,0.11424,0.09995,0.2017,0.3742,-0.20238,0.52338
577,-2.18187,-47.77547,2.50241,-13.05604,4.25425,0.76276,-20.29253,-48.77237,1.09786,-7.27309,5.30615,4.7666,-7.62893,2.81176,-1.54918,-9.61778,-0.12689,0.78319,7.51986,15.00255,0.19279,23.9162,-14.79815,4.94145,3.59962,2.10826,0.22224,3.99694,-6.69232,0.00426,2.58841,-0.79991,0.34545,4.93378,-1.29114,-0.57142,0.31462,0.12478,0.06934,0.34999,-0.18718,0.33504
578,-2.60769,-48.91539,2.76981,-12.75014,3.92868,0.87471,-20.16124,-49.80096,2.48389,-7.23031,4.19204,4.5982,-7.57488,2.33457,-1.56215,-9.50069,-0.05501,0.8527,5.88918,9.28051,3.72605,23.95687,-12.89315,4.29267,0.6821,3.27126,0.51136,4.30557,-5.59849,-0.33259,3.36032,-1.04215,-0.22416,4.31837,-1.23588,-0.95079,0.49817,0.07192,-0.0247,0.37589,-0.20164,0.00201
579,-4.26907,-50.72208,3.38987,-13.25748,4.08678,0.79357,-28.53123,-53.92909,4.9423,-9.49176,4.39278,2.40063,-7.33101,2.059,-1.65833,-9.48542,-0.05193,1.00261,-5.61561,3.10379,2.12596,0.75332,-4.36222,0.14717,0.69113,2.4476,0.67358,5.02881,-3.5557,0.29466,2.80929,-1.25531,0.07845,3.26888,-1.02997,-0.59883,0.50004,-0.07782,0.09037,0.34982,-0.19314,-0.27493
580,-4.91368,-52.04925,3.67192,-14.15253,4.37676,0.48536,-35.78675,-58.69505,6.59629,-15.08247,5.64142,-1.23963,-7.05928,1.73948,-1.78429,-9.47603,-0.113,1.09594,-20.34239,-1.1554,-2.31295,-11.00775,6.60102,-4.39289,2.51742,0.08072,0.28084,3.89089,-2.82809,0.29845,1.90228,-1.39502,0.3821,2.4745,-0.76998,-0.51948,0.34893,-0.21274,0.19814,0.3839,-0.1681,-0.39825
581,-3.70465,-52.34732,3.24562,-14.53536,4.74396,0.27202,-33.58442,-59.70593,5.82346,-20.24471,7.24213,-2.85609,-6.97531,1.40743,-1.91002,-9.39609,-0.08221,1.05676,-26.10148,-0.8943,-3.53223,9.083,14.51065,-8.30931,4.19307,-1.95378,-0.48112,-0.21804,-2.7593,-0.83407,1.03788,-1.21098,0.26763,2.54908,-0.60004,-0.44779,0.06333,-0.20206,0.14068,0.53289,-0.16314,-0.29703
582,-2.01968,-51.40054,2.41671,-14.43017,5.29604,0.30011,-25.47882,-52.09616,3.27076,-20.74789,9.73155,-0.72194,-7.08514,1.18451,-2.02521,-9.31691,0.16584,0.96031,-19.61314,10.7893,-0.86469,35.86544,8.26547,-11.66034,5.8244,-1.95403,-0.76385,-5.64004,0.57147,-1.56987,0.47366,-0.98513,0.40471,3.29646,-0.72426,1.23114,-0.1846,-0.07901,0.02674,0.68684,-0.23456,0.0691
583,-1.28219,-49.83913,1.82231,-14.35685,5.56033,0.41775,-20.33913,-39.98111,1.39498,-17.14553,11.89345,2.3032,-7.19023,1.12569,-2.09869,-9.32403,0.51361,0.9425,-9.47168,28.69099,1.57075,37.89455,-13.08733,-10.76666,7.14481,-0.19495,0.04029,-7.93235,5.33671,-0.92364,1.08558,-1.32907,1.1111,4.1705,-1.25201,3.6183,-0.0962,0.01161,0.01704,0.74389,-0.3863,0.40713
584,-1.71825,-49.51052,1.87967,-14.40104,4.61016,0.54122,-23.27038,-36.39118,1.80812,-11.8003,7.91602,2.03677,-7.16112,1.26233,-2.12912,-9.42191,0.64033,1.01643,-4.92121,28.83308,-0.40538,16.57676,-28.60159,-2.80266,6.75289,1.3172,1.40491,-3.74611,4.3531,0.54133,2.66485,-2.08302,1.77843,4.53916,-1.75821,3.8428,0.2865,-0.00112,0.12249,0.60364,-0.46882,0.3879
585,-2.58738,-51.07465,2.3029,-14.01916,3.09379,0.79101,-30.85709,-45.20279,3.21497,-5.6455,-2.96926,-1.08735,-7.07179,1.56657,-2.1808,-9.53303,0.47197,1.07001,-3.92868,3.99641,-6.31651,-5.04305,-21.89395,7.08178,4.90167,0.88419,1.57599,4.96161,-3.22052,1.94441,3.45058,-2.2487,1.41041,4.36069,-1.66605,1.53948,0.54909,-0.07423,0.15597,0.32445,-0.34539,0.11121
586,-3.3063,-52.70772,2.47065,-12.85398,3.03999,1.11825,-35.52999,-55.21969,3.36835,0.19905,-10.13597,-2.57201,-7.02634,1.85468,-2.31681,-9.55212,0.29649,1.01688,1.05463,-18.3854,-10.4717,-9.32652,-5.30487,11.73192,3.55847,-0.93443,-0.24258,13.00431,-10.50568,2.59575,2.68155,-1.46108,-0.13742,4.01628,-0.90668,-1.28155,0.48061,-0.1326,-0.03315,0.14246,-0.07482,-0.14595
587,-3.94302,-52.5885,2.25578,-11.9948,3.914,1.0693,-35.54365,-56.48232,2.46495,1.67335,-6.43567,-1.14576,-6.99211,1.89124,-2.50923,-9.47568,0.22355,0.8552,4.48526,-16.27674,-9.37307,1.48652,1.04886,12.49322,3.64938,-2.04685,-2.27112,17.88449,-12.74226,3.08262,1.72787,-0.65301,-1.57527,3.40746,0.01981,-2.73146,0.28236,-0.13935,-0.27025,0.06715,0.16748,-0.20297
588,-4.02346,-50.94331,1.84713,-12.00886,4.39853,0.70291,-31.68005,-50.73623,1.86469,-2.77408,4.66217,2.08444,-6.93079,1.75679,-2.67783,-9.35727,0.25059,0.75199,0.29638,4.45199,-2.66358,8.23201,-3.34615,14.16317,4.4357,-1.57088,-2.55965,19.21489,-11.02966,4.10575,1.96323,-0.71143,-1.75663,2.64203,0.40887,-2.20121,0.213,-0.117,-0.28822,-0.02714,0.24614,-0.10002
589,-3.28174,-50.22859,1.44237,-12.99549,4.6673,0.49836,-24.91916,-47.51631,1.47239,-11.16801,14.05827,5.22057,-6.93954,1.78198,-2.81016,-9.33198,0.42976,0.84236,-7.0521,22.13821,5.8563,1.0402,-7.12575,13.0638,5.24223,-0.32696,-1.14736,13.57852,-7.05236,4.02629,3.04866,-1.50698,-0.72046,2.05481,0.07281,-0.35934,0.34249,-0.12924,-0.07169,-0.11157,0.1602,0.02185
590,-2.55496,-51.91605,1.28792,-14.84789,4.19081,0.42309,-21.76154,-50.39217,0.89169,-19.55311,12.67299,4.08504,-7.07231,2.08091,-2.89311,-9.49236,0.58604,0.97217,-14.50931,20.30912,6.10197,-5.15919,-2.59744,-0.39151,5.68885,-0.04323,0.25788,-1.1002,-1.39597,0.66341,3.7069,-2.10453,0.41872,1.58131,-0.45879,1.38658,0.5369,-0.17648,0.16741,-0.08162,0.0095,0.12238
591,-2.61524,-54.27582,1.47596,-15.02927,3.42752,0.4905,-27.30312,-53.74898,0.80497,-18.78611,3.0605,-0.66295,-7.23908,2.47752,-2.90109,-9.59825,0.62803,0.99582,-16.80824,5.4602,-3.67648,1.01816,8.22094,-22.56361,6.27166,-1.3742,0.39427,-15.49021,2.9887,-4.14427,3.35068,-1.9349,0.87731,1.47465,-0.70063,1.86857,0.64197,-0.19499,0.25938,0.13264,-0.11787,0.15712
592,-3.14958,-54.77267,1.70513,-12.65951,3.79754,0.86148,-34.86939,-53.77635,1.46374,-7.03146,-4.30955,-3.11447,-7.31463,2.85728,-2.89283,-9.50657,0.71194,0.95629,-8.11382,-5.64981,-12.0003,8.58956,11.80337,-32.08167,7.78218,-2.10708,0.08195,-15.69529,2.07898,-5.7538,2.59399,-1.57626,1.14662,2.18369,-0.60904,0.79556,0.62893,-0.16935,0.23221,0.43549,-0.17623,0.04344
593,-3.73449,-53.28223,1.67431,-10.71099,4.98567,1.28049,-36.19127,-52.80234,1.87427,4.39349,-4.33838,-0.52835,-7.25925,3.283,-2.96042,-9.44585,0.84736,0.91047,5.08826,-6.10177,-10.54049,11.17507,-2.18745,-16.56195,7.64959,0.08191,0.70266,-2.6551,-3.17893,-3.02489,2.4565,-1.74377,1.39505,3.67903,-0.51112,-0.60573,0.52731,-0.14231,0.16611,0.69465,-0.22497,-0.0687
594,-4.65292,-51.36626,1.51353,-12.06095,5.19009,1.17834,-33.85211,-50.8158,1.66113,5.1278,0.09949,3.42846,-7.15474,3.72497,-3.09921,-9.61269,0.82711,0.83996,8.36474,3.12397,-3.95687,15.56019,-23.24884,8.5203,2.2661,3.51814,1.7247,9.16802,-7.408,0.69485,3.03028,-2.07721,0.67599,5.75594,-0.89459,-0.45392,0.37168,-0.14812,0.05465,0.95204,-0.39429,0.08095
595,-5.88639,-50.26694,1.53882,-15.19111,3.74097,0.47553,-34.20211,-45.40797,1.96981,-1.90018,4.71376,4.27354,-7.08526,3.96613,-3.21308,-9.75283,0.59707,0.7408,-1.15418,17.86676,-0.05768,17.30998,-30.272,18.07747,-4.0033,4.04514,1.30985,11.62708,-7.7424,2.01583,3.5408,-1.93265,-1.06857,7.53749,-1.50442,0.64986,0.26452,-0.18052,-0.10822,1.20413,-0.57345,0.24849
596,-6.32817,-50.76664,1.72958,-15.62933,2.33855,-0.08518,-35.07699,-41.17731,3.15514,-4.91583,8.25885,2.91653,-7.0556,4.00058,-3.24218,-9.50559,0.42013,0.68446,-6.97961,27.98401,1.6317,5.6971,-19.05537,8.09877,-2.62514,0.57854,-0.66204,8.75597,-5.6584,1.08153,3.52845,-1.5136,-2.10899,6.9647,-1.42025,0.58158,0.29176,-0.19777,-0.19341,1.05038,-0.4425,0.04437
597,-5.13627,-52.8267,1.71766,-12.85968,2.87783,0.10368,-29.95235,-45.47811,3.56714,-0.41111,10.26317,2.96518,-7.08721,4.17122,-3.23365,-9.07074,0.53451,0.7185,3.97678,23.56123,5.26544,-12.08517,-5.30699,-3.33075,5.05369,-3.33277,-2.10593,6.33889,-3.73472,0.4916,3.13042,-1.29748,-1.33332,3.64511,-0.59795,-0.42358,0.3897,-0.1657,-0.08542,0.24834,-0.03294,-0.28195
598,-3.46741,-54.32011,1.34022,-10.51211,4.55689,0.69699,-22.30348,-53.97264,2.19844,2.70687,9.14427,4.19517,-7.23774,4.67247,-3.28194,-8.79839,0.79355,0.77594,17.58271,9.46189,8.17108,-20.44663,-1.66659,-3.18103,10.0232,-3.53981,-1.34718,5.11912,-3.34125,0.95389,2.65593,-1.42317,0.41397,0.43451,0.14848,-0.79304,0.43333,-0.11522,0.12999,-0.59336,0.28507,-0.32413
599,-3.61277,-53.43101,0.99532,-10.30685,5.76995,1.01662,-23.70543,-56.27239,0.52831,-0.41406,6.50787,4.21715,-7.4495,5.27971,-3.4224,-8.542,0.95975,0.7852,13.13645,1.96621,4.84946,-15.26274,-7.84968,4.63721,8.67698,0.28594,1.11064,3.60347,-3.68783,1.30489,2.40258,-1.85345,1.88645,-0.55446,0.43571,-0.23888,0.37922,-0.10142,0.31103,-0.75447,0.33045,-0.1062
600,-5.73916,-51.79813,1.13934,-11.51312,5.06466,0.69349,-35.61002,-52.67601,0.35847,-5.00253,2.7038,1.14868,-7.51708,5.70713,-3.55347,-8.08846,0.90162,0.69136,-5.80827,1.85543,-5.1927,0.49844,-17.12867,11.48864,4.21741,3.92334,2.9909,2.42377,-3.47999,1.54097,2.6976,-2.23329,2.16652,0.10699,0.30777,0.69999,0.31042,-0.10125,0.35247,-0.27566,0.16025,0.17301
601,-7.56122,-52.41988,1.6959,-12.12127,2.29949,0.05379,-45.15064,-51.61794,1.63189,-5.86804,-1.92848,-2.91648,-7.36154,5.88115,-3.56041,-7.42921,0.64524,0.52072,-18.03241,-1.06159,-12.7156,21.49097,-19.40475,13.23841,1.05457,3.54485,2.48206,3.12951,-3.35126,1.57716,3.61313,-2.19122,0.95312,1.61025,0.05328,1.07096,0.35599,-0.06617,0.18128,0.34295,-0.03315,0.27648
602,-7.59554,-54.91593,2.16202,-10.89086,0.13729,-0.19443,-42.35252,-54.17178,3.08368,-4.77622,-1.95439,-2.70665,-7.20567,5.89965,-3.4837,-6.65443,0.4537,0.44742,-14.44911,-2.1024,-7.33048,35.88597,-9.06728,9.74266,2.12515,0.47495,0.25138,4.99129,-4.06843,0.64919,4.17427,-1.80742,-0.59649,3.27297,-0.04546,0.25524,0.46289,-0.02118,-0.11515,0.65373,-0.08804,0.04889
603,-6.37944,-56.35386,2.1663,-8.74634,0.41395,0.1497,-33.19127,-55.50153,3.65061,-3.91375,2.50686,1.09343,-7.31503,5.9208,-3.43025,-5.88546,0.50234,0.59608,-4.04188,3.31595,4.16,31.40204,6.84283,3.18448,6.72856,-1.56766,-1.32204,6.31167,-4.75297,-0.37527,3.14034,-1.40979,-0.70388,4.04085,-0.33694,-0.82801,0.41176,-0.03187,-0.24121,0.56629,-0.11714,-0.30513
604,-4.80166,-55.83489,1.76256,-7.16595,1.74538,0.68591,-29.05387,-55.25485,2.82041,0.4375,3.67552,2.84762,-7.67768,6.03817,-3.40502,-5.22352,0.68705,0.87192,5.79399,5.9177,6.53323,8.87875,16.72932,-4.11124,10.29785,-1.63899,-1.13178,6.69304,-4.6805,0.22433,1.11493,-1.15519,0.57068,3.81048,-1.27369,-0.63075,0.16733,-0.08539,-0.06392,0.38864,-0.31351,-0.41632
605,-3.58925,-54.8512,1.29127,-7.1953,3.32142,1.05205,-31.4873,-54.84095,0.86292,7.9432,2.09764,3.02517,-8.05975,6.25797,-3.36544,-4.81435,0.9439,1.09222,12.50737,5.92214,1.22861,-15.77535,14.02416,-11.11885,9.8619,-1.21605,-0.56397,6.36324,-4.60817,1.54474,0.11513,-0.89047,1.20927,3.80996,-2.12724,0.6656,-0.03854,-0.07035,0.10149,0.43122,-0.55509,-0.20483
606,-3.76738,-54.20008,1.15193,-8.55292,5.73955,1.186,-35.58827,-51.84434,-0.66934,11.62022,4.99902,5.55826,-8.25904,6.51957,-3.33063,-4.61608,1.24518,1.17606,11.43963,14.15983,-0.33502,-24.73712,-1.80528,-14.00131,7.81088,-1.09321,-1.04378,5.31414,-4.85603,1.59455,1.17278,-0.64976,0.20306,3.75728,-1.61933,1.41998,0.02057,0.04399,-0.03179,0.43932,-0.54225,0.15415
607,-5.62589,-53.62202,1.54187,-8.91104,7.13336,1.11849,-38.70456,-46.51102,0.08956,10.23344,9.5258,7.70892,-8.24014,6.60573,-3.34294,-4.10214,1.3189,1.16151,4.24888,23.96436,2.45951,-13.45705,-24.22539,-7.76263,6.80345,-0.89752,-1.91896,4.03522,-4.72748,0.45435,3.20191,-0.7202,-1.22377,2.11826,0.26214,0.66622,0.27963,0.1287,-0.26952,0.00669,-0.15078,0.38206
608,-7.46539,-53.7432,2.16505,-1.17055,1.82959,0.40407,-39.22406,-45.7728,2.73351,21.709,0.85166,2.96482,-8.16101,6.39359,-3.39043,0.10492,0.36484,0.39229,16.90942,11.41071,0.22655,4.10646,-40.75136,3.94228,5.73415,-0.05859,-1.63877,3.45407,-4.3054,-0.55694,4.1752,-1.05208,-1.49481,0.42357,1.79172,-0.51196,0.46447,0.08051,-0.27899,-0.41137,0.26188,0.34965
609,-7.56759,-55.61709,2.52014,-0.61995,-1.98506,0.26305,-37.7983,-52.93105,4.60663,16.97168,-10.27433,-3.86173,-8.26799,6.20834,-3.43736,0.46714,0.03764,0.44231,16.88567,-11.92973,-5.75221,9.28222,-38.06272,11.52002,3.70159,1.45034,0.02939,3.42123,-4.04855,-0.19623,3.44183,-1.31247,-0.41611,0.46668,1.3915,-0.28695,0.46081,-0.02732,-0.0467,-0.33988,0.20369,0.2717
610,-6.5417,-58.47342,2.53385,-2.10026,-3.37736,0.1868,-38.99924,-61.61385,4.44278,9.06771,-16.44114,-6.80133,-8.58776,6.31753,-3.46836,0.20924,0.01762,0.47383,9.53076,-24.29761,-10.57113,3.3943,-13.48543,10.66188,2.39711,2.81333,1.81618,3.92047,-4.27968,0.83871,2.14221,-1.41902,0.99373,1.56413,-0.05534,0.6678,0.35737,-0.08145,0.19692,0.00458,-0.15751,0.2222
611,-5.31507,-59.7464,2.31146,-3.64159,-0.74387,0.02281,-40.78113,-63.04293,3.38008,1.31852,-8.22831,-3.40517,-8.80305,6.39181,-3.45193,-0.19824,0.26687,0.38055,-4.25462,-9.40146,-7.13477,-1.75803,14.47176,4.9133,3.44873,2.77167,2.33944,5.14983,-4.88795,0.8518,1.5168,-1.57104,1.65895,2.47881,-0.63547,0.48268,0.28119,-0.10182,0.2637,0.27043,-0.29925,0.03254
612,-4.59373,-58.32959,1.94628,-1.55091,4.37963,-0.02963,-36.61894,-56.55055,2.36605,4.61221,10.83905,4.21582,-8.69034,6.04234,-3.41918,0.06402,0.58585,0.16451,-1.55353,21.53513,4.76602,-8.93223,20.93401,-0.53495,6.31678,0.62719,1.13495,5.99997,-5.17271,-0.1896,1.76127,-1.72532,1.22088,2.57589,0.03043,-0.65939,0.322,-0.14975,0.14595,0.31925,-0.09557,-0.22176
613,-5.36851,-56.34611,1.78514,2.13857,6.85923,-0.04992,-29.52869,-50.67187,1.37261,15.08007,22.12787,9.00239,-8.39846,5.53924,-3.41345,0.69454,0.59605,-0.14724,16.7396,36.24681,13.04251,-19.75474,7.71881,-3.97752,8.69709,-2.69696,-1.16995,5.78861,-4.73587,-0.74211,2.44673,-1.5135,-0.03646,2.4153,0.7983,-0.99894,0.45386,-0.1768,-0.05064,0.303,0.12911,-0.25095
614,-7.91847,-56.57474,2.25721,2.14101,3.64352,-0.3909,-30.74873,-52.88602,0.92398,17.32265,13.64004,5.7396,-8.20156,5.42316,-3.40943,0.71453,0.09468,-0.46131,21.35489,18.25164,7.83851,-19.70867,1.65216,-5.69546,8.71147,-4.8954,-3.09976,5.24364,-3.86626,0.23996,2.88242,-0.83005,-1.31078,2.24284,0.70384,-0.07454,0.51005,-0.10077,-0.2256,0.26931,0.12241,-0.04294
615,-9.91067,-58.21957,2.98919,-0.51723,-0.52465,-0.70248,-40.05348,-57.94721,1.51965,12.79191,-0.91864,-0.27626,-8.20442,5.7143,-3.34167,0.12793,-0.36177,-0.55482,9.34036,-5.35097,-2.3514,-2.30099,7.54977,-5.22263,6.72322,-4.46555,-3.11325,4.88502,-3.32963,1.5437,2.38834,-0.18443,-1.46471,1.69799,0.13783,0.69843,0.37331,0.02694,-0.2494,0.11055,0.01382,0.09131
616,-8.83368,-58.46794,3.08434,-2.46679,-2.23301,-0.7734,-44.7971,-55.84235,2.21934,11.11645,-8.90985,-4.53441,-8.39273,6.04177,-3.23059,-0.38912,-0.365,-0.4166,2.30147,-9.4993,-9.06066,13.76554,-1.05181,-1.06044,4.25248,-1.94087,-0.72186,4.47846,-3.53969,1.69888,1.20242,-0.34543,0.02838,1.01376,-0.19252,0.60575,0.12595,0.05066,0.01218,-0.11577,-0.0371,0.04406
617,-6.09277,-57.39672,2.58381,-2.38955,-3.11208,-0.75355,-40.1292,-48.6229,2.32134,14.84992,-11.32069,-6.35726,-8.67806,6.25665,-3.18284,-0.36383,-0.23228,-0.27626,9.71716,-2.43979,-11.22494,10.15284,-27.91059,5.72056,2.41064,0.98182,2.69248,4.45188,-4.17846,0.84467,0.67656,-1.51875,2.14022,1.00967,-0.00955,0.15116,-0.01654,-0.0955,0.45603,-0.15557,-0.03306,-0.02902
618,-4.77556,-56.93799,2.41774,-1.18119,-4.81286,-0.78246,-33.33183,-45.04128,2.98613,18.93816,-11.47286,-5.61758,-8.83864,6.53801,-3.19502,0.13373,-0.35603,-0.26307,20.1036,0.54035,-8.66434,-4.50999,-37.9837,8.89173,2.12939,2.21328,4.02771,5.39602,-4.66421,-0.38315,1.66374,-2.62768,2.69235,1.97739,0.80497,-0.35092,0.09142,-0.27111,0.6534,0.13276,0.0285,-0.04332
619,-5.11958,-57.81989,2.92852,-0.37336,-6.02681,-0.7659,-30.21745,-48.67915,4.76211,19.91617,-9.70235,-2.96678,-8.72723,7.08133,-3.14136,0.60391,-0.58771,-0.2584,24.36818,-1.08098,-2.52826,-10.8465,-14.70899,4.69894,3.69752,0.94395,1.50459,5.90137,-4.45758,-1.44264,3.214,-2.29087,0.70439,2.89124,1.64519,-0.641,0.34555,-0.26936,0.29831,0.46133,0.08989,-0.00054
620,-5.18128,-58.93806,3.49049,-1.4889,-2.65098,0.41401,-30.56003,-55.89537,5.75423,12.29835,-2.93525,1.58566,-8.4473,7.92525,-2.94968,-1.33794,-0.59841,0.52129,15.40936,1.43086,3.89626,-4.8137,13.67953,-1.13923,5.88477,-0.88776,-2.34286,4.38184,-3.41316,-1.57099,3.95546,-0.85706,-1.97043,2.71367,1.47687,-0.251,0.54455,-0.07872,-0.33343,0.45642,0.05358,0.07994
621,-4.32873,-59.38834,3.64313,-3.85521,0.35109,0.82693,-33.60017,-61.77734,4.52165,5.43907,-0.72266,2.23135,-8.17704,8.92552,-2.69572,-2.64397,-0.26699,0.82166,3.88841,0.85368,1.99489,4.66001,21.3401,-2.41792,6.8888,-1.14874,-3.57336,2.62241,-2.40388,-0.4128,3.67085,0.04582,-2.75023,1.94513,0.47305,0.6327,0.61191,0.11544,-0.67525,0.19893,-0.03457,0.13965
622,-3.42282,-59.15037,3.55872,-6.83753,2.25577,0.89173,-36.64627,-63.49778,2.34446,-2.1163,-1.32168,-0.35007,-7.98887,9.90352,-2.50911,-4.10647,0.0129,1.01053,-9.56787,-3.99302,-5.43861,6.51188,12.89887,-2.09179,6.41789,-0.23045,-1.77081,3.68223,-2.79015,0.8663,2.7266,-0.19674,-1.37163,1.74157,0.13249,0.90242,0.54302,0.16104,-0.52956,0.04069,-0.01677,0.10551
623,-3.40714,-57.99589,3.59354,-8.59401,2.59852,0.68402,-36.23774,-60.34554,1.59953,-5.07016,-2.39008,-3.44558,-7.91142,10.77837,-2.45093,-5.37936,-0.01471,0.96307,-13.55154,-9.52538,-11.02305,-5.38444,-0.82667,-4.67142,6.13321,0.41519,0.44548,6.78564,-4.37076,1.22665,1.49812,-0.85677,0.42646,1.84363,0.82911,0.1177,0.35561,0.06334,-0.16861,0.03454,0.07852,-0.00069
624,-3.89338,-55.76817,3.82153,-7.62069,2.92572,0.7068,-32.42907,-55.23273,2.97029,-1.6842,-0.16154,-2.68613,-7.92525,11.54724,-2.41978,-6.43614,-0.26906,0.76021,-6.38651,-9.07203,-7.80062,-19.36058,-13.06951,-7.66274,7.02212,0.13367,1.23196,8.08636,-5.22142,1.24862,0.73685,-1.26271,1.29884,1.21375,1.14919,-0.7434,0.15384,-0.0679,0.12872,-0.00992,0.05408,-0.0828
625,-3.4519,-53.13818,3.98147,-5.21974,3.84336,1.10356,-28.00034,-52.25456,4.65774,3.57789,4.75976,1.87656,-7.95891,12.29355,-2.26251,-7.47143,-0.48641,0.61128,3.67818,-2.07791,1.76923,-16.28808,-15.6546,-6.86919,7.6044,-0.94733,0.63882,6.20549,-4.29842,1.32194,1.00327,-1.21861,1.11117,0.22472,0.49085,-0.87412,0.06395,-0.11895,0.28006,-0.10288,-0.06879,-0.11926
626,-1.68802,-51.22316,3.87993,-3.59668,4.87889,1.61489,-24.99169,-51.86233,4.73813,7.81965,8.87104,6.19104,-8.02081,13.16066,-2.01085,-8.5709,-0.50358,0.67714,13.14265,7.93608,8.44636,-1.96309,-10.12471,-3.24703,6.80082,-1.89695,-0.46297,3.74632,-2.88392,0.86703,1.9458,-0.80233,0.33387,0.17,-0.10494,-0.52672,0.15106,-0.06457,0.26172,-0.11762,-0.10565,-0.15116
627,1.04092,-50.61753,3.55654,-2.34343,5.99156,2.13867,-21.3799,-51.64611,3.40994,12.69642,10.34908,7.49445,-8.14617,14.20185,-1.79588,-9.6137,-0.37588,0.92167,25.9702,16.06797,7.29389,1.9287,-6.04197,-0.90996,5.71219,-1.57599,-0.95657,2.73583,-2.61177,-0.79072,2.74086,-0.48724,-0.29378,1.16372,0.27289,-0.30554,0.3583,0.00081,0.13166,-0.04296,0.01245,-0.18196
628,3.73734,-51.12359,3.33008,-0.86924,6.71586,2.59031,-17.30398,-50.80635,2.38864,15.97991,7.81842,5.25481,-8.30136,15.28257,-1.66999,-10.61973,-0.31733,1.13319,35.89445,14.98521,0.16078,-4.6095,-4.20438,-0.65968,5.08525,0.04477,-0.15885,2.25107,-3.2052,-3.28647,2.7296,-0.70897,-0.1737,1.91712,1.38046,-0.4534,0.45971,-0.01144,0.03648,0.00491,0.2346,-0.18332
629,5.0796,-51.87265,3.56037,-1.26807,5.91726,2.61333,-17.82709,-51.0565,2.93025,11.22643,2.22007,1.15934,-8.40991,16.2397,-1.57812,-11.80424,-0.48555,1.13673,28.30009,4.18565,-6.8115,-4.92739,-0.06104,0.98016,4.82769,1.63195,1.24081,2.09382,-3.65821,-4.33573,2.05912,-1.26973,0.45755,1.69729,2.2216,-0.59327,0.3304,-0.06677,0.01017,-0.02123,0.41023,-0.11998
630,4.65496,-51.63822,4.20397,-5.186,4.24775,2.04047,-26.16496,-53.54199,4.63825,-2.85136,0.65968,-0.50351,-8.41173,17.04077,-1.45767,-13.19135,-0.75845,0.96006,-1.42016,-4.73063,-6.71508,2.03078,6.45182,5.20386,5.33975,1.59342,1.61871,3.76975,-4.10276,-2.16856,1.58607,-1.5369,0.70179,1.0738,2.09504,-0.3152,0.14786,-0.06838,-0.05811,-0.03916,0.34943,0.02738
631,3.4025,-49.76694,4.71047,-10.07192,3.94117,1.36818,-35.79229,-56.06677,5.59977,-17.95229,7.08846,2.29436,-8.32441,17.80215,-1.34995,-14.48411,-0.8771,0.77152,-34.6608,-3.80398,0.33721,5.20608,12.97391,7.50283,6.26525,-0.25635,0.38309,6.52954,-4.73452,1.20973,1.78789,-1.18281,0.15543,0.66163,1.40661,0.02925,0.12258,0.00916,-0.18913,0.01085,0.08401,0.18463
632,3.04685,-47.11715,4.57999,-11.08838,5.26864,1.28735,-34.16627,-54.1083,4.62442,-20.813,13.49809,5.54671,-8.24634,18.67139,-1.33139,-15.34775,-0.82857,0.70245,-37.06222,2.2326,5.80174,4.58538,12.95577,3.81603,6.15555,-2.08331,-0.91854,7.5948,-4.65042,2.4779,2.24133,-0.66862,-0.3901,0.73685,1.004,-0.00837,0.22987,0.0719,-0.20399,0.16019,-0.10094,0.22255
633,4.55532,-45.40763,4.01726,-7.0005,6.37622,1.83715,-20.4714,-46.48749,3.15533,-7.79944,12.14337,5.24423,-8.23267,19.60074,-1.3626,-15.73196,-0.8266,0.73605,-1.74208,8.63526,4.30971,5.46597,0.85021,-2.94214,5.38606,-2.18176,-0.69148,6.36457,-3.66267,1.56144,2.3867,-0.6415,-0.09395,1.19943,0.92274,-0.09014,0.32423,0.02599,0.01112,0.33913,-0.06323,0.14647
634,7.04424,-45.38757,3.61032,-2.50437,6.38219,2.37464,-8.14035,-40.11449,2.95043,5.81782,7.0583,3.19327,-8.23649,20.39784,-1.36607,-15.91492,-0.92965,0.75293,31.85657,13.30047,0.96315,6.0908,-10.91448,-6.59446,6.24603,-1.24337,0.31341,4.97573,-3.22091,0.33659,2.31322,-1.03391,0.58284,1.64674,0.93606,0.12442,0.3774,-0.09683,0.27212,0.38606,0.09117,0.07063
635,8.63317,-45.97665,3.53791,-2.48541,5.60317,2.35859,-6.91048,-41.99645,3.43269,1.74242,4.18911,2.36402,-8.21121,20.99656,-1.40102,-16.1633,-1.06335,0.66031,25.07553,10.45869,0.90341,7.00596,-6.05509,-4.70472,8.0943,-0.86097,0.42792,5.08255,-3.8541,-0.48985,2.40694,-1.24668,0.60527,1.89438,1.31833,0.20971,0.42453,-0.17924,0.30854,0.28828,0.2891,-0.00454
636,8.29985,-45.26278,3.57574,-5.40351,4.35332,1.97935,-14.26437,-47.49743,3.45747,-15.22727,3.27855,2.72371,-8.14053,21.5285,-1.54022,-16.40578,-1.28882,0.46986,-9.91146,2.25294,1.39182,13.18867,5.28176,1.12733,7.1054,-0.99342,-0.38206,6.0636,-4.51012,-0.62799,2.63278,-0.97215,-0.1339,1.83426,1.73116,-0.07673,0.4048,-0.13696,0.10294,0.14088,0.39803,-0.10129
637,6.81009,-43.22822,3.67817,-6.48523,3.73289,1.75122,-22.27723,-49.52142,3.5219,-23.01237,4.81365,4.29968,-7.98121,22.08976,-1.68687,-16.47832,-1.60672,0.28338,-29.94549,-0.11735,1.04029,17.57903,4.52725,7.11898,3.49132,-0.66654,-0.86533,6.74958,-4.98714,-0.0264,2.66438,-0.54036,-0.77393,1.52156,1.41632,-0.29341,0.2941,-0.00546,-0.13904,0.03233,0.23581,-0.13476
638,5.86815,-41.82875,3.89741,-5.10018,4.82838,1.71627,-24.70267,-50.67923,4.33618,-14.78352,10.5549,6.8142,-7.71954,22.53866,-1.72522,-16.50559,-1.77937,0.17864,-19.78983,3.29558,3.12018,8.35511,-3.22368,8.5397,1.89016,-0.02924,-0.46297,6.59318,-5.63491,-0.04606,2.28559,-0.37411,-0.66624,1.12523,0.84478,-0.45232,0.17588,0.11204,-0.25403,-0.027,-0.01843,-0.13022
639,5.67293,-41.54169,4.04667,-3.724,6.15228,1.55434,-21.42002,-53.48053,5.20192,-3.53031,15.09742,6.52518,-7.49645,22.68495,-1.76239,-16.61647,-1.73957,0.11095,-0.20459,1.25925,5.00329,-3.42101,-3.77439,4.53345,3.2121,0.18634,0.33368,5.22832,-5.50458,-1.61198,1.72865,-0.47636,-0.01333,0.72265,0.99563,-0.91482,0.12678,0.15188,-0.19484,-0.08982,-0.00832,-0.20148
640,5.14683,-40.66058,3.8933,-3.09369,5.16665,1.21237,-17.02536,-52.14705,5.27392,0.57512,10.43216,0.69726,-7.4815,22.60421,-1.96236,-16.64855,-1.76013,-0.01199,10.40602,-8.13466,0.00995,2.28257,1.29798,0.43188,4.39856,0.22028,1.03735,3.29611,-3.40047,-2.44051,1.54937,-0.72263,0.61244,0.40296,1.57139,-1.23429,0.17475,0.09403,0.00157,-0.1236,0.24335,-0.26925
641,4.73657,-38.80853,3.43571,-2.3949,2.78673,1.01149,-14.14747,-43.78358,4.74524,-0.65834,0.39723,-5.74089,-7.65894,22.58872,-2.25879,-16.42607,-1.9212,-0.16259,13.16178,-11.81073,-8.32623,17.94342,2.3612,-1.10636,5.42091,0.13185,1.08649,2.35161,-0.27257,0.20591,1.82388,-0.95065,0.68564,0.16449,1.38287,-0.72049,0.27311,-0.02748,0.15267,-0.07537,0.35699,-0.16442
642,5.65383,-37.47805,2.82121,-1.97062,1.91907,1.09685,-12.97817,-34.55484,3.70816,-4.68699,-3.93117,-5.89534,-7.8546,22.8137,-2.47606,-16.04013,-2.01581,-0.25031,9.7704,-0.65573,-10.82631,18.24522,1.99677,-4.63734,8.37663,-0.90403,-0.0217,2.84727,0.90033,3.75986,2.08838,-0.8728,0.07749,-0.00252,0.45913,0.13133,0.32836,-0.10139,0.08007,-0.01508,0.1659,0.03687
643,6.72784,-37.18404,2.30857,-3.23698,2.41739,1.17748,-15.00115,-31.85569,1.73983,-15.02189,-1.45701,-1.13545,-7.87335,23.12016,-2.59008,-15.67468,-2.03421,-0.28544,-8.05651,12.23662,-7.90609,-0.88435,9.8393,-9.64626,10.94817,-2.11909,-1.20631,4.13447,-1.7783,2.84678,1.96107,-0.55164,-0.52095,0.12431,0.31225,0.19008,0.26917,-0.0565,-0.11841,-0.02502,-0.06007,0.11064
644,5.65621,-37.46943,2.21241,-5.34029,2.75001,1.13094,-19.35464,-37.52104,-0.64818,-26.8623,1.87054,3.30823,-7.65579,23.20623,-2.71622,-15.28369,-2.1231,-0.31774,-31.01308,9.2754,-4.56413,-16.08122,18.59947,-6.79345,8.96325,-1.39161,-0.85347,5.52783,-6.29942,-1.74421,1.8548,-0.42863,-0.47673,0.47057,1.2253,-0.45443,0.20087,0.0386,-0.21149,-0.10711,-0.12207,0.04723
645,3.02304,-38.40469,2.53204,-5.29524,2.90057,1.13362,-20.21712,-46.99934,-1.62148,-24.83429,4.14519,6.01893,-7.38649,22.89287,-2.92484,-14.75503,-2.27471,-0.37271,-28.86234,-4.48548,-0.64187,-9.66876,10.14223,4.6058,4.2849,0.83109,0.58554,6.53419,-8.33237,-3.97615,2.19158,-0.63361,-0.04011,0.9346,1.86357,-0.67643,0.25907,0.07461,-0.136,-0.12369,-0.0776,-0.00091
646,1.83118,-38.93908,2.76994,-3.33312,2.41595,0.98419,-15.34965,-50.7266,0.25967,-9.28271,5.71742,6.53731,-7.31922,22.11504,-3.15454,-14.33885,-2.42609,-0.50908,-0.81719,-8.3173,4.08427,8.25888,-13.03707,11.15004,2.81402,1.7774,1.32214,6.96511,-6.40716,-2.04138,2.41425,-0.84346,0.22498,1.76393,1.73766,-0.18699,0.35954,0.03387,-0.03521,0.07893,0.05395,-0.01715
647,2.52972,-37.91008,2.68336,-2.10757,0.61369,0.4525,-12.91377,-44.80722,4.12876,1.06845,6.12385,4.34548,-7.53049,20.99126,-3.36113,-14.19742,-2.62751,-0.7479,14.59071,3.07466,6.41,17.21191,-28.38437,5.05175,5.09868,0.93835,1.19721,7.11011,-3.64813,0.22347,1.82246,-0.9066,0.3957,2.56848,1.64778,0.09488,0.32262,-0.03583,0.02802,0.34565,0.25886,-0.09005
648,2.96892,-35.901,2.40165,-1.71563,-1.11573,-0.00377,-17.33437,-35.57663,6.48146,-2.15848,5.01518,1.67054,-7.83897,19.95386,-3.54102,-13.97181,-2.8914,-0.96922,2.01778,14.20149,4.40903,10.6026,-22.44283,-5.57118,6.22567,-0.08731,1.01086,7.29767,-3.09678,0.30085,0.78311,-0.79357,0.65798,2.48092,2.00697,-0.34264,0.15106,-0.07454,0.12141,0.39018,0.38105,-0.17363
649,1.94551,-33.98593,2.01873,-0.84375,-1.04359,0.06886,-22.06623,-29.37084,4.83912,-9.24098,3.27445,1.00982,-8.01372,19.26204,-3.67458,-13.45846,-3.05625,-1.0369,-12.55422,15.78144,0.05735,-2.78157,-1.4279,-8.83772,4.24485,-0.72378,0.51249,7.13738,-3.94929,-0.43834,0.38425,-0.44634,0.5919,1.46532,2.33319,-0.90053,0.024,-0.046,0.1794,0.20086,0.31139,-0.13642
650,-0.13829,-33.84435,1.87682,0.2656,0.36879,0.37405,-24.50784,-28.81232,1.72767,-11.20174,3.18096,1.98933,-8.03971,18.56647,-3.7996,-12.94731,-3.02963,-0.9815,-14.3002,13.39677,-2.83144,-7.85914,19.91978,-2.37937,2.09934,-0.93655,-0.28749,6.09754,-4.00296,-0.38665,0.99222,-0.18793,0.0418,0.44197,2.15804,-0.90115,0.03593,0.00875,0.07093,-0.00904,0.15664,-0.00193
651,-1.96797,-35.00002,2.04693,-0.2375,0.72198,0.32464,-27.62903,-31.06748,0.94321,-9.04276,3.37698,2.05355,-8.04575,17.58384,-3.95536,-12.68767,-3.02585,-0.97395,-12.78091,12.60201,-4.02388,3.5876,27.47181,4.47929,2.45186,-0.57631,-0.6572,4.77845,-3.12866,0.08698,1.68486,-0.24936,-0.51102,0.44296,1.59637,-0.27259,0.09001,0.02727,-0.14167,-0.021,0.08317,0.09584
652,-2.37423,-35.97302,2.10421,-2.02554,-0.96881,-0.07127,-29.44532,-34.95789,2.22509,-4.25612,0.42931,0.23891,-8.09827,16.53428,-4.15413,-12.44818,-3.1844,-1.09917,-8.57688,7.76528,-5.36316,18.89384,14.51804,2.49074,4.64756,0.08913,-0.25559,4.27822,-2.74234,0.02893,1.55704,-0.38653,-0.5158,1.28682,1.11409,0.37038,0.09859,0.01839,-0.23448,0.12794,0.10791,0.08204
653,-1.30994,-36.71107,1.72053,-3.67387,-3.4986,-0.4574,-24.61475,-41.00313,2.71975,-1.74946,-5.95773,-2.94915,-8.14663,15.68775,-4.4057,-11.99741,-3.40072,-1.26909,0.72758,-5.46525,-7.76686,15.69468,-8.34087,-5.03909,6.55165,0.79422,0.67302,4.61313,-3.45149,-0.4106,1.06621,-0.40385,0.0517,1.76751,0.83346,0.47081,0.13718,0.0365,-0.12475,0.20801,0.09685,0.01002
654,-0.38537,-37.66998,1.19053,-3.81907,-4.95417,-0.55347,-16.3214,-45.24519,1.52864,-2.7663,-10.87334,-4.94732,-8.13154,15.00303,-4.68923,-11.30367,-3.53631,-1.35714,10.49209,-16.37637,-9.74415,-10.09398,-20.2433,-7.94747,7.40538,1.45478,1.66588,5.04323,-4.46397,-0.50485,1.01915,-0.42254,0.7356,1.4427,0.64794,0.25123,0.25308,0.07786,0.05353,0.14491,-0.01348,-0.00115
655,-1.3288,-38.47211,1.07602,-1.3283,-4.07016,-0.28934,-14.85336,-42.76218,0.35846,0.72843,-8.61824,-2.48103,-8.0648,14.25107,-4.9262,-10.4147,-3.41483,-1.34672,16.7705,-11.60487,-8.34222,-34.13961,-14.77626,-2.44787,7.51737,1.76823,2.15111,5.25146,-4.70793,0.01046,1.11171,-0.49644,1.06486,0.8897,0.66654,0.11395,0.31057,0.07966,0.14926,0.02634,-0.10847,0.058
656,-3.78271,-38.64591,1.43222,1.85388,-2.04041,-0.07045,-23.06664,-36.36853,0.57804,8.10069,-0.73728,2.66982,-8.03387,13.28445,-5.07867,-9.61516,-3.06448,-1.36056,14.31835,3.72878,-3.60974,-28.24852,-4.0481,6.89929,6.59151,1.51179,1.96839,5.59564,-4.13438,0.91573,0.73892,-0.57585,0.99465,0.58097,0.95702,-0.07416,0.19031,0.01185,0.15579,-0.05533,-0.05355,0.05281
657,-5.89388,-39.02438,1.79039,2.35284,-1.37205,-0.32409,-32.87475,-34.48386,1.34821,10.27534,4.7025,4.94467,-8.12542,12.18931,-5.23748,-9.16887,-2.84026,-1.4952,4.50258,11.90524,-0.37778,0.61856,3.1797,12.64604,4.42867,1.08052,1.7749,6.45591,-3.74921,1.27319,0.24123,-0.75255,0.92627,0.37304,1.66335,-0.79436,-0.01709,-0.08094,0.15957,-0.08273,0.1941,-0.11023
658,-7.10118,-39.9094,1.82125,0.43788,-2.65608,-0.80374,-37.73626,-36.71645,1.36578,7.35368,2.45657,2.13105,-8.31502,11.13854,-5.51916,-8.87671,-2.89967,-1.64102,-2.56943,8.21932,-3.39028,15.69902,6.60046,10.99743,2.24409,1.1831,2.15662,7.65285,-4.30855,0.39331,0.25164,-1.01575,1.08179,0.07796,2.79206,-1.87221,-0.1489,-0.12184,0.1777,-0.09219,0.49168,-0.29629
659,-8.28724,-40.22591,1.70452,-0.60865,-4.54933,-0.92677,-39.23541,-33.8572,1.26499,5.64422,-5.29313,-3.12255,-8.49527,10.23956,-5.90504,-8.20975,-3.01687,-1.59121,-4.82829,4.25649,-11.16087,0.724,2.16949,6.60122,1.80333,1.93783,2.85344,8.47515,-5.25561,-0.3272,0.65665,-1.16005,1.28139,0.04667,3.31351,-2.12382,-0.13688,-0.08874,0.16326,-0.0514,0.51496,-0.25746
660,-9.65282,-40.01543,1.78016,1.54433,-5.3278,-0.43807,-40.81468,-25.01156,2.17996,8.47512,-11.6116,-5.97634,-8.63062,9.62189,-6.25954,-6.74695,-2.90931,-1.28779,-5.50878,9.09169,-15.78815,-20.57164,-9.71816,6.24178,2.86692,2.4818,2.80003,7.9445,-5.35357,0.44069,0.91539,-0.95496,1.08753,0.34846,2.35052,-1.16605,-0.026,-0.02624,0.07976,0.01737,0.19841,-0.03735
661,-10.27356,-40.77853,1.94926,5.34355,-4.36898,0.3582,-41.30767,-21.0355,2.93039,14.21565,-11.97487,-3.66326,-8.78911,9.30149,-6.50374,-4.79145,-2.4949,-0.87654,-1.45362,16.82781,-11.80277,-19.67048,-14.07807,9.09139,3.53561,2.10382,1.4779,6.04606,-4.34102,1.08966,0.99793,-0.44459,0.32248,0.80471,0.95038,-0.03923,0.1042,0.02049,-0.04221,0.09125,-0.07407,0.09931
662,-9.80294,-42.75512,1.77303,7.17638,-3.19244,0.91928,-38.87784,-28.04215,1.42348,19.77032,-9.30725,1.1563,-9.03771,9.03257,-6.7224,-3.28325,-1.99995,-0.56158,9.9564,14.34989,-4.46586,1.43144,-0.89266,10.70012,3.184,1.32047,0.06073,4.12095,-3.21417,0.19142,1.18744,-0.04242,-0.40126,1.14051,0.52614,0.3328,0.19814,0.04053,-0.1011,0.16056,-0.04897,0.08202
663,-9.24581,-44.76455,1.29673,6.10144,-3.56737,0.93731,-37.11375,-39.64588,-1.316,23.89078,-8.14382,3.21528,-9.33327,8.53613,-7.0534,-2.8358,-1.72184,-0.46013,20.1309,-0.31472,-2.87384,18.08068,18.02889,11.5705,2.34187,1.31247,-0.01153,3.54189,-2.96084,-0.7151,1.34236,-0.02795,-0.43624,0.91066,0.92362,0.01076,0.20587,0.04568,-0.07424,0.12723,0.09322,0.02541
664,-9.80192,-45.54899,1.0787,3.65885,-4.50083,0.42586,-40.96507,-43.85434,-1.74862,23.25537,-6.66428,0.97532,-9.54422,7.86344,-7.52199,-3.19223,-1.61479,-0.52738,14.27764,-9.20304,-7.48858,13.07415,24.70754,15.03096,1.04448,2.78228,1.29965,4.75952,-3.82164,0.21771,1.19718,-0.2124,0.03412,0.10194,1.21063,-0.56137,0.12106,0.05314,-0.04802,-0.0742,0.12301,-0.04043
665,-11.72199,-45.67476,1.47672,1.42289,-4.44095,-0.19965,-48.29534,-38.41837,1.07276,17.52868,-4.63832,-3.22382,-9.66213,7.46513,-8.0806,-3.36586,-1.47762,-0.57911,-3.65611,-3.20027,-13.04321,-7.05939,14.98687,21.00384,-0.651,4.79641,2.68895,7.39949,-5.26492,2.82455,1.04769,-0.26344,0.34961,-0.681,1.11112,-1.1737,0.03447,0.07639,-0.05034,-0.28998,0.07897,-0.16815
666,-14.52006,-45.77644,2.0984,0.74989,-5.09346,-0.30757,-53.76215,-29.27347,3.66494,15.36384,-10.8538,-8.72543,-9.88236,7.84013,-8.70563,-2.49707,-1.3596,-0.49721,-11.70297,2.63989,-20.86766,-23.11396,-5.30933,26.54388,-2.00881,5.52687,3.39279,10.43549,-6.31138,5.82576,1.21471,-0.29979,0.54508,-0.90795,1.04491,-1.63234,0.02614,0.0883,-0.00239,-0.28017,0.10508,-0.27685
667,-16.52069,-45.11577,2.1284,2.75024,-6.59361,0.22489,-55.45271,-19.91322,2.94079,21.47528,-22.69235,-13.291,-10.32654,8.94581,-9.32703,-0.85213,-1.25573,-0.31182,-3.18159,4.08816,-30.11845,-27.75573,-28.30642,28.20034,-2.69064,4.71869,3.98398,12.33967,-6.42079,8.08124,1.04586,-0.60695,1.19318,-0.74488,1.13288,-1.57825,-0.01366,0.02433,0.11144,-0.10235,0.1412,-0.20704
668,-16.29687,-44.24306,1.46638,5.26896,-5.73138,0.74773,-54.79634,-14.84088,0.37517,27.4094,-23.2267,-11.81994,-10.91306,10.25058,-9.88976,0.32695,-0.9765,-0.0615,4.94875,12.71663,-30.39334,-27.73748,-41.54422,24.42603,-3.81138,3.82967,4.48358,11.38555,-5.57606,8.66108,-0.05733,-0.89539,1.84311,-0.85893,0.83459,-0.9866,-0.20922,-0.10776,0.18459,-0.10287,0.00891,-0.00823
669,-15.24531,-44.21224,0.75407,3.00198,-1.97866,0.44553,-54.38916,-17.43691,-1.33281,29.10003,-10.0097,-5.12105,-11.56404,11.65084,-10.53519,0.80233,-0.01049,0.16057,5.65274,27.46856,-19.7345,-27.98036,-33.68172,19.5313,-6.90111,3.41818,3.37066,7.73907,-3.68728,7.15732,-1.23958,-0.55196,0.95747,-1.30319,0.38219,-0.48337,-0.3908,-0.17516,0.111,-0.33337,-0.14085,0.09628
670,-15.54891,-45.0524,0.41481,2.97084,-0.67208,0.55606,-54.98506,-24.39438,-2.29907,34.11411,-3.64883,-1.40915,-12.2793,13.67249,-11.45473,0.326,0.25321,0.32054,10.08705,26.03456,-13.52664,-26.85619,-11.70107,22.04956,-11.68747,2.7483,0.3498,4.61357,-1.36236,5.77746,-1.57844,0.43491,-1.5938,-1.43461,0.3093,-0.36228,-0.35624,-0.07423,-0.07217,-0.40564,-0.09175,0.08392
671,-17.05732,-45.80569,0.2428,3.85556,-2.68762,0.89782,-55.9445,-27.4467,-3.9104,43.30577,-11.03176,-3.91468,-13.01791,16.66437,-12.6298,0.28257,0.27482,0.30704,22.17273,12.28369,-19.15618,-20.63671,0.82696,34.9297,-15.74811,2.69858,-0.88203,4.72857,-0.09033,7.52049,-1.48142,1.25211,-2.94667,-1.32652,0.13343,-0.47876,-0.23664,0.11205,-0.09173,-0.15925,0.03397,0.05514
672,-17.92774,-45.4344,-0.18134,4.17153,-5.09599,0.99997,-55.43468,-23.15285,-5.8893,46.46771,-18.8959,-6.68268,-13.72839,20.4797,-13.89914,0.40626,0.00064,0.09959,29.40454,7.6999,-26.87575,-14.17876,-11.01008,46.92942,-16.57964,4.12779,1.97656,6.96385,-0.65594,11.6974,-1.63361,1.38897,-1.13065,-1.70512,-0.89565,-0.74845,-0.25435,0.21885,0.21404,0.04606,-0.01663,-0.01697
673,-17.51402,-43.74393,-0.91062,2.61054,-6.06642,0.65128,-52.19604,-17.1286,-6.58595,41.01619,-19.07708,-6.28345,-14.4837,24.9515,-15.20499,0.40226,-0.43601,-0.16051,27.87322,15.06506,-28.25499,-20.90205,-36.41189,41.2798,-13.93124,3.75573,4.36405,7.85975,-2.15794,15.02475,-2.43871,1.28793,1.46429,-2.76008,-2.86013,-0.7898,-0.47431,0.18783,0.59363,-0.17562,-0.3771,-0.12351
674,-17.51491,-41.31256,-1.44299,0.46042,-6.85901,0.21971,-51.47658,-14.01087,-5.2958,31.84413,-18.59538,-6.94229,-15.36053,30.00511,-16.60483,0.25599,-0.79341,-0.36435,16.04543,19.25364,-28.78845,-35.07439,-48.46587,18.05159,-10.55928,-0.53615,2.59291,6.11389,-2.98697,15.29826,-3.79602,1.30551,2.08133,-3.58319,-4.53441,-0.20939,-0.77704,0.08332,0.74697,-0.66182,-0.81116,-0.13733
675,-19.63085,-38.67655,-1.38435,-0.93117,-7.95589,-0.02965,-59.0456,-11.29209,-3.69216,22.68237,-20.95702,-10.06521,-16.28496,35.55549,-18.11171,0.01307,-0.93305,-0.50573,-6.81864,20.121,-33.20446,-28.80694,-29.492,-0.28175,-12.20238,-3.13643,1.50156,3.72114,-2.76391,13.0186,-5.40675,1.39945,1.86268,-3.3063,-4.7272,0.73249,-1.10605,-0.02348,0.77925,-0.90959,-0.91671,-0.03161
676,-22.5779,-36.99066,-1.03134,-1.34544,-7.8622,-0.09954,-69.26295,-9.32988,-4.02767,19.05434,-20.75161,-10.71867,-17.17583,41.65005,-19.67006,-0.0651,-0.88889,-0.54249,-23.66158,25.38273,-36.14552,8.19356,10.77289,7.04388,-22.87275,2.00611,7.00144,3.49032,-2.69965,10.9813,-7.30071,1.85916,3.43439,-1.54671,-4.24775,1.98627,-1.52395,-0.09039,1.09448,-0.5745,-0.77078,0.16243
677,-23.23343,-37.01267,-1.08347,-1.86162,-6.25712,-0.04462,-71.47298,-12.45324,-6.20702,20.21802,-17.02503,-7.7913,-18.08507,48.34109,-21.22952,0.09237,-0.73484,-0.38878,-23.52256,28.11209,-34.19339,49.52609,42.60225,32.72008,-35.74007,10.16878,15.13474,6.1593,-3.05998,10.08974,-8.04682,2.55151,5.96822,1.38336,-3.46379,3.22925,-1.67239,-0.0748,1.63897,0.1582,-0.56221,0.34822
678,-21.62641,-36.79383,-1.76441,-3.7143,-5.22644,0.11841,-65.42381,-18.66596,-8.12724,17.09057,-15.63273,-6.14884,-19.12526,55.42686,-22.81374,0.10618,-0.56035,-0.07355,-20.36323,19.16997,-31.22933,59.98345,39.72135,51.21529,-37.58815,10.3468,16.24015,9.65029,-2.77147,10.68199,-5.80586,2.33612,5.93788,3.85746,-2.41734,4.11739,-1.12734,0.02164,1.75507,0.71905,-0.41987,0.5096
679,-20.35797,-34.55526,-2.53859,-5.72022,-5.762,0.36593,-57.73264,-23.36845,-8.15729,9.57035,-17.93818,-7.83619,-20.2576,62.64159,-24.41746,-0.06071,-0.38316,0.24715,-20.55471,4.44854,-29.43178,30.51763,2.98651,51.92026,-26.35355,0.20302,8.26366,12.0011,-1.77851,16.24893,-2.33424,0.7448,2.29722,3.81557,-2.96945,5.10655,-0.30945,0.06395,1.15106,0.69176,-0.66741,0.81087
680,-19.84585,-31.03778,-2.93037,-5.80186,-5.89206,0.46575,-51.74166,-22.54528,-6.42756,6.50241,-18.12432,-9.94917,-21.26508,69.98112,-25.89968,-0.00378,-0.12594,0.41105,-14.50107,3.5944,-27.71368,-11.77965,-37.14141,44.76168,-13.23998,-10.01433,-0.5222,12.72158,-1.13813,26.03389,-0.95374,-1.025,-1.72191,1.45036,-5.88292,6.26054,0.0563,-0.00992,0.44296,0.22614,-1.29708,1.22109
681,-19.70467,-27.30734,-2.78707,-4.40026,-3.70124,0.12024,-50.78335,-11.89841,-4.31827,11.05383,-11.48185,-8.69802,-22.07368,77.46761,-27.19855,0.24416,0.13511,0.33759,-4.38202,31.38389,-25.0144,-27.63342,-52.05996,37.97885,-7.07232,-8.89257,-1.47105,11.5364,-1.58755,30.93241,-1.76011,-0.9714,-1.63452,0.35213,-8.64843,7.40755,-0.09226,0.04754,0.44831,0.06185,-1.72124,1.49211
682,-20.67891,-24.19259,-2.09826,-4.79095,-8.60407,-0.74197,-56.32551,1.64399,-3.23937,12.17503,-14.12844,-7.93327,-22.87913,84.77146,-28.42937,-1.47091,-2.47018,-0.95571,-8.01552,55.25675,-25.56848,-11.25747,-36.45971,29.90151,-7.83272,2.00511,4.15785,8.2859,-2.76341,24.41208,-2.77306,1.31697,2.26169,2.38485,-8.40081,7.93915,-0.40115,0.37038,1.04245,0.43561,-1.44019,1.34963
683,-21.61016,-21.93832,-1.51014,-4.46165,-8.03462,-1.0508,-60.08804,2.3455,-3.53451,19.03819,-11.48641,-3.65501,-23.84639,91.53076,-29.58962,-3.20028,-3.06129,-1.503,-3.39712,65.81648,-20.26665,4.66585,-0.92965,21.52509,-10.58728,11.00408,8.80971,4.09995,-3.60574,11.35186,-2.70719,3.60777,5.41091,4.92841,-5.47716,7.03894,-0.59522,0.69517,1.48658,0.78843,-0.73529,0.80827
684,-20.32548,-19.22942,-1.76344,-3.20597,-10.62669,-0.51637,-55.23341,-10.53965,-4.07385,24.96727,-21.30667,-6.74835,-24.98146,97.74738,-30.53382,-5.18343,-3.57929,-1.84896,10.72259,40.06932,-21.18458,2.41046,30.03298,19.1166,-9.09588,13.7804,9.50901,2.05128,-3.18755,1.1761,-0.83313,4.59076,6.15429,6.03805,-1.76695,5.58904,-0.50942,0.94622,1.63273,0.9531,-0.12262,0.44112
685,-17.79706,-14.27213,-2.58224,-0.29807,-14.89638,0.53866,-49.72948,-16.61486,-4.08417,27.02523,-37.69738,-15.55349,-26.26314,103.51151,-31.24834,-7.11632,-4.11095,-2.10731,18.94203,13.07476,-33.14984,-2.3663,22.52444,23.89458,-4.26398,13.75125,7.63412,4.11072,-1.67844,-1.26135,2.12156,4.6204,5.18273,5.5815,1.17183,4.80162,-0.22475,1.192,1.56506,0.943,0.18032,0.59793
686,-16.18362,-7.1976,-3.33402,3.92019,-17.37613,1.269,-51.52168,-3.20051,-4.37328,22.84632,-44.78571,-19.71738,-27.61249,108.5666,-31.80873,-9.22999,-4.87499,-2.53459,7.37229,19.42661,-48.08438,-0.32398,-25.93439,28.46271,-4.8861,11.37,4.67454,8.81735,-0.32707,2.17526,3.70779,3.19983,2.61598,3.84099,2.16755,4.28745,-0.03483,1.11435,1.11112,0.61943,0.1243,0.84154
687,-15.41316,-0.75184,-3.78136,7.57434,-15.09277,0.87351,-52.75395,12.19137,-4.8648,7.37217,-31.92951,-13.59266,-28.91537,112.43542,-32.20954,-12.09082,-5.65322,-3.15223,-19.06768,45.37948,-49.30546,0.46829,-62.71046,24.61065,-11.20018,10.00229,2.88465,12.78934,0.50915,4.44948,3.89309,2.00535,0.41889,2.41368,2.51301,3.42742,0.14568,0.85739,0.44634,0.29658,0.14266,0.7341
688,-14.01856,3.22631,-4.08323,9.03778,-10.25914,-0.29687,-41.88232,7.69889,-4.09244,-19.80403,-10.53152,-4.98957,-30.0719,114.86008,-32.31581,-15.77029,-6.19675,-3.7387,-44.49185,48.22285,-33.35528,1.17015,-46.85194,15.73815,-14.28368,13.52269,2.36587,13.81907,1.26762,0.5758,4.46097,3.39515,-0.25759,1.47879,4.1196,1.32097,0.43323,0.90991,-0.19056,0.15127,0.59458,0.22839
689,-11.45422,6.278,-4.47397,11.52729,-9.5129,-0.48313,-23.07737,-10.15754,-1.8047,-41.02208,-3.21883,-3.57744,-30.87386,115.75793,-31.91835,-19.54165,-6.74633,-4.15781,-51.77563,15.84885,-16.45614,15.73952,-7.18638,17.13397,-11.16479,17.58992,1.50968,14.56847,3.05133,-5.86435,5.16278,5.47336,-0.45907,-0.27487,6.81454,-2.70483,0.49522,0.97979,-0.50976,-0.04437,1.23946,-0.46374
690,-8.90061,9.61453,-4.56023,18.77146,-14.95719,1.14559,-13.20778,-21.02882,1.19213,-43.40184,-12.62862,-7.2323,-31.13623,114.87131,-30.98217,-23.14314,-7.48842,-4.45432,-48.23819,-20.65318,-11.86554,38.76608,13.48691,30.09468,-6.12668,18.67408,0.91872,15.84468,5.46412,-10.29004,4.73442,6.52227,-0.20763,-2.73322,8.65238,-7.35439,0.11536,0.88201,-0.18888,-0.39391,1.61344,-1.05253
691,-7.45789,11.31852,-3.74283,29.53745,-21.0369,3.25596,-16.4982,-21.39398,4.00737,-36.91045,-19.63016,-6.97062,-30.96919,111.77348,-29.70813,-26.98796,-8.04886,-4.66982,-52.28645,-32.36979,-12.65825,46.91228,20.70026,30.75772,-1.72133,13.40004,0.94002,13.82288,5.1165,-16.67625,3.84387,5.3684,0.07043,-4.42414,8.78687,-10.77205,-0.32276,0.58946,0.45412,-0.73034,1.61639,-1.49866
692,-6.2659,9.62137,-2.33865,40.48222,-22.53429,4.38466,-15.70876,-23.74864,5.61397,-35.64664,-13.09929,-0.37735,-30.51055,106.09907,-28.10501,-31.03968,-7.94438,-4.78452,-55.15151,-28.07296,-4.22808,38.07331,36.84458,5.64842,4.88622,4.06157,-0.44596,9.37914,1.99417,-26.58699,5.74197,2.66001,-1.21474,-4.45791,8.78012,-12.26266,0.00235,0.16265,0.58859,-0.83299,1.61723,-1.81655
693,-3.25739,6.57134,-1.57964,49.84543,-20.01824,4.57048,3.36343,-31.98878,5.75189,-44.39773,-0.35884,6.81111,-29.47915,97.80342,-25.80854,-34.91392,-7.20532,-4.78236,-41.5407,-28.6972,14.68304,29.70986,56.10751,-27.76113,10.93571,4.44027,-4.83056,7.58934,0.85461,-32.85683,9.45182,3.6039,-4.2085,-3.88516,9.68977,-13.23697,0.99793,0.27322,-0.23077,-0.84984,1.76276,-2.06698
694,2.18265,5.05985,-2.05063,58.2164,-16.61595,4.62536,33.10777,-35.32771,5.85157,-59.57961,9.87386,10.52026,-27.45414,87.26727,-22.63517,-38.44759,-6.36241,-4.66413,-21.8236,-30.20567,32.86146,29.91951,58.00774,-50.89165,9.88137,18.20794,-10.57877,8.52704,2.22436,-33.42386,9.66844,9.80631,-7.23842,-4.18528,9.92285,-15.53725,1.41635,1.27452,-1.57667,-1.13394,1.66665,-2.41723
695,7.82037,5.9695,-3.19081,67.93958,-14.36626,5.18566,55.28074,-22.34554,6.37354,-71.6246,15.19731,11.30626,-24.47478,75.14824,-18.91943,-41.51945,-5.91407,-4.47318,-14.92324,-17.2184,39.23111,30.08824,41.36744,-63.87247,5.14095,30.22525,-14.75176,8.50564,1.50432,-34.70142,5.99593,15.23842,-8.97561,-5.35892,7.96223,-18.95478,0.70451,2.28175,-2.48644,-1.6937,1.17011,-2.84195
696,10.70765,8.30345,-4.041,80.04734,-12.13332,6.09848,60.65037,3.1436,6.11797,-75.76474,17.59572,10.44897,-20.98803,62.1521,-15.05977,-44.13677,-5.7181,-4.26993,-25.96661,3.62203,33.3845,20.4969,30.40715,-63.62373,1.06613,29.78365,-14.98105,6.18998,-2.43921,-38.34773,1.71737,15.91447,-8.92326,-6.26928,4.79673,-21.18065,-0.45318,2.39696,-2.38116,-2.10885,0.69402,-2.97655
697,11.18588,10.60391,-4.56748,92.34384,-7.59362,6.7659,58.17977,25.8774,4.73456,-78.92937,20.30139,8.67031,-17.31197,49.2196,-11.23205,-46.49126,-5.29891,-4.06249,-44.32899,12.32836,26.58912,11.96103,40.37799,-45.25452,-2.33417,21.5288,-11.64935,3.65446,-5.62538,-39.59829,-1.26201,13.6672,-7.68261,-5.96262,3.07437,-20.19573,-1.23582,1.78483,-1.67062,-2.06283,0.6913,-2.6063
698,12.62003,13.66117,-6.69846,102.56386,-2.67534,7.5769,64.30151,37.88099,3.01505,-89.40972,21.30171,6.04133,-13.40104,37.64062,-7.76323,-48.60624,-4.81053,-3.81073,-55.43055,2.03794,27.74934,24.46329,58.2894,-28.58017,-0.44815,16.62633,-10.23344,2.41597,-6.21899,-37.50312,-1.74161,11.52985,-7.30405,-4.51439,3.74307,-16.66096,-1.334,1.16055,-1.05367,-1.74953,1.11394,-2.05676
699,14.68623,18.37906,-11.09349,111.57832,-0.78021,9.38217,80.67776,38.62442,2.81538,-103.19867,19.03057,4.25825,-9.44192,28.08656,-5.22988,-50.40348,-4.86028,-3.47177,-55.28588,-19.99082,36.82368,48.5364,70.60338,-39.688,10.72854,20.82135,-15.98119,0.72208,-6.91892,-35.48399,0.36072,10.6889,-9.28695,-2.82478,4.81259,-12.71094,-0.88801,0.91893,-0.81462,-1.43833,1.61136,-1.68078
700,12.60209,22.36178,-14.64635,121.46507,-0.12073,11.85342,94.32231,25.62569,5.84495,-107.09069,18.64468,6.71925,-6.20305,20.19006,-3.79638,-51.90184,-5.48585,-3.05777,-47.08749,-45.89396,50.55984,50.26861,82.22971,-70.8454,24.72921,29.53464,-26.36354,-3.45233,-9.677,-32.76166,2.92029,11.02107,-12.6391,-1.50243,3.92896,-8.24419,-0.26934,1.0093,-0.88565,-0.85052,1.83157,-1.21217
701,7.42326,22.7464,-15.72423,131.84818,2.88071,14.21414,104.74447,1.48725,11.11963,-94.84167,18.04288,10.34317,-3.98051,13.5423,-3.02518,-53.23163,-6.20747,-2.66302,-22.60552,-78.3064,61.04599,20.40248,101.06782,-88.41626,29.37007,32.93638,-31.91388,-6.95651,-12.61052,-27.49277,3.02914,11.72329,-14.18454,-0.22871,1.85853,-2.85905,0.00785,1.19187,-0.97268,0.27487,1.63198,-0.36807
702,4.89314,19.39666,-15.95154,140.49001,9.18853,16.02162,116.19638,-17.59365,15.57172,-73.35867,11.44865,8.13677,-2.35386,7.99296,-2.49992,-54.64143,-6.87428,-2.37281,18.15533,-111.76222,57.94719,-9.48213,121.0181,-79.07751,21.76039,26.82233,-27.74899,-6.03925,-14.34169,-24.85135,0.72016,11.53562,-12.53577,1.14678,0.73933,-0.0321,-0.19219,1.25777,-0.87969,1.35563,1.27104,0.25503
703,3.24713,13.90323,-14.46918,145.465,19.1962,16.50741,110.12373,-15.70158,16.97253,-60.35946,11.21653,3.07063,-1.40017,3.33614,-1.90009,-56.19694,-7.75114,-2.16907,31.89591,-114.76006,43.25976,-12.89622,126.7608,-63.82045,11.24235,16.73315,-20.68848,-5.83266,-16.50959,-28.88498,-0.88138,9.85419,-11.03882,0.87578,-0.14447,-2.4115,-0.31215,1.1025,-0.91674,1.5022,0.9805,-0.01672
704,-1.76699,2.92538,-5.73558,146.91888,30.41313,16.05391,79.22762,-8.56705,20.50648,-69.82549,26.01126,2.49065,-0.21092,-3.35891,-0.15239,-57.26206,-9.01391,-1.93586,-10.42881,-91.6622,35.3438,0.78711,114.23359,-68.10882,6.99316,9.60203,-19.30628,-10.20419,-18.85574,-36.57962,-0.42315,7.19285,-12.755,-1.04688,-0.84188,-7.50327,0.04005,0.72476,-1.36666,0.88282,1.09005,-0.93393
705,-6.2454,-4.10208,3.6428,146.401,38.18447,16.53333,48.89335,1.8935,24.31443,-92.64616,39.14857,5.67638,-0.94731,-4.60691,0.89882,-57.04197,-10.47343,-1.50605,-71.39866,-61.02259,37.73524,13.35975,100.21479,-93.14104,8.5188,8.07007,-22.52924,-13.77392,-20.24963,-44.51237,0.02616,4.86493,-14.85153,-0.98399,0.05089,-11.37478,0.43935,0.27378,-1.69539,0.83112,1.67611,-1.7762
706,-8.6756,-9.79068,12.88522,143.73668,42.33707,18.52764,49.69267,-10.84585,36.82763,-104.38341,35.94972,8.67543,-1.26703,-4.88356,1.94051,-55.80167,-11.87812,-0.80739,-83.96329,-72.61372,57.90902,20.06127,101.53516,-117.31059,9.55125,13.45362,-25.56082,-13.90022,-21.08451,-49.12561,-0.97759,4.26331,-14.14099,1.52346,1.30174,-11.87875,0.41365,0.05155,-1.43373,1.6724,1.93947,-1.99125
707,-8.15497,-10.65882,16.25031,138.21225,45.67994,21.04496,73.15603,-27.28753,50.32425,-89.72851,19.83947,9.11627,-0.84699,-4.03531,2.48055,-54.55266,-13.10359,0.02373,-35.30334,-101.45256,77.81978,15.35919,109.60406,-116.26189,6.49915,21.90683,-26.49893,-15.98096,-18.46708,-42.62769,-2.60471,5.00115,-12.15465,2.22964,1.20541,-7.86416,0.04443,0.16836,-1.09345,2.2956,1.32501,-1.40943
708,-6.33918,-4.53457,8.83859,132.27414,50.03568,23.30424,88.87505,-17.91472,51.45104,-51.74549,4.42106,6.98253,0.2875,-2.43426,2.0685,-53.64541,-13.84964,0.81953,39.8484,-104.57665,74.86232,-5.21678,107.13985,-79.98351,0.95723,24.12963,-23.35198,-21.136,-7.50591,-19.67833,-3.94816,6.11664,-10.70528,0.34903,1.10416,1.1832,-0.39785,0.44949,-1.15694,2.38188,0.21264,-0.20946
709,-5.23883,2.19932,-1.7938,127.42463,55.9476,24.93814,82.09691,4.18936,40.47592,-16.77659,1.45009,5.51211,1.60573,-1.21058,1.18554,-52.80891,-13.9394,1.56983,91.97926,-90.53295,53.9273,-21.48328,96.4845,-30.8248,-1.90253,16.7578,-16.9879,-22.41503,6.04231,6.41741,-4.62134,7.03635,-9.49181,-0.7154,1.96868,10.445,-0.68086,0.62194,-1.24588,2.28754,-0.79554,0.87636
710,-8.86987,1.38143,0.97452,119.32838,62.96055,25.25794,57.82621,-1.69457,28.70718,-20.00686,10.26248,7.64989,2.00861,-1.10682,1.11384,-51.94429,-13.6677,2.37975,76.27259,-100.35262,36.9994,-4.51281,84.89399,-14.13607,1.27176,5.57657,-14.84612,-15.92988,7.02564,11.6069,-4.6996,6.04753,-9.00526,1.10081,1.70474,11.75188,-0.61753,0.43921,-1.00645,2.09968,-1.36583,1.01553
711,-15.83393,-4.23478,13.73475,105.20452,68.59959,24.40552,37.10093,-24.02876,26.42389,-56.57937,17.41204,10.87522,1.16761,-1.6233,1.82471,-50.93749,-13.42927,3.27669,14.06916,-119.04501,39.32742,32.36106,67.14365,-39.2087,5.8084,-1.51326,-18.84299,-4.66607,-7.56728,-5.1378,-4.70444,2.72933,-9.13754,5.16967,-1.47044,4.95822,-0.32147,-0.06166,-0.65717,2.01257,-1.6222,0.39364
712,-16.96799,-6.51861,16.40336,89.73467,70.32021,23.8359,34.78781,-15.0704,40.37445,-82.08563,10.71974,9.59141,0.41494,-2.03093,2.15571,-49.63822,-13.52587,4.11817,-23.75033,-101.53136,62.43092,42.16634,46.99168,-68.45384,5.95715,0.55104,-22.64839,5.70937,-21.69101,-19.35599,-4.70105,0.29993,-8.49834,8.68683,-5.26064,-1.27836,-0.12355,-0.42599,-0.41266,2.02316,-1.74684,-0.07641
713,-7.885,-2.98542,3.46142,78.87319,68.72768,24.72,43.89918,29.8192,65.57602,-67.50428,-6.43923,4.02615,1.01545,-2.05471,1.82919,-47.86298,-14.17349,4.7502,-3.87767,-52.2298,92.4805,9.54089,38.50974,-80.58163,3.65255,10.09892,-25.71873,8.9298,-20.43568,-16.11226,-4.78472,1.43325,-7.81741,8.90656,-5.85617,-1.41569,-0.19687,-0.27891,-0.37166,1.88097,-1.7314,-0.0791
714,3.32198,3.35917,-13.29267,70.86227,66.43902,26.26382,42.09932,72.50297,80.31361,-28.7847,-20.10033,0.32324,2.289,-1.60452,1.31504,-45.26231,-15.06227,5.24065,32.64214,-9.54374,101.86626,-42.76933,36.35101,-94.70875,3.3678,18.85228,-33.99851,3.72811,-7.76312,-6.11355,-5.84878,4.43305,-9.29174,6.04911,-3.45296,1.11357,-0.52926,0.16531,-0.64994,1.53939,-1.61344,-0.16718
