PaulMeinheit/Bachelor_Muay_Thai/processed_Data/E1/roundhouse/sliced/JointMoments/sliced0.csv
Unnamed: 0_level_0,R_KNEE_MOMENT,R_KNEE_MOMENT,R_KNEE_MOMENT,L_KNEE_MOMENT,L_KNEE_MOMENT,L_KNEE_MOMENT,R_HIP_MOMENT,R_HIP_MOMENT,R_HIP_MOMENT,L_HIP_MOMENT,L_HIP_MOMENT,L_HIP_MOMENT,R_ANKLE_MOMENT,R_ANKLE_MOMENT,R_ANKLE_MOMENT,L_ANKLE_MOMENT,L_ANKLE_MOMENT,L_ANKLE_MOMENT,WAIST_JOINT_MOMENT,WAIST_JOINT_MOMENT,WAIST_JOINT_MOMENT,NECK_MOMENT,NECK_MOMENT,NECK_MOMENT,L_SHOULDER_MOMENT,L_SHOULDER_MOMENT,L_SHOULDER_MOMENT,R_SHOULDER_MOMENT,R_SHOULDER_MOMENT,R_SHOULDER_MOMENT,L_ELBOW_MOMENT,L_ELBOW_MOMENT,L_ELBOW_MOMENT,R_ELBOW_MOMENT,R_ELBOW_MOMENT,R_ELBOW_MOMENT,L_WRIST_MOMENT,L_WRIST_MOMENT,L_WRIST_MOMENT,R_WRIST_MOMENT,R_WRIST_MOMENT,R_WRIST_MOMENT
ITEM,X,Y,Z,X,Y,Z,X,Y,Z,X,Y,Z,X,Y,Z,X,Y,Z,X,Y,Z,X,Y,Z,X,Y,Z,X,Y,Z,X,Y,Z,X,Y,Z,X,Y,Z,X,Y,Z
629,5.0796,-51.87265,3.56037,-1.26807,5.91726,2.61333,-17.82709,-51.0565,2.93025,11.22643,2.22007,1.15934,-8.40991,16.2397,-1.57812,-11.80424,-0.48555,1.13673,28.30009,4.18565,-6.8115,-4.92739,-0.06104,0.98016,4.82769,1.63195,1.24081,2.09382,-3.65821,-4.33573,2.05912,-1.26973,0.45755,1.69729,2.2216,-0.59327,0.3304,-0.06677,0.01017,-0.02123,0.41023,-0.11998
630,4.65496,-51.63822,4.20397,-5.186,4.24775,2.04047,-26.16496,-53.54199,4.63825,-2.85136,0.65968,-0.50351,-8.41173,17.04077,-1.45767,-13.19135,-0.75845,0.96006,-1.42016,-4.73063,-6.71508,2.03078,6.45182,5.20386,5.33975,1.59342,1.61871,3.76975,-4.10276,-2.16856,1.58607,-1.5369,0.70179,1.0738,2.09504,-0.3152,0.14786,-0.06838,-0.05811,-0.03916,0.34943,0.02738
631,3.4025,-49.76694,4.71047,-10.07192,3.94117,1.36818,-35.79229,-56.06677,5.59977,-17.95229,7.08846,2.29436,-8.32441,17.80215,-1.34995,-14.48411,-0.8771,0.77152,-34.6608,-3.80398,0.33721,5.20608,12.97391,7.50283,6.26525,-0.25635,0.38309,6.52954,-4.73452,1.20973,1.78789,-1.18281,0.15543,0.66163,1.40661,0.02925,0.12258,0.00916,-0.18913,0.01085,0.08401,0.18463
632,3.04685,-47.11715,4.57999,-11.08838,5.26864,1.28735,-34.16627,-54.1083,4.62442,-20.813,13.49809,5.54671,-8.24634,18.67139,-1.33139,-15.34775,-0.82857,0.70245,-37.06222,2.2326,5.80174,4.58538,12.95577,3.81603,6.15555,-2.08331,-0.91854,7.5948,-4.65042,2.4779,2.24133,-0.66862,-0.3901,0.73685,1.004,-0.00837,0.22987,0.0719,-0.20399,0.16019,-0.10094,0.22255
633,4.55532,-45.40763,4.01726,-7.0005,6.37622,1.83715,-20.4714,-46.48749,3.15533,-7.79944,12.14337,5.24423,-8.23267,19.60074,-1.3626,-15.73196,-0.8266,0.73605,-1.74208,8.63526,4.30971,5.46597,0.85021,-2.94214,5.38606,-2.18176,-0.69148,6.36457,-3.66267,1.56144,2.3867,-0.6415,-0.09395,1.19943,0.92274,-0.09014,0.32423,0.02599,0.01112,0.33913,-0.06323,0.14647
634,7.04424,-45.38757,3.61032,-2.50437,6.38219,2.37464,-8.14035,-40.11449,2.95043,5.81782,7.0583,3.19327,-8.23649,20.39784,-1.36607,-15.91492,-0.92965,0.75293,31.85657,13.30047,0.96315,6.0908,-10.91448,-6.59446,6.24603,-1.24337,0.31341,4.97573,-3.22091,0.33659,2.31322,-1.03391,0.58284,1.64674,0.93606,0.12442,0.3774,-0.09683,0.27212,0.38606,0.09117,0.07063
635,8.63317,-45.97665,3.53791,-2.48541,5.60317,2.35859,-6.91048,-41.99645,3.43269,1.74242,4.18911,2.36402,-8.21121,20.99656,-1.40102,-16.1633,-1.06335,0.66031,25.07553,10.45869,0.90341,7.00596,-6.05509,-4.70472,8.0943,-0.86097,0.42792,5.08255,-3.8541,-0.48985,2.40694,-1.24668,0.60527,1.89438,1.31833,0.20971,0.42453,-0.17924,0.30854,0.28828,0.2891,-0.00454
636,8.29985,-45.26278,3.57574,-5.40351,4.35332,1.97935,-14.26437,-47.49743,3.45747,-15.22727,3.27855,2.72371,-8.14053,21.5285,-1.54022,-16.40578,-1.28882,0.46986,-9.91146,2.25294,1.39182,13.18867,5.28176,1.12733,7.1054,-0.99342,-0.38206,6.0636,-4.51012,-0.62799,2.63278,-0.97215,-0.1339,1.83426,1.73116,-0.07673,0.4048,-0.13696,0.10294,0.14088,0.39803,-0.10129
637,6.81009,-43.22822,3.67817,-6.48523,3.73289,1.75122,-22.27723,-49.52142,3.5219,-23.01237,4.81365,4.29968,-7.98121,22.08976,-1.68687,-16.47832,-1.60672,0.28338,-29.94549,-0.11735,1.04029,17.57903,4.52725,7.11898,3.49132,-0.66654,-0.86533,6.74958,-4.98714,-0.0264,2.66438,-0.54036,-0.77393,1.52156,1.41632,-0.29341,0.2941,-0.00546,-0.13904,0.03233,0.23581,-0.13476
638,5.86815,-41.82875,3.89741,-5.10018,4.82838,1.71627,-24.70267,-50.67923,4.33618,-14.78352,10.5549,6.8142,-7.71954,22.53866,-1.72522,-16.50559,-1.77937,0.17864,-19.78983,3.29558,3.12018,8.35511,-3.22368,8.5397,1.89016,-0.02924,-0.46297,6.59318,-5.63491,-0.04606,2.28559,-0.37411,-0.66624,1.12523,0.84478,-0.45232,0.17588,0.11204,-0.25403,-0.027,-0.01843,-0.13022
639,5.67293,-41.54169,4.04667,-3.724,6.15228,1.55434,-21.42002,-53.48053,5.20192,-3.53031,15.09742,6.52518,-7.49645,22.68495,-1.76239,-16.61647,-1.73957,0.11095,-0.20459,1.25925,5.00329,-3.42101,-3.77439,4.53345,3.2121,0.18634,0.33368,5.22832,-5.50458,-1.61198,1.72865,-0.47636,-0.01333,0.72265,0.99563,-0.91482,0.12678,0.15188,-0.19484,-0.08982,-0.00832,-0.20148
640,5.14683,-40.66058,3.8933,-3.09369,5.16665,1.21237,-17.02536,-52.14705,5.27392,0.57512,10.43216,0.69726,-7.4815,22.60421,-1.96236,-16.64855,-1.76013,-0.01199,10.40602,-8.13466,0.00995,2.28257,1.29798,0.43188,4.39856,0.22028,1.03735,3.29611,-3.40047,-2.44051,1.54937,-0.72263,0.61244,0.40296,1.57139,-1.23429,0.17475,0.09403,0.00157,-0.1236,0.24335,-0.26925
641,4.73657,-38.80853,3.43571,-2.3949,2.78673,1.01149,-14.14747,-43.78358,4.74524,-0.65834,0.39723,-5.74089,-7.65894,22.58872,-2.25879,-16.42607,-1.9212,-0.16259,13.16178,-11.81073,-8.32623,17.94342,2.3612,-1.10636,5.42091,0.13185,1.08649,2.35161,-0.27257,0.20591,1.82388,-0.95065,0.68564,0.16449,1.38287,-0.72049,0.27311,-0.02748,0.15267,-0.07537,0.35699,-0.16442
642,5.65383,-37.47805,2.82121,-1.97062,1.91907,1.09685,-12.97817,-34.55484,3.70816,-4.68699,-3.93117,-5.89534,-7.8546,22.8137,-2.47606,-16.04013,-2.01581,-0.25031,9.7704,-0.65573,-10.82631,18.24522,1.99677,-4.63734,8.37663,-0.90403,-0.0217,2.84727,0.90033,3.75986,2.08838,-0.8728,0.07749,-0.00252,0.45913,0.13133,0.32836,-0.10139,0.08007,-0.01508,0.1659,0.03687
643,6.72784,-37.18404,2.30857,-3.23698,2.41739,1.17748,-15.00115,-31.85569,1.73983,-15.02189,-1.45701,-1.13545,-7.87335,23.12016,-2.59008,-15.67468,-2.03421,-0.28544,-8.05651,12.23662,-7.90609,-0.88435,9.8393,-9.64626,10.94817,-2.11909,-1.20631,4.13447,-1.7783,2.84678,1.96107,-0.55164,-0.52095,0.12431,0.31225,0.19008,0.26917,-0.0565,-0.11841,-0.02502,-0.06007,0.11064
644,5.65621,-37.46943,2.21241,-5.34029,2.75001,1.13094,-19.35464,-37.52104,-0.64818,-26.8623,1.87054,3.30823,-7.65579,23.20623,-2.71622,-15.28369,-2.1231,-0.31774,-31.01308,9.2754,-4.56413,-16.08122,18.59947,-6.79345,8.96325,-1.39161,-0.85347,5.52783,-6.29942,-1.74421,1.8548,-0.42863,-0.47673,0.47057,1.2253,-0.45443,0.20087,0.0386,-0.21149,-0.10711,-0.12207,0.04723
645,3.02304,-38.40469,2.53204,-5.29524,2.90057,1.13362,-20.21712,-46.99934,-1.62148,-24.83429,4.14519,6.01893,-7.38649,22.89287,-2.92484,-14.75503,-2.27471,-0.37271,-28.86234,-4.48548,-0.64187,-9.66876,10.14223,4.6058,4.2849,0.83109,0.58554,6.53419,-8.33237,-3.97615,2.19158,-0.63361,-0.04011,0.9346,1.86357,-0.67643,0.25907,0.07461,-0.136,-0.12369,-0.0776,-0.00091
646,1.83118,-38.93908,2.76994,-3.33312,2.41595,0.98419,-15.34965,-50.7266,0.25967,-9.28271,5.71742,6.53731,-7.31922,22.11504,-3.15454,-14.33885,-2.42609,-0.50908,-0.81719,-8.3173,4.08427,8.25888,-13.03707,11.15004,2.81402,1.7774,1.32214,6.96511,-6.40716,-2.04138,2.41425,-0.84346,0.22498,1.76393,1.73766,-0.18699,0.35954,0.03387,-0.03521,0.07893,0.05395,-0.01715
647,2.52972,-37.91008,2.68336,-2.10757,0.61369,0.4525,-12.91377,-44.80722,4.12876,1.06845,6.12385,4.34548,-7.53049,20.99126,-3.36113,-14.19742,-2.62751,-0.7479,14.59071,3.07466,6.41,17.21191,-28.38437,5.05175,5.09868,0.93835,1.19721,7.11011,-3.64813,0.22347,1.82246,-0.9066,0.3957,2.56848,1.64778,0.09488,0.32262,-0.03583,0.02802,0.34565,0.25886,-0.09005
648,2.96892,-35.901,2.40165,-1.71563,-1.11573,-0.00377,-17.33437,-35.57663,6.48146,-2.15848,5.01518,1.67054,-7.83897,19.95386,-3.54102,-13.97181,-2.8914,-0.96922,2.01778,14.20149,4.40903,10.6026,-22.44283,-5.57118,6.22567,-0.08731,1.01086,7.29767,-3.09678,0.30085,0.78311,-0.79357,0.65798,2.48092,2.00697,-0.34264,0.15106,-0.07454,0.12141,0.39018,0.38105,-0.17363
649,1.94551,-33.98593,2.01873,-0.84375,-1.04359,0.06886,-22.06623,-29.37084,4.83912,-9.24098,3.27445,1.00982,-8.01372,19.26204,-3.67458,-13.45846,-3.05625,-1.0369,-12.55422,15.78144,0.05735,-2.78157,-1.4279,-8.83772,4.24485,-0.72378,0.51249,7.13738,-3.94929,-0.43834,0.38425,-0.44634,0.5919,1.46532,2.33319,-0.90053,0.024,-0.046,0.1794,0.20086,0.31139,-0.13642
650,-0.13829,-33.84435,1.87682,0.2656,0.36879,0.37405,-24.50784,-28.81232,1.72767,-11.20174,3.18096,1.98933,-8.03971,18.56647,-3.7996,-12.94731,-3.02963,-0.9815,-14.3002,13.39677,-2.83144,-7.85914,19.91978,-2.37937,2.09934,-0.93655,-0.28749,6.09754,-4.00296,-0.38665,0.99222,-0.18793,0.0418,0.44197,2.15804,-0.90115,0.03593,0.00875,0.07093,-0.00904,0.15664,-0.00193
651,-1.96797,-35.00002,2.04693,-0.2375,0.72198,0.32464,-27.62903,-31.06748,0.94321,-9.04276,3.37698,2.05355,-8.04575,17.58384,-3.95536,-12.68767,-3.02585,-0.97395,-12.78091,12.60201,-4.02388,3.5876,27.47181,4.47929,2.45186,-0.57631,-0.6572,4.77845,-3.12866,0.08698,1.68486,-0.24936,-0.51102,0.44296,1.59637,-0.27259,0.09001,0.02727,-0.14167,-0.021,0.08317,0.09584
652,-2.37423,-35.97302,2.10421,-2.02554,-0.96881,-0.07127,-29.44532,-34.95789,2.22509,-4.25612,0.42931,0.23891,-8.09827,16.53428,-4.15413,-12.44818,-3.1844,-1.09917,-8.57688,7.76528,-5.36316,18.89384,14.51804,2.49074,4.64756,0.08913,-0.25559,4.27822,-2.74234,0.02893,1.55704,-0.38653,-0.5158,1.28682,1.11409,0.37038,0.09859,0.01839,-0.23448,0.12794,0.10791,0.08204
653,-1.30994,-36.71107,1.72053,-3.67387,-3.4986,-0.4574,-24.61475,-41.00313,2.71975,-1.74946,-5.95773,-2.94915,-8.14663,15.68775,-4.4057,-11.99741,-3.40072,-1.26909,0.72758,-5.46525,-7.76686,15.69468,-8.34087,-5.03909,6.55165,0.79422,0.67302,4.61313,-3.45149,-0.4106,1.06621,-0.40385,0.0517,1.76751,0.83346,0.47081,0.13718,0.0365,-0.12475,0.20801,0.09685,0.01002
654,-0.38537,-37.66998,1.19053,-3.81907,-4.95417,-0.55347,-16.3214,-45.24519,1.52864,-2.7663,-10.87334,-4.94732,-8.13154,15.00303,-4.68923,-11.30367,-3.53631,-1.35714,10.49209,-16.37637,-9.74415,-10.09398,-20.2433,-7.94747,7.40538,1.45478,1.66588,5.04323,-4.46397,-0.50485,1.01915,-0.42254,0.7356,1.4427,0.64794,0.25123,0.25308,0.07786,0.05353,0.14491,-0.01348,-0.00115
655,-1.3288,-38.47211,1.07602,-1.3283,-4.07016,-0.28934,-14.85336,-42.76218,0.35846,0.72843,-8.61824,-2.48103,-8.0648,14.25107,-4.9262,-10.4147,-3.41483,-1.34672,16.7705,-11.60487,-8.34222,-34.13961,-14.77626,-2.44787,7.51737,1.76823,2.15111,5.25146,-4.70793,0.01046,1.11171,-0.49644,1.06486,0.8897,0.66654,0.11395,0.31057,0.07966,0.14926,0.02634,-0.10847,0.058
656,-3.78271,-38.64591,1.43222,1.85388,-2.04041,-0.07045,-23.06664,-36.36853,0.57804,8.10069,-0.73728,2.66982,-8.03387,13.28445,-5.07867,-9.61516,-3.06448,-1.36056,14.31835,3.72878,-3.60974,-28.24852,-4.0481,6.89929,6.59151,1.51179,1.96839,5.59564,-4.13438,0.91573,0.73892,-0.57585,0.99465,0.58097,0.95702,-0.07416,0.19031,0.01185,0.15579,-0.05533,-0.05355,0.05281
657,-5.89388,-39.02438,1.79039,2.35284,-1.37205,-0.32409,-32.87475,-34.48386,1.34821,10.27534,4.7025,4.94467,-8.12542,12.18931,-5.23748,-9.16887,-2.84026,-1.4952,4.50258,11.90524,-0.37778,0.61856,3.1797,12.64604,4.42867,1.08052,1.7749,6.45591,-3.74921,1.27319,0.24123,-0.75255,0.92627,0.37304,1.66335,-0.79436,-0.01709,-0.08094,0.15957,-0.08273,0.1941,-0.11023
658,-7.10118,-39.9094,1.82125,0.43788,-2.65608,-0.80374,-37.73626,-36.71645,1.36578,7.35368,2.45657,2.13105,-8.31502,11.13854,-5.51916,-8.87671,-2.89967,-1.64102,-2.56943,8.21932,-3.39028,15.69902,6.60046,10.99743,2.24409,1.1831,2.15662,7.65285,-4.30855,0.39331,0.25164,-1.01575,1.08179,0.07796,2.79206,-1.87221,-0.1489,-0.12184,0.1777,-0.09219,0.49168,-0.29629
659,-8.28724,-40.22591,1.70452,-0.60865,-4.54933,-0.92677,-39.23541,-33.8572,1.26499,5.64422,-5.29313,-3.12255,-8.49527,10.23956,-5.90504,-8.20975,-3.01687,-1.59121,-4.82829,4.25649,-11.16087,0.724,2.16949,6.60122,1.80333,1.93783,2.85344,8.47515,-5.25561,-0.3272,0.65665,-1.16005,1.28139,0.04667,3.31351,-2.12382,-0.13688,-0.08874,0.16326,-0.0514,0.51496,-0.25746
660,-9.65282,-40.01543,1.78016,1.54433,-5.3278,-0.43807,-40.81468,-25.01156,2.17996,8.47512,-11.6116,-5.97634,-8.63062,9.62189,-6.25954,-6.74695,-2.90931,-1.28779,-5.50878,9.09169,-15.78815,-20.57164,-9.71816,6.24178,2.86692,2.4818,2.80003,7.9445,-5.35357,0.44069,0.91539,-0.95496,1.08753,0.34846,2.35052,-1.16605,-0.026,-0.02624,0.07976,0.01737,0.19841,-0.03735
661,-10.27356,-40.77853,1.94926,5.34355,-4.36898,0.3582,-41.30767,-21.0355,2.93039,14.21565,-11.97487,-3.66326,-8.78911,9.30149,-6.50374,-4.79145,-2.4949,-0.87654,-1.45362,16.82781,-11.80277,-19.67048,-14.07807,9.09139,3.53561,2.10382,1.4779,6.04606,-4.34102,1.08966,0.99793,-0.44459,0.32248,0.80471,0.95038,-0.03923,0.1042,0.02049,-0.04221,0.09125,-0.07407,0.09931
662,-9.80294,-42.75512,1.77303,7.17638,-3.19244,0.91928,-38.87784,-28.04215,1.42348,19.77032,-9.30725,1.1563,-9.03771,9.03257,-6.7224,-3.28325,-1.99995,-0.56158,9.9564,14.34989,-4.46586,1.43144,-0.89266,10.70012,3.184,1.32047,0.06073,4.12095,-3.21417,0.19142,1.18744,-0.04242,-0.40126,1.14051,0.52614,0.3328,0.19814,0.04053,-0.1011,0.16056,-0.04897,0.08202
663,-9.24581,-44.76455,1.29673,6.10144,-3.56737,0.93731,-37.11375,-39.64588,-1.316,23.89078,-8.14382,3.21528,-9.33327,8.53613,-7.0534,-2.8358,-1.72184,-0.46013,20.1309,-0.31472,-2.87384,18.08068,18.02889,11.5705,2.34187,1.31247,-0.01153,3.54189,-2.96084,-0.7151,1.34236,-0.02795,-0.43624,0.91066,0.92362,0.01076,0.20587,0.04568,-0.07424,0.12723,0.09322,0.02541
664,-9.80192,-45.54899,1.0787,3.65885,-4.50083,0.42586,-40.96507,-43.85434,-1.74862,23.25537,-6.66428,0.97532,-9.54422,7.86344,-7.52199,-3.19223,-1.61479,-0.52738,14.27764,-9.20304,-7.48858,13.07415,24.70754,15.03096,1.04448,2.78228,1.29965,4.75952,-3.82164,0.21771,1.19718,-0.2124,0.03412,0.10194,1.21063,-0.56137,0.12106,0.05314,-0.04802,-0.0742,0.12301,-0.04043
665,-11.72199,-45.67476,1.47672,1.42289,-4.44095,-0.19965,-48.29534,-38.41837,1.07276,17.52868,-4.63832,-3.22382,-9.66213,7.46513,-8.0806,-3.36586,-1.47762,-0.57911,-3.65611,-3.20027,-13.04321,-7.05939,14.98687,21.00384,-0.651,4.79641,2.68895,7.39949,-5.26492,2.82455,1.04769,-0.26344,0.34961,-0.681,1.11112,-1.1737,0.03447,0.07639,-0.05034,-0.28998,0.07897,-0.16815
666,-14.52006,-45.77644,2.0984,0.74989,-5.09346,-0.30757,-53.76215,-29.27347,3.66494,15.36384,-10.8538,-8.72543,-9.88236,7.84013,-8.70563,-2.49707,-1.3596,-0.49721,-11.70297,2.63989,-20.86766,-23.11396,-5.30933,26.54388,-2.00881,5.52687,3.39279,10.43549,-6.31138,5.82576,1.21471,-0.29979,0.54508,-0.90795,1.04491,-1.63234,0.02614,0.0883,-0.00239,-0.28017,0.10508,-0.27685
667,-16.52069,-45.11577,2.1284,2.75024,-6.59361,0.22489,-55.45271,-19.91322,2.94079,21.47528,-22.69235,-13.291,-10.32654,8.94581,-9.32703,-0.85213,-1.25573,-0.31182,-3.18159,4.08816,-30.11845,-27.75573,-28.30642,28.20034,-2.69064,4.71869,3.98398,12.33967,-6.42079,8.08124,1.04586,-0.60695,1.19318,-0.74488,1.13288,-1.57825,-0.01366,0.02433,0.11144,-0.10235,0.1412,-0.20704
668,-16.29687,-44.24306,1.46638,5.26896,-5.73138,0.74773,-54.79634,-14.84088,0.37517,27.4094,-23.2267,-11.81994,-10.91306,10.25058,-9.88976,0.32695,-0.9765,-0.0615,4.94875,12.71663,-30.39334,-27.73748,-41.54422,24.42603,-3.81138,3.82967,4.48358,11.38555,-5.57606,8.66108,-0.05733,-0.89539,1.84311,-0.85893,0.83459,-0.9866,-0.20922,-0.10776,0.18459,-0.10287,0.00891,-0.00823
669,-15.24531,-44.21224,0.75407,3.00198,-1.97866,0.44553,-54.38916,-17.43691,-1.33281,29.10003,-10.0097,-5.12105,-11.56404,11.65084,-10.53519,0.80233,-0.01049,0.16057,5.65274,27.46856,-19.7345,-27.98036,-33.68172,19.5313,-6.90111,3.41818,3.37066,7.73907,-3.68728,7.15732,-1.23958,-0.55196,0.95747,-1.30319,0.38219,-0.48337,-0.3908,-0.17516,0.111,-0.33337,-0.14085,0.09628
670,-15.54891,-45.0524,0.41481,2.97084,-0.67208,0.55606,-54.98506,-24.39438,-2.29907,34.11411,-3.64883,-1.40915,-12.2793,13.67249,-11.45473,0.326,0.25321,0.32054,10.08705,26.03456,-13.52664,-26.85619,-11.70107,22.04956,-11.68747,2.7483,0.3498,4.61357,-1.36236,5.77746,-1.57844,0.43491,-1.5938,-1.43461,0.3093,-0.36228,-0.35624,-0.07423,-0.07217,-0.40564,-0.09175,0.08392
671,-17.05732,-45.80569,0.2428,3.85556,-2.68762,0.89782,-55.9445,-27.4467,-3.9104,43.30577,-11.03176,-3.91468,-13.01791,16.66437,-12.6298,0.28257,0.27482,0.30704,22.17273,12.28369,-19.15618,-20.63671,0.82696,34.9297,-15.74811,2.69858,-0.88203,4.72857,-0.09033,7.52049,-1.48142,1.25211,-2.94667,-1.32652,0.13343,-0.47876,-0.23664,0.11205,-0.09173,-0.15925,0.03397,0.05514
672,-17.92774,-45.4344,-0.18134,4.17153,-5.09599,0.99997,-55.43468,-23.15285,-5.8893,46.46771,-18.8959,-6.68268,-13.72839,20.4797,-13.89914,0.40626,0.00064,0.09959,29.40454,7.6999,-26.87575,-14.17876,-11.01008,46.92942,-16.57964,4.12779,1.97656,6.96385,-0.65594,11.6974,-1.63361,1.38897,-1.13065,-1.70512,-0.89565,-0.74845,-0.25435,0.21885,0.21404,0.04606,-0.01663,-0.01697
673,-17.51402,-43.74393,-0.91062,2.61054,-6.06642,0.65128,-52.19604,-17.1286,-6.58595,41.01619,-19.07708,-6.28345,-14.4837,24.9515,-15.20499,0.40226,-0.43601,-0.16051,27.87322,15.06506,-28.25499,-20.90205,-36.41189,41.2798,-13.93124,3.75573,4.36405,7.85975,-2.15794,15.02475,-2.43871,1.28793,1.46429,-2.76008,-2.86013,-0.7898,-0.47431,0.18783,0.59363,-0.17562,-0.3771,-0.12351
674,-17.51491,-41.31256,-1.44299,0.46042,-6.85901,0.21971,-51.47658,-14.01087,-5.2958,31.84413,-18.59538,-6.94229,-15.36053,30.00511,-16.60483,0.25599,-0.79341,-0.36435,16.04543,19.25364,-28.78845,-35.07439,-48.46587,18.05159,-10.55928,-0.53615,2.59291,6.11389,-2.98697,15.29826,-3.79602,1.30551,2.08133,-3.58319,-4.53441,-0.20939,-0.77704,0.08332,0.74697,-0.66182,-0.81116,-0.13733
675,-19.63085,-38.67655,-1.38435,-0.93117,-7.95589,-0.02965,-59.0456,-11.29209,-3.69216,22.68237,-20.95702,-10.06521,-16.28496,35.55549,-18.11171,0.01307,-0.93305,-0.50573,-6.81864,20.121,-33.20446,-28.80694,-29.492,-0.28175,-12.20238,-3.13643,1.50156,3.72114,-2.76391,13.0186,-5.40675,1.39945,1.86268,-3.3063,-4.7272,0.73249,-1.10605,-0.02348,0.77925,-0.90959,-0.91671,-0.03161
676,-22.5779,-36.99066,-1.03134,-1.34544,-7.8622,-0.09954,-69.26295,-9.32988,-4.02767,19.05434,-20.75161,-10.71867,-17.17583,41.65005,-19.67006,-0.0651,-0.88889,-0.54249,-23.66158,25.38273,-36.14552,8.19356,10.77289,7.04388,-22.87275,2.00611,7.00144,3.49032,-2.69965,10.9813,-7.30071,1.85916,3.43439,-1.54671,-4.24775,1.98627,-1.52395,-0.09039,1.09448,-0.5745,-0.77078,0.16243
677,-23.23343,-37.01267,-1.08347,-1.86162,-6.25712,-0.04462,-71.47298,-12.45324,-6.20702,20.21802,-17.02503,-7.7913,-18.08507,48.34109,-21.22952,0.09237,-0.73484,-0.38878,-23.52256,28.11209,-34.19339,49.52609,42.60225,32.72008,-35.74007,10.16878,15.13474,6.1593,-3.05998,10.08974,-8.04682,2.55151,5.96822,1.38336,-3.46379,3.22925,-1.67239,-0.0748,1.63897,0.1582,-0.56221,0.34822
678,-21.62641,-36.79383,-1.76441,-3.7143,-5.22644,0.11841,-65.42381,-18.66596,-8.12724,17.09057,-15.63273,-6.14884,-19.12526,55.42686,-22.81374,0.10618,-0.56035,-0.07355,-20.36323,19.16997,-31.22933,59.98345,39.72135,51.21529,-37.58815,10.3468,16.24015,9.65029,-2.77147,10.68199,-5.80586,2.33612,5.93788,3.85746,-2.41734,4.11739,-1.12734,0.02164,1.75507,0.71905,-0.41987,0.5096
679,-20.35797,-34.55526,-2.53859,-5.72022,-5.762,0.36593,-57.73264,-23.36845,-8.15729,9.57035,-17.93818,-7.83619,-20.2576,62.64159,-24.41746,-0.06071,-0.38316,0.24715,-20.55471,4.44854,-29.43178,30.51763,2.98651,51.92026,-26.35355,0.20302,8.26366,12.0011,-1.77851,16.24893,-2.33424,0.7448,2.29722,3.81557,-2.96945,5.10655,-0.30945,0.06395,1.15106,0.69176,-0.66741,0.81087
680,-19.84585,-31.03778,-2.93037,-5.80186,-5.89206,0.46575,-51.74166,-22.54528,-6.42756,6.50241,-18.12432,-9.94917,-21.26508,69.98112,-25.89968,-0.00378,-0.12594,0.41105,-14.50107,3.5944,-27.71368,-11.77965,-37.14141,44.76168,-13.23998,-10.01433,-0.5222,12.72158,-1.13813,26.03389,-0.95374,-1.025,-1.72191,1.45036,-5.88292,6.26054,0.0563,-0.00992,0.44296,0.22614,-1.29708,1.22109
681,-19.70467,-27.30734,-2.78707,-4.40026,-3.70124,0.12024,-50.78335,-11.89841,-4.31827,11.05383,-11.48185,-8.69802,-22.07368,77.46761,-27.19855,0.24416,0.13511,0.33759,-4.38202,31.38389,-25.0144,-27.63342,-52.05996,37.97885,-7.07232,-8.89257,-1.47105,11.5364,-1.58755,30.93241,-1.76011,-0.9714,-1.63452,0.35213,-8.64843,7.40755,-0.09226,0.04754,0.44831,0.06185,-1.72124,1.49211
682,-20.67891,-24.19259,-2.09826,-4.79095,-8.60407,-0.74197,-56.32551,1.64399,-3.23937,12.17503,-14.12844,-7.93327,-22.87913,84.77146,-28.42937,-1.47091,-2.47018,-0.95571,-8.01552,55.25675,-25.56848,-11.25747,-36.45971,29.90151,-7.83272,2.00511,4.15785,8.2859,-2.76341,24.41208,-2.77306,1.31697,2.26169,2.38485,-8.40081,7.93915,-0.40115,0.37038,1.04245,0.43561,-1.44019,1.34963
683,-21.61016,-21.93832,-1.51014,-4.46165,-8.03462,-1.0508,-60.08804,2.3455,-3.53451,19.03819,-11.48641,-3.65501,-23.84639,91.53076,-29.58962,-3.20028,-3.06129,-1.503,-3.39712,65.81648,-20.26665,4.66585,-0.92965,21.52509,-10.58728,11.00408,8.80971,4.09995,-3.60574,11.35186,-2.70719,3.60777,5.41091,4.92841,-5.47716,7.03894,-0.59522,0.69517,1.48658,0.78843,-0.73529,0.80827
684,-20.32548,-19.22942,-1.76344,-3.20597,-10.62669,-0.51637,-55.23341,-10.53965,-4.07385,24.96727,-21.30667,-6.74835,-24.98146,97.74738,-30.53382,-5.18343,-3.57929,-1.84896,10.72259,40.06932,-21.18458,2.41046,30.03298,19.1166,-9.09588,13.7804,9.50901,2.05128,-3.18755,1.1761,-0.83313,4.59076,6.15429,6.03805,-1.76695,5.58904,-0.50942,0.94622,1.63273,0.9531,-0.12262,0.44112
685,-17.79706,-14.27213,-2.58224,-0.29807,-14.89638,0.53866,-49.72948,-16.61486,-4.08417,27.02523,-37.69738,-15.55349,-26.26314,103.51151,-31.24834,-7.11632,-4.11095,-2.10731,18.94203,13.07476,-33.14984,-2.3663,22.52444,23.89458,-4.26398,13.75125,7.63412,4.11072,-1.67844,-1.26135,2.12156,4.6204,5.18273,5.5815,1.17183,4.80162,-0.22475,1.192,1.56506,0.943,0.18032,0.59793
686,-16.18362,-7.1976,-3.33402,3.92019,-17.37613,1.269,-51.52168,-3.20051,-4.37328,22.84632,-44.78571,-19.71738,-27.61249,108.5666,-31.80873,-9.22999,-4.87499,-2.53459,7.37229,19.42661,-48.08438,-0.32398,-25.93439,28.46271,-4.8861,11.37,4.67454,8.81735,-0.32707,2.17526,3.70779,3.19983,2.61598,3.84099,2.16755,4.28745,-0.03483,1.11435,1.11112,0.61943,0.1243,0.84154
687,-15.41316,-0.75184,-3.78136,7.57434,-15.09277,0.87351,-52.75395,12.19137,-4.8648,7.37217,-31.92951,-13.59266,-28.91537,112.43542,-32.20954,-12.09082,-5.65322,-3.15223,-19.06768,45.37948,-49.30546,0.46829,-62.71046,24.61065,-11.20018,10.00229,2.88465,12.78934,0.50915,4.44948,3.89309,2.00535,0.41889,2.41368,2.51301,3.42742,0.14568,0.85739,0.44634,0.29658,0.14266,0.7341
688,-14.01856,3.22631,-4.08323,9.03778,-10.25914,-0.29687,-41.88232,7.69889,-4.09244,-19.80403,-10.53152,-4.98957,-30.0719,114.86008,-32.31581,-15.77029,-6.19675,-3.7387,-44.49185,48.22285,-33.35528,1.17015,-46.85194,15.73815,-14.28368,13.52269,2.36587,13.81907,1.26762,0.5758,4.46097,3.39515,-0.25759,1.47879,4.1196,1.32097,0.43323,0.90991,-0.19056,0.15127,0.59458,0.22839
689,-11.45422,6.278,-4.47397,11.52729,-9.5129,-0.48313,-23.07737,-10.15754,-1.8047,-41.02208,-3.21883,-3.57744,-30.87386,115.75793,-31.91835,-19.54165,-6.74633,-4.15781,-51.77563,15.84885,-16.45614,15.73952,-7.18638,17.13397,-11.16479,17.58992,1.50968,14.56847,3.05133,-5.86435,5.16278,5.47336,-0.45907,-0.27487,6.81454,-2.70483,0.49522,0.97979,-0.50976,-0.04437,1.23946,-0.46374
690,-8.90061,9.61453,-4.56023,18.77146,-14.95719,1.14559,-13.20778,-21.02882,1.19213,-43.40184,-12.62862,-7.2323,-31.13623,114.87131,-30.98217,-23.14314,-7.48842,-4.45432,-48.23819,-20.65318,-11.86554,38.76608,13.48691,30.09468,-6.12668,18.67408,0.91872,15.84468,5.46412,-10.29004,4.73442,6.52227,-0.20763,-2.73322,8.65238,-7.35439,0.11536,0.88201,-0.18888,-0.39391,1.61344,-1.05253
691,-7.45789,11.31852,-3.74283,29.53745,-21.0369,3.25596,-16.4982,-21.39398,4.00737,-36.91045,-19.63016,-6.97062,-30.96919,111.77348,-29.70813,-26.98796,-8.04886,-4.66982,-52.28645,-32.36979,-12.65825,46.91228,20.70026,30.75772,-1.72133,13.40004,0.94002,13.82288,5.1165,-16.67625,3.84387,5.3684,0.07043,-4.42414,8.78687,-10.77205,-0.32276,0.58946,0.45412,-0.73034,1.61639,-1.49866
692,-6.2659,9.62137,-2.33865,40.48222,-22.53429,4.38466,-15.70876,-23.74864,5.61397,-35.64664,-13.09929,-0.37735,-30.51055,106.09907,-28.10501,-31.03968,-7.94438,-4.78452,-55.15151,-28.07296,-4.22808,38.07331,36.84458,5.64842,4.88622,4.06157,-0.44596,9.37914,1.99417,-26.58699,5.74197,2.66001,-1.21474,-4.45791,8.78012,-12.26266,0.00235,0.16265,0.58859,-0.83299,1.61723,-1.81655
693,-3.25739,6.57134,-1.57964,49.84543,-20.01824,4.57048,3.36343,-31.98878,5.75189,-44.39773,-0.35884,6.81111,-29.47915,97.80342,-25.80854,-34.91392,-7.20532,-4.78236,-41.5407,-28.6972,14.68304,29.70986,56.10751,-27.76113,10.93571,4.44027,-4.83056,7.58934,0.85461,-32.85683,9.45182,3.6039,-4.2085,-3.88516,9.68977,-13.23697,0.99793,0.27322,-0.23077,-0.84984,1.76276,-2.06698
694,2.18265,5.05985,-2.05063,58.2164,-16.61595,4.62536,33.10777,-35.32771,5.85157,-59.57961,9.87386,10.52026,-27.45414,87.26727,-22.63517,-38.44759,-6.36241,-4.66413,-21.8236,-30.20567,32.86146,29.91951,58.00774,-50.89165,9.88137,18.20794,-10.57877,8.52704,2.22436,-33.42386,9.66844,9.80631,-7.23842,-4.18528,9.92285,-15.53725,1.41635,1.27452,-1.57667,-1.13394,1.66665,-2.41723
695,7.82037,5.9695,-3.19081,67.93958,-14.36626,5.18566,55.28074,-22.34554,6.37354,-71.6246,15.19731,11.30626,-24.47478,75.14824,-18.91943,-41.51945,-5.91407,-4.47318,-14.92324,-17.2184,39.23111,30.08824,41.36744,-63.87247,5.14095,30.22525,-14.75176,8.50564,1.50432,-34.70142,5.99593,15.23842,-8.97561,-5.35892,7.96223,-18.95478,0.70451,2.28175,-2.48644,-1.6937,1.17011,-2.84195
696,10.70765,8.30345,-4.041,80.04734,-12.13332,6.09848,60.65037,3.1436,6.11797,-75.76474,17.59572,10.44897,-20.98803,62.1521,-15.05977,-44.13677,-5.7181,-4.26993,-25.96661,3.62203,33.3845,20.4969,30.40715,-63.62373,1.06613,29.78365,-14.98105,6.18998,-2.43921,-38.34773,1.71737,15.91447,-8.92326,-6.26928,4.79673,-21.18065,-0.45318,2.39696,-2.38116,-2.10885,0.69402,-2.97655
697,11.18588,10.60391,-4.56748,92.34384,-7.59362,6.7659,58.17977,25.8774,4.73456,-78.92937,20.30139,8.67031,-17.31197,49.2196,-11.23205,-46.49126,-5.29891,-4.06249,-44.32899,12.32836,26.58912,11.96103,40.37799,-45.25452,-2.33417,21.5288,-11.64935,3.65446,-5.62538,-39.59829,-1.26201,13.6672,-7.68261,-5.96262,3.07437,-20.19573,-1.23582,1.78483,-1.67062,-2.06283,0.6913,-2.6063
698,12.62003,13.66117,-6.69846,102.56386,-2.67534,7.5769,64.30151,37.88099,3.01505,-89.40972,21.30171,6.04133,-13.40104,37.64062,-7.76323,-48.60624,-4.81053,-3.81073,-55.43055,2.03794,27.74934,24.46329,58.2894,-28.58017,-0.44815,16.62633,-10.23344,2.41597,-6.21899,-37.50312,-1.74161,11.52985,-7.30405,-4.51439,3.74307,-16.66096,-1.334,1.16055,-1.05367,-1.74953,1.11394,-2.05676
699,14.68623,18.37906,-11.09349,111.57832,-0.78021,9.38217,80.67776,38.62442,2.81538,-103.19867,19.03057,4.25825,-9.44192,28.08656,-5.22988,-50.40348,-4.86028,-3.47177,-55.28588,-19.99082,36.82368,48.5364,70.60338,-39.688,10.72854,20.82135,-15.98119,0.72208,-6.91892,-35.48399,0.36072,10.6889,-9.28695,-2.82478,4.81259,-12.71094,-0.88801,0.91893,-0.81462,-1.43833,1.61136,-1.68078
700,12.60209,22.36178,-14.64635,121.46507,-0.12073,11.85342,94.32231,25.62569,5.84495,-107.09069,18.64468,6.71925,-6.20305,20.19006,-3.79638,-51.90184,-5.48585,-3.05777,-47.08749,-45.89396,50.55984,50.26861,82.22971,-70.8454,24.72921,29.53464,-26.36354,-3.45233,-9.677,-32.76166,2.92029,11.02107,-12.6391,-1.50243,3.92896,-8.24419,-0.26934,1.0093,-0.88565,-0.85052,1.83157,-1.21217
701,7.42326,22.7464,-15.72423,131.84818,2.88071,14.21414,104.74447,1.48725,11.11963,-94.84167,18.04288,10.34317,-3.98051,13.5423,-3.02518,-53.23163,-6.20747,-2.66302,-22.60552,-78.3064,61.04599,20.40248,101.06782,-88.41626,29.37007,32.93638,-31.91388,-6.95651,-12.61052,-27.49277,3.02914,11.72329,-14.18454,-0.22871,1.85853,-2.85905,0.00785,1.19187,-0.97268,0.27487,1.63198,-0.36807
702,4.89314,19.39666,-15.95154,140.49001,9.18853,16.02162,116.19638,-17.59365,15.57172,-73.35867,11.44865,8.13677,-2.35386,7.99296,-2.49992,-54.64143,-6.87428,-2.37281,18.15533,-111.76222,57.94719,-9.48213,121.0181,-79.07751,21.76039,26.82233,-27.74899,-6.03925,-14.34169,-24.85135,0.72016,11.53562,-12.53577,1.14678,0.73933,-0.0321,-0.19219,1.25777,-0.87969,1.35563,1.27104,0.25503
703,3.24713,13.90323,-14.46918,145.465,19.1962,16.50741,110.12373,-15.70158,16.97253,-60.35946,11.21653,3.07063,-1.40017,3.33614,-1.90009,-56.19694,-7.75114,-2.16907,31.89591,-114.76006,43.25976,-12.89622,126.7608,-63.82045,11.24235,16.73315,-20.68848,-5.83266,-16.50959,-28.88498,-0.88138,9.85419,-11.03882,0.87578,-0.14447,-2.4115,-0.31215,1.1025,-0.91674,1.5022,0.9805,-0.01672
704,-1.76699,2.92538,-5.73558,146.91888,30.41313,16.05391,79.22762,-8.56705,20.50648,-69.82549,26.01126,2.49065,-0.21092,-3.35891,-0.15239,-57.26206,-9.01391,-1.93586,-10.42881,-91.6622,35.3438,0.78711,114.23359,-68.10882,6.99316,9.60203,-19.30628,-10.20419,-18.85574,-36.57962,-0.42315,7.19285,-12.755,-1.04688,-0.84188,-7.50327,0.04005,0.72476,-1.36666,0.88282,1.09005,-0.93393
705,-6.2454,-4.10208,3.6428,146.401,38.18447,16.53333,48.89335,1.8935,24.31443,-92.64616,39.14857,5.67638,-0.94731,-4.60691,0.89882,-57.04197,-10.47343,-1.50605,-71.39866,-61.02259,37.73524,13.35975,100.21479,-93.14104,8.5188,8.07007,-22.52924,-13.77392,-20.24963,-44.51237,0.02616,4.86493,-14.85153,-0.98399,0.05089,-11.37478,0.43935,0.27378,-1.69539,0.83112,1.67611,-1.7762
706,-8.6756,-9.79068,12.88522,143.73668,42.33707,18.52764,49.69267,-10.84585,36.82763,-104.38341,35.94972,8.67543,-1.26703,-4.88356,1.94051,-55.80167,-11.87812,-0.80739,-83.96329,-72.61372,57.90902,20.06127,101.53516,-117.31059,9.55125,13.45362,-25.56082,-13.90022,-21.08451,-49.12561,-0.97759,4.26331,-14.14099,1.52346,1.30174,-11.87875,0.41365,0.05155,-1.43373,1.6724,1.93947,-1.99125
707,-8.15497,-10.65882,16.25031,138.21225,45.67994,21.04496,73.15603,-27.28753,50.32425,-89.72851,19.83947,9.11627,-0.84699,-4.03531,2.48055,-54.55266,-13.10359,0.02373,-35.30334,-101.45256,77.81978,15.35919,109.60406,-116.26189,6.49915,21.90683,-26.49893,-15.98096,-18.46708,-42.62769,-2.60471,5.00115,-12.15465,2.22964,1.20541,-7.86416,0.04443,0.16836,-1.09345,2.2956,1.32501,-1.40943
708,-6.33918,-4.53457,8.83859,132.27414,50.03568,23.30424,88.87505,-17.91472,51.45104,-51.74549,4.42106,6.98253,0.2875,-2.43426,2.0685,-53.64541,-13.84964,0.81953,39.8484,-104.57665,74.86232,-5.21678,107.13985,-79.98351,0.95723,24.12963,-23.35198,-21.136,-7.50591,-19.67833,-3.94816,6.11664,-10.70528,0.34903,1.10416,1.1832,-0.39785,0.44949,-1.15694,2.38188,0.21264,-0.20946
709,-5.23883,2.19932,-1.7938,127.42463,55.9476,24.93814,82.09691,4.18936,40.47592,-16.77659,1.45009,5.51211,1.60573,-1.21058,1.18554,-52.80891,-13.9394,1.56983,91.97926,-90.53295,53.9273,-21.48328,96.4845,-30.8248,-1.90253,16.7578,-16.9879,-22.41503,6.04231,6.41741,-4.62134,7.03635,-9.49181,-0.7154,1.96868,10.445,-0.68086,0.62194,-1.24588,2.28754,-0.79554,0.87636
710,-8.86987,1.38143,0.97452,119.32838,62.96055,25.25794,57.82621,-1.69457,28.70718,-20.00686,10.26248,7.64989,2.00861,-1.10682,1.11384,-51.94429,-13.6677,2.37975,76.27259,-100.35262,36.9994,-4.51281,84.89399,-14.13607,1.27176,5.57657,-14.84612,-15.92988,7.02564,11.6069,-4.6996,6.04753,-9.00526,1.10081,1.70474,11.75188,-0.61753,0.43921,-1.00645,2.09968,-1.36583,1.01553
711,-15.83393,-4.23478,13.73475,105.20452,68.59959,24.40552,37.10093,-24.02876,26.42389,-56.57937,17.41204,10.87522,1.16761,-1.6233,1.82471,-50.93749,-13.42927,3.27669,14.06916,-119.04501,39.32742,32.36106,67.14365,-39.2087,5.8084,-1.51326,-18.84299,-4.66607,-7.56728,-5.1378,-4.70444,2.72933,-9.13754,5.16967,-1.47044,4.95822,-0.32147,-0.06166,-0.65717,2.01257,-1.6222,0.39364
712,-16.96799,-6.51861,16.40336,89.73467,70.32021,23.8359,34.78781,-15.0704,40.37445,-82.08563,10.71974,9.59141,0.41494,-2.03093,2.15571,-49.63822,-13.52587,4.11817,-23.75033,-101.53136,62.43092,42.16634,46.99168,-68.45384,5.95715,0.55104,-22.64839,5.70937,-21.69101,-19.35599,-4.70105,0.29993,-8.49834,8.68683,-5.26064,-1.27836,-0.12355,-0.42599,-0.41266,2.02316,-1.74684,-0.07641
713,-7.885,-2.98542,3.46142,78.87319,68.72768,24.72,43.89918,29.8192,65.57602,-67.50428,-6.43923,4.02615,1.01545,-2.05471,1.82919,-47.86298,-14.17349,4.7502,-3.87767,-52.2298,92.4805,9.54089,38.50974,-80.58163,3.65255,10.09892,-25.71873,8.9298,-20.43568,-16.11226,-4.78472,1.43325,-7.81741,8.90656,-5.85617,-1.41569,-0.19687,-0.27891,-0.37166,1.88097,-1.7314,-0.0791
714,3.32198,3.35917,-13.29267,70.86227,66.43902,26.26382,42.09932,72.50297,80.31361,-28.7847,-20.10033,0.32324,2.289,-1.60452,1.31504,-45.26231,-15.06227,5.24065,32.64214,-9.54374,101.86626,-42.76933,36.35101,-94.70875,3.3678,18.85228,-33.99851,3.72811,-7.76312,-6.11355,-5.84878,4.43305,-9.29174,6.04911,-3.45296,1.11357,-0.52926,0.16531,-0.64994,1.53939,-1.61344,-0.16718
715,5.64412,6.95375,-20.116,59.63224,65.84932,26.38003,18.97157,77.02197,65.41118,1.76043,-17.43443,2.36432,2.65575,-0.77318,0.97646,-41.61795,-15.45062,5.80933,37.87733,4.95977,71.46703,-98.93934,27.33727,-116.37327,4.29022,21.18787,-44.72901,-2.99041,2.80282,-1.85491,-7.59349,6.72622,-11.88514,2.8581,-1.03571,2.2645,-0.88989,0.57197,-1.00572,1.11188,-1.45383,-0.42376
716,0.06542,3.83224,-11.81868,45.82573,66.86502,24.90233,5.84957,44.07208,36.60303,16.60273,1.30432,7.60388,2.02374,-0.05232,1.04733,-36.93264,-15.19454,6.45327,43.68291,-0.0888,31.08371,-142.37247,23.44035,-112.98744,3.4602,18.18529,-45.4557,-4.90942,5.43736,-1.54332,-7.67167,7.87238,-12.22073,1.35593,0.11649,2.70614,-0.87947,0.84707,-0.99711,0.72162,-1.21765,-0.25956
717,-3.68261,-2.60233,3.28232,36.25606,66.65359,23.99345,29.9914,11.93163,28.78246,29.66294,15.4842,9.78221,1.55695,0.16282,1.50939,-31.33758,-14.88032,6.86268,98.24525,-10.19137,27.78008,-139.24173,43.34782,-66.45194,1.29845,12.82626,-31.89788,-3.13034,3.96144,0.10499,-5.1347,8.4127,-9.87184,1.13585,0.84602,3.73568,-0.45019,0.99345,-0.64862,0.38922,-0.82022,0.38812
718,-0.62116,-5.18088,12.40369,29.5176,64.07415,23.30896,65.43272,6.87336,44.63025,37.81299,7.82586,5.82478,1.94184,0.00159,2.11109,-25.49644,-14.70026,6.79599,160.02667,-24.59146,52.26826,-86.62018,71.82224,-13.43048,-0.23236,6.09832,-16.37262,-1.22937,2.00964,2.12393,-2.64975,7.98935,-7.70296,1.08939,1.4809,4.21497,-0.06673,0.93244,-0.40682,0.15385,-0.34446,0.8219
719,4.32794,-2.44313,11.44975,19.77073,58.53284,20.78146,71.77415,13.61295,52.35847,31.94911,-17.53163,-2.07917,2.69846,0.00185,2.58036,-20.09873,-14.31907,6.28387,162.82117,-50.48901,52.18071,-29.38473,77.27656,3.19898,-1.32701,-1.49139,-11.09801,-0.71072,-0.43064,1.10336,-2.86089,6.44933,-7.23091,0.79967,1.10872,2.58498,-0.0774,0.69112,-0.42794,0.11093,-0.13412,0.539
720,2.00501,0.3172,-0.64626,9.77446,49.79739,17.14078,36.88286,9.381,27.80203,23.64832,-45.49979,-9.55671,2.49214,0.43191,2.25958,-15.27894,-13.77851,5.49997,101.72561,-84.14219,3.61888,4.55963,57.12613,-6.41812,-2.82466,-6.56884,-14.34405,-1.47681,-1.2027,-2.03103,-4.68601,5.55912,-7.81194,0.31074,-0.11227,-0.09483,-0.33,0.60712,-0.55921,0.20191,-0.36761,-0.17104
721,-6.03856,1.46404,-23.78346,2.3237,41.28392,13.65138,-24.46449,-2.60342,-20.43857,17.149,-61.73552,-12.84167,1.06044,0.95099,0.68252,-11.17544,-13.59489,4.61064,-0.55378,-103.22123,-66.28778,23.68784,32.4359,-8.63693,-4.0949,-5.17594,-19.49491,-2.39742,3.20028,-3.51831,-5.58462,6.6063,-8.93854,-0.10139,-0.47904,-1.4122,-0.48789,0.87979,-0.73685,0.27946,-0.74684,-0.70175
722,-7.72847,6.59418,-39.98429,-4.09777,35.60001,10.41341,-65.76995,-1.69584,-45.30072,8.69042,-59.43059,-12.368,-0.05514,1.48548,-0.85076,-7.83709,-14.04975,3.76191,-80.74209,-85.62151,-93.78033,23.91527,19.98652,2.00877,-4.13331,1.66856,-23.59134,-1.75047,10.84596,-1.72691,-4.58373,8.49743,-10.12354,-0.11754,0.91701,-0.89224,-0.32941,1.21658,-0.87217,0.30765,-0.84155,-0.83738
723,-0.81474,12.93022,-23.63104,-7.71412,30.99381,8.23966,-42.14943,17.78502,-0.25231,9.47149,-44.42852,-11.61447,-0.12139,2.09078,-0.2426,-4.84793,-15.19192,3.04041,-52.61744,-41.53623,-29.42527,-7.91917,23.66825,13.06784,-2.46154,6.29729,-22.4738,1.66593,13.01771,2.58873,-1.98625,9.48066,-10.36959,0.61905,2.1646,0.42925,0.17728,1.24359,-0.78883,0.32735,-0.71533,-0.69529
724,6.85311,12.98578,20.28224,-7.41656,24.43443,7.19819,18.22171,37.89596,80.79127,21.60057,-34.22596,-11.4525,-0.1108,2.5368,2.30501,-1.83454,-17.30723,2.3785,52.35115,-10.60004,75.57244,-52.21481,35.04176,18.47487,0.20609,1.48589,-12.01071,6.01177,8.6718,8.36086,1.20149,8.56821,-8.99107,1.5997,2.22459,2.301,0.80509,0.91843,-0.49804,0.25509,-0.61811,-0.3085
725,9.27674,7.74245,53.65401,-7.09286,17.24827,6.05873,49.28259,41.64518,113.31891,26.5381,-32.4975,-9.69374,-0.57527,2.325,4.08532,1.04871,-20.28757,1.69165,111.69777,-6.70537,115.79418,-74.47293,36.14626,13.1774,1.86302,-8.54381,1.6128,8.79983,5.74375,13.46831,3.48531,6.46546,-6.82776,2.07956,2.17885,4.63073,1.21111,0.56711,-0.27553,0.01025,-0.5813,0.28857
726,6.6968,1.06588,43.95749,-8.26559,11.0134,4.30281,33.51417,29.66679,80.76704,19.55434,-32.04406,-8.20438,-0.12555,0.94023,3.53252,3.50239,-23.64365,0.9361,85.2016,-15.59118,72.98669,-72.15719,15.60061,-4.01961,2.03154,-11.79154,6.2947,9.12568,2.28943,14.2405,4.19408,5.09473,-5.62104,1.99418,0.44646,6.03308,1.25636,0.49598,-0.30762,-0.3158,-0.73992,0.79895
727,4.12979,2.61235,11.94979,-7.38195,5.24958,2.73973,-1.30042,19.0769,47.70797,16.71251,-31.07182,-10.43072,2.40435,-0.15677,4.34176,5.54864,-27.21929,0.08591,30.25637,-21.20485,23.85766,-68.54566,-6.14159,-15.56672,1.28918,-6.19017,0.17001,8.01375,-4.71057,11.1283,3.56567,4.78652,-5.41253,1.37411,-3.50468,5.82724,1.01025,0.54197,-0.38849,-0.57465,-1.09004,0.90264
728,2.72678,11.15461,11.80278,-1.32637,1.08752,2.87756,-32.03321,15.02343,70.50852,25.4968,-24.66389,-12.61668,6.01004,-0.74932,11.45625,7.40699,-31.27746,-0.85704,-11.9275,-14.88397,33.4801,-62.49567,4.72832,-1.38355,-0.88065,-2.31521,-6.14508,9.49063,-5.12622,9.1783,2.2045,4.29294,-4.74862,0.94224,-4.70079,4.81134,0.67845,0.38882,-0.24279,-0.54839,-1.1639,0.48747
729,19.61072,-17.31791,25.87074,7.48084,-1.76628,4.44939,5.6871,-23.57281,120.7065,37.1698,-8.67577,-9.72504,11.89663,-6.34846,17.28767,8.90081,-36.15658,-1.91655,26.09223,-31.84123,75.30242,-27.51351,38.4493,33.00552,-3.12866,-6.08442,-3.45685,15.98463,5.77929,12.62754,1.65996,3.16202,-3.46568,2.20305,0.10714,4.13274,0.58969,0.0781,0.01562,-0.09231,-0.57374,-0.13143
730,46.23093,-39.58348,-58.76355,14.9091,-6.90916,5.39711,87.78809,-51.55619,36.68288,55.43641,5.55889,-5.35117,18.45966,-7.47027,7.06431,9.74655,-41.34555,-3.04777,138.75862,-39.92887,-20.78919,24.33261,49.51184,59.93953,-2.84242,-10.80862,4.08433,22.16358,15.17659,22.65175,2.49393,1.94092,-2.68162,5.43649,6.61237,6.07924,0.76849,-0.15132,0.09707,0.51897,0.41892,0.03618
731,-31.30915,43.21232,-203.00566,21.37658,-15.73149,4.94473,-60.68398,46.16463,-245.45815,95.65121,2.25389,-5.4938,4.99527,5.34546,-10.70948,10.35106,-45.20319,-4.02282,52.73535,58.28398,-322.7684,50.27905,25.72977,57.73118,-0.17893,-9.39619,5.97214,21.52942,21.95113,33.10469,3.58936,0.97176,-2.59414,8.98616,10.85347,11.38813,0.96078,-0.24325,-0.00986,0.77625,1.16897,1.52746
732,-132.9588,93.13602,-250.93187,26.69384,-22.54632,4.17483,-279.93991,123.20537,-420.7814,138.65492,-10.35054,-8.2308,-21.17114,11.86562,-29.68262,11.07196,-46.53286,-4.53632,-84.8726,119.65356,-482.89963,53.34103,-5.56232,31.78502,2.20685,-5.34722,2.42367,13.05257,35.3484,31.64325,4.19423,0.06213,-2.60982,10.76562,13.7604,13.41827,1.04557,-0.33129,-0.12483,0.65306,1.39763,2.57077
733,-148.63525,94.32117,-292.06,28.88619,-24.9488,3.36431,-336.61768,141.59761,-511.12354,144.34041,-21.62647,-9.93826,-31.16065,20.42091,-41.56672,11.66712,-46.23197,-4.72732,-126.68562,119.71579,-561.27283,46.67147,-29.22152,6.07039,3.0853,-5.85375,4.25577,-15.57595,14.56297,12.20845,4.2883,-0.88619,-2.61266,4.13821,7.34464,2.2224,0.91752,-0.47133,-0.15141,0.18642,0.67175,0.30392
734,-132.53679,89.47205,-293.91248,31.24331,-28.123,2.04647,-308.49869,132.66747,-506.22931,117.30919,-40.12051,-11.75705,-18.35234,22.77424,-30.2387,12.22176,-45.9186,-5.26528,-177.86469,85.79121,-583.20819,-52.43215,-23.86615,77.48237,1.71155,-11.69428,15.53191,-20.84811,-68.13441,52.34142,3.43718,-1.61791,-2.35678,-8.80459,-19.83985,5.16188,0.4371,-0.55157,-0.06304,-2.10522,-2.42272,-1.48725
735,-66.14404,41.2981,-147.85178,38.28506,-32.99137,1.03194,-160.89479,55.07158,-274.07803,98.0379,-62.0508,-12.27615,0.87452,6.69125,-5.71667,13.30068,-45.6231,-6.44146,-92.60284,-20.98501,-373.06873,-69.35847,18.8139,133.8484,-1.86936,-17.45258,26.91727,31.97189,-42.22918,72.27147,2.24272,-1.9674,-1.72337,-0.98699,-19.55119,24.33256,-0.03479,-0.53647,0.09515,-2.84239,-2.35621,2.21829
736,6.32273,2.13599,-52.3961,46.34063,-35.87448,0.8538,-23.96405,21.98367,-200.81615,92.82142,-68.78886,-7.4509,10.18351,-4.02957,8.35976,14.84861,-44.38609,-7.6739,27.67123,-55.4263,-322.89224,81.32044,-12.19284,0.50626,-3.57965,-18.33262,28.79587,-2.8485,-9.7703,-56.27931,2.34287,-2.54848,-1.19416,0.38545,-1.14291,2.10158,0.04626,-0.58321,0.19015,1.19461,0.88093,2.06466
737,30.61044,-0.10693,-68.95073,48.20978,-37.28524,0.29064,6.43002,52.67287,-300.82034,72.96083,-62.35588,0.11403,12.59759,-2.24552,4.34201,16.02709,-42.36522,-8.36358,28.01493,2.07661,-425.98932,138.37932,-51.92762,-85.90025,-0.97769,-14.58026,22.8168,3.21724,52.9107,-118.92599,2.85188,-3.63311,-0.47564,3.43061,17.33519,-22.11286,0.3872,-0.68642,0.20251,3.34809,1.1699,-0.76643
738,32.62241,3.04848,-81.71218,47.17062,-41.31364,-1.15342,16.68543,57.18938,-265.40314,46.53708,-65.74857,2.43007,10.37906,0.36578,-3.69593,16.59269,-40.77857,-8.75936,9.75471,11.69507,-340.14316,-8.27838,60.88501,84.35945,4.1639,-9.36246,16.23446,135.27202,111.29533,61.11745,2.26873,-4.30489,0.47664,34.16039,31.28698,15.52029,0.41273,-0.63486,0.19861,2.86208,1.48815,1.60987
739,17.14672,1.9683,-52.12642,49.04622,-42.76282,-1.99592,7.51854,22.24439,-86.14872,43.51042,-71.0498,-0.95265,4.01201,-0.33118,-5.48955,16.77056,-39.72361,-9.30602,15.28025,-39.68512,-82.96038,-100.45492,85.25279,187.71346,9.01551,-6.33182,13.51906,52.52004,-33.43507,161.69629,1.53875,-4.42292,0.7128,18.69781,-3.24952,44.77805,0.17675,-0.50146,0.23172,-0.1344,0.59361,5.47389
740,-18.0217,8.21564,-22.1361,50.86441,-37.48196,-2.10483,-46.34724,-2.01633,26.27634,55.41062,-64.34424,-4.15764,-4.05998,-1.09883,-4.28867,16.4735,-38.68322,-10.08955,0.10752,-72.34947,81.73025,6.81321,-32.93869,54.32456,10.63198,-7.57096,16.13659,-75.24327,-50.01923,9.91614,1.65854,-4.99426,0.14852,-16.25695,-11.04317,-8.34312,-0.00157,-0.57627,0.33936,-2.11277,-0.59484,-2.2222
741,-46.67226,20.33444,-10.18667,52.52513,-31.39982,-2.0467,-101.08156,-3.04303,37.60033,67.64354,-58.21683,-4.67129,-8.47407,0.51391,-3.79007,15.98273,-37.80321,-11.08775,-24.42393,-79.57191,105.74512,65.49978,-131.06372,70.6595,8.04949,-12.26342,23.94499,-69.74928,-69.07863,-18.65168,1.88337,-6.85265,0.12726,-29.20989,-23.97546,-6.22693,-0.03596,-0.9478,0.51974,-4.13785,-2.05736,-1.41552
742,-44.82627,23.03071,-1.38299,56.64971,-29.42739,-1.81263,-96.72602,-8.16734,61.93319,82.41245,-59.08814,-3.44699,-6.61912,2.29434,-3.07224,15.5393,-37.48745,-12.16607,2.75788,-94.55085,127.7486,179.53903,-158.02229,5.10346,3.37705,-16.7208,32.34276,4.82377,25.44433,-78.88277,1.33348,-9.32959,1.43034,-1.38396,5.65629,-8.44168,0.01132,-1.39576,0.71363,1.05125,0.81324,-0.1304
743,-26.48698,15.43054,8.80903,58.57636,-30.83255,-2.05508,-54.75659,-22.23192,116.08692,87.33957,-57.68953,-2.19648,-2.64856,2.40619,-1.48928,14.50357,-37.91738,-12.99923,47.51458,-104.26799,178.03932,63.30611,-6.93548,119.51205,0.19198,-16.1084,31.02599,160.92717,72.58891,54.46035,0.43155,-10.07014,2.7822,42.44433,22.28549,23.05399,0.10633,-1.58899,0.77011,4.11014,2.08059,2.44474
744,-8.30821,5.5065,9.38073,56.65852,-31.94964,-2.65367,-7.98384,-24.90395,109.02043,74.65068,-46.31972,-1.3041,0.16689,1.33522,0.15437,12.55004,-38.95585,-13.48902,71.87413,-79.53131,145.66876,-82.25661,74.3984,195.57214,1.2232,-10.41058,15.60681,47.24497,-88.0102,160.15276,0.02408,-8.23636,2.60148,15.17827,-19.61868,49.9817,0.17326,-1.50647,0.61953,0.45605,-0.70996,6.3139
745,-1.25072,1.60031,1.23715,55.72431,-30.0225,-2.57008,16.66118,-4.22757,12.08042,62.86168,-28.10633,-0.13361,0.57508,0.16515,1.10473,10.09649,-40.25452,-13.85007,76.93181,-23.34709,-5.04117,41.38028,7.84766,-29.83553,5.33279,-5.44135,-0.51414,-71.19581,-6.04902,-11.56462,-0.18196,-5.90391,1.40605,-6.55856,-3.69237,-4.03154,-0.00606,-1.29064,0.47355,-0.08731,-0.42426,0.67644
746,-14.18885,14.19109,1.63576,56.11744,-26.35181,-2.01325,-20.89468,31.31542,-84.18427,66.37543,-18.6127,-0.50388,-2.11253,0.14491,1.70182,7.40813,-41.46578,-14.22678,38.77528,27.02549,-148.76125,49.87959,24.81637,-50.38207,8.09875,-4.6727,0.16253,-31.96552,41.165,-53.14795,-1.16583,-5.01018,1.04431,-2.64542,12.59308,-21.36741,-0.53448,-0.87947,0.58378,0.32961,0.80857,-3.08227
747,-27.39311,30.41726,4.02162,54.14877,-25.14966,-2.03363,-76.34113,54.49158,-116.55217,77.41572,-32.08292,-4.6066,-4.49437,1.22092,1.57466,4.52722,-42.55256,-14.57613,-4.36589,24.27272,-193.34822,-45.15305,45.414,57.28555,7.6357,-5.84286,14.90268,12.96256,-13.23213,5.64262,-2.35411,-5.61902,1.54459,-4.37138,-4.78584,2.18487,-0.97811,-0.40959,0.74496,-1.7019,-0.67911,-0.0873
748,-24.04379,30.73089,-4.80881,49.46112,-26.13809,-2.48654,-88.40148,51.56453,-98.48943,82.95708,-54.63681,-8.99808,-3.65022,2.05133,0.38066,1.58197,-43.60896,-14.77692,-6.83659,-17.80084,-156.38747,-98.85358,52.65633,139.94185,5.71328,-6.26577,25.67045,39.75866,-55.68887,66.98695,-2.03081,-6.7473,1.32699,2.12277,-17.84515,25.00831,-0.77391,-0.33391,0.59798,-1.46629,-1.42538,3.46948
749,-13.36519,20.33212,-17.48773,44.50981,-24.45193,-2.46217,-63.3677,37.74561,-59.29229,79.29115,-61.20142,-9.37125,-1.18652,2.01467,-0.81786,-1.23335,-44.57193,-14.73229,15.43258,-44.19337,-91.87746,-54.93305,12.14137,86.4617,2.675,-5.57044,23.83164,13.81162,-31.10556,42.86887,-0.9601,-6.93569,1.13288,2.63999,-9.11913,14.67877,-0.22886,-0.67208,0.40205,-0.30693,-0.45612,2.11106
750,-9.97096,15.84166,-31.83444,40.57745,-18.70477,-1.91681,-38.92534,31.75478,-34.29888,71.84457,-50.71686,-7.49532,0.26898,1.58161,-1.8516,-3.80418,-45.4685,-14.51836,31.13878,-38.66522,-59.78205,6.58619,-22.99112,13.0876,-0.25627,-4.52411,14.89461,-2.04457,5.82131,7.67449,-0.99336,-5.65037,2.21089,3.37613,1.87363,1.86044,-0.00099,-0.91395,0.48714,0.59239,0.31412,0.341
751,-16.52947,22.04985,-51.24483,37.00168,-12.79615,-1.53641,-36.25774,34.98941,-47.55353,67.1508,-39.01068,-6.54374,-0.0714,1.33162,-3.39877,-6.21714,-46.58825,-14.37939,30.66675,-23.03078,-85.10715,20.46908,-14.16785,3.55248,1.84173,-4.62035,6.96941,0.13801,2.31586,6.14139,-1.81675,-4.80155,3.30249,3.80243,1.36105,1.48736,-0.13711,-0.89169,0.658,0.70406,0.13546,0.19113
752,-23.04058,29.00361,-58.83956,32.62255,-8.94382,-1.64078,-45.03761,33.83763,-63.71891,63.32024,-31.06822,-5.46793,-1.11808,1.2023,-4.13401,-8.58969,-48.00801,-14.4508,23.65094,-13.46614,-107.15249,3.10767,20.41604,23.23557,8.13165,-5.40975,5.1275,8.96398,-5.84351,10.67838,-2.48135,-5.33718,3.36057,3.97384,-1.05469,3.7428,-0.39081,-0.75018,0.68343,0.49513,-0.08657,0.41078
753,-19.26143,26.08825,-39.60605,27.97812,-4.79783,-1.91596,-41.71971,20.8617,-41.84694,55.15326,-18.61214,-2.63975,-1.22909,0.90278,-2.49481,-10.84972,-49.34849,-14.62344,24.87653,-5.9727,-70.16663,-16.34405,34.37356,37.50984,9.9446,-4.14144,10.40284,15.41012,-7.22145,11.4735,-2.45899,-5.79981,2.59762,3.29623,-2.38017,5.10944,-0.522,-0.56951,0.53425,0.13748,-0.13077,0.63761
754,-7.80725,15.54362,-9.03913,25.54366,-0.92639,-2.02523,-19.02382,6.56375,0.76769,47.0479,-5.00753,-0.95848,-0.38651,0.6344,0.18492,-12.96969,-50.46568,-14.80061,44.30825,-0.79273,-8.94052,-21.86786,-4.61932,35.16598,3.95633,-0.43739,17.57508,16.12789,-12.4606,14.9639,-1.40885,-5.35438,1.33178,2.4214,-4.29927,6.73403,-0.37082,-0.4643,0.29297,-0.17711,-0.16061,0.96519
755,0.99138,10.3752,11.51797,25.26539,0.33889,-2.11002,4.06175,6.04508,38.49393,44.65121,-1.0751,-3.65707,0.13195,0.97257,1.89684,-15.28419,-51.4692,-14.9604,69.191,-0.97534,33.62692,-23.02574,-54.39722,19.44962,-1.65397,2.20471,18.07077,11.08391,-19.00984,18.17431,0.25673,-4.34436,0.04841,1.84261,-5.57972,7.06159,-0.04357,-0.44078,0.10561,-0.35956,-0.29684,1.05357
756,4.30733,14.17191,18.95687,22.63439,1.33842,-2.76857,14.12356,16.95023,69.39279,39.89825,-5.22104,-8.86329,0.01443,1.57827,2.58638,-18.10499,-52.22961,-15.03375,77.68936,-6.00117,61.79374,-31.13385,-42.5341,5.81145,2.40288,1.21189,10.69376,2.14275,-17.70092,13.99417,1.38002,-3.52435,-0.40548,1.00264,-4.9435,4.8159,0.17212,-0.37552,0.08787,-0.40446,-0.58136,0.84228
757,5.39153,13.27991,17.59335,17.72249,4.87197,-3.64612,23.60115,17.92903,80.0377,30.21044,-8.72722,-11.36187,-0.07661,1.30981,2.66974,-20.90757,-52.72565,-15.12514,80.84389,-23.64943,71.47044,-36.57554,22.93534,8.60564,12.81366,-1.46594,4.35267,-1.4483,-10.51546,7.31815,1.2206,-3.70523,0.41026,1.14312,-3.54026,2.59766,0.15592,-0.30455,0.21753,-0.17582,-0.80515,0.62617
758,3.94749,1.95717,9.68234,15.57155,10.37,-3.70174,28.86598,1.77313,52.91105,21.8053,-4.39152,-8.12912,0.03894,0.08666,1.9086,-22.97913,-53.18396,-15.43184,76.56469,-43.14531,44.6845,-19.83365,64.63102,18.61773,17.40456,-2.11652,5.21061,2.34993,-4.16685,3.57149,0.52539,-4.76894,1.56887,2.41285,-2.46122,1.81213,0.04536,-0.37103,0.35614,0.13602,-0.74362,0.35558
759,-1.72884,-7.39558,-2.69336,16.0208,15.52336,-3.26713,11.31139,-12.29537,6.19909,10.98818,6.41807,-2.71246,-0.019,-1.00385,0.46803,-24.68287,-53.62386,-15.81659,36.61043,-41.08319,-3.15002,15.32344,51.57559,23.32522,12.49642,-0.51954,8.46946,7.15668,-2.32604,3.0945,0.51637,-5.37262,1.77659,3.43713,-2.11535,1.87227,-0.03482,-0.5194,0.43018,0.27039,-0.50568,0.09373
760,-9.17351,-5.34843,-14.86467,16.72833,19.67377,-2.94483,-11.20248,-10.15555,-14.8354,0.18251,15.20225,-0.94335,-0.30796,-1.19002,-0.73821,-26.89674,-53.78225,-15.95169,-7.46065,-26.99602,-26.3272,38.07668,18.91979,20.64742,6.7548,0.01561,7.09853,8.43139,-1.92274,3.1487,1.1642,-4.63397,1.08499,3.41468,-1.74196,1.95587,-0.0369,-0.5951,0.44953,0.22867,-0.2825,0.02277
761,-14.1938,1.72349,-22.20013,17.90317,24.22525,-2.57336,-4.41127,-2.11139,-2.24648,0.02675,19.38763,-3.63386,-0.47967,-0.71766,-1.21378,-29.98483,-53.66833,-15.83877,3.58456,-28.12511,-17.4098,26.00419,-2.44093,11.32628,7.21634,-1.62114,1.52503,5.20074,-1.12077,1.84242,1.81961,-3.16247,0.23463,2.44994,-1.37535,1.87952,0.08598,-0.51315,0.3565,0.09833,-0.23412,0.17491
762,-14.35614,4.52847,-21.80338,19.42859,28.86394,-2.26147,20.90367,-1.30065,7.89602,7.68715,22.47462,-6.98537,-0.21053,-0.33942,-0.99939,-33.50611,-53.57133,-15.88077,47.49429,-41.31345,-14.66721,-9.16727,-6.16449,1.99288,10.7257,-2.27212,-1.7368,0.89834,-3.05481,0.86104,2.3663,-2.23588,-0.4563,1.62313,-1.84501,1.93137,0.24722,-0.27344,0.11762,0.02405,-0.33132,0.40005
763,-10.20667,3.93691,-15.44912,21.14078,31.359,-2.06821,26.74445,-3.24015,-5.00752,14.97355,22.37119,-7.73625,0.43256,-0.30546,-0.32082,-36.47847,-53.46532,-16.35747,62.4358,-45.80065,-37.74375,-38.41453,8.6709,2.3237,11.78775,0.84896,1.49562,0.43123,-7.70501,2.07348,2.53641,-2.45913,-0.47894,1.91286,-2.74035,2.21314,0.20608,-0.0015,-0.07985,0.07603,-0.40847,0.51855
764,-5.87725,2.87481,-9.3408,21.57307,32.88621,-2.15683,13.91008,-1.94286,-20.66691,14.52467,18.33426,-6.1586,0.90115,-0.46966,0.26751,-38.57646,-53.05136,-16.95111,45.03531,-42.53136,-57.97232,-44.9509,31.90687,9.85254,11.63323,5.17883,6.7833,3.01317,-12.68267,4.31296,2.31825,-3.32761,0.34157,2.73328,-3.80275,2.42284,0.03719,0.08302,-0.07178,0.09317,-0.5301,0.47864
765,-4.88872,0.97736,-6.63155,19.49286,37.74727,-2.88281,13.01397,0.8858,-8.13492,1.1694,20.04702,-4.58777,0.76644,-0.75944,0.41259,-40.39814,-52.195,-17.19554,29.34427,-37.6568,-34.79794,-28.32179,39.04327,12.46182,14.8136,5.08365,6.34651,4.57051,-14.8923,5.19083,2.6598,-3.95626,0.97199,3.27785,-4.70356,2.40181,0.12376,-0.08967,0.05158,0.03674,-0.72541,0.39242
766,-7.51226,0.55227,-7.64337,16.52881,45.17053,-4.15113,23.95752,6.97658,26.88882,-20.61577,30.99076,-5.40567,0.18385,-0.87695,0.19464,-42.52648,-51.10133,-17.15186,13.48689,-23.67135,18.00857,-1.81258,13.84105,6.98461,19.37047,0.0671,-0.18536,4.54499,-11.96736,4.57127,3.76933,-3.69317,0.36426,3.75768,-4.59103,2.53124,0.42386,-0.29624,0.09353,0.08203,-0.82234,0.41808
767,-13.35375,4.66638,-13.03061,15.19644,49.98324,-5.29524,20.97977,17.96794,47.56388,-35.98659,43.92229,-8.14619,-0.48825,-0.45277,-0.28227,-45.19847,-50.25181,-17.22035,-18.39813,2.22015,44.40296,14.5357,-25.66973,0.58,18.34844,-4.07184,-5.76402,3.86321,-5.56141,3.25595,4.71489,-2.61943,-1.2951,4.09541,-3.33159,2.68866,0.57273,-0.29975,-0.04637,0.24127,-0.76384,0.47726
768,-19.26308,9.98644,-18.61982,17.21143,51.01135,-5.44197,8.97669,23.65641,41.19115,-30.64203,54.68605,-8.80865,-0.96614,0.19927,-0.72638,-48.38224,-49.97547,-17.56823,-33.41124,20.43257,30.72914,11.68178,-34.97115,-2.71508,12.37067,-3.41514,-5.58043,1.20926,-1.22502,0.85873,5.03406,-1.82038,-2.50969,3.44773,-2.03146,2.01613,0.54105,-0.18624,-0.23429,0.32696,-0.68998,0.34035
769,-19.67976,9.02554,-16.9226,22.15611,50.90657,-4.42923,18.36262,10.12434,29.08596,-8.82082,61.55293,-5.76346,-1.04432,0.24555,-0.69318,-51.75566,-50.06606,-17.99962,7.09768,2.68661,13.85787,3.70224,1.57817,-4.58912,10.28276,-0.26173,-2.52103,-3.19685,-5.00507,-2.61749,5.69964,-2.1895,-2.36849,2.09418,-2.7399,0.18022,0.65506,-0.14558,-0.31042,0.28226,-0.86542,-0.00013
770,-14.25077,-0.65596,-6.92016,26.57913,52.05711,-3.35583,51.14516,-21.50052,26.70186,5.9384,65.38085,-2.16828,-0.72373,-0.6639,-0.09912,-54.93271,-50.1091,-18.24996,71.89102,-46.84544,16.81458,11.51418,43.34096,-6.80305,14.67619,1.18738,-1.99483,-5.68003,-14.39577,-5.42726,7.33684,-2.87023,-2.01158,1.6671,-5.27581,-1.77032,1.03981,-0.12823,-0.36364,0.26022,-1.25307,-0.32539
771,-8.4603,-12.51899,4.31389,27.32811,54.11836,-3.28169,79.1437,-53.26911,29.51472,0.01071,67.7975,-0.94049,-0.21246,-1.95744,0.7627,-57.73226,-50.12267,-18.32278,102.09171,-92.77802,28.17735,26.00685,48.45606,-10.66144,19.08519,-0.33024,-4.59228,-5.19011,-17.91978,-5.74119,8.81217,-2.72257,-2.50323,2.45884,-6.22425,-2.03923,1.43899,-0.07196,-0.48545,0.33014,-1.34953,-0.37813
772,-6.4012,-17.72676,9.52399,25.034,55.87384,-4.07294,85.39494,-66.12773,31.50553,-14.35483,69.66339,-1.30981,0.25841,-2.78394,1.52666,-60.11509,-50.33812,-18.40594,90.12321,-105.65015,33.57099,13.08722,27.78022,-17.52805,20.21784,-3.2036,-7.376,-4.50422,-10.98957,-3.70474,8.96575,-2.05865,-3.04796,3.0975,-3.98529,-0.1964,1.59205,-0.06546,-0.50362,0.3931,-0.95814,-0.0927
773,-8.31189,-14.42389,7.50181,22.41921,57.50591,-5.15775,73.98983,-54.27517,32.55293,-21.88605,72.73959,-2.14679,0.46006,-2.93234,1.87758,-61.99011,-50.77053,-18.61773,62.97993,-81.61377,31.79494,-25.84078,17.23874,-27.56059,21.06883,-5.85391,-9.87062,-5.75872,-2.20954,-1.91062,8.15105,-1.25643,-3.2967,2.56974,-0.99119,1.65229,1.4899,-0.07487,-0.38909,0.35721,-0.48513,0.17211
774,-12.55607,-7.50563,2.19217,21.3488,59.84068,-6.31943,53.70044,-27.00382,32.6299,-22.11868,79.98015,-3.88453,0.25581,-2.73146,1.71601,-63.32502,-51.44415,-18.98104,35.14184,-33.96621,27.18834,-42.79443,22.77325,-37.35184,23.31187,-7.26896,-13.01213,-7.98002,-0.47577,-2.70358,7.34264,-0.15334,-4.18682,1.50107,0.04114,1.35475,1.28122,0.02989,-0.4172,0.27951,-0.29013,0.03241
775,-17.62335,-2.83255,-1.53023,21.72855,61.75192,-7.4776,32.78903,-5.14634,29.37812,-22.86895,88.87263,-6.82076,-0.33219,-2.40398,1.20908,-64.40917,-52.59524,-19.51687,7.45863,8.23319,21.25207,-12.27585,22.5021,-38.91915,25.00209,-6.00385,-14.813,-7.06924,-4.12896,-4.1975,7.22854,0.62098,-5.41985,1.81056,-0.6299,-0.01512,1.14617,0.18112,-0.65681,0.34805,-0.29647,-0.27632
776,-22.68997,-1.68601,-2.15199,21.99501,61.76565,-8.49268,17.41548,-3.39979,21.53649,-30.39841,93.78429,-9.779,-1.14344,-1.88549,0.59839,-65.77564,-54.22284,-20.15475,-22.34978,17.54614,12.31346,36.05806,12.03467,-28.33597,24.44006,-2.42047,-13.33884,-1.34028,-6.5393,-3.07463,7.74557,0.32176,-5.71913,3.81542,-1.10112,-0.04207,1.12848,0.22938,-0.89577,0.54999,-0.25566,-0.24025
777,-24.739,-1.39493,-1.23979,20.67677,60.72252,-9.31503,11.57408,-16.32915,12.65099,-43.87817,94.99267,-11.04179,-1.58466,-1.26801,0.21377,-67.78006,-55.90753,-20.68221,-51.00877,-4.57347,1.46156,61.30386,12.75292,-14.34395,21.8105,0.07372,-10.69138,4.3864,-7.48931,-1.24583,7.74904,-0.33213,-5.18275,5.35567,-1.18342,0.45167,1.07133,0.20608,-1.0213,0.62998,-0.17012,0.02148
778,-19.97334,-0.9746,0.03685,18.4592,59.20627,-9.72407,18.31378,-29.29017,9.58076,-52.64922,93.75097,-10.07856,-1.09149,-0.95982,0.29663,-70.19954,-57.26956,-21.00106,-60.05455,-34.45586,-3.45996,51.52095,32.41448,-9.06532,18.29928,-0.65631,-9.38305,4.67122,-10.75065,-3.23726,6.60217,-0.30957,-4.57177,5.01842,-1.75707,-1.07027,0.92876,0.2048,-0.9937,0.54299,-0.20028,-0.09692
779,-11.19113,-1.56653,1.48921,17.39079,56.71194,-9.4873,31.59415,-34.20844,13.45306,-48.00458,89.12486,-7.78708,-0.15348,-1.07197,0.60101,-72.44807,-58.17304,-21.22479,-39.5135,-50.38977,1.84932,23.80584,51.48696,-12.82368,15.21462,-2.7452,-8.80378,0.85663,-14.71203,-7.93127,5.35125,0.18681,-3.84771,4.07173,-2.32029,-3.72088,0.84808,0.21261,-0.72466,0.5785,-0.32587,-0.64309
780,-5.82501,-3.49639,3.26843,17.53977,53.21682,-8.94391,38.15518,-36.27592,16.4686,-35.78131,82.40169,-5.96705,0.27378,-1.24576,0.76236,-74.29991,-58.74586,-21.43615,-9.97288,-53.96487,7.35095,2.73764,49.6533,-17.41462,12.88756,-3.51808,-7.32654,-1.59355,-13.8626,-9.55916,5.10085,0.41506,-2.82485,4.34734,-1.80472,-4.05485,0.8707,0.20018,-0.29927,0.93031,-0.35799,-0.94759
781,-5.08718,-5.23947,4.86375,16.83195,49.91663,-8.70333,36.25064,-41.75172,13.80143,-27.04225,80.17292,-5.09819,0.21199,-1.18292,0.82994,-76.09951,-59.29818,-21.49662,6.69546,-53.83023,4.17137,-0.44682,26.96893,-21.89756,10.82633,-2.72481,-5.25974,-1.97942,-8.07895,-7.257,5.55642,0.33985,-2.06813,5.35592,-0.611,-1.92257,0.89952,0.2237,-0.05342,1.29721,-0.23048,-0.73598
782,-4.06221,-4.74352,4.54567,14.83584,48.09653,-8.70793,36.64896,-42.96915,10.04431,-22.60464,87.14704,-3.34032,0.33095,-0.95538,0.95607,-78.0659,-60.03171,-21.26775,15.98148,-41.74157,-0.15607,11.05943,1.68868,-32.09679,9.50264,-1.70268,-4.46976,-3.93578,-3.28242,-6.16376,5.40979,0.43198,-2.10415,5.22178,0.0844,-0.74487,0.80951,0.30847,-0.17291,1.1963,-0.07368,-0.53446
783,-1.94647,-2.0135,1.95168,13.0678,47.50354,-8.61336,42.00368,-33.87509,9.45116,-19.29143,98.19874,-0.30872,0.62673,-0.80212,1.00183,-79.75603,-60.94364,-20.93733,25.38573,-17.60923,2.89568,29.812,-11.83855,-42.96702,10.0097,-0.87964,-5.57,-7.59373,-1.93206,-7.19734,3.98986,0.75449,-2.52456,3.40059,0.18037,-1.0872,0.58265,0.36553,-0.46184,0.624,0.02907,-0.55826
784,-0.9433,0.79989,-0.75733,11.28972,46.61957,-8.81897,47.69186,-24.46466,11.81777,-23.45442,105.38332,1.15908,0.73308,-0.77342,0.85203,-80.6142,-61.98155,-20.8727,24.77462,-1.78781,12.34802,47.6414,-15.60137,-39.9474,11.08348,0.26833,-6.82632,-9.94153,-1.16535,-6.34536,2.27783,0.99707,-2.78567,0.84803,0.07409,-0.58514,0.40928,0.34574,-0.67354,-0.00499,0.06545,-0.47616
785,0.34214,1.49766,-1.43125,7.94985,45.19902,-9.77697,53.22042,-23.32686,16.44884,-40.1933,108.34101,-0.57118,0.81418,-0.79295,0.7272,-80.74891,-62.88127,-21.0578,8.64148,-0.26407,25.09702,59.6781,-10.61887,-20.55328,9.0272,0.98167,-6.57242,-9.92701,0.01337,-3.95574,1.50859,1.16795,-3.15813,-0.93434,-0.07302,0.43333,0.38074,0.31538,-0.79807,-0.31701,0.0869,-0.33915
786,2.60052,-0.25594,0.15918,3.28608,43.74194,-10.98085,53.06894,-24.18953,20.71286,-58.83789,107.54305,-4.30872,1.0524,-0.89299,0.83847,-80.6198,-63.21818,-21.09738,-16.89488,-0.34015,33.16557,61.62072,10.48866,0.3714,3.77982,-0.01469,-4.98524,-8.60122,-0.44254,-3.99674,2.05043,1.18357,-3.70311,-1.21976,0.11368,-0.12643,0.39675,0.27201,-0.82462,-0.26782,0.20399,-0.41249
787,2.69669,-2.2407,2.24717,-1.3376,41.46849,-11.74633,37.1738,-18.02087,19.24761,-65.30216,99.03836,-8.57012,1.11521,-1.08158,1.02374,-80.4511,-63.01677,-20.87065,-47.07771,2.0914,23.33251,46.1761,39.47708,6.20911,1.26619,-1.46251,-3.07181,-6.81194,-3.1959,-6.69247,3.54077,0.42886,-3.34269,-0.62452,0.73725,-1.87518,0.46035,0.10529,-0.57686,-0.06247,0.35871,-0.50955
788,0.20207,-1.25956,1.77082,-4.2661,38.20311,-11.87174,14.66347,-5.37411,10.66564,-58.28557,85.06101,-11.10337,0.80976,-1.09196,0.94378,-80.27383,-62.76266,-20.72109,-67.86329,3.51823,-2.00503,18.39923,49.99826,-4.8704,4.50511,-0.99106,-1.14773,-5.29835,-6.044,-8.49521,4.69126,-1.06646,-1.29428,0.09573,1.14742,-2.39017,0.55035,-0.164,-0.00718,0.11764,0.32427,-0.2756
789,0.24399,2.32122,-2.01349,-4.51297,35.45437,-11.46856,14.20216,3.35982,2.28378,-50.18777,75.50617,-9.98742,0.55318,-0.68716,0.57297,-79.98897,-62.56183,-20.86306,-57.9602,2.13591,-17.52241,3.06793,37.39682,-20.47566,8.72181,0.71946,-0.2597,-5.10916,-6.48153,-7.80197,3.96618,-1.57587,0.89659,0.70432,0.85725,-1.122,0.43839,-0.24445,0.50181,0.21253,0.08829,0.1013
790,5.52527,3.12585,-4.60932,-4.03794,35.08399,-11.08315,43.00077,-5.07614,2.79502,-54.07334,77.8332,-6.93134,0.69085,-0.17157,0.26658,-79.34605,-61.76573,-20.88793,-25.72079,-5.6614,-5.61184,14.58619,29.86549,-30.41188,9.74903,0.68509,-3.19711,-6.00158,-4.15691,-6.21985,1.64285,0.52807,0.31752,0.73179,0.32903,-0.21503,0.12637,0.08848,0.3839,0.13025,-0.035,0.10137
791,10.76156,-1.38337,-2.2335,-5.98239,36.0946,-11.21529,68.37621,-29.36403,10.81007,-68.14668,84.98653,-5.96242,0.97963,-0.05181,0.25235,-78.2897,-59.95599,-20.34149,-11.10952,-25.51235,17.78858,38.13376,38.86766,-30.77526,8.13976,-0.9254,-7.78611,-5.73309,-0.67539,-4.49778,-0.05374,3.14526,-2.47347,0.21282,0.19572,-0.62037,-0.05362,0.4633,-0.258,-0.16242,0.08818,-0.26831
792,10.20333,-7.53223,3.35244,-9.43389,36.11753,-11.49562,60.2132,-51.74518,17.95803,-76.95933,85.56445,-7.70693,1.12397,-0.5607,0.51231,-77.19028,-57.66405,-19.4438,-32.91304,-51.04824,26.61726,59.24487,38.9738,-19.69848,3.78816,-0.75828,-6.70627,-3.43435,1.82764,-2.7162,0.16133,2.60659,-3.60051,0.71672,0.64276,-0.84972,-0.04009,0.36715,-0.67074,-0.32854,0.27167,-0.55719
793,5.5863,-10.26474,7.16047,-10.92341,35.32788,-11.31667,29.45971,-54.68848,18.85575,-71.68472,81.07988,-9.18077,1.1383,-1.37921,0.89765,-76.49304,-55.64088,-18.70297,-66.57945,-58.16326,16.42067,79.11211,16.28763,-4.02118,-1.81841,1.33867,0.63675,-2.18646,2.11304,-3.10637,1.55846,-0.87571,-1.53639,2.51001,1.63296,-0.56512,0.05083,-0.15602,-0.37559,-0.09568,0.48465,-0.63902
794,2.70277,-7.56491,5.74066,-10.26485,34.4437,-10.77145,10.61526,-35.15294,13.48101,-60.40035,77.11174,-8.90024,1.11949,-1.75598,1.12407,-76.09029,-54.03823,-18.28185,-77.14846,-33.9133,0.51931,89.47309,-7.97387,1.02752,-2.8675,1.53111,4.88091,-4.45855,0.32198,-6.77505,2.00757,-3.04293,1.02546,3.15029,2.65926,-1.12075,0.1002,-0.52719,0.22112,0.23296,0.75088,-0.68049
795,3.78714,-2.46021,1.05148,-10.44022,33.34425,-10.48933,19.40598,-7.22839,5.886,-56.79772,74.7309,-7.90588,1.10438,-1.42664,1.04327,-75.26773,-52.47222,-17.97279,-58.72143,5.18861,-7.79079,80.88267,-14.58796,-7.51441,1.98063,-1.16759,0.43372,-7.97457,-2.78098,-10.91067,0.75461,-1.07226,0.96675,1.20738,2.86113,-2.53713,-0.00318,-0.26967,0.36422,0.23188,0.82603,-0.65672
796,5.64139,-0.02645,-1.7019,-12.26608,33.4694,-10.69612,38.47886,9.1187,1.77902,-65.94987,75.78942,-7.35491,1.05138,-0.97843,0.80296,-73.65804,-50.60462,-17.52041,-40.30534,32.03592,-3.67971,68.21526,-4.40576,-15.00807,6.6187,-2.48292,-5.45592,-9.25339,-5.8483,-12.7246,0.37109,2.1062,-1.05626,-1.53981,2.21548,-3.57885,-0.03478,0.33199,-0.01416,-0.08166,0.58748,-0.49546
797,5.67002,-0.59769,-1.42223,-13.49497,35.82214,-10.86183,46.94081,8.13093,2.55785,-79.0245,78.81558,-7.52024,0.95296,-0.83175,0.57289,-71.72915,-48.45095,-16.89478,-41.99724,34.55515,6.37154,66.25982,20.22912,-15.12325,6.37744,-0.33272,-5.14327,-8.10607,-6.52719,-11.26391,1.97838,2.55488,-2.24597,-2.9686,1.23382,-3.51003,0.13718,0.65675,-0.37117,-0.45392,0.23133,-0.33259
798,5.14733,-1.28634,-0.72502,-13.23407,38.33693,-10.59671,43.61535,-1.69056,4.72726,-82.89575,77.61683,-7.98187,0.86391,-0.83598,0.4339,-70.02393,-46.15157,-16.25852,-51.60641,18.60549,10.20593,68.81605,48.06353,-13.96931,3.05275,2.25429,-0.4105,-6.41008,-3.58222,-6.08445,3.83233,0.41394,-1.60543,-3.20999,-0.30706,-2.25106,0.37906,0.50467,-0.35879,-0.76339,-0.08591,-0.26554
799,4.75392,-1.50186,-0.40241,-12.98472,38.81185,-10.23335,35.02437,-12.93085,6.06741,-78.49316,72.11853,-8.34644,0.748,-0.83922,0.3885,-68.76862,-43.92753,-15.78263,-61.21408,-3.55521,4.72012,69.56107,51.58367,-9.24483,-0.16546,3.01131,3.78006,-4.02935,0.5513,0.31122,4.95075,-1.90904,-0.36014,-2.91172,-1.74848,-0.73554,0.599,0.12909,-0.09671,-0.86037,-0.23443,-0.24788
800,4.02143,-1.99162,0.10516,-13.26193,37.59881,-10.05984,27.21019,-22.93775,7.20674,-78.173,69.31556,-8.11148,0.62918,-0.80895,0.35617,-67.92217,-42.00315,-15.48955,-75.30942,-19.78175,0.41954,72.69707,20.41216,5.35288,-2.30969,2.90778,5.21363,-0.05016,2.11161,2.95579,5.10941,-2.7361,0.13259,-1.61029,-1.19016,-0.15893,0.6044,-0.17602,0.12872,-0.52606,-0.05562,-0.20044
801,3.6312,-3.35496,0.8402,-12.48133,36.66765,-9.68229,26.03906,-32.60745,8.67912,-82.67472,72.89924,-5.86335,0.58828,-0.8188,0.25682,-67.2051,-40.18658,-15.18272,-83.19854,-25.30904,6.50228,78.7403,-21.03105,21.79611,-2.52202,3.13122,4.09767,2.63094,0.22646,0.4231,3.84709,-2.01433,-0.18465,0.30424,0.92174,-0.26091,0.27421,-0.27683,0.16184,0.03081,0.25407,-0.07019
802,3.93201,-5.34801,1.31145,-9.91122,36.39642,-8.74464,30.65134,-39.85712,8.78439,-80.74072,76.2911,-2.2262,0.53784,-1.00871,0.0398,-66.32365,-38.05424,-14.67858,-71.21898,-24.53963,15.67426,80.7837,-40.81282,24.02865,-0.22659,3.65929,2.12603,1.06435,-3.04951,-4.26389,1.54871,-0.80228,-0.40682,1.26001,2.24935,-0.41451,-0.15089,-0.14967,0.05541,0.31479,0.37885,0.03371
803,2.80224,-6.13448,1.16343,-7.64412,35.03313,-7.82535,29.28935,-37.89474,6.07154,-73.79148,71.22379,-1.94199,0.29022,-1.28825,-0.3063,-65.08473,-35.63983,-14.07576,-60.15958,-23.37407,13.11634,75.19096,-29.27546,9.09786,2.94799,3.84088,0.90795,-1.90542,-5.00135,-7.08895,-0.12928,0.01559,-0.06877,0.84472,2.03612,-0.72006,-0.3274,0.1186,-0.03011,0.22231,0.29385,-0.01304
804,-1.04419,-4.62683,0.7939,-7.57965,33.02838,-7.76827,13.53616,-26.82879,2.92639,-75.01237,63.80412,-6.77398,-0.09625,-1.40185,-0.62399,-63.66975,-33.46359,-13.62943,-81.85701,-20.3737,-0.93,67.01444,-3.19799,-9.67621,5.0021,2.66434,0.30377,-1.89975,-4.29383,-5.91515,0.07647,0.13125,0.35345,0.28521,1.13022,-0.88059,-0.12125,0.23379,0.02539,0.04047,0.06773,-0.07598
805,-3.95548,-3.31061,1.05743,-8.43047,31.95701,-8.35305,-3.11084,-18.89751,3.33881,-84.10996,63.84578,-11.43602,-0.25811,-1.35915,-0.62358,-62.6506,-32.08728,-13.58419,-118.76518,-15.40214,-9.83638,63.92868,11.62474,-18.15585,6.04462,0.2595,-0.13995,0.81423,-2.02869,-2.56846,1.13613,-0.78451,0.59918,0.8535,0.68952,-0.38819,0.2458,-0.06691,0.18275,0.04786,-0.13087,-0.01616
806,0.80112,1.49034,0.34018,-7.66716,30.07557,-8.52531,3.92329,-11.01959,4.12849,-85.47373,64.00979,-11.74769,-1.40762,3.94902,-0.38128,-62.24792,-31.73964,-14.04138,-114.90321,-2.95979,-8.80389,66.51089,6.52555,-13.29895,6.76512,-1.34726,-0.3075,2.94657,-0.31736,-0.3379,1.90342,-2.18653,0.47922,1.94761,0.97527,0.35749,0.57416,-0.49917,0.1945,0.18192,-0.10016,0.06583
807,4.8318,1.83541,0.26754,-4.86747,26.75704,-7.89127,20.4978,-12.1608,4.57747,-72.75751,55.75214,-9.18129,-1.70453,6.06751,-0.22832,-61.88827,-31.95084,-14.67434,-74.95581,-6.44159,-3.24478,66.78347,-3.59384,-2.88398,5.06064,-0.71961,0.25752,2.86322,-0.25328,-0.28149,2.37227,-2.64759,-0.15194,2.05229,1.22655,0.56024,0.70837,-0.55644,-0.02105,0.18848,0.0631,0.06109
808,6.94755,3.066,-0.27977,-1.95355,24.39491,-7.09987,33.61919,-9.89157,1.92083,-57.34806,46.6063,-6.28482,-2.32221,8.59212,-0.42302,-60.93616,-32.05586,-15.03852,-32.87695,-9.42118,-2.84576,60.15258,-3.24569,3.7231,-0.19223,0.68923,1.54076,1.43783,-1.61103,-1.56467,2.72725,-2.03982,-0.72592,0.68863,0.96361,-0.01519,0.55574,-0.29182,-0.16383,-0.0827,0.10913,-0.00508
809,6.09511,5.76622,-0.97537,-1.14384,23.90586,-7.00756,33.95229,-2.21356,-1.35325,-52.1564,47.66057,-4.03281,-3.2859,11.6683,-1.02339,-59.74849,-32.00148,-15.15006,-21.83662,2.7018,-5.76973,56.32449,3.68578,3.93044,-4.1517,0.83057,2.01765,0.48306,-2.87353,-2.63955,3.07941,-1.27333,-0.8758,-0.6169,0.60232,-0.63428,0.32837,-0.06837,-0.09116,-0.39921,0.02614,-0.05394
810,4.00193,10.21951,-1.71603,-3.20151,23.53134,-7.85353,22.81918,7.88921,-2.26135,-60.68209,55.84853,-4.32585,-4.31832,15.38816,-1.81982,-59.31159,-32.09549,-15.33329,-48.08161,26.37485,-8.79879,65.81554,3.93637,1.53259,-1.64519,0.30349,0.82258,0.25773,-1.9953,-2.18003,2.8893,-0.64321,-0.717,-0.02631,0.52545,-0.37751,0.188,0.03082,0.01905,-0.37917,-0.02113,-0.0643
811,3.79787,14.10416,-2.1997,-6.34167,22.23502,-9.01355,8.68894,9.59216,0.28638,-76.97826,60.67773,-8.07747,-5.08585,19.30487,-2.49741,-59.90177,-32.38877,-15.71736,-94.24886,35.2186,-9.62326,80.64075,-4.32265,0.43836,4.89052,0.18259,-0.9756,-0.67658,0.49898,-0.69435,2.01904,-0.09378,-0.45802,1.87445,0.35808,0.72704,0.14264,0.10007,0.02948,-0.05987,-0.02242,-0.03691
812,6.21324,15.67524,-2.45153,-8.00004,19.95289,-9.61976,1.19417,1.87432,3.3128,-88.49418,58.06217,-11.98689,-5.68373,22.94346,-3.01749,-60.64112,-32.71812,-16.15182,-126.61341,22.38483,-8.22025,86.22649,-15.18264,3.17986,7.96714,-0.57605,-1.96671,-1.10425,0.91781,-0.34074,1.23468,-0.00676,-0.19171,3.03789,0.18362,1.4865,0.13268,0.10236,0.01636,0.21736,-0.01813,0.01163
813,9.09276,16.30804,-2.89408,-7.31838,16.1211,-9.32937,4.06877,-3.35208,3.26973,-84.28402,50.21114,-11.77782,-6.42727,26.46184,-3.62591,-60.58812,-33.00175,-16.47548,-117.55811,8.02731,-7.27767,82.22783,-26.91849,11.77519,4.70261,-1.55685,-0.98323,2.44216,-2.40322,-1.60826,1.02202,-0.81607,0.14457,2.91999,0.77765,0.93761,0.05098,-0.04715,0.09726,0.37018,0.0572,0.01967
814,10.14971,17.26058,-3.45475,-5.10044,11.98481,-8.52287,11.98219,-1.38802,0.95399,-67.12047,44.38509,-6.41187,-7.38185,30.04687,-4.46397,-60.01056,-33.22816,-16.7032,-77.36774,6.93689,-6.41889,75.86858,-31.19562,19.95,0.23415,-0.05646,2.00973,8.55966,-5.89059,-2.41852,1.18737,-2.20481,0.50202,2.41775,1.93624,-0.29789,-0.04958,-0.26873,0.21132,0.50343,0.17467,-0.01205
815,9.2674,18.83139,-3.92517,-2.8144,9.44435,-7.88986,17.10333,4.14026,-0.85079,-50.73361,46.1417,0.83189,-8.37276,33.45767,-5.38778,-59.43433,-33.22397,-16.91442,-43.28172,19.61166,-3.97452,71.25573,-20.27143,16.04085,0.30155,3.56849,4.80526,11.14024,-5.79383,-1.98621,1.57523,-3.24384,0.57567,2.25199,2.63159,-0.95351,0.05106,-0.39177,0.19617,0.55635,0.22291,-0.03082
816,8.18899,21.33854,-4.41103,-2.60322,7.10171,-8.00072,17.02209,11.4704,-1.22558,-45.00552,49.58731,4.43075,-9.2381,36.51083,-6.14587,-58.43245,-32.82193,-17.12083,-35.12918,39.61068,-2.76664,71.84671,-10.7491,3.38497,3.90454,5.56464,5.18159,8.36767,-3.33685,-1.88994,1.95824,-3.3787,0.2952,2.51547,2.59346,-0.83061,0.30037,-0.37128,0.05806,0.43762,0.22541,-0.07791
817,6.9045,23.95466,-4.74967,-5.2883,3.513,-8.79828,10.37944,17.70514,-0.61457,-49.43002,47.54347,2.48834,-9.98756,39.08778,-6.68182,-56.98998,-32.29066,-17.26592,-49.43686,54.76187,-5.05373,77.84671,-17.78033,-0.75466,6.19041,3.66975,3.11895,5.0611,-2.00983,-1.95927,1.82842,-2.77985,0.01937,2.63798,1.91014,-0.38661,0.33894,-0.29777,-0.01992,0.19163,0.15715,-0.1352
818,4.59107,24.74391,-4.73611,-8.51556,0.66467,-9.47841,-0.90472,16.84037,-0.11205,-58.09246,42.51847,-1.76078,-10.69992,40.82441,-7.09982,-55.94086,-31.98392,-17.23327,-75.32816,51.20322,-8.29869,85.37598,-28.09652,10.05678,5.095,-0.43279,0.19651,4.88756,-2.91849,-0.70337,1.38704,-1.83616,-0.12907,1.96662,0.70018,0.17157,0.13196,-0.21426,0.01441,-0.09224,-0.05841,-0.07793
819,3.17055,22.64499,-4.59874,-10.55504,0.63054,-9.59593,-5.84261,7.78072,-0.89144,-68.05807,38.96985,-6.03338,-11.45971,41.5352,-7.43431,-55.00441,-31.55945,-16.84708,-96.2418,29.70309,-11.17985,91.80033,-34.30125,24.41438,2.44603,-2.84495,-1.37081,5.78069,-4.5123,0.73833,1.60491,-1.19721,-0.35428,1.04505,-0.26925,0.73936,0.0614,-0.12644,0.04206,-0.26265,-0.26885,0.08448
820,4.2072,18.34642,-4.4219,-12.2509,1.69668,-9.5393,0.75142,-3.1943,-2.03054,-76.58842,34.58271,-10.9028,-12.30957,41.33764,-7.63265,-53.1177,-30.49556,-16.15335,-97.49477,7.33251,-15.87408,91.11285,-48.04099,27.63639,1.3563,-1.74359,-0.38295,4.47927,-4.89813,0.18307,2.40873,-1.60205,-0.50943,1.28132,-0.3379,1.18666,0.21529,-0.12111,0.0333,-0.15227,-0.28474,0.19281
821,5.0414,14.38665,-4.05914,-13.14008,0.51821,-9.38472,8.64164,-7.24176,-1.92269,-72.79336,25.81561,-13.78049,-13.08375,40.30077,-7.6531,-50.48478,-29.09546,-15.51038,-73.62593,0.8784,-21.11863,74.81622,-63.51791,15.54311,2.95319,0.64168,1.55201,2.25595,-3.4899,-1.57144,2.63485,-2.54717,-0.35601,3.06095,0.28109,1.35209,0.28866,-0.18911,0.0302,0.2492,-0.11792,0.12527
822,2.34568,12.81732,-3.46848,-12.34907,-1.88782,-8.84009,6.86795,0.14198,-0.87438,-52.53814,20.34598,-9.39937,-13.52471,38.56534,-7.50632,-47.91424,-27.85252,-14.99827,-36.34698,21.30806,-20.14492,45.00403,-59.52261,-1.3582,5.15321,1.56631,2.15735,3.51936,-1.41604,-1.21181,2.07178,-2.77143,-0.11906,4.80395,0.89783,1.144,0.19379,-0.18265,0.01982,0.68181,0.07121,-0.03516
823,-2.66567,12.52432,-2.75528,-11.92498,-2.27168,-8.18485,-2.63293,14.16714,-0.37652,-33.46051,25.15805,-0.88792,-13.58417,36.39365,-7.22211,-45.45105,-26.61563,-14.29901,-14.42479,60.65458,-14.12459,18.57026,-36.17679,-8.30799,5.46577,1.52824,1.92993,8.88288,-0.76943,2.17051,1.566,-2.34016,-0.03556,4.49581,1.097,0.72238,0.09232,-0.08583,-0.00219,0.71811,0.1222,-0.06751
824,-6.31911,10.33495,-2.06926,-13.24385,-1.60601,-7.80262,-9.67896,22.72165,-1.62492,-30.79253,29.00121,2.05212,-13.45989,33.85508,-6.84749,-42.79107,-25.1311,-13.35737,-19.4258,83.43646,-14.04857,14.61309,-13.19932,-1.74542,3.83425,2.43193,2.78165,13.15171,-2.54077,4.32256,1.79848,-2.49418,-0.00567,2.22345,1.50011,-0.00121,0.0728,-0.07231,0.0238,0.23375,0.14699,0.02791
825,-6.63229,5.85233,-1.67764,-15.20727,-1.62848,-7.60785,-6.3388,20.43161,-4.45601,-39.84169,22.83492,-1.8995,-13.28438,30.96549,-6.37165,-39.86033,-23.4166,-12.41411,-33.35857,71.92722,-20.5951,31.24563,-4.8332,10.81435,2.25666,3.73758,4.31826,12.60097,-4.80017,2.09676,2.54317,-3.38717,0.12098,0.49993,2.67998,-1.08903,0.12582,-0.19398,0.12238,-0.20767,0.37177,0.02511
826,-5.29757,1.62315,-1.38024,-16.71524,-1.96514,-7.38242,1.00679,11.80165,-5.45071,-49.2975,13.25972,-6.50068,-12.98135,27.82668,-5.76014,-36.85527,-21.57823,-11.57129,-45.71769,43.91503,-22.43983,46.3027,-15.81826,22.15086,2.23219,3.57881,4.57036,9.8722,-4.7436,-1.1019,2.68963,-3.67582,0.37486,1.25965,3.6116,-1.75478,0.19603,-0.27005,0.21377,0.02067,0.64801,-0.12809
827,-4.99918,-2.15987,-0.43949,-17.72117,-0.92426,-7.05992,0.57431,-1.35376,-1.19393,-53.57169,11.90935,-7.66398,-12.40107,24.39351,-5.04563,-34.31651,-19.72504,-10.68819,-58.85606,20.55884,-12.89384,51.16877,-38.35331,28.15026,3.38937,2.04619,3.1847,8.56306,-2.67224,-1.08562,1.67026,-2.66883,0.62185,3.12058,3.06332,-1.36401,0.24573,-0.18099,0.19373,0.60369,0.64596,-0.26189
828,-6.15566,-5.9772,0.94226,-18.02324,1.77164,-6.58,-7.58741,-13.71629,5.03454,-51.20138,20.90401,-5.39496,-11.55966,20.78516,-4.33939,-32.42372,-18.04305,-9.67601,-65.24058,15.20333,0.59427,55.68618,-48.26625,25.54071,4.76198,0.2922,1.17325,8.14372,-1.56224,1.82486,0.32493,-1.18165,0.56768,3.40654,0.8749,0.03862,0.28117,0.00247,0.03195,0.69535,0.17825,-0.16369
829,-7.95119,-8.45491,1.76304,-17.49508,2.81103,-5.99426,-16.38012,-16.35125,7.08526,-43.78704,26.65017,-2.90436,-10.72691,17.48886,-3.76073,-30.52518,-16.64977,-8.67397,-57.04428,24.24242,4.20615,58.00008,-30.24079,15.96334,5.99293,-1.33637,-0.47263,7.17899,-2.76,4.6096,-0.36765,-0.46871,0.23882,1.42275,-1.52431,1.40744,0.2524,0.10312,-0.14664,0.02691,-0.49794,0.12561
830,-9.19803,-9.8861,1.87699,-17.42747,0.18986,-5.5643,-21.2681,-13.11964,4.69446,-38.47912,17.68257,-3.94236,-10.11168,14.69529,-3.26718,-28.27926,-15.37858,-7.81937,-43.67992,24.78502,-5.21178,48.87589,-2.97661,7.39151,7.0438,-2.40308,-0.85169,6.52029,-4.2218,5.59723,-0.18279,-1.11551,0.05609,-0.82026,-2.32777,1.66798,0.1558,-0.01525,-0.16119,-0.71997,-0.83402,0.34016
831,-8.76937,-11.3395,1.82033,-18.51025,-3.29088,-5.3252,-22.04802,-12.4527,1.96415,-40.54665,2.66331,-7.50183,-9.64506,12.22212,-2.69459,-26.08672,-13.99632,-7.06059,-40.79979,10.74793,-16.57838,35.40365,4.24058,5.08914,7.50534,-1.8491,0.21518,6.92958,-4.01145,5.05877,0.70769,-2.40542,0.11283,-1.00505,-1.47171,1.10185,0.13523,-0.22494,-0.03491,-0.74005,-0.67123,0.33126
832,-7.08912,-12.40417,1.82843,-18.8937,-3.99601,-4.84023,-21.90304,-13.3028,0.73056,-42.50766,-1.93115,-7.54395,-9.16657,9.96101,-2.01409,-24.17575,-12.52441,-6.28798,-46.39168,4.24312,-18.54281,27.2411,-10.84495,6.59045,6.49432,0.5687,1.81983,7.34976,-3.23101,3.07465,1.9131,-3.05158,0.06157,0.77367,-0.00702,0.35443,0.25289,-0.26845,0.05513,-0.10114,-0.26954,0.1497
833,-5.69592,-13.58568,1.99027,-16.47631,-1.63002,-3.74673,-22.87563,-13.06491,0.19801,-32.47975,5.41325,-1.51558,-8.60238,7.67894,-1.34902,-22.46157,-11.14536,-5.51172,-41.6703,16.37235,-11.55997,18.91685,-27.98231,8.64754,3.82323,3.36478,3.14777,7.23269,-3.57747,0.65594,2.82962,-2.95042,-0.12339,2.72609,0.97549,-0.12643,0.37917,-0.15237,0.05949,0.53896,0.02092,-0.03501
834,-5.68138,-16.03247,2.53419,-12.9513,0.32409,-2.64485,-24.67283,-13.8755,0.88179,-15.23682,9.59075,3.22328,-7.99786,5.13158,-0.80613,-21.09641,-9.99529,-4.85794,-23.88417,27.40236,-5.96305,10.4525,-33.4984,10.63942,0.97937,4.28618,3.81577,7.67345,-4.54435,0.38543,2.85415,-2.87399,-0.03028,3.57228,0.78678,0.15926,0.36001,-0.09771,0.08335,0.73301,-0.01411,-0.04802
835,-6.86548,-19.62559,3.54262,-12.44584,-0.75476,-2.55813,-27.14321,-19.40604,4.26588,-8.34883,1.86816,-0.6242,-7.47155,2.58264,-0.40112,-20.30373,-9.16434,-4.41926,-14.05832,16.70933,-7.87381,15.11926,-27.64272,10.81212,0.49331,2.4671,3.33445,8.61491,-4.99211,2.12333,1.83545,-2.82368,0.43214,3.30507,0.04909,0.93376,0.18655,-0.18464,0.16932,0.48557,-0.21294,0.09468
836,-7.8384,-22.78553,4.4788,-16.11043,-2.82406,-3.37629,-28.32456,-27.1201,8.14067,-19.28856,-7.9121,-8.68162,-7.09476,0.52528,-0.05631,-19.84197,-8.5875,-4.09763,-25.53292,-4.83715,-12.56135,30.43598,-14.69461,8.82889,3.75053,-0.46513,1.82176,8.31713,-4.95376,2.50549,0.44439,-2.43332,0.82577,2.40851,0.12349,0.95378,0.02758,-0.30743,0.22008,0.05422,-0.20188,0.16128
837,-7.95611,-24.07465,4.70472,-20.06665,-2.80216,-3.80166,-25.38323,-29.4941,8.11952,-35.00548,-7.9105,-10.62974,-6.92252,-0.98881,0.31717,-19.12311,-8.02002,-3.7188,-42.03966,-11.02263,-12.3573,35.88982,-4.32761,8.58583,8.80803,-2.41472,0.18514,6.49184,-4.8114,0.96892,-0.33063,-1.89004,0.79699,1.17184,0.75566,-0.00306,0.0479,-0.35628,0.15705,-0.30144,-0.00211,0.04297
838,-7.61707,-24.03666,4.39705,-20.17153,-0.69616,-3.13537,-18.44321,-24.56093,4.41771,-36.59507,0.7484,-4.03279,-7.01407,-2.3696,0.75787,-17.9613,-7.349,-3.29045,-35.75051,5.03413,-6.14132,22.33682,-7.17033,10.33782,11.66889,-3.05861,-1.14889,4.69,-4.62537,0.10942,-0.44807,-1.06211,0.44294,-0.21305,0.71668,-0.82033,0.12749,-0.22966,0.02165,-0.46337,0.09829,-0.11837
839,-6.40074,-24.68358,4.29545,-17.53082,1.86304,-2.22449,-11.18934,-17.77779,2.03862,-24.24357,10.0809,2.95602,-7.27396,-3.95981,1.25871,-16.8323,-6.68801,-2.94284,-8.64695,29.14433,-0.23023,3.00062,-18.2272,8.14242,10.72988,-3.07356,-2.19422,4.41937,-4.42521,0.61326,-0.46265,0.2475,0.04191,-0.76781,0.40111,-0.87664,0.06338,0.09042,-0.10798,-0.34223,0.11507,-0.15836
840,-4.89757,-26.89057,4.77034,-15.15494,3.12567,-1.92371,-10.85844,-14.28822,3.69239,-11.84273,11.13055,2.44904,-7.51864,-5.56595,1.69513,-16.05388,-6.1485,-2.73087,9.17454,39.99922,-2.45337,-3.80031,-23.77662,1.19141,8.18068,-2.53859,-2.25029,5.82801,-3.95221,1.58938,-0.08711,0.8734,-0.18909,0.26276,0.5178,-0.31843,-0.01171,0.3744,-0.17084,0.00354,0.11028,-0.05091
841,-4.93266,-29.92156,5.52689,-14.47409,2.40873,-2.05045,-17.43004,-16.5503,6.63008,-8.61056,1.43155,-3.53489,-7.65014,-6.68687,1.93878,-15.47039,-5.70536,-2.57808,4.65496,27.37825,-10.7772,4.06692,-21.81388,-2.18344,6.41144,-1.02656,-0.29267,7.26982,-3.05152,2.41638,1.08122,-0.63581,-0.0137,1.82935,0.58836,0.34057,0.14243,0.30036,-0.0874,0.27843,0.02027,0.06432
842,-6.27731,-32.45483,5.99114,-15.5377,1.16393,-2.15978,-19.17105,-22.98015,7.17322,-13.91137,-8.03163,-6.85819,-7.67686,-7.15883,2.02993,-14.88524,-5.31749,-2.41989,-3.57098,9.39827,-13.16687,15.87005,-19.97096,3.1343,5.44485,0.8767,2.75629,6.95999,-2.40823,2.35888,2.25534,-3.42562,0.49599,2.48469,0.28404,0.59389,0.43209,-0.13187,0.11585,0.33789,-0.10338,0.07218
843,-7.30335,-35.14388,6.19936,-16.66385,1.85882,-2.05346,-13.34381,-31.85167,6.03071,-19.38765,-4.51638,-3.98126,-7.63987,-7.43891,2.07516,-14.20907,-4.9353,-2.24696,-0.82655,7.30877,-4.50051,23.97141,-19.53382,11.89163,4.53215,1.31552,4.07268,5.61053,-2.69384,1.49475,2.34866,-4.92537,0.79499,2.10819,0.156,0.42644,0.55271,-0.54468,0.24863,0.29819,-0.13043,0.04516
844,-7.838,-38.23072,6.53716,-16.883,3.18229,-2.10262,-13.12433,-39.18328,5.98063,-21.37072,5.69398,-0.94563,-7.52059,-7.97005,2.14644,-13.48257,-4.61727,-2.12821,-1.45414,14.79322,2.88516,25.89202,-14.23311,16.0432,4.17112,-0.3771,2.45884,5.87951,-3.676,0.65746,1.31189,-3.97214,0.58435,1.87216,0.90345,-0.04296,0.37515,-0.59049,0.1836,0.34346,0.01591,0.0308
845,-8.90709,-40.25907,7.02588,-16.619,2.34932,-2.4861,-25.26422,-41.43396,7.20427,-23.17025,8.80929,-2.50928,-7.30154,-8.61159,2.26248,-12.76648,-4.43194,-2.08036,-19.26271,14.96745,-0.61937,20.02642,-6.98271,13.57218,4.78602,-2.22727,-0.08615,7.98384,-4.42334,0.53375,0.12183,-1.80724,0.18394,2.21196,1.87466,-0.57323,0.07779,-0.29241,0.0171,0.43153,0.16757,-0.01082
846,-9.78767,-41.02891,7.35655,-16.18804,0.97299,-2.57207,-36.41213,-41.76464,7.76927,-24.37722,4.96373,-4.42709,-7.03171,-9.02183,2.44315,-12.0859,-4.23451,-1.97755,-35.70703,6.39763,-6.98668,6.19343,-10.21633,8.11253,5.21222,-2.02192,-0.97594,8.91292,-4.21197,1.41379,0.0639,-0.47728,-0.05365,1.87512,1.55125,-0.66194,-0.00208,0.00681,-0.062,0.26659,0.02836,-0.01995
847,-8.90677,-41.73535,7.37457,-14.55133,1.87542,-1.8291,-33.33771,-43.21548,6.98457,-17.9066,2.04299,-1.96737,-6.80485,-9.26771,2.68266,-11.37335,-3.89722,-1.7939,-23.18852,0.3088,-6.8981,-9.75545,-19.25451,1.79562,4.81248,-0.39752,-0.05644,7.09787,-3.52221,2.48544,1.09183,-0.69437,-0.04891,0.43124,0.08284,-0.21155,0.19081,0.05363,0.00348,-0.16014,-0.3237,0.06862
848,-6.71875,-42.81017,7.22093,-12.46653,3.50979,-1.0303,-21.49385,-44.34714,5.95116,-7.14441,0.18111,0.9516,-6.69459,-9.66514,2.9021,-10.67637,-3.54811,-1.66882,7.82768,-0.67731,-4.51464,-13.80348,-14.78209,-5.47678,5.39589,0.08887,0.6112,4.58885,-3.37436,2.34191,1.5907,-1.27115,0.11147,-0.66437,-0.62949,0.15932,0.34169,-0.01412,0.06767,-0.45001,-0.41283,0.14366
849,-5.49807,-43.66012,7.11238,-12.53578,3.2227,-1.18239,-15.93717,-44.0168,5.61297,-5.43724,-3.44579,-1.09008,-6.7326,-10.24232,2.99972,-10.12325,-3.28512,-1.59215,20.02658,-1.12858,-6.46832,1.56019,-2.74437,-8.25126,8.00228,-1.03962,0.14006,4.53724,-4.07768,1.52174,0.78782,-1.23474,0.34778,-0.3287,0.06057,0.12553,0.25826,0.0097,0.02937,-0.36666,-0.11956,0.11203
850,-5.60926,-44.13586,7.17283,-15.54309,1.89101,-2.13372,-19.87934,-41.70037,6.35713,-18.04884,-4.49907,-6.3894,-6.84968,-10.82442,3.00042,-9.71611,-3.03069,-1.38349,-0.21214,5.15197,-9.69368,20.61668,-8.96376,0.25647,9.90543,-1.73288,-0.00544,7.1207,-4.81511,1.5527,-0.16126,-1.29232,0.6136,0.69258,1.04883,-0.1437,0.08992,0.00646,0.00649,-0.10497,0.2166,0.01105
851,-5.40993,-44.63782,7.40345,-18.74091,1.29448,-2.94896,-24.0681,-37.12594,8.43203,-33.11032,0.80609,-9.36251,-6.93333,-11.31029,3.0083,-9.33777,-2.79377,-1.06116,-26.98218,23.2248,-7.58396,18.71194,-31.4295,14.66417,8.11143,-0.82457,1.06065,8.66743,-4.47475,1.86542,-0.02467,-2.17157,0.68602,1.23473,1.39158,-0.47097,0.05072,-0.19188,0.07849,0.08209,0.35013,-0.10818
852,-4.5683,-45.27296,7.65791,-18.73013,1.02029,-2.9342,-23.46329,-33.53772,10.68018,-34.08437,6.6417,-7.22216,-6.97338,-11.50641,3.05311,-8.9257,-2.65281,-0.85984,-29.08614,37.3856,-0.45975,-3.38658,-42.31128,21.22887,4.04115,0.81908,2.14177,6.90951,-3.52972,0.79649,0.67696,-2.85281,0.39328,1.38763,1.20148,-0.72744,0.12202,-0.36516,0.10224,0.17247,0.28404,-0.20027
853,-3.94631,-45.84908,7.68893,-16.0078,0.08225,-2.25805,-21.68549,-34.31292,10.51315,-20.95669,4.76909,-2.45325,-6.99658,-11.25177,3.13317,-8.51307,-2.55,-0.86662,-7.51095,30.39522,3.89793,-17.40875,-31.8259,16.37572,1.81184,1.74318,2.02725,4.35718,-3.45418,-0.98547,0.65613,-2.17711,0.05728,1.71642,0.89911,-0.67661,0.12081,-0.2276,-0.00493,0.2041,0.07173,-0.18428
854,-3.95282,-46.96902,7.51266,-12.72307,-1.03234,-1.38689,-23.37906,-39.92036,7.42792,-5.52911,-4.39648,0.71062,-6.94684,-10.91501,3.24122,-7.89952,-2.34868,-0.87354,13.96486,7.03268,0.10036,-8.80899,-13.84531,9.85825,3.00807,1.04576,0.96143,3.95066,-4.07275,-1.044,0.0477,-0.92341,0.03638,1.81,0.49092,-0.21457,0.03816,0.06847,-0.10886,0.11914,-0.19497,-0.03573
855,-3.89751,-48.39339,7.28577,-10.30453,-1.7525,-0.80719,-27.06594,-45.81751,4.20931,1.94729,-13.30109,-0.04785,-6.77472,-10.98214,3.32932,-6.99976,-2.074,-0.70877,18.04501,-11.38206,-8.57289,4.06006,-3.18371,8.64651,5.45968,-0.77735,-0.05134,5.31364,-4.16587,0.88536,-0.10971,-0.54455,0.20044,1.28418,0.05786,0.34246,0.01218,0.19031,-0.09952,-0.01631,-0.34566,0.13856
856,-2.63905,-48.17307,6.96052,-9.62127,-1.82593,-0.824,-26.19292,-44.77199,3.43508,-0.15528,-13.79103,-2.63788,-6.55432,-11.31723,3.35122,-6.22634,-1.83242,-0.46392,10.53655,-6.02632,-12.65008,4.46877,-8.40365,9.52708,6.52222,-2.04698,-0.18858,6.62521,-3.78581,2.64812,0.215,-1.23029,0.35092,0.61728,-0.06595,0.57492,0.03442,0.0611,-0.01347,-0.05543,-0.32777,0.22772
857,-1.3235,-46.35912,6.71753,-10.06135,-0.88724,-1.09843,-20.87948,-38.859,5.27827,-3.61575,-5.38116,-3.13558,-6.37898,-11.541,3.28573,-5.86904,-1.60578,-0.27249,7.92111,15.28557,-6.88842,-0.43557,-23.39393,7.72194,5.63916,-1.63999,0.34817,7.07371,-3.68728,2.79004,0.49067,-1.86465,0.35429,0.08264,0.3447,0.23598,0.02997,-0.11358,0.05106,-0.06465,-0.16498,0.18988
858,-2.35523,-45.01553,6.93332,-11.39506,-0.14568,-1.41222,-19.80314,-37.3498,8.31262,-5.94588,1.4498,-2.64555,-6.17019,-11.54481,3.19519,-5.78147,-1.41456,-0.15637,6.09491,23.22063,1.06188,-1.435,-25.78126,3.0376,4.50315,-0.29144,0.56657,7.23722,-4.18081,1.68435,0.72539,-1.55073,0.12186,0.04962,1.04069,-0.43955,0.05687,-0.12667,0.04214,-0.0521,0.09153,0.02944
859,-4.97558,-45.60382,7.48867,-13.67159,-0.66007,-1.72699,-25.37442,-44.67854,10.40299,-12.15302,0.34259,-3.64079,-5.82154,-11.35269,3.185,-5.68629,-1.27449,-0.02529,-6.48382,6.57147,2.66467,-2.28493,-6.56335,-2.1778,5.17116,-0.02897,-0.18441,7.80689,-4.99306,0.85962,1.02157,-0.66578,-0.15401,0.82347,1.17408,-0.72261,0.1826,-0.01157,-0.00172,0.06573,0.21912,-0.13849
860,-6.11107,-47.32534,7.71687,-15.39035,-1.34335,-1.72345,-29.02654,-53.37374,9.69594,-19.13643,-3.71899,-4.52056,-5.48438,-11.00545,3.24284,-5.42936,-1.0652,0.2056,-17.13867,-12.11257,-0.48468,-5.7627,12.67076,-5.0108,7.29631,-1.73304,-1.40757,8.23082,-5.13219,1.3226,0.93593,-0.20832,-0.11592,1.58301,0.46499,-0.31499,0.27493,0.05188,-0.01438,0.15744,0.10265,-0.16955
861,-5.22643,-47.42029,7.30078,-15.19827,-0.89267,-1.286,-26.26932,-51.32442,6.95921,-17.57642,-5.48859,-3.46862,-5.38877,-10.65479,3.26135,-5.08265,-0.75489,0.47419,-8.46111,-8.48045,-3.65775,-6.13136,10.26342,-4.05585,8.6126,-3.33261,-1.72034,7.4388,-4.2147,1.95392,0.18343,-0.49456,0.29384,1.56872,-0.06065,0.23141,0.1641,0.02762,0.00883,0.09575,-0.05837,-0.05545
862,-4.38717,-44.80612,6.71598,-13.31715,0.33478,-0.71547,-22.52796,-38.75435,5.27871,-6.23072,-5.32359,-1.52044,-5.51826,-10.43186,3.21356,-4.7928,-0.5132,0.62977,12.99056,12.17108,-5.03379,-2.91816,-7.71825,-1.66885,8.34722,-2.28999,-0.28895,5.2778,-3.42168,0.78853,-0.65962,-1.13195,0.82407,1.31349,0.46325,0.32137,-0.05321,0.01068,0.04525,0.01273,-0.10294,0.09064
863,-4.09057,-42.16194,6.44988,-11.24132,1.50131,-0.2857,-21.05133,-29.33575,5.77569,3.81967,-4.36191,-0.13086,-5.73344,-10.26431,3.18425,-4.57082,-0.39584,0.6536,26.83932,26.3552,-4.07898,-4.03239,-24.4431,-1.27913,7.49594,0.27974,1.56727,3.25849,-3.70391,-1.7733,-0.8564,-1.56161,1.09323,1.54827,1.51971,-0.01,-0.12968,0.03111,0.06673,0.04812,-0.08392,0.14883
864,-3.18772,-41.46143,6.30672,-10.75381,1.95948,-0.10462,-18.24783,-30.00495,6.20843,2.06427,-4.55959,-0.15857,-6.0237,-9.99253,3.20947,-4.35741,-0.25482,0.68867,25.13425,22.99509,-2.44703,-9.98688,-34.82441,-1.61624,6.34985,1.00071,1.69623,3.44611,-4.29824,-2.63381,-0.41177,-1.44778,0.83451,1.78739,1.91364,-0.27427,-0.01017,0.01754,0.04291,0.07031,-0.0878,0.1221
865,-2.14187,-41.38857,6.01616,-11.98565,0.58358,-0.28127,-14.36151,-34.17974,5.27833,-8.89032,-9.06345,-2.47957,-6.3673,-9.63518,3.20995,-4.21592,-0.12391,0.7742,13.02308,9.07377,-3.69039,-9.01067,-36.3756,0.93983,4.6701,-0.69818,0.04623,5.59381,-4.11594,-0.65872,0.32844,-0.98559,0.17192,1.19675,1.46303,-0.30596,0.17435,-0.07006,-0.00707,-0.09451,-0.06679,0.08373
866,-2.53555,-41.45742,5.90614,-12.93055,-1.97584,-0.69879,-15.70832,-37.92431,4.85558,-17.83032,-14.10791,-5.81553,-6.5772,-9.3293,3.12706,-4.25537,-0.18199,0.77961,-2.79204,-3.76563,-6.80404,6.02176,-22.67605,4.69348,3.34883,-2.33482,-1.2635,6.99509,-3.41013,0.90272,1.1024,-0.90923,-0.36705,0.40946,1.3454,-0.53283,0.28566,-0.18846,-0.01554,-0.2565,0.12398,0.00348
867,-4.36286,-42.50208,6.23723,-11.51121,-2.38712,-0.77708,-22.3916,-43.60768,6.19915,-15.17014,-11.00598,-6.16676,-6.55899,-9.00669,2.99629,-4.4281,-0.29897,0.68593,-8.4206,-7.1463,-5.75946,19.90636,-0.34917,5.41916,3.56656,-2.13964,-0.92296,6.25215,-3.17478,-0.14435,1.53866,-1.44488,-0.42932,0.42256,1.90009,-1.03057,0.25294,-0.2238,0.00828,-0.1559,0.38515,-0.13853
868,-5.66893,-42.87169,6.50693,-8.27557,0.10943,-0.25071,-26.05984,-47.64463,7.71503,-2.71376,-1.56676,-3.01609,-6.45148,-8.52276,2.88549,-4.64298,-0.21246,0.64644,4.92145,-0.62527,-0.25207,11.75747,9.26108,3.94942,5.04979,-0.54635,0.34895,5.11777,-3.79842,-1.67056,1.26116,-1.90422,-0.11993,1.1056,2.01445,-1.17094,0.11239,-0.11662,-0.00231,0.12851,0.40712,-0.2317
869,-5.05403,-40.56965,6.21543,-5.7843,2.50431,0.41526,-23.12004,-44.15804,7.95037,6.53232,4.55167,-0.45703,-6.39306,-7.95224,2.81295,-4.89372,0.05202,0.76312,21.00046,9.41676,3.3796,-11.87957,-3.88319,3.31207,6.38282,0.63958,1.15784,4.87801,-4.54529,-1.35053,0.41957,-1.80285,0.31199,1.69943,0.97566,-0.56683,0.00158,0.00759,-0.02666,0.32229,0.09848,-0.18158
870,-3.87432,-37.48058,5.69705,-5.60222,2.8186,0.69866,-20.17776,-37.63476,7.49485,3.89879,4.36954,-0.58442,-6.4083,-7.3577,2.72256,-5.21786,0.22315,0.91203,19.15406,15.2065,2.51971,-26.11861,-22.99279,2.13419,6.65085,-0.12433,0.50174,4.34727,-4.15792,0.01322,-0.12988,-1.16941,0.50624,1.65724,-0.3841,0.21459,0.04446,0.05679,-0.02584,0.26102,-0.27263,-0.054
871,-4.08511,-36.73602,5.51434,-7.53436,1.95644,0.50276,-22.29963,-36.54226,7.24595,-6.36176,2.26501,-1.5214,-6.50812,-6.61374,2.56952,-5.7062,0.15019,0.88349,2.27939,13.77611,0.7107,-22.9291,-25.06349,-1.44192,6.25341,-2.0112,-1.07735,3.59177,-2.82174,0.73636,0.23842,-0.39303,0.26785,1.1583,-0.69503,0.41384,0.19784,0.09625,-0.02183,0.04296,-0.42808,0.04926
872,-4.97349,-38.18784,5.60155,-10.62281,1.82702,0.14189,-25.0286,-39.66179,6.93122,-14.24483,1.87862,-0.98772,-6.6723,-5.71803,2.41979,-6.4147,0.02978,0.69268,-9.62915,11.07702,1.16656,-10.56764,-11.80225,-4.56328,5.96749,-2.56832,-1.58098,5.04255,-2.52014,0.92778,0.95606,-0.30383,0.00862,0.92242,0.20046,0.1272,0.28605,0.0846,0.00141,-0.07767,-0.39993,0.12541
873,-4.68597,-39.06239,5.47834,-13.50979,2.54666,-0.0409,-22.63013,-39.25583,5.72615,-13.79611,0.08547,0.40169,-6.80344,-4.81705,2.35132,-7.22047,0.05728,0.48856,-3.26307,11.20635,1.18257,7.33245,-3.75443,-4.68355,5.9625,-1.27353,-0.29862,8.59055,-4.1139,1.18316,1.07459,-1.21951,0.16062,1.26056,1.18592,-0.12235,0.23462,-0.08812,0.0724,0.03139,-0.33832,0.15895
874,-3.45035,-38.27783,5.05996,-14.60805,3.13272,0.02733,-17.23434,-34.53429,4.1135,-7.86253,-4.52863,0.71741,-6.81682,-4.00355,2.28822,-7.87119,0.16022,0.34414,12.94069,11.33049,-2.19123,24.9789,-7.36743,-2.78939,5.99357,0.03975,1.07822,10.26977,-5.86751,0.93061,0.60382,-2.15289,0.45593,1.46746,1.50359,-0.31193,0.14872,-0.2762,0.11195,0.17626,-0.21767,0.09585
875,-3.26206,-37.00469,4.75704,-14.1372,2.85143,-0.01131,-16.30537,-30.96692,3.79706,-5.5153,-6.59867,-0.78345,-6.71839,-3.31963,2.10394,-8.2998,0.1119,0.24988,16.02489,10.72506,-6.37953,25.17251,-12.0029,0.4162,5.93603,0.16937,1.05534,7.90089,-5.76534,-0.06867,0.13481,-2.00894,0.4827,0.76494,1.39423,-0.60952,0.10792,-0.2313,0.04919,0.06333,0.0079,-0.01596
876,-5.18776,-35.84835,4.78502,-13.37039,1.99268,-0.20909,-22.53735,-31.40648,4.89763,-7.8738,-3.44046,-2.14546,-6.60405,-2.67969,1.8313,-8.69084,-0.12899,0.22301,2.44432,11.34627,-6.64831,5.288,-14.55554,4.45695,5.80518,-0.35658,-0.08944,4.73077,-4.0071,-0.6441,0.06849,-0.84604,0.19167,0.03023,1.31076,-0.75,0.09719,0.04281,-0.06793,-0.14851,0.23316,-0.08279
877,-7.83456,-34.56675,4.89378,-12.58304,1.89293,-0.08184,-28.99934,-34.46086,5.64233,-7.0588,1.11296,-0.93377,-6.56974,-1.88741,1.61924,-9.21503,-0.32247,0.27206,-5.30805,12.97808,-2.22691,-11.23979,-22.25929,7.24445,5.57564,-0.70604,-1.13421,4.65191,-2.3746,0.04573,0.33917,0.22039,-0.16193,0.49185,1.37957,-0.49002,0.08066,0.27798,-0.13956,-0.09306,0.34514,-0.08335
878,-8.58894,-33.40501,4.8034,-11.86639,2.52684,0.26964,-27.13161,-37.42561,5.27087,-3.22326,2.11818,1.01819,-6.62663,-0.84566,1.54783,-9.85526,-0.38204,0.23149,3.42598,12.39076,1.8892,-9.18814,-31.23169,6.81394,5.61423,-0.84702,-1.07146,6.60058,-2.08722,1.13461,0.58256,-0.03931,-0.14781,1.60745,1.31233,0.00024,0.06489,0.19067,-0.07806,0.17769,0.27593,-0.03166
879,-6.89505,-32.81918,4.55823,-11.45187,2.86155,0.38171,-19.3358,-39.2194,4.7911,-3.55253,-1.16974,0.59244,-6.77086,0.3814,1.55475,-10.48107,-0.4154,-0.01452,13.26757,6.05585,1.51437,0.18732,-25.86943,3.38711,6.25013,-0.99102,-0.14656,6.93694,-3.0745,1.01447,0.71325,-1.38206,0.23886,1.89947,1.02065,0.25801,0.11448,-0.13791,0.07201,0.28649,0.08376,0.03594
880,-5.18275,-32.71028,4.39844,-11.27416,3.33643,0.39083,-16.69517,-40.07985,5.10307,-8.24436,-3.2618,-0.57996,-7.03564,1.57833,1.51117,-11.04055,-0.45314,-0.29362,9.00086,-1.58989,-0.49376,4.29708,-8.18044,-0.5823,6.55318,-0.98863,0.44002,5.00186,-4.45805,-0.48141,0.85733,-2.19211,0.42617,1.25193,0.7465,0.12141,0.19958,-0.31365,0.13523,0.13098,-0.10073,0.07312
881,-5.23202,-32.49435,4.3636,-11.29857,4.56238,0.51624,-22.04807,-39.10806,5.66938,-11.83794,0.21854,0.12362,-7.40658,2.59866,1.36907,-11.57913,-0.54178,-0.44772,-4.34127,-0.67185,-0.8797,3.56887,0.51428,-1.97745,5.63176,-0.88181,0.09443,3.23224,-4.91489,-1.56294,1.03629,-1.75947,0.11701,0.68644,0.53924,-0.10195,0.19953,-0.17801,0.04944,-0.04731,-0.20365,0.06009
882,-6.12863,-31.70106,4.26244,-12.38642,5.14276,0.29415,-26.6129,-35.99592,5.47919,-14.51809,4.89271,0.39613,-7.78077,3.57641,1.19272,-12.16105,-0.7672,-0.58031,-14.55173,8.45346,-2.21178,1.01745,-7.80513,0.22317,4.43548,-0.82805,-0.56989,3.43552,-3.8457,-0.89038,1.08206,-0.86141,-0.2635,0.6022,0.4645,-0.19907,0.10026,0.07027,-0.06306,-0.1009,-0.16039,0.01186
883,-6.52397,-30.44978,4.05162,-14.20382,3.80869,-0.46418,-24.54675,-33.29965,4.8352,-17.78744,5.51032,-1.61768,-8.05665,4.6618,1.04543,-12.70859,-1.07318,-0.79179,-16.33965,15.92662,-4.48707,1.4335,-21.87154,2.97649,4.39007,-0.61342,-0.73949,4.99664,-2.63566,0.52806,0.96946,-0.32553,-0.28037,0.7875,0.62209,-0.15352,0.05564,0.22983,-0.09878,-0.09617,-0.01409,-0.01715
884,-6.66638,-29.32602,3.91109,-14.84591,1.90388,-1.00386,-21.59476,-33.50137,4.81779,-18.23876,3.77238,-2.70608,-8.27448,5.84718,0.91154,-13.16716,-1.30284,-0.99319,-13.29248,15.85746,-3.47949,10.56163,-27.6037,1.38025,5.20486,-0.40977,-0.55116,6.2653,-2.98626,1.07423,0.93456,-0.28219,-0.09951,1.16461,0.62863,0.04958,0.15392,0.24674,-0.07738,-0.07909,0.00992,-0.00131
885,-7.00842,-28.82224,3.91549,-13.83583,1.65935,-0.77445,-23.95172,-35.38746,5.3759,-14.50433,4.78047,-0.11615,-8.53725,7.12471,0.79191,-13.62722,-1.35482,-1.09031,-11.07523,14.29382,0.95233,20.59627,-15.49835,-4.81334,5.84103,-0.84476,-0.55508,6.57644,-4.122,0.79142,0.91583,-0.6314,0.0042,1.55139,0.2913,0.23342,0.24967,0.1172,-0.04493,-0.00079,-0.15761,0.0198
886,-7.11734,-28.87222,3.93584,-12.08549,3.13552,-0.1991,-27.14731,-36.25662,5.4958,-9.68501,10.56481,4.20136,-8.84079,8.48356,0.72957,-14.01451,-1.26068,-1.13222,-7.4305,20.38733,5.45512,15.54692,4.70079,-8.87608,6.52393,-1.66228,-0.63546,6.13656,-3.86455,0.55641,0.76483,-1.34549,0.06202,1.68458,0.19808,0.17545,0.2318,-0.12122,-0.00434,0.16397,-0.2734,0.0179
887,-6.88243,-28.74875,3.83415,-11.15204,4.12088,-0.07801,-24.5703,-35.28062,4.74088,-7.82677,14.75608,5.43673,-9.12593,9.84307,0.69715,-14.23768,-1.19701,-1.2306,-0.21869,27.93304,5.81108,-1.82376,4.63113,-4.67104,7.4409,-1.82232,-0.36647,5.40162,-2.18098,0.73401,0.68007,-2.08885,0.1426,1.52596,0.55381,-0.00094,0.1873,-0.32362,0.03966,0.30658,-0.16946,0.00367
888,-6.73699,-27.58492,3.57977,-11.89813,3.50113,-0.48428,-17.99522,-32.83564,3.57206,-8.87897,10.03831,2.042,-9.38587,11.15621,0.62175,-14.4087,-1.28028,-1.38822,7.3931,24.72655,0.13203,-11.67937,-19.08109,4.38042,7.32557,-1.21844,0.03332,5.20948,-1.22629,0.94824,0.76615,-2.20416,0.17226,1.30082,1.00162,-0.12308,0.187,-0.32207,0.05017,0.30072,0.085,-0.02926
889,-7.05493,-25.54032,3.27837,-13.58698,1.9215,-0.93142,-14.05847,-30.86232,2.69134,-10.76283,-2.10014,-2.80891,-9.67204,12.41206,0.47645,-14.6507,-1.45505,-1.54608,10.28782,9.19392,-7.84232,-5.96532,-33.52615,8.47815,5.57778,-0.75554,-0.06961,5.55028,-2.15773,0.34816,1.00041,-1.48266,0.0189,1.28648,1.47015,-0.19396,0.22883,-0.12825,0.01083,0.15788,0.29597,-0.05221
890,-7.83459,-23.89084,3.12495,-14.3089,0.55303,-1.05601,-16.15228,-31.82791,2.63078,-11.95584,-11.58877,-4.89842,-10.00686,13.56591,0.30983,-14.86101,-1.58723,-1.67217,6.05015,-7.89832,-11.33203,8.31065,-21.47189,3.76532,3.55056,-0.5166,-0.32445,5.48201,-3.96112,-1.14361,1.19638,-0.63326,-0.1529,1.57601,1.87462,-0.17179,0.25466,0.07032,-0.02574,0.04326,0.2662,-0.00312
891,-8.46565,-23.51451,3.22829,-13.70665,0.39429,-0.97991,-22.22538,-34.61979,3.49531,-13.06337,-8.85129,-2.8668,-10.30271,14.61476,0.2235,-14.92421,-1.59702,-1.75486,-4.73617,-10.035,-7.26104,23.27145,-3.07453,-3.61926,2.97543,0.07299,0.16208,5.13946,-5.00692,-1.90554,1.11007,-0.56792,-0.03163,1.7263,1.70774,-0.0704,0.20702,0.13802,-0.01765,0.04833,0.01827,0.07123
892,-8.29305,-24.03295,3.43906,-13.53303,1.77301,-0.9754,-27.1061,-36.98445,4.53409,-16.29412,5.06306,1.22581,-10.48973,15.6486,0.24986,-14.94403,-1.4726,-1.77134,-17.86257,6.47892,1.43565,27.09284,0.97034,-6.59942,4.48732,0.31075,0.80301,5.27483,-4.59856,-0.4054,0.96972,-1.29035,0.19733,1.1324,0.57564,0.04462,0.15627,0.08157,-0.00765,0.03082,-0.22025,0.06995
893,-7.68392,-24.43556,3.50578,-14.16014,3.52525,-0.99647,-27.40609,-40.00935,4.84138,-19.9252,16.88515,3.88422,-10.66121,16.71398,0.27534,-15.03571,-1.32027,-1.73872,-23.97649,20.7133,7.95256,11.77608,-7.56516,-4.94231,7.03363,-0.75887,0.31497,5.57298,-3.5518,1.88051,1.05004,-1.9022,0.12707,0.21302,-0.70728,0.08821,0.17789,-0.02371,-0.03707,-0.09297,-0.26534,-0.01117
894,-7.57138,-23.7948,3.36886,-14.26892,3.60887,-0.96802,-24.58697,-42.82798,4.50049,-20.4036,14.24357,2.55454,-10.9117,17.75165,0.19318,-15.17906,-1.31823,-1.72693,-19.35662,13.60207,6.33385,-5.43002,-18.57777,-1.92665,8.42248,-1.91944,-0.76571,5.37565,-3.08632,2.11782,1.09279,-1.75868,-0.11206,0.36927,-0.83499,0.11295,0.2083,-0.06722,-0.07615,-0.09401,-0.16206,-0.07521
895,-8.2082,-21.48819,3.09413,-13.06982,2.19609,-0.79191,-22.25487,-38.33245,3.85139,-16.89731,1.84214,-0.80079,-11.19083,18.74536,0.03466,-15.25275,-1.41796,-1.7008,-10.39218,0.5389,-1.5176,-3.51541,-25.49769,1.8308,7.30079,-1.37434,-0.96073,4.87415,-3.10903,0.58297,0.91845,-1.00238,-0.16459,1.60839,0.06908,0.28877,0.168,0.01823,-0.07391,0.1109,-0.09755,-0.02776
